skills/unified-director/assets/grade/luts/ad_warm_v17.cube
TITLE "ad_warm_v17"
LUT_3D_SIZE 5
DOMAIN_MIN 0.0 0.0 0.0
DOMAIN_MAX 1.0 1.0 1.0
0.044993 0.000000 0.000000
0.043361 0.000000 0.236964
0.041410 0.000000 0.521418
0.039498 0.000000 0.800002
0.037612 0.000000 1.000000
0.025406 0.269691 0.000000
0.023773 0.268059 0.217376
0.021822 0.266107 0.501830
0.019911 0.264196 0.780414
0.018024 0.262309 1.000000
0.006164 0.535516 0.000000
0.004532 0.533884 0.198135
0.002581 0.531932 0.482589
0.000669 0.530021 0.761173
0.000000 0.528134 1.000000
0.000000 0.796391 0.000000
0.000000 0.794759 0.179252
0.000000 0.792807 0.463706
0.000000 0.790896 0.742290
0.000000 0.789009 1.000000
0.000000 1.000000 0.000000
0.000000 1.000000 0.162433
0.000000 1.000000 0.446887
0.000000 1.000000 0.725470
0.000000 1.000000 1.000000
0.333727 0.000000 0.000000
0.332094 0.000000 0.231052
0.330143 0.000000 0.515506
0.328232 0.000000 0.794090
0.326345 0.000000 1.000000
0.314139 0.263779 0.000000
0.312507 0.262147 0.211464
0.310555 0.260196 0.495918
0.308644 0.258284 0.774502
0.306757 0.256398 1.000000
0.294898 0.529604 0.000000
0.293266 0.527972 0.192223
0.291314 0.526020 0.476677
0.289403 0.524109 0.755261
0.287516 0.522222 1.000000
0.276015 0.790479 0.000000
0.274383 0.788847 0.173340
0.272431 0.786896 0.457794
0.270520 0.784984 0.736378
0.268633 0.783098 1.000000
0.259195 1.000000 0.000000
0.257563 1.000000 0.156521
0.255612 1.000000 0.440975
0.253700 1.000000 0.719559
0.251814 1.000000 0.994568
0.611925 0.000000 0.000000
0.610293 0.000000 0.225356
0.608342 0.000000 0.509810
0.606430 0.000000 0.788394
0.604544 0.000000 1.000000
0.592337 0.258083 0.000000
0.590705 0.256451 0.205768
0.588754 0.254500 0.490222
0.586843 0.252588 0.768806
0.584956 0.250702 1.000000
0.573096 0.523908 0.000000
0.571464 0.522276 0.186527
0.569513 0.520324 0.470981
0.567601 0.518413 0.749565
0.565715 0.516526 1.000000
0.554213 0.784783 0.000000
0.552581 0.783151 0.167644
0.550630 0.781199 0.452098
0.548718 0.779288 0.730682
0.546832 0.777401 1.000000
0.537394 1.000000 0.000000
0.535762 1.000000 0.150825
0.533810 1.000000 0.435279
0.531899 1.000000 0.713862
0.530012 1.000000 0.988872
0.885401 0.000000 0.000000
0.883769 0.000000 0.219757
0.881817 0.000000 0.504211
0.879906 0.000000 0.782794
0.878019 0.000000 1.000000
0.865813 0.252484 0.000000
0.864181 0.250852 0.200169
0.862230 0.248900 0.484623
0.860318 0.246989 0.763207
0.858432 0.245102 1.000000
0.846572 0.518308 0.000000
0.844940 0.516676 0.180928
0.842989 0.514725 0.465382
0.841077 0.512813 0.743965
0.839191 0.510927 1.000000
0.827689 0.779184 0.000000
0.826057 0.777552 0.162045
0.824106 0.775600 0.446499
0.822194 0.773689 0.725082
0.820308 0.771802 1.000000
0.810870 1.000000 0.000000
0.809238 1.000000 0.145225
0.807286 1.000000 0.429679
0.805375 1.000000 0.708263
0.803488 1.000000 0.983273
1.000000 0.000000 0.000000
1.000000 0.000000 0.215730
1.000000 0.000000 0.500184
1.000000 0.000000 0.778768
1.000000 0.000000 1.000000
1.000000 0.248457 0.000000
1.000000 0.246825 0.196142
1.000000 0.244874 0.480596
1.000000 0.242962 0.759180
1.000000 0.241076 1.000000
1.000000 0.514282 0.000000
1.000000 0.512650 0.176901
1.000000 0.510698 0.461355
1.000000 0.508787 0.739939
1.000000 0.506900 1.000000
1.000000 0.775157 0.000000
1.000000 0.773525 0.158018
1.000000 0.771574 0.442472
1.000000 0.769662 0.721056
1.000000 0.767776 0.996066
1.000000 1.000000 0.000000
1.000000 1.000000 0.141199
1.000000 1.000000 0.425653
1.000000 1.000000 0.704236
1.000000 1.000000 0.979246
