skills/unified-director/assets/grade/luts/ad_warm_v17.cube
TITLE "ad_warm_v17"
LUT_3D_SIZE 9
DOMAIN_MIN 0.0 0.0 0.0
DOMAIN_MAX 1.0 1.0 1.0
0.044993 0.000000 0.000000
0.044368 0.000000 0.090260
0.043361 0.000000 0.236964
0.042379 0.000000 0.380186
0.041410 0.000000 0.521418
0.040450 0.000000 0.661250
0.039498 0.000000 0.800002
0.038553 0.000000 0.937876
0.037612 0.000000 1.000000
0.035272 0.133381 0.000000
0.034647 0.132756 0.080539
0.033640 0.131749 0.227243
0.032657 0.130767 0.370465
0.031688 0.129798 0.511697
0.030729 0.128838 0.651528
0.029777 0.127886 0.790281
0.028831 0.126941 0.928155
0.027890 0.126000 1.000000
0.025406 0.269691 0.000000
0.024780 0.269066 0.070673
0.023773 0.268059 0.217376
0.022791 0.267076 0.360599
0.021822 0.266107 0.501830
0.020863 0.265148 0.641662
0.019911 0.264196 0.780414
0.018965 0.263250 0.918288
0.018024 0.262309 1.000000
0.015726 0.403418 0.000000
0.015100 0.402792 0.060993
0.014094 0.401786 0.207697
0.013111 0.400803 0.350919
0.012142 0.399834 0.492151
0.011183 0.398875 0.631982
0.010231 0.397923 0.770734
0.009285 0.396977 0.908609
0.008344 0.396036 1.000000
0.006164 0.535516 0.000000
0.005539 0.534890 0.051431
0.004532 0.533884 0.198135
0.003550 0.532901 0.341357
0.002581 0.531932 0.482589
0.001621 0.530973 0.622421
0.000669 0.530021 0.761173
0.000000 0.529075 0.899047
0.000000 0.528134 1.000000
0.000000 0.666422 0.000000
0.000000 0.665797 0.041956
0.000000 0.664790 0.188660
0.000000 0.663808 0.331882
0.000000 0.662839 0.473114
0.000000 0.661880 0.612945
0.000000 0.660928 0.751697
0.000000 0.659982 0.889572
0.000000 0.659041 1.000000
0.000000 0.796391 0.000000
0.000000 0.795765 0.032548
0.000000 0.794759 0.179252
0.000000 0.793776 0.322474
0.000000 0.792807 0.463706
0.000000 0.791848 0.603538
0.000000 0.790896 0.742290
0.000000 0.789950 0.880164
0.000000 0.789009 1.000000
0.000000 0.925586 0.000000
0.000000 0.924961 0.023197
0.000000 0.923954 0.169901
0.000000 0.922972 0.313123
0.000000 0.922003 0.454355
0.000000 0.921043 0.594186
0.000000 0.920091 0.732938
0.000000 0.919145 0.870813
0.000000 0.918205 1.000000
0.000000 1.000000 0.000000
0.000000 1.000000 0.015729
0.000000 1.000000 0.162433
0.000000 1.000000 0.305655
0.000000 1.000000 0.446887
0.000000 1.000000 0.586718
0.000000 1.000000 0.725470
0.000000 1.000000 0.863345
0.000000 1.000000 1.000000
0.191618 0.000000 0.000000
0.190992 0.000000 0.087258
0.189986 0.000000 0.233962
0.189003 0.000000 0.377184
0.188034 0.000000 0.518416
0.187075 0.000000 0.658248
0.186123 0.000000 0.797000
0.185177 0.000000 0.934874
0.184236 0.000000 1.000000
0.181897 0.130379 0.000000
0.181271 0.129754 0.077537
0.180265 0.128747 0.224241
0.179282 0.127765 0.367463
0.178313 0.126796 0.508695
0.177354 0.125836 0.648526
0.176402 0.124884 0.787278
0.175456 0.123938 0.925153
0.174515 0.122998 1.000000
0.172030 0.266689 0.000000
0.171405 0.266063 0.067670
0.170398 0.265057 0.214374
0.169416 0.264074 0.357596
0.168447 0.263105 0.498828
0.167487 0.262146 0.638660
0.166535 0.261194 0.777412
0.165589 0.260248 0.915286
0.164649 0.259307 1.000000
0.162351 0.400416 0.000000
0.161725 0.399790 0.057991
0.160719 0.398784 0.204695
0.159736 0.397801 0.347917
0.158767 0.396832 0.489149
0.157808 0.395873 0.628980
0.156856 0.394921 0.767732
0.155910 0.393975 0.905607
0.154969 0.393034 1.000000
0.152789 0.532513 0.000000
0.152163 0.531888 0.048429
0.151157 0.530881 0.195133
0.150174 0.529899 0.338355
0.149205 0.528930 0.479587
0.148246 0.527971 0.619419
0.147294 0.527019 0.758171
0.146348 0.526073 0.896045
0.145407 0.525132 1.000000
0.143314 0.663420 0.000000
0.142688 0.662795 0.038954
0.141681 0.661788 0.185657
0.140699 0.660806 0.328880
0.139730 0.659837 0.470112
0.138771 0.658877 0.609943
0.137819 0.657925 0.748695
0.136873 0.656980 0.886570
0.135932 0.656039 1.000000
0.133906 0.793389 0.000000
0.133280 0.792763 0.029546
0.132274 0.791757 0.176250
0.131291 0.790774 0.319472
0.130322 0.789805 0.460704
0.129363 0.788846 0.600536
0.128411 0.787894 0.739288
0.127465 0.786948 0.877162
0.126524 0.786007 1.000000
0.124554 0.922584 0.000000
0.123929 0.921959 0.020195
0.122922 0.920952 0.166898
0.121940 0.919969 0.310121
0.120971 0.919000 0.451352
0.120012 0.918041 0.591184
0.119060 0.917089 0.729936
0.118114 0.916143 0.867811
0.117173 0.915202 1.000000
0.117087 1.000000 0.000000
0.116461 1.000000 0.012727
0.115455 1.000000 0.159431
0.114472 1.000000 0.302653
0.113503 1.000000 0.443885
0.112544 1.000000 0.583716
0.111592 1.000000 0.722468
0.110646 1.000000 0.860343
0.109705 1.000000 0.997478
0.333727 0.000000 0.000000
0.333101 0.000000 0.084348
0.332094 0.000000 0.231052
0.331112 0.000000 0.374275
0.330143 0.000000 0.515506
0.329184 0.000000 0.655338
0.328232 0.000000 0.794090
0.327286 0.000000 0.931964
0.326345 0.000000 1.000000
0.324005 0.127469 0.000000
0.323380 0.126844 0.074627
0.322373 0.125837 0.221331
0.321391 0.124855 0.364553
0.320422 0.123886 0.505785
0.319462 0.122927 0.645617
0.318510 0.121975 0.784369
0.317565 0.121029 0.922243
0.316624 0.120088 1.000000
0.314139 0.263779 0.000000
0.313513 0.263154 0.064761
0.312507 0.262147 0.211464
0.311524 0.261165 0.354687
0.310555 0.260196 0.495918
0.309596 0.259236 0.635750
0.308644 0.258284 0.774502
0.307698 0.257338 0.912377
0.306757 0.256398 1.000000
0.304459 0.397506 0.000000
0.303834 0.396880 0.055081
0.302827 0.395874 0.201785
0.301845 0.394891 0.345007
0.300876 0.393922 0.486239
0.299916 0.392963 0.626071
0.298964 0.392011 0.764823
0.298018 0.391065 0.902697
0.297078 0.390124 1.000000
0.294898 0.529604 0.000000
0.294272 0.528978 0.045519
0.293266 0.527972 0.192223
0.292283 0.526989 0.335446
0.291314 0.526020 0.476677
0.290355 0.525061 0.616509
0.289403 0.524109 0.755261
0.288457 0.523163 0.893135
0.287516 0.522222 1.000000
0.285422 0.660511 0.000000
0.284797 0.659885 0.036044
0.283790 0.658879 0.182748
0.282807 0.657896 0.325970
0.281839 0.656927 0.467202
0.280879 0.655968 0.607033
0.279927 0.655016 0.745786
0.278981 0.654070 0.883660
0.278041 0.653129 1.000000
0.276015 0.790479 0.000000
0.275389 0.789854 0.026637
0.274383 0.788847 0.173340
0.273400 0.787865 0.316563
0.272431 0.786896 0.457794
0.271472 0.785936 0.597626
0.270520 0.784984 0.736378
0.269574 0.784038 0.874252
0.268633 0.783098 1.000000
0.266663 0.919674 0.000000
0.266038 0.919049 0.017285
0.265031 0.918042 0.163989
0.264048 0.917060 0.307211
0.263079 0.916091 0.448443
0.262120 0.915131 0.588274
0.261168 0.914180 0.727026
0.260222 0.913234 0.864901
0.259281 0.912293 1.000000
0.259195 1.000000 0.000000
0.258570 1.000000 0.009817
0.257563 1.000000 0.156521
0.256581 1.000000 0.299743
0.255612 1.000000 0.440975
0.254652 1.000000 0.580806
0.253700 1.000000 0.719559
0.252754 1.000000 0.857433
0.251814 1.000000 0.994568
0.473584 0.000000 0.000000
0.472959 0.000000 0.081485
0.471952 0.000000 0.228189
0.470970 0.000000 0.371411
0.470001 0.000000 0.512643
0.469041 0.000000 0.652474
0.468089 0.000000 0.791226
0.467143 0.000000 0.929101
0.466203 0.000000 1.000000
0.463863 0.124606 0.000000
0.463237 0.123980 0.071764
0.462231 0.122974 0.218467
0.461248 0.121991 0.361690
0.460279 0.121022 0.502921
0.459320 0.120063 0.642753
0.458368 0.119111 0.781505
0.457422 0.118165 0.919380
0.456481 0.117224 1.000000
0.453997 0.260916 0.000000
0.453371 0.260290 0.061897
0.452364 0.259284 0.208601
0.451382 0.258301 0.351823
0.450413 0.257332 0.493055
0.449454 0.256373 0.632886
0.448502 0.255421 0.771639
0.447556 0.254475 0.909513
0.446615 0.253534 1.000000
0.444317 0.394642 0.000000
0.443691 0.394017 0.052218
0.442685 0.393010 0.198921
0.441702 0.392028 0.342144
0.440733 0.391059 0.483375
0.439774 0.390099 0.623207
0.438822 0.389147 0.761959
0.437876 0.388202 0.899833
0.436935 0.387261 1.000000
0.434755 0.526740 0.000000
0.434130 0.526115 0.042656
0.433123 0.525108 0.189360
0.432141 0.524126 0.332582
0.431172 0.523157 0.473814
0.430212 0.522197 0.613645
0.429260 0.521245 0.752397
0.428315 0.520299 0.890272
0.427374 0.519359 1.000000
0.425280 0.657647 0.000000
0.424654 0.657021 0.033180
0.423648 0.656015 0.179884
0.422665 0.655032 0.323107
0.421696 0.654063 0.464338
0.420737 0.653104 0.604170
0.419785 0.652152 0.742922
0.418839 0.651206 0.880796
0.417898 0.650265 1.000000
0.415872 0.787616 0.000000
0.415247 0.786990 0.023773
0.414240 0.785984 0.170477
0.413258 0.785001 0.313699
0.412289 0.784032 0.454931
0.411329 0.783073 0.594762
0.410377 0.782121 0.733514
0.409432 0.781175 0.871389
0.408491 0.780234 1.000000
0.406521 0.916811 0.000000
0.405895 0.916185 0.014421
0.404889 0.915179 0.161125
0.403906 0.914196 0.304347
0.402937 0.913227 0.445579
0.401978 0.912268 0.585411
0.401026 0.911316 0.724163
0.400080 0.910370 0.862037
0.399139 0.909429 0.999173
0.399053 1.000000 0.000000
0.398427 1.000000 0.006953
0.397421 1.000000 0.153657
0.396438 1.000000 0.296880
0.395469 1.000000 0.438111
0.394510 1.000000 0.577943
0.393558 1.000000 0.716695
0.392612 1.000000 0.854569
0.391671 1.000000 0.991705
0.611925 0.000000 0.000000
0.611300 0.000000 0.078652
0.610293 0.000000 0.225356
0.609311 0.000000 0.368578
0.608342 0.000000 0.509810
0.607382 0.000000 0.649642
0.606430 0.000000 0.788394
0.605484 0.000000 0.926268
0.604544 0.000000 1.000000
0.602204 0.121773 0.000000
0.601578 0.121148 0.068931
0.600572 0.120141 0.215635
0.599589 0.119159 0.358857
0.598620 0.118190 0.500089
0.597661 0.117230 0.639920
0.596709 0.116278 0.778673
0.595763 0.115333 0.916547
0.594822 0.114392 1.000000
0.592337 0.258083 0.000000
0.591712 0.257458 0.059065
0.590705 0.256451 0.205768
0.589723 0.255468 0.348991
0.588754 0.254500 0.490222
0.587794 0.253540 0.630054
0.586843 0.252588 0.768806
0.585897 0.251642 0.906680
0.584956 0.250702 1.000000
0.582658 0.391810 0.000000
0.582032 0.391184 0.049385
0.581026 0.390178 0.196089
0.580043 0.389195 0.339311
0.579074 0.388226 0.480543
0.578115 0.387267 0.620374
0.577163 0.386315 0.759126
0.576217 0.385369 0.897001
0.575276 0.384428 1.000000
0.573096 0.523908 0.000000
0.572471 0.523282 0.039823
0.571464 0.522276 0.186527
0.570482 0.521293 0.329749
0.569513 0.520324 0.470981
0.568553 0.519365 0.610813
0.567601 0.518413 0.749565
0.566655 0.517467 0.887439
0.565715 0.516526 1.000000
0.563621 0.654814 0.000000
0.562995 0.654189 0.030348
0.561989 0.653182 0.177052
0.561006 0.652200 0.320274
0.560037 0.651231 0.461506
0.559078 0.650272 0.601337
0.558126 0.649320 0.740089
0.557180 0.648374 0.877964
0.556239 0.647433 1.000000
0.554213 0.784783 0.000000
0.553588 0.784158 0.020940
0.552581 0.783151 0.167644
0.551599 0.782168 0.310866
0.550630 0.781199 0.452098
0.549670 0.780240 0.591930
0.548718 0.779288 0.730682
0.547772 0.778342 0.868556
0.546832 0.777401 1.000000
0.544862 0.913978 0.000000
0.544236 0.913353 0.011589
0.543230 0.912346 0.158293
0.542247 0.911364 0.301515
0.541278 0.910395 0.442747
0.540319 0.909435 0.582578
0.539367 0.908483 0.721330
0.538421 0.907537 0.859205
0.537480 0.906597 0.996340
0.537394 1.000000 0.000000
0.536768 1.000000 0.004121
0.535762 1.000000 0.150825
0.534779 1.000000 0.294047
0.533810 1.000000 0.435279
0.532851 1.000000 0.575110
0.531899 1.000000 0.713862
0.530953 1.000000 0.851737
0.530012 1.000000 0.988872
0.749122 0.000000 0.000000
0.748496 0.000000 0.075843
0.747490 0.000000 0.222547
0.746507 0.000000 0.365769
0.745538 0.000000 0.507001
0.744579 0.000000 0.646833
0.743627 0.000000 0.785585
0.742681 0.000000 0.923459
0.741740 0.000000 1.000000
0.739401 0.118964 0.000000
0.738775 0.118339 0.066122
0.737769 0.117332 0.212826
0.736786 0.116350 0.356048
0.735817 0.115381 0.497280
0.734858 0.114421 0.637111
0.733906 0.113469 0.775863
0.732960 0.112523 0.913738
0.732019 0.111583 1.000000
0.729534 0.255274 0.000000
0.728909 0.254648 0.056255
0.727902 0.253642 0.202959
0.726920 0.252659 0.346182
0.725951 0.251690 0.487413
0.724991 0.250731 0.627245
0.724039 0.249779 0.765997
0.723093 0.248833 0.903871
0.722153 0.247892 1.000000
0.719855 0.389001 0.000000
0.719229 0.388375 0.046576
0.718223 0.387369 0.193280
0.717240 0.386386 0.336502
0.716271 0.385417 0.477734
0.715312 0.384458 0.617565
0.714360 0.383506 0.756317
0.713414 0.382560 0.894192
0.712473 0.381619 1.000000
0.710293 0.521099 0.000000
0.709667 0.520473 0.037014
0.708661 0.519467 0.183718
0.707678 0.518484 0.326940
0.706709 0.517515 0.468172
0.705750 0.516556 0.608004
0.704798 0.515604 0.746756
0.703852 0.514658 0.884630
0.702911 0.513717 1.000000
0.700818 0.652005 0.000000
0.700192 0.651380 0.027539
0.699186 0.650373 0.174243
0.698203 0.649391 0.317465
0.697234 0.648422 0.458697
0.696275 0.647462 0.598528
0.695323 0.646511 0.737280
0.694377 0.645565 0.875155
0.693436 0.644624 1.000000
0.691410 0.781974 0.000000
0.690784 0.781348 0.018131
0.689778 0.780342 0.164835
0.688795 0.779359 0.308057
0.687826 0.778390 0.449289
0.686867 0.777431 0.589121
0.685915 0.776479 0.727873
0.684969 0.775533 0.865747
0.684028 0.774592 1.000000
0.682058 0.911169 0.000000
0.681433 0.910544 0.008780
0.680426 0.909537 0.155483
0.679444 0.908554 0.298706
0.678475 0.907586 0.439937
0.677516 0.906626 0.579769
0.676564 0.905674 0.718521
0.675618 0.904728 0.856396
0.674677 0.903788 0.993531
0.674591 1.000000 0.000000
0.673965 1.000000 0.001312
0.672959 1.000000 0.148016
0.671976 1.000000 0.291238
0.671007 1.000000 0.432470
0.670048 1.000000 0.572301
0.669096 1.000000 0.711053
0.668150 1.000000 0.848928
0.667209 1.000000 0.986063
0.885401 0.000000 0.000000
0.884776 0.000000 0.073053
0.883769 0.000000 0.219757
0.882786 0.000000 0.362979
0.881817 0.000000 0.504211
0.880858 0.000000 0.644042
0.879906 0.000000 0.782794
0.878960 0.000000 0.920669
0.878019 0.000000 1.000000
0.875680 0.116174 0.000000
0.875054 0.115548 0.063332
0.874048 0.114542 0.210035
0.873065 0.113559 0.353258
0.872096 0.112590 0.494489
0.871137 0.111631 0.634321
0.870185 0.110679 0.773073
0.869239 0.109733 0.910948
0.868298 0.108792 1.000000
0.865813 0.252484 0.000000
0.865188 0.251858 0.053465
0.864181 0.250852 0.200169
0.863199 0.249869 0.343391
0.862230 0.248900 0.484623
0.861270 0.247941 0.624454
0.860318 0.246989 0.763207
0.859373 0.246043 0.901081
0.858432 0.245102 1.000000
0.856134 0.386210 0.000000
0.855508 0.385585 0.043786
0.854502 0.384578 0.190489
0.853519 0.383596 0.333712
0.852550 0.382627 0.474943
0.851591 0.381667 0.614775
0.850639 0.380715 0.753527
0.849693 0.379770 0.891401
0.848752 0.378829 1.000000
0.846572 0.518308 0.000000
0.845947 0.517683 0.034224
0.844940 0.516676 0.180928
0.843957 0.515694 0.324150
0.842989 0.514725 0.465382
0.842029 0.513765 0.605213
0.841077 0.512813 0.743965
0.840131 0.511867 0.881840
0.839191 0.510927 1.000000
0.837097 0.649215 0.000000
0.836471 0.648589 0.024748
0.835465 0.647583 0.171452
0.834482 0.646600 0.314675
0.833513 0.645631 0.455906
0.832554 0.644672 0.595738
0.831602 0.643720 0.734490
0.830656 0.642774 0.872364
0.829715 0.641833 1.000000
0.827689 0.779184 0.000000
0.827064 0.778558 0.015341
0.826057 0.777552 0.162045
0.825074 0.776569 0.305267
0.824106 0.775600 0.446499
0.823146 0.774641 0.586330
0.822194 0.773689 0.725082
0.821248 0.772743 0.862957
0.820308 0.771802 1.000000
0.818338 0.908379 0.000000
0.817712 0.907753 0.005989
0.816706 0.906747 0.152693
0.815723 0.905764 0.295915
0.814754 0.904795 0.437147
0.813795 0.903836 0.576979
0.812843 0.902884 0.715731
0.811897 0.901938 0.853605
0.810956 0.900997 0.990741
0.810870 1.000000 0.000000
0.810244 1.000000 0.000000
0.809238 1.000000 0.145225
0.808255 1.000000 0.288448
0.807286 1.000000 0.429679
0.806327 1.000000 0.569511
0.805375 1.000000 0.708263
0.804429 1.000000 0.846137
0.803488 1.000000 0.983273
1.000000 0.000000 0.000000
1.000000 0.000000 0.070278
1.000000 0.000000 0.216982
1.000000 0.000000 0.360204
1.000000 0.000000 0.501436
1.000000 0.000000 0.641268
1.000000 0.000000 0.780020
1.000000 0.000000 0.917894
1.000000 0.000000 1.000000
1.000000 0.113399 0.000000
1.000000 0.112774 0.060557
1.000000 0.111767 0.207261
1.000000 0.110785 0.350483
1.000000 0.109816 0.491715
1.000000 0.108856 0.631546
1.000000 0.107904 0.770298
1.000000 0.106958 0.908173
1.000000 0.106018 1.000000
1.000000 0.249709 0.000000
1.000000 0.249083 0.050690
0.999695 0.248077 0.197394
0.998712 0.247094 0.340617
0.997743 0.246125 0.481848
0.996784 0.245166 0.621680
0.995832 0.244214 0.760432
0.994886 0.243268 0.898306
0.993945 0.242327 1.000000
0.991647 0.383436 0.000000
0.991022 0.382810 0.041011
0.990015 0.381804 0.187715
0.989033 0.380821 0.330937
0.988064 0.379852 0.472169
0.987104 0.378893 0.612000
0.986152 0.377941 0.750752
0.985207 0.376995 0.888627
0.984266 0.376054 1.000000
0.982086 0.515534 0.000000
0.981460 0.514908 0.031449
0.980454 0.513902 0.178153
0.979471 0.512919 0.321375
0.978502 0.511950 0.462607
0.977543 0.510991 0.602439
0.976591 0.510039 0.741191
0.975645 0.509093 0.879065
0.974704 0.508152 1.000000
0.972610 0.646440 0.000000
0.971985 0.645815 0.021974
0.970978 0.644808 0.168678
0.969996 0.643826 0.311900
0.969027 0.642857 0.453132
0.968067 0.641897 0.592963
0.967115 0.640946 0.731715
0.966169 0.640000 0.869590
0.965229 0.639059 1.000000
0.963203 0.776409 0.000000
0.962577 0.775783 0.012566
0.961571 0.774777 0.159270
0.960588 0.773794 0.302492
0.959619 0.772825 0.443724
0.958660 0.771866 0.583556
0.957708 0.770914 0.722308
0.956762 0.769968 0.860182
0.955821 0.769027 0.997318
0.953851 0.905604 0.000000
0.953226 0.904979 0.003215
0.952219 0.903972 0.149919
0.951236 0.902990 0.293141
0.950268 0.902021 0.434373
0.949308 0.901061 0.574204
0.948356 0.900109 0.712956
0.947410 0.899163 0.850831
0.946469 0.898223 0.987966
0.946383 1.000000 0.000000
0.945758 1.000000 0.000000
0.944751 1.000000 0.142451
0.943769 1.000000 0.285673
0.942800 1.000000 0.426905
0.941840 1.000000 0.566736
0.940888 1.000000 0.705488
0.939942 1.000000 0.843363
0.939002 1.000000 0.980498
1.000000 0.000000 0.000000
1.000000 0.000000 0.069026
1.000000 0.000000 0.215730
1.000000 0.000000 0.358952
1.000000 0.000000 0.500184
1.000000 0.000000 0.640016
1.000000 0.000000 0.778768
1.000000 0.000000 0.916642
1.000000 0.000000 1.000000
1.000000 0.112147 0.000000
1.000000 0.111522 0.059305
1.000000 0.110515 0.206009
1.000000 0.109533 0.349231
1.000000 0.108564 0.490463
1.000000 0.107604 0.630295
1.000000 0.106653 0.769047
1.000000 0.105707 0.906921
1.000000 0.104766 1.000000
1.000000 0.248457 0.000000
1.000000 0.247832 0.049439
1.000000 0.246825 0.196142
1.000000 0.245843 0.339365
1.000000 0.244874 0.480596
1.000000 0.243914 0.620428
1.000000 0.242962 0.759180
1.000000 0.242016 0.897054
1.000000 0.241076 1.000000
1.000000 0.382184 0.000000
1.000000 0.381558 0.039759
1.000000 0.380552 0.186463
1.000000 0.379569 0.329685
1.000000 0.378600 0.470917
1.000000 0.377641 0.610748
1.000000 0.376689 0.749501
1.000000 0.375743 0.887375
1.000000 0.374802 1.000000
1.000000 0.514282 0.000000
1.000000 0.513656 0.030197
1.000000 0.512650 0.176901
1.000000 0.511667 0.320123
1.000000 0.510698 0.461355
1.000000 0.509739 0.601187
1.000000 0.508787 0.739939
1.000000 0.507841 0.877813
1.000000 0.506900 1.000000
1.000000 0.645189 0.000000
1.000000 0.644563 0.020722
1.000000 0.643556 0.167426
1.000000 0.642574 0.310648
1.000000 0.641605 0.451880
1.000000 0.640646 0.591711
1.000000 0.639694 0.730463
1.000000 0.638748 0.868338
1.000000 0.637807 1.000000
1.000000 0.775157 0.000000
1.000000 0.774532 0.011314
1.000000 0.773525 0.158018
1.000000 0.772542 0.301240
1.000000 0.771574 0.442472
1.000000 0.770614 0.582304
1.000000 0.769662 0.721056
1.000000 0.768716 0.858930
1.000000 0.767776 0.996066
1.000000 0.904352 0.000000
1.000000 0.903727 0.001963
1.000000 0.902720 0.148667
1.000000 0.901738 0.291889
1.000000 0.900769 0.433121
1.000000 0.899809 0.572952
1.000000 0.898857 0.711704
1.000000 0.897912 0.849579
1.000000 0.896971 0.986714
1.000000 1.000000 0.000000
1.000000 1.000000 0.000000
1.000000 1.000000 0.141199
1.000000 1.000000 0.284421
1.000000 1.000000 0.425653
1.000000 1.000000 0.565484
1.000000 1.000000 0.704236
1.000000 1.000000 0.842111
1.000000 1.000000 0.979246
