skills/unified-director/assets/grade/luts/ad_warm_v17.cube
TITLE "ad_warm_v17"
LUT_3D_SIZE 17
DOMAIN_MIN 0.0 0.0 0.0
DOMAIN_MAX 1.0 1.0 1.0
0.044993 0.000000 0.000000
0.044894 0.000000 0.013609
0.044368 0.000000 0.090260
0.043860 0.000000 0.164230
0.043361 0.000000 0.236964
0.042868 0.000000 0.308881
0.042379 0.000000 0.380186
0.041893 0.000000 0.451005
0.041410 0.000000 0.521418
0.040929 0.000000 0.591485
0.040450 0.000000 0.661250
0.039974 0.000000 0.730746
0.039498 0.000000 0.800002
0.039025 0.000000 0.869039
0.038553 0.000000 0.937876
0.038082 0.000000 1.000000
0.037612 0.000000 1.000000
0.040336 0.063424 0.000000
0.040236 0.063325 0.008951
0.039710 0.062799 0.085603
0.039203 0.062291 0.159573
0.038704 0.061792 0.232307
0.038210 0.061299 0.304223
0.037721 0.060810 0.375529
0.037235 0.060324 0.446347
0.036752 0.059841 0.516761
0.036271 0.059360 0.586828
0.035793 0.058881 0.656592
0.035316 0.058405 0.726089
0.034841 0.057929 0.795344
0.034367 0.057456 0.864381
0.033895 0.056984 0.933219
0.033424 0.056513 1.000000
0.032954 0.056043 1.000000
0.035272 0.133381 0.000000
0.035172 0.133282 0.003888
0.034647 0.132756 0.080539
0.034139 0.132248 0.154509
0.033640 0.131749 0.227243
0.033147 0.131256 0.299159
0.032657 0.130767 0.370465
0.032172 0.130281 0.441284
0.031688 0.129798 0.511697
0.031208 0.129317 0.581764
0.030729 0.128838 0.651528
0.030252 0.128362 0.721025
0.029777 0.127886 0.790281
0.029304 0.127413 0.859318
0.028831 0.126941 0.928155
0.028360 0.126470 0.996808
0.027890 0.126000 1.000000
0.030308 0.201963 0.000000
0.030208 0.201864 0.000000
0.029682 0.201338 0.075575
0.029175 0.200830 0.149545
0.028676 0.200331 0.222279
0.028182 0.199838 0.294195
0.027693 0.199349 0.365501
0.027207 0.198863 0.436319
0.026724 0.198380 0.506733
0.026244 0.197899 0.576800
0.025765 0.197420 0.646564
0.025288 0.196944 0.716061
0.024813 0.196468 0.785316
0.024339 0.195995 0.854354
0.023867 0.195523 0.923191
0.023396 0.195052 0.991844
0.022926 0.194582 1.000000
0.025406 0.269691 0.000000
0.025306 0.269591 0.000000
0.024780 0.269066 0.070673
0.024272 0.268558 0.144642
0.023773 0.268059 0.217376
0.023280 0.267566 0.289293
0.022791 0.267076 0.360599
0.022305 0.266591 0.431417
0.021822 0.266107 0.501830
0.021341 0.265627 0.571897
0.020863 0.265148 0.641662
0.020386 0.264671 0.711158
0.019911 0.264196 0.780414
0.019437 0.263723 0.849451
0.018965 0.263250 0.918288
0.018494 0.262779 0.986941
0.018024 0.262309 1.000000
0.020548 0.336798 0.000000
0.020448 0.336698 0.000000
0.019923 0.336172 0.065815
0.019415 0.335665 0.139785
0.018916 0.335166 0.212519
0.018423 0.334673 0.284435
0.017933 0.334183 0.355741
0.017448 0.333698 0.426560
0.016965 0.333214 0.496973
0.016484 0.332734 0.567040
0.016005 0.332255 0.636804
0.015528 0.331778 0.706301
0.015053 0.331303 0.775557
0.014580 0.330830 0.844594
0.014107 0.330357 0.913431
0.013636 0.329886 0.982084
0.013167 0.329416 1.000000
0.015726 0.403418 0.000000
0.015626 0.403318 0.000000
0.015100 0.402792 0.060993
0.014593 0.402285 0.134963
0.014094 0.401786 0.207697
0.013601 0.401292 0.279613
0.013111 0.400803 0.350919
0.012625 0.400317 0.421737
0.012142 0.399834 0.492151
0.011662 0.399353 0.562218
0.011183 0.398875 0.631982
0.010706 0.398398 0.701479
0.010231 0.397923 0.770734
0.009757 0.397449 0.839772
0.009285 0.396977 0.908609
0.008814 0.396506 0.977262
0.008344 0.396036 1.000000
0.010933 0.469637 0.000000
0.010833 0.469537 0.000000
0.010307 0.469011 0.056200
0.009800 0.468504 0.130170
0.009301 0.468005 0.202904
0.008807 0.467511 0.274820
0.008318 0.467022 0.346126
0.007832 0.466536 0.416944
0.007349 0.466053 0.487358
0.006869 0.465572 0.557425
0.006390 0.465094 0.627189
0.005913 0.464617 0.696686
0.005438 0.464142 0.765941
0.004964 0.463668 0.834978
0.004492 0.463196 0.903816
0.004021 0.462725 0.972469
0.003551 0.462255 1.000000
0.006164 0.535516 0.000000
0.006065 0.535416 0.000000
0.005539 0.534890 0.051431
0.005031 0.534383 0.125401
0.004532 0.533884 0.198135
0.004039 0.533390 0.270052
0.003550 0.532901 0.341357
0.003064 0.532415 0.412176
0.002581 0.531932 0.482589
0.002100 0.531451 0.552656
0.001621 0.530973 0.622421
0.001145 0.530496 0.691917
0.000669 0.530021 0.761173
0.000196 0.529547 0.830210
0.000000 0.529075 0.899047
0.000000 0.528604 0.967700
0.000000 0.528134 1.000000
0.001417 0.601099 0.000000
0.001318 0.601000 0.000000
0.000792 0.600474 0.046684
0.000284 0.599966 0.120654
0.000000 0.599467 0.193388
0.000000 0.598974 0.265305
0.000000 0.598485 0.336610
0.000000 0.597999 0.407429
0.000000 0.597516 0.477842
0.000000 0.597035 0.547909
0.000000 0.596556 0.617674
0.000000 0.596080 0.687170
0.000000 0.595605 0.756426
0.000000 0.595131 0.825463
0.000000 0.594659 0.894300
0.000000 0.594188 0.962953
0.000000 0.593718 1.000000
0.000000 0.666422 0.000000
0.000000 0.666323 0.000000
0.000000 0.665797 0.041956
0.000000 0.665289 0.115926
0.000000 0.664790 0.188660
0.000000 0.664297 0.260576
0.000000 0.663808 0.331882
0.000000 0.663322 0.402700
0.000000 0.662839 0.473114
0.000000 0.662358 0.543181
0.000000 0.661880 0.612945
0.000000 0.661403 0.682442
0.000000 0.660928 0.751697
0.000000 0.660454 0.820735
0.000000 0.659982 0.889572
0.000000 0.659511 0.958225
0.000000 0.659041 1.000000
0.000000 0.731512 0.000000
0.000000 0.731413 0.000000
0.000000 0.730887 0.037244
0.000000 0.730379 0.111214
0.000000 0.729880 0.183948
0.000000 0.729387 0.255865
0.000000 0.728898 0.327171
0.000000 0.728412 0.397989
0.000000 0.727929 0.468402
0.000000 0.727448 0.538469
0.000000 0.726969 0.608234
0.000000 0.726493 0.677730
0.000000 0.726017 0.746986
0.000000 0.725544 0.816023
0.000000 0.725072 0.884860
0.000000 0.724600 0.953513
0.000000 0.724131 1.000000
0.000000 0.796391 0.000000
0.000000 0.796291 0.000000
0.000000 0.795765 0.032548
0.000000 0.795258 0.106518
0.000000 0.794759 0.179252
0.000000 0.794266 0.251169
0.000000 0.793776 0.322474
0.000000 0.793291 0.393293
0.000000 0.792807 0.463706
0.000000 0.792327 0.533773
0.000000 0.791848 0.603538
0.000000 0.791371 0.673034
0.000000 0.790896 0.742290
0.000000 0.790423 0.811327
0.000000 0.789950 0.880164
0.000000 0.789479 0.948817
0.000000 0.789009 1.000000
0.000000 0.861077 0.000000
0.000000 0.860978 0.000000
0.000000 0.860452 0.027866
0.000000 0.859944 0.101836
0.000000 0.859445 0.174570
0.000000 0.858952 0.246487
0.000000 0.858463 0.317792
0.000000 0.857977 0.388611
0.000000 0.857494 0.459024
0.000000 0.857013 0.529091
0.000000 0.856534 0.598856
0.000000 0.856057 0.668352
0.000000 0.855582 0.737608
0.000000 0.855109 0.806645
0.000000 0.854636 0.875482
0.000000 0.854165 0.944135
0.000000 0.853696 1.000000
0.000000 0.925586 0.000000
0.000000 0.925487 0.000000
0.000000 0.924961 0.023197
0.000000 0.924453 0.097167
0.000000 0.923954 0.169901
0.000000 0.923461 0.241817
0.000000 0.922972 0.313123
0.000000 0.922486 0.383941
0.000000 0.922003 0.454355
0.000000 0.921522 0.524422
0.000000 0.921043 0.594186
0.000000 0.920567 0.663683
0.000000 0.920091 0.732938
0.000000 0.919618 0.801975
0.000000 0.919145 0.870813
0.000000 0.918674 0.939466
0.000000 0.918205 1.000000
0.000000 0.989931 0.000000
0.000000 0.989832 0.000000
0.000000 0.989306 0.018539
0.000000 0.988798 0.092509
0.000000 0.988299 0.165243
0.000000 0.987806 0.237160
0.000000 0.987317 0.308465
0.000000 0.986831 0.379284
0.000000 0.986348 0.449697
0.000000 0.985867 0.519764
0.000000 0.985388 0.589529
0.000000 0.984912 0.659025
0.000000 0.984436 0.728281
0.000000 0.983963 0.797318
0.000000 0.983491 0.866155
0.000000 0.983020 0.934808
0.000000 0.982550 1.000000
0.000000 1.000000 0.000000
0.000000 1.000000 0.000000
0.000000 1.000000 0.015729
0.000000 1.000000 0.089699
0.000000 1.000000 0.162433
0.000000 1.000000 0.234349
0.000000 1.000000 0.305655
0.000000 1.000000 0.376473
0.000000 1.000000 0.446887
0.000000 1.000000 0.516954
0.000000 1.000000 0.586718
0.000000 1.000000 0.656215
0.000000 1.000000 0.725470
0.000000 1.000000 0.794508
0.000000 1.000000 0.863345
0.000000 1.000000 0.931998
0.000000 1.000000 1.000000
0.119196 0.000000 0.000000
0.119096 0.000000 0.012090
0.118570 0.000000 0.088741
0.118063 0.000000 0.162711
0.117564 0.000000 0.235445
0.117070 0.000000 0.307361
0.116581 0.000000 0.378667
0.116095 0.000000 0.449485
0.115612 0.000000 0.519899
0.115131 0.000000 0.589966
0.114653 0.000000 0.659730
0.114176 0.000000 0.729227
0.113701 0.000000 0.798482
0.113227 0.000000 0.867520
0.112755 0.000000 0.936357
0.112284 0.000000 1.000000
0.111814 0.000000 1.000000
0.114538 0.061905 0.000000
0.114438 0.061805 0.007432
0.113913 0.061279 0.084083
0.113405 0.060772 0.158053
0.112906 0.060273 0.230787
0.112413 0.059780 0.302704
0.111923 0.059290 0.374010
0.111438 0.058805 0.444828
0.110955 0.058321 0.515241
0.110474 0.057841 0.585308
0.109995 0.057362 0.655073
0.109518 0.056885 0.724569
0.109043 0.056410 0.793825
0.108570 0.055937 0.862862
0.108097 0.055464 0.931699
0.107626 0.054993 1.000000
0.107156 0.054523 1.000000
0.109474 0.131862 0.000000
0.109375 0.131762 0.002368
0.108849 0.131236 0.079020
0.108341 0.130729 0.152990
0.107842 0.130230 0.225724
0.107349 0.129737 0.297640
0.106860 0.129247 0.368946
0.106374 0.128762 0.439764
0.105891 0.128278 0.510178
0.105410 0.127798 0.580245
0.104931 0.127319 0.650009
0.104455 0.126842 0.719506
0.103980 0.126367 0.788761
0.103506 0.125894 0.857798
0.103034 0.125421 0.926636
0.102563 0.124950 0.995289
0.102093 0.124480 1.000000
0.104510 0.200444 0.000000
0.104411 0.200344 0.000000
0.103885 0.199818 0.074056
0.103377 0.199311 0.148025
0.102878 0.198812 0.220759
0.102385 0.198319 0.292676
0.101896 0.197829 0.363982
0.101410 0.197344 0.434800
0.100927 0.196860 0.505213
0.100446 0.196380 0.575280
0.099967 0.195901 0.645045
0.099490 0.195424 0.714541
0.099015 0.194949 0.783797
0.098542 0.194476 0.852834
0.098069 0.194003 0.921671
0.097598 0.193532 0.990325
0.097129 0.193062 1.000000
0.099608 0.268172 0.000000
0.099508 0.268072 0.000000
0.098982 0.267546 0.069153
0.098475 0.267039 0.143123
0.097976 0.266540 0.215857
0.097482 0.266046 0.287774
0.096993 0.265557 0.359079
0.096507 0.265071 0.429898
0.096024 0.264588 0.500311
0.095544 0.264107 0.570378
0.095065 0.263629 0.640143
0.094588 0.263152 0.709639
0.094113 0.262677 0.778895
0.093639 0.262203 0.847932
0.093167 0.261731 0.916769
0.092696 0.261260 0.985422
0.092226 0.260790 1.000000
0.094750 0.335279 0.000000
0.094651 0.335179 0.000000
0.094125 0.334653 0.064296
0.093617 0.334146 0.138266
0.093118 0.333647 0.211000
0.092625 0.333153 0.282916
0.092136 0.332664 0.354222
0.091650 0.332178 0.425040
0.091167 0.331695 0.495454
0.090686 0.331214 0.565521
0.090208 0.330736 0.635285
0.089731 0.330259 0.704782
0.089256 0.329784 0.774037
0.088782 0.329310 0.843074
0.088310 0.328838 0.911912
0.087839 0.328367 0.980565
0.087369 0.327897 1.000000
0.089928 0.401898 0.000000
0.089829 0.401799 0.000000
0.089303 0.401273 0.059474
0.088795 0.400765 0.133444
0.088296 0.400266 0.206177
0.087803 0.399773 0.278094
0.087314 0.399284 0.349400
0.086828 0.398798 0.420218
0.086345 0.398315 0.490631
0.085864 0.397834 0.560698
0.085385 0.397355 0.630463
0.084909 0.396879 0.699960
0.084433 0.396404 0.769215
0.083960 0.395930 0.838252
0.083488 0.395458 0.907090
0.083017 0.394987 0.975743
0.082547 0.394517 1.000000
0.085135 0.468117 0.000000
0.085036 0.468018 0.000000
0.084510 0.467492 0.054681
0.084002 0.466984 0.128650
0.083503 0.466485 0.201384
0.083010 0.465992 0.273301
0.082521 0.465503 0.344607
0.082035 0.465017 0.415425
0.081552 0.464534 0.485838
0.081071 0.464053 0.555905
0.080592 0.463574 0.625670
0.080115 0.463098 0.695166
0.079640 0.462623 0.764422
0.079167 0.462149 0.833459
0.078694 0.461677 0.902296
0.078223 0.461206 0.970950
0.077754 0.460736 1.000000
0.080367 0.533996 0.000000
0.080267 0.533897 0.000000
0.079741 0.533371 0.049912
0.079234 0.532863 0.123882
0.078735 0.532364 0.196616
0.078241 0.531871 0.268532
0.077752 0.531382 0.339838
0.077266 0.530896 0.410656
0.076783 0.530413 0.481070
0.076302 0.529932 0.551137
0.075824 0.529453 0.620901
0.075347 0.528977 0.690398
0.074872 0.528501 0.759654
0.074398 0.528028 0.828691
0.073926 0.527556 0.897528
0.073455 0.527085 0.966181
0.072985 0.526615 1.000000
0.075620 0.599580 0.000000
0.075520 0.599480 0.000000
0.074994 0.598955 0.045165
0.074486 0.598447 0.119135
0.073987 0.597948 0.191869
0.073494 0.597455 0.263785
0.073005 0.596965 0.335091
0.072519 0.596480 0.405909
0.072036 0.595996 0.476323
0.071555 0.595516 0.546390
0.071077 0.595037 0.616154
0.070600 0.594560 0.685651
0.070125 0.594085 0.754906
0.069651 0.593612 0.823944
0.069179 0.593139 0.892781
0.068708 0.592668 0.961434
0.068238 0.592198 1.000000
0.070891 0.664903 0.000000
0.070792 0.664803 0.000000
0.070266 0.664278 0.040437
0.069758 0.663770 0.114406
0.069259 0.663271 0.187140
0.068766 0.662778 0.259057
0.068277 0.662289 0.330363
0.067791 0.661803 0.401181
0.067308 0.661320 0.471594
0.066827 0.660839 0.541661
0.066348 0.660360 0.611426
0.065872 0.659883 0.680922
0.065396 0.659408 0.750178
0.064923 0.658935 0.819215
0.064450 0.658462 0.888052
0.063979 0.657991 0.956706
0.063510 0.657522 1.000000
0.066180 0.729993 0.000000
0.066080 0.729893 0.000000
0.065554 0.729367 0.035725
0.065047 0.728860 0.109695
0.064548 0.728361 0.182429
0.064054 0.727868 0.254346
0.063565 0.727378 0.325651
0.063079 0.726892 0.396470
0.062596 0.726409 0.466883
0.062116 0.725929 0.536950
0.061637 0.725450 0.606715
0.061160 0.724973 0.676211
0.060685 0.724498 0.745467
0.060211 0.724024 0.814504
0.059739 0.723552 0.883341
0.059268 0.723081 0.951994
0.058798 0.722611 1.000000
0.061484 0.794872 0.000000
0.061384 0.794772 0.000000
0.060858 0.794246 0.031029
0.060351 0.793739 0.104999
0.059852 0.793240 0.177733
0.059358 0.792746 0.249649
0.058869 0.792257 0.320955
0.058383 0.791771 0.391774
0.057900 0.791288 0.462187
0.057419 0.790807 0.532254
0.056941 0.790329 0.602018
0.056464 0.789852 0.671515
0.055989 0.789377 0.740771
0.055515 0.788903 0.809808
0.055043 0.788431 0.878645
0.054572 0.787960 0.947298
0.054102 0.787490 1.000000
0.056802 0.859558 0.000000
0.056702 0.859458 0.000000
0.056176 0.858932 0.026347
0.055668 0.858425 0.100317
0.055169 0.857926 0.173051
0.054676 0.857432 0.244967
0.054187 0.856943 0.316273
0.053701 0.856457 0.387091
0.053218 0.855974 0.457505
0.052737 0.855494 0.527572
0.052259 0.855015 0.597336
0.051782 0.854538 0.666833
0.051307 0.854063 0.736088
0.050833 0.853589 0.805126
0.050361 0.853117 0.873963
0.049890 0.852646 0.942616
0.049420 0.852176 1.000000
0.052132 0.924067 0.000000
0.052032 0.923967 0.000000
0.051507 0.923441 0.021677
0.050999 0.922934 0.095647
0.050500 0.922435 0.168381
0.050007 0.921941 0.240298
0.049517 0.921452 0.311604
0.049032 0.920966 0.382422
0.048549 0.920483 0.452835
0.048068 0.920003 0.522902
0.047589 0.919524 0.592667
0.047112 0.919047 0.662163
0.046637 0.918572 0.731419
0.046164 0.918098 0.800456
0.045691 0.917626 0.869293
0.045220 0.917155 0.937946
0.044751 0.916685 1.000000
0.047475 0.988412 0.000000
0.047375 0.988312 0.000000
0.046849 0.987786 0.017020
0.046342 0.987279 0.090990
0.045843 0.986780 0.163724
0.045349 0.986287 0.235640
0.044860 0.985797 0.306946
0.044374 0.985312 0.377764
0.043891 0.984828 0.448178
0.043410 0.984348 0.518245
0.042932 0.983869 0.588009
0.042455 0.983392 0.657506
0.041980 0.982917 0.726761
0.041506 0.982444 0.795799
0.041034 0.981971 0.864636
0.040563 0.981500 0.933289
0.040093 0.981030 1.000000
0.044664 1.000000 0.000000
0.044565 1.000000 0.000000
0.044039 1.000000 0.014210
0.043531 1.000000 0.088179
0.043032 1.000000 0.160913
0.042539 1.000000 0.232830
0.042050 1.000000 0.304136
0.041564 1.000000 0.374954
0.041081 1.000000 0.445367
0.040600 1.000000 0.515434
0.040121 1.000000 0.585199
0.039645 1.000000 0.654695
0.039169 1.000000 0.723951
0.038696 1.000000 0.792988
0.038223 1.000000 0.861826
0.037752 1.000000 0.930479
0.037283 1.000000 0.998961
0.191618 0.000000 0.000000
0.191518 0.000000 0.010607
0.190992 0.000000 0.087258
0.190485 0.000000 0.161228
0.189986 0.000000 0.233962
0.189492 0.000000 0.305878
0.189003 0.000000 0.377184
0.188517 0.000000 0.448003
0.188034 0.000000 0.518416
0.187554 0.000000 0.588483
0.187075 0.000000 0.658248
0.186598 0.000000 0.727744
0.186123 0.000000 0.797000
0.185649 0.000000 0.866037
0.185177 0.000000 0.934874
0.184706 0.000000 1.000000
0.184236 0.000000 1.000000
0.186960 0.060422 0.000000
0.186861 0.060323 0.005949
0.186335 0.059797 0.082601
0.185827 0.059289 0.156570
0.185328 0.058790 0.229304
0.184835 0.058297 0.301221
0.184346 0.057808 0.372527
0.183860 0.057322 0.443345
0.183377 0.056839 0.513758
0.182896 0.056358 0.583825
0.182417 0.055879 0.653590
0.181941 0.055402 0.723086
0.181466 0.054927 0.792342
0.180992 0.054454 0.861379
0.180520 0.053981 0.930216
0.180049 0.053510 0.998870
0.179579 0.053041 1.000000
0.181897 0.130379 0.000000
0.181797 0.130279 0.000885
0.181271 0.129754 0.077537
0.180764 0.129246 0.151507
0.180265 0.128747 0.224241
0.179771 0.128254 0.296157
0.179282 0.127765 0.367463
0.178796 0.127279 0.438281
0.178313 0.126796 0.508695
0.177832 0.126315 0.578762
0.177354 0.125836 0.648526
0.176877 0.125359 0.718023
0.176402 0.124884 0.787278
0.175928 0.124411 0.856316
0.175456 0.123938 0.925153
0.174985 0.123467 0.993806
0.174515 0.122998 1.000000
0.176933 0.198961 0.000000
0.176833 0.198862 0.000000
0.176307 0.198336 0.072573
0.175799 0.197828 0.146543
0.175300 0.197329 0.219276
0.174807 0.196836 0.291193
0.174318 0.196347 0.362499
0.173832 0.195861 0.433317
0.173349 0.195378 0.503730
0.172868 0.194897 0.573797
0.172390 0.194418 0.643562
0.171913 0.193941 0.713059
0.171438 0.193466 0.782314
0.170964 0.192993 0.851351
0.170492 0.192520 0.920189
0.170021 0.192049 0.988842
0.169551 0.191580 1.000000
0.172030 0.266689 0.000000
0.171930 0.266589 0.000000
0.171405 0.266063 0.067670
0.170897 0.265556 0.141640
0.170398 0.265057 0.214374
0.169905 0.264563 0.286291
0.169416 0.264074 0.357596
0.168930 0.263588 0.428415
0.168447 0.263105 0.498828
0.167966 0.262625 0.568895
0.167487 0.262146 0.638660
0.167010 0.261669 0.708156
0.166535 0.261194 0.777412
0.166062 0.260720 0.846449
0.165589 0.260248 0.915286
0.165118 0.259777 0.983939
0.164649 0.259307 1.000000
0.167173 0.333796 0.000000
0.167073 0.333696 0.000000
0.166547 0.333170 0.062813
0.166040 0.332663 0.136783
0.165541 0.332164 0.209517
0.165047 0.331670 0.281433
0.164558 0.331181 0.352739
0.164072 0.330695 0.423557
0.163589 0.330212 0.493971
0.163108 0.329732 0.564038
0.162630 0.329253 0.633802
0.162153 0.328776 0.703299
0.161678 0.328301 0.772554
0.161204 0.327827 0.841592
0.160732 0.327355 0.910429
0.160261 0.326884 0.979082
0.159791 0.326414 1.000000
0.162351 0.400416 0.000000
0.162251 0.400316 0.000000
0.161725 0.399790 0.057991
0.161218 0.399283 0.131961
0.160719 0.398784 0.204695
0.160225 0.398290 0.276611
0.159736 0.397801 0.347917
0.159250 0.397315 0.418735
0.158767 0.396832 0.489149
0.158286 0.396351 0.559216
0.157808 0.395873 0.628980
0.157331 0.395396 0.698477
0.156856 0.394921 0.767732
0.156382 0.394447 0.836769
0.155910 0.393975 0.905607
0.155439 0.393504 0.974260
0.154969 0.393034 1.000000
0.157557 0.466635 0.000000
0.157458 0.466535 0.000000
0.156932 0.466009 0.053198
0.156424 0.465502 0.127168
0.155925 0.465003 0.199901
0.155432 0.464509 0.271818
0.154943 0.464020 0.343124
0.154457 0.463534 0.413942
0.153974 0.463051 0.484355
0.153493 0.462570 0.554422
0.153015 0.462092 0.624187
0.152538 0.461615 0.693684
0.152063 0.461140 0.762939
0.151589 0.460666 0.831976
0.151117 0.460194 0.900814
0.150646 0.459723 0.969467
0.150176 0.459253 1.000000
0.152789 0.532513 0.000000
0.152689 0.532414 0.000000
0.152163 0.531888 0.048429
0.151656 0.531380 0.122399
0.151157 0.530881 0.195133
0.150664 0.530388 0.267050
0.150174 0.529899 0.338355
0.149688 0.529413 0.409174
0.149205 0.528930 0.479587
0.148725 0.528449 0.549654
0.148246 0.527971 0.619419
0.147769 0.527494 0.688915
0.147294 0.527019 0.758171
0.146820 0.526545 0.827208
0.146348 0.526073 0.896045
0.145877 0.525602 0.964698
0.145407 0.525132 1.000000
0.148042 0.598097 0.000000
0.147942 0.597998 0.000000
0.147416 0.597472 0.043682
0.146909 0.596964 0.117652
0.146410 0.596465 0.190386
0.145916 0.595972 0.262302
0.145427 0.595483 0.333608
0.144941 0.594997 0.404426
0.144458 0.594514 0.474840
0.143978 0.594033 0.544907
0.143499 0.593554 0.614671
0.143022 0.593078 0.684168
0.142547 0.592602 0.753423
0.142073 0.592129 0.822461
0.141601 0.591656 0.891298
0.141130 0.591185 0.959951
0.140660 0.590716 1.000000
0.143314 0.663420 0.000000
0.143214 0.663321 0.000000
0.142688 0.662795 0.038954
0.142180 0.662287 0.112924
0.141681 0.661788 0.185657
0.141188 0.661295 0.257574
0.140699 0.660806 0.328880
0.140213 0.660320 0.399698
0.139730 0.659837 0.470112
0.139249 0.659356 0.540178
0.138771 0.658877 0.609943
0.138294 0.658401 0.679440
0.137819 0.657925 0.748695
0.137345 0.657452 0.817732
0.136873 0.656980 0.886570
0.136402 0.656509 0.955223
0.135932 0.656039 1.000000
0.138602 0.728510 0.000000
0.138502 0.728410 0.000000
0.137977 0.727885 0.034242
0.137469 0.727377 0.108212
0.136970 0.726878 0.180946
0.136477 0.726385 0.252863
0.135987 0.725895 0.324168
0.135502 0.725410 0.394987
0.135019 0.724927 0.465400
0.134538 0.724446 0.535467
0.134059 0.723967 0.605232
0.133582 0.723490 0.674728
0.133107 0.723015 0.743984
0.132634 0.722542 0.813021
0.132161 0.722069 0.881858
0.131690 0.721598 0.950511
0.131221 0.721129 1.000000
0.133906 0.793389 0.000000
0.133806 0.793289 0.000000
0.133280 0.792763 0.029546
0.132773 0.792256 0.103516
0.132274 0.791757 0.176250
0.131781 0.791263 0.248167
0.131291 0.790774 0.319472
0.130805 0.790288 0.390291
0.130322 0.789805 0.460704
0.129842 0.789325 0.530771
0.129363 0.788846 0.600536
0.128886 0.788369 0.670032
0.128411 0.787894 0.739288
0.127937 0.787420 0.808325
0.127465 0.786948 0.877162
0.126994 0.786477 0.945815
0.126524 0.786007 1.000000
0.129224 0.858075 0.000000
0.129124 0.857975 0.000000
0.128598 0.857449 0.024864
0.128091 0.856942 0.098834
0.127592 0.856443 0.171568
0.127098 0.855950 0.243484
0.126609 0.855460 0.314790
0.126123 0.854975 0.385608
0.125640 0.854491 0.456022
0.125160 0.854011 0.526089
0.124681 0.853532 0.595853
0.124204 0.853055 0.665350
0.123729 0.852580 0.734605
0.123255 0.852107 0.803643
0.122783 0.851634 0.872480
0.122312 0.851163 0.941133
0.121842 0.850693 1.000000
0.124554 0.922584 0.000000
0.124455 0.922484 0.000000
0.123929 0.921959 0.020195
0.123421 0.921451 0.094165
0.122922 0.920952 0.166898
0.122429 0.920459 0.238815
0.121940 0.919969 0.310121
0.121454 0.919484 0.380939
0.120971 0.919000 0.451352
0.120490 0.918520 0.521419
0.120012 0.918041 0.591184
0.119535 0.917564 0.660680
0.119060 0.917089 0.729936
0.118586 0.916616 0.798973
0.118114 0.916143 0.867811
0.117643 0.915672 0.936464
0.117173 0.915202 1.000000
0.119897 0.986929 0.000000
0.119797 0.986830 0.000000
0.119271 0.986304 0.015537
0.118764 0.985796 0.089507
0.118265 0.985297 0.162241
0.117771 0.984804 0.234157
0.117282 0.984315 0.305463
0.116796 0.983829 0.376282
0.116313 0.983346 0.446695
0.115833 0.982865 0.516762
0.115354 0.982386 0.586527
0.114877 0.981909 0.656023
0.114402 0.981434 0.725279
0.113928 0.980961 0.794316
0.113456 0.980488 0.863153
0.112985 0.980017 0.931806
0.112515 0.979548 1.000000
0.117087 1.000000 0.000000
0.116987 1.000000 0.000000
0.116461 1.000000 0.012727
0.115954 1.000000 0.086697
0.115455 1.000000 0.159431
0.114961 1.000000 0.231347
0.114472 1.000000 0.302653
0.113986 1.000000 0.373471
0.113503 1.000000 0.443885
0.113022 1.000000 0.513952
0.112544 1.000000 0.583716
0.112067 1.000000 0.653213
0.111592 1.000000 0.722468
0.111118 1.000000 0.791505
0.110646 1.000000 0.860343
0.110175 1.000000 0.928996
0.109705 1.000000 0.997478
0.263028 0.000000 0.000000
0.262928 0.000000 0.009145
0.262402 0.000000 0.085796
0.261895 0.000000 0.159766
0.261396 0.000000 0.232500
0.260902 0.000000 0.304416
0.260413 0.000000 0.375722
0.259927 0.000000 0.446540
0.259444 0.000000 0.516954
0.258963 0.000000 0.587021
0.258485 0.000000 0.656785
0.258008 0.000000 0.726282
0.257533 0.000000 0.795537
0.257059 0.000000 0.864575
0.256587 0.000000 0.933412
0.256116 0.000000 1.000000
0.255646 0.000000 1.000000
0.258370 0.058960 0.000000
