skills/unified-director/assets/grade/luts/moody_teal_v04.cube
TITLE "moody_teal_v04"
LUT_3D_SIZE 17
DOMAIN_MIN 0.0 0.0 0.0
DOMAIN_MAX 1.0 1.0 1.0
0.000000 0.000000 0.000000
0.000228 0.000228 0.050663
0.000491 0.000491 0.109142
0.000759 0.000759 0.168580
0.001029 0.001029 0.228638
0.001302 0.001302 0.289155
0.001576 0.001576 0.350041
0.001851 0.001851 0.411232
0.002128 0.002128 0.472686
0.002406 0.002406 0.534370
0.002684 0.002684 0.596259
0.002964 0.002964 0.658334
0.003244 0.003244 0.720576
0.003525 0.003525 0.782973
0.003807 0.003807 0.845512
0.004089 0.004089 0.908185
0.004256 0.004256 0.945309
0.001526 0.035584 0.001526
0.001754 0.035812 0.052189
0.002017 0.036076 0.110668
0.002285 0.036343 0.170106
0.002555 0.036614 0.230164
0.002828 0.036886 0.290681
0.003102 0.037160 0.351566
0.003377 0.037436 0.412758
0.003654 0.037712 0.474212
0.003932 0.037990 0.535896
0.004210 0.038269 0.597785
0.004490 0.038548 0.659859
0.004770 0.038829 0.722102
0.005051 0.039109 0.784498
0.005333 0.039391 0.847038
0.005615 0.039673 0.909711
0.005782 0.039840 0.946834
0.004115 0.095976 0.004115
0.004343 0.096204 0.054779
0.004607 0.096468 0.113257
0.004874 0.096735 0.172696
0.005145 0.097006 0.232753
0.005417 0.097278 0.293271
0.005691 0.097552 0.354156
0.005967 0.097828 0.415347
0.006244 0.098104 0.476801
0.006521 0.098382 0.538486
0.006800 0.098661 0.600375
0.007079 0.098940 0.662449
0.007360 0.099221 0.724691
0.007640 0.099501 0.787088
0.007922 0.099783 0.849628
0.008204 0.100065 0.912300
0.008371 0.100232 0.949424
0.006756 0.157563 0.006756
0.006984 0.157791 0.057420
0.007248 0.158055 0.115898
0.007515 0.158322 0.175337
0.007786 0.158593 0.235394
0.008058 0.158865 0.295912
0.008332 0.159139 0.356797
0.008608 0.159415 0.417988
0.008884 0.159692 0.479442
0.009162 0.159969 0.541126
0.009441 0.160248 0.603016
0.009720 0.160527 0.665090
0.010000 0.160808 0.727332
0.010281 0.161089 0.789729
0.010563 0.161370 0.852268
0.010845 0.161652 0.914941
0.011012 0.161819 0.952065
0.009428 0.219866 0.009428
0.009656 0.220094 0.060091
0.009919 0.220357 0.118570
0.010187 0.220625 0.178008
0.010457 0.220895 0.238065
0.010729 0.221168 0.298583
0.011004 0.221442 0.359468
0.011279 0.221717 0.420659
0.011556 0.221994 0.482114
0.011833 0.222272 0.543798
0.012112 0.222550 0.605687
0.012392 0.222830 0.667761
0.012672 0.223110 0.730003
0.012953 0.223391 0.792400
0.013234 0.223673 0.854940
0.013516 0.223955 0.917612
0.013684 0.224122 0.954736
0.012121 0.282685 0.012121
0.012349 0.282913 0.062785
0.012613 0.283176 0.121263
0.012880 0.283444 0.180702
0.013151 0.283714 0.240759
0.013423 0.283987 0.301277
0.013697 0.284261 0.362162
0.013973 0.284536 0.423353
0.014249 0.284813 0.484807
0.014527 0.285091 0.546491
0.014806 0.285369 0.608381
0.015085 0.285649 0.670455
0.015365 0.285929 0.732697
0.015646 0.286210 0.795094
0.015928 0.286492 0.857634
0.016210 0.286774 0.920306
0.016377 0.286941 0.957430
0.014832 0.345910 0.014832
0.015060 0.346138 0.065496
0.015324 0.346401 0.123974
0.015591 0.346669 0.183413
0.015862 0.346939 0.243470
0.016134 0.347211 0.303988
0.016408 0.347485 0.364873
0.016684 0.347761 0.426064
0.016960 0.348038 0.487518
0.017238 0.348315 0.549202
0.017517 0.348594 0.611092
0.017796 0.348873 0.673166
0.018076 0.349154 0.735408
0.018357 0.349435 0.797805
0.018639 0.349716 0.860345
0.018921 0.349998 0.923017
0.019088 0.350166 0.960141
0.017558 0.409468 0.017558
0.017786 0.409697 0.068221
0.018049 0.409960 0.126700
0.018317 0.410227 0.186138
0.018587 0.410498 0.246195
0.018859 0.410770 0.306713
0.019134 0.411044 0.367598
0.019409 0.411320 0.428789
0.019686 0.411597 0.490244
0.019963 0.411874 0.551928
0.020242 0.412153 0.613817
0.020522 0.412432 0.675891
0.020802 0.412713 0.738133
0.021083 0.412994 0.800530
0.021364 0.413275 0.863070
0.021646 0.413557 0.925742
0.021814 0.413724 0.962866
0.020295 0.473312 0.020295
0.020523 0.473540 0.070959
0.020787 0.473804 0.129437
0.021054 0.474071 0.188876
0.021325 0.474342 0.248933
0.021597 0.474614 0.309451
0.021871 0.474888 0.370336
0.022147 0.475164 0.431527
0.022423 0.475440 0.492981
0.022701 0.475718 0.554665
0.022980 0.475997 0.616555
0.023259 0.476276 0.678629
0.023539 0.476556 0.740871
0.023820 0.476837 0.803268
0.024102 0.477119 0.865807
0.024384 0.477401 0.928480
0.024551 0.477568 0.965604
0.023043 0.537404 0.023043
0.023271 0.537632 0.073707
0.023535 0.537896 0.132185
0.023802 0.538163 0.191624
0.024073 0.538434 0.251681
0.024345 0.538706 0.312199
0.024619 0.538980 0.373084
0.024895 0.539256 0.434275
0.025172 0.539532 0.495729
0.025449 0.539810 0.557414
0.025728 0.540089 0.619303
0.026007 0.540368 0.681377
0.026288 0.540648 0.743619
0.026568 0.540929 0.806016
0.026850 0.541211 0.868556
0.027132 0.541493 0.931228
0.027299 0.541660 0.968352
0.025801 0.601716 0.025801
0.026029 0.601944 0.076464
0.026292 0.602208 0.134943
0.026560 0.602475 0.194381
0.026830 0.602746 0.254439
0.027103 0.603018 0.314956
0.027377 0.603292 0.375842
0.027652 0.603568 0.437033
0.027929 0.603844 0.498487
0.028207 0.604122 0.560171
0.028486 0.604401 0.622060
0.028765 0.604680 0.684135
0.029045 0.604960 0.746377
0.029326 0.605241 0.808774
0.029608 0.605523 0.871313
0.029890 0.605805 0.933986
0.030057 0.605972 0.971110
0.028567 0.666226 0.028567
0.028795 0.666454 0.079231
0.029059 0.666718 0.137709
0.029326 0.666985 0.197147
0.029597 0.667256 0.257205
0.029869 0.667528 0.317723
0.030143 0.667802 0.378608
0.030419 0.668078 0.439799
0.030695 0.668354 0.501253
0.030973 0.668632 0.562937
0.031252 0.668911 0.624827
0.031531 0.669190 0.686901
0.031811 0.669470 0.749143
0.032092 0.669751 0.811540
0.032374 0.670033 0.874079
0.032656 0.670315 0.936752
0.032823 0.670482 0.973876
0.031341 0.730916 0.031341
0.031569 0.731144 0.082004
0.031832 0.731407 0.140483
0.032100 0.731675 0.199921
0.032370 0.731945 0.259979
0.032643 0.732217 0.320496
0.032917 0.732492 0.381381
0.033192 0.732767 0.442573
0.033469 0.733044 0.504027
0.033747 0.733321 0.565711
0.034025 0.733600 0.627600
0.034305 0.733880 0.689674
0.034585 0.734160 0.751917
0.034866 0.734441 0.814314
0.035148 0.734722 0.876853
0.035430 0.735004 0.939526
0.035597 0.735172 0.976650
0.034122 0.795770 0.034122
0.034350 0.795998 0.084785
0.034613 0.796261 0.143264
0.034881 0.796529 0.202702
0.035151 0.796799 0.262760
0.035424 0.797071 0.323277
0.035698 0.797346 0.384162
0.035973 0.797621 0.445354
0.036250 0.797898 0.506808
0.036528 0.798175 0.568492
0.036806 0.798454 0.630381
0.037086 0.798734 0.692455
0.037366 0.799014 0.754698
0.037647 0.799295 0.817094
0.037929 0.799576 0.879634
0.038211 0.799858 0.942307
0.038378 0.800026 0.979430
0.036909 0.860775 0.036909
0.037137 0.861003 0.087573
0.037401 0.861267 0.146051
0.037668 0.861534 0.205490
0.037939 0.861805 0.265547
0.038211 0.862077 0.326065
0.038485 0.862351 0.386950
0.038761 0.862627 0.448141
0.039037 0.862904 0.509595
0.039315 0.863181 0.571279
0.039594 0.863460 0.633169
0.039873 0.863739 0.695243
0.040153 0.864020 0.757485
0.040434 0.864301 0.819882
0.040716 0.864582 0.882421
0.040998 0.864864 0.945094
0.041165 0.865031 0.982218
0.039703 0.925922 0.039703
0.039931 0.926150 0.090366
0.040194 0.926414 0.148845
0.040462 0.926681 0.208283
0.040732 0.926952 0.268340
0.041004 0.927224 0.328858
0.041279 0.927498 0.389743
0.041554 0.927774 0.450934
0.041831 0.928050 0.512389
0.042108 0.928328 0.574073
0.042387 0.928607 0.635962
0.042667 0.928886 0.698036
0.042947 0.929166 0.760278
0.043228 0.929447 0.822675
0.043509 0.929729 0.885215
0.043791 0.930011 0.947887
0.043959 0.930178 0.985011
0.042159 0.983212 0.042159
0.042387 0.983440 0.092823
0.042651 0.983703 0.151301
0.042918 0.983971 0.210740
0.043189 0.984241 0.270797
0.043461 0.984514 0.331315
0.043735 0.984788 0.392200
0.044011 0.985063 0.453391
0.044287 0.985340 0.514845
0.044565 0.985618 0.576529
0.044844 0.985896 0.638419
0.045123 0.986176 0.700493
0.045403 0.986456 0.762735
0.045684 0.986737 0.825132
0.045966 0.987018 0.887671
0.046248 0.987301 0.950344
0.046415 0.987468 0.987468
0.018151 0.000239 0.000239
0.018379 0.000467 0.050902
0.018643 0.000730 0.109381
0.018910 0.000998 0.168819
0.019181 0.001268 0.228876
0.019453 0.001540 0.289394
0.019727 0.001815 0.350279
0.020003 0.002090 0.411470
0.020279 0.002367 0.472924
0.020557 0.002644 0.534609
0.020836 0.002923 0.596498
0.021115 0.003203 0.658572
0.021396 0.003483 0.720814
0.021676 0.003764 0.783211
0.021958 0.004045 0.845751
0.022240 0.004327 0.908423
0.022407 0.004495 0.945547
0.019677 0.035823 0.001764
0.019905 0.036051 0.052428
0.020169 0.036314 0.110906
0.020436 0.036582 0.170345
0.020707 0.036852 0.230402
0.020979 0.037125 0.290920
0.021253 0.037399 0.351805
0.021529 0.037674 0.412996
0.021805 0.037951 0.474450
0.022083 0.038229 0.536135
0.022362 0.038507 0.598024
0.022641 0.038787 0.660098
0.022921 0.039067 0.722340
0.023202 0.039348 0.784737
0.023484 0.039630 0.847277
0.023766 0.039912 0.909949
0.023933 0.040079 0.947073
0.022267 0.096215 0.004354
0.022495 0.096443 0.055017
0.022758 0.096706 0.113496
0.023026 0.096974 0.172934
0.023296 0.097244 0.232992
0.023569 0.097517 0.293509
0.023843 0.097791 0.354394
0.024118 0.098066 0.415586
0.024395 0.098343 0.477040
0.024673 0.098621 0.538724
0.024951 0.098899 0.600613
0.025231 0.099179 0.662687
0.025511 0.099459 0.724930
0.025792 0.099740 0.787327
0.026073 0.100022 0.849866
0.026356 0.100304 0.912539
0.026523 0.100471 0.949663
0.024908 0.157802 0.006995
0.025136 0.158030 0.057658
0.025399 0.158293 0.116137
0.025667 0.158561 0.175575
0.025937 0.158831 0.235632
0.026209 0.159104 0.296150
0.026483 0.159378 0.357035
0.026759 0.159653 0.418227
0.027036 0.159930 0.479681
0.027313 0.160208 0.541365
0.027592 0.160486 0.603254
0.027871 0.160766 0.665328
0.028152 0.161046 0.727571
0.028433 0.161327 0.789967
0.028714 0.161609 0.852507
0.028996 0.161891 0.915179
0.029164 0.162058 0.952303
0.027579 0.220105 0.009666
0.027807 0.220333 0.060330
0.028070 0.220596 0.118808
0.028338 0.220864 0.178247
0.028608 0.221134 0.238304
0.028881 0.221406 0.298822
0.029155 0.221680 0.359707
0.029430 0.221956 0.420898
0.029707 0.222233 0.482352
0.029985 0.222510 0.544036
0.030263 0.222789 0.605926
0.030543 0.223068 0.668000
0.030823 0.223349 0.730242
0.031104 0.223630 0.792639
0.031386 0.223911 0.855178
0.031668 0.224193 0.917851
0.031835 0.224361 0.954975
0.030273 0.282924 0.012360
0.030501 0.283152 0.063023
0.030764 0.283415 0.121502
0.031032 0.283683 0.180940
0.031302 0.283953 0.240998
0.031574 0.284225 0.301515
0.031849 0.284500 0.362400
0.032124 0.284775 0.423592
0.032401 0.285052 0.485046
0.032678 0.285329 0.546730
0.032957 0.285608 0.608619
0.033237 0.285888 0.670693
0.033517 0.286168 0.732936
0.033798 0.286449 0.795332
0.034079 0.286730 0.857872
0.034361 0.287012 0.920545
0.034529 0.287180 0.957668
0.032984 0.346148 0.015071
0.033212 0.346376 0.065734
0.033475 0.346639 0.124213
0.033743 0.346907 0.183651
0.034013 0.347177 0.243709
0.034285 0.347450 0.304226
0.034560 0.347724 0.365111
0.034835 0.348000 0.426303
0.035112 0.348276 0.487757
0.035389 0.348554 0.549441
0.035668 0.348833 0.611330
0.035948 0.349112 0.673404
0.036228 0.349392 0.735647
0.036509 0.349673 0.798043
0.036790 0.349955 0.860583
0.037072 0.350237 0.923256
0.037240 0.350404 0.960379
0.035709 0.409707 0.017796
0.035937 0.409935 0.068460
0.036200 0.410198 0.126938
0.036468 0.410466 0.186376
0.036738 0.410736 0.246434
0.037011 0.411009 0.306952
0.037285 0.411283 0.367837
0.037560 0.411558 0.429028
0.037837 0.411835 0.490482
0.038115 0.412113 0.552166
0.038393 0.412391 0.614056
0.038673 0.412671 0.676130
0.038953 0.412951 0.738372
0.039234 0.413232 0.800769
0.039516 0.413514 0.863308
0.039798 0.413796 0.925981
0.039965 0.413963 0.963105
0.038447 0.473551 0.020534
0.038675 0.473779 0.071197
0.038938 0.474042 0.129676
0.039206 0.474310 0.189114
0.039476 0.474580 0.249171
0.039748 0.474853 0.309689
0.040022 0.475127 0.370574
0.040298 0.475402 0.431766
0.040575 0.475679 0.493220
0.040852 0.475957 0.554904
0.041131 0.476235 0.616793
0.041410 0.476515 0.678867
0.041691 0.476795 0.741110
0.041972 0.477076 0.803506
0.042253 0.477357 0.866046
0.042535 0.477640 0.928718
0.042703 0.477807 0.965842
0.041195 0.537643 0.023282
0.041423 0.537871 0.073945
0.041686 0.538134 0.132424
0.041954 0.538402 0.191862
0.042224 0.538672 0.251920
0.042497 0.538945 0.312437
0.042771 0.539219 0.373322
0.043046 0.539494 0.434514
0.043323 0.539771 0.495968
0.043601 0.540049 0.557652
0.043879 0.540327 0.619541
0.044159 0.540607 0.681615
0.044439 0.540887 0.743858
0.044720 0.541168 0.806255
0.045001 0.541449 0.868794
0.045284 0.541732 0.931467
0.045451 0.541899 0.968591
0.043952 0.601955 0.026040
0.044180 0.602183 0.076703
0.044444 0.602446 0.135182
0.044711 0.602714 0.194620
0.044982 0.602984 0.254677
0.045254 0.603257 0.315195
0.045528 0.603531 0.376080
0.045804 0.603806 0.437271
0.046080 0.604083 0.498725
0.046358 0.604361 0.560410
0.046637 0.604639 0.622299
0.046916 0.604919 0.684373
0.047197 0.605199 0.746615
0.047477 0.605480 0.809012
0.047759 0.605762 0.871552
0.048041 0.606044 0.934224
0.048208 0.606211 0.971348
0.046718 0.666465 0.028806
0.046947 0.666693 0.079469
0.047210 0.666956 0.137948
0.047477 0.667224 0.197386
0.047748 0.667494 0.257443
0.048020 0.667767 0.317961
0.048294 0.668041 0.378846
0.048570 0.668316 0.440038
0.048847 0.668593 0.501492
0.049124 0.668871 0.563176
0.049403 0.669149 0.625065
0.049682 0.669429 0.687139
0.049963 0.669709 0.749381
0.050244 0.669990 0.811778
0.050525 0.670271 0.874318
0.050807 0.670554 0.936990
0.050974 0.670721 0.974114
0.049492 0.731154 0.031579
0.049720 0.731382 0.082243
0.049984 0.731646 0.140721
0.050251 0.731913 0.200160
0.050522 0.732184 0.260217
0.050794 0.732456 0.320735
0.051068 0.732730 0.381620
0.051344 0.733006 0.442811
0.051620 0.733282 0.504265
0.051898 0.733560 0.565950
0.052177 0.733839 0.627839
0.052456 0.734118 0.689913
0.052736 0.734398 0.752155
0.053017 0.734679 0.814552
0.053299 0.734961 0.877092
0.053581 0.735243 0.939764
0.053748 0.735410 0.976888
0.052273 0.796008 0.034360
0.052501 0.796236 0.085024
0.052765 0.796499 0.143502
0.053032 0.796767 0.202941
0.053303 0.797037 0.262998
0.053575 0.797310 0.323516
0.053849 0.797584 0.384401
0.054125 0.797860 0.445592
0.054401 0.798136 0.507046
0.054679 0.798414 0.568731
0.054958 0.798693 0.630620
0.055237 0.798972 0.692694
0.055517 0.799252 0.754936
0.055798 0.799533 0.817333
0.056080 0.799815 0.879873
0.056362 0.800097 0.942545
0.056529 0.800264 0.979669
0.055061 0.861014 0.037148
0.055289 0.861242 0.087811
0.055552 0.861505 0.146290
0.055820 0.861773 0.205728
0.056090 0.862043 0.265785
0.056362 0.862316 0.326303
0.056637 0.862590 0.387188
0.056912 0.862865 0.448380
0.057189 0.863142 0.509834
0.057466 0.863420 0.571518
0.057745 0.863698 0.633407
0.058025 0.863978 0.695481
0.058305 0.864258 0.757724
0.058586 0.864539 0.820120
0.058867 0.864821 0.882660
0.059149 0.865103 0.945332
0.059317 0.865270 0.982456
0.057854 0.926161 0.039941
0.058082 0.926389 0.090605
0.058345 0.926652 0.149083
0.058613 0.926920 0.208522
0.058883 0.927190 0.268579
0.059156 0.927463 0.329097
0.059430 0.927737 0.389982
0.059705 0.928012 0.451173
0.059982 0.928289 0.512627
0.060260 0.928567 0.574311
0.060538 0.928845 0.636201
0.060818 0.929125 0.698275
0.061098 0.929405 0.760517
0.061379 0.929686 0.822914
0.061661 0.929967 0.885453
0.061943 0.930250 0.948126
0.062110 0.930417 0.985250
0.060311 0.983450 0.042398
0.060539 0.983678 0.093061
0.060802 0.983942 0.151540
0.061069 0.984209 0.210978
0.061340 0.984480 0.271035
0.061612 0.984752 0.331553
0.061886 0.985026 0.392438
0.062162 0.985302 0.453630
0.062439 0.985578 0.515084
0.062716 0.985856 0.576768
0.062995 0.986135 0.638657
0.063274 0.986414 0.700731
0.063555 0.986695 0.762974
0.063836 0.986975 0.825370
0.064117 0.987257 0.887910
0.064399 0.987539 0.950582
0.064567 0.987706 0.987706
0.076160 0.001001 0.001001
0.076388 0.001229 0.051664
0.076651 0.001492 0.110143
0.076919 0.001760 0.169581
0.077189 0.002030 0.229639
0.077462 0.002303 0.290156
0.077736 0.002577 0.351041
0.078011 0.002852 0.412233
0.078288 0.003129 0.473687
0.078566 0.003407 0.535371
0.078845 0.003685 0.597260
0.079124 0.003965 0.659334
0.079404 0.004245 0.721577
0.079685 0.004526 0.783974
0.079967 0.004808 0.846513
0.080249 0.005090 0.909186
0.080416 0.005257 0.946310
0.077686 0.036585 0.002527
0.077914 0.036813 0.053190
0.078177 0.037077 0.111669
0.078445 0.037344 0.171107
0.078715 0.037615 0.231164
0.078988 0.037887 0.291682
0.079262 0.038161 0.352567
0.079537 0.038437 0.413759
0.079814 0.038713 0.475213
0.080092 0.038991 0.536897
0.080370 0.039270 0.598786
0.080650 0.039549 0.660860
0.080930 0.039829 0.723103
0.081211 0.040110 0.785499
0.081493 0.040392 0.848039
0.081775 0.040674 0.910711
0.081942 0.040841 0.947835
0.080275 0.096977 0.005116
0.080504 0.097205 0.055780
0.080767 0.097469 0.114258
0.081034 0.097736 0.173697
0.081305 0.098007 0.233754
0.081577 0.098279 0.294272
0.081851 0.098553 0.355157
0.082127 0.098829 0.416348
0.082404 0.099105 0.477802
0.082681 0.099383 0.539486
0.082960 0.099662 0.601376
0.083239 0.099941 0.663450
0.083520 0.100221 0.725692
0.083801 0.100502 0.788089
0.084082 0.100784 0.850629
0.084364 0.101066 0.913301
0.084531 0.101233 0.950425
0.082916 0.158564 0.007757
0.083144 0.158792 0.058421
0.083408 0.159056 0.116899
0.083675 0.159323 0.176337
0.083946 0.159594 0.236395
0.084218 0.159866 0.296912
0.084492 0.160140 0.357798
0.084768 0.160416 0.418989
0.085044 0.160692 0.480443
0.085322 0.160970 0.542127
0.085601 0.161249 0.604017
0.085880 0.161528 0.666091
0.086160 0.161808 0.728333
0.086441 0.162089 0.790730
0.086723 0.162371 0.853269
0.087005 0.162653 0.915942
0.087172 0.162820 0.953066
0.085588 0.220867 0.010429
0.085816 0.221095 0.061092
0.086079 0.221358 0.119571
0.086347 0.221626 0.179009
0.086617 0.221896 0.239066
0.086890 0.222169 0.299584
0.087164 0.222443 0.360469
0.087439 0.222718 0.421660
0.087716 0.222995 0.483114
0.087994 0.223273 0.544799
0.088272 0.223551 0.606688
0.088552 0.223831 0.668762
0.088832 0.224111 0.731004
0.089113 0.224392 0.793401
0.089394 0.224674 0.855941
0.089677 0.224956 0.918613
0.089844 0.225123 0.955737
0.088281 0.283686 0.013122
0.088509 0.283914 0.063786
0.088773 0.284177 0.122264
0.089040 0.284445 0.181703
0.089311 0.284715 0.241760
0.089583 0.284988 0.302278
0.089857 0.285262 0.363163
0.090133 0.285537 0.424354
0.090409 0.285814 0.485808
0.090687 0.286092 0.547492
0.090966 0.286370 0.609382
0.091245 0.286650 0.671456
0.091525 0.286930 0.733698
0.091806 0.287211 0.796095
0.092088 0.287493 0.858634
0.092370 0.287775 0.921307
0.092537 0.287942 0.958431
0.090992 0.346910 0.015833
0.091220 0.347139 0.066497
0.091484 0.347402 0.124975
0.091751 0.347669 0.184414
0.092022 0.347940 0.244471
0.092294 0.348212 0.304989
0.092568 0.348486 0.365874
0.092844 0.348762 0.427065
0.093120 0.349039 0.488519
0.093398 0.349316 0.550203
0.093677 0.349595 0.612093
0.093956 0.349874 0.674167
0.094236 0.350155 0.736409
0.094517 0.350436 0.798806
0.094799 0.350717 0.861345
0.095081 0.350999 0.924018
0.095248 0.351166 0.961142
0.093718 0.410469 0.018559
0.093946 0.410697 0.069222
0.094209 0.410961 0.127701
0.094477 0.411228 0.187139
0.094747 0.411499 0.247196
0.095019 0.411771 0.307714
0.095294 0.412045 0.368599
0.095569 0.412321 0.429790
0.095846 0.412597 0.491244
0.096123 0.412875 0.552929
0.096402 0.413154 0.614818
0.096682 0.413433 0.676892
0.096962 0.413714 0.739134
0.097243 0.413994 0.801531
0.097524 0.414276 0.864071
0.097806 0.414558 0.926743
0.097974 0.414725 0.963867
0.096455 0.474313 0.021296
0.096683 0.474541 0.071960
0.096947 0.474804 0.130438
0.097214 0.475072 0.189876
0.097485 0.475342 0.249934
0.097757 0.475615 0.310451
0.098031 0.475889 0.371337
0.098307 0.476165 0.432528
0.098583 0.476441 0.493982
0.098861 0.476719 0.555666
0.099140 0.476998 0.617556
0.099419 0.477277 0.679630
0.099699 0.477557 0.741872
0.099980 0.477838 0.804269
0.100262 0.478120 0.866808
0.100544 0.478402 0.929481
0.100711 0.478569 0.966605
0.099203 0.538405 0.024044
0.099431 0.538633 0.074708
0.099695 0.538896 0.133186
0.099962 0.539164 0.192625
0.100233 0.539434 0.252682
0.100505 0.539707 0.313200
0.100779 0.539981 0.374085
0.101055 0.540257 0.435276
0.101332 0.540533 0.496730
0.101609 0.540811 0.558414
0.101888 0.541090 0.620304
0.102167 0.541369 0.682378
0.102448 0.541649 0.744620
0.102729 0.541930 0.807017
0.103010 0.542212 0.869557
0.103292 0.542494 0.932229
0.103459 0.542661 0.969353
0.101961 0.602717 0.026802
0.102189 0.602945 0.077465
0.102452 0.603209 0.135944
0.102720 0.603476 0.195382
0.102990 0.603747 0.255440
0.103263 0.604019 0.315957
0.103537 0.604293 0.376842
0.103813 0.604569 0.438034
0.104089 0.604845 0.499488
0.104367 0.605123 0.561172
0.104646 0.605402 0.623061
0.104925 0.605681 0.685135
0.105205 0.605961 0.747378
0.105486 0.606242 0.809775
0.105768 0.606524 0.872314
0.106050 0.606806 0.934987
0.106217 0.606973 0.972111
0.104727 0.667227 0.029568
0.104955 0.667455 0.080232
0.105219 0.667718 0.138710
0.105486 0.667986 0.198148
0.105757 0.668256 0.258206
0.106029 0.668529 0.318723
0.106303 0.668803 0.379609
0.106579 0.669078 0.440800
0.106855 0.669355 0.502254
0.107133 0.669633 0.563938
0.107412 0.669912 0.625827
0.107691 0.670191 0.687902
0.107971 0.670471 0.750144
0.108252 0.670752 0.812541
0.108534 0.671034 0.875080
0.108816 0.671316 0.937753
0.108983 0.671483 0.974877
0.107501 0.731916 0.032342
0.107729 0.732145 0.083005
0.107992 0.732408 0.141484
0.108260 0.732675 0.200922
0.108530 0.732946 0.260980
0.108803 0.733218 0.321497
0.109077 0.733492 0.382382
0.109352 0.733768 0.443574
0.109629 0.734045 0.505028
0.109907 0.734322 0.566712
0.110185 0.734601 0.628601
0.110465 0.734880 0.690675
0.110745 0.735161 0.752918
0.111026 0.735442 0.815314
0.111308 0.735723 0.877854
0.111590 0.736005 0.940527
0.111757 0.736172 0.977650
0.110282 0.796770 0.035123
0.110510 0.796999 0.085786
0.110773 0.797262 0.144265
0.111041 0.797529 0.203703
0.111311 0.797800 0.263760
0.111584 0.798072 0.324278
0.111858 0.798346 0.385163
0.112133 0.798622 0.446355
0.112410 0.798899 0.507809
0.112688 0.799176 0.569493
0.112966 0.799455 0.631382
0.113246 0.799734 0.693456
0.113526 0.800015 0.755699
0.113807 0.800296 0.818095
0.114089 0.800577 0.880635
0.114371 0.800859 0.943307
0.114538 0.801026 0.980431
0.113069 0.861776 0.037910
0.113297 0.862004 0.088574
0.113561 0.862268 0.147052
0.113828 0.862535 0.206490
0.114099 0.862806 0.266548
0.114371 0.863078 0.327066
0.114645 0.863352 0.387951
0.114921 0.863628 0.449142
0.115197 0.863904 0.510596
0.115475 0.864182 0.572280
0.115754 0.864461 0.634170
0.116033 0.864740 0.696244
0.116313 0.865021 0.758486
0.116594 0.865301 0.820883
0.116876 0.865583 0.883422
0.117158 0.865865 0.946095
0.117325 0.866032 0.983219
0.115863 0.926923 0.040704
0.116091 0.927151 0.091367
0.116354 0.927414 0.149846
0.116622 0.927682 0.209284
0.116892 0.927952 0.269341
0.117165 0.928225 0.329859
0.117439 0.928499 0.390744
0.117714 0.928775 0.451935
0.117991 0.929051 0.513389
0.118269 0.929329 0.575074
0.118547 0.929608 0.636963
0.118827 0.929887 0.699037
0.119107 0.930167 0.761279
0.119388 0.930448 0.823676
0.119669 0.930730 0.886216
0.119952 0.931012 0.948888
0.120119 0.931179 0.986012
0.118319 0.984213 0.043160
0.118547 0.984441 0.093824
0.118811 0.984704 0.152302
0.119078 0.984972 0.211740
0.119349 0.985242 0.271798
0.119621 0.985515 0.332315
0.119895 0.985789 0.393201
0.120171 0.986064 0.454392
0.120447 0.986341 0.515846
0.120725 0.986619 0.577530
0.121004 0.986897 0.639420
0.121283 0.987177 0.701494
0.121563 0.987457 0.763736
0.121844 0.987738 0.826133
0.122126 0.988019 0.888672
0.122408 0.988302 0.951345
0.122575 0.988469 0.988469
0.135630 0.001782 0.001782
0.135859 0.002011 0.052446
0.136122 0.002274 0.110924
0.136389 0.002541 0.170363
0.136660 0.002812 0.230420
0.136932 0.003084 0.290938
0.137206 0.003358 0.351823
0.137482 0.003634 0.413014
0.137759 0.003911 0.474468
0.138036 0.004188 0.536153
0.138315 0.004467 0.598042
0.138594 0.004746 0.660116
0.138875 0.005027 0.722358
0.139156 0.005308 0.784755
0.139437 0.005589 0.847295
0.139719 0.005871 0.909967
0.139886 0.006038 0.947091
0.137156 0.037367 0.003308
