skills/unified-director/assets/grade/luts/moody_teal_v04.cube
TITLE "moody_teal_v04"
LUT_3D_SIZE 5
DOMAIN_MIN 0.0 0.0 0.0
DOMAIN_MAX 1.0 1.0 1.0
0.000000 0.000000 0.000000
0.001029 0.001029 0.228638
0.002128 0.002128 0.472686
0.003244 0.003244 0.720576
0.004256 0.004256 0.945309
0.009428 0.219866 0.009428
0.010457 0.220895 0.238065
0.011556 0.221994 0.482114
0.012672 0.223110 0.730003
0.013684 0.224122 0.954736
0.020295 0.473312 0.020295
0.021325 0.474342 0.248933
0.022423 0.475440 0.492981
0.023539 0.476556 0.740871
0.024551 0.477568 0.965604
0.031341 0.730916 0.031341
0.032370 0.731945 0.259979
0.033469 0.733044 0.504027
0.034585 0.734160 0.751917
0.035597 0.735172 0.976650
0.042159 0.983212 0.042159
0.043189 0.984241 0.270797
0.044287 0.985340 0.514845
0.045403 0.986456 0.762735
0.046415 0.987468 0.987468
0.195883 0.002574 0.002574
0.196912 0.003604 0.231212
0.198011 0.004702 0.475260
0.199127 0.005819 0.723150
0.200139 0.006830 0.947883
0.205310 0.222440 0.012002
0.206340 0.223470 0.240640
0.207439 0.224568 0.484688
0.208555 0.225685 0.732578
0.209566 0.226696 0.957311
0.216178 0.475887 0.022869
0.217207 0.476916 0.251507
0.218306 0.478015 0.495555
0.219422 0.479131 0.743445
0.220434 0.480143 0.968178
0.227224 0.733490 0.033915
0.228253 0.734519 0.262553
0.229352 0.735618 0.506601
0.230468 0.736734 0.754491
0.231480 0.737746 0.979224
0.238042 0.985786 0.044733
0.239071 0.986816 0.273371
0.240170 0.987914 0.517419
0.241286 0.989030 0.765309
0.242298 0.990042 0.990042
0.441295 0.005800 0.005800
0.442325 0.006829 0.234437
0.443423 0.007928 0.478486
0.444540 0.009044 0.726375
0.445551 0.010056 0.951108
0.450723 0.225666 0.015227
0.451752 0.226695 0.243865
0.452851 0.227794 0.487913
0.453967 0.228910 0.735803
0.454979 0.229922 0.960536
0.461590 0.479112 0.026095
0.462620 0.480141 0.254732
0.463719 0.481240 0.498781
0.464835 0.482356 0.746671
0.465846 0.483368 0.971403
0.472636 0.736715 0.037141
0.473666 0.737745 0.265778
0.474764 0.738843 0.509826
0.475880 0.739959 0.757716
0.476892 0.740971 0.982449
0.483454 0.989011 0.047959
0.484484 0.990041 0.276596
0.485583 0.991140 0.520645
0.486699 0.992256 0.768535
0.487710 0.993267 0.993267
0.690911 0.009080 0.009080
0.691940 0.010109 0.237718
0.693039 0.011208 0.481766
0.694155 0.012324 0.729656
0.695167 0.013336 0.954389
0.700338 0.228946 0.018508
0.701368 0.229975 0.247145
0.702466 0.231074 0.491194
0.703582 0.232190 0.739084
0.704594 0.233202 0.963816
0.711206 0.482392 0.029375
0.712235 0.483422 0.258013
0.713334 0.484520 0.502061
0.714450 0.485636 0.749951
0.715462 0.486648 0.974684
0.722252 0.739996 0.040421
0.723281 0.741025 0.269059
0.724380 0.742124 0.513107
0.725496 0.743240 0.760997
0.726508 0.744252 0.985730
0.733070 0.992292 0.051239
0.734099 0.993321 0.279877
0.735198 0.994420 0.523925
0.736314 0.995536 0.771815
0.737326 0.996548 0.996548
0.943193 0.012396 0.012396
0.944223 0.013425 0.241033
0.945321 0.014524 0.485082
0.946438 0.015640 0.732971
0.947449 0.016652 0.957704
0.952621 0.232262 0.021823
0.953650 0.233291 0.250461
0.954749 0.234390 0.494509
0.955865 0.235506 0.742399
0.956877 0.236518 0.967132
0.963488 0.485708 0.032691
0.964518 0.486737 0.261329
0.965617 0.487836 0.505377
0.966733 0.488952 0.753267
0.967744 0.489964 0.977999
0.974534 0.743311 0.043737
0.975564 0.744341 0.272374
0.976662 0.745439 0.516422
0.977778 0.746555 0.764312
0.978790 0.747567 0.989045
0.985352 0.995607 0.054555
0.986382 0.996637 0.283193
0.987481 0.997736 0.527241
0.988597 0.998852 0.775131
0.989608 0.999863 0.999863
