skills/unified-director/assets/grade/luts/moody_teal_v05.cube
TITLE "moody_teal_v05"
LUT_3D_SIZE 5
DOMAIN_MIN 0.0 0.0 0.0
DOMAIN_MAX 1.0 1.0 1.0
0.000000 0.000000 0.000000
0.001138 0.001138 0.226813
0.002359 0.002359 0.470351
0.003602 0.003602 0.718140
0.004712 0.004712 0.939449
0.010290 0.216353 0.010290
0.011427 0.217490 0.237103
0.012649 0.218712 0.480641
0.013892 0.219955 0.728429
0.015002 0.221065 0.949739
0.022366 0.470273 0.022366
0.023504 0.471411 0.249180
0.024725 0.472632 0.492717
0.025968 0.473875 0.740506
0.027078 0.474985 0.961815
0.034664 0.728842 0.034664
0.035801 0.729979 0.261477
0.037023 0.731201 0.505015
0.038266 0.732444 0.752803
0.039376 0.733554 0.974113
0.046676 0.981413 0.046676
0.047814 0.982551 0.273490
0.049035 0.983772 0.517027
0.050278 0.985015 0.764816
0.051388 0.986125 0.986125
0.189278 0.002768 0.002768
0.190415 0.003906 0.229582
0.191637 0.005128 0.473119
0.192880 0.006370 0.720908
0.193990 0.007480 0.942217
0.199567 0.219121 0.013058
0.200705 0.220259 0.239872
0.201926 0.221480 0.483409
0.203169 0.222723 0.731198
0.204279 0.223833 0.952507
0.211644 0.473042 0.025135
0.212781 0.474179 0.251948
0.214003 0.475401 0.495486
0.215246 0.476644 0.743274
0.216356 0.477754 0.964584
0.223941 0.731610 0.037432
0.225079 0.732748 0.264246
0.226301 0.733969 0.507783
0.227543 0.735212 0.755572
0.228653 0.736322 0.976881
0.235954 0.984182 0.049445
0.237091 0.985319 0.276258
0.238313 0.986541 0.519796
0.239556 0.987784 0.767584
0.240666 0.988894 0.988894
0.434202 0.006351 0.006351
0.435339 0.007489 0.233164
0.436561 0.008710 0.476702
0.437804 0.009953 0.724491
0.438914 0.011063 0.945800
0.444491 0.222704 0.016641
0.445629 0.223841 0.243454
0.446851 0.225063 0.486991
0.448093 0.226306 0.734780
0.449203 0.227416 0.956090
0.456568 0.476624 0.028717
0.457706 0.477762 0.255531
0.458927 0.478983 0.499068
0.460170 0.480226 0.746857
0.461280 0.481336 0.968166
0.468865 0.735193 0.041015
0.470003 0.736330 0.267828
0.471225 0.737552 0.511366
0.472467 0.738795 0.759154
0.473577 0.739905 0.980464
0.480878 0.987764 0.053027
0.482015 0.988902 0.279841
0.483237 0.990123 0.523378
0.484480 0.991366 0.771167
0.485590 0.992476 0.992476
0.683839 0.010002 0.010002
0.684977 0.011140 0.236816
0.686198 0.012361 0.480353
0.687441 0.013604 0.728142
0.688551 0.014714 0.949451
0.694129 0.226355 0.020292
0.695266 0.227493 0.247105
0.696488 0.228714 0.490643
0.697731 0.229957 0.738432
0.698841 0.231067 0.959741
0.706205 0.480276 0.032369
0.707343 0.481413 0.259182
0.708564 0.482635 0.502719
0.709807 0.483877 0.750508
0.710917 0.484988 0.971817
0.718503 0.738844 0.044666
0.719641 0.739982 0.271479
0.720862 0.741203 0.515017
0.722105 0.742446 0.762806
0.723215 0.743556 0.984115
0.730515 0.991415 0.056678
0.731653 0.992553 0.283492
0.732874 0.993774 0.527029
0.734117 0.995017 0.774818
0.735227 0.996127 0.996127
0.936457 0.013697 0.013697
0.937594 0.014835 0.240511
0.938816 0.016056 0.484048
0.940058 0.017299 0.731837
0.941169 0.018409 0.953146
0.946746 0.230050 0.023987
0.947884 0.231188 0.250800
0.949105 0.232409 0.494338
0.950348 0.233652 0.742127
0.951458 0.234762 0.963436
0.958823 0.483970 0.036063
0.959960 0.485108 0.262877
0.961182 0.486330 0.506414
0.962425 0.487572 0.754203
0.963535 0.488682 0.975512
0.971120 0.742539 0.048361
0.972258 0.743676 0.275174
0.973480 0.744898 0.518712
0.974722 0.746141 0.766501
0.975832 0.747251 0.987810
0.983133 0.995110 0.060373
0.984270 0.996248 0.287187
0.985492 0.997469 0.530724
0.986735 0.998712 0.778513
0.987845 0.999822 0.999822
