skills/unified-director/assets/grade/luts/moody_teal_v05.cube
TITLE "moody_teal_v05"
LUT_3D_SIZE 9
DOMAIN_MIN 0.0 0.0 0.0
DOMAIN_MAX 1.0 1.0 1.0
0.000000 0.000000 0.000000
0.000541 0.000541 0.107839
0.001138 0.001138 0.226813
0.001745 0.001745 0.347895
0.002359 0.002359 0.470351
0.002978 0.002978 0.593834
0.003602 0.003602 0.718140
0.004229 0.004229 0.843132
0.004712 0.004712 0.939449
0.004403 0.092574 0.004403
0.004944 0.093115 0.112242
0.005540 0.093712 0.231216
0.006148 0.094319 0.352298
0.006762 0.094933 0.474754
0.007381 0.095553 0.598237
0.008005 0.096176 0.722542
0.008632 0.096803 0.847535
0.009115 0.097286 0.943852
0.010290 0.216353 0.010290
0.010831 0.216894 0.118129
0.011427 0.217490 0.237103
0.012035 0.218098 0.358185
0.012649 0.218712 0.480641
0.013268 0.219331 0.604124
0.013892 0.219955 0.728429
0.014519 0.220582 0.853422
0.015002 0.221065 0.949739
0.016292 0.342552 0.016292
0.016833 0.343093 0.124131
0.017429 0.343690 0.243105
0.018037 0.344297 0.364187
0.018651 0.344912 0.486643
0.019270 0.345531 0.610126
0.019894 0.346154 0.734431
0.020521 0.346781 0.859424
0.021004 0.347264 0.955741
0.022366 0.470273 0.022366
0.022907 0.470814 0.130206
0.023504 0.471411 0.249180
0.024111 0.472018 0.370261
0.024725 0.472632 0.492717
0.025345 0.473252 0.616200
0.025968 0.473875 0.740506
0.026595 0.474502 0.865499
0.027078 0.474985 0.961815
0.028494 0.599113 0.028494
0.029035 0.599654 0.136333
0.029632 0.600251 0.255307
0.030239 0.600858 0.376389
0.030853 0.601473 0.498845
0.031472 0.602092 0.622328
0.032096 0.602715 0.746634
0.032723 0.603342 0.871626
0.033206 0.603825 0.967943
0.034664 0.728842 0.034664
0.035205 0.729383 0.142503
0.035801 0.729979 0.261477
0.036409 0.730587 0.382559
0.037023 0.731201 0.505015
0.037642 0.731820 0.628498
0.038266 0.732444 0.752803
0.038893 0.733071 0.877796
0.039376 0.733554 0.974113
0.040869 0.859308 0.040869
0.041410 0.859848 0.148708
0.042006 0.860445 0.267682
0.042614 0.861052 0.388764
0.043228 0.861667 0.511220
0.043847 0.862286 0.634703
0.044471 0.862910 0.759008
0.045098 0.863536 0.884001
0.045581 0.864020 0.980318
0.046676 0.981413 0.046676
0.047217 0.981954 0.154516
0.047814 0.982551 0.273490
0.048421 0.983158 0.394571
0.049035 0.983772 0.517027
0.049655 0.984392 0.640510
0.050278 0.985015 0.764816
0.050905 0.985642 0.889809
0.051388 0.986125 0.986125
0.070202 0.001027 0.001027
0.070743 0.001568 0.108866
0.071340 0.002164 0.227840
0.071947 0.002772 0.348922
0.072562 0.003386 0.471378
0.073181 0.004005 0.594861
0.073804 0.004629 0.719166
0.074431 0.005256 0.844159
0.074914 0.005739 0.940476
0.074605 0.093601 0.005430
0.075146 0.094142 0.113269
0.075743 0.094739 0.232243
0.076350 0.095346 0.353325
0.076964 0.095960 0.475781
0.077584 0.096580 0.599264
0.078207 0.097203 0.723569
0.078834 0.097830 0.848562
0.079317 0.098313 0.944879
0.080492 0.217380 0.011317
0.081033 0.217920 0.119156
0.081630 0.218517 0.238130
0.082237 0.219125 0.359212
0.082851 0.219739 0.481667
0.083471 0.220358 0.605151
0.084094 0.220982 0.729456
0.084721 0.221608 0.854449
0.085204 0.222092 0.950765
0.086494 0.343579 0.017319
0.087035 0.344120 0.125158
0.087632 0.344717 0.244132
0.088239 0.345324 0.365214
0.088853 0.345938 0.487670
0.089473 0.346558 0.611153
0.090096 0.347181 0.735458
0.090723 0.347808 0.860451
0.091206 0.348291 0.956768
0.092569 0.471300 0.023393
0.093110 0.471841 0.131232
0.093706 0.472438 0.250207
0.094314 0.473045 0.371288
0.094928 0.473659 0.493744
0.095547 0.474279 0.617227
0.096171 0.474902 0.741533
0.096798 0.475529 0.866525
0.097281 0.476012 0.962842
0.098696 0.600140 0.029521
0.099237 0.600681 0.137360
0.099834 0.601278 0.256334
0.100441 0.601885 0.377416
0.101056 0.602499 0.499872
0.101675 0.603119 0.623355
0.102298 0.603742 0.747660
0.102925 0.604369 0.872653
0.103408 0.604852 0.968970
0.104866 0.729868 0.035691
0.105407 0.730409 0.143530
0.106004 0.731006 0.262504
0.106611 0.731613 0.383586
0.107225 0.732228 0.506042
0.107845 0.732847 0.629525
0.108468 0.733470 0.753830
0.109095 0.734097 0.878823
0.109578 0.734580 0.975140
0.111071 0.860334 0.041896
0.111612 0.860875 0.149735
0.112209 0.861472 0.268709
0.112816 0.862079 0.389791
0.113430 0.862694 0.512246
0.114050 0.863313 0.635730
0.114673 0.863936 0.760035
0.115300 0.864563 0.885028
0.115783 0.865046 0.981345
0.116879 0.982440 0.047703
0.117420 0.982981 0.155542
0.118016 0.983578 0.274516
0.118624 0.984185 0.395598
0.119238 0.984799 0.518054
0.119857 0.985418 0.641537
0.120481 0.986042 0.765843
0.121108 0.986669 0.890835
0.121591 0.987152 0.987152
0.189278 0.002768 0.002768
0.189818 0.003309 0.110608
0.190415 0.003906 0.229582
0.191022 0.004513 0.350663
0.191637 0.005128 0.473119
0.192256 0.005747 0.596602
0.192880 0.006370 0.720908
0.193506 0.006997 0.845901
0.193990 0.007480 0.942217
0.193680 0.095343 0.007171
0.194221 0.095884 0.115011
0.194818 0.096480 0.233985
0.195425 0.097088 0.355066
0.196040 0.097702 0.477522
0.196659 0.098321 0.601005
0.197282 0.098945 0.725311
0.197909 0.099572 0.850304
0.198392 0.100055 0.946620
0.199567 0.219121 0.013058
0.200108 0.219662 0.120898
0.200705 0.220259 0.239872
0.201312 0.220866 0.360953
0.201926 0.221480 0.483409
0.202546 0.222100 0.606892
0.203169 0.222723 0.731198
0.203796 0.223350 0.856191
0.204279 0.223833 0.952507
0.205569 0.345321 0.019060
0.206110 0.345862 0.126900
0.206707 0.346459 0.245874
0.207314 0.347066 0.366955
0.207929 0.347680 0.489411
0.208548 0.348299 0.612894
0.209171 0.348923 0.737200
0.209798 0.349550 0.862193
0.210281 0.350033 0.958509
0.211644 0.473042 0.025135
0.212185 0.473583 0.132974
0.212781 0.474179 0.251948
0.213389 0.474787 0.373030
0.214003 0.475401 0.495486
0.214622 0.476020 0.618969
0.215246 0.476644 0.743274
0.215873 0.477271 0.868267
0.216356 0.477754 0.964584
0.217771 0.601882 0.031262
0.218312 0.602423 0.139102
0.218909 0.603019 0.258076
0.219516 0.603627 0.379157
0.220131 0.604241 0.501613
0.220750 0.604860 0.625096
0.221373 0.605484 0.749402
0.222000 0.606111 0.874395
0.222483 0.606594 0.970711
0.223941 0.731610 0.037432
0.224482 0.732151 0.145272
0.225079 0.732748 0.264246
0.225686 0.733355 0.385327
0.226301 0.733969 0.507783
0.226920 0.734589 0.631266
0.227543 0.735212 0.755572
0.228170 0.735839 0.880565
0.228653 0.736322 0.976881
0.230146 0.862076 0.043637
0.230687 0.862617 0.151477
0.231284 0.863214 0.270451
0.231891 0.863821 0.391532
0.232506 0.864435 0.513988
0.233125 0.865055 0.637471
0.233748 0.865678 0.761777
0.234375 0.866305 0.886770
0.234858 0.866788 0.983086
0.235954 0.984182 0.049445
0.236495 0.984722 0.157284
0.237091 0.985319 0.276258
0.237699 0.985926 0.397340
0.238313 0.986541 0.519796
0.238932 0.987160 0.643279
0.239556 0.987784 0.767584
0.240183 0.988410 0.892577
0.240666 0.988894 0.988894
0.310958 0.004548 0.004548
0.311498 0.005089 0.112388
0.312095 0.005686 0.231362
0.312703 0.006293 0.352443
0.313317 0.006907 0.474899
0.313936 0.007527 0.598382
0.314560 0.008150 0.722688
0.315187 0.008777 0.847681
0.315670 0.009260 0.943997
0.315360 0.097123 0.008951
0.315901 0.097663 0.116790
0.316498 0.098260 0.235765
0.317105 0.098868 0.356846
0.317720 0.099482 0.479302
0.318339 0.100101 0.602785
0.318962 0.100725 0.727091
0.319589 0.101351 0.852083
0.320072 0.101835 0.948400
0.321247 0.220901 0.014838
0.321788 0.221442 0.122677
0.322385 0.222039 0.241651
0.322992 0.222646 0.362733
0.323607 0.223260 0.485189
0.324226 0.223879 0.608672
0.324849 0.224503 0.732978
0.325476 0.225130 0.857970
0.325959 0.225613 0.954287
0.327249 0.347101 0.020840
0.327790 0.347642 0.128679
0.328387 0.348238 0.247654
0.328994 0.348846 0.368735
0.329609 0.349460 0.491191
0.330228 0.350079 0.614674
0.330851 0.350703 0.738980
0.331478 0.351330 0.863972
0.331961 0.351813 0.960289
0.333324 0.474822 0.026915
0.333865 0.475362 0.134754
0.334462 0.475959 0.253728
0.335069 0.476566 0.374810
0.335683 0.477181 0.497265
0.336302 0.477800 0.620748
0.336926 0.478424 0.745054
0.337553 0.479050 0.870047
0.338036 0.479534 0.966363
0.339452 0.603662 0.033042
0.339992 0.604202 0.140882
0.340589 0.604799 0.259856
0.341197 0.605407 0.380937
0.341811 0.606021 0.503393
0.342430 0.606640 0.626876
0.343054 0.607264 0.751182
0.343680 0.607891 0.876175
0.344164 0.608374 0.972491
0.345621 0.733390 0.039212
0.346162 0.733931 0.147051
0.346759 0.734528 0.266026
0.347366 0.735135 0.387107
0.347981 0.735749 0.509563
0.348600 0.736368 0.633046
0.349223 0.736992 0.757352
0.349850 0.737619 0.882344
0.350333 0.738102 0.978661
0.351826 0.863856 0.045417
0.352367 0.864397 0.153256
0.352964 0.864993 0.272231
0.353571 0.865601 0.393312
0.354186 0.866215 0.515768
0.354805 0.866834 0.639251
0.355428 0.867458 0.763557
0.356055 0.868085 0.888549
0.356538 0.868568 0.984866
0.357634 0.985961 0.051224
0.358175 0.986502 0.159064
0.358771 0.987099 0.278038
0.359379 0.987706 0.399119
0.359993 0.988320 0.521575
0.360612 0.988940 0.645058
0.361236 0.989563 0.769364
0.361863 0.990190 0.894357
0.362346 0.990673 0.990673
0.434202 0.006351 0.006351
0.434743 0.006892 0.114190
0.435339 0.007489 0.233164
0.435947 0.008096 0.354246
0.436561 0.008710 0.476702
0.437180 0.009329 0.600185
0.437804 0.009953 0.724491
0.438431 0.010580 0.849483
0.438914 0.011063 0.945800
0.438604 0.098925 0.010754
0.439145 0.099466 0.118593
0.439742 0.100063 0.237567
0.440349 0.100670 0.358649
0.440964 0.101284 0.481105
0.441583 0.101904 0.604588
0.442206 0.102527 0.728893
0.442833 0.103154 0.853886
0.443316 0.103637 0.950203
0.444491 0.222704 0.016641
0.445032 0.223245 0.124480
0.445629 0.223841 0.243454
0.446236 0.224449 0.364536
0.446851 0.225063 0.486991
0.447470 0.225682 0.610475
0.448093 0.226306 0.734780
0.448720 0.226933 0.859773
0.449203 0.227416 0.956090
0.450493 0.348903 0.022643
0.451034 0.349444 0.130482
0.451631 0.350041 0.249456
0.452238 0.350648 0.370538
0.452853 0.351262 0.492994
0.453472 0.351882 0.616477
0.454095 0.352505 0.740782
0.454722 0.353132 0.865775
0.455205 0.353615 0.962092
0.456568 0.476624 0.028717
0.457109 0.477165 0.136557
0.457706 0.477762 0.255531
0.458313 0.478369 0.376612
0.458927 0.478983 0.499068
0.459546 0.479603 0.622551
0.460170 0.480226 0.746857
0.460797 0.480853 0.871849
0.461280 0.481336 0.968166
0.462696 0.605464 0.034845
0.463236 0.606005 0.142684
0.463833 0.606602 0.261658
0.464441 0.607209 0.382740
0.465055 0.607823 0.505196
0.465674 0.608443 0.628679
0.466298 0.609066 0.752984
0.466924 0.609693 0.877977
0.467408 0.610176 0.974294
0.468865 0.735193 0.041015
0.469406 0.735733 0.148854
0.470003 0.736330 0.267828
0.470610 0.736937 0.388910
0.471225 0.737552 0.511366
0.471844 0.738171 0.634849
0.472467 0.738795 0.759154
0.473094 0.739421 0.884147
0.473577 0.739905 0.980464
0.475070 0.865658 0.047220
0.475611 0.866199 0.155059
0.476208 0.866796 0.274033
0.476815 0.867403 0.395115
0.477430 0.868018 0.517571
0.478049 0.868637 0.641054
0.478672 0.869260 0.765359
0.479299 0.869887 0.890352
0.479782 0.870370 0.986669
0.480878 0.987764 0.053027
0.481419 0.988305 0.160866
0.482015 0.988902 0.279841
0.482623 0.989509 0.400922
0.483237 0.990123 0.523378
0.483856 0.990742 0.646861
0.484480 0.991366 0.771167
0.485107 0.991993 0.896159
0.485590 0.992476 0.992476
0.558576 0.008170 0.008170
0.559117 0.008711 0.116009
0.559714 0.009308 0.234983
0.560321 0.009915 0.356065
0.560935 0.010529 0.478521
0.561555 0.011149 0.602004
0.562178 0.011772 0.726310
0.562805 0.012399 0.851302
0.563288 0.012882 0.947619
0.562979 0.100744 0.012573
0.563520 0.101285 0.120412
0.564117 0.101882 0.239386
0.564724 0.102489 0.360468
0.565338 0.103104 0.482924
0.565957 0.103723 0.606407
0.566581 0.104346 0.730713
0.567208 0.104973 0.855705
0.567691 0.105456 0.952022
0.568866 0.224523 0.018460
0.569407 0.225064 0.126299
0.570003 0.225660 0.245273
0.570611 0.226268 0.366355
0.571225 0.226882 0.488811
0.571844 0.227501 0.612294
0.572468 0.228125 0.736599
0.573095 0.228752 0.861592
0.573578 0.229235 0.957909
0.574868 0.350722 0.024462
0.575409 0.351263 0.132301
0.576006 0.351860 0.251275
0.576613 0.352467 0.372357
0.577227 0.353082 0.494813
0.577846 0.353701 0.618296
0.578470 0.354324 0.742602
0.579097 0.354951 0.867594
0.579580 0.355434 0.963911
0.580942 0.478443 0.030536
0.581483 0.478984 0.138376
0.582080 0.479581 0.257350
0.582687 0.480188 0.378431
0.583302 0.480802 0.500887
0.583921 0.481422 0.624370
0.584544 0.482045 0.748676
0.585171 0.482672 0.873669
0.585654 0.483155 0.969985
0.587070 0.607283 0.036664
0.587611 0.607824 0.144503
0.588208 0.608421 0.263477
0.588815 0.609028 0.384559
0.589429 0.609643 0.507015
0.590049 0.610262 0.630498
0.590672 0.610885 0.754804
0.591299 0.611512 0.879796
0.591782 0.611995 0.976113
0.593240 0.737012 0.042834
0.593781 0.737553 0.150673
0.594378 0.738149 0.269647
0.594985 0.738757 0.390729
0.595599 0.739371 0.513185
0.596218 0.739990 0.636668
0.596842 0.740614 0.760974
0.597469 0.741241 0.885966
0.597952 0.741724 0.982283
0.599445 0.867478 0.049039
0.599986 0.868019 0.156878
0.600583 0.868615 0.275852
0.601190 0.869223 0.396934
0.601804 0.869837 0.519390
0.602423 0.870456 0.642873
0.603047 0.871080 0.767179
0.603674 0.871707 0.892171
0.604157 0.872190 0.988488
0.605252 0.989583 0.054846
0.605793 0.990124 0.162686
0.606390 0.990721 0.281660
0.606997 0.991328 0.402741
0.607611 0.991942 0.525197
0.608231 0.992562 0.648680
0.608854 0.993185 0.772986
0.609481 0.993812 0.897979
0.609964 0.994295 0.994295
0.683839 0.010002 0.010002
0.684380 0.010543 0.117842
0.684977 0.011140 0.236816
0.685584 0.011747 0.357897
0.686198 0.012361 0.480353
0.686818 0.012981 0.603836
0.687441 0.013604 0.728142
0.688068 0.014231 0.853135
0.688551 0.014714 0.949451
0.688242 0.102577 0.014405
0.688783 0.103117 0.122244
0.689380 0.103714 0.241218
0.689987 0.104321 0.362300
0.690601 0.104936 0.484756
0.691220 0.105555 0.608239
0.691844 0.106179 0.732545
0.692471 0.106805 0.857537
0.692954 0.107289 0.953854
0.694129 0.226355 0.020292
0.694670 0.226896 0.128131
0.695266 0.227493 0.247105
0.695874 0.228100 0.368187
0.696488 0.228714 0.490643
0.697107 0.229333 0.614126
0.697731 0.229957 0.738432
0.698358 0.230584 0.863424
0.698841 0.231067 0.959741
0.700131 0.352555 0.026294
0.700672 0.353096 0.134133
0.701269 0.353692 0.253107
0.701876 0.354300 0.374189
0.702490 0.354914 0.496645
0.703109 0.355533 0.620128
0.703733 0.356157 0.744434
0.704360 0.356784 0.869426
0.704843 0.357267 0.965743
0.706205 0.480276 0.032369
0.706746 0.480816 0.140208
0.707343 0.481413 0.259182
0.707950 0.482020 0.380263
0.708564 0.482635 0.502719
0.709184 0.483254 0.626202
0.709807 0.483877 0.750508
0.710434 0.484504 0.875501
0.710917 0.484988 0.971817
0.712333 0.609116 0.038496
0.712874 0.609656 0.146336
0.713471 0.610253 0.265310
0.714078 0.610861 0.386391
0.714692 0.611475 0.508847
0.715312 0.612094 0.632330
0.715935 0.612718 0.756636
0.716562 0.613344 0.881628
0.717045 0.613828 0.977945
0.718503 0.738844 0.044666
0.719044 0.739385 0.152505
0.719641 0.739982 0.271479
0.720248 0.740589 0.392561
0.720862 0.741203 0.515017
0.721481 0.741822 0.638500
0.722105 0.742446 0.762806
0.722732 0.743073 0.887798
0.723215 0.743556 0.984115
0.724708 0.869310 0.050871
0.725249 0.869851 0.158710
0.725846 0.870447 0.277684
0.726453 0.871055 0.398766
0.727067 0.871669 0.521222
0.727686 0.872288 0.644705
0.728310 0.872912 0.769011
0.728937 0.873539 0.894003
0.729420 0.874022 0.990320
0.730515 0.991415 0.056678
0.731056 0.991956 0.164518
0.731653 0.992553 0.283492
0.732260 0.993160 0.404573
0.732874 0.993774 0.527029
0.733494 0.994394 0.650512
0.734117 0.995017 0.774818
0.734744 0.995644 0.899811
0.735227 0.996127 0.996127
0.809835 0.011845 0.011845
0.810376 0.012386 0.119684
0.810973 0.012983 0.238659
0.811580 0.013590 0.359740
0.812194 0.014204 0.482196
0.812814 0.014824 0.605679
0.813437 0.015447 0.729985
0.814064 0.016074 0.854977
0.814547 0.016557 0.951294
0.814238 0.104419 0.016248
0.814779 0.104960 0.124087
0.815376 0.105557 0.243061
0.815983 0.106164 0.364143
0.816597 0.106779 0.486599
0.817217 0.107398 0.610082
0.817840 0.108021 0.734388
0.818467 0.108648 0.859380
0.818950 0.109131 0.955697
0.820125 0.228198 0.022135
0.820666 0.228739 0.129974
0.821263 0.229335 0.248948
0.821870 0.229943 0.370030
0.822484 0.230557 0.492486
0.823104 0.231176 0.615969
0.823727 0.231800 0.740275
0.824354 0.232427 0.865267
0.824837 0.232910 0.961584
0.826127 0.354398 0.028137
0.826668 0.354938 0.135976
0.827265 0.355535 0.254950
0.827872 0.356142 0.376032
0.828486 0.356757 0.498488
0.829106 0.357376 0.621971
0.829729 0.358000 0.746277
0.830356 0.358626 0.871269
0.830839 0.359110 0.967586
0.832202 0.482118 0.034211
0.832742 0.482659 0.142051
0.833339 0.483256 0.261025
0.833947 0.483863 0.382106
0.834561 0.484478 0.504562
0.835180 0.485097 0.628045
0.835804 0.485720 0.752351
0.836431 0.486347 0.877344
0.836914 0.486830 0.973660
0.838329 0.610958 0.040339
0.838870 0.611499 0.148178
0.839467 0.612096 0.267152
0.840074 0.612703 0.388234
0.840688 0.613318 0.510690
0.841308 0.613937 0.634173
0.841931 0.614560 0.758479
0.842558 0.615187 0.883471
0.843041 0.615670 0.979788
0.844499 0.740687 0.046509
0.845040 0.741228 0.154348
0.845637 0.741824 0.273322
0.846244 0.742432 0.394404
0.846858 0.743046 0.516860
0.847478 0.743665 0.640343
0.848101 0.744289 0.764649
0.848728 0.744916 0.889641
0.849211 0.745399 0.985958
0.850704 0.871153 0.052714
0.851245 0.871694 0.160553
0.851842 0.872290 0.279527
0.852449 0.872898 0.400609
0.853063 0.873512 0.523065
0.853683 0.874131 0.646548
0.854306 0.874755 0.770854
0.854933 0.875382 0.895846
0.855416 0.875865 0.992163
0.856512 0.993258 0.058521
0.857052 0.993799 0.166361
0.857649 0.994396 0.285335
0.858256 0.995003 0.406416
0.858871 0.995617 0.528872
0.859490 0.996237 0.652355
0.860113 0.996860 0.776661
0.860740 0.997487 0.901654
0.861224 0.997970 0.997970
0.936457 0.013697 0.013697
0.936997 0.014238 0.121537
0.937594 0.014835 0.240511
0.938201 0.015442 0.361592
0.938816 0.016056 0.484048
0.939435 0.016676 0.607531
0.940058 0.017299 0.731837
0.940685 0.017926 0.856829
0.941169 0.018409 0.953146
0.940859 0.106271 0.018100
0.941400 0.106812 0.125939
0.941997 0.107409 0.244913
0.942604 0.108016 0.365995
0.943219 0.108631 0.488451
0.943838 0.109250 0.611934
0.944461 0.109873 0.736240
0.945088 0.110500 0.861232
0.945571 0.110983 0.957549
0.946746 0.230050 0.023987
0.947287 0.230591 0.131826
0.947884 0.231188 0.250800
0.948491 0.231795 0.371882
0.949105 0.232409 0.494338
0.949725 0.233028 0.617821
0.950348 0.233652 0.742127
0.950975 0.234279 0.867119
0.951458 0.234762 0.963436
0.952748 0.356250 0.029989
0.953289 0.356790 0.137828
0.953886 0.357387 0.256802
0.954493 0.357995 0.377884
0.955108 0.358609 0.500340
0.955727 0.359228 0.623823
0.956350 0.359852 0.748129
0.956977 0.360478 0.873121
0.957460 0.360962 0.969438
0.958823 0.483970 0.036063
0.959364 0.484511 0.143903
0.959960 0.485108 0.262877
0.960568 0.485715 0.383958
0.961182 0.486330 0.506414
0.961801 0.486949 0.629897
0.962425 0.487572 0.754203
0.963052 0.488199 0.879196
0.963535 0.488682 0.975512
0.964950 0.612811 0.042191
0.965491 0.613351 0.150030
0.966088 0.613948 0.269005
0.966695 0.614555 0.390086
0.967310 0.615170 0.512542
0.967929 0.615789 0.636025
0.968552 0.616412 0.760331
0.969179 0.617039 0.885323
0.969662 0.617523 0.981640
0.971120 0.742539 0.048361
0.971661 0.743080 0.156200
0.972258 0.743676 0.275174
0.972865 0.744284 0.396256
0.973480 0.744898 0.518712
0.974099 0.745517 0.642195
0.974722 0.746141 0.766501
0.975349 0.746768 0.891493
0.975832 0.747251 0.987810
0.977325 0.873005 0.054566
0.977866 0.873546 0.162405
0.978463 0.874142 0.281379
0.979070 0.874750 0.402461
0.979685 0.875364 0.524917
0.980304 0.875983 0.648400
0.980927 0.876607 0.772706
0.981554 0.877234 0.897698
0.982037 0.877717 0.994015
0.983133 0.995110 0.060373
0.983674 0.995651 0.168213
0.984270 0.996248 0.287187
0.984878 0.996855 0.408268
0.985492 0.997469 0.530724
0.986111 0.998089 0.654207
0.986735 0.998712 0.778513
0.987362 0.999339 0.903506
0.987845 0.999822 0.999822
