skills/unified-director/assets/grade/luts/moody_teal_v05.cube
TITLE "moody_teal_v05"
LUT_3D_SIZE 17
DOMAIN_MIN 0.0 0.0 0.0
DOMAIN_MAX 1.0 1.0 1.0
0.000000 0.000000 0.000000
0.000250 0.000250 0.049755
0.000541 0.000541 0.107839
0.000838 0.000838 0.166984
0.001138 0.001138 0.226813
0.001440 0.001440 0.287151
0.001745 0.001745 0.347895
0.002051 0.002051 0.408978
0.002359 0.002359 0.470351
0.002668 0.002668 0.531979
0.002978 0.002978 0.593834
0.003290 0.003290 0.655894
0.003602 0.003602 0.718140
0.003915 0.003915 0.780557
0.004229 0.004229 0.843132
0.004544 0.004544 0.905855
0.004712 0.004712 0.939449
0.001544 0.032455 0.001544
0.001793 0.032705 0.051298
0.002084 0.032996 0.109383
0.002381 0.033293 0.168528
0.002681 0.033593 0.228357
0.002984 0.033896 0.288695
0.003289 0.034200 0.349439
0.003595 0.034507 0.410521
0.003903 0.034815 0.471894
0.004212 0.035124 0.533523
0.004522 0.035434 0.595378
0.004833 0.035745 0.657437
0.005146 0.036057 0.719683
0.005459 0.036370 0.782100
0.005772 0.036684 0.844676
0.006087 0.036999 0.907399
0.006256 0.037167 0.940992
0.004403 0.092574 0.004403
0.004652 0.092824 0.054157
0.004944 0.093115 0.112242
0.005240 0.093412 0.171387
0.005540 0.093712 0.231216
0.005843 0.094015 0.291554
0.006148 0.094319 0.352298
0.006454 0.094626 0.413380
0.006762 0.094933 0.474754
0.007071 0.095243 0.536382
0.007381 0.095553 0.598237
0.007693 0.095864 0.660296
0.008005 0.096176 0.722542
0.008318 0.096489 0.784960
0.008632 0.096803 0.847535
0.008946 0.097118 0.910258
0.009115 0.097286 0.943852
0.007327 0.154060 0.007327
0.007577 0.154310 0.057082
0.007868 0.154601 0.115166
0.008165 0.154898 0.174312
0.008465 0.155198 0.234141
0.008767 0.155500 0.294478
0.009072 0.155805 0.355222
0.009378 0.156111 0.416305
0.009686 0.156419 0.477678
0.009995 0.156728 0.539306
0.010306 0.157038 0.601161
0.010617 0.157350 0.663221
0.010929 0.157662 0.725467
0.011242 0.157975 0.787884
0.011556 0.158289 0.850459
0.011871 0.158603 0.913182
0.012039 0.158772 0.946776
0.010290 0.216353 0.010290
0.010539 0.216602 0.060044
0.010831 0.216894 0.118129
0.011127 0.217190 0.177274
0.011427 0.217490 0.237103
0.011730 0.217793 0.297441
0.012035 0.218098 0.358185
0.012341 0.218404 0.419267
0.012649 0.218712 0.480641
0.012958 0.219021 0.542269
0.013268 0.219331 0.604124
0.013580 0.219643 0.666183
0.013892 0.219955 0.728429
0.014205 0.220268 0.790847
0.014519 0.220582 0.853422
0.014833 0.220896 0.916145
0.015002 0.221065 0.949739
0.013280 0.279225 0.013280
0.013530 0.279475 0.063035
0.013821 0.279766 0.121119
0.014118 0.280063 0.180264
0.014418 0.280363 0.240093
0.014720 0.280666 0.300431
0.015025 0.280970 0.361175
0.015331 0.281277 0.422258
0.015639 0.281585 0.483631
0.015948 0.281894 0.545259
0.016259 0.282204 0.607114
0.016570 0.282515 0.669174
0.016882 0.282827 0.731420
0.017195 0.283140 0.793837
0.017509 0.283454 0.856412
0.017824 0.283769 0.919135
0.017992 0.283937 0.952729
0.016292 0.342552 0.016292
0.016541 0.342802 0.066046
0.016833 0.343093 0.124131
0.017129 0.343390 0.183276
0.017429 0.343690 0.243105
0.017732 0.343993 0.303443
0.018037 0.344297 0.364187
0.018343 0.344604 0.425269
0.018651 0.344912 0.486643
0.018960 0.345221 0.548271
0.019270 0.345531 0.610126
0.019582 0.345842 0.672185
0.019894 0.346154 0.734431
0.020207 0.346467 0.796849
0.020521 0.346781 0.859424
0.020835 0.347096 0.922147
0.021004 0.347264 0.955741
0.019322 0.406254 0.019322
0.019571 0.406503 0.069076
0.019862 0.406795 0.127161
0.020159 0.407091 0.186306
0.020459 0.407391 0.246135
0.020762 0.407694 0.306473
0.021066 0.407999 0.367216
0.021373 0.408305 0.428299
0.021681 0.408613 0.489672
0.021990 0.408922 0.551300
0.022300 0.409232 0.613155
0.022611 0.409543 0.675215
0.022923 0.409856 0.737461
0.023237 0.410169 0.799878
0.023550 0.410483 0.862454
0.023865 0.410797 0.925177
0.024034 0.410966 0.958770
0.022366 0.470273 0.022366
0.022616 0.470523 0.072121
0.022907 0.470814 0.130206
0.023204 0.471111 0.189351
0.023504 0.471411 0.249180
0.023807 0.471714 0.309517
0.024111 0.472018 0.370261
0.024418 0.472325 0.431344
0.024725 0.472632 0.492717
0.025035 0.472942 0.554345
0.025345 0.473252 0.616200
0.025656 0.473563 0.678260
0.025968 0.473875 0.740506
0.026281 0.474188 0.802923
0.026595 0.474502 0.865499
0.026910 0.474817 0.928221
0.027078 0.474985 0.961815
0.025424 0.534570 0.025424
0.025674 0.534820 0.075179
0.025965 0.535111 0.133264
0.026262 0.535408 0.192409
0.026562 0.535708 0.252238
0.026865 0.536011 0.312575
0.027169 0.536315 0.373319
0.027476 0.536622 0.434402
0.027783 0.536930 0.495775
0.028093 0.537239 0.557403
0.028403 0.537549 0.619258
0.028714 0.537860 0.681318
0.029026 0.538172 0.743564
0.029339 0.538485 0.805981
0.029653 0.538799 0.868557
0.029968 0.539114 0.931279
0.030136 0.539282 0.964873
0.028494 0.599113 0.028494
0.028744 0.599363 0.078248
0.029035 0.599654 0.136333
0.029332 0.599951 0.195478
0.029632 0.600251 0.255307
0.029934 0.600554 0.315645
0.030239 0.600858 0.376389
0.030545 0.601165 0.437471
0.030853 0.601473 0.498845
0.031162 0.601782 0.560473
0.031472 0.602092 0.622328
0.031784 0.602403 0.684388
0.032096 0.602715 0.746634
0.032409 0.603028 0.809051
0.032723 0.603342 0.871626
0.033037 0.603657 0.934349
0.033206 0.603825 0.967943
0.031574 0.663877 0.031574
0.031824 0.664127 0.081329
0.032115 0.664418 0.139414
0.032412 0.664715 0.198559
0.032712 0.665015 0.258388
0.033014 0.665317 0.318725
0.033319 0.665622 0.379469
0.033625 0.665929 0.440552
0.033933 0.666236 0.501925
0.034242 0.666545 0.563553
0.034553 0.666856 0.625408
0.034864 0.667167 0.687468
0.035176 0.667479 0.749714
0.035489 0.667792 0.812131
0.035803 0.668106 0.874706
0.036118 0.668421 0.937429
0.036286 0.668589 0.971023
0.034664 0.728842 0.034664
0.034913 0.729091 0.084418
0.035205 0.729383 0.142503
0.035501 0.729679 0.201648
0.035801 0.729979 0.261477
0.036104 0.730282 0.321815
0.036409 0.730587 0.382559
0.036715 0.730893 0.443641
0.037023 0.731201 0.505015
0.037332 0.731510 0.566643
0.037642 0.731820 0.628498
0.037954 0.732131 0.690557
0.038266 0.732444 0.752803
0.038579 0.732757 0.815221
0.038893 0.733071 0.877796
0.039207 0.733385 0.940519
0.039376 0.733554 0.974113
0.037762 0.793990 0.037762
0.038012 0.794239 0.087517
0.038303 0.794531 0.145602
0.038600 0.794827 0.204747
0.038900 0.795127 0.264576
0.039203 0.795430 0.324913
0.039507 0.795735 0.385657
0.039814 0.796041 0.446740
0.040121 0.796349 0.508113
0.040431 0.796658 0.569741
0.040741 0.796968 0.631596
0.041052 0.797280 0.693656
0.041364 0.797592 0.755902
0.041677 0.797905 0.818319
0.041991 0.798219 0.880895
0.042306 0.798533 0.943617
0.042474 0.798702 0.977211
0.040869 0.859308 0.040869
0.041118 0.859557 0.090623
0.041410 0.859848 0.148708
0.041706 0.860145 0.207853
0.042006 0.860445 0.267682
0.042309 0.860748 0.328020
0.042614 0.861052 0.388764
0.042920 0.861359 0.449846
0.043228 0.861667 0.511220
0.043537 0.861976 0.572848
0.043847 0.862286 0.634703
0.044159 0.862597 0.696762
0.044471 0.862910 0.759008
0.044784 0.863223 0.821426
0.045098 0.863536 0.884001
0.045412 0.863851 0.946724
0.045581 0.864020 0.980318
0.043983 0.924783 0.043983
0.044232 0.925032 0.093737
0.044524 0.925324 0.151822
0.044820 0.925620 0.210967
0.045120 0.925920 0.270796
0.045423 0.926223 0.331134
0.045728 0.926528 0.391878
0.046034 0.926834 0.452960
0.046342 0.927142 0.514334
0.046651 0.927451 0.575962
0.046961 0.927761 0.637817
0.047273 0.928072 0.699876
0.047585 0.928385 0.762122
0.047898 0.928698 0.824540
0.048212 0.929012 0.887115
0.048526 0.929326 0.949838
0.048695 0.929495 0.983432
0.046676 0.981413 0.046676
0.046926 0.981663 0.096431
0.047217 0.981954 0.154516
0.047514 0.982251 0.213661
0.047814 0.982551 0.273490
0.048116 0.982853 0.333827
0.048421 0.983158 0.394571
0.048728 0.983464 0.455654
0.049035 0.983772 0.517027
0.049344 0.984081 0.578655
0.049655 0.984392 0.640510
0.049966 0.984703 0.702570
0.050278 0.985015 0.764816
0.050591 0.985328 0.827233
0.050905 0.985642 0.889809
0.051220 0.985957 0.952531
0.051388 0.986125 0.986125
0.012876 0.000188 0.000188
0.013126 0.000438 0.049943
0.013417 0.000729 0.108028
0.013714 0.001026 0.167173
0.014014 0.001326 0.227002
0.014316 0.001629 0.287339
0.014621 0.001933 0.348083
0.014928 0.002240 0.409166
0.015235 0.002547 0.470539
0.015544 0.002857 0.532167
0.015855 0.003167 0.594022
0.016166 0.003478 0.656082
0.016478 0.003790 0.718328
0.016791 0.004103 0.780745
0.017105 0.004417 0.843321
0.017420 0.004732 0.906043
0.017588 0.004900 0.939637
0.014420 0.032644 0.001732
0.014669 0.032893 0.051486
0.014961 0.033185 0.109571
0.015257 0.033481 0.168716
0.015557 0.033781 0.228545
0.015860 0.034084 0.288883
0.016165 0.034389 0.349627
0.016471 0.034695 0.410709
0.016779 0.035003 0.472083
0.017088 0.035312 0.533711
0.017398 0.035622 0.595566
0.017710 0.035934 0.657626
0.018022 0.036246 0.719872
0.018335 0.036559 0.782289
0.018649 0.036873 0.844864
0.018963 0.037187 0.907587
0.019132 0.037356 0.941181
0.017279 0.092763 0.004591
0.017529 0.093012 0.054346
0.017820 0.093304 0.112431
0.018117 0.093600 0.171576
0.018417 0.093900 0.231405
0.018719 0.094203 0.291742
0.019024 0.094508 0.352486
0.019330 0.094814 0.413569
0.019638 0.095122 0.474942
0.019947 0.095431 0.536570
0.020258 0.095741 0.598425
0.020569 0.096052 0.660485
0.020881 0.096365 0.722731
0.021194 0.096678 0.785148
0.021508 0.096992 0.847723
0.021823 0.097306 0.910446
0.021991 0.097475 0.944040
0.020203 0.154248 0.007515
0.020453 0.154498 0.057270
0.020744 0.154789 0.115355
0.021041 0.155086 0.174500
0.021341 0.155386 0.234329
0.021644 0.155689 0.294667
0.021948 0.155993 0.355410
0.022255 0.156300 0.416493
0.022562 0.156607 0.477866
0.022872 0.156917 0.539494
0.023182 0.157227 0.601349
0.023493 0.157538 0.663409
0.023805 0.157850 0.725655
0.024118 0.158163 0.788072
0.024432 0.158477 0.850648
0.024747 0.158792 0.913370
0.024915 0.158960 0.946964
0.023166 0.216541 0.010478
0.023416 0.216791 0.060233
0.023707 0.217082 0.118317
0.024004 0.217379 0.177463
0.024304 0.217679 0.237292
0.024606 0.217981 0.297629
0.024911 0.218286 0.358373
0.025217 0.218592 0.419456
0.025525 0.218900 0.480829
0.025834 0.219209 0.542457
0.026144 0.219520 0.604312
0.026456 0.219831 0.666372
0.026768 0.220143 0.728618
0.027081 0.220456 0.791035
0.027395 0.220770 0.853610
0.027710 0.221085 0.916333
0.027878 0.221253 0.949927
0.026156 0.279414 0.013468
0.026406 0.279663 0.063223
0.026697 0.279955 0.121308
0.026994 0.280251 0.180453
0.027294 0.280551 0.240282
0.027597 0.280854 0.300619
0.027901 0.281159 0.361363
0.028208 0.281465 0.422446
0.028515 0.281773 0.483819
0.028824 0.282082 0.545447
0.029135 0.282392 0.607302
0.029446 0.282704 0.669362
0.029758 0.283016 0.731608
0.030071 0.283329 0.794025
0.030385 0.283643 0.856601
0.030700 0.283957 0.919323
0.030868 0.284126 0.952917
0.029168 0.342741 0.016480
0.029418 0.342990 0.066235
0.029709 0.343282 0.124320
0.030006 0.343578 0.183465
0.030306 0.343878 0.243294
0.030608 0.344181 0.303631
0.030913 0.344486 0.364375
0.031219 0.344792 0.425458
0.031527 0.345100 0.486831
0.031836 0.345409 0.548459
0.032147 0.345719 0.610314
0.032458 0.346031 0.672374
0.032770 0.346343 0.734620
0.033083 0.346656 0.797037
0.033397 0.346970 0.859612
0.033712 0.347284 0.922335
0.033880 0.347453 0.955929
0.032198 0.406442 0.019510
0.032447 0.406692 0.069264
0.032739 0.406983 0.127349
0.033035 0.407279 0.186494
0.033335 0.407580 0.246323
0.033638 0.407882 0.306661
0.033943 0.408187 0.367405
0.034249 0.408493 0.428487
0.034557 0.408801 0.489861
0.034866 0.409110 0.551489
0.035176 0.409420 0.613344
0.035487 0.409732 0.675403
0.035800 0.410044 0.737649
0.036113 0.410357 0.800067
0.036427 0.410671 0.862642
0.036741 0.410985 0.925365
0.036910 0.411154 0.958959
0.035243 0.470462 0.022555
0.035492 0.470711 0.072309
0.035783 0.471003 0.130394
0.036080 0.471299 0.189539
0.036380 0.471599 0.249368
0.036683 0.471902 0.309706
0.036987 0.472207 0.370450
0.037294 0.472513 0.431532
0.037602 0.472821 0.492905
0.037911 0.473130 0.554534
0.038221 0.473440 0.616389
0.038532 0.473751 0.678448
0.038844 0.474064 0.740694
0.039158 0.474377 0.803111
0.039471 0.474691 0.865687
0.039786 0.475005 0.928410
0.039955 0.475174 0.962003
0.038300 0.534759 0.025613
0.038550 0.535008 0.075367
0.038841 0.535300 0.133452
0.039138 0.535596 0.192597
0.039438 0.535896 0.252426
0.039741 0.536199 0.312764
0.040045 0.536504 0.373508
0.040352 0.536810 0.434590
0.040660 0.537118 0.495963
0.040969 0.537427 0.557592
0.041279 0.537737 0.619447
0.041590 0.538048 0.681506
0.041902 0.538361 0.743752
0.042216 0.538674 0.806169
0.042529 0.538988 0.868745
0.042844 0.539302 0.931468
0.043012 0.539471 0.965061
0.041370 0.599302 0.028682
0.041620 0.599551 0.078437
0.041911 0.599843 0.136522
0.042208 0.600139 0.195667
0.042508 0.600439 0.255496
0.042810 0.600742 0.315833
0.043115 0.601047 0.376577
0.043421 0.601353 0.437660
0.043729 0.601661 0.499033
0.044038 0.601970 0.560661
0.044349 0.602280 0.622516
0.044660 0.602591 0.684576
0.044972 0.602904 0.746822
0.045285 0.603217 0.809239
0.045599 0.603531 0.871815
0.045914 0.603845 0.934537
0.046082 0.604014 0.968131
0.044450 0.664066 0.031762
0.044700 0.664315 0.081517
0.044991 0.664606 0.139602
0.045288 0.664903 0.198747
0.045588 0.665203 0.258576
0.045891 0.665506 0.318914
0.046195 0.665811 0.379657
0.046502 0.666117 0.440740
0.046809 0.666425 0.502113
0.047119 0.666734 0.563741
0.047429 0.667044 0.625596
0.047740 0.667355 0.687656
0.048052 0.667668 0.749902
0.048365 0.667981 0.812319
0.048679 0.668294 0.874895
0.048994 0.668609 0.937617
0.049162 0.668778 0.971211
0.047540 0.729030 0.034852
0.047790 0.729280 0.084607
0.048081 0.729571 0.142692
0.048378 0.729868 0.201837
0.048678 0.730168 0.261666
0.048980 0.730470 0.322003
0.049285 0.730775 0.382747
0.049591 0.731081 0.443830
0.049899 0.731389 0.505203
0.050208 0.731698 0.566831
0.050519 0.732008 0.628686
0.050830 0.732320 0.690746
0.051142 0.732632 0.752992
0.051455 0.732945 0.815409
0.051769 0.733259 0.877984
0.052084 0.733574 0.940707
0.052252 0.733742 0.974301
0.050639 0.794178 0.037951
0.050888 0.794428 0.087705
0.051179 0.794719 0.145790
0.051476 0.795016 0.204935
0.051776 0.795316 0.264764
0.052079 0.795618 0.325102
0.052383 0.795923 0.385846
0.052690 0.796229 0.446928
0.052998 0.796537 0.508301
0.053307 0.796846 0.569930
0.053617 0.797157 0.631785
0.053928 0.797468 0.693844
0.054241 0.797780 0.756090
0.054554 0.798093 0.818507
0.054867 0.798407 0.881083
0.055182 0.798722 0.943806
0.055351 0.798890 0.977400
0.053745 0.859496 0.041057
0.053995 0.859745 0.090812
0.054286 0.860037 0.148897
0.054583 0.860333 0.208042
0.054883 0.860634 0.267871
0.055185 0.860936 0.328208
0.055490 0.861241 0.388952
0.055796 0.861547 0.450035
0.056104 0.861855 0.511408
0.056413 0.862164 0.573036
0.056724 0.862474 0.634891
0.057035 0.862786 0.696951
0.057347 0.863098 0.759197
0.057660 0.863411 0.821614
0.057974 0.863725 0.884189
0.058289 0.864039 0.946912
0.058457 0.864208 0.980506
0.056859 0.924971 0.044171
0.057109 0.925221 0.093926
0.057400 0.925512 0.152011
0.057697 0.925809 0.211156
0.057997 0.926109 0.270985
0.058299 0.926411 0.331322
0.058604 0.926716 0.392066
0.058910 0.927022 0.453149
0.059218 0.927330 0.514522
0.059527 0.927639 0.576150
0.059838 0.927950 0.638005
0.060149 0.928261 0.700065
0.060461 0.928573 0.762311
0.060774 0.928886 0.824728
0.061088 0.929200 0.887303
0.061403 0.929515 0.950026
0.061571 0.929683 0.983620
0.059552 0.981601 0.046865
0.059802 0.981851 0.096619
0.060093 0.982142 0.154704
0.060390 0.982439 0.213849
0.060690 0.982739 0.273678
0.060993 0.983042 0.334016
0.061297 0.983346 0.394760
0.061604 0.983653 0.455842
0.061912 0.983961 0.517215
0.062221 0.984270 0.578843
0.062531 0.984580 0.640698
0.062842 0.984891 0.702758
0.063154 0.985203 0.765004
0.063467 0.985516 0.827421
0.063781 0.985830 0.889997
0.064096 0.986145 0.952720
0.064264 0.986313 0.986313
0.070202 0.001027 0.001027
0.070452 0.001276 0.050781
0.070743 0.001568 0.108866
0.071040 0.001864 0.168011
0.071340 0.002164 0.227840
0.071643 0.002467 0.288178
0.071947 0.002772 0.348922
0.072254 0.003078 0.410004
0.072562 0.003386 0.471378
0.072871 0.003695 0.533006
0.073181 0.004005 0.594861
0.073492 0.004317 0.656920
0.073804 0.004629 0.719166
0.074118 0.004942 0.781584
0.074431 0.005256 0.844159
0.074746 0.005570 0.906882
0.074914 0.005739 0.940476
0.071746 0.033482 0.002570
0.071996 0.033732 0.052325
0.072287 0.034023 0.110410
0.072584 0.034320 0.169555
0.072884 0.034620 0.229384
0.073186 0.034923 0.289721
0.073491 0.035227 0.350465
0.073797 0.035534 0.411548
0.074105 0.035841 0.472921
0.074414 0.036151 0.534549
0.074725 0.036461 0.596404
0.075036 0.036772 0.658464
0.075348 0.037084 0.720710
0.075661 0.037397 0.783127
0.075975 0.037711 0.845703
0.076290 0.038026 0.908425
0.076458 0.038194 0.942019
0.074605 0.093601 0.005430
0.074855 0.093851 0.055184
0.075146 0.094142 0.113269
0.075443 0.094439 0.172414
0.075743 0.094739 0.232243
0.076046 0.095041 0.292581
0.076350 0.095346 0.353325
0.076657 0.095652 0.414407
0.076964 0.095960 0.475781
0.077274 0.096269 0.537409
0.077584 0.096580 0.599264
0.077895 0.096891 0.661323
0.078207 0.097203 0.723569
0.078520 0.097516 0.785986
0.078834 0.097830 0.848562
0.079149 0.098145 0.911285
0.079317 0.098313 0.944879
0.077530 0.155087 0.008354
0.077779 0.155336 0.058108
0.078070 0.155628 0.116193
0.078367 0.155924 0.175338
0.078667 0.156224 0.235167
0.078970 0.156527 0.295505
0.079275 0.156832 0.356249
0.079581 0.157138 0.417331
0.079889 0.157446 0.478705
0.080198 0.157755 0.540333
0.080508 0.158065 0.602188
0.080819 0.158377 0.664248
0.081132 0.158689 0.726494
0.081445 0.159002 0.788911
0.081759 0.159316 0.851486
0.082073 0.159630 0.914209
0.082242 0.159799 0.947803
0.080492 0.217380 0.011317
0.080742 0.217629 0.061071
0.081033 0.217920 0.119156
0.081330 0.218217 0.178301
0.081630 0.218517 0.238130
0.081933 0.218820 0.298468
0.082237 0.219125 0.359212
0.082544 0.219431 0.420294
0.082851 0.219739 0.481667
0.083161 0.220048 0.543296
0.083471 0.220358 0.605151
0.083782 0.220669 0.667210
0.084094 0.220982 0.729456
0.084407 0.221295 0.791873
0.084721 0.221608 0.854449
0.085036 0.221923 0.917172
0.085204 0.222092 0.950765
0.083482 0.280252 0.014307
0.083732 0.280502 0.064061
0.084023 0.280793 0.122146
0.084320 0.281090 0.181291
0.084620 0.281390 0.241120
0.084923 0.281693 0.301458
0.085227 0.281997 0.362202
0.085534 0.282304 0.423284
0.085842 0.282611 0.484658
0.086151 0.282920 0.546286
0.086461 0.283231 0.608141
0.086772 0.283542 0.670200
0.087084 0.283854 0.732446
0.087398 0.284167 0.794864
0.087711 0.284481 0.857439
0.088026 0.284796 0.920162
0.088194 0.284964 0.953756
0.086494 0.343579 0.017319
0.086744 0.343829 0.067073
0.087035 0.344120 0.125158
0.087332 0.344417 0.184303
0.087632 0.344717 0.244132
0.087935 0.345020 0.304470
0.088239 0.345324 0.365214
0.088546 0.345631 0.426296
0.088853 0.345938 0.487670
0.089163 0.346247 0.549298
0.089473 0.346558 0.611153
0.089784 0.346869 0.673212
0.090096 0.347181 0.735458
0.090409 0.347494 0.797876
0.090723 0.347808 0.860451
0.091038 0.348123 0.923174
0.091206 0.348291 0.956768
0.089524 0.407280 0.020348
0.089774 0.407530 0.070103
0.090065 0.407821 0.128188
0.090362 0.408118 0.187333
0.090662 0.408418 0.247162
0.090964 0.408721 0.307499
0.091269 0.409025 0.368243
0.091575 0.409332 0.429326
0.091883 0.409640 0.490699
0.092192 0.409949 0.552327
0.092502 0.410259 0.614182
0.092814 0.410570 0.676242
0.093126 0.410882 0.738488
0.093439 0.411195 0.800905
0.093753 0.411509 0.863481
0.094067 0.411824 0.926203
0.094236 0.411992 0.959797
0.092569 0.471300 0.023393
0.092818 0.471550 0.073148
0.093110 0.471841 0.131232
0.093406 0.472138 0.190378
0.093706 0.472438 0.250207
0.094009 0.472740 0.310544
0.094314 0.473045 0.371288
0.094620 0.473351 0.432371
0.094928 0.473659 0.493744
0.095237 0.473968 0.555372
0.095547 0.474279 0.617227
0.095859 0.474590 0.679287
0.096171 0.474902 0.741533
0.096484 0.475215 0.803950
0.096798 0.475529 0.866525
0.097112 0.475844 0.929248
0.097281 0.476012 0.962842
0.095627 0.535597 0.026451
0.095876 0.535847 0.076206
0.096168 0.536138 0.134290
0.096464 0.536435 0.193436
0.096764 0.536735 0.253265
0.097067 0.537037 0.313602
0.097372 0.537342 0.374346
0.097678 0.537649 0.435429
0.097986 0.537956 0.496802
0.098295 0.538265 0.558430
0.098605 0.538576 0.620285
0.098917 0.538887 0.682345
0.099229 0.539199 0.744591
0.099542 0.539512 0.807008
0.099856 0.539826 0.869583
0.100170 0.540141 0.932306
0.100339 0.540309 0.965900
0.098696 0.600140 0.029521
0.098946 0.600390 0.079275
0.099237 0.600681 0.137360
0.099534 0.600978 0.196505
0.099834 0.601278 0.256334
0.100137 0.601580 0.316672
0.100441 0.601885 0.377416
0.100748 0.602191 0.438498
0.101056 0.602499 0.499872
0.101365 0.602808 0.561500
0.101675 0.603119 0.623355
0.101986 0.603430 0.685414
0.102298 0.603742 0.747660
0.102611 0.604055 0.810078
0.102925 0.604369 0.872653
0.103240 0.604684 0.935376
0.103408 0.604852 0.968970
0.101777 0.664904 0.032601
0.102026 0.665154 0.082355
0.102318 0.665445 0.140440
0.102614 0.665742 0.199585
0.102914 0.666042 0.259414
0.103217 0.666344 0.319752
0.103522 0.666649 0.380496
0.103828 0.666955 0.441579
0.104136 0.667263 0.502952
0.104445 0.667572 0.564580
0.104755 0.667883 0.626435
0.105066 0.668194 0.688495
0.105379 0.668506 0.750741
0.105692 0.668819 0.813158
0.106006 0.669133 0.875733
0.106320 0.669448 0.938456
0.106489 0.669616 0.972050
0.104866 0.729868 0.035691
0.105116 0.730118 0.085445
0.105407 0.730409 0.143530
0.105704 0.730706 0.202675
0.106004 0.731006 0.262504
0.106307 0.731309 0.322842
0.106611 0.731613 0.383586
0.106918 0.731920 0.444668
0.107225 0.732228 0.506042
0.107535 0.732537 0.567670
0.107845 0.732847 0.629525
0.108156 0.733158 0.691584
0.108468 0.733470 0.753830
0.108781 0.733784 0.816248
0.109095 0.734097 0.878823
0.109410 0.734412 0.941546
0.109578 0.734580 0.975140
0.107965 0.795017 0.038789
0.108214 0.795266 0.088544
0.108506 0.795558 0.146629
0.108802 0.795854 0.205774
0.109102 0.796154 0.265603
0.109405 0.796457 0.325940
0.109710 0.796762 0.386684
0.110016 0.797068 0.447767
0.110324 0.797376 0.509140
0.110633 0.797685 0.570768
0.110943 0.797995 0.632623
0.111255 0.798306 0.694683
0.111567 0.798619 0.756929
0.111880 0.798932 0.819346
0.112194 0.799246 0.881921
0.112508 0.799560 0.944644
0.112677 0.799729 0.978238
0.111071 0.860334 0.041896
0.111321 0.860584 0.091650
0.111612 0.860875 0.149735
0.111909 0.861172 0.208880
0.112209 0.861472 0.268709
0.112512 0.861775 0.329047
0.112816 0.862079 0.389791
0.113123 0.862386 0.450873
0.113430 0.862694 0.512246
0.113740 0.863003 0.573875
0.114050 0.863313 0.635730
0.114361 0.863624 0.697789
0.114673 0.863936 0.760035
0.114986 0.864249 0.822452
0.115300 0.864563 0.885028
0.115615 0.864878 0.947751
0.115783 0.865046 0.981345
0.114185 0.925810 0.045010
0.114435 0.926059 0.094764
0.114726 0.926350 0.152849
0.115023 0.926647 0.211994
0.115323 0.926947 0.271823
0.115626 0.927250 0.332161
0.115930 0.927554 0.392905
0.116237 0.927861 0.453987
0.116544 0.928169 0.515361
0.116854 0.928478 0.576989
0.117164 0.928788 0.638844
0.117475 0.929099 0.700903
0.117787 0.929411 0.763149
0.118100 0.929725 0.825566
0.118414 0.930038 0.888142
0.118729 0.930353 0.950865
0.118897 0.930522 0.984459
0.116879 0.982440 0.047703
0.117128 0.982689 0.097458
0.117420 0.982981 0.155542
0.117716 0.983277 0.214687
0.118016 0.983578 0.274516
0.118319 0.983880 0.334854
0.118624 0.984185 0.395598
0.118930 0.984491 0.456681
0.119238 0.984799 0.518054
0.119547 0.985108 0.579682
0.119857 0.985418 0.641537
0.120168 0.985730 0.703597
0.120481 0.986042 0.765843
0.120794 0.986355 0.828260
0.121108 0.986669 0.890835
0.121422 0.986983 0.953558
0.121591 0.987152 0.987152
0.129291 0.001891 0.001891
0.129540 0.002141 0.051646
0.129832 0.002432 0.109730
0.130128 0.002729 0.168876
0.130429 0.003029 0.228704
0.130731 0.003331 0.289042
0.131036 0.003636 0.349786
0.131342 0.003942 0.410869
0.131650 0.004250 0.472242
0.131959 0.004559 0.533870
0.132269 0.004870 0.595725
0.132581 0.005181 0.657785
0.132893 0.005493 0.720031
0.133206 0.005806 0.782448
0.133520 0.006120 0.845023
0.133834 0.006435 0.907746
0.134003 0.006603 0.941340
0.130835 0.034347 0.003435
