skills/unified-director/assets/grade/luts/moody_teal_v04.cube
TITLE "moody_teal_v04"
LUT_3D_SIZE 9
DOMAIN_MIN 0.0 0.0 0.0
DOMAIN_MAX 1.0 1.0 1.0
0.000000 0.000000 0.000000
0.000491 0.000491 0.109142
0.001029 0.001029 0.228638
0.001576 0.001576 0.350041
0.002128 0.002128 0.472686
0.002684 0.002684 0.596259
0.003244 0.003244 0.720576
0.003807 0.003807 0.845512
0.004256 0.004256 0.945309
0.004115 0.095976 0.004115
0.004607 0.096468 0.113257
0.005145 0.097006 0.232753
0.005691 0.097552 0.354156
0.006244 0.098104 0.476801
0.006800 0.098661 0.600375
0.007360 0.099221 0.724691
0.007922 0.099783 0.849628
0.008371 0.100232 0.949424
0.009428 0.219866 0.009428
0.009919 0.220357 0.118570
0.010457 0.220895 0.238065
0.011004 0.221442 0.359468
0.011556 0.221994 0.482114
0.012112 0.222550 0.605687
0.012672 0.223110 0.730003
0.013234 0.223673 0.854940
0.013684 0.224122 0.954736
0.014832 0.345910 0.014832
0.015324 0.346401 0.123974
0.015862 0.346939 0.243470
0.016408 0.347485 0.364873
0.016960 0.348038 0.487518
0.017517 0.348594 0.611092
0.018076 0.349154 0.735408
0.018639 0.349716 0.860345
0.019088 0.350166 0.960141
0.020295 0.473312 0.020295
0.020787 0.473804 0.129437
0.021325 0.474342 0.248933
0.021871 0.474888 0.370336
0.022423 0.475440 0.492981
0.022980 0.475997 0.616555
0.023539 0.476556 0.740871
0.024102 0.477119 0.865807
0.024551 0.477568 0.965604
0.025801 0.601716 0.025801
0.026292 0.602208 0.134943
0.026830 0.602746 0.254439
0.027377 0.603292 0.375842
0.027929 0.603844 0.498487
0.028486 0.604401 0.622060
0.029045 0.604960 0.746377
0.029608 0.605523 0.871313
0.030057 0.605972 0.971110
0.031341 0.730916 0.031341
0.031832 0.731407 0.140483
0.032370 0.731945 0.259979
0.032917 0.732492 0.381381
0.033469 0.733044 0.504027
0.034025 0.733600 0.627600
0.034585 0.734160 0.751917
0.035148 0.734722 0.876853
0.035597 0.735172 0.976650
0.036909 0.860775 0.036909
0.037401 0.861267 0.146051
0.037939 0.861805 0.265547
0.038485 0.862351 0.386950
0.039037 0.862904 0.509595
0.039594 0.863460 0.633169
0.040153 0.864020 0.757485
0.040716 0.864582 0.882421
0.041165 0.865031 0.982218
0.042159 0.983212 0.042159
0.042651 0.983703 0.151301
0.043189 0.984241 0.270797
0.043735 0.984788 0.392200
0.044287 0.985340 0.514845
0.044844 0.985896 0.638419
0.045403 0.986456 0.762735
0.045966 0.987018 0.887671
0.046415 0.987468 0.987468
0.076160 0.001001 0.001001
0.076651 0.001492 0.110143
0.077189 0.002030 0.229639
0.077736 0.002577 0.351041
0.078288 0.003129 0.473687
0.078845 0.003685 0.597260
0.079404 0.004245 0.721577
0.079967 0.004808 0.846513
0.080416 0.005257 0.946310
0.080275 0.096977 0.005116
0.080767 0.097469 0.114258
0.081305 0.098007 0.233754
0.081851 0.098553 0.355157
0.082404 0.099105 0.477802
0.082960 0.099662 0.601376
0.083520 0.100221 0.725692
0.084082 0.100784 0.850629
0.084531 0.101233 0.950425
0.085588 0.220867 0.010429
0.086079 0.221358 0.119571
0.086617 0.221896 0.239066
0.087164 0.222443 0.360469
0.087716 0.222995 0.483114
0.088272 0.223551 0.606688
0.088832 0.224111 0.731004
0.089394 0.224674 0.855941
0.089844 0.225123 0.955737
0.090992 0.346910 0.015833
0.091484 0.347402 0.124975
0.092022 0.347940 0.244471
0.092568 0.348486 0.365874
0.093120 0.349039 0.488519
0.093677 0.349595 0.612093
0.094236 0.350155 0.736409
0.094799 0.350717 0.861345
0.095248 0.351166 0.961142
0.096455 0.474313 0.021296
0.096947 0.474804 0.130438
0.097485 0.475342 0.249934
0.098031 0.475889 0.371337
0.098583 0.476441 0.493982
0.099140 0.476998 0.617556
0.099699 0.477557 0.741872
0.100262 0.478120 0.866808
0.100711 0.478569 0.966605
0.101961 0.602717 0.026802
0.102452 0.603209 0.135944
0.102990 0.603747 0.255440
0.103537 0.604293 0.376842
0.104089 0.604845 0.499488
0.104646 0.605402 0.623061
0.105205 0.605961 0.747378
0.105768 0.606524 0.872314
0.106217 0.606973 0.972111
0.107501 0.731916 0.032342
0.107992 0.732408 0.141484
0.108530 0.732946 0.260980
0.109077 0.733492 0.382382
0.109629 0.734045 0.505028
0.110185 0.734601 0.628601
0.110745 0.735161 0.752918
0.111308 0.735723 0.877854
0.111757 0.736172 0.977650
0.113069 0.861776 0.037910
0.113561 0.862268 0.147052
0.114099 0.862806 0.266548
0.114645 0.863352 0.387951
0.115197 0.863904 0.510596
0.115754 0.864461 0.634170
0.116313 0.865021 0.758486
0.116876 0.865583 0.883422
0.117325 0.866032 0.983219
0.118319 0.984213 0.043160
0.118811 0.984704 0.152302
0.119349 0.985242 0.271798
0.119895 0.985789 0.393201
0.120447 0.986341 0.515846
0.121004 0.986897 0.639420
0.121563 0.987457 0.763736
0.122126 0.988019 0.888672
0.122575 0.988469 0.988469
0.195883 0.002574 0.002574
0.196374 0.003066 0.111716
0.196912 0.003604 0.231212
0.197459 0.004150 0.352615
0.198011 0.004702 0.475260
0.198567 0.005259 0.598834
0.199127 0.005819 0.723150
0.199689 0.006381 0.848087
0.200139 0.006830 0.947883
0.199998 0.098551 0.006690
0.200489 0.099042 0.115832
0.201027 0.099580 0.235327
0.201574 0.100127 0.356730
0.202126 0.100679 0.479376
0.202683 0.101235 0.602949
0.203242 0.101795 0.727266
0.203805 0.102357 0.852202
0.204254 0.102807 0.951998
0.205310 0.222440 0.012002
0.205802 0.222932 0.121144
0.206340 0.223470 0.240640
0.206886 0.224016 0.362042
0.207439 0.224568 0.484688
0.207995 0.225125 0.608261
0.208555 0.225685 0.732578
0.209117 0.226247 0.857514
0.209566 0.226696 0.957311
0.210715 0.348484 0.017407
0.211206 0.348975 0.126549
0.211744 0.349513 0.246044
0.212291 0.350060 0.367447
0.212843 0.350612 0.490092
0.213399 0.351168 0.613666
0.213959 0.351728 0.737982
0.214522 0.352291 0.862919
0.214971 0.352740 0.962715
0.216178 0.475887 0.022869
0.216669 0.476378 0.132011
0.217207 0.476916 0.251507
0.217754 0.477462 0.372910
0.218306 0.478015 0.495555
0.218862 0.478571 0.619129
0.219422 0.479131 0.743445
0.219985 0.479693 0.868382
0.220434 0.480143 0.968178
0.221684 0.604291 0.028375
0.222175 0.604782 0.137517
0.222713 0.605320 0.257013
0.223260 0.605867 0.378416
0.223812 0.606419 0.501061
0.224368 0.606975 0.624635
0.224928 0.607535 0.748951
0.225490 0.608097 0.873888
0.225940 0.608547 0.973684
0.227224 0.733490 0.033915
0.227715 0.733981 0.143057
0.228253 0.734519 0.262553
0.228800 0.735066 0.383956
0.229352 0.735618 0.506601
0.229908 0.736174 0.630175
0.230468 0.736734 0.754491
0.231030 0.737297 0.879428
0.231480 0.737746 0.979224
0.232792 0.863350 0.039484
0.233283 0.863841 0.148626
0.233821 0.864379 0.268121
0.234368 0.864926 0.389524
0.234920 0.865478 0.512169
0.235476 0.866034 0.635743
0.236036 0.866594 0.760059
0.236599 0.867156 0.884996
0.237048 0.867606 0.984792
0.238042 0.985786 0.044733
0.238533 0.986278 0.153875
0.239071 0.986816 0.273371
0.239618 0.987362 0.394774
0.240170 0.987914 0.517419
0.240726 0.988471 0.640993
0.241286 0.989030 0.765309
0.241849 0.989593 0.890246
0.242298 0.990042 0.990042
0.317894 0.004178 0.004178
0.318385 0.004669 0.113320
0.318923 0.005207 0.232816
0.319470 0.005754 0.354218
0.320022 0.006306 0.476864
0.320578 0.006862 0.600437
0.321138 0.007422 0.724754
0.321701 0.007985 0.849690
0.322150 0.008434 0.949486
0.322009 0.100154 0.008293
0.322501 0.100646 0.117435
0.323039 0.101184 0.236931
0.323585 0.101730 0.358334
0.324137 0.102282 0.480979
0.324694 0.102839 0.604553
0.325253 0.103398 0.728869
0.325816 0.103961 0.853805
0.326265 0.104410 0.953602
0.327322 0.224044 0.013605
0.327813 0.224535 0.122747
0.328351 0.225073 0.242243
0.328898 0.225620 0.363646
0.329450 0.226172 0.486291
0.330006 0.226728 0.609865
0.330566 0.227288 0.734181
0.331128 0.227850 0.859118
0.331578 0.228300 0.958914
0.332726 0.350087 0.019010
0.333218 0.350579 0.128152
0.333756 0.351117 0.247648
0.334302 0.351663 0.369051
0.334854 0.352215 0.491696
0.335411 0.352772 0.615270
0.335970 0.353332 0.739586
0.336533 0.353894 0.864522
0.336982 0.354343 0.964319
0.338189 0.477490 0.024473
0.338680 0.477981 0.133615
0.339218 0.478519 0.253111
0.339765 0.479066 0.374514
0.340317 0.479618 0.497159
0.340874 0.480175 0.620732
0.341433 0.480734 0.745049
0.341996 0.481297 0.869985
0.342445 0.481746 0.969782
0.343695 0.605894 0.029979
0.344186 0.606385 0.139121
0.344724 0.606923 0.258617
0.345271 0.607470 0.380019
0.345823 0.608022 0.502665
0.346379 0.608579 0.626238
0.346939 0.609138 0.750555
0.347502 0.609701 0.875491
0.347951 0.610150 0.975287
0.349235 0.735093 0.035519
0.349726 0.735585 0.144661
0.350264 0.736123 0.264156
0.350811 0.736669 0.385559
0.351363 0.737222 0.508205
0.351919 0.737778 0.631778
0.352479 0.738338 0.756095
0.353042 0.738900 0.881031
0.353491 0.739349 0.980827
0.354803 0.864953 0.041087
0.355295 0.865445 0.150229
0.355832 0.865983 0.269725
0.356379 0.866529 0.391128
0.356931 0.867081 0.513773
0.357488 0.867638 0.637346
0.358047 0.868197 0.761663
0.358610 0.868760 0.886599
0.359059 0.869209 0.986396
0.360053 0.987390 0.046337
0.360544 0.987881 0.155479
0.361082 0.988419 0.274975
0.361629 0.988966 0.396377
0.362181 0.989518 0.519023
0.362738 0.990074 0.642596
0.363297 0.990634 0.766913
0.363860 0.991196 0.891849
0.364309 0.991646 0.991646
0.441295 0.005800 0.005800
0.441787 0.006291 0.114942
0.442325 0.006829 0.234437
0.442871 0.007376 0.355840
0.443423 0.007928 0.478486
0.443980 0.008484 0.602059
0.444540 0.009044 0.726375
0.445102 0.009606 0.851312
0.445551 0.010056 0.951108
0.445411 0.101776 0.009915
0.445902 0.102267 0.119057
0.446440 0.102805 0.238553
0.446987 0.103352 0.359955
0.447539 0.103904 0.482601
0.448095 0.104460 0.606174
0.448655 0.105020 0.730491
0.449217 0.105583 0.855427
0.449667 0.106032 0.955224
0.450723 0.225666 0.015227
0.451214 0.226157 0.124369
0.451752 0.226695 0.243865
0.452299 0.227242 0.365268
0.452851 0.227794 0.487913
0.453407 0.228350 0.611487
0.453967 0.228910 0.735803
0.454530 0.229472 0.860739
0.454979 0.229922 0.960536
0.456128 0.351709 0.020632
0.456619 0.352200 0.129774
0.457157 0.352738 0.249270
0.457704 0.353285 0.370672
0.458256 0.353837 0.493318
0.458812 0.354394 0.616891
0.459372 0.354953 0.741208
0.459934 0.355516 0.866144
0.460384 0.355965 0.965940
0.461590 0.479112 0.026095
0.462082 0.479603 0.135237
0.462620 0.480141 0.254732
0.463166 0.480688 0.376135
0.463719 0.481240 0.498781
0.464275 0.481796 0.622354
0.464835 0.482356 0.746671
0.465397 0.482918 0.871607
0.465846 0.483368 0.971403
0.467096 0.607516 0.031601
0.467588 0.608007 0.140743
0.468126 0.608545 0.260238
0.468672 0.609092 0.381641
0.469224 0.609644 0.504287
0.469781 0.610200 0.627860
0.470341 0.610760 0.752176
0.470903 0.611323 0.877113
0.471352 0.611772 0.976909
0.472636 0.736715 0.037141
0.473128 0.737207 0.146283
0.473666 0.737745 0.265778
0.474212 0.738291 0.387181
0.474764 0.738843 0.509826
0.475321 0.739400 0.633400
0.475880 0.739959 0.757716
0.476443 0.740522 0.882653
0.476892 0.740971 0.982449
0.478205 0.866575 0.042709
0.478696 0.867066 0.151851
0.479234 0.867604 0.271347
0.479781 0.868151 0.392749
0.480333 0.868703 0.515395
0.480889 0.869259 0.638968
0.481449 0.869819 0.763285
0.482011 0.870382 0.888221
0.482461 0.870831 0.988017
0.483454 0.989011 0.047959
0.483946 0.989503 0.157101
0.484484 0.990041 0.276596
0.485030 0.990587 0.397999
0.485583 0.991140 0.520645
0.486139 0.991696 0.644218
0.486699 0.992256 0.768535
0.487261 0.992818 0.893471
0.487710 0.993267 0.993267
0.565706 0.007435 0.007435
0.566197 0.007926 0.116577
0.566735 0.008464 0.236072
0.567282 0.009011 0.357475
0.567834 0.009563 0.480121
0.568390 0.010119 0.603694
0.568950 0.010679 0.728010
0.569512 0.011241 0.852947
0.569962 0.011691 0.952743
0.569821 0.103411 0.011550
0.570312 0.103902 0.120692
0.570850 0.104440 0.240188
0.571397 0.104987 0.361591
0.571949 0.105539 0.484236
0.572506 0.106095 0.607809
0.573065 0.106655 0.732126
0.573628 0.107218 0.857062
0.574077 0.107667 0.956859
0.575133 0.227301 0.016862
0.575625 0.227792 0.126004
0.576163 0.228330 0.245500
0.576709 0.228877 0.366903
0.577261 0.229429 0.489548
0.577818 0.229985 0.613122
0.578378 0.230545 0.737438
0.578940 0.231107 0.862375
0.579389 0.231557 0.962171
0.580538 0.353344 0.022267
0.581029 0.353836 0.131409
0.581567 0.354374 0.250905
0.582114 0.354920 0.372307
0.582666 0.355472 0.494953
0.583222 0.356029 0.618526
0.583782 0.356588 0.742843
0.584345 0.357151 0.867779
0.584794 0.357600 0.967576
0.586001 0.480747 0.027730
0.586492 0.481238 0.136872
0.587030 0.481776 0.256368
0.587577 0.482323 0.377770
0.588129 0.482875 0.500416
0.588685 0.483431 0.623989
0.589245 0.483991 0.748306
0.589808 0.484554 0.873242
0.590257 0.485003 0.973038
0.591507 0.609151 0.033236
0.591998 0.609642 0.142378
0.592536 0.610180 0.261873
0.593083 0.610727 0.383276
0.593635 0.611279 0.505922
0.594191 0.611835 0.629495
0.594751 0.612395 0.753811
0.595313 0.612958 0.878748
0.595763 0.613407 0.978544
0.597047 0.738350 0.038776
0.597538 0.738842 0.147918
0.598076 0.739380 0.267413
0.598623 0.739926 0.388816
0.599175 0.740478 0.511461
0.599731 0.741035 0.635035
0.600291 0.741594 0.759351
0.600853 0.742157 0.884288
0.601303 0.742606 0.984084
0.602615 0.868210 0.044344
0.603106 0.868701 0.153486
0.603644 0.869239 0.272982
0.604191 0.869786 0.394384
0.604743 0.870338 0.517030
0.605299 0.870895 0.640603
0.605859 0.871454 0.764920
0.606422 0.872017 0.889856
0.606871 0.872466 0.989652
0.607865 0.990646 0.049594
0.608356 0.991138 0.158736
0.608894 0.991676 0.278231
0.609441 0.992222 0.399634
0.609993 0.992775 0.522280
0.610549 0.993331 0.645853
0.611109 0.993891 0.770170
0.611672 0.994453 0.895106
0.612121 0.994902 0.994902
0.690911 0.009080 0.009080
0.691402 0.009571 0.118222
0.691940 0.010109 0.237718
0.692487 0.010656 0.359121
0.693039 0.011208 0.481766
0.693595 0.011765 0.605340
0.694155 0.012324 0.729656
0.694717 0.012887 0.854592
0.695167 0.013336 0.954389
0.695026 0.105056 0.013195
0.695517 0.105548 0.122337
0.696055 0.106086 0.241833
0.696602 0.106632 0.363236
0.697154 0.107185 0.485881
0.697710 0.107741 0.609455
0.698270 0.108301 0.733771
0.698833 0.108863 0.858708
0.699282 0.109312 0.958504
0.700338 0.228946 0.018508
0.700830 0.229437 0.127650
0.701368 0.229975 0.247145
0.701914 0.230522 0.368548
0.702466 0.231074 0.491194
0.703023 0.231631 0.614767
0.703582 0.232190 0.739084
0.704145 0.232753 0.864020
0.704594 0.233202 0.963816
0.705743 0.354990 0.023912
0.706234 0.355481 0.133054
0.706772 0.356019 0.252550
0.707319 0.356566 0.373953
0.707871 0.357118 0.496598
0.708427 0.357674 0.620172
0.708987 0.358234 0.744488
0.709550 0.358796 0.869425
0.709999 0.359246 0.969221
0.711206 0.482392 0.029375
0.711697 0.482884 0.138517
0.712235 0.483422 0.258013
0.712782 0.483968 0.379416
0.713334 0.484520 0.502061
0.713890 0.485077 0.625635
0.714450 0.485636 0.749951
0.715012 0.486199 0.874888
0.715462 0.486648 0.974684
0.716712 0.610796 0.034881
0.717203 0.611288 0.144023
0.717741 0.611826 0.263519
0.718288 0.612372 0.384922
0.718840 0.612925 0.507567
0.719396 0.613481 0.631141
0.719956 0.614041 0.755457
0.720518 0.614603 0.880393
0.720968 0.615052 0.980190
0.722252 0.739996 0.040421
0.722743 0.740487 0.149563
0.723281 0.741025 0.269059
0.723828 0.741572 0.390462
0.724380 0.742124 0.513107
0.724936 0.742680 0.636680
0.725496 0.743240 0.760997
0.726058 0.743802 0.885933
0.726508 0.744252 0.985730
0.727820 0.869855 0.045989
0.728311 0.870347 0.155131
0.728849 0.870885 0.274627
0.729396 0.871431 0.396030
0.729948 0.871984 0.518675
0.730504 0.872540 0.642249
0.731064 0.873100 0.766565
0.731627 0.873662 0.891502
0.732076 0.874111 0.991298
0.733070 0.992292 0.051239
0.733561 0.992783 0.160381
0.734099 0.993321 0.279877
0.734646 0.993868 0.401280
0.735198 0.994420 0.523925
0.735754 0.994976 0.647499
0.736314 0.995536 0.771815
0.736876 0.996099 0.896752
0.737326 0.996548 0.996548
0.816772 0.010734 0.010734
0.817263 0.011226 0.119876
0.817801 0.011764 0.239372
0.818348 0.012310 0.360775
0.818900 0.012862 0.483420
0.819457 0.013419 0.606994
0.820016 0.013978 0.731310
0.820579 0.014541 0.856246
0.821028 0.014990 0.956043
0.820887 0.106710 0.014850
0.821379 0.107202 0.123992
0.821917 0.107740 0.243487
0.822463 0.108286 0.364890
0.823016 0.108839 0.487535
0.823572 0.109395 0.611109
0.824132 0.109955 0.735425
0.824694 0.110517 0.860362
0.825143 0.110966 0.960158
0.826200 0.230600 0.020162
0.826691 0.231092 0.129304
0.827229 0.231630 0.248800
0.827776 0.232176 0.370202
0.828328 0.232728 0.492848
0.828884 0.233285 0.616421
0.829444 0.233844 0.740738
0.830006 0.234407 0.865674
0.830456 0.234856 0.965470
0.831604 0.356644 0.025566
0.832096 0.357135 0.134708
0.832634 0.357673 0.254204
0.833180 0.358220 0.375607
0.833732 0.358772 0.498252
0.834289 0.359328 0.621826
0.834848 0.359888 0.746142
0.835411 0.360450 0.871079
0.835860 0.360900 0.970875
0.837067 0.484046 0.031029
0.837559 0.484538 0.140171
0.838097 0.485076 0.259667
0.838643 0.485622 0.381070
0.839195 0.486175 0.503715
0.839752 0.486731 0.627289
0.840311 0.487291 0.751605
0.840874 0.487853 0.876542
0.841323 0.488302 0.976338
0.842573 0.612450 0.036535
0.843064 0.612942 0.145677
0.843602 0.613480 0.265173
0.844149 0.614026 0.386576
0.844701 0.614579 0.509221
0.845258 0.615135 0.632795
0.845817 0.615695 0.757111
0.846380 0.616257 0.882047
0.846829 0.616706 0.981844
0.848113 0.741650 0.042075
0.848604 0.742141 0.151217
0.849142 0.742679 0.270713
0.849689 0.743226 0.392116
0.850241 0.743778 0.514761
0.850797 0.744334 0.638335
0.851357 0.744894 0.762651
0.851920 0.745456 0.887587
0.852369 0.745906 0.987384
0.853681 0.871510 0.047643
0.854173 0.872001 0.156785
0.854711 0.872539 0.276281
0.855257 0.873086 0.397684
0.855809 0.873638 0.520329
0.856366 0.874194 0.643903
0.856925 0.874754 0.768219
0.857488 0.875316 0.893156
0.857937 0.875766 0.992952
0.858931 0.993946 0.052893
0.859423 0.994437 0.162035
0.859961 0.994975 0.281531
0.860507 0.995522 0.402934
0.861059 0.996074 0.525579
0.861616 0.996630 0.649153
0.862175 0.997190 0.773469
0.862738 0.997753 0.898406
0.863187 0.998202 0.998202
0.943193 0.012396 0.012396
0.943685 0.012887 0.121538
0.944223 0.013425 0.241033
0.944769 0.013972 0.362436
0.945321 0.014524 0.485082
0.945878 0.015080 0.608655
0.946438 0.015640 0.732971
0.947000 0.016202 0.857908
0.947449 0.016652 0.957704
0.947309 0.108372 0.016511
0.947800 0.108863 0.125653
0.948338 0.109401 0.245149
0.948885 0.109948 0.366552
0.949437 0.110500 0.489197
0.949993 0.111056 0.612770
0.950553 0.111616 0.737087
0.951115 0.112179 0.862023
0.951565 0.112628 0.961820
0.952621 0.232262 0.021823
0.953112 0.232753 0.130965
0.953650 0.233291 0.250461
0.954197 0.233838 0.371864
0.954749 0.234390 0.494509
0.955305 0.234946 0.618083
0.955865 0.235506 0.742399
0.956428 0.236068 0.867336
0.956877 0.236518 0.967132
0.958026 0.358305 0.027228
0.958517 0.358797 0.136370
0.959055 0.359335 0.255866
0.959602 0.359881 0.377268
0.960154 0.360433 0.499914
0.960710 0.360990 0.623487
0.961270 0.361549 0.747804
0.961832 0.362112 0.872740
0.962282 0.362561 0.972537
0.963488 0.485708 0.032691
0.963980 0.486199 0.141833
0.964518 0.486737 0.261329
0.965064 0.487284 0.382731
0.965617 0.487836 0.505377
0.966173 0.488392 0.628950
0.966733 0.488952 0.753267
0.967295 0.489515 0.878203
0.967744 0.489964 0.977999
0.968994 0.614112 0.038197
0.969486 0.614603 0.147339
0.970024 0.615141 0.266834
0.970570 0.615688 0.388237
0.971122 0.616240 0.510883
0.971679 0.616796 0.634456
0.972239 0.617356 0.758772
0.972801 0.617919 0.883709
0.973250 0.618368 0.983505
0.974534 0.743311 0.043737
0.975026 0.743803 0.152879
0.975564 0.744341 0.272374
0.976110 0.744887 0.393777
0.976662 0.745439 0.516422
0.977219 0.745996 0.639996
0.977778 0.746555 0.764312
0.978341 0.747118 0.889249
0.978790 0.747567 0.989045
0.980103 0.873171 0.049305
0.980594 0.873662 0.158447
0.981132 0.874200 0.277943
0.981679 0.874747 0.399345
0.982231 0.875299 0.521991
0.982787 0.875856 0.645564
0.983347 0.876415 0.769881
0.983909 0.876978 0.894817
0.984359 0.877427 0.994613
0.985352 0.995607 0.054555
0.985844 0.996099 0.163697
0.986382 0.996637 0.283193
0.986928 0.997183 0.404595
0.987481 0.997736 0.527241
0.988037 0.998292 0.650814
0.988597 0.998852 0.775131
0.989159 0.999414 0.900067
0.989608 0.999863 0.999863
