skills/unified-director/assets/grade/luts/night_blue_v01.cube
TITLE "night_blue_v01"
LUT_3D_SIZE 5
DOMAIN_MIN 0.0 0.0 0.0
DOMAIN_MAX 1.0 1.0 1.0
0.000000 0.000000 0.000000
0.001357 0.001357 0.217444
0.002829 0.002829 0.453362
0.004324 0.004324 0.693093
0.005776 0.005776 0.925776
0.012288 0.209866 0.012288
0.013644 0.211223 0.229731
0.015116 0.212695 0.465650
0.016612 0.214191 0.705380
0.018064 0.215642 0.938064
0.026843 0.458454 0.026843
0.028199 0.459811 0.244286
0.029671 0.461283 0.480204
0.031167 0.462779 0.719935
0.032619 0.464230 0.952619
0.041644 0.711251 0.041644
0.043000 0.712608 0.259088
0.044472 0.714080 0.495006
0.045968 0.715575 0.734736
0.047420 0.717027 0.967420
0.056603 0.966750 0.056603
0.057960 0.968106 0.274047
0.059432 0.969578 0.509965
0.060927 0.971074 0.749696
0.062379 0.972526 0.982379
0.182432 0.003311 0.003311
0.183789 0.004668 0.220755
0.185260 0.006140 0.456673
0.186756 0.007636 0.696404
0.188208 0.009087 0.929087
0.194720 0.213178 0.015599
0.196076 0.214534 0.233043
0.197548 0.216006 0.468961
0.199044 0.217502 0.708692
0.200496 0.218954 0.941375
0.209274 0.461766 0.030154
0.210631 0.463122 0.247598
0.212103 0.464594 0.483516
0.213599 0.466090 0.723247
0.215050 0.467542 0.955930
0.224076 0.714563 0.044955
0.225432 0.715919 0.262399
0.226904 0.717391 0.498317
0.228400 0.718887 0.738048
0.229852 0.720339 0.970731
0.239035 0.970061 0.059915
0.240392 0.971418 0.277358
0.241864 0.972890 0.513276
0.243359 0.974385 0.753007
0.244811 0.975837 0.985691
0.420344 0.007630 0.007630
0.421701 0.008986 0.225074
0.423173 0.010458 0.460992
0.424669 0.011954 0.700722
0.426120 0.013406 0.933406
0.432632 0.217496 0.019918
0.433989 0.218853 0.237361
0.435461 0.220325 0.473279
0.436956 0.221820 0.713010
0.438408 0.223272 0.945694
0.447187 0.466084 0.034472
0.448544 0.467441 0.251916
0.450015 0.468913 0.487834
0.451511 0.470408 0.727565
0.452963 0.471860 0.960248
0.461988 0.718881 0.049274
0.463345 0.720238 0.266717
0.464817 0.721710 0.502635
0.466312 0.723205 0.742366
0.467764 0.724657 0.975050
0.476948 0.974380 0.064233
0.478304 0.975736 0.281677
0.479776 0.977208 0.517595
0.481272 0.978704 0.757326
0.482724 0.980156 0.990009
0.662488 0.012025 0.012025
0.663844 0.013382 0.229469
0.665316 0.014854 0.465387
0.666812 0.016349 0.705118
0.668264 0.017801 0.937801
0.674775 0.221891 0.024313
0.676132 0.223248 0.241757
0.677604 0.224720 0.477675
0.679100 0.226216 0.717405
0.680551 0.227667 0.950089
0.689330 0.470479 0.038868
0.690687 0.471836 0.256311
0.692159 0.473308 0.492229
0.693654 0.474804 0.731960
0.695106 0.476255 0.964644
0.704131 0.723276 0.053669
0.705488 0.724633 0.271113
0.706960 0.726105 0.507031
0.708456 0.727601 0.746761
0.709907 0.729052 0.979445
0.719091 0.978775 0.068628
0.720447 0.980131 0.286072
0.721919 0.981603 0.521990
0.723415 0.983099 0.761721
0.724867 0.984551 0.994404
0.907296 0.016469 0.016469
0.908653 0.017825 0.233912
0.910125 0.019297 0.469831
0.911620 0.020793 0.709561
0.913072 0.022245 0.942245
0.919584 0.226335 0.028756
0.920941 0.227692 0.246200
0.922412 0.229164 0.482118
0.923908 0.230659 0.721849
0.925360 0.232111 0.954532
0.934139 0.474923 0.043311
0.935495 0.476280 0.260755
0.936967 0.477752 0.496673
0.938463 0.479247 0.736404
0.939915 0.480699 0.969087
0.948940 0.727720 0.058112
0.950297 0.729077 0.275556
0.951769 0.730548 0.511474
0.953264 0.732044 0.751205
0.954716 0.733496 0.983888
0.963899 0.983218 0.073072
0.965256 0.984575 0.290516
0.966728 0.986047 0.526434
0.968224 0.987543 0.766165
0.969675 0.988994 0.998848
