skills/unified-director/assets/grade/luts/night_blue_v01.cube
TITLE "night_blue_v01"
LUT_3D_SIZE 9
DOMAIN_MIN 0.0 0.0 0.0
DOMAIN_MAX 1.0 1.0 1.0
0.000000 0.000000 0.000000
0.000636 0.000636 0.102011
0.001357 0.001357 0.217444
0.002089 0.002089 0.334785
0.002829 0.002829 0.453362
0.003574 0.003574 0.572859
0.004324 0.004324 0.693093
0.005078 0.005078 0.813939
0.005776 0.005776 0.925776
0.005180 0.088476 0.005180
0.005817 0.089113 0.107191
0.006537 0.089833 0.222624
0.007269 0.090565 0.339965
0.008009 0.091305 0.458542
0.008754 0.092050 0.578040
0.009505 0.092800 0.698273
0.010259 0.093554 0.819120
0.010956 0.094252 0.930956
0.012288 0.209866 0.012288
0.012924 0.210503 0.114298
0.013644 0.211223 0.229731
0.014376 0.211955 0.347073
0.015116 0.212695 0.465650
0.015862 0.213440 0.585147
0.016612 0.214191 0.705380
0.017366 0.214944 0.826227
0.018064 0.215642 0.938064
0.019525 0.333470 0.019525
0.020161 0.334106 0.121535
0.020881 0.334827 0.236968
0.021613 0.335559 0.354310
0.022353 0.336298 0.472887
0.023099 0.337044 0.592384
0.023849 0.337794 0.712617
0.024603 0.338548 0.833464
0.025301 0.339246 0.945301
0.026843 0.458454 0.026843
0.027479 0.459091 0.128853
0.028199 0.459811 0.244286
0.028931 0.460543 0.361627
0.029671 0.461283 0.480204
0.030417 0.462028 0.599702
0.031167 0.462779 0.719935
0.031921 0.463533 0.840782
0.032619 0.464230 0.952619
0.034220 0.584452 0.034220
0.034856 0.585088 0.136230
0.035576 0.585808 0.251663
0.036308 0.586540 0.369005
0.037048 0.587280 0.487582
0.037794 0.588026 0.607079
0.038544 0.588776 0.727312
0.039298 0.589530 0.848159
0.039996 0.590228 0.959996
0.041644 0.711251 0.041644
0.042280 0.711888 0.143654
0.043000 0.712608 0.259088
0.043733 0.713340 0.376429
0.044472 0.714080 0.495006
0.045218 0.714825 0.614503
0.045968 0.715575 0.734736
0.046722 0.716329 0.855583
0.047420 0.717027 0.967420
0.049107 0.838716 0.049107
0.049743 0.839352 0.151117
0.050463 0.840073 0.266551
0.051196 0.840805 0.383892
0.051935 0.841545 0.502469
0.052681 0.842290 0.621966
0.053431 0.843040 0.742199
0.054185 0.843794 0.863046
0.054883 0.844492 0.974883
0.056603 0.966750 0.056603
0.057240 0.967386 0.158614
0.057960 0.968106 0.274047
0.058692 0.968838 0.391388
0.059432 0.969578 0.509965
0.060177 0.970324 0.629463
0.060927 0.971074 0.749696
0.061681 0.971828 0.870543
0.062379 0.972526 0.982379
0.066540 0.001208 0.001208
0.067176 0.001844 0.103218
0.067897 0.002564 0.218652
0.068629 0.003297 0.335993
0.069369 0.004036 0.454570
0.070114 0.004782 0.574067
0.070864 0.005532 0.694300
0.071618 0.006286 0.815147
0.072316 0.006984 0.926984
0.071720 0.089684 0.006388
0.072357 0.090320 0.108399
0.073077 0.091041 0.223832
0.073809 0.091773 0.341173
0.074549 0.092513 0.459750
0.075294 0.093258 0.579247
0.076045 0.094008 0.699481
0.076798 0.094762 0.820327
0.077496 0.095460 0.932164
0.078828 0.211074 0.013495
0.079464 0.211711 0.115506
0.080184 0.212431 0.230939
0.080916 0.213163 0.348280
0.081656 0.213903 0.466857
0.082402 0.214648 0.586355
0.083152 0.215398 0.706588
0.083906 0.216152 0.827435
0.084604 0.216850 0.939271
0.086065 0.334678 0.020732
0.086701 0.335314 0.122743
0.087421 0.336034 0.238176
0.088153 0.336766 0.355517
0.088893 0.337506 0.474094
0.089639 0.338252 0.593592
0.090389 0.339002 0.713825
0.091143 0.339756 0.834672
0.091841 0.340454 0.946508
0.093382 0.459662 0.028050
0.094019 0.460299 0.130061
0.094739 0.461019 0.245494
0.095471 0.461751 0.362835
0.096211 0.462491 0.481412
0.096957 0.463236 0.600910
0.097707 0.463986 0.721143
0.098461 0.464740 0.841990
0.099158 0.465438 0.953826
0.100760 0.585659 0.035427
0.101396 0.586296 0.137438
0.102116 0.587016 0.252871
0.102848 0.587748 0.370212
0.103588 0.588488 0.488789
0.104334 0.589234 0.608287
0.105084 0.589984 0.728520
0.105838 0.590738 0.849367
0.106536 0.591435 0.961203
0.108184 0.712459 0.042852
0.108820 0.713095 0.144862
0.109540 0.713816 0.260295
0.110272 0.714548 0.377637
0.111012 0.715288 0.496213
0.111758 0.716033 0.615711
0.112508 0.716783 0.735944
0.113262 0.717537 0.856791
0.113960 0.718235 0.968628
0.115647 0.839924 0.050315
0.116283 0.840560 0.152325
0.117003 0.841280 0.267758
0.117736 0.842013 0.385100
0.118475 0.842752 0.503677
0.119221 0.843498 0.623174
0.119971 0.844248 0.743407
0.120725 0.845002 0.864254
0.121423 0.845700 0.976091
0.123143 0.967957 0.057811
0.123780 0.968594 0.159822
0.124500 0.969314 0.275255
0.125232 0.970046 0.392596
0.125972 0.970786 0.511173
0.126717 0.971532 0.630670
0.127467 0.972282 0.750904
0.128221 0.973036 0.871750
0.128919 0.973733 0.983587
0.182432 0.003311 0.003311
0.183068 0.003948 0.105322
0.183789 0.004668 0.220755
0.184521 0.005400 0.338096
0.185260 0.006140 0.456673
0.186006 0.006886 0.576171
0.186756 0.007636 0.696404
0.187510 0.008390 0.817251
0.188208 0.009087 0.929087
0.187612 0.091788 0.008492
0.188249 0.092424 0.110502
0.188969 0.093144 0.225935
0.189701 0.093876 0.343277
0.190441 0.094616 0.461854
0.191186 0.095362 0.581351
0.191936 0.096112 0.701584
0.192690 0.096866 0.822431
0.193388 0.097564 0.934268
0.194720 0.213178 0.015599
0.195356 0.213814 0.117610
0.196076 0.214534 0.233043
0.196808 0.215266 0.350384
0.197548 0.216006 0.468961
0.198294 0.216752 0.588458
0.199044 0.217502 0.708692
0.199798 0.218256 0.829538
0.200496 0.218954 0.941375
0.201957 0.336781 0.022836
0.202593 0.337418 0.124847
0.203313 0.338138 0.240280
0.204045 0.338870 0.357621
0.204785 0.339610 0.476198
0.205531 0.340355 0.595695
0.206281 0.341106 0.715929
0.207035 0.341859 0.836775
0.207733 0.342557 0.948612
0.209274 0.461766 0.030154
0.209911 0.462402 0.132164
0.210631 0.463122 0.247598
0.211363 0.463855 0.364939
0.212103 0.464594 0.483516
0.212848 0.465340 0.603013
0.213599 0.466090 0.723247
0.214353 0.466844 0.844093
0.215050 0.467542 0.955930
0.216652 0.587763 0.037531
0.217288 0.588400 0.139542
0.218008 0.589120 0.254975
0.218740 0.589852 0.372316
0.219480 0.590592 0.490893
0.220226 0.591337 0.610390
0.220976 0.592087 0.730624
0.221730 0.592841 0.851470
0.222428 0.593539 0.963307
0.224076 0.714563 0.044955
0.224712 0.715199 0.146966
0.225432 0.715919 0.262399
0.226164 0.716651 0.379740
0.226904 0.717391 0.498317
0.227650 0.718137 0.617815
0.228400 0.718887 0.738048
0.229154 0.719641 0.858895
0.229852 0.720339 0.970731
0.231539 0.842027 0.052418
0.232175 0.842664 0.154429
0.232895 0.843384 0.269862
0.233627 0.844116 0.387203
0.234367 0.844856 0.505780
0.235113 0.845602 0.625278
0.235863 0.846352 0.745511
0.236617 0.847106 0.866358
0.237315 0.847803 0.978194
0.239035 0.970061 0.059915
0.239672 0.970698 0.161925
0.240392 0.971418 0.277358
0.241124 0.972150 0.394700
0.241864 0.972890 0.513276
0.242609 0.973635 0.632774
0.243359 0.974385 0.753007
0.244113 0.975139 0.873854
0.244811 0.975837 0.985691
0.300685 0.005458 0.005458
0.301321 0.006094 0.107468
0.302041 0.006814 0.222902
0.302773 0.007547 0.340243
0.303513 0.008286 0.458820
0.304259 0.009032 0.578317
0.305009 0.009782 0.698550
0.305763 0.010536 0.819397
0.306461 0.011234 0.931234
0.305865 0.093934 0.010638
0.306501 0.094570 0.112649
0.307221 0.095291 0.228082
0.307954 0.096023 0.345423
0.308693 0.096763 0.464000
0.309439 0.097508 0.583498
0.310189 0.098258 0.703731
0.310943 0.099012 0.824578
0.311641 0.099710 0.936414
0.312972 0.215324 0.017746
0.313609 0.215961 0.119756
0.314329 0.216681 0.235189
0.315061 0.217413 0.352531
0.315801 0.218153 0.471107
0.316546 0.218898 0.590605
0.317297 0.219648 0.710838
0.318050 0.220402 0.831685
0.318748 0.221100 0.943522
0.320209 0.338928 0.024983
0.320846 0.339564 0.126993
0.321566 0.340284 0.242426
0.322298 0.341016 0.359767
0.323038 0.341756 0.478344
0.323783 0.342502 0.597842
0.324533 0.343252 0.718075
0.325287 0.344006 0.838922
0.325985 0.344704 0.950759
0.327527 0.463912 0.032300
0.328164 0.464549 0.134311
0.328884 0.465269 0.249744
0.329616 0.466001 0.367085
0.330356 0.466741 0.485662
0.331101 0.467486 0.605160
0.331851 0.468236 0.725393
0.332605 0.468990 0.846240
0.333303 0.469688 0.958076
0.334904 0.589910 0.039677
0.335541 0.590546 0.141688
0.336261 0.591266 0.257121
0.336993 0.591998 0.374462
0.337733 0.592738 0.493039
0.338478 0.593484 0.612537
0.339228 0.594234 0.732770
0.339982 0.594988 0.853617
0.340680 0.595686 0.965453
0.342328 0.716709 0.047102
0.342965 0.717346 0.149112
0.343685 0.718066 0.264545
0.344417 0.718798 0.381887
0.345157 0.719538 0.500464
0.345902 0.720283 0.619961
0.346653 0.721033 0.740194
0.347407 0.721787 0.861041
0.348104 0.722485 0.972878
0.349791 0.844174 0.054565
0.350428 0.844810 0.156575
0.351148 0.845531 0.272008
0.351880 0.846263 0.389350
0.352620 0.847002 0.507927
0.353366 0.847748 0.627424
0.354116 0.848498 0.747657
0.354870 0.849252 0.868504
0.355567 0.849950 0.980341
0.357288 0.972208 0.062061
0.357924 0.972844 0.164072
0.358644 0.973564 0.279505
0.359377 0.974296 0.396846
0.360116 0.975036 0.515423
0.360862 0.975782 0.634920
0.361612 0.976532 0.755154
0.362366 0.977286 0.876000
0.363064 0.977984 0.987837
0.420344 0.007630 0.007630
0.420981 0.008266 0.109640
0.421701 0.008986 0.225074
0.422433 0.009719 0.342415
0.423173 0.010458 0.460992
0.423918 0.011204 0.580489
0.424669 0.011954 0.700722
0.425423 0.012708 0.821569
0.426120 0.013406 0.933406
0.425525 0.096106 0.012810
0.426161 0.096742 0.114821
0.426881 0.097463 0.230254
0.427613 0.098195 0.347595
0.428353 0.098935 0.466172
0.429099 0.099680 0.585670
0.429849 0.100430 0.705903
0.430603 0.101184 0.826750
0.431301 0.101882 0.938586
0.432632 0.217496 0.019918
0.433268 0.218133 0.121928
0.433989 0.218853 0.237361
0.434721 0.219585 0.354702
0.435461 0.220325 0.473279
0.436206 0.221070 0.592777
0.436956 0.221820 0.713010
0.437710 0.222574 0.833857
0.438408 0.223272 0.945694
0.439869 0.341100 0.027154
0.440505 0.341736 0.129165
0.441226 0.342456 0.244598
0.441958 0.343188 0.361939
0.442698 0.343928 0.480516
0.443443 0.344674 0.600014
0.444193 0.345424 0.720247
0.444947 0.346178 0.841094
0.445645 0.346876 0.952930
0.447187 0.466084 0.034472
0.447823 0.466721 0.136483
0.448544 0.467441 0.251916
0.449276 0.468173 0.369257
0.450015 0.468913 0.487834
0.450761 0.469658 0.607332
0.451511 0.470408 0.727565
0.452265 0.471162 0.848412
0.452963 0.471860 0.960248
0.454564 0.592082 0.041849
0.455200 0.592718 0.143860
0.455921 0.593438 0.259293
0.456653 0.594170 0.376634
0.457393 0.594910 0.495211
0.458138 0.595656 0.614709
0.458888 0.596406 0.734942
0.459642 0.597160 0.855789
0.460340 0.597858 0.967625
0.461988 0.718881 0.049274
0.462625 0.719518 0.151284
0.463345 0.720238 0.266717
0.464077 0.720970 0.384059
0.464817 0.721710 0.502635
0.465562 0.722455 0.622133
0.466312 0.723205 0.742366
0.467066 0.723959 0.863213
0.467764 0.724657 0.975050
0.469451 0.846346 0.056737
0.470088 0.846982 0.158747
0.470808 0.847703 0.274180
0.471540 0.848435 0.391522
0.472280 0.849174 0.510099
0.473025 0.849920 0.629596
0.473775 0.850670 0.749829
0.474529 0.851424 0.870676
0.475227 0.852122 0.982513
0.476948 0.974380 0.064233
0.477584 0.975016 0.166244
0.478304 0.975736 0.281677
0.479036 0.976468 0.399018
0.479776 0.977208 0.517595
0.480522 0.977954 0.637092
0.481272 0.978704 0.757326
0.482026 0.979458 0.878172
0.482724 0.980156 0.990009
0.541018 0.009820 0.009820
0.541655 0.010457 0.111831
0.542375 0.011177 0.227264
0.543107 0.011909 0.344605
0.543847 0.012649 0.463182
0.544592 0.013394 0.582680
0.545342 0.014145 0.702913
0.546096 0.014898 0.823760
0.546794 0.015596 0.935596
0.546198 0.098296 0.015001
0.546835 0.098933 0.117011
0.547555 0.099653 0.232444
0.548287 0.100385 0.349786
0.549027 0.101125 0.468362
0.549773 0.101871 0.587860
0.550523 0.102621 0.708093
0.551277 0.103375 0.828940
0.551974 0.104072 0.940777
0.553306 0.219686 0.022108
0.553942 0.220323 0.124118
0.554663 0.221043 0.239552
0.555395 0.221775 0.356893
0.556134 0.222515 0.475470
0.556880 0.223261 0.594967
0.557630 0.224011 0.715201
0.558384 0.224765 0.836047
0.559082 0.225462 0.947884
0.560543 0.343290 0.029345
0.561179 0.343927 0.131355
0.561900 0.344647 0.246789
0.562632 0.345379 0.364130
0.563371 0.346119 0.482707
0.564117 0.346864 0.602204
0.564867 0.347614 0.722438
0.565621 0.348368 0.843284
0.566319 0.349066 0.955121
0.567861 0.468275 0.036663
0.568497 0.468911 0.138673
0.569217 0.469631 0.254107
0.569949 0.470363 0.371448
0.570689 0.471103 0.490025
0.571435 0.471849 0.609522
0.572185 0.472599 0.729755
0.572939 0.473353 0.850602
0.573637 0.474051 0.962439
0.575238 0.594272 0.044040
0.575874 0.594908 0.146050
0.576594 0.595629 0.261484
0.577327 0.596361 0.378825
0.578066 0.597100 0.497402
0.578812 0.597846 0.616899
0.579562 0.598596 0.737133
0.580316 0.599350 0.857979
0.581014 0.600048 0.969816
0.582662 0.721071 0.051464
0.583298 0.721708 0.153475
0.584019 0.722428 0.268908
0.584751 0.723160 0.386249
0.585491 0.723900 0.504826
0.586236 0.724646 0.624323
0.586986 0.725396 0.744557
0.587740 0.726150 0.865403
0.588438 0.726847 0.977240
0.590125 0.848536 0.058927
0.590761 0.849173 0.160938
0.591482 0.849893 0.276371
0.592214 0.850625 0.393712
0.592954 0.851365 0.512289
0.593699 0.852110 0.631786
0.594449 0.852861 0.752020
0.595203 0.853615 0.872866
0.595901 0.854312 0.984703
0.597621 0.976570 0.066423
0.598258 0.977206 0.168434
0.598978 0.977927 0.283867
0.599710 0.978659 0.401208
0.600450 0.979399 0.519785
0.601196 0.980144 0.639283
0.601946 0.980894 0.759516
0.602700 0.981648 0.880363
0.603397 0.982346 0.992199
0.662488 0.012025 0.012025
0.663124 0.012662 0.114036
0.663844 0.013382 0.229469
0.664576 0.014114 0.346810
0.665316 0.014854 0.465387
0.666062 0.015599 0.584884
0.666812 0.016349 0.705118
0.667566 0.017103 0.825964
0.668264 0.017801 0.937801
0.667668 0.100501 0.017205
0.668304 0.101138 0.119216
0.669025 0.101858 0.234649
0.669757 0.102590 0.351990
0.670496 0.103330 0.470567
0.671242 0.104075 0.590065
0.671992 0.104826 0.710298
0.672746 0.105579 0.831145
0.673444 0.106277 0.942981
0.674775 0.221891 0.024313
0.675412 0.222528 0.126323
0.676132 0.223248 0.241757
0.676864 0.223980 0.359098
0.677604 0.224720 0.477675
0.678349 0.225465 0.597172
0.679100 0.226216 0.717405
0.679853 0.226970 0.838252
0.680551 0.227667 0.950089
0.682012 0.345495 0.031550
0.682649 0.346131 0.133560
0.683369 0.346852 0.248994
0.684101 0.347584 0.366335
0.684841 0.348323 0.484912
0.685586 0.349069 0.604409
0.686337 0.349819 0.724642
0.687090 0.350573 0.845489
0.687788 0.351271 0.957326
0.689330 0.470479 0.038868
0.689967 0.471116 0.140878
0.690687 0.471836 0.256311
0.691419 0.472568 0.373653
0.692159 0.473308 0.492229
0.692904 0.474054 0.611727
0.693654 0.474804 0.731960
0.694408 0.475558 0.852807
0.695106 0.476255 0.964644
0.696707 0.596477 0.046245
0.697344 0.597113 0.148255
0.698064 0.597833 0.263688
0.698796 0.598566 0.381030
0.699536 0.599305 0.499607
0.700281 0.600051 0.619104
0.701031 0.600801 0.739337
0.701785 0.601555 0.860184
0.702483 0.602253 0.972021
0.704131 0.723276 0.053669
0.704768 0.723913 0.155679
0.705488 0.724633 0.271113
0.706220 0.725365 0.388454
0.706960 0.726105 0.507031
0.707705 0.726850 0.626528
0.708456 0.727601 0.746761
0.709210 0.728355 0.867608
0.709907 0.729052 0.979445
0.711594 0.850741 0.061132
0.712231 0.851378 0.163142
0.712951 0.852098 0.278576
0.713683 0.852830 0.395917
0.714423 0.853570 0.514494
0.715169 0.854315 0.633991
0.715919 0.855065 0.754225
0.716673 0.855819 0.875071
0.717370 0.856517 0.986908
0.719091 0.978775 0.068628
0.719727 0.979411 0.170639
0.720447 0.980131 0.286072
0.721180 0.980864 0.403413
0.721919 0.981603 0.521990
0.722665 0.982349 0.641488
0.723415 0.983099 0.761721
0.724169 0.983853 0.882568
0.724867 0.984551 0.994404
0.784613 0.014242 0.014242
0.785249 0.014878 0.116252
0.785969 0.015598 0.231686
0.786701 0.016331 0.349027
0.787441 0.017070 0.467604
0.788187 0.017816 0.587101
0.788937 0.018566 0.707334
0.789691 0.019320 0.828181
0.790389 0.020018 0.940018
0.789793 0.102718 0.019422
0.790429 0.103354 0.121433
0.791150 0.104075 0.236866
0.791882 0.104807 0.354207
0.792622 0.105547 0.472784
0.793367 0.106292 0.592282
0.794117 0.107042 0.712515
0.794871 0.107796 0.833361
0.795569 0.108494 0.945198
0.796900 0.224108 0.026529
0.797537 0.224745 0.128540
0.798257 0.225465 0.243973
0.798989 0.226197 0.361314
0.799729 0.226937 0.479891
0.800475 0.227682 0.599389
0.801225 0.228432 0.719622
0.801979 0.229186 0.840469
0.802676 0.229884 0.952305
0.804137 0.347712 0.033766
0.804774 0.348348 0.135777
0.805494 0.349068 0.251210
0.806226 0.349800 0.368551
0.806966 0.350540 0.487128
0.807712 0.351286 0.606626
0.808462 0.352036 0.726859
0.809216 0.352790 0.847706
0.809913 0.353488 0.959542
0.811455 0.472696 0.041084
0.812092 0.473333 0.143095
0.812812 0.474053 0.258528
0.813544 0.474785 0.375869
0.814284 0.475525 0.494446
0.815029 0.476270 0.613944
0.815779 0.477020 0.734177
0.816533 0.477774 0.855024
0.817231 0.478472 0.966860
0.818832 0.598693 0.048461
0.819469 0.599330 0.150472
0.820189 0.600050 0.265905
0.820921 0.600782 0.383246
0.821661 0.601522 0.501823
0.822406 0.602268 0.621321
0.823157 0.603018 0.741554
0.823911 0.603772 0.862401
0.824608 0.604469 0.974237
0.826256 0.725493 0.055886
0.826893 0.726129 0.157896
0.827613 0.726850 0.273329
0.828345 0.727582 0.390671
0.829085 0.728322 0.509247
0.829831 0.729067 0.628745
0.830581 0.729817 0.748978
0.831335 0.730571 0.869825
0.832032 0.731269 0.981662
0.833720 0.852958 0.063349
0.834356 0.853594 0.165359
0.835076 0.854314 0.280792
0.835808 0.855047 0.398134
0.836548 0.855786 0.516711
0.837294 0.856532 0.636208
0.838044 0.857282 0.756441
0.838798 0.858036 0.877288
0.839496 0.858734 0.989125
0.841216 0.980992 0.070845
0.841852 0.981628 0.172856
0.842573 0.982348 0.288289
0.843305 0.983080 0.405630
0.844044 0.983820 0.524207
0.844790 0.984566 0.643704
0.845540 0.985316 0.763938
0.846294 0.986070 0.884784
0.846992 0.986768 0.996621
0.907296 0.016469 0.016469
0.907933 0.017105 0.118479
0.908653 0.017825 0.233912
0.909385 0.018557 0.351254
0.910125 0.019297 0.469831
0.910870 0.020043 0.589328
0.911620 0.020793 0.709561
0.912374 0.021547 0.830408
0.913072 0.022245 0.942245
0.912477 0.104945 0.021649
0.913113 0.105581 0.123659
0.913833 0.106302 0.239093
0.914565 0.107034 0.356434
0.915305 0.107773 0.475011
0.916051 0.108519 0.594508
0.916801 0.109269 0.714742
0.917555 0.110023 0.835588
0.918253 0.110721 0.947425
0.919584 0.226335 0.028756
0.920220 0.226971 0.130767
0.920941 0.227692 0.246200
0.921673 0.228424 0.363541
0.922412 0.229164 0.482118
0.923158 0.229909 0.601616
0.923908 0.230659 0.721849
0.924662 0.231413 0.842696
0.925360 0.232111 0.954532
0.926821 0.349939 0.035993
0.927457 0.350575 0.138004
0.928178 0.351295 0.253437
0.928910 0.352027 0.370778
0.929649 0.352767 0.489355
0.930395 0.353513 0.608853
0.931145 0.354263 0.729086
0.931899 0.355017 0.849933
0.932597 0.355715 0.961769
0.934139 0.474923 0.043311
0.934775 0.475560 0.145322
0.935495 0.476280 0.260755
0.936227 0.477012 0.378096
0.936967 0.477752 0.496673
0.937713 0.478497 0.616171
0.938463 0.479247 0.736404
0.939217 0.480001 0.857251
0.939915 0.480699 0.969087
0.941516 0.600920 0.050688
0.942152 0.601557 0.152699
0.942873 0.602277 0.268132
0.943605 0.603009 0.385473
0.944344 0.603749 0.504050
0.945090 0.604494 0.623548
0.945840 0.605245 0.743781
0.946594 0.605999 0.864628
0.947292 0.606696 0.976464
0.948940 0.727720 0.058112
0.949576 0.728356 0.160123
0.950297 0.729077 0.275556
0.951029 0.729809 0.392897
0.951769 0.730548 0.511474
0.952514 0.731294 0.630972
0.953264 0.732044 0.751205
0.954018 0.732798 0.872052
0.954716 0.733496 0.983888
0.956403 0.855185 0.065576
0.957040 0.855821 0.167586
0.957760 0.856541 0.283019
0.958492 0.857273 0.400361
0.959232 0.858013 0.518937
0.959977 0.858759 0.638435
0.960727 0.859509 0.758668
0.961481 0.860263 0.879515
0.962179 0.860961 0.991352
0.963899 0.983218 0.073072
0.964536 0.983855 0.175082
0.965256 0.984575 0.290516
0.965988 0.985307 0.407857
0.966728 0.986047 0.526434
0.967474 0.986793 0.645931
0.968224 0.987543 0.766165
0.968978 0.988297 0.887011
0.969675 0.988994 0.998848
