skills/unified-director/assets/grade/luts/night_blue_v05.cube
TITLE "night_blue_v05"
LUT_3D_SIZE 9
DOMAIN_MIN 0.0 0.0 0.0
DOMAIN_MAX 1.0 1.0 1.0
0.000000 0.000000 0.000000
0.000761 0.000761 0.094553
0.001671 0.001671 0.207615
0.002605 0.002605 0.323526
0.003553 0.003553 0.441282
0.004512 0.004512 0.560415
0.005480 0.005480 0.680651
0.006455 0.006455 0.801808
0.007296 0.007296 0.906243
0.005248 0.070521 0.005248
0.006009 0.071282 0.099800
0.006919 0.072192 0.212863
0.007852 0.073126 0.328774
0.008800 0.074074 0.446530
0.009760 0.075033 0.565663
0.010728 0.076001 0.685899
0.011703 0.076976 0.807056
0.012544 0.077817 0.911491
0.014176 0.190505 0.014176
0.014938 0.191266 0.108729
0.015848 0.192176 0.221791
0.016781 0.193109 0.337702
0.017729 0.194057 0.455458
0.018688 0.195016 0.574592
0.019656 0.195984 0.694827
0.020632 0.196960 0.815984
0.021472 0.197801 0.920420
0.023372 0.314075 0.023372
0.024133 0.314836 0.117924
0.025043 0.315746 0.230987
0.025976 0.316680 0.346897
0.026924 0.317628 0.464654
0.027884 0.318587 0.583787
0.028852 0.319555 0.704023
0.029827 0.320530 0.825179
0.030668 0.321371 0.929615
0.032729 0.439819 0.032729
0.033490 0.440580 0.127281
0.034400 0.441491 0.240344
0.035334 0.442424 0.356255
0.036282 0.443372 0.474011
0.037241 0.444331 0.593144
0.038209 0.445299 0.713380
0.039184 0.446274 0.834537
0.040025 0.447115 0.938972
0.042204 0.567143 0.042204
0.042965 0.567904 0.136756
0.043875 0.568814 0.249818
0.044808 0.569748 0.365729
0.045756 0.570696 0.483486
0.046715 0.571655 0.602619
0.047683 0.572623 0.722855
0.048659 0.573598 0.844011
0.049500 0.574439 0.948447
0.051771 0.695713 0.051771
0.052532 0.696474 0.146324
0.053443 0.697384 0.259386
0.054376 0.698318 0.375297
0.055324 0.699266 0.493053
0.056283 0.700225 0.612186
0.057251 0.701193 0.732422
0.058226 0.702168 0.853579
0.059067 0.703009 0.958014
0.061415 0.825314 0.061415
0.062177 0.826075 0.155968
0.063087 0.826985 0.269030
0.064020 0.827919 0.384941
0.064968 0.828867 0.502697
0.065927 0.829826 0.621831
0.066895 0.830794 0.742066
0.067871 0.831769 0.863223
0.068711 0.832610 0.967659
0.071125 0.955796 0.071125
0.071886 0.956557 0.165678
0.072797 0.957467 0.278740
0.073730 0.958400 0.394651
0.074678 0.959348 0.512407
0.075637 0.960308 0.631540
0.076605 0.961276 0.751776
0.077580 0.962251 0.872933
0.078421 0.963092 0.977368
0.038186 0.000891 0.000891
0.038948 0.001653 0.095444
0.039858 0.002563 0.208506
0.040791 0.003496 0.324417
0.041739 0.004444 0.442173
0.042698 0.005403 0.561307
0.043666 0.006371 0.681542
0.044642 0.007347 0.802699
0.045482 0.008187 0.907135
0.043434 0.071412 0.006139
0.044195 0.072173 0.100692
0.045106 0.073084 0.213754
0.046039 0.074017 0.329665
0.046987 0.074965 0.447421
0.047946 0.075924 0.566554
0.048914 0.076892 0.686790
0.049889 0.077867 0.807947
0.050730 0.078708 0.912382
0.052363 0.191396 0.015068
0.053124 0.192157 0.109620
0.054034 0.193067 0.222682
0.054967 0.194001 0.338593
0.055915 0.194949 0.456350
0.056874 0.195908 0.575483
0.057842 0.196876 0.695719
0.058818 0.197851 0.816875
0.059659 0.198692 0.921311
0.061558 0.314966 0.024263
0.062319 0.315727 0.118816
0.063229 0.316638 0.231878
0.064163 0.317571 0.347789
0.065111 0.318519 0.465545
0.066070 0.319478 0.584678
0.067038 0.320446 0.704914
0.068013 0.321421 0.826071
0.068854 0.322262 0.930506
0.070915 0.440710 0.033620
0.071676 0.441472 0.128173
0.072587 0.442382 0.241235
0.073520 0.443315 0.357146
0.074468 0.444263 0.474902
0.075427 0.445222 0.594035
0.076395 0.446190 0.714271
0.077370 0.447166 0.835428
0.078211 0.448006 0.939864
0.080390 0.568034 0.043095
0.081151 0.568796 0.137647
0.082061 0.569706 0.250710
0.082995 0.570639 0.366621
0.083943 0.571587 0.484377
0.084902 0.572546 0.603510
0.085870 0.573514 0.723746
0.086845 0.574490 0.844903
0.087686 0.575330 0.949338
0.089957 0.696604 0.052662
0.090719 0.697365 0.147215
0.091629 0.698276 0.260277
0.092562 0.699209 0.376188
0.093510 0.700157 0.493944
0.094469 0.701116 0.613078
0.095437 0.702084 0.733313
0.096413 0.703059 0.854470
0.097253 0.703900 0.958906
0.099602 0.826205 0.062307
0.100363 0.826966 0.156859
0.101273 0.827877 0.269921
0.102206 0.828810 0.385832
0.103154 0.829758 0.503589
0.104113 0.830717 0.622722
0.105081 0.831685 0.742958
0.106057 0.832660 0.864114
0.106898 0.833501 0.968550
0.109311 0.956687 0.072016
0.110073 0.957448 0.166569
0.110983 0.958359 0.279631
0.111916 0.959292 0.395542
0.112864 0.960240 0.513298
0.113823 0.961199 0.632432
0.114791 0.962167 0.752667
0.115767 0.963142 0.873824
0.116607 0.963983 0.978260
0.150437 0.003511 0.003511
0.151198 0.004273 0.098064
0.152108 0.005183 0.211126
0.153042 0.006116 0.327037
0.153990 0.007064 0.444793
0.154949 0.008023 0.563927
0.155917 0.008991 0.684162
0.156892 0.009967 0.805319
0.157733 0.010807 0.909755
0.155685 0.074032 0.008759
0.156446 0.074794 0.103312
0.157356 0.075704 0.216374
0.158289 0.076637 0.332285
0.159237 0.077585 0.450041
0.160197 0.078544 0.569174
0.161165 0.079512 0.689410
0.162140 0.080488 0.810567
0.162981 0.081328 0.915002
0.164613 0.194016 0.017688
0.165374 0.194777 0.112240
0.166285 0.195687 0.225302
0.167218 0.196621 0.341213
0.168166 0.197569 0.458970
0.169125 0.198528 0.578103
0.170093 0.199496 0.698339
0.171068 0.200471 0.819495
0.171909 0.201312 0.923931
0.173809 0.317586 0.026883
0.174570 0.318347 0.121436
0.175480 0.319258 0.234498
0.176413 0.320191 0.350409
0.177361 0.321139 0.468165
0.178320 0.322098 0.587298
0.179288 0.323066 0.707534
0.180264 0.324041 0.828691
0.181105 0.324882 0.933126
0.183166 0.443331 0.036240
0.183927 0.444092 0.130793
0.184837 0.445002 0.243855
0.185771 0.445935 0.359766
0.186719 0.446883 0.477522
0.187678 0.447842 0.596656
0.188646 0.448810 0.716891
0.189621 0.449786 0.838048
0.190462 0.450627 0.942484
0.192641 0.570654 0.045715
0.193402 0.571416 0.140268
0.194312 0.572326 0.253330
0.195245 0.573259 0.369241
0.196193 0.574207 0.486997
0.197152 0.575166 0.606130
0.198120 0.576134 0.726366
0.199096 0.577110 0.847523
0.199937 0.577950 0.951958
0.202208 0.699224 0.055282
0.202969 0.699985 0.149835
0.203880 0.700896 0.262897
0.204813 0.701829 0.378808
0.205761 0.702777 0.496564
0.206720 0.703736 0.615698
0.207688 0.704704 0.735933
0.208663 0.705679 0.857090
0.209504 0.706520 0.961526
0.211852 0.828825 0.064927
0.212613 0.829586 0.159479
0.213524 0.830497 0.272541
0.214457 0.831430 0.388452
0.215405 0.832378 0.506209
0.216364 0.833337 0.625342
0.217332 0.834305 0.745578
0.218307 0.835280 0.866734
0.219148 0.836121 0.971170
0.221562 0.959307 0.074636
0.222323 0.960068 0.169189
0.223233 0.960979 0.282251
0.224167 0.961912 0.398162
0.225115 0.962860 0.515918
0.226074 0.963819 0.635052
0.227042 0.964787 0.755287
0.228017 0.965762 0.876444
0.228858 0.966603 0.980880
0.266848 0.006228 0.006228
0.267609 0.006990 0.100781
0.268519 0.007900 0.213843
0.269453 0.008833 0.329754
0.270401 0.009781 0.447510
0.271360 0.010740 0.566644
0.272328 0.011708 0.686879
0.273303 0.012684 0.808036
0.274144 0.013524 0.912472
0.272096 0.076749 0.011476
0.272857 0.077511 0.106029
0.273767 0.078421 0.219091
0.274700 0.079354 0.335002
0.275648 0.080302 0.452758
0.276607 0.081261 0.571892
0.277575 0.082229 0.692127
0.278551 0.083205 0.813284
0.279392 0.084045 0.917720
0.281024 0.196733 0.020405
0.281785 0.197494 0.114957
0.282696 0.198405 0.228020
0.283629 0.199338 0.343931
0.284577 0.200286 0.461687
0.285536 0.201245 0.580820
0.286504 0.202213 0.701056
0.287479 0.203188 0.822213
0.288320 0.204029 0.926648
0.290220 0.320303 0.029600
0.290981 0.321065 0.124153
0.291891 0.321975 0.237215
0.292824 0.322908 0.353126
0.293772 0.323856 0.470882
0.294731 0.324815 0.590015
0.295699 0.325783 0.710251
0.296675 0.326759 0.831408
0.297516 0.327599 0.935844
0.299577 0.446048 0.038957
0.300338 0.446809 0.133510
0.301248 0.447719 0.246572
0.302181 0.448652 0.362483
0.303129 0.449600 0.480239
0.304089 0.450559 0.599373
0.305057 0.451527 0.719608
0.306032 0.452503 0.840765
0.306873 0.453344 0.945201
0.309052 0.573372 0.048432
0.309813 0.574133 0.142985
0.310723 0.575043 0.256047
0.311656 0.575976 0.371958
0.312604 0.576924 0.489714
0.313563 0.577883 0.608847
0.314531 0.578851 0.729083
0.315507 0.579827 0.850240
0.316348 0.580668 0.954676
0.318619 0.701941 0.058000
0.319380 0.702703 0.152552
0.320290 0.703613 0.265614
0.321224 0.704546 0.381525
0.322172 0.705494 0.499282
0.323131 0.706453 0.618415
0.324099 0.707421 0.738651
0.325074 0.708397 0.859807
0.325915 0.709237 0.964243
0.328263 0.831542 0.067644
0.329024 0.832304 0.162196
0.329935 0.833214 0.275259
0.330868 0.834147 0.391170
0.331816 0.835095 0.508926
0.332775 0.836054 0.628059
0.333743 0.837022 0.748295
0.334718 0.837998 0.869452
0.335559 0.838838 0.973887
0.337973 0.962024 0.077354
0.338734 0.962785 0.171906
0.339644 0.963696 0.284968
0.340578 0.964629 0.400879
0.341526 0.965577 0.518636
0.342485 0.966536 0.637769
0.343453 0.967504 0.758005
0.344428 0.968479 0.879161
0.345269 0.969320 0.983597
0.385549 0.008999 0.008999
0.386310 0.009760 0.103552
0.387220 0.010671 0.216614
0.388153 0.011604 0.332525
0.389102 0.012552 0.450281
0.390061 0.013511 0.569414
0.391029 0.014479 0.689650
0.392004 0.015454 0.810807
0.392845 0.016295 0.915242
0.390797 0.079520 0.014247
0.391558 0.080281 0.108799
0.392468 0.081192 0.221862
0.393401 0.082125 0.337773
0.394349 0.083073 0.455529
0.395308 0.084032 0.574662
0.396276 0.085000 0.694898
0.397252 0.085975 0.816055
0.398093 0.086816 0.920490
0.399725 0.199504 0.023175
0.400486 0.200265 0.117728
0.401397 0.201175 0.230790
0.402330 0.202108 0.346701
0.403278 0.203056 0.464457
0.404237 0.204015 0.583591
0.405205 0.204983 0.703826
0.406180 0.205959 0.824983
0.407021 0.206800 0.929419
0.408921 0.323074 0.032371
0.409682 0.323835 0.126923
0.410592 0.324745 0.239986
0.411525 0.325679 0.355897
0.412473 0.326627 0.473653
0.413432 0.327586 0.592786
0.414400 0.328554 0.713022
0.415376 0.329529 0.834179
0.416217 0.330370 0.938614
0.418278 0.448818 0.041728
0.419039 0.449580 0.136281
0.419949 0.450490 0.249343
0.420882 0.451423 0.365254
0.421830 0.452371 0.483010
0.422790 0.453330 0.602143
0.423758 0.454298 0.722379
0.424733 0.455273 0.843536
0.425574 0.456114 0.947971
0.427752 0.576142 0.051203
0.428514 0.576903 0.145755
0.429424 0.577814 0.258818
0.430357 0.578747 0.374728
0.431305 0.579695 0.492485
0.432264 0.580654 0.611618
0.433232 0.581622 0.731854
0.434208 0.582597 0.853010
0.435048 0.583438 0.957446
0.437320 0.704712 0.060770
0.438081 0.705473 0.155323
0.438991 0.706383 0.268385
0.439925 0.707317 0.384296
0.440873 0.708265 0.502052
0.441832 0.709224 0.621185
0.442800 0.710192 0.741421
0.443775 0.711167 0.862578
0.444616 0.712008 0.967014
0.446964 0.834313 0.070414
0.447725 0.835074 0.164967
0.448636 0.835984 0.278029
0.449569 0.836918 0.393940
0.450517 0.837866 0.511696
0.451476 0.838825 0.630830
0.452444 0.839793 0.751065
0.453419 0.840768 0.872222
0.454260 0.841609 0.976658
0.456674 0.964795 0.080124
0.457435 0.965556 0.174677
0.458345 0.966466 0.287739
0.459279 0.967400 0.403650
0.460227 0.968348 0.521406
0.461186 0.969307 0.640539
0.462154 0.970275 0.760775
0.463129 0.971250 0.881932
0.463970 0.972091 0.986368
0.505861 0.011807 0.011807
0.506622 0.012569 0.106360
0.507532 0.013479 0.219422
0.508465 0.014412 0.335333
0.509413 0.015360 0.453089
0.510372 0.016319 0.572223
0.511340 0.017287 0.692458
0.512316 0.018263 0.813615
0.513157 0.019103 0.918051
0.511108 0.082328 0.017055
0.511870 0.083089 0.111608
0.512780 0.084000 0.224670
0.513713 0.084933 0.340581
0.514661 0.085881 0.458337
0.515620 0.086840 0.577470
0.516588 0.087808 0.697706
0.517564 0.088783 0.818863
0.518404 0.089624 0.923298
0.520037 0.202312 0.025984
0.520798 0.203073 0.120536
0.521708 0.203983 0.233598
0.522642 0.204917 0.349509
0.523590 0.205865 0.467266
0.524549 0.206824 0.586399
0.525517 0.207792 0.706635
0.526492 0.208767 0.827791
0.527333 0.209608 0.932227
0.529232 0.325882 0.035179
0.529994 0.326643 0.129732
0.530904 0.327554 0.242794
0.531837 0.328487 0.358705
0.532785 0.329435 0.476461
0.533744 0.330394 0.595594
0.534712 0.331362 0.715830
0.535688 0.332337 0.836987
0.536528 0.333178 0.941422
0.538590 0.451626 0.044536
0.539351 0.452388 0.139089
0.540261 0.453298 0.252151
0.541194 0.454231 0.368062
0.542142 0.455179 0.485818
0.543101 0.456138 0.604951
0.544069 0.457106 0.725187
0.545045 0.458082 0.846344
0.545886 0.458922 0.950780
0.548064 0.578950 0.054011
0.548826 0.579712 0.148563
0.549736 0.580622 0.261626
0.550669 0.581555 0.377537
0.551617 0.582503 0.495293
0.552576 0.583462 0.614426
0.553544 0.584430 0.734662
0.554519 0.585406 0.855819
0.555360 0.586246 0.960254
0.557632 0.707520 0.063578
0.558393 0.708281 0.158131
0.559303 0.709192 0.271193
0.560236 0.710125 0.387104
0.561184 0.711073 0.504860
0.562144 0.712032 0.623994
0.563112 0.713000 0.744229
0.564087 0.713975 0.865386
0.564928 0.714816 0.969822
0.567276 0.837121 0.073223
0.568037 0.837882 0.167775
0.568947 0.838793 0.280837
0.569881 0.839726 0.396748
0.570829 0.840674 0.514505
0.571788 0.841633 0.633638
0.572756 0.842601 0.753874
0.573731 0.843576 0.875030
0.574572 0.844417 0.979466
0.576986 0.967603 0.082932
0.577747 0.968364 0.177485
0.578657 0.969275 0.290547
0.579590 0.970208 0.406458
0.580538 0.971156 0.524214
0.581497 0.972115 0.643348
0.582465 0.973083 0.763583
0.583441 0.974058 0.884740
0.584282 0.974899 0.989176
0.627422 0.014645 0.014645
0.628183 0.015406 0.109197
0.629093 0.016316 0.222259
0.630026 0.017249 0.338170
0.630974 0.018197 0.455927
0.631934 0.019156 0.575060
0.632902 0.020124 0.695296
0.633877 0.021100 0.816452
0.634718 0.021941 0.920888
0.632670 0.085166 0.019892
0.633431 0.085927 0.114445
0.634341 0.086837 0.227507
0.635274 0.087770 0.343418
0.636222 0.088718 0.461174
0.637181 0.089677 0.580308
0.638149 0.090645 0.700543
0.639125 0.091621 0.821700
0.639966 0.092462 0.926136
0.641598 0.205149 0.028821
0.642359 0.205910 0.123373
0.643269 0.206821 0.236436
0.644203 0.207754 0.352347
0.645151 0.208702 0.470103
0.646110 0.209661 0.589236
0.647078 0.210629 0.709472
0.648053 0.211604 0.830629
0.648894 0.212445 0.935064
0.650793 0.328720 0.038016
0.651555 0.329481 0.132569
0.652465 0.330391 0.245631
0.653398 0.331324 0.361542
0.654346 0.332272 0.479298
0.655305 0.333231 0.598432
0.656273 0.334199 0.718667
0.657249 0.335175 0.839824
0.658089 0.336016 0.944260
0.660151 0.454464 0.047374
0.660912 0.455225 0.141926
0.661822 0.456135 0.254988
0.662755 0.457068 0.370899
0.663703 0.458017 0.488656
0.664662 0.458976 0.607789
0.665630 0.459944 0.728025
0.666606 0.460919 0.849181
0.667447 0.461760 0.953617
0.669625 0.581788 0.056848
0.670387 0.582549 0.151401
0.671297 0.583459 0.264463
0.672230 0.584392 0.380374
0.673178 0.585340 0.498130
0.674137 0.586299 0.617264
0.675105 0.587267 0.737499
0.676081 0.588243 0.858656
0.676921 0.589084 0.963092
0.679193 0.710358 0.066416
0.679954 0.711119 0.160968
0.680864 0.712029 0.274031
0.681797 0.712962 0.389942
0.682746 0.713910 0.507698
0.683705 0.714869 0.626831
0.684673 0.715837 0.747067
0.685648 0.716813 0.868224
0.686489 0.717654 0.972659
0.688837 0.839959 0.076060
0.689598 0.840720 0.170612
0.690508 0.841630 0.283675
0.691442 0.842563 0.399586
0.692390 0.843511 0.517342
0.693349 0.844470 0.636475
0.694317 0.845438 0.756711
0.695292 0.846414 0.877868
0.696133 0.847255 0.982303
0.698547 0.970440 0.085770
0.699308 0.971202 0.180322
0.700218 0.972112 0.293384
0.701151 0.973045 0.409295
0.702099 0.973993 0.527052
0.703059 0.974952 0.646185
0.704027 0.975920 0.766421
0.705002 0.976896 0.887577
0.705843 0.977736 0.992013
0.750006 0.017506 0.017506
0.750767 0.018267 0.112058
0.751677 0.019177 0.225121
0.752611 0.020111 0.341032
0.753559 0.021059 0.458788
0.754518 0.022018 0.577921
0.755486 0.022986 0.698157
0.756461 0.023961 0.819314
0.757302 0.024802 0.923749
0.755254 0.088027 0.022754
0.756015 0.088788 0.117306
0.756925 0.089698 0.230368
0.757858 0.090631 0.346279
0.758806 0.091580 0.464036
0.759766 0.092539 0.583169
0.760734 0.093507 0.703405
0.761709 0.094482 0.824561
0.762550 0.095323 0.928997
0.764182 0.208010 0.031682
0.764943 0.208772 0.126235
0.765854 0.209682 0.239297
0.766787 0.210615 0.355208
0.767735 0.211563 0.472964
0.768694 0.212522 0.592097
0.769662 0.213490 0.712333
0.770637 0.214466 0.833490
0.771478 0.215306 0.937926
0.773378 0.331581 0.040878
0.774139 0.332342 0.135430
0.775049 0.333252 0.248492
0.775982 0.334185 0.364403
0.776930 0.335133 0.482160
0.777889 0.336093 0.601293
0.778857 0.337061 0.721529
0.779833 0.338036 0.842685
0.780674 0.338877 0.947121
0.782735 0.457325 0.050235
0.783496 0.458086 0.144787
0.784406 0.458997 0.257850
0.785339 0.459930 0.373761
0.786288 0.460878 0.491517
0.787247 0.461837 0.610650
0.788215 0.462805 0.730886
0.789190 0.463780 0.852043
0.790031 0.464621 0.956478
0.792210 0.584649 0.059710
0.792971 0.585410 0.154262
0.793881 0.586320 0.267324
0.794814 0.587254 0.383235
0.795762 0.588202 0.500992
0.796721 0.589161 0.620125
0.797689 0.590129 0.740361
0.798665 0.591104 0.861517
0.799506 0.591945 0.965953
0.801777 0.713219 0.069277
0.802538 0.713980 0.163830
0.803449 0.714890 0.276892
0.804382 0.715823 0.392803
0.805330 0.716771 0.510559
0.806289 0.717731 0.629692
0.807257 0.718699 0.749928
0.808232 0.719674 0.871085
0.809073 0.720515 0.975520
0.811421 0.842820 0.078921
0.812182 0.843581 0.173474
0.813093 0.844491 0.286536
0.814026 0.845424 0.402447
0.814974 0.846372 0.520203
0.815933 0.847332 0.639336
0.816901 0.848300 0.759572
0.817876 0.849275 0.880729
0.818717 0.850116 0.985165
0.821131 0.973302 0.088631
0.821892 0.974063 0.183183
0.822802 0.974973 0.296246
0.823736 0.975906 0.412157
0.824684 0.976854 0.529913
0.825643 0.977813 0.649046
0.826611 0.978781 0.769282
0.827586 0.979757 0.890439
0.828427 0.980598 0.994874
0.873458 0.020387 0.020387
0.874219 0.021149 0.114940
0.875129 0.022059 0.228002
0.876062 0.022992 0.343913
0.877011 0.023940 0.461669
0.877970 0.024899 0.580803
0.878938 0.025867 0.701038
0.879913 0.026843 0.822195
0.880754 0.027683 0.926631
0.878706 0.090908 0.025635
0.879467 0.091670 0.120188
0.880377 0.092580 0.233250
0.881310 0.093513 0.349161
0.882258 0.094461 0.466917
0.883217 0.095420 0.586050
0.884185 0.096388 0.706286
0.885161 0.097364 0.827443
0.886002 0.098204 0.931879
0.887634 0.210892 0.034564
0.888395 0.211653 0.129116
0.889306 0.212563 0.242178
0.890239 0.213497 0.358089
0.891187 0.214445 0.475846
0.892146 0.215404 0.594979
0.893114 0.216372 0.715215
0.894089 0.217347 0.836371
0.894930 0.218188 0.940807
0.896830 0.334462 0.043759
0.897591 0.335224 0.138312
0.898501 0.336134 0.251374
0.899434 0.337067 0.367285
0.900382 0.338015 0.485041
0.901341 0.338974 0.604174
0.902309 0.339942 0.724410
0.903285 0.340917 0.845567
0.904126 0.341758 0.950002
0.906187 0.460207 0.053116
0.906948 0.460968 0.147669
0.907858 0.461878 0.260731
0.908791 0.462811 0.376642
0.909739 0.463759 0.494398
0.910699 0.464718 0.613532
0.911667 0.465686 0.733767
0.912642 0.466662 0.854924
0.913483 0.467503 0.959360
0.915661 0.587530 0.062591
0.916423 0.588292 0.157144
0.917333 0.589202 0.270206
0.918266 0.590135 0.386117
0.919214 0.591083 0.503873
0.920173 0.592042 0.623006
0.921141 0.593010 0.743242
0.922117 0.593986 0.864399
0.922957 0.594826 0.968834
0.925229 0.716100 0.072158
0.925990 0.716861 0.166711
0.926900 0.717772 0.279773
0.927834 0.718705 0.395684
0.928782 0.719653 0.513440
0.929741 0.720612 0.632574
0.930709 0.721580 0.752809
0.931684 0.722555 0.873966
0.932525 0.723396 0.978402
0.934873 0.845701 0.081803
0.935634 0.846463 0.176355
0.936545 0.847373 0.289417
0.937478 0.848306 0.405328
0.938426 0.849254 0.523085
0.939385 0.850213 0.642218
0.940353 0.851181 0.762454
0.941328 0.852156 0.883610
0.942169 0.852997 0.988046
0.944583 0.976183 0.091512
0.945344 0.976944 0.186065
0.946254 0.977855 0.299127
0.947188 0.978788 0.415038
0.948136 0.979736 0.532794
0.949095 0.980695 0.651928
0.950063 0.981663 0.772163
0.951038 0.982638 0.893320
0.951879 0.983479 0.997756
