skills/unified-director/assets/grade/luts/night_blue_v05.cube
TITLE "night_blue_v05"
LUT_3D_SIZE 5
DOMAIN_MIN 0.0 0.0 0.0
DOMAIN_MAX 1.0 1.0 1.0
0.000000 0.000000 0.000000
0.001671 0.001671 0.207615
0.003553 0.003553 0.441282
0.005480 0.005480 0.680651
0.007296 0.007296 0.906243
0.014176 0.190505 0.014176
0.015848 0.192176 0.221791
0.017729 0.194057 0.455458
0.019656 0.195984 0.694827
0.021472 0.197801 0.920420
0.032729 0.439819 0.032729
0.034400 0.441491 0.240344
0.036282 0.443372 0.474011
0.038209 0.445299 0.713380
0.040025 0.447115 0.938972
0.051771 0.695713 0.051771
0.053443 0.697384 0.259386
0.055324 0.699266 0.493053
0.057251 0.701193 0.732422
0.059067 0.703009 0.958014
0.071125 0.955796 0.071125
0.072797 0.957467 0.278740
0.074678 0.959348 0.512407
0.076605 0.961276 0.751776
0.078421 0.963092 0.977368
0.150437 0.003511 0.003511
0.152108 0.005183 0.211126
0.153990 0.007064 0.444793
0.155917 0.008991 0.684162
0.157733 0.010807 0.909755
0.164613 0.194016 0.017688
0.166285 0.195687 0.225302
0.168166 0.197569 0.458970
0.170093 0.199496 0.698339
0.171909 0.201312 0.923931
0.183166 0.443331 0.036240
0.184837 0.445002 0.243855
0.186719 0.446883 0.477522
0.188646 0.448810 0.716891
0.190462 0.450627 0.942484
0.202208 0.699224 0.055282
0.203880 0.700896 0.262897
0.205761 0.702777 0.496564
0.207688 0.704704 0.735933
0.209504 0.706520 0.961526
0.221562 0.959307 0.074636
0.223233 0.960979 0.282251
0.225115 0.962860 0.515918
0.227042 0.964787 0.755287
0.228858 0.966603 0.980880
0.385549 0.008999 0.008999
0.387220 0.010671 0.216614
0.389102 0.012552 0.450281
0.391029 0.014479 0.689650
0.392845 0.016295 0.915242
0.399725 0.199504 0.023175
0.401397 0.201175 0.230790
0.403278 0.203056 0.464457
0.405205 0.204983 0.703826
0.407021 0.206800 0.929419
0.418278 0.448818 0.041728
0.419949 0.450490 0.249343
0.421830 0.452371 0.483010
0.423758 0.454298 0.722379
0.425574 0.456114 0.947971
0.437320 0.704712 0.060770
0.438991 0.706383 0.268385
0.440873 0.708265 0.502052
0.442800 0.710192 0.741421
0.444616 0.712008 0.967014
0.456674 0.964795 0.080124
0.458345 0.966466 0.287739
0.460227 0.968348 0.521406
0.462154 0.970275 0.760775
0.463970 0.972091 0.986368
0.627422 0.014645 0.014645
0.629093 0.016316 0.222259
0.630974 0.018197 0.455927
0.632902 0.020124 0.695296
0.634718 0.021941 0.920888
0.641598 0.205149 0.028821
0.643269 0.206821 0.236436
0.645151 0.208702 0.470103
0.647078 0.210629 0.709472
0.648894 0.212445 0.935064
0.660151 0.454464 0.047374
0.661822 0.456135 0.254988
0.663703 0.458017 0.488656
0.665630 0.459944 0.728025
0.667447 0.461760 0.953617
0.679193 0.710358 0.066416
0.680864 0.712029 0.274031
0.682746 0.713910 0.507698
0.684673 0.715837 0.747067
0.686489 0.717654 0.972659
0.698547 0.970440 0.085770
0.700218 0.972112 0.293384
0.702099 0.973993 0.527052
0.704027 0.975920 0.766421
0.705843 0.977736 0.992013
0.873458 0.020387 0.020387
0.875129 0.022059 0.228002
0.877011 0.023940 0.461669
0.878938 0.025867 0.701038
0.880754 0.027683 0.926631
0.887634 0.210892 0.034564
0.889306 0.212563 0.242178
0.891187 0.214445 0.475846
0.893114 0.216372 0.715215
0.894930 0.218188 0.940807
0.906187 0.460207 0.053116
0.907858 0.461878 0.260731
0.909739 0.463759 0.494398
0.911667 0.465686 0.733767
0.913483 0.467503 0.959360
0.925229 0.716100 0.072158
0.926900 0.717772 0.279773
0.928782 0.719653 0.513440
0.930709 0.721580 0.752809
0.932525 0.723396 0.978402
0.944583 0.976183 0.091512
0.946254 0.977855 0.299127
0.948136 0.979736 0.532794
0.950063 0.981663 0.772163
0.951879 0.983479 0.997756
