skills/unified-director/assets/grade/luts/night_blue_v01.cube
TITLE "night_blue_v01"
LUT_3D_SIZE 17
DOMAIN_MIN 0.0 0.0 0.0
DOMAIN_MAX 1.0 1.0 1.0
0.000000 0.000000 0.000000
0.000284 0.000284 0.045582
0.000636 0.000636 0.102011
0.000995 0.000995 0.159416
0.001357 0.001357 0.217444
0.001722 0.001722 0.275931
0.002089 0.002089 0.334785
0.002458 0.002458 0.393943
0.002829 0.002829 0.453362
0.003201 0.003201 0.513009
0.003574 0.003574 0.572859
0.003949 0.003949 0.632893
0.004324 0.004324 0.693093
0.004701 0.004701 0.753445
0.005078 0.005078 0.813939
0.005456 0.005456 0.874565
0.005776 0.005776 0.925776
0.001723 0.029429 0.001723
0.002007 0.029714 0.047305
0.002360 0.030066 0.103734
0.002718 0.030424 0.161139
0.003080 0.030786 0.219167
0.003445 0.031151 0.277654
0.003812 0.031518 0.336508
0.004181 0.031887 0.395666
0.004552 0.032258 0.455085
0.004924 0.032630 0.514732
0.005297 0.033003 0.574583
0.005672 0.033378 0.634616
0.006047 0.033754 0.694816
0.006424 0.034130 0.755168
0.006801 0.034507 0.815662
0.007180 0.034886 0.876288
0.007499 0.035205 0.927499
0.005180 0.088476 0.005180
0.005465 0.088761 0.050763
0.005817 0.089113 0.107191
0.006175 0.089471 0.164596
0.006537 0.089833 0.222624
0.006902 0.090198 0.281112
0.007269 0.090565 0.339965
0.007638 0.090934 0.399123
0.008009 0.091305 0.458542
0.008381 0.091677 0.518189
0.008754 0.092050 0.578040
0.009129 0.092425 0.638073
0.009505 0.092800 0.698273
0.009881 0.093177 0.758626
0.010259 0.093554 0.819120
0.010637 0.093933 0.879745
0.010956 0.094252 0.930956
0.008712 0.148800 0.008712
0.008997 0.149085 0.054295
0.009349 0.149437 0.110723
0.009707 0.149795 0.168128
0.010069 0.150157 0.226156
0.010434 0.150522 0.284644
0.010801 0.150889 0.343497
0.011170 0.151258 0.402655
0.011541 0.151629 0.462074
0.011913 0.152001 0.521721
0.012286 0.152375 0.581572
0.012661 0.152749 0.641605
0.013037 0.153125 0.701805
0.013413 0.153501 0.762158
0.013791 0.153879 0.822652
0.014169 0.154257 0.883277
0.014488 0.154576 0.934488
0.012288 0.209866 0.012288
0.012572 0.210151 0.057870
0.012924 0.210503 0.114298
0.013282 0.210861 0.171704
0.013644 0.211223 0.229731
0.014009 0.211588 0.288219
0.014376 0.211955 0.347073
0.014746 0.212324 0.406231
0.015116 0.212695 0.465650
0.015488 0.213067 0.525297
0.015862 0.213440 0.585147
0.016236 0.213815 0.645180
0.016612 0.214191 0.705380
0.016988 0.214567 0.765733
0.017366 0.214944 0.826227
0.017744 0.215323 0.886852
0.018064 0.215642 0.938064
0.015894 0.271461 0.015894
0.016178 0.271746 0.061476
0.016531 0.272098 0.117905
0.016889 0.272456 0.175310
0.017251 0.272818 0.233338
0.017616 0.273183 0.291825
0.017983 0.273550 0.350679
0.018352 0.273919 0.409837
0.018723 0.274290 0.469256
0.019095 0.274662 0.528903
0.019468 0.275036 0.588753
0.019843 0.275410 0.648787
0.020218 0.275786 0.708987
0.020595 0.276162 0.769339
0.020972 0.276540 0.829833
0.021351 0.276918 0.890459
0.021670 0.277237 0.941670
0.019525 0.333470 0.019525
0.019809 0.333754 0.065107
0.020161 0.334106 0.121535
0.020519 0.334464 0.178941
0.020881 0.334827 0.236968
0.021246 0.335191 0.295456
0.021613 0.335559 0.354310
0.021983 0.335928 0.413468
0.022353 0.336298 0.472887
0.022725 0.336671 0.532534
0.023099 0.337044 0.592384
0.023473 0.337419 0.652417
0.023849 0.337794 0.712617
0.024225 0.338171 0.772970
0.024603 0.338548 0.833464
0.024981 0.338926 0.894089
0.025301 0.339246 0.945301
0.023175 0.395818 0.023175
0.023460 0.396102 0.068757
0.023812 0.396454 0.125186
0.024170 0.396812 0.182591
0.024532 0.397175 0.240619
0.024897 0.397539 0.299107
0.025264 0.397907 0.357960
0.025633 0.398276 0.417118
0.026004 0.398646 0.476537
0.026376 0.399019 0.536184
0.026749 0.399392 0.596035
0.027124 0.399767 0.656068
0.027499 0.400142 0.716268
0.027876 0.400519 0.776621
0.028253 0.400896 0.837115
0.028632 0.401274 0.897740
0.028951 0.401594 0.948951
0.026843 0.458454 0.026843
0.027127 0.458739 0.072425
0.027479 0.459091 0.128853
0.027837 0.459449 0.186259
0.028199 0.459811 0.244286
0.028564 0.460176 0.302774
0.028931 0.460543 0.361627
0.029300 0.460912 0.420786
0.029671 0.461283 0.480204
0.030043 0.461655 0.539852
0.030417 0.462028 0.599702
0.030791 0.462403 0.659735
0.031167 0.462779 0.719935
0.031543 0.463155 0.780288
0.031921 0.463533 0.840782
0.032299 0.463911 0.901407
0.032619 0.464230 0.952619
0.030525 0.521342 0.030525
0.030809 0.521626 0.076107
0.031161 0.521978 0.132535
0.031519 0.522337 0.189941
0.031881 0.522699 0.247968
0.032246 0.523063 0.306456
0.032613 0.523431 0.365310
0.032982 0.523800 0.424468
0.033353 0.524170 0.483886
0.033725 0.524543 0.543534
0.034099 0.524916 0.603384
0.034473 0.525291 0.663417
0.034849 0.525666 0.723617
0.035225 0.526043 0.783970
0.035603 0.526420 0.844464
0.035981 0.526798 0.905089
0.036301 0.527118 0.956301
0.034220 0.584452 0.034220
0.034504 0.584736 0.079802
0.034856 0.585088 0.136230
0.035214 0.585446 0.193636
0.035576 0.585808 0.251663
0.035941 0.586173 0.310151
0.036308 0.586540 0.369005
0.036677 0.586910 0.428163
0.037048 0.587280 0.487582
0.037420 0.587652 0.547229
0.037794 0.588026 0.607079
0.038168 0.588400 0.667112
0.038544 0.588776 0.727312
0.038920 0.589152 0.787665
0.039298 0.589530 0.848159
0.039676 0.589908 0.908784
0.039996 0.590228 0.959996
0.037926 0.647761 0.037926
0.038211 0.648045 0.083509
0.038563 0.648397 0.139937
0.038921 0.648756 0.197343
0.039283 0.649118 0.255370
0.039648 0.649482 0.313858
0.040015 0.649850 0.372711
0.040384 0.650219 0.431869
0.040755 0.650590 0.491288
0.041127 0.650962 0.550936
0.041501 0.651335 0.610786
0.041875 0.651710 0.670819
0.042251 0.652085 0.731019
0.042627 0.652462 0.791372
0.043005 0.652839 0.851866
0.043383 0.653217 0.912491
0.043702 0.653537 0.963702
0.041644 0.711251 0.041644
0.041928 0.711536 0.087226
0.042280 0.711888 0.143654
0.042638 0.712246 0.201060
0.043000 0.712608 0.259088
0.043365 0.712973 0.317575
0.043733 0.713340 0.376429
0.044102 0.713709 0.435587
0.044472 0.714080 0.495006
0.044844 0.714452 0.554653
0.045218 0.714825 0.614503
0.045592 0.715200 0.674537
0.045968 0.715575 0.734736
0.046345 0.715952 0.795089
0.046722 0.716329 0.855583
0.047100 0.716708 0.916209
0.047420 0.717027 0.967420
0.045371 0.774907 0.045371
0.045655 0.775192 0.090953
0.046007 0.775544 0.147381
0.046365 0.775902 0.204787
0.046727 0.776264 0.262815
0.047092 0.776629 0.321302
0.047460 0.776996 0.380156
0.047829 0.777365 0.439314
0.048199 0.777736 0.498733
0.048572 0.778108 0.558380
0.048945 0.778481 0.618230
0.049319 0.778856 0.678264
0.049695 0.779231 0.738463
0.050072 0.779608 0.798816
0.050449 0.779985 0.859310
0.050827 0.780364 0.919936
0.051147 0.780683 0.971147
0.049107 0.838716 0.049107
0.049391 0.839000 0.094689
0.049743 0.839352 0.151117
0.050101 0.839711 0.208523
0.050463 0.840073 0.266551
0.050828 0.840438 0.325038
0.051196 0.840805 0.383892
0.051565 0.841174 0.443050
0.051935 0.841545 0.502469
0.052308 0.841917 0.562116
0.052681 0.842290 0.621966
0.053056 0.842665 0.682000
0.053431 0.843040 0.742199
0.053808 0.843417 0.802552
0.054185 0.843794 0.863046
0.054563 0.844173 0.923672
0.054883 0.844492 0.974883
0.052851 0.902667 0.052851
0.053136 0.902951 0.098433
0.053488 0.903303 0.154862
0.053846 0.903661 0.212267
0.054208 0.904023 0.270295
0.054573 0.904388 0.328783
0.054940 0.904755 0.387636
0.055309 0.905125 0.446794
0.055680 0.905495 0.506213
0.056052 0.905867 0.565860
0.056425 0.906241 0.625711
0.056800 0.906615 0.685744
0.057175 0.906991 0.745944
0.057552 0.907368 0.806297
0.057929 0.907745 0.866791
0.058308 0.908123 0.927416
0.058627 0.908443 0.978627
0.056603 0.966750 0.056603
0.056888 0.967034 0.102185
0.057240 0.967386 0.158614
0.057598 0.967744 0.216019
0.057960 0.968106 0.274047
0.058325 0.968471 0.332535
0.058692 0.968838 0.391388
0.059061 0.969208 0.450546
0.059432 0.969578 0.509965
0.059804 0.969950 0.569612
0.060177 0.970324 0.629463
0.060552 0.970698 0.689496
0.060927 0.971074 0.749696
0.061304 0.971451 0.810049
0.061681 0.971828 0.870543
0.062060 0.972206 0.931168
0.062379 0.972526 0.982379
0.010651 0.000193 0.000193
0.010935 0.000478 0.045776
0.011287 0.000830 0.102204
0.011645 0.001188 0.159609
0.012007 0.001550 0.217637
0.012372 0.001915 0.276125
0.012740 0.002282 0.334978
0.013109 0.002651 0.394136
0.013479 0.003022 0.453555
0.013851 0.003394 0.513202
0.014225 0.003767 0.573053
0.014599 0.004142 0.633086
0.014975 0.004518 0.693286
0.015352 0.004894 0.753639
0.015729 0.005272 0.814133
0.016107 0.005650 0.874758
0.016427 0.005969 0.925969
0.012374 0.029623 0.001916
0.012658 0.029907 0.047499
0.013010 0.030259 0.103927
0.013368 0.030617 0.161333
0.013731 0.030979 0.219360
0.014095 0.031344 0.277848
0.014463 0.031711 0.336701
0.014832 0.032080 0.395859
0.015202 0.032451 0.455278
0.015575 0.032823 0.514926
0.015948 0.033197 0.574776
0.016323 0.033571 0.634809
0.016698 0.033947 0.695009
0.017075 0.034323 0.755362
0.017452 0.034701 0.815856
0.017830 0.035079 0.876481
0.018150 0.035399 0.927692
0.015831 0.088670 0.005374
0.016115 0.088954 0.050956
0.016468 0.089306 0.107384
0.016826 0.089664 0.164790
0.017188 0.090026 0.222817
0.017553 0.090391 0.281305
0.017920 0.090758 0.340159
0.018289 0.091127 0.399317
0.018660 0.091498 0.458736
0.019032 0.091870 0.518383
0.019405 0.092244 0.578233
0.019780 0.092618 0.638266
0.020155 0.092994 0.698466
0.020532 0.093370 0.758819
0.020909 0.093748 0.819313
0.021288 0.094126 0.879938
0.021607 0.094446 0.931150
0.019363 0.148994 0.008906
0.019647 0.149278 0.054488
0.019999 0.149630 0.110916
0.020358 0.149988 0.168322
0.020720 0.150350 0.226349
0.021085 0.150715 0.284837
0.021452 0.151083 0.343691
0.021821 0.151452 0.402849
0.022192 0.151822 0.462267
0.022564 0.152194 0.521915
0.022937 0.152568 0.581765
0.023312 0.152942 0.641798
0.023687 0.153318 0.701998
0.024064 0.153695 0.762351
0.024441 0.154072 0.822845
0.024820 0.154450 0.883470
0.025139 0.154770 0.934682
0.022938 0.210060 0.012481
0.023223 0.210344 0.058063
0.023575 0.210696 0.114492
0.023933 0.211054 0.171897
0.024295 0.211416 0.229925
0.024660 0.211781 0.288412
0.025027 0.212148 0.347266
0.025396 0.212517 0.406424
0.025767 0.212888 0.465843
0.026139 0.213260 0.525490
0.026513 0.213634 0.585340
0.026887 0.214008 0.645374
0.027263 0.214384 0.705574
0.027639 0.214760 0.765926
0.028017 0.215138 0.826420
0.028395 0.215516 0.887046
0.028714 0.215836 0.938257
0.026545 0.271655 0.016087
0.026829 0.271939 0.061670
0.027181 0.272291 0.118098
0.027539 0.272649 0.175504
0.027901 0.273011 0.233531
0.028266 0.273376 0.292019
0.028634 0.273744 0.350872
0.029003 0.274113 0.410030
0.029373 0.274483 0.469449
0.029746 0.274855 0.529096
0.030119 0.275229 0.588947
0.030494 0.275603 0.648980
0.030869 0.275979 0.709180
0.031246 0.276356 0.769533
0.031623 0.276733 0.830027
0.032001 0.277111 0.890652
0.032321 0.277431 0.941863
0.030175 0.333663 0.019718
0.030460 0.333948 0.065300
0.030812 0.334300 0.121728
0.031170 0.334658 0.179134
0.031532 0.335020 0.237162
0.031897 0.335385 0.295649
0.032264 0.335752 0.354503
0.032633 0.336121 0.413661
0.033004 0.336492 0.473080
0.033376 0.336864 0.532727
0.033750 0.337237 0.592577
0.034124 0.337612 0.652611
0.034500 0.337987 0.712811
0.034876 0.338364 0.773163
0.035254 0.338741 0.833657
0.035632 0.339120 0.894283
0.035951 0.339439 0.945494
0.033826 0.396011 0.023368
0.034110 0.396296 0.068951
0.034462 0.396648 0.125379
0.034821 0.397006 0.182785
0.035183 0.397368 0.240812
0.035547 0.397733 0.299300
0.035915 0.398100 0.358153
0.036284 0.398469 0.417311
0.036654 0.398840 0.476730
0.037027 0.399212 0.536378
0.037400 0.399585 0.596228
0.037775 0.399960 0.656261
0.038150 0.400335 0.716461
0.038527 0.400712 0.776814
0.038904 0.401089 0.837308
0.039282 0.401468 0.897933
0.039602 0.401787 0.949144
0.037493 0.458648 0.027036
0.037778 0.458932 0.072618
0.038130 0.459284 0.129046
0.038488 0.459642 0.186452
0.038850 0.460004 0.244480
0.039215 0.460369 0.302967
0.039582 0.460736 0.361821
0.039951 0.461106 0.420979
0.040322 0.461476 0.480398
0.040694 0.461848 0.540045
0.041067 0.462222 0.599895
0.041442 0.462596 0.659929
0.041818 0.462972 0.720128
0.042194 0.463349 0.780481
0.042572 0.463726 0.840975
0.042950 0.464104 0.901601
0.043269 0.464424 0.952812
0.041175 0.521535 0.030718
0.041460 0.521820 0.076300
0.041812 0.522172 0.132728
0.042170 0.522530 0.190134
0.042532 0.522892 0.248162
0.042897 0.523257 0.306649
0.043264 0.523624 0.365503
0.043633 0.523993 0.424661
0.044004 0.524364 0.484080
0.044376 0.524736 0.543727
0.044749 0.525109 0.603577
0.045124 0.525484 0.663611
0.045500 0.525859 0.723811
0.045876 0.526236 0.784163
0.046254 0.526613 0.844657
0.046632 0.526992 0.905283
0.046951 0.527311 0.956494
0.044870 0.584645 0.034413
0.045155 0.584929 0.079995
0.045507 0.585281 0.136423
0.045865 0.585640 0.193829
0.046227 0.586002 0.251857
0.046592 0.586367 0.310344
0.046959 0.586734 0.369198
0.047328 0.587103 0.428356
0.047699 0.587474 0.487775
0.048071 0.587846 0.547422
0.048445 0.588219 0.607272
0.048819 0.588594 0.667306
0.049195 0.588969 0.727506
0.049571 0.589346 0.787858
0.049949 0.589723 0.848352
0.050327 0.590101 0.908978
0.050646 0.590421 0.960189
0.048577 0.647954 0.038120
0.048862 0.648239 0.083702
0.049214 0.648591 0.140130
0.049572 0.648949 0.197536
0.049934 0.649311 0.255564
0.050299 0.649676 0.314051
0.050666 0.650043 0.372905
0.051035 0.650412 0.432063
0.051406 0.650783 0.491482
0.051778 0.651155 0.551129
0.052151 0.651528 0.610979
0.052526 0.651903 0.671012
0.052901 0.652279 0.731212
0.053278 0.652655 0.791565
0.053655 0.653033 0.852059
0.054034 0.653411 0.912685
0.054353 0.653730 0.963896
0.052295 0.711445 0.041837
0.052579 0.711729 0.087419
0.052931 0.712081 0.143848
0.053289 0.712439 0.201253
0.053651 0.712801 0.259281
0.054016 0.713166 0.317768
0.054383 0.713533 0.376622
0.054752 0.713902 0.435780
0.055123 0.714273 0.495199
0.055495 0.714645 0.554846
0.055869 0.715019 0.614697
0.056243 0.715393 0.674730
0.056619 0.715769 0.734930
0.056995 0.716145 0.795282
0.057373 0.716523 0.855776
0.057751 0.716901 0.916402
0.058071 0.717221 0.967613
0.056022 0.775101 0.045564
0.056306 0.775385 0.091146
0.056658 0.775737 0.147575
0.057016 0.776095 0.204980
0.057378 0.776457 0.263008
0.057743 0.776822 0.321496
0.058110 0.777189 0.380349
0.058479 0.777558 0.439507
0.058850 0.777929 0.498926
0.059222 0.778301 0.558573
0.059596 0.778675 0.618424
0.059970 0.779049 0.678457
0.060346 0.779425 0.738657
0.060722 0.779801 0.799010
0.061100 0.780179 0.859504
0.061478 0.780557 0.920129
0.061798 0.780877 0.971340
0.059758 0.838909 0.049300
0.060042 0.839194 0.094882
0.060394 0.839546 0.151311
0.060752 0.839904 0.208716
0.061114 0.840266 0.266744
0.061479 0.840631 0.325232
0.061846 0.840998 0.384085
0.062215 0.841367 0.443243
0.062586 0.841738 0.502662
0.062958 0.842110 0.562309
0.063332 0.842483 0.622160
0.063706 0.842858 0.682193
0.064082 0.843234 0.742393
0.064458 0.843610 0.802746
0.064836 0.843988 0.863240
0.065214 0.844366 0.923865
0.065534 0.844685 0.975076
0.063502 0.902860 0.053044
0.063786 0.903144 0.098627
0.064138 0.903496 0.155055
0.064497 0.903855 0.212461
0.064859 0.904217 0.270488
0.065223 0.904582 0.328976
0.065591 0.904949 0.387829
0.065960 0.905318 0.446987
0.066330 0.905689 0.506406
0.066703 0.906061 0.566054
0.067076 0.906434 0.625904
0.067451 0.906809 0.685937
0.067826 0.907184 0.746137
0.068203 0.907561 0.806490
0.068580 0.907938 0.866984
0.068958 0.908317 0.927609
0.069278 0.908636 0.978820
0.067254 0.966943 0.056797
0.067538 0.967227 0.102379
0.067890 0.967579 0.158807
0.068249 0.967938 0.216213
0.068611 0.968300 0.274240
0.068976 0.968665 0.332728
0.069343 0.969032 0.391582
0.069712 0.969401 0.450740
0.070083 0.969772 0.510158
0.070455 0.970144 0.569806
0.070828 0.970517 0.629656
0.071203 0.970892 0.689689
0.071578 0.971267 0.749889
0.071955 0.971644 0.810242
0.072332 0.972021 0.870736
0.072710 0.972400 0.931361
0.073030 0.972719 0.982573
0.066540 0.001208 0.001208
0.066824 0.001492 0.046790
0.067176 0.001844 0.103218
0.067535 0.002202 0.160624
0.067897 0.002564 0.218652
0.068262 0.002929 0.277139
0.068629 0.003297 0.335993
0.068998 0.003666 0.395151
0.069369 0.004036 0.454570
0.069741 0.004409 0.514217
0.070114 0.004782 0.574067
0.070489 0.005156 0.634101
0.070864 0.005532 0.694300
0.071241 0.005909 0.754653
0.071618 0.006286 0.815147
0.071996 0.006664 0.875773
0.072316 0.006984 0.926984
0.068263 0.030637 0.002931
0.068547 0.030921 0.048513
0.068899 0.031274 0.104941
0.069258 0.031632 0.162347
0.069620 0.031994 0.220375
0.069985 0.032359 0.278862
0.070352 0.032726 0.337716
0.070721 0.033095 0.396874
0.071092 0.033466 0.456293
0.071464 0.033838 0.515940
0.071837 0.034211 0.575790
0.072212 0.034586 0.635824
0.072587 0.034961 0.696024
0.072964 0.035338 0.756376
0.073341 0.035715 0.816870
0.073720 0.036094 0.877496
0.074039 0.036413 0.928707
0.071720 0.089684 0.006388
0.072005 0.089968 0.051970
0.072357 0.090320 0.108399
0.072715 0.090679 0.165804
0.073077 0.091041 0.223832
0.073442 0.091406 0.282319
0.073809 0.091773 0.341173
0.074178 0.092142 0.400331
0.074549 0.092513 0.459750
0.074921 0.092885 0.519397
0.075294 0.093258 0.579247
0.075669 0.093633 0.639281
0.076045 0.094008 0.699481
0.076421 0.094385 0.759833
0.076798 0.094762 0.820327
0.077177 0.095140 0.880953
0.077496 0.095460 0.932164
0.075252 0.150008 0.009920
0.075537 0.150293 0.055502
0.075889 0.150645 0.111931
0.076247 0.151003 0.169336
0.076609 0.151365 0.227364
0.076974 0.151730 0.285851
0.077341 0.152097 0.344705
0.077710 0.152466 0.403863
0.078081 0.152837 0.463282
0.078453 0.153209 0.522929
0.078826 0.153582 0.582779
0.079201 0.153957 0.642813
0.079576 0.154333 0.703013
0.079953 0.154709 0.763365
0.080330 0.155086 0.823859
0.080709 0.155465 0.884485
0.081028 0.155784 0.935696
0.078828 0.211074 0.013495
0.079112 0.211358 0.059078
0.079464 0.211711 0.115506
0.079822 0.212069 0.172912
0.080184 0.212431 0.230939
0.080549 0.212796 0.289427
0.080916 0.213163 0.348280
0.081285 0.213532 0.407438
0.081656 0.213903 0.466857
0.082028 0.214275 0.526505
0.082402 0.214648 0.586355
0.082776 0.215023 0.646388
0.083152 0.215398 0.706588
0.083528 0.215775 0.766941
0.083906 0.216152 0.827435
0.084284 0.216531 0.888060
0.084604 0.216850 0.939271
0.082434 0.272669 0.017102
0.082718 0.272954 0.062684
0.083070 0.273306 0.119112
0.083429 0.273664 0.176518
0.083791 0.274026 0.234546
0.084156 0.274391 0.293033
0.084523 0.274758 0.351887
0.084892 0.275127 0.411045
0.085263 0.275498 0.470464
0.085635 0.275870 0.530111
0.086008 0.276243 0.589961
0.086383 0.276618 0.649995
0.086758 0.276993 0.710194
0.087135 0.277370 0.770547
0.087512 0.277747 0.831041
0.087891 0.278126 0.891667
0.088210 0.278445 0.942878
0.086065 0.334678 0.020732
0.086349 0.334962 0.066315
0.086701 0.335314 0.122743
0.087059 0.335672 0.180149
0.087421 0.336034 0.238176
0.087786 0.336399 0.296664
0.088153 0.336766 0.355517
0.088522 0.337135 0.414675
0.088893 0.337506 0.474094
0.089265 0.337878 0.533742
0.089639 0.338252 0.593592
0.090013 0.338626 0.653625
0.090389 0.339002 0.713825
0.090765 0.339378 0.774178
0.091143 0.339756 0.834672
0.091521 0.340134 0.895297
0.091841 0.340454 0.946508
0.089715 0.397026 0.024383
0.089999 0.397310 0.069965
0.090352 0.397662 0.126393
0.090710 0.398020 0.183799
0.091072 0.398382 0.241827
0.091437 0.398747 0.300314
0.091804 0.399114 0.359168
0.092173 0.399483 0.418326
0.092544 0.399854 0.477745
0.092916 0.400226 0.537392
0.093289 0.400600 0.597242
0.093664 0.400974 0.657276
0.094039 0.401350 0.717476
0.094416 0.401726 0.777828
0.094793 0.402104 0.838322
0.095172 0.402482 0.898948
0.095491 0.402802 0.950159
0.093382 0.459662 0.028050
0.093667 0.459947 0.073633
0.094019 0.460299 0.130061
0.094377 0.460657 0.187466
0.094739 0.461019 0.245494
0.095104 0.461384 0.303982
0.095471 0.461751 0.362835
0.095840 0.462120 0.421993
0.096211 0.462491 0.481412
0.096583 0.462863 0.541059
0.096957 0.463236 0.600910
0.097331 0.463611 0.660943
0.097707 0.463986 0.721143
0.098083 0.464363 0.781496
0.098461 0.464740 0.841990
0.098839 0.465119 0.902615
0.099158 0.465438 0.953826
0.097065 0.522550 0.031732
0.097349 0.522834 0.077315
0.097701 0.523186 0.133743
0.098059 0.523544 0.191148
0.098421 0.523906 0.249176
0.098786 0.524271 0.307664
0.099153 0.524638 0.366517
0.099522 0.525008 0.425675
0.099893 0.525378 0.485094
0.100265 0.525750 0.544741
0.100639 0.526124 0.604592
0.101013 0.526498 0.664625
0.101389 0.526874 0.724825
0.101765 0.527251 0.785178
0.102143 0.527628 0.845672
0.102521 0.528006 0.906297
0.102841 0.528326 0.957508
0.100760 0.585659 0.035427
0.101044 0.585944 0.081010
0.101396 0.586296 0.137438
0.101754 0.586654 0.194844
0.102116 0.587016 0.252871
0.102481 0.587381 0.311359
0.102848 0.587748 0.370212
0.103217 0.588117 0.429370
0.103588 0.588488 0.488789
0.103960 0.588860 0.548437
0.104334 0.589234 0.608287
0.104708 0.589608 0.668320
0.105084 0.589984 0.728520
0.105460 0.590360 0.788873
0.105838 0.590738 0.849367
0.106216 0.591116 0.909992
0.106536 0.591435 0.961203
0.104466 0.648969 0.039134
0.104751 0.649253 0.084716
0.105103 0.649605 0.141145
0.105461 0.649963 0.198550
0.105823 0.650325 0.256578
0.106188 0.650690 0.315066
0.106555 0.651057 0.373919
0.106924 0.651427 0.433077
0.107295 0.651797 0.492496
0.107667 0.652169 0.552143
0.108040 0.652543 0.611994
0.108415 0.652917 0.672027
0.108791 0.653293 0.732227
0.109167 0.653670 0.792580
0.109545 0.654047 0.853074
0.109923 0.654425 0.913699
0.110242 0.654745 0.964910
0.108184 0.712459 0.042852
0.108468 0.712743 0.088434
0.108820 0.713095 0.144862
0.109178 0.713454 0.202268
0.109540 0.713816 0.260295
0.109905 0.714181 0.318783
0.110272 0.714548 0.377637
0.110642 0.714917 0.436795
0.111012 0.715288 0.496213
0.111384 0.715660 0.555861
0.111758 0.716033 0.615711
0.112132 0.716408 0.675744
0.112508 0.716783 0.735944
0.112885 0.717160 0.796297
0.113262 0.717537 0.856791
0.113640 0.717915 0.917416
0.113960 0.718235 0.968628
0.111911 0.776115 0.046579
0.112195 0.776399 0.092161
0.112547 0.776751 0.148589
0.112905 0.777110 0.205995
0.113267 0.777472 0.264022
0.113632 0.777837 0.322510
0.114000 0.778204 0.381364
0.114369 0.778573 0.440522
0.114739 0.778944 0.499941
0.115111 0.779316 0.559588
0.115485 0.779689 0.619438
0.115859 0.780064 0.679471
0.116235 0.780439 0.739671
0.116612 0.780816 0.800024
0.116989 0.781193 0.860518
0.117367 0.781571 0.921143
0.117687 0.781891 0.972355
0.115647 0.839924 0.050315
0.115931 0.840208 0.095897
0.116283 0.840560 0.152325
0.116641 0.840918 0.209731
0.117003 0.841280 0.267758
0.117368 0.841645 0.326246
0.117736 0.842013 0.385100
0.118105 0.842382 0.444258
0.118475 0.842752 0.503677
0.118847 0.843125 0.563324
0.119221 0.843498 0.623174
0.119595 0.843872 0.683207
0.119971 0.844248 0.743407
0.120348 0.844625 0.803760
0.120725 0.845002 0.864254
0.121103 0.845380 0.924879
0.121423 0.845700 0.976091
0.119391 0.903874 0.054059
0.119675 0.904159 0.099641
0.120028 0.904511 0.156069
0.120386 0.904869 0.213475
0.120748 0.905231 0.271503
0.121113 0.905596 0.329990
0.121480 0.905963 0.388844
0.121849 0.906332 0.448002
0.122220 0.906703 0.507421
0.122592 0.907075 0.567068
0.122965 0.907449 0.626918
0.123340 0.907823 0.686952
0.123715 0.908199 0.747152
0.124092 0.908575 0.807504
0.124469 0.908953 0.867998
0.124848 0.909331 0.928624
0.125167 0.909650 0.979835
0.123143 0.967957 0.057811
0.123428 0.968242 0.103393
0.123780 0.968594 0.159822
0.124138 0.968952 0.217227
0.124500 0.969314 0.275255
0.124865 0.969679 0.333742
0.125232 0.970046 0.392596
0.125601 0.970415 0.451754
0.125972 0.970786 0.511173
0.126344 0.971158 0.570820
0.126717 0.971532 0.630670
0.127092 0.971906 0.690704
0.127467 0.972282 0.750904
0.127844 0.972658 0.811256
0.128221 0.973036 0.871750
0.128600 0.973414 0.932376
0.128919 0.973733 0.983587
0.124077 0.002252 0.002252
0.124361 0.002537 0.047834
0.124713 0.002889 0.104263
0.125071 0.003247 0.161668
0.125433 0.003609 0.219696
0.125798 0.003974 0.278184
0.126166 0.004341 0.337037
0.126535 0.004710 0.396195
0.126905 0.005081 0.455614
0.127278 0.005453 0.515261
0.127651 0.005826 0.575112
0.128026 0.006201 0.635145
0.128401 0.006576 0.695345
0.128778 0.006953 0.755698
0.129155 0.007330 0.816192
0.129533 0.007709 0.876817
0.129853 0.008028 0.928028
0.125800 0.031681 0.003975
