skills/unified-director/assets/grade/luts/night_blue_v05.cube
TITLE "night_blue_v05"
LUT_3D_SIZE 17
DOMAIN_MIN 0.0 0.0 0.0
DOMAIN_MAX 1.0 1.0 1.0
0.000000 0.000000 0.000000
0.000322 0.000322 0.039958
0.000761 0.000761 0.094553
0.001213 0.001213 0.150619
0.001671 0.001671 0.207615
0.002136 0.002136 0.265297
0.002605 0.002605 0.323526
0.003077 0.003077 0.382209
0.003553 0.003553 0.441282
0.004031 0.004031 0.500697
0.004512 0.004512 0.560415
0.004995 0.004995 0.620408
0.005480 0.005480 0.680651
0.005967 0.005967 0.741123
0.006455 0.006455 0.801808
0.006945 0.006945 0.862690
0.007296 0.007296 0.906243
0.001005 0.013507 0.001005
0.001327 0.013829 0.040963
0.001766 0.014268 0.095558
0.002218 0.014720 0.151624
0.002677 0.015178 0.208620
0.003141 0.015643 0.266302
0.003610 0.016112 0.324531
0.004082 0.016584 0.383214
0.004558 0.017060 0.442287
0.005036 0.017538 0.501702
0.005517 0.018019 0.561420
0.006000 0.018502 0.621413
0.006485 0.018987 0.681656
0.006972 0.019474 0.742128
0.007460 0.019962 0.802813
0.007950 0.020452 0.863695
0.008301 0.020803 0.907248
0.005248 0.070521 0.005248
0.005569 0.070843 0.045206
0.006009 0.071282 0.099800
0.006460 0.071734 0.155867
0.006919 0.072192 0.212863
0.007384 0.072657 0.270545
0.007852 0.073126 0.328774
0.008325 0.073598 0.387457
0.008800 0.074074 0.446530
0.009279 0.074552 0.505944
0.009760 0.075033 0.565663
0.010243 0.075516 0.625656
0.010728 0.076001 0.685899
0.011214 0.076488 0.746371
0.011703 0.076976 0.807056
0.012193 0.077466 0.867938
0.012544 0.077817 0.911491
0.009666 0.129898 0.009666
0.009988 0.130220 0.049624
0.010428 0.130659 0.104219
0.010879 0.131111 0.160285
0.011338 0.131570 0.217281
0.011802 0.132034 0.274963
0.012271 0.132503 0.333192
0.012743 0.132975 0.391875
0.013219 0.133451 0.450948
0.013697 0.133929 0.510363
0.014178 0.134410 0.570082
0.014661 0.134893 0.630075
0.015146 0.135378 0.690317
0.015633 0.135865 0.750790
0.016122 0.136353 0.811474
0.016612 0.136843 0.872356
0.016962 0.137194 0.915910
0.014176 0.190505 0.014176
0.014498 0.190826 0.054134
0.014938 0.191266 0.108729
0.015389 0.191717 0.164795
0.015848 0.192176 0.221791
0.016312 0.192640 0.279473
0.016781 0.193109 0.337702
0.017253 0.193582 0.396385
0.017729 0.194057 0.455458
0.018207 0.194536 0.514873
0.018688 0.195016 0.574592
0.019171 0.195499 0.634585
0.019656 0.195984 0.694827
0.020143 0.196471 0.755300
0.020632 0.196960 0.815984
0.021122 0.197450 0.876866
0.021472 0.197801 0.920420
0.018750 0.251962 0.018750
0.019071 0.252284 0.058708
0.019511 0.252723 0.113302
0.019962 0.253175 0.169368
0.020421 0.253634 0.226364
0.020885 0.254098 0.284047
0.021354 0.254567 0.342275
0.021827 0.255039 0.400959
0.022302 0.255515 0.460032
0.022781 0.255993 0.519446
0.023261 0.256474 0.579165
0.023744 0.256957 0.639158
0.024229 0.257442 0.699401
0.024716 0.257929 0.759873
0.025205 0.258417 0.820557
0.025695 0.258908 0.881439
0.026046 0.259258 0.924993
0.023372 0.314075 0.023372
0.023693 0.314397 0.063330
0.024133 0.314836 0.117924
0.024584 0.315288 0.173991
0.025043 0.315746 0.230987
0.025508 0.316211 0.288669
0.025976 0.316680 0.346897
0.026449 0.317152 0.405581
0.026924 0.317628 0.464654
0.027403 0.318106 0.524068
0.027884 0.318587 0.583787
0.028367 0.319070 0.643780
0.028852 0.319555 0.704023
0.029338 0.320042 0.764495
0.029827 0.320530 0.825179
0.030317 0.321020 0.886061
0.030668 0.321371 0.929615
0.028034 0.376721 0.028034
0.028355 0.377043 0.067992
0.028795 0.377483 0.122586
0.029246 0.377934 0.178652
0.029705 0.378393 0.235648
0.030169 0.378857 0.293331
0.030638 0.379326 0.351559
0.031111 0.379798 0.410242
0.031586 0.380274 0.469316
0.032065 0.380752 0.528730
0.032545 0.381233 0.588449
0.033028 0.381716 0.648442
0.033513 0.382201 0.708685
0.034000 0.382688 0.769157
0.034489 0.383177 0.829841
0.034979 0.383667 0.890723
0.035330 0.384017 0.934277
0.032729 0.439819 0.032729
0.033051 0.440141 0.072687
0.033490 0.440580 0.127281
0.033942 0.441032 0.183348
0.034400 0.441491 0.240344
0.034865 0.441955 0.298026
0.035334 0.442424 0.356255
0.035806 0.442896 0.414938
0.036282 0.443372 0.474011
0.036760 0.443850 0.533425
0.037241 0.444331 0.593144
0.037724 0.444814 0.653137
0.038209 0.445299 0.713380
0.038696 0.445786 0.773852
0.039184 0.446274 0.834537
0.039674 0.446765 0.895419
0.040025 0.447115 0.938972
0.037453 0.503308 0.037453
0.037775 0.503630 0.077412
0.038215 0.504069 0.132006
0.038666 0.504521 0.188072
0.039125 0.504980 0.245068
0.039589 0.505444 0.302751
0.040058 0.505913 0.360979
0.040531 0.506385 0.419662
0.041006 0.506861 0.478735
0.041484 0.507339 0.538150
0.041965 0.507820 0.597869
0.042448 0.508303 0.657862
0.042933 0.508788 0.718104
0.043420 0.509275 0.778577
0.043909 0.509763 0.839261
0.044399 0.510254 0.900143
0.044749 0.510604 0.943697
0.042204 0.567143 0.042204
0.042525 0.567465 0.082162
0.042965 0.567904 0.136756
0.043416 0.568356 0.192822
0.043875 0.568814 0.249818
0.044340 0.569279 0.307501
0.044808 0.569748 0.365729
0.045281 0.570220 0.424413
0.045756 0.570696 0.483486
0.046235 0.571174 0.542900
0.046715 0.571655 0.602619
0.047198 0.572138 0.662612
0.047683 0.572623 0.722855
0.048170 0.573110 0.783327
0.048659 0.573598 0.844011
0.049149 0.574088 0.904893
0.049500 0.574439 0.948447
0.046977 0.631288 0.046977
0.047299 0.631609 0.086935
0.047738 0.632049 0.141529
0.048190 0.632500 0.197596
0.048648 0.632959 0.254592
0.049113 0.633423 0.312274
0.049582 0.633892 0.370503
0.050054 0.634365 0.429186
0.050530 0.634840 0.488259
0.051008 0.635319 0.547673
0.051489 0.635799 0.607392
0.051972 0.636282 0.667385
0.052457 0.636767 0.727628
0.052944 0.637254 0.788100
0.053432 0.637743 0.848785
0.053922 0.638233 0.909667
0.054273 0.638584 0.953220
0.051771 0.695713 0.051771
0.052093 0.696035 0.091729
0.052532 0.696474 0.146324
0.052984 0.696925 0.202390
0.053443 0.697384 0.259386
0.053907 0.697849 0.317068
0.054376 0.698318 0.375297
0.054848 0.698790 0.433980
0.055324 0.699266 0.493053
0.055802 0.699744 0.552468
0.056283 0.700225 0.612186
0.056766 0.700708 0.672179
0.057251 0.701193 0.732422
0.057738 0.701680 0.792894
0.058226 0.702168 0.853579
0.058716 0.702658 0.914461
0.059067 0.703009 0.958014
0.056584 0.760395 0.056584
0.056906 0.760717 0.096543
0.057346 0.761156 0.151137
0.057797 0.761608 0.207203
0.058256 0.762066 0.264199
0.058720 0.762531 0.321882
0.059189 0.763000 0.380110
0.059661 0.763472 0.438793
0.060137 0.763948 0.497866
0.060615 0.764426 0.557281
0.061096 0.764907 0.617000
0.061579 0.765390 0.676993
0.062064 0.765875 0.737235
0.062551 0.766362 0.797708
0.063040 0.766850 0.858392
0.063530 0.767340 0.919274
0.063880 0.767691 0.962828
0.061415 0.825314 0.061415
0.061737 0.825636 0.101373
0.062177 0.826075 0.155968
0.062628 0.826527 0.212034
0.063087 0.826985 0.269030
0.063551 0.827450 0.326712
0.064020 0.827919 0.384941
0.064492 0.828391 0.443624
0.064968 0.828867 0.502697
0.065446 0.829345 0.562112
0.065927 0.829826 0.621831
0.066410 0.830309 0.681824
0.066895 0.830794 0.742066
0.067382 0.831281 0.802539
0.067871 0.831769 0.863223
0.068361 0.832259 0.924105
0.068711 0.832610 0.967659
0.066263 0.890452 0.066263
0.066584 0.890774 0.106221
0.067024 0.891214 0.160815
0.067475 0.891665 0.216881
0.067934 0.892124 0.273877
0.068398 0.892588 0.331560
0.068867 0.893057 0.389788
0.069340 0.893529 0.448471
0.069815 0.894005 0.507545
0.070294 0.894483 0.566959
0.070774 0.894964 0.626678
0.071257 0.895447 0.686671
0.071742 0.895932 0.746914
0.072229 0.896419 0.807386
0.072718 0.896908 0.868070
0.073208 0.897398 0.928952
0.073559 0.897748 0.972506
0.071125 0.955796 0.071125
0.071447 0.956117 0.111083
0.071886 0.956557 0.165678
0.072338 0.957008 0.221744
0.072797 0.957467 0.278740
0.073261 0.957932 0.336422
0.073730 0.958400 0.394651
0.074202 0.958873 0.453334
0.074678 0.959348 0.512407
0.075156 0.959827 0.571822
0.075637 0.960308 0.631540
0.076120 0.960791 0.691533
0.076605 0.961276 0.751776
0.077092 0.961762 0.812248
0.077580 0.962251 0.872933
0.078070 0.962741 0.933815
0.078421 0.963092 0.977368
0.000000 0.000000 0.000000
0.000322 0.000322 0.039958
0.000761 0.000761 0.094553
0.001213 0.001213 0.150619
0.001671 0.001671 0.207615
0.002136 0.002136 0.265297
0.002605 0.002605 0.323526
0.003077 0.003077 0.382209
0.003553 0.003553 0.441282
0.004031 0.004031 0.500697
0.004512 0.004512 0.560415
0.004995 0.004995 0.620408
0.005480 0.005480 0.680651
0.005967 0.005967 0.741123
0.006455 0.006455 0.801808
0.006945 0.006945 0.862690
0.007296 0.007296 0.906243
0.001005 0.013507 0.001005
0.001327 0.013829 0.040963
0.001766 0.014268 0.095558
0.002218 0.014720 0.151624
0.002677 0.015178 0.208620
0.003141 0.015643 0.266302
0.003610 0.016112 0.324531
0.004082 0.016584 0.383214
0.004558 0.017060 0.442287
0.005036 0.017538 0.501702
0.005517 0.018019 0.561420
0.006000 0.018502 0.621413
0.006485 0.018987 0.681656
0.006972 0.019474 0.742128
0.007460 0.019962 0.802813
0.007950 0.020452 0.863695
0.008301 0.020803 0.907248
0.005248 0.070521 0.005248
0.005569 0.070843 0.045206
0.006009 0.071282 0.099800
0.006460 0.071734 0.155867
0.006919 0.072192 0.212863
0.007384 0.072657 0.270545
0.007852 0.073126 0.328774
0.008325 0.073598 0.387457
0.008800 0.074074 0.446530
0.009279 0.074552 0.505944
0.009760 0.075033 0.565663
0.010243 0.075516 0.625656
0.010728 0.076001 0.685899
0.011214 0.076488 0.746371
0.011703 0.076976 0.807056
0.012193 0.077466 0.867938
0.012544 0.077817 0.911491
0.009666 0.129898 0.009666
0.009988 0.130220 0.049624
0.010428 0.130659 0.104219
0.010879 0.131111 0.160285
0.011338 0.131570 0.217281
0.011802 0.132034 0.274963
0.012271 0.132503 0.333192
0.012743 0.132975 0.391875
0.013219 0.133451 0.450948
0.013697 0.133929 0.510363
0.014178 0.134410 0.570082
0.014661 0.134893 0.630075
0.015146 0.135378 0.690317
0.015633 0.135865 0.750790
0.016122 0.136353 0.811474
0.016612 0.136843 0.872356
0.016962 0.137194 0.915910
0.014176 0.190505 0.014176
0.014498 0.190826 0.054134
0.014938 0.191266 0.108729
0.015389 0.191717 0.164795
0.015848 0.192176 0.221791
0.016312 0.192640 0.279473
0.016781 0.193109 0.337702
0.017253 0.193582 0.396385
0.017729 0.194057 0.455458
0.018207 0.194536 0.514873
0.018688 0.195016 0.574592
0.019171 0.195499 0.634585
0.019656 0.195984 0.694827
0.020143 0.196471 0.755300
0.020632 0.196960 0.815984
0.021122 0.197450 0.876866
0.021472 0.197801 0.920420
0.018750 0.251962 0.018750
0.019071 0.252284 0.058708
0.019511 0.252723 0.113302
0.019962 0.253175 0.169368
0.020421 0.253634 0.226364
0.020885 0.254098 0.284047
0.021354 0.254567 0.342275
0.021827 0.255039 0.400959
0.022302 0.255515 0.460032
0.022781 0.255993 0.519446
0.023261 0.256474 0.579165
0.023744 0.256957 0.639158
0.024229 0.257442 0.699401
0.024716 0.257929 0.759873
0.025205 0.258417 0.820557
0.025695 0.258908 0.881439
0.026046 0.259258 0.924993
0.023372 0.314075 0.023372
0.023693 0.314397 0.063330
0.024133 0.314836 0.117924
0.024584 0.315288 0.173991
0.025043 0.315746 0.230987
0.025508 0.316211 0.288669
0.025976 0.316680 0.346897
0.026449 0.317152 0.405581
0.026924 0.317628 0.464654
0.027403 0.318106 0.524068
0.027884 0.318587 0.583787
0.028367 0.319070 0.643780
0.028852 0.319555 0.704023
0.029338 0.320042 0.764495
0.029827 0.320530 0.825179
0.030317 0.321020 0.886061
0.030668 0.321371 0.929615
0.028034 0.376721 0.028034
0.028355 0.377043 0.067992
0.028795 0.377483 0.122586
0.029246 0.377934 0.178652
0.029705 0.378393 0.235648
0.030169 0.378857 0.293331
0.030638 0.379326 0.351559
0.031111 0.379798 0.410242
0.031586 0.380274 0.469316
0.032065 0.380752 0.528730
0.032545 0.381233 0.588449
0.033028 0.381716 0.648442
0.033513 0.382201 0.708685
0.034000 0.382688 0.769157
0.034489 0.383177 0.829841
0.034979 0.383667 0.890723
0.035330 0.384017 0.934277
0.032729 0.439819 0.032729
0.033051 0.440141 0.072687
0.033490 0.440580 0.127281
0.033942 0.441032 0.183348
0.034400 0.441491 0.240344
0.034865 0.441955 0.298026
0.035334 0.442424 0.356255
0.035806 0.442896 0.414938
0.036282 0.443372 0.474011
0.036760 0.443850 0.533425
0.037241 0.444331 0.593144
0.037724 0.444814 0.653137
0.038209 0.445299 0.713380
0.038696 0.445786 0.773852
0.039184 0.446274 0.834537
0.039674 0.446765 0.895419
0.040025 0.447115 0.938972
0.037453 0.503308 0.037453
0.037775 0.503630 0.077412
0.038215 0.504069 0.132006
0.038666 0.504521 0.188072
0.039125 0.504980 0.245068
0.039589 0.505444 0.302751
0.040058 0.505913 0.360979
0.040531 0.506385 0.419662
0.041006 0.506861 0.478735
0.041484 0.507339 0.538150
0.041965 0.507820 0.597869
0.042448 0.508303 0.657862
0.042933 0.508788 0.718104
0.043420 0.509275 0.778577
0.043909 0.509763 0.839261
0.044399 0.510254 0.900143
0.044749 0.510604 0.943697
0.042204 0.567143 0.042204
0.042525 0.567465 0.082162
0.042965 0.567904 0.136756
0.043416 0.568356 0.192822
0.043875 0.568814 0.249818
0.044340 0.569279 0.307501
0.044808 0.569748 0.365729
0.045281 0.570220 0.424413
0.045756 0.570696 0.483486
0.046235 0.571174 0.542900
0.046715 0.571655 0.602619
0.047198 0.572138 0.662612
0.047683 0.572623 0.722855
0.048170 0.573110 0.783327
0.048659 0.573598 0.844011
0.049149 0.574088 0.904893
0.049500 0.574439 0.948447
0.046977 0.631288 0.046977
0.047299 0.631609 0.086935
0.047738 0.632049 0.141529
0.048190 0.632500 0.197596
0.048648 0.632959 0.254592
0.049113 0.633423 0.312274
0.049582 0.633892 0.370503
0.050054 0.634365 0.429186
0.050530 0.634840 0.488259
0.051008 0.635319 0.547673
0.051489 0.635799 0.607392
0.051972 0.636282 0.667385
0.052457 0.636767 0.727628
0.052944 0.637254 0.788100
0.053432 0.637743 0.848785
0.053922 0.638233 0.909667
0.054273 0.638584 0.953220
0.051771 0.695713 0.051771
0.052093 0.696035 0.091729
0.052532 0.696474 0.146324
0.052984 0.696925 0.202390
0.053443 0.697384 0.259386
0.053907 0.697849 0.317068
0.054376 0.698318 0.375297
0.054848 0.698790 0.433980
0.055324 0.699266 0.493053
0.055802 0.699744 0.552468
0.056283 0.700225 0.612186
0.056766 0.700708 0.672179
0.057251 0.701193 0.732422
0.057738 0.701680 0.792894
0.058226 0.702168 0.853579
0.058716 0.702658 0.914461
0.059067 0.703009 0.958014
0.056584 0.760395 0.056584
0.056906 0.760717 0.096543
0.057346 0.761156 0.151137
0.057797 0.761608 0.207203
0.058256 0.762066 0.264199
0.058720 0.762531 0.321882
0.059189 0.763000 0.380110
0.059661 0.763472 0.438793
0.060137 0.763948 0.497866
0.060615 0.764426 0.557281
0.061096 0.764907 0.617000
0.061579 0.765390 0.676993
0.062064 0.765875 0.737235
0.062551 0.766362 0.797708
0.063040 0.766850 0.858392
0.063530 0.767340 0.919274
0.063880 0.767691 0.962828
0.061415 0.825314 0.061415
0.061737 0.825636 0.101373
0.062177 0.826075 0.155968
0.062628 0.826527 0.212034
0.063087 0.826985 0.269030
0.063551 0.827450 0.326712
0.064020 0.827919 0.384941
0.064492 0.828391 0.443624
0.064968 0.828867 0.502697
0.065446 0.829345 0.562112
0.065927 0.829826 0.621831
0.066410 0.830309 0.681824
0.066895 0.830794 0.742066
0.067382 0.831281 0.802539
0.067871 0.831769 0.863223
0.068361 0.832259 0.924105
0.068711 0.832610 0.967659
0.066263 0.890452 0.066263
0.066584 0.890774 0.106221
0.067024 0.891214 0.160815
0.067475 0.891665 0.216881
0.067934 0.892124 0.273877
0.068398 0.892588 0.331560
0.068867 0.893057 0.389788
0.069340 0.893529 0.448471
0.069815 0.894005 0.507545
0.070294 0.894483 0.566959
0.070774 0.894964 0.626678
0.071257 0.895447 0.686671
0.071742 0.895932 0.746914
0.072229 0.896419 0.807386
0.072718 0.896908 0.868070
0.073208 0.897398 0.928952
0.073559 0.897748 0.972506
0.071125 0.955796 0.071125
0.071447 0.956117 0.111083
0.071886 0.956557 0.165678
0.072338 0.957008 0.221744
0.072797 0.957467 0.278740
0.073261 0.957932 0.336422
0.073730 0.958400 0.394651
0.074202 0.958873 0.453334
0.074678 0.959348 0.512407
0.075156 0.959827 0.571822
0.075637 0.960308 0.631540
0.076120 0.960791 0.691533
0.076605 0.961276 0.751776
0.077092 0.961762 0.812248
0.077580 0.962251 0.872933
0.078070 0.962741 0.933815
0.078421 0.963092 0.977368
0.038186 0.000891 0.000891
0.038508 0.001213 0.040849
0.038948 0.001653 0.095444
0.039399 0.002104 0.151510
0.039858 0.002563 0.208506
0.040322 0.003027 0.266188
0.040791 0.003496 0.324417
0.041263 0.003968 0.383100
0.041739 0.004444 0.442173
0.042217 0.004922 0.501588
0.042698 0.005403 0.561307
0.043181 0.005886 0.621300
0.043666 0.006371 0.681542
0.044153 0.006858 0.742015
0.044642 0.007347 0.802699
0.045132 0.007837 0.863581
0.045482 0.008187 0.907135
0.039191 0.014398 0.001896
0.039513 0.014720 0.041855
0.039953 0.015160 0.096449
0.040404 0.015611 0.152515
0.040863 0.016070 0.209511
0.041327 0.016534 0.267194
0.041796 0.017003 0.325422
0.042269 0.017475 0.384105
0.042744 0.017951 0.443178
0.043222 0.018429 0.502593
0.043703 0.018910 0.562312
0.044186 0.019393 0.622305
0.044671 0.019878 0.682547
0.045158 0.020365 0.743020
0.045647 0.020853 0.803704
0.046137 0.021344 0.864586
0.046487 0.021694 0.908140
0.043434 0.071412 0.006139
0.043756 0.071734 0.046097
0.044195 0.072173 0.100692
0.044647 0.072625 0.156758
0.045106 0.073084 0.213754
0.045570 0.073548 0.271436
0.046039 0.074017 0.329665
0.046511 0.074489 0.388348
0.046987 0.074965 0.447421
0.047465 0.075443 0.506836
0.047946 0.075924 0.566554
0.048429 0.076407 0.626547
0.048914 0.076892 0.686790
0.049401 0.077379 0.747262
0.049889 0.077867 0.807947
0.050379 0.078358 0.868829
0.050730 0.078708 0.912382
0.047853 0.130789 0.010558
0.048174 0.131111 0.050516
0.048614 0.131551 0.105110
0.049065 0.132002 0.161176
0.049524 0.132461 0.218172
0.049988 0.132925 0.275855
0.050457 0.133394 0.334083
0.050930 0.133866 0.392767
0.051405 0.134342 0.451840
0.051884 0.134820 0.511254
0.052364 0.135301 0.570973
0.052847 0.135784 0.630966
0.053332 0.136269 0.691209
0.053819 0.136756 0.751681
0.054308 0.137245 0.812365
0.054798 0.137735 0.873247
0.055149 0.138085 0.916801
0.052363 0.191396 0.015068
0.052684 0.191718 0.055026
0.053124 0.192157 0.109620
0.053575 0.192608 0.165686
0.054034 0.193067 0.222682
0.054498 0.193532 0.280365
0.054967 0.194001 0.338593
0.055440 0.194473 0.397277
0.055915 0.194949 0.456350
0.056394 0.195427 0.515764
0.056874 0.195908 0.575483
0.057357 0.196391 0.635476
0.057842 0.196876 0.695719
0.058329 0.197363 0.756191
0.058818 0.197851 0.816875
0.059308 0.198341 0.877757
0.059659 0.198692 0.921311
0.056936 0.252854 0.019641
0.057258 0.253175 0.059599
0.057697 0.253615 0.114193
0.058149 0.254066 0.170260
0.058607 0.254525 0.227256
0.059072 0.254989 0.284938
0.059541 0.255458 0.343167
0.060013 0.255931 0.401850
0.060489 0.256406 0.460923
0.060967 0.256885 0.520338
0.061448 0.257365 0.580056
0.061931 0.257848 0.640049
0.062416 0.258333 0.700292
0.062903 0.258820 0.760764
0.063391 0.259309 0.821449
0.063881 0.259799 0.882331
0.064232 0.260150 0.925884
0.061558 0.314966 0.024263
0.061880 0.315288 0.064221
0.062319 0.315727 0.118816
0.062771 0.316179 0.174882
0.063229 0.316638 0.231878
0.063694 0.317102 0.289560
0.064163 0.317571 0.347789
0.064635 0.318043 0.406472
0.065111 0.318519 0.465545
0.065589 0.318997 0.524960
0.066070 0.319478 0.584678
0.066553 0.319961 0.644671
0.067038 0.320446 0.704914
0.067525 0.320933 0.765386
0.068013 0.321421 0.826071
0.068503 0.321912 0.886953
0.068854 0.322262 0.930506
0.066220 0.377613 0.028925
0.066542 0.377934 0.068883
0.066981 0.378374 0.123477
0.067432 0.378825 0.179544
0.067891 0.379284 0.236540
0.068356 0.379749 0.294222
0.068824 0.380217 0.352451
0.069297 0.380690 0.411134
0.069773 0.381165 0.470207
0.070251 0.381644 0.529621
0.070732 0.382125 0.589340
0.071215 0.382607 0.649333
0.071700 0.383092 0.709576
0.072186 0.383579 0.770048
0.072675 0.384068 0.830733
0.073165 0.384558 0.891615
0.073516 0.384909 0.935168
0.070915 0.440710 0.033620
0.071237 0.441032 0.073578
0.071676 0.441472 0.128173
0.072128 0.441923 0.184239
0.072587 0.442382 0.241235
0.073051 0.442846 0.298917
0.073520 0.443315 0.357146
0.073992 0.443788 0.415829
0.074468 0.444263 0.474902
0.074946 0.444742 0.534317
0.075427 0.445222 0.594035
0.075910 0.445705 0.654028
0.076395 0.446190 0.714271
0.076882 0.446677 0.774743
0.077370 0.447166 0.835428
0.077861 0.447656 0.896310
0.078211 0.448006 0.939864
0.075640 0.504200 0.038345
0.075961 0.504521 0.078303
0.076401 0.504961 0.132897
0.076852 0.505412 0.188964
0.077311 0.505871 0.245960
0.077776 0.506335 0.303642
0.078244 0.506804 0.361870
0.078717 0.507277 0.420554
0.079192 0.507752 0.479627
0.079671 0.508231 0.539041
0.080152 0.508711 0.598760
0.080635 0.509194 0.658753
0.081120 0.509679 0.718996
0.081606 0.510166 0.779468
0.082095 0.510655 0.840152
0.082585 0.511145 0.901034
0.082936 0.511496 0.944588
0.080390 0.568034 0.043095
0.080712 0.568356 0.083053
0.081151 0.568796 0.137647
0.081603 0.569247 0.193714
0.082061 0.569706 0.250710
0.082526 0.570170 0.308392
0.082995 0.570639 0.366621
0.083467 0.571111 0.425304
0.083943 0.571587 0.484377
0.084421 0.572065 0.543792
0.084902 0.572546 0.603510
0.085385 0.573029 0.663503
0.085870 0.573514 0.723746
0.086357 0.574001 0.784218
0.086845 0.574490 0.844903
0.087335 0.574980 0.905785
0.087686 0.575330 0.949338
0.085163 0.632179 0.047868
0.085485 0.632501 0.087826
0.085924 0.632940 0.142421
0.086376 0.633391 0.198487
0.086835 0.633850 0.255483
0.087299 0.634315 0.313165
0.087768 0.634784 0.371394
0.088240 0.635256 0.430077
0.088716 0.635732 0.489150
0.089194 0.636210 0.548565
0.089675 0.636691 0.608284
0.090158 0.637174 0.668276
0.090643 0.637659 0.728519
0.091130 0.638146 0.788991
0.091618 0.638634 0.849676
0.092109 0.639124 0.910558
0.092459 0.639475 0.954112
0.089957 0.696604 0.052662
0.090279 0.696926 0.092621
0.090719 0.697365 0.147215
0.091170 0.697817 0.203281
0.091629 0.698276 0.260277
0.092093 0.698740 0.317960
0.092562 0.699209 0.376188
0.093034 0.699681 0.434871
0.093510 0.700157 0.493944
0.093988 0.700635 0.553359
0.094469 0.701116 0.613078
0.094952 0.701599 0.673071
0.095437 0.702084 0.733313
0.095924 0.702571 0.793786
0.096413 0.703059 0.854470
0.096903 0.703550 0.915352
0.097253 0.703900 0.958906
0.094771 0.761286 0.057476
0.095092 0.761608 0.097434
0.095532 0.762048 0.152028
0.095983 0.762499 0.208095
0.096442 0.762958 0.265090
0.096907 0.763422 0.322773
0.097375 0.763891 0.381001
0.097848 0.764363 0.439685
0.098323 0.764839 0.498758
0.098802 0.765317 0.558172
0.099282 0.765798 0.617891
0.099765 0.766281 0.677884
0.100250 0.766766 0.738127
0.100737 0.767253 0.798599
0.101226 0.767742 0.859283
0.101716 0.768232 0.920165
0.102067 0.768582 0.963719
0.099602 0.826205 0.062307
0.099923 0.826527 0.102265
0.100363 0.826966 0.156859
0.100814 0.827418 0.212925
0.101273 0.827877 0.269921
0.101737 0.828341 0.327604
0.102206 0.828810 0.385832
0.102679 0.829282 0.444516
0.103154 0.829758 0.503589
0.103633 0.830236 0.563003
0.104113 0.830717 0.622722
0.104596 0.831200 0.682715
0.105081 0.831685 0.742958
0.105568 0.832172 0.803430
0.106057 0.832660 0.864114
0.106547 0.833151 0.924996
0.106898 0.833501 0.968550
0.104449 0.891344 0.067154
0.104771 0.891665 0.107112
0.105210 0.892105 0.161706
0.105661 0.892556 0.217773
0.106120 0.893015 0.274769
0.106585 0.893480 0.332451
0.107053 0.893948 0.390680
0.107526 0.894421 0.449363
0.108002 0.894896 0.508436
0.108480 0.895375 0.567850
0.108961 0.895856 0.627569
0.109444 0.896339 0.687562
0.109929 0.896824 0.747805
0.110415 0.897310 0.808277
0.110904 0.897799 0.868962
0.111394 0.898289 0.929844
0.111745 0.898640 0.973397
0.109311 0.956687 0.072016
0.109633 0.957009 0.111974
0.110073 0.957448 0.166569
0.110524 0.957900 0.222635
0.110983 0.958359 0.279631
0.111447 0.958823 0.337313
0.111916 0.959292 0.395542
0.112388 0.959764 0.454225
0.112864 0.960240 0.513298
0.113342 0.960718 0.572713
0.113823 0.961199 0.632432
0.114306 0.961682 0.692425
0.114791 0.962167 0.752667
0.115278 0.962654 0.813140
0.115767 0.963142 0.873824
0.116257 0.963632 0.934706
0.116607 0.963983 0.978260
0.093544 0.002183 0.002183
0.093865 0.002505 0.042142
0.094305 0.002945 0.096736
0.094756 0.003396 0.152802
0.095215 0.003855 0.209798
0.095679 0.004319 0.267481
0.096148 0.004788 0.325709
0.096621 0.005260 0.384392
0.097096 0.005736 0.443465
0.097575 0.006214 0.502880
0.098055 0.006695 0.562599
0.098538 0.007178 0.622592
0.099023 0.007663 0.682834
0.099510 0.008150 0.743307
0.099999 0.008639 0.803991
0.100489 0.009129 0.864873
0.100840 0.009479 0.908427
0.094549 0.015690 0.003189
