skills/unified-director/assets/grade/luts/soft_pastel_v02.cube
TITLE "soft_pastel_v02"
LUT_3D_SIZE 5
DOMAIN_MIN 0.0 0.0 0.0
DOMAIN_MAX 1.0 1.0 1.0
0.020191 0.019684 0.019177
0.021768 0.021261 0.251882
0.023304 0.022797 0.478607
0.024823 0.024316 0.702820
0.026304 0.025797 0.921502
0.035805 0.266398 0.034791
0.037382 0.267974 0.267496
0.038918 0.269510 0.494221
0.040437 0.271029 0.718435
0.041918 0.272511 0.937116
0.051020 0.506794 0.050006
0.052596 0.508371 0.282711
0.054132 0.509907 0.509436
0.055651 0.511426 0.733649
0.057133 0.512907 0.952331
0.066066 0.744531 0.065052
0.067642 0.746107 0.297757
0.069178 0.747643 0.524482
0.070697 0.749162 0.748695
0.072179 0.750643 0.967377
0.080710 0.975908 0.079695
0.082286 0.977484 0.312400
0.083822 0.979020 0.539125
0.085341 0.980539 0.763339
0.086822 0.982021 0.982021
0.255902 0.024325 0.023818
0.257479 0.025902 0.256523
0.259015 0.027438 0.483248
0.260534 0.028957 0.707461
0.262015 0.030438 0.926143
0.271517 0.271039 0.039432
0.273093 0.272615 0.272137
0.274629 0.274151 0.498862
0.276148 0.275670 0.723076
0.277629 0.277152 0.941757
0.286731 0.511435 0.054646
0.288307 0.513012 0.287352
0.289843 0.514548 0.514077
0.291362 0.516066 0.738290
0.292844 0.517548 0.956972
0.301777 0.749172 0.069693
0.303354 0.750748 0.302398
0.304889 0.752284 0.529123
0.306408 0.753803 0.753336
0.307890 0.755284 0.972018
0.316421 0.980549 0.084336
0.317997 0.982125 0.317041
0.319533 0.983661 0.543766
0.321052 0.985180 0.767980
0.322533 0.986661 0.986661
0.485600 0.028848 0.028340
0.487176 0.030424 0.261046
0.488712 0.031960 0.487770
0.490231 0.033479 0.711984
0.491713 0.034960 0.930666
0.501214 0.275561 0.043955
0.502791 0.277138 0.276660
0.504327 0.278674 0.503385
0.505846 0.280193 0.727598
0.507327 0.281674 0.946280
0.516429 0.515958 0.059169
0.518005 0.517534 0.291874
0.519541 0.519070 0.518599
0.521060 0.520589 0.742812
0.522541 0.522070 0.961494
0.531475 0.753694 0.074215
0.533051 0.755271 0.306920
0.534587 0.756806 0.533645
0.536106 0.758325 0.757858
0.537588 0.759807 0.976540
0.546118 0.985071 0.088859
0.547695 0.986648 0.321564
0.549231 0.988184 0.548289
0.550750 0.989702 0.772502
0.552231 0.991184 0.991184
0.712759 0.033320 0.032813
0.714335 0.034897 0.265518
0.715871 0.036433 0.492243
0.717390 0.037952 0.716456
0.718872 0.039433 0.935138
0.728373 0.280034 0.048427
0.729949 0.281610 0.281132
0.731485 0.283146 0.507857
0.733004 0.284665 0.732071
0.734486 0.286147 0.950752
0.743587 0.520430 0.063641
0.745164 0.522007 0.296347
0.746700 0.523543 0.523072
0.748219 0.525061 0.747285
0.749700 0.526543 0.965967
0.758633 0.758167 0.078688
0.760210 0.759743 0.311393
0.761746 0.761279 0.538118
0.763265 0.762798 0.762331
0.764746 0.764279 0.981013
0.773277 0.989544 0.093331
0.774854 0.991120 0.326036
0.776389 0.992656 0.552761
0.777908 0.994175 0.776975
0.779390 0.995656 0.995656
0.933369 0.037664 0.037156
0.934945 0.039240 0.269862
0.936481 0.040776 0.496586
0.938000 0.042295 0.720800
0.939482 0.043777 0.939482
0.948983 0.284377 0.052771
0.950560 0.285954 0.285476
0.952096 0.287490 0.512201
0.953614 0.289009 0.736414
0.955096 0.290490 0.955096
0.964198 0.524774 0.067985
0.965774 0.526350 0.300690
0.967310 0.527886 0.527415
0.968829 0.529405 0.751628
0.970310 0.530887 0.970310
0.979244 0.762510 0.083031
0.980820 0.764087 0.315736
0.982356 0.765623 0.542461
0.983875 0.767141 0.766675
0.985356 0.768623 0.985356
0.993887 0.993887 0.097675
0.995464 0.995464 0.330380
0.997000 0.997000 0.557105
0.998519 0.998519 0.781318
1.000000 1.000000 1.000000
