skills/unified-director/assets/grade/luts/soft_pastel_v02.cube
TITLE "soft_pastel_v02"
LUT_3D_SIZE 9
DOMAIN_MIN 0.0 0.0 0.0
DOMAIN_MAX 1.0 1.0 1.0
0.020191 0.019684 0.019177
0.020989 0.020482 0.136886
0.021768 0.021261 0.251882
0.022538 0.022031 0.365650
0.023304 0.022797 0.478607
0.024065 0.023558 0.590956
0.024823 0.024316 0.702820
0.025578 0.025071 0.814281
0.026304 0.025797 0.921502
0.028089 0.144470 0.027075
0.028886 0.145268 0.144783
0.029665 0.146047 0.259780
0.030436 0.146817 0.373548
0.031201 0.147583 0.486505
0.031962 0.148344 0.598854
0.032720 0.149102 0.710718
0.033475 0.149857 0.822178
0.034202 0.150583 0.929400
0.035805 0.266398 0.034791
0.036603 0.267195 0.152500
0.037382 0.267974 0.267496
0.038153 0.268745 0.381265
0.038918 0.269510 0.494221
0.039679 0.270271 0.606570
0.040437 0.271029 0.718435
0.041192 0.271784 0.829895
0.041918 0.272511 0.937116
0.043440 0.387026 0.042426
0.044237 0.387823 0.160134
0.045016 0.388602 0.275131
0.045787 0.389373 0.388899
0.046552 0.390138 0.501856
0.047313 0.390899 0.614205
0.048071 0.391657 0.726069
0.048826 0.392412 0.837529
0.049553 0.393139 0.944751
0.051020 0.506794 0.050006
0.051817 0.507592 0.167714
0.052596 0.508371 0.282711
0.053367 0.509141 0.396479
0.054132 0.509907 0.509436
0.054893 0.510668 0.621785
0.055651 0.511426 0.733649
0.056406 0.512181 0.845109
0.057133 0.512907 0.952331
0.058559 0.625919 0.057545
0.059357 0.626717 0.175253
0.060136 0.627496 0.290250
0.060906 0.628267 0.404018
0.061672 0.629032 0.516975
0.062433 0.629793 0.629324
0.063191 0.630551 0.741188
0.063946 0.631306 0.852649
0.064672 0.632032 0.959870
0.066066 0.744531 0.065052
0.066863 0.745328 0.182760
0.067642 0.746107 0.297757
0.068413 0.746878 0.411525
0.069178 0.747643 0.524482
0.069940 0.748404 0.636831
0.070697 0.749162 0.748695
0.071452 0.749917 0.860156
0.072179 0.750643 0.967377
0.073546 0.862714 0.072531
0.074343 0.863512 0.190240
0.075122 0.864291 0.305237
0.075893 0.865061 0.419005
0.076658 0.865827 0.531961
0.077419 0.866588 0.644311
0.078177 0.867346 0.756175
0.078932 0.868101 0.867635
0.079659 0.868827 0.974857
0.080710 0.975908 0.079695
0.081507 0.976705 0.197404
0.082286 0.977484 0.312400
0.083057 0.978255 0.426169
0.083822 0.979020 0.539125
0.084583 0.979781 0.651475
0.085341 0.980539 0.763339
0.086096 0.981294 0.874799
0.086822 0.982021 0.982021
0.139404 0.022031 0.021524
0.140202 0.022829 0.139233
0.140981 0.023608 0.254229
0.141752 0.024379 0.367998
0.142517 0.025144 0.480954
0.143278 0.025905 0.593303
0.144036 0.026663 0.705168
0.144791 0.027418 0.816628
0.145517 0.028144 0.923849
0.147302 0.146817 0.029422
0.148099 0.147615 0.147130
0.148878 0.148394 0.262127
0.149649 0.149165 0.375895
0.150414 0.149930 0.488852
0.151176 0.150691 0.601201
0.151933 0.151449 0.713065
0.152688 0.152204 0.824526
0.153415 0.152930 0.931747
0.155019 0.268745 0.037138
0.155816 0.269542 0.154847
0.156595 0.270321 0.269844
0.157366 0.271092 0.383612
0.158131 0.271857 0.496568
0.158892 0.272619 0.608918
0.159650 0.273376 0.720782
0.160405 0.274131 0.832242
0.161131 0.274858 0.939464
0.162653 0.389373 0.044773
0.163450 0.390170 0.162481
0.164230 0.390949 0.277478
0.165000 0.391720 0.391246
0.165765 0.392485 0.504203
0.166527 0.393247 0.616552
0.167284 0.394004 0.728416
0.168040 0.394759 0.839877
0.168766 0.395486 0.947098
0.170233 0.509141 0.052353
0.171031 0.509939 0.170061
0.171810 0.510718 0.285058
0.172580 0.511489 0.398826
0.173346 0.512254 0.511783
0.174107 0.513015 0.624132
0.174864 0.513773 0.735996
0.175620 0.514528 0.847457
0.176346 0.515254 0.954678
0.177772 0.628267 0.059892
0.178570 0.629064 0.177601
0.179349 0.629843 0.292597
0.180120 0.630614 0.406366
0.180885 0.631379 0.519322
0.181646 0.632140 0.631671
0.182404 0.632898 0.743536
0.183159 0.633653 0.854996
0.183885 0.634379 0.962217
0.185279 0.746878 0.067399
0.186077 0.747675 0.185107
0.186856 0.748454 0.300104
0.187626 0.749225 0.413872
0.188392 0.749990 0.526829
0.189153 0.750751 0.639178
0.189911 0.751509 0.751042
0.190666 0.752264 0.862503
0.191392 0.752991 0.969724
0.192759 0.865061 0.074879
0.193556 0.865859 0.192587
0.194335 0.866638 0.307584
0.195106 0.867409 0.421352
0.195871 0.868174 0.534309
0.196632 0.868935 0.646658
0.197390 0.869693 0.758522
0.198145 0.870448 0.869982
0.198872 0.871174 0.977204
0.199923 0.978255 0.082042
0.200720 0.979052 0.199751
0.201499 0.979831 0.314748
0.202270 0.980602 0.428516
0.203035 0.981367 0.541472
0.203796 0.982128 0.653822
0.204554 0.982886 0.765686
0.205309 0.983641 0.877146
0.206036 0.984368 0.984368
0.255902 0.024325 0.023818
0.256700 0.025123 0.141526
0.257479 0.025902 0.256523
0.258250 0.026672 0.370291
0.259015 0.027438 0.483248
0.259776 0.028199 0.595597
0.260534 0.028957 0.707461
0.261289 0.029712 0.818922
0.262015 0.030438 0.926143
0.263800 0.149111 0.031715
0.264597 0.149909 0.149424
0.265376 0.150688 0.264421
0.266147 0.151458 0.378189
0.266912 0.152224 0.491145
0.267673 0.152985 0.603495
0.268431 0.153743 0.715359
0.269186 0.154498 0.826819
0.269913 0.155224 0.934041
0.271517 0.271039 0.039432
0.272314 0.271836 0.157141
0.273093 0.272615 0.272137
0.273864 0.273386 0.385906
0.274629 0.274151 0.498862
0.275390 0.274912 0.611211
0.276148 0.275670 0.723076
0.276903 0.276425 0.834536
0.277629 0.277152 0.941757
0.279151 0.391667 0.047066
0.279948 0.392464 0.164775
0.280727 0.393243 0.279772
0.281498 0.394014 0.393540
0.282263 0.394779 0.506497
0.283025 0.395540 0.618846
0.283782 0.396298 0.730710
0.284537 0.397053 0.842170
0.285264 0.397780 0.949392
0.286731 0.511435 0.054646
0.287528 0.512233 0.172355
0.288307 0.513012 0.287352
0.289078 0.513782 0.401120
0.289843 0.514548 0.514077
0.290605 0.515309 0.626426
0.291362 0.516066 0.738290
0.292117 0.516822 0.849750
0.292844 0.517548 0.956972
0.294270 0.630560 0.062186
0.295068 0.631358 0.179894
0.295847 0.632137 0.294891
0.296617 0.632907 0.408659
0.297383 0.633673 0.521616
0.298144 0.634434 0.633965
0.298902 0.635192 0.745829
0.299657 0.635947 0.857290
0.300383 0.636673 0.964511
0.301777 0.749172 0.069693
0.302574 0.749969 0.187401
0.303354 0.750748 0.302398
0.304124 0.751519 0.416166
0.304889 0.752284 0.529123
0.305651 0.753045 0.641472
0.306408 0.753803 0.753336
0.307164 0.754558 0.864796
0.307890 0.755284 0.972018
0.309257 0.867355 0.077172
0.310054 0.868152 0.194881
0.310833 0.868932 0.309877
0.311604 0.869702 0.423646
0.312369 0.870467 0.536602
0.313130 0.871229 0.648952
0.313888 0.871986 0.760816
0.314643 0.872742 0.872276
0.315370 0.873468 0.979498
0.316421 0.980549 0.084336
0.317218 0.981346 0.202045
0.317997 0.982125 0.317041
0.318768 0.982896 0.430810
0.319533 0.983661 0.543766
0.320294 0.984422 0.656115
0.321052 0.985180 0.767980
0.321807 0.985935 0.879440
0.322533 0.986661 0.986661
0.371161 0.026594 0.026087
0.371959 0.027392 0.143796
0.372738 0.028171 0.258792
0.373508 0.028942 0.372561
0.374274 0.029707 0.485517
0.375035 0.030468 0.597866
0.375793 0.031226 0.709731
0.376548 0.031981 0.821191
0.377274 0.032707 0.928412
0.379059 0.151380 0.033985
0.379856 0.152178 0.151693
0.380635 0.152957 0.266690
0.381406 0.153728 0.380458
0.382171 0.154493 0.493415
0.382932 0.155254 0.605764
0.383690 0.156012 0.717628
0.384445 0.156767 0.829089
0.385172 0.157493 0.936310
0.386775 0.273308 0.041701
0.387573 0.274105 0.159410
0.388352 0.274884 0.274407
0.389123 0.275655 0.388175
0.389888 0.276420 0.501131
0.390649 0.277182 0.613481
0.391407 0.277939 0.725345
0.392162 0.278694 0.836805
0.392888 0.279421 0.944027
0.394410 0.393936 0.049336
0.395207 0.394733 0.167044
0.395986 0.395512 0.282041
0.396757 0.396283 0.395809
0.397522 0.397048 0.508766
0.398283 0.397810 0.621115
0.399041 0.398567 0.732979
0.399796 0.399322 0.844440
0.400523 0.400049 0.951661
0.401990 0.513704 0.056916
0.402787 0.514502 0.174624
0.403566 0.515281 0.289621
0.404337 0.516052 0.403389
0.405102 0.516817 0.516346
0.405863 0.517578 0.628695
0.406621 0.518336 0.740559
0.407376 0.519091 0.852020
0.408103 0.519817 0.959241
0.409529 0.632830 0.064455
0.410327 0.633627 0.182164
0.411106 0.634406 0.297160
0.411876 0.635177 0.410929
0.412642 0.635942 0.523885
0.413403 0.636703 0.636234
0.414161 0.637461 0.748099
0.414916 0.638216 0.859559
0.415642 0.638942 0.966780
0.417036 0.751441 0.071962
0.417833 0.752238 0.189670
0.418612 0.753017 0.304667
0.419383 0.753788 0.418435
0.420148 0.754553 0.531392
0.420909 0.755314 0.643741
0.421667 0.756072 0.755605
0.422422 0.756827 0.867066
0.423149 0.757554 0.974287
0.424516 0.869624 0.079442
0.425313 0.870422 0.197150
0.426092 0.871201 0.312147
0.426863 0.871972 0.425915
0.427628 0.872737 0.538872
0.428389 0.873498 0.651221
0.429147 0.874256 0.763085
0.429902 0.875011 0.874545
0.430628 0.875737 0.981767
0.431680 0.982818 0.086605
0.432477 0.983615 0.204314
0.433256 0.984394 0.319311
0.434027 0.985165 0.433079
0.434792 0.985930 0.546036
0.435553 0.986691 0.658385
0.436311 0.987449 0.770249
0.437066 0.988204 0.881709
0.437792 0.988931 0.988931
0.485600 0.028848 0.028340
0.486397 0.029645 0.146049
0.487176 0.030424 0.261046
0.487947 0.031195 0.374814
0.488712 0.031960 0.487770
0.489474 0.032721 0.600120
0.490231 0.033479 0.711984
0.490986 0.034234 0.823444
0.491713 0.034960 0.930666
0.493498 0.153634 0.036238
0.494295 0.154431 0.153946
0.495074 0.155210 0.268943
0.495845 0.155981 0.382711
0.496610 0.156746 0.495668
0.497371 0.157507 0.608017
0.498129 0.158265 0.719881
0.498884 0.159020 0.831342
0.499610 0.159746 0.938563
0.501214 0.275561 0.043955
0.502012 0.276359 0.161663
0.502791 0.277138 0.276660
0.503561 0.277908 0.390428
0.504327 0.278674 0.503385
0.505088 0.279435 0.615734
0.505846 0.280193 0.727598
0.506601 0.280948 0.839058
0.507327 0.281674 0.946280
0.508849 0.396189 0.051589
0.509646 0.396987 0.169298
0.510425 0.397766 0.284294
0.511196 0.398536 0.398062
0.511961 0.399302 0.511019
0.512722 0.400063 0.623368
0.513480 0.400821 0.735232
0.514235 0.401576 0.846693
0.514961 0.402302 0.953914
0.516429 0.515958 0.059169
0.517226 0.516755 0.176878
0.518005 0.517534 0.291874
0.518776 0.518305 0.405642
0.519541 0.519070 0.518599
0.520302 0.519831 0.630948
0.521060 0.520589 0.742812
0.521815 0.521344 0.854273
0.522541 0.522070 0.961494
0.523968 0.635083 0.066708
0.524765 0.635880 0.184417
0.525544 0.636659 0.299413
0.526315 0.637430 0.413182
0.527080 0.638195 0.526138
0.527841 0.638956 0.638488
0.528599 0.639714 0.750352
0.529354 0.640469 0.861812
0.530081 0.641196 0.969034
0.531475 0.753694 0.074215
0.532272 0.754491 0.191924
0.533051 0.755271 0.306920
0.533822 0.756041 0.420689
0.534587 0.756806 0.533645
0.535348 0.757568 0.645994
0.536106 0.758325 0.757858
0.536861 0.759080 0.869319
0.537588 0.759807 0.976540
0.538954 0.871878 0.081695
0.539752 0.872675 0.199403
0.540531 0.873454 0.314400
0.541302 0.874225 0.428168
0.542067 0.874990 0.541125
0.542828 0.875751 0.653474
0.543586 0.876509 0.765338
0.544341 0.877264 0.876799
0.545067 0.877990 0.984020
0.546118 0.985071 0.088859
0.546916 0.985869 0.206567
0.547695 0.986648 0.321564
0.548465 0.987418 0.435332
0.549231 0.988184 0.548289
0.549992 0.988945 0.660638
0.550750 0.989702 0.772502
0.551505 0.990458 0.883963
0.552231 0.991184 0.991184
0.599425 0.031089 0.030581
0.600222 0.031886 0.148290
0.601001 0.032665 0.263287
0.601772 0.033436 0.377055
0.602537 0.034201 0.490011
0.603298 0.034962 0.602361
0.604056 0.035720 0.714225
0.604811 0.036475 0.825685
0.605538 0.037202 0.932907
0.607322 0.155875 0.038479
0.608120 0.156672 0.156188
0.608899 0.157451 0.271184
0.609669 0.158222 0.384953
0.610435 0.158987 0.497909
0.611196 0.159748 0.610258
0.611954 0.160506 0.722122
0.612709 0.161261 0.833583
0.613435 0.161988 0.940804
0.615039 0.277802 0.046196
0.615836 0.278600 0.163904
0.616615 0.279379 0.278901
0.617386 0.280149 0.392669
0.618151 0.280915 0.505626
0.618912 0.281676 0.617975
0.619670 0.282434 0.729839
0.620425 0.283189 0.841300
0.621152 0.283915 0.948521
0.622673 0.398430 0.053830
0.623471 0.399228 0.171539
0.624250 0.400007 0.286535
0.625021 0.400777 0.400304
0.625786 0.401543 0.513260
0.626547 0.402304 0.625609
0.627305 0.403062 0.737473
0.628060 0.403817 0.848934
0.628786 0.404543 0.956155
0.630253 0.518199 0.061410
0.631051 0.518996 0.179119
0.631830 0.519775 0.294115
0.632601 0.520546 0.407884
0.633366 0.521311 0.520840
0.634127 0.522072 0.633189
0.634885 0.522830 0.745053
0.635640 0.523585 0.856514
0.636366 0.524312 0.963735
0.637793 0.637324 0.068949
0.638590 0.638121 0.186658
0.639369 0.638900 0.301655
0.640140 0.639671 0.415423
0.640905 0.640436 0.528379
0.641666 0.641197 0.640729
0.642424 0.641955 0.752593
0.643179 0.642710 0.864053
0.643905 0.643437 0.971275
0.645299 0.755935 0.076456
0.646097 0.756733 0.194165
0.646876 0.757512 0.309161
0.647647 0.758282 0.422930
0.648412 0.759048 0.535886
0.649173 0.759809 0.648235
0.649931 0.760566 0.760100
0.650686 0.761322 0.871560
0.651412 0.762048 0.978781
0.652779 0.874119 0.083936
0.653577 0.874916 0.201644
0.654356 0.875695 0.316641
0.655126 0.876466 0.430409
0.655892 0.877231 0.543366
0.656653 0.877992 0.655715
0.657410 0.878750 0.767579
0.658166 0.879505 0.879040
0.658892 0.880231 0.986261
0.659943 0.987312 0.091100
0.660740 0.988110 0.208808
0.661519 0.988889 0.323805
0.662290 0.989659 0.437573
0.663055 0.990425 0.550530
0.663817 0.991186 0.662879
0.664574 0.991944 0.774743
0.665329 0.992699 0.886204
0.666056 0.993425 0.993425
0.712759 0.033320 0.032813
0.713556 0.034118 0.150521
0.714335 0.034897 0.265518
0.715106 0.035667 0.379286
0.715871 0.036433 0.492243
0.716632 0.037194 0.604592
0.717390 0.037952 0.716456
0.718145 0.038707 0.827917
0.718872 0.039433 0.935138
0.720656 0.158106 0.040710
0.721454 0.158904 0.158419
0.722233 0.159683 0.273416
0.723004 0.160453 0.387184
0.723769 0.161219 0.500140
0.724530 0.161980 0.612490
0.725288 0.162738 0.724354
0.726043 0.163493 0.835814
0.726769 0.164219 0.943036
0.728373 0.280034 0.048427
0.729170 0.280831 0.166136
0.729949 0.281610 0.281132
0.730720 0.282381 0.394901
0.731485 0.283146 0.507857
0.732247 0.283907 0.620206
0.733004 0.284665 0.732071
0.733759 0.285420 0.843531
0.734486 0.286147 0.950752
0.736007 0.400662 0.056061
0.736805 0.401459 0.173770
0.737584 0.402238 0.288767
0.738355 0.403009 0.402535
0.739120 0.403774 0.515492
0.739881 0.404535 0.627841
0.740639 0.405293 0.739705
0.741394 0.406048 0.851165
0.742120 0.406775 0.958387
0.743587 0.520430 0.063641
0.744385 0.521228 0.181350
0.745164 0.522007 0.296347
0.745935 0.522777 0.410115
0.746700 0.523543 0.523072
0.747461 0.524304 0.635421
0.748219 0.525061 0.747285
0.748974 0.525817 0.858745
0.749700 0.526543 0.965967
0.751127 0.639555 0.071181
0.751924 0.640353 0.188889
0.752703 0.641132 0.303886
0.753474 0.641902 0.417654
0.754239 0.642668 0.530611
0.755000 0.643429 0.642960
0.755758 0.644187 0.754824
0.756513 0.644942 0.866285
0.757240 0.645668 0.973506
0.758633 0.758167 0.078688
0.759431 0.758964 0.196396
0.760210 0.759743 0.311393
0.760981 0.760514 0.425161
0.761746 0.761279 0.538118
0.762507 0.762040 0.650467
0.763265 0.762798 0.762331
0.764020 0.763553 0.873791
0.764746 0.764279 0.981013
0.766113 0.876350 0.086167
0.766911 0.877147 0.203876
0.767690 0.877927 0.318872
0.768460 0.878697 0.432641
0.769226 0.879462 0.545597
0.769987 0.880224 0.657947
0.770745 0.880981 0.769811
0.771500 0.881736 0.881271
0.772226 0.882463 0.988493
0.773277 0.989544 0.093331
0.774074 0.990341 0.211040
0.774854 0.991120 0.326036
0.775624 0.991891 0.439805
0.776389 0.992656 0.552761
0.777151 0.993417 0.665110
0.777908 0.994175 0.776975
0.778664 0.994930 0.888435
0.779390 0.995656 0.995656
0.825684 0.035544 0.035036
0.826482 0.036341 0.152745
0.827261 0.037120 0.267741
0.828032 0.037891 0.381510
0.828797 0.038656 0.494466
0.829558 0.039417 0.606816
0.830316 0.040175 0.718680
0.831071 0.040930 0.830140
0.831797 0.041656 0.937362
0.833582 0.160330 0.042934
0.834379 0.161127 0.160642
0.835158 0.161906 0.275639
0.835929 0.162677 0.389407
0.836694 0.163442 0.502364
0.837455 0.164203 0.614713
0.838213 0.164961 0.726577
0.838968 0.165716 0.838038
0.839695 0.166442 0.945259
0.841299 0.282257 0.050650
0.842096 0.283054 0.168359
0.842875 0.283834 0.283356
0.843646 0.284604 0.397124
0.844411 0.285369 0.510080
0.845172 0.286131 0.622430
0.845930 0.286888 0.734294
0.846685 0.287644 0.845754
0.847411 0.288370 0.952976
0.848933 0.402885 0.058285
0.849730 0.403682 0.175993
0.850509 0.404462 0.290990
0.851280 0.405232 0.404758
0.852045 0.405997 0.517715
0.852807 0.406759 0.630064
0.853564 0.407516 0.741928
0.854319 0.408272 0.853389
0.855046 0.408998 0.960610
0.856513 0.522653 0.065865
0.857310 0.523451 0.183573
0.858089 0.524230 0.298570
0.858860 0.525001 0.412338
0.859625 0.525766 0.525295
0.860387 0.526527 0.637644
0.861144 0.527285 0.749508
0.861899 0.528040 0.860969
0.862626 0.528766 0.968190
0.864052 0.641779 0.073404
0.864850 0.642576 0.191113
0.865629 0.643355 0.306109
0.866400 0.644126 0.419878
0.867165 0.644891 0.532834
0.867926 0.645652 0.645183
0.868684 0.646410 0.757048
0.869439 0.647165 0.868508
0.870165 0.647891 0.975729
0.871559 0.760390 0.080911
0.872357 0.761187 0.198620
0.873136 0.761966 0.313616
0.873906 0.762737 0.427384
0.874672 0.763502 0.540341
0.875433 0.764263 0.652690
0.876190 0.765021 0.764554
0.876946 0.765776 0.876015
0.877672 0.766503 0.983236
0.879039 0.878573 0.088391
0.879836 0.879371 0.206099
0.880615 0.880150 0.321096
0.881386 0.880921 0.434864
0.882151 0.881686 0.547821
0.882912 0.882447 0.660170
0.883670 0.883205 0.772034
0.884425 0.883960 0.883495
0.885152 0.884686 0.990716
0.886203 0.991767 0.095555
0.887000 0.992564 0.213263
0.887779 0.993343 0.328260
0.888550 0.994114 0.442028
0.889315 0.994879 0.554985
0.890076 0.995641 0.667334
0.890834 0.996398 0.779198
0.891589 0.997153 0.890658
0.892316 0.997880 0.997880
0.933369 0.037664 0.037156
0.934166 0.038461 0.154865
0.934945 0.039240 0.269862
0.935716 0.040011 0.383630
0.936481 0.040776 0.496586
0.937242 0.041537 0.608936
0.938000 0.042295 0.720800
0.938755 0.043050 0.832260
0.939482 0.043777 0.939482
0.941266 0.162450 0.045054
0.942064 0.163247 0.162763
0.942843 0.164026 0.277759
0.943614 0.164797 0.391527
0.944379 0.165562 0.504484
0.945140 0.166323 0.616833
0.945898 0.167081 0.728697
0.946653 0.167836 0.840158
0.947379 0.168563 0.947379
0.948983 0.284377 0.052771
0.949781 0.285175 0.170479
0.950560 0.285954 0.285476
0.951330 0.286724 0.399244
0.952096 0.287490 0.512201
0.952857 0.288251 0.624550
0.953614 0.289009 0.736414
0.954370 0.289764 0.847875
0.955096 0.290490 0.955096
0.956618 0.405005 0.060405
0.957415 0.405803 0.178114
0.958194 0.406582 0.293110
0.958965 0.407352 0.406879
0.959730 0.408118 0.519835
0.960491 0.408879 0.632184
0.961249 0.409637 0.744048
0.962004 0.410392 0.855509
0.962730 0.411118 0.962730
0.964198 0.524774 0.067985
0.964995 0.525571 0.185694
0.965774 0.526350 0.300690
0.966545 0.527121 0.414459
0.967310 0.527886 0.527415
0.968071 0.528647 0.639764
0.968829 0.529405 0.751628
0.969584 0.530160 0.863089
0.970310 0.530887 0.970310
0.971737 0.643899 0.075524
0.972534 0.644696 0.193233
0.973313 0.645475 0.308230
0.974084 0.646246 0.421998
0.974849 0.647011 0.534954
0.975610 0.647772 0.647304
0.976368 0.648530 0.759168
0.977123 0.649285 0.870628
0.977850 0.650012 0.977850
0.979244 0.762510 0.083031
0.980041 0.763308 0.200740
0.980820 0.764087 0.315736
0.981591 0.764857 0.429505
0.982356 0.765623 0.542461
0.983117 0.766384 0.654810
0.983875 0.767141 0.766675
0.984630 0.767897 0.878135
0.985356 0.768623 0.985356
0.986723 0.880694 0.090511
0.987521 0.881491 0.208219
0.988300 0.882270 0.323216
0.989070 0.883041 0.436984
0.989836 0.883806 0.549941
0.990597 0.884567 0.662290
0.991355 0.885325 0.774154
0.992110 0.886080 0.885615
0.992836 0.886806 0.992836
0.993887 0.993887 0.097675
0.994685 0.994685 0.215383
0.995464 0.995464 0.330380
0.996234 0.996234 0.444148
0.997000 0.997000 0.557105
0.997761 0.997761 0.669454
0.998519 0.998519 0.781318
0.999274 0.999274 0.892779
1.000000 1.000000 1.000000
