skills/unified-director/assets/grade/luts/soft_pastel_v02.cube
TITLE "soft_pastel_v02"
LUT_3D_SIZE 17
DOMAIN_MIN 0.0 0.0 0.0
DOMAIN_MAX 1.0 1.0 1.0
0.020191 0.019684 0.019177
0.020594 0.020087 0.078610
0.020989 0.020482 0.136886
0.021380 0.020873 0.194581
0.021768 0.021261 0.251882
0.022154 0.021647 0.308886
0.022538 0.022031 0.365650
0.022922 0.022415 0.422215
0.023304 0.022797 0.478607
0.023685 0.023178 0.534849
0.024065 0.023558 0.590956
0.024444 0.023937 0.646943
0.024823 0.024316 0.702820
0.025200 0.024693 0.758597
0.025578 0.025071 0.814281
0.025954 0.025447 0.869878
0.026304 0.025797 0.921502
0.024179 0.082685 0.023164
0.024581 0.083088 0.082597
0.024976 0.083482 0.140873
0.025367 0.083873 0.198568
0.025755 0.084261 0.255869
0.026141 0.084648 0.312873
0.026526 0.085032 0.369638
0.026909 0.085415 0.426202
0.027291 0.085797 0.482594
0.027672 0.086178 0.538836
0.028052 0.086558 0.594943
0.028431 0.086938 0.650930
0.028810 0.087316 0.706808
0.029188 0.087694 0.762584
0.029565 0.088071 0.818268
0.029942 0.088448 0.873866
0.030291 0.088798 0.925489
0.028089 0.144470 0.027075
0.028491 0.144873 0.086507
0.028886 0.145268 0.144783
0.029277 0.145659 0.202478
0.029665 0.146047 0.259780
0.030051 0.146433 0.316784
0.030436 0.146817 0.373548
0.030819 0.147201 0.430112
0.031201 0.147583 0.486505
0.031582 0.147964 0.542746
0.031962 0.148344 0.598854
0.032342 0.148723 0.654841
0.032720 0.149102 0.710718
0.033098 0.149479 0.766495
0.033475 0.149857 0.822178
0.033852 0.150233 0.877776
0.034202 0.150583 0.929400
0.031960 0.205642 0.030946
0.032363 0.206045 0.090379
0.032758 0.206439 0.148655
0.033149 0.206830 0.206350
0.033537 0.207218 0.263651
0.033923 0.207605 0.320655
0.034308 0.207989 0.377420
0.034691 0.208372 0.433984
0.035073 0.208754 0.490376
0.035454 0.209135 0.546618
0.035834 0.209516 0.602725
0.036213 0.209895 0.658712
0.036592 0.210273 0.714589
0.036970 0.210651 0.770366
0.037347 0.211028 0.826050
0.037723 0.211405 0.881648
0.038073 0.211755 0.933271
0.035805 0.266398 0.034791
0.036208 0.266800 0.094224
0.036603 0.267195 0.152500
0.036994 0.267586 0.210195
0.037382 0.267974 0.267496
0.037768 0.268360 0.324500
0.038153 0.268745 0.381265
0.038536 0.269128 0.437829
0.038918 0.269510 0.494221
0.039299 0.269891 0.550463
0.039679 0.270271 0.606570
0.040058 0.270651 0.662557
0.040437 0.271029 0.718435
0.040815 0.271407 0.774211
0.041192 0.271784 0.829895
0.041569 0.272161 0.885493
0.041918 0.272511 0.937116
0.039631 0.326839 0.038616
0.040033 0.327241 0.098049
0.040428 0.327636 0.156325
0.040819 0.328027 0.214020
0.041207 0.328415 0.271322
0.041593 0.328801 0.328325
0.041978 0.329186 0.385090
0.042361 0.329569 0.441654
0.042743 0.329951 0.498046
0.043124 0.330332 0.554288
0.043504 0.330712 0.610396
0.043884 0.331091 0.666383
0.044262 0.331470 0.722260
0.044640 0.331848 0.778036
0.045017 0.332225 0.833720
0.045394 0.332602 0.889318
0.045744 0.332951 0.940942
0.043440 0.387026 0.042426
0.043843 0.387428 0.101858
0.044237 0.387823 0.160134
0.044628 0.388214 0.217829
0.045016 0.388602 0.275131
0.045403 0.388988 0.332135
0.045787 0.389373 0.388899
0.046170 0.389756 0.445463
0.046552 0.390138 0.501856
0.046933 0.390519 0.558097
0.047313 0.390899 0.614205
0.047693 0.391279 0.670192
0.048071 0.391657 0.726069
0.048449 0.392035 0.781846
0.048826 0.392412 0.837529
0.049203 0.392789 0.893127
0.049553 0.393139 0.944751
0.047236 0.447001 0.046221
0.047638 0.447404 0.105654
0.048033 0.447798 0.163930
0.048424 0.448189 0.221625
0.048812 0.448578 0.278927
0.049198 0.448964 0.335930
0.049583 0.449348 0.392695
0.049966 0.449731 0.449259
0.050348 0.450113 0.505651
0.050729 0.450495 0.561893
0.051109 0.450875 0.618001
0.051488 0.451254 0.673988
0.051867 0.451632 0.729865
0.052245 0.452010 0.785641
0.052622 0.452388 0.841325
0.052999 0.452764 0.896923
0.053348 0.453114 0.948547
0.051020 0.506794 0.050006
0.051423 0.507197 0.109438
0.051817 0.507592 0.167714
0.052208 0.507983 0.225409
0.052596 0.508371 0.282711
0.052983 0.508757 0.339715
0.053367 0.509141 0.396479
0.053750 0.509525 0.453043
0.054132 0.509907 0.509436
0.054513 0.510288 0.565677
0.054893 0.510668 0.621785
0.055273 0.511047 0.677772
0.055651 0.511426 0.733649
0.056029 0.511803 0.789426
0.056406 0.512181 0.845109
0.056783 0.512557 0.900707
0.057133 0.512907 0.952331
0.054794 0.566428 0.053780
0.055197 0.566830 0.113212
0.055591 0.567225 0.171488
0.055982 0.567616 0.229183
0.056371 0.568004 0.286485
0.056757 0.568390 0.343489
0.057141 0.568775 0.400253
0.057524 0.569158 0.456817
0.057906 0.569540 0.513210
0.058287 0.569921 0.569451
0.058668 0.570301 0.625559
0.059047 0.570681 0.681546
0.059425 0.571059 0.737423
0.059803 0.571437 0.793200
0.060181 0.571814 0.848884
0.060557 0.572191 0.904481
0.060907 0.572541 0.956105
0.058559 0.625919 0.057545
0.058962 0.626322 0.116977
0.059357 0.626717 0.175253
0.059747 0.627108 0.232948
0.060136 0.627496 0.290250
0.060522 0.627882 0.347254
0.060906 0.628267 0.404018
0.061290 0.628650 0.460583
0.061672 0.629032 0.516975
0.062053 0.629413 0.573217
0.062433 0.629793 0.629324
0.062812 0.630172 0.685311
0.063191 0.630551 0.741188
0.063568 0.630929 0.796965
0.063946 0.631306 0.852649
0.064322 0.631683 0.908246
0.064672 0.632032 0.959870
0.062316 0.685283 0.061302
0.062719 0.685686 0.120735
0.063114 0.686081 0.179011
0.063505 0.686471 0.236706
0.063893 0.686860 0.294007
0.064279 0.687246 0.351011
0.064663 0.687630 0.407775
0.065047 0.688014 0.464340
0.065429 0.688396 0.520732
0.065810 0.688777 0.576974
0.066190 0.689157 0.633081
0.066569 0.689536 0.689068
0.066948 0.689915 0.744945
0.067325 0.690292 0.800722
0.067703 0.690670 0.856406
0.068079 0.691046 0.912003
0.068429 0.691396 0.963627
0.066066 0.744531 0.065052
0.066469 0.744933 0.124484
0.066863 0.745328 0.182760
0.067254 0.745719 0.240455
0.067642 0.746107 0.297757
0.068029 0.746493 0.354761
0.068413 0.746878 0.411525
0.068796 0.747261 0.468089
0.069178 0.747643 0.524482
0.069559 0.748024 0.580723
0.069940 0.748404 0.636831
0.070319 0.748783 0.692818
0.070697 0.749162 0.748695
0.071075 0.749540 0.804472
0.071452 0.749917 0.860156
0.071829 0.750294 0.915753
0.072179 0.750643 0.967377
0.069809 0.803672 0.068795
0.070212 0.804074 0.128227
0.070606 0.804469 0.186503
0.070997 0.804860 0.244198
0.071385 0.805248 0.301500
0.071772 0.805634 0.358504
0.072156 0.806019 0.415268
0.072539 0.806402 0.471832
0.072921 0.806784 0.528225
0.073302 0.807165 0.584466
0.073682 0.807545 0.640574
0.074062 0.807924 0.696561
0.074440 0.808303 0.752438
0.074818 0.808681 0.808215
0.075195 0.809058 0.863899
0.075572 0.809435 0.919496
0.075922 0.809784 0.971120
0.073546 0.862714 0.072531
0.073948 0.863117 0.131964
0.074343 0.863512 0.190240
0.074734 0.863902 0.247935
0.075122 0.864291 0.305237
0.075508 0.864677 0.362240
0.075893 0.865061 0.419005
0.076276 0.865445 0.475569
0.076658 0.865827 0.531961
0.077039 0.866208 0.588203
0.077419 0.866588 0.644311
0.077798 0.866967 0.700298
0.078177 0.867346 0.756175
0.078555 0.867723 0.811951
0.078932 0.868101 0.867635
0.079309 0.868477 0.923233
0.079659 0.868827 0.974857
0.077277 0.921665 0.076262
0.077679 0.922068 0.135695
0.078074 0.922463 0.193971
0.078465 0.922854 0.251666
0.078853 0.923242 0.308967
0.079239 0.923628 0.365971
0.079624 0.924013 0.422736
0.080007 0.924396 0.479300
0.080389 0.924778 0.535692
0.080770 0.925159 0.591934
0.081150 0.925539 0.648042
0.081529 0.925918 0.704029
0.081908 0.926297 0.759906
0.082286 0.926675 0.815682
0.082663 0.927052 0.871366
0.083040 0.927428 0.926964
0.083389 0.927778 0.978588
0.080710 0.975908 0.079695
0.081112 0.976310 0.139128
0.081507 0.976705 0.197404
0.081898 0.977096 0.255099
0.082286 0.977484 0.312400
0.082672 0.977870 0.369404
0.083057 0.978255 0.426169
0.083440 0.978638 0.482733
0.083822 0.979020 0.539125
0.084203 0.979401 0.595367
0.084583 0.979781 0.651475
0.084962 0.980161 0.707461
0.085341 0.980539 0.763339
0.085719 0.980917 0.819115
0.086096 0.981294 0.874799
0.086473 0.981671 0.930397
0.086822 0.982021 0.982021
0.080373 0.020869 0.020362
0.080776 0.021272 0.079794
0.081171 0.021667 0.138070
0.081562 0.022057 0.195765
0.081950 0.022446 0.253067
0.082336 0.022832 0.310071
0.082721 0.023216 0.366835
0.083104 0.023600 0.423400
0.083486 0.023982 0.479792
0.083867 0.024363 0.536034
0.084247 0.024743 0.592141
0.084626 0.025122 0.648128
0.085005 0.025501 0.704005
0.085383 0.025878 0.759782
0.085760 0.026256 0.815466
0.086136 0.026632 0.871063
0.086486 0.026982 0.922687
0.084361 0.083870 0.024349
0.084763 0.084272 0.083782
0.085158 0.084667 0.142058
0.085549 0.085058 0.199753
0.085937 0.085446 0.257054
0.086323 0.085832 0.314058
0.086708 0.086217 0.370823
0.087091 0.086600 0.427387
0.087473 0.086982 0.483779
0.087854 0.087363 0.540021
0.088234 0.087743 0.596128
0.088613 0.088123 0.652115
0.088992 0.088501 0.707993
0.089370 0.088879 0.763769
0.089747 0.089256 0.819453
0.090124 0.089633 0.875051
0.090473 0.089983 0.926674
0.088271 0.145655 0.028259
0.088674 0.146058 0.087692
0.089068 0.146453 0.145968
0.089459 0.146843 0.203663
0.089847 0.147232 0.260965
0.090234 0.147618 0.317969
0.090618 0.148002 0.374733
0.091001 0.148386 0.431297
0.091383 0.148768 0.487689
0.091764 0.149149 0.543931
0.092144 0.149529 0.600039
0.092524 0.149908 0.656026
0.092902 0.150287 0.711903
0.093280 0.150664 0.767680
0.093657 0.151042 0.823363
0.094034 0.151418 0.878961
0.094384 0.151768 0.930585
0.092142 0.206827 0.032131
0.092545 0.207230 0.091563
0.092940 0.207624 0.149840
0.093331 0.208015 0.207534
0.093719 0.208403 0.264836
0.094105 0.208790 0.321840
0.094490 0.209174 0.378604
0.094873 0.209557 0.435169
0.095255 0.209939 0.491561
0.095636 0.210320 0.547803
0.096016 0.210700 0.603910
0.096395 0.211080 0.659897
0.096774 0.211458 0.715774
0.097152 0.211836 0.771551
0.097529 0.212213 0.827235
0.097905 0.212590 0.882832
0.098255 0.212940 0.934456
0.095988 0.267583 0.035976
0.096390 0.267985 0.095409
0.096785 0.268380 0.153685
0.097176 0.268771 0.211380
0.097564 0.269159 0.268681
0.097950 0.269545 0.325685
0.098335 0.269930 0.382450
0.098718 0.270313 0.439014
0.099100 0.270695 0.495406
0.099481 0.271076 0.551648
0.099861 0.271456 0.607755
0.100240 0.271836 0.663742
0.100619 0.272214 0.719620
0.100997 0.272592 0.775396
0.101374 0.272969 0.831080
0.101751 0.273346 0.886678
0.102100 0.273696 0.938301
0.099813 0.328023 0.039801
0.100215 0.328426 0.099234
0.100610 0.328821 0.157510
0.101001 0.329212 0.215205
0.101389 0.329600 0.272506
0.101775 0.329986 0.329510
0.102160 0.330371 0.386275
0.102543 0.330754 0.442839
0.102925 0.331136 0.499231
0.103306 0.331517 0.555473
0.103686 0.331897 0.611581
0.104066 0.332276 0.667568
0.104444 0.332655 0.723445
0.104822 0.333033 0.779221
0.105199 0.333410 0.834905
0.105576 0.333787 0.890503
0.105926 0.334136 0.942127
0.103622 0.388211 0.043610
0.104025 0.388613 0.103043
0.104419 0.389008 0.161319
0.104810 0.389399 0.219014
0.105198 0.389787 0.276316
0.105585 0.390173 0.333320
0.105969 0.390558 0.390084
0.106352 0.390941 0.446648
0.106734 0.391323 0.503041
0.107115 0.391704 0.559282
0.107495 0.392084 0.615390
0.107875 0.392464 0.671377
0.108253 0.392842 0.727254
0.108631 0.393220 0.783031
0.109008 0.393597 0.838714
0.109385 0.393974 0.894312
0.109735 0.394324 0.945936
0.107418 0.448186 0.047406
0.107820 0.448589 0.106839
0.108215 0.448983 0.165115
0.108606 0.449374 0.222810
0.108994 0.449762 0.280111
0.109380 0.450149 0.337115
0.109765 0.450533 0.393880
0.110148 0.450916 0.450444
0.110530 0.451298 0.506836
0.110911 0.451679 0.563078
0.111291 0.452060 0.619186
0.111671 0.452439 0.675172
0.112049 0.452817 0.731050
0.112427 0.453195 0.786826
0.112804 0.453572 0.842510
0.113181 0.453949 0.898108
0.113531 0.454299 0.949732
0.111202 0.507979 0.051190
0.111605 0.508382 0.110623
0.111999 0.508777 0.168899
0.112390 0.509167 0.226594
0.112778 0.509556 0.283896
0.113165 0.509942 0.340900
0.113549 0.510326 0.397664
0.113932 0.510710 0.454228
0.114314 0.511092 0.510621
0.114695 0.511473 0.566862
0.115076 0.511853 0.622970
0.115455 0.512232 0.678957
0.115833 0.512611 0.734834
0.116211 0.512988 0.790611
0.116588 0.513366 0.846294
0.116965 0.513742 0.901892
0.117315 0.514092 0.953516
0.114976 0.567613 0.054965
0.115379 0.568015 0.114397
0.115774 0.568410 0.172673
0.116164 0.568801 0.230368
0.116553 0.569189 0.287670
0.116939 0.569575 0.344674
0.117323 0.569960 0.401438
0.117706 0.570343 0.458002
0.118089 0.570725 0.514395
0.118470 0.571106 0.570636
0.118850 0.571486 0.626744
0.119229 0.571866 0.682731
0.119607 0.572244 0.738608
0.119985 0.572622 0.794385
0.120363 0.572999 0.850069
0.120739 0.573376 0.905666
0.121089 0.573726 0.957290
0.118741 0.627104 0.058730
0.119144 0.627507 0.118162
0.119539 0.627902 0.176438
0.119930 0.628293 0.234133
0.120318 0.628681 0.291435
0.120704 0.629067 0.348439
0.121088 0.629452 0.405203
0.121472 0.629835 0.461768
0.121854 0.630217 0.518160
0.122235 0.630598 0.574401
0.122615 0.630978 0.630509
0.122994 0.631357 0.686496
0.123373 0.631736 0.742373
0.123750 0.632114 0.798150
0.124128 0.632491 0.853834
0.124504 0.632867 0.909431
0.124854 0.633217 0.961055
0.122498 0.686468 0.062487
0.122901 0.686871 0.121919
0.123296 0.687265 0.180195
0.123687 0.687656 0.237890
0.124075 0.688045 0.295192
0.124461 0.688431 0.352196
0.124846 0.688815 0.408960
0.125229 0.689198 0.465525
0.125611 0.689580 0.521917
0.125992 0.689962 0.578159
0.126372 0.690342 0.634266
0.126751 0.690721 0.690253
0.127130 0.691099 0.746130
0.127508 0.691477 0.801907
0.127885 0.691855 0.857591
0.128261 0.692231 0.913188
0.128611 0.692581 0.964812
0.126248 0.745716 0.066237
0.126651 0.746118 0.125669
0.127045 0.746513 0.183945
0.127436 0.746904 0.241640
0.127825 0.747292 0.298942
0.128211 0.747678 0.355946
0.128595 0.748063 0.412710
0.128978 0.748446 0.469274
0.129360 0.748828 0.525667
0.129741 0.749209 0.581908
0.130122 0.749589 0.638016
0.130501 0.749968 0.694003
0.130879 0.750347 0.749880
0.131257 0.750725 0.805657
0.131634 0.751102 0.861340
0.132011 0.751479 0.916938
0.132361 0.751828 0.968562
0.129991 0.804857 0.069980
0.130394 0.805259 0.129412
0.130788 0.805654 0.187688
0.131179 0.806045 0.245383
0.131567 0.806433 0.302685
0.131954 0.806819 0.359689
0.132338 0.807204 0.416453
0.132721 0.807587 0.473017
0.133103 0.807969 0.529410
0.133484 0.808350 0.585651
0.133865 0.808730 0.641759
0.134244 0.809109 0.697746
0.134622 0.809488 0.753623
0.135000 0.809866 0.809400
0.135377 0.810243 0.865083
0.135754 0.810620 0.920681
0.136104 0.810969 0.972305
0.133728 0.863899 0.073716
0.134130 0.864302 0.133149
0.134525 0.864696 0.191425
0.134916 0.865087 0.249120
0.135304 0.865476 0.306421
0.135690 0.865862 0.363425
0.136075 0.866246 0.420190
0.136458 0.866629 0.476754
0.136840 0.867011 0.533146
0.137221 0.867393 0.589388
0.137601 0.867773 0.645496
0.137981 0.868152 0.701483
0.138359 0.868530 0.757360
0.138737 0.868908 0.813136
0.139114 0.869286 0.868820
0.139491 0.869662 0.924418
0.139841 0.870012 0.976042
0.137459 0.922850 0.077447
0.137861 0.923253 0.136880
0.138256 0.923648 0.195156
0.138647 0.924039 0.252851
0.139035 0.924427 0.310152
0.139421 0.924813 0.367156
0.139806 0.925198 0.423921
0.140189 0.925581 0.480485
0.140571 0.925963 0.536877
0.140952 0.926344 0.593119
0.141332 0.926724 0.649227
0.141712 0.927103 0.705213
0.142090 0.927482 0.761091
0.142468 0.927860 0.816867
0.142845 0.928237 0.872551
0.143222 0.928613 0.928149
0.143572 0.928963 0.979773
0.140892 0.977093 0.080880
0.141294 0.977495 0.140313
0.141689 0.977890 0.198589
0.142080 0.978281 0.256284
0.142468 0.978669 0.313585
0.142854 0.979055 0.370589
0.143239 0.979440 0.427354
0.143622 0.979823 0.483918
0.144004 0.980205 0.540310
0.144385 0.980586 0.596552
0.144765 0.980966 0.652659
0.145144 0.981345 0.708646
0.145523 0.981724 0.764524
0.145901 0.982102 0.820300
0.146278 0.982479 0.875984
0.146655 0.982856 0.931582
0.147004 0.983205 0.983205
0.139404 0.022031 0.021524
0.139807 0.022434 0.080957
0.140202 0.022829 0.139233
0.140593 0.023220 0.196928
0.140981 0.023608 0.254229
0.141367 0.023994 0.311233
0.141752 0.024379 0.367998
0.142135 0.024762 0.424562
0.142517 0.025144 0.480954
0.142898 0.025525 0.537196
0.143278 0.025905 0.593303
0.143657 0.026284 0.649290
0.144036 0.026663 0.705168
0.144414 0.027041 0.760944
0.144791 0.027418 0.816628
0.145168 0.027795 0.872226
0.145517 0.028144 0.923849
0.143392 0.085032 0.025511
0.143794 0.085435 0.084944
0.144189 0.085830 0.143220
0.144580 0.086220 0.200915
0.144968 0.086609 0.258217
0.145354 0.086995 0.315220
0.145739 0.087379 0.371985
0.146122 0.087762 0.428549
0.146504 0.088145 0.484941
0.146885 0.088526 0.541183
0.147265 0.088906 0.597291
0.147645 0.089285 0.653278
0.148023 0.089663 0.709155
0.148401 0.090041 0.764931
0.148778 0.090419 0.820615
0.149155 0.090795 0.876213
0.149505 0.091145 0.927837
0.147302 0.146817 0.029422
0.147705 0.147220 0.088854
0.148099 0.147615 0.147130
0.148490 0.148006 0.204825
0.148878 0.148394 0.262127
0.149265 0.148780 0.319131
0.149649 0.149165 0.375895
0.150032 0.149548 0.432459
0.150414 0.149930 0.488852
0.150795 0.150311 0.545093
0.151176 0.150691 0.601201
0.151555 0.151070 0.657188
0.151933 0.151449 0.713065
0.152311 0.151827 0.768842
0.152688 0.152204 0.824526
0.153065 0.152581 0.880123
0.153415 0.152930 0.931747
0.151174 0.207989 0.033293
0.151576 0.208392 0.092726
0.151971 0.208787 0.151002
0.152362 0.209177 0.208697
0.152750 0.209566 0.265998
0.153136 0.209952 0.323002
0.153521 0.210336 0.379767
0.153904 0.210720 0.436331
0.154286 0.211102 0.492723
0.154667 0.211483 0.548965
0.155047 0.211863 0.605072
0.155426 0.212242 0.661059
0.155805 0.212621 0.716937
0.156183 0.212998 0.772713
0.156560 0.213376 0.828397
0.156937 0.213752 0.883995
0.157286 0.214102 0.935618
0.155019 0.268745 0.037138
0.155421 0.269148 0.096571
0.155816 0.269542 0.154847
0.156207 0.269933 0.212542
0.156595 0.270321 0.269844
0.156981 0.270708 0.326847
0.157366 0.271092 0.383612
0.157749 0.271475 0.440176
0.158131 0.271857 0.496568
0.158512 0.272238 0.552810
0.158892 0.272619 0.608918
0.159271 0.272998 0.664905
0.159650 0.273376 0.720782
0.160028 0.273754 0.776558
0.160405 0.274131 0.832242
0.160782 0.274508 0.887840
0.161131 0.274858 0.939464
0.158844 0.329186 0.040964
0.159247 0.329588 0.100396
0.159641 0.329983 0.158672
0.160032 0.330374 0.216367
0.160420 0.330762 0.273669
0.160807 0.331148 0.330673
0.161191 0.331533 0.387437
0.161574 0.331916 0.444001
0.161956 0.332298 0.500394
0.162337 0.332679 0.556635
0.162717 0.333059 0.612743
0.163097 0.333439 0.668730
0.163475 0.333817 0.724607
0.163853 0.334195 0.780384
0.164230 0.334572 0.836067
0.164607 0.334949 0.891665
0.164957 0.335299 0.943289
0.162653 0.389373 0.044773
0.163056 0.389776 0.104205
0.163450 0.390170 0.162481
0.163841 0.390561 0.220176
0.164230 0.390949 0.277478
0.164616 0.391336 0.334482
0.165000 0.391720 0.391246
0.165383 0.392103 0.447811
0.165765 0.392485 0.504203
0.166147 0.392866 0.560444
0.166527 0.393247 0.616552
0.166906 0.393626 0.672539
0.167284 0.394004 0.728416
0.167662 0.394382 0.784193
0.168040 0.394759 0.839877
0.168416 0.395136 0.895474
0.168766 0.395486 0.947098
0.166449 0.449348 0.048569
0.166851 0.449751 0.108001
0.167246 0.450146 0.166277
0.167637 0.450537 0.223972
0.168025 0.450925 0.281274
0.168411 0.451311 0.338278
0.168796 0.451695 0.395042
0.169179 0.452079 0.451606
0.169561 0.452461 0.507999
0.169942 0.452842 0.564240
0.170322 0.453222 0.620348
0.170702 0.453601 0.676335
0.171080 0.453980 0.732212
0.171458 0.454357 0.787989
0.171835 0.454735 0.843672
0.172212 0.455111 0.899270
0.172562 0.455461 0.950894
0.170233 0.509141 0.052353
0.170636 0.509544 0.111785
0.171031 0.509939 0.170061
0.171421 0.510330 0.227756
0.171810 0.510718 0.285058
0.172196 0.511104 0.342062
0.172580 0.511489 0.398826
0.172963 0.511872 0.455391
0.173346 0.512254 0.511783
0.173727 0.512635 0.568024
0.174107 0.513015 0.624132
0.174486 0.513394 0.680119
0.174864 0.513773 0.735996
0.175242 0.514151 0.791773
0.175620 0.514528 0.847457
0.175996 0.514905 0.903054
0.176346 0.515254 0.954678
0.174007 0.568775 0.056127
0.174410 0.569178 0.115559
0.174805 0.569572 0.173835
0.175196 0.569963 0.231530
0.175584 0.570351 0.288832
0.175970 0.570738 0.345836
0.176354 0.571122 0.402600
0.176738 0.571505 0.459165
0.177120 0.571887 0.515557
0.177501 0.572268 0.571799
0.177881 0.572649 0.627906
0.178260 0.573028 0.683893
0.178639 0.573406 0.739770
0.179016 0.573784 0.795547
0.179394 0.574161 0.851231
0.179770 0.574538 0.906828
0.180120 0.574888 0.958452
0.177772 0.628267 0.059892
0.178175 0.628669 0.119325
0.178570 0.629064 0.177601
0.178961 0.629455 0.235296
0.179349 0.629843 0.292597
0.179735 0.630229 0.349601
0.180120 0.630614 0.406366
0.180503 0.630997 0.462930
0.180885 0.631379 0.519322
0.181266 0.631760 0.575564
0.181646 0.632140 0.631671
0.182025 0.632519 0.687658
0.182404 0.632898 0.743536
0.182782 0.633276 0.799312
0.183159 0.633653 0.854996
0.183535 0.634030 0.910594
0.183885 0.634379 0.962217
0.181529 0.687630 0.063649
0.181932 0.688033 0.123082
0.182327 0.688428 0.181358
0.182718 0.688819 0.239053
0.183106 0.689207 0.296354
0.183492 0.689593 0.353358
0.183877 0.689978 0.410123
0.184260 0.690361 0.466687
0.184642 0.690743 0.523079
0.185023 0.691124 0.579321
0.185403 0.691504 0.635428
0.185782 0.691883 0.691415
0.186161 0.692262 0.747293
0.186539 0.692640 0.803069
0.186916 0.693017 0.858753
0.187293 0.693393 0.914351
0.187642 0.693743 0.965974
0.185279 0.746878 0.067399
0.185682 0.747280 0.126831
0.186077 0.747675 0.185107
0.186467 0.748066 0.242802
0.186856 0.748454 0.300104
0.187242 0.748840 0.357108
0.187626 0.749225 0.413872
0.188010 0.749608 0.470437
0.188392 0.749990 0.526829
0.188773 0.750371 0.583071
0.189153 0.750751 0.639178
0.189532 0.751131 0.695165
0.189911 0.751509 0.751042
0.190288 0.751887 0.806819
0.190666 0.752264 0.862503
0.191042 0.752641 0.918100
0.191392 0.752991 0.969724
0.189022 0.806019 0.071142
0.189425 0.806421 0.130574
0.189820 0.806816 0.188850
0.190210 0.807207 0.246545
0.190599 0.807595 0.303847
0.190985 0.807981 0.360851
0.191369 0.808366 0.417615
0.191753 0.808749 0.474180
0.192135 0.809131 0.530572
0.192516 0.809512 0.586813
0.192896 0.809892 0.642921
0.193275 0.810272 0.698908
0.193653 0.810650 0.754785
0.194031 0.811028 0.810562
0.194409 0.811405 0.866246
0.194785 0.811782 0.921843
0.195135 0.812132 0.973467
0.192759 0.865061 0.074879
0.193161 0.865464 0.134311
0.193556 0.865859 0.192587
0.193947 0.866250 0.250282
0.194335 0.866638 0.307584
0.194721 0.867024 0.364588
0.195106 0.867409 0.421352
0.195489 0.867792 0.477916
0.195871 0.868174 0.534309
0.196252 0.868555 0.590550
0.196632 0.868935 0.646658
0.197012 0.869314 0.702645
0.197390 0.869693 0.758522
0.197768 0.870071 0.814299
0.198145 0.870448 0.869982
0.198522 0.870824 0.925580
0.198872 0.871174 0.977204
0.196490 0.924013 0.078609
0.196892 0.924415 0.138042
0.197287 0.924810 0.196318
0.197678 0.925201 0.254013
0.198066 0.925589 0.311315
0.198452 0.925975 0.368319
0.198837 0.926360 0.425083
0.199220 0.926743 0.481647
0.199602 0.927125 0.538040
0.199983 0.927506 0.594281
0.200363 0.927886 0.650389
0.200743 0.928265 0.706376
0.201121 0.928644 0.762253
0.201499 0.929022 0.818030
0.201876 0.929399 0.873713
0.202253 0.929776 0.929311
0.202603 0.930125 0.980935
0.199923 0.978255 0.082042
0.200325 0.978658 0.141475
0.200720 0.979052 0.199751
0.201111 0.979443 0.257446
0.201499 0.979831 0.314748
0.201885 0.980218 0.371752
0.202270 0.980602 0.428516
0.202653 0.980985 0.485080
0.203035 0.981367 0.541472
0.203416 0.981748 0.597714
0.203796 0.982128 0.653822
0.204176 0.982508 0.709809
0.204554 0.982886 0.765686
0.204932 0.983264 0.821463
0.205309 0.983641 0.877146
0.205686 0.984018 0.932744
0.206036 0.984368 0.984368
0.197852 0.023182 0.022675
0.198254 0.023585 0.082107
0.198649 0.023980 0.140383
0.199040 0.024370 0.198078
0.199428 0.024759 0.255380
0.199814 0.025145 0.312384
0.200199 0.025529 0.369148
0.200582 0.025913 0.425713
0.200964 0.026295 0.482105
0.201345 0.026676 0.538347
0.201725 0.027056 0.594454
0.202104 0.027435 0.650441
0.202483 0.027814 0.706318
0.202861 0.028191 0.762095
0.203238 0.028569 0.817779
0.203615 0.028945 0.873376
0.203964 0.029295 0.925000
0.201839 0.086183 0.026662
