skills/unified-director/assets/grade/luts/warm_skin_v13.cube
TITLE "warm_skin_v13"
LUT_3D_SIZE 9
DOMAIN_MIN 0.0 0.0 0.0
DOMAIN_MAX 1.0 1.0 1.0
0.039630 0.000000 0.000000
0.039438 0.000000 0.089030
0.039148 0.000000 0.224505
0.038863 0.000000 0.357416
0.038582 0.000000 0.488835
0.038302 0.000000 0.619196
0.038024 0.000000 0.748738
0.037748 0.000000 0.877612
0.037473 0.000000 1.000000
0.036799 0.130538 0.000000
0.036608 0.130347 0.086199
0.036317 0.130056 0.221674
0.036032 0.129772 0.354586
0.035751 0.129490 0.486004
0.035471 0.129211 0.616365
0.035194 0.128933 0.745907
0.034917 0.128657 0.874781
0.034642 0.128382 1.000000
0.033945 0.262410 0.000000
0.033753 0.262219 0.083344
0.033463 0.261929 0.218820
0.033178 0.261644 0.351731
0.032896 0.261362 0.483150
0.032617 0.261083 0.613511
0.032339 0.260805 0.743053
0.032063 0.260529 0.871927
0.031788 0.260254 1.000000
0.031134 0.392245 0.000000
0.030943 0.392054 0.080534
0.030653 0.391764 0.216010
0.030368 0.391479 0.348921
0.030086 0.391197 0.480340
0.029807 0.390918 0.610701
0.029529 0.390640 0.740243
0.029253 0.390364 0.869117
0.028978 0.390089 0.997427
0.028352 0.520788 0.000000
0.028161 0.520596 0.077752
0.027871 0.520306 0.213228
0.027586 0.520021 0.346139
0.027304 0.519739 0.477558
0.027025 0.519460 0.607919
0.026747 0.519182 0.737461
0.026471 0.518906 0.866335
0.026196 0.518631 0.994645
0.025591 0.648381 0.000000
0.025399 0.648190 0.074990
0.025109 0.647900 0.210466
0.024824 0.647615 0.343377
0.024542 0.647333 0.474796
0.024263 0.647054 0.605157
0.023985 0.646776 0.734699
0.023709 0.646500 0.863573
0.023434 0.646225 0.991883
0.022845 0.775226 0.000000
0.022654 0.775035 0.072245
0.022363 0.774744 0.207720
0.022079 0.774460 0.340632
0.021797 0.774178 0.472050
0.021517 0.773898 0.602411
0.021240 0.773621 0.731953
0.020964 0.773345 0.860828
0.020689 0.773070 0.989138
0.020113 0.901453 0.000000
0.019922 0.901261 0.069513
0.019631 0.900971 0.204988
0.019346 0.900686 0.337900
0.019065 0.900404 0.469318
0.018785 0.900125 0.599679
0.018508 0.899847 0.729221
0.018232 0.899571 0.858095
0.017957 0.899296 0.986406
0.017797 1.000000 0.000000
0.017606 1.000000 0.067197
0.017316 1.000000 0.202673
0.017031 1.000000 0.335584
0.016749 1.000000 0.467003
0.016470 1.000000 0.597364
0.016192 1.000000 0.726906
0.015916 1.000000 0.855780
0.015641 1.000000 0.984090
0.176213 0.000000 0.000000
0.176021 0.000000 0.088164
0.175731 0.000000 0.223639
0.175446 0.000000 0.356551
0.175164 0.000000 0.487969
0.174885 0.000000 0.618330
0.174607 0.000000 0.747873
0.174331 0.000000 0.876747
0.174056 0.000000 1.000000
0.173382 0.129673 0.000000
0.173190 0.129481 0.085333
0.172900 0.129191 0.220809
0.172615 0.128906 0.353720
0.172334 0.128624 0.485139
0.172054 0.128345 0.615500
0.171776 0.128067 0.745042
0.171500 0.127791 0.873916
0.171225 0.127516 1.000000
0.170528 0.261545 0.000000
0.170336 0.261353 0.082479
0.170046 0.261063 0.217954
0.169761 0.260778 0.350866
0.169479 0.260497 0.482284
0.169200 0.260217 0.612645
0.168922 0.259939 0.742187
0.168646 0.259663 0.871061
0.168371 0.259388 0.999372
0.167717 0.391380 0.000000
0.167526 0.391188 0.079669
0.167236 0.390898 0.215144
0.166951 0.390613 0.348055
0.166669 0.390331 0.479474
0.166390 0.390052 0.609835
0.166112 0.389774 0.739377
0.165836 0.389498 0.868251
0.165561 0.389223 0.996562
0.164935 0.519922 0.000000
0.164744 0.519731 0.076886
0.164453 0.519440 0.212362
0.164169 0.519155 0.345273
0.163887 0.518874 0.476692
0.163607 0.518594 0.607053
0.163330 0.518317 0.736595
0.163054 0.518040 0.865469
0.162779 0.517765 0.993780
0.162173 0.647516 0.000000
0.161982 0.647324 0.074125
0.161692 0.647034 0.209600
0.161407 0.646749 0.342512
0.161125 0.646467 0.473930
0.160846 0.646188 0.604291
0.160568 0.645910 0.733833
0.160292 0.645634 0.862707
0.160017 0.645359 0.991018
0.159428 0.774361 0.000000
0.159237 0.774169 0.071379
0.158946 0.773879 0.206855
0.158661 0.773594 0.339766
0.158380 0.773312 0.471185
0.158100 0.773033 0.601546
0.157823 0.772755 0.731088
0.157546 0.772479 0.859962
0.157271 0.772204 0.988272
0.156696 0.900587 0.000000
0.156505 0.900396 0.068647
0.156214 0.900105 0.204123
0.155929 0.899820 0.337034
0.155648 0.899539 0.468453
0.155368 0.899259 0.598814
0.155091 0.898982 0.728356
0.154814 0.898705 0.857230
0.154539 0.898430 0.985540
0.154380 1.000000 0.000000
0.154189 1.000000 0.066331
0.153899 1.000000 0.201807
0.153614 1.000000 0.334718
0.153332 1.000000 0.466137
0.153053 1.000000 0.596498
0.152775 1.000000 0.726040
0.152499 1.000000 0.854914
0.152224 1.000000 0.983225
0.309289 0.000000 0.000000
0.309098 0.000000 0.087321
0.308807 0.000000 0.222796
0.308522 0.000000 0.355707
0.308241 0.000000 0.487126
0.307961 0.000000 0.617487
0.307684 0.000000 0.747029
0.307407 0.000000 0.875903
0.307132 0.000000 1.000000
0.306458 0.128829 0.000000
0.306267 0.128638 0.084490
0.305976 0.128348 0.219965
0.305691 0.128063 0.352877
0.305410 0.127781 0.484295
0.305130 0.127502 0.614656
0.304853 0.127224 0.744198
0.304577 0.126948 0.873072
0.304302 0.126673 1.000000
0.303604 0.260701 0.000000
0.303412 0.260510 0.081635
0.303122 0.260220 0.217111
0.302837 0.259935 0.350022
0.302556 0.259653 0.481441
0.302276 0.259374 0.611802
0.301998 0.259096 0.741344
0.301722 0.258820 0.870218
0.301447 0.258545 0.998529
0.300794 0.390536 0.000000
0.300602 0.390345 0.078825
0.300312 0.390055 0.214301
0.300027 0.389770 0.347212
0.299745 0.389488 0.478631
0.299466 0.389209 0.608992
0.299188 0.388931 0.738534
0.298912 0.388655 0.867408
0.298637 0.388380 0.995718
0.298011 0.519079 0.000000
0.297820 0.518887 0.076043
0.297530 0.518597 0.211519
0.297245 0.518312 0.344430
0.296963 0.518030 0.475849
0.296684 0.517751 0.606210
0.296406 0.517473 0.735752
0.296130 0.517197 0.864626
0.295855 0.516922 0.992936
0.295250 0.646672 0.000000
0.295058 0.646481 0.073281
0.294768 0.646191 0.208757
0.294483 0.645906 0.341668
0.294201 0.645624 0.473087
0.293922 0.645345 0.603448
0.293644 0.645067 0.732990
0.293368 0.644791 0.861864
0.293093 0.644516 0.990174
0.292504 0.773517 0.000000
0.292313 0.773326 0.070536
0.292023 0.773035 0.206011
0.291738 0.772751 0.338923
0.291456 0.772469 0.470341
0.291177 0.772189 0.600702
0.290899 0.771912 0.730245
0.290623 0.771636 0.859119
0.290348 0.771361 0.987429
0.289772 0.899744 0.000000
0.289581 0.899552 0.067804
0.289290 0.899262 0.203279
0.289006 0.898977 0.336191
0.288724 0.898695 0.467609
0.288445 0.898416 0.597970
0.288167 0.898138 0.727512
0.287891 0.897862 0.856387
0.287616 0.897587 0.984697
0.287456 1.000000 0.000000
0.287265 1.000000 0.065488
0.286975 1.000000 0.200964
0.286690 1.000000 0.333875
0.286408 1.000000 0.465294
0.286129 1.000000 0.595655
0.285851 1.000000 0.725197
0.285575 1.000000 0.854071
0.285300 1.000000 0.982381
0.440622 0.000000 0.000000
0.440431 0.000000 0.086488
0.440141 0.000000 0.221964
0.439856 0.000000 0.354875
0.439574 0.000000 0.486294
0.439295 0.000000 0.616655
0.439017 0.000000 0.746197
0.438741 0.000000 0.875071
0.438466 0.000000 1.000000
0.437792 0.127997 0.000000
0.437600 0.127806 0.083657
0.437310 0.127515 0.219133
0.437025 0.127230 0.352044
0.436743 0.126949 0.483463
0.436464 0.126669 0.613824
0.436186 0.126392 0.743366
0.435910 0.126115 0.872240
0.435635 0.125840 1.000000
0.434937 0.259869 0.000000
0.434746 0.259678 0.080803
0.434456 0.259387 0.216279
0.434171 0.259103 0.349190
0.433889 0.258821 0.480609
0.433610 0.258541 0.610970
0.433332 0.258264 0.740512
0.433056 0.257988 0.869386
0.432781 0.257713 0.997696
0.432127 0.389704 0.000000
0.431936 0.389513 0.077993
0.431645 0.389222 0.213468
0.431361 0.388937 0.346380
0.431079 0.388656 0.477798
0.430799 0.388376 0.608159
0.430522 0.388099 0.737702
0.430246 0.387822 0.866576
0.429971 0.387547 0.994886
0.429345 0.518246 0.000000
0.429154 0.518055 0.075211
0.428863 0.517764 0.210686
0.428578 0.517480 0.343598
0.428297 0.517198 0.475016
0.428017 0.516919 0.605377
0.427740 0.516641 0.734919
0.427463 0.516365 0.863793
0.427188 0.516090 0.992104
0.426583 0.645840 0.000000
0.426392 0.645649 0.072449
0.426102 0.645358 0.207925
0.425817 0.645073 0.340836
0.425535 0.644792 0.472255
0.425256 0.644512 0.602616
0.424978 0.644235 0.732158
0.424702 0.643958 0.861032
0.424427 0.643683 0.989342
0.423838 0.772685 0.000000
0.423646 0.772493 0.069704
0.423356 0.772203 0.205179
0.423071 0.771918 0.338090
0.422790 0.771637 0.469509
0.422510 0.771357 0.599870
0.422232 0.771079 0.729412
0.421956 0.770803 0.858286
0.421681 0.770528 0.986597
0.421106 0.898911 0.000000
0.420914 0.898720 0.066971
0.420624 0.898430 0.202447
0.420339 0.898145 0.335358
0.420057 0.897863 0.466777
0.419778 0.897584 0.597138
0.419500 0.897306 0.726680
0.419224 0.897030 0.855554
0.418949 0.896755 0.983865
0.418790 1.000000 0.000000
0.418599 1.000000 0.064656
0.418308 1.000000 0.200131
0.418023 1.000000 0.333043
0.417742 1.000000 0.464461
0.417462 1.000000 0.594822
0.417185 1.000000 0.724364
0.416908 1.000000 0.853238
0.416633 1.000000 0.981549
0.570781 0.000000 0.000000
0.570590 0.000000 0.085663
0.570299 0.000000 0.221139
0.570014 0.000000 0.354050
0.569733 0.000000 0.485469
0.569453 0.000000 0.615830
0.569176 0.000000 0.745372
0.568899 0.000000 0.874246
0.568624 0.000000 1.000000
0.567950 0.127172 0.000000
0.567759 0.126981 0.082832
0.567468 0.126690 0.218308
0.567184 0.126405 0.351219
0.566902 0.126124 0.482638
0.566623 0.125844 0.612999
0.566345 0.125567 0.742541
0.566069 0.125290 0.871415
0.565794 0.125015 0.999726
0.565096 0.259044 0.000000
0.564905 0.258853 0.079978
0.564614 0.258562 0.215454
0.564329 0.258278 0.348365
0.564048 0.257996 0.479784
0.563768 0.257717 0.610145
0.563491 0.257439 0.739687
0.563214 0.257163 0.868561
0.562939 0.256888 0.996871
0.562286 0.388879 0.000000
0.562094 0.388688 0.077168
0.561804 0.388397 0.212644
0.561519 0.388112 0.345555
0.561237 0.387831 0.476974
0.560958 0.387551 0.607335
0.560680 0.387274 0.736877
0.560404 0.386998 0.865751
0.560129 0.386723 0.994061
0.559504 0.517421 0.000000
0.559312 0.517230 0.074386
0.559022 0.516940 0.209861
0.558737 0.516655 0.342773
0.558455 0.516373 0.474191
0.558176 0.516094 0.604552
0.557898 0.515816 0.734094
0.557622 0.515540 0.862968
0.557347 0.515265 0.991279
0.556742 0.645015 0.000000
0.556550 0.644824 0.071624
0.556260 0.644533 0.207100
0.555975 0.644248 0.340011
0.555694 0.643967 0.471430
0.555414 0.643687 0.601791
0.555137 0.643410 0.731333
0.554860 0.643134 0.860207
0.554585 0.642859 0.988517
0.553996 0.771860 0.000000
0.553805 0.771669 0.068879
0.553515 0.771378 0.204354
0.553230 0.771093 0.337266
0.552948 0.770812 0.468684
0.552669 0.770532 0.599045
0.552391 0.770255 0.728587
0.552115 0.769978 0.857461
0.551840 0.769703 0.985772
0.551264 0.898086 0.000000
0.551073 0.897895 0.066147
0.550783 0.897605 0.201622
0.550498 0.897320 0.334533
0.550216 0.897038 0.465952
0.549937 0.896759 0.596313
0.549659 0.896481 0.725855
0.549383 0.896205 0.854729
0.549108 0.895930 0.983040
0.548949 1.000000 0.000000
0.548757 1.000000 0.063831
0.548467 1.000000 0.199306
0.548182 1.000000 0.332218
0.547900 1.000000 0.463636
0.547621 1.000000 0.593997
0.547343 1.000000 0.723539
0.547067 1.000000 0.852414
0.546792 1.000000 0.980724
0.700053 0.000000 0.000000
0.699861 0.000000 0.084844
0.699571 0.000000 0.220320
0.699286 0.000000 0.353231
0.699005 0.000000 0.484650
0.698725 0.000000 0.615011
0.698447 0.000000 0.744553
0.698171 0.000000 0.873427
0.697896 0.000000 1.000000
0.697222 0.126353 0.000000
0.697031 0.126161 0.082013
0.696740 0.125871 0.217489
0.696455 0.125586 0.350400
0.696174 0.125304 0.481819
0.695894 0.125025 0.612180
0.695617 0.124747 0.741722
0.695340 0.124471 0.870596
0.695065 0.124196 0.998906
0.694368 0.258225 0.000000
0.694176 0.258034 0.079159
0.693886 0.257743 0.214634
0.693601 0.257458 0.347546
0.693319 0.257177 0.478964
0.693040 0.256897 0.609326
0.692762 0.256620 0.738868
0.692486 0.256343 0.867742
0.692211 0.256068 0.996052
0.691557 0.388060 0.000000
0.691366 0.387868 0.076349
0.691076 0.387578 0.211824
0.690791 0.387293 0.344736
0.690509 0.387012 0.476154
0.690230 0.386732 0.606515
0.689952 0.386454 0.736057
0.689676 0.386178 0.864931
0.689401 0.385903 0.993242
0.688775 0.516602 0.000000
0.688584 0.516411 0.073567
0.688294 0.516120 0.209042
0.688009 0.515835 0.341953
0.687727 0.515554 0.473372
0.687448 0.515274 0.603733
0.687170 0.514997 0.733275
0.686894 0.514721 0.862149
0.686619 0.514446 0.990460
0.686014 0.644196 0.000000
0.685822 0.644004 0.070805
0.685532 0.643714 0.206280
0.685247 0.643429 0.339192
0.684965 0.643148 0.470610
0.684686 0.642868 0.600971
0.684408 0.642590 0.730513
0.684132 0.642314 0.859388
0.683857 0.642039 0.987698
0.683268 0.771041 0.000000
0.683077 0.770849 0.068059
0.682786 0.770559 0.203535
0.682502 0.770274 0.336446
0.682220 0.769992 0.467865
0.681940 0.769713 0.598226
0.681663 0.769435 0.727768
0.681387 0.769159 0.856642
0.681112 0.768884 0.984953
0.680536 0.897267 0.000000
0.680345 0.897076 0.065327
0.680054 0.896785 0.200803
0.679769 0.896501 0.333714
0.679488 0.896219 0.465133
0.679208 0.895939 0.595494
0.678931 0.895662 0.725036
0.678655 0.895386 0.853910
0.678380 0.895111 0.982220
0.678220 1.000000 0.000000
0.678029 1.000000 0.063012
0.677739 1.000000 0.198487
0.677454 1.000000 0.331398
0.677172 1.000000 0.462817
0.676893 1.000000 0.593178
0.676615 1.000000 0.722720
0.676339 1.000000 0.851594
0.676064 1.000000 0.979905
0.828613 0.000000 0.000000
0.828421 0.000000 0.084029
0.828131 0.000000 0.219505
0.827846 0.000000 0.352416
0.827564 0.000000 0.483835
0.827285 0.000000 0.614196
0.827007 0.000000 0.743738
0.826731 0.000000 0.872612
0.826456 0.000000 1.000000
0.825782 0.125538 0.000000
0.825590 0.125347 0.081198
0.825300 0.125056 0.216674
0.825015 0.124771 0.349585
0.824733 0.124490 0.481004
0.824454 0.124210 0.611365
0.824176 0.123933 0.740907
0.823900 0.123656 0.869781
0.823625 0.123381 0.998092
0.822927 0.257410 0.000000
0.822736 0.257219 0.078344
0.822446 0.256928 0.213820
0.822161 0.256644 0.346731
0.821879 0.256362 0.478150
0.821600 0.256083 0.608511
0.821322 0.255805 0.738053
0.821046 0.255529 0.866927
0.820771 0.255254 0.995237
0.820117 0.387245 0.000000
0.819926 0.387054 0.075534
0.819636 0.386763 0.211010
0.819351 0.386478 0.343921
0.819069 0.386197 0.475340
0.818790 0.385917 0.605701
0.818512 0.385640 0.735243
0.818236 0.385364 0.864117
0.817961 0.385089 0.992427
0.817335 0.515787 0.000000
0.817144 0.515596 0.072752
0.816853 0.515306 0.208227
0.816569 0.515021 0.341139
0.816287 0.514739 0.472557
0.816007 0.514460 0.602918
0.815730 0.514182 0.732460
0.815454 0.513906 0.861334
0.815179 0.513631 0.989645
0.814573 0.643381 0.000000
0.814382 0.643190 0.069990
0.814092 0.642899 0.205466
0.813807 0.642614 0.338377
0.813525 0.642333 0.469796
0.813246 0.642053 0.600157
0.812968 0.641776 0.729699
0.812692 0.641500 0.858573
0.812417 0.641225 0.986883
0.811828 0.770226 0.000000
0.811637 0.770035 0.067245
0.811346 0.769744 0.202720
0.811061 0.769459 0.335631
0.810780 0.769178 0.467050
0.810500 0.768898 0.597411
0.810223 0.768621 0.726953
0.809946 0.768344 0.855827
0.809671 0.768069 0.984138
0.809096 0.896452 0.000000
0.808905 0.896261 0.064513
0.808614 0.895971 0.199988
0.808329 0.895686 0.332899
0.808048 0.895404 0.464318
0.807768 0.895125 0.594679
0.807491 0.894847 0.724221
0.807214 0.894571 0.853095
0.806939 0.894296 0.981406
0.806780 1.000000 0.000000
0.806589 1.000000 0.062197
0.806298 1.000000 0.197672
0.806014 1.000000 0.330584
0.805732 1.000000 0.462002
0.805453 1.000000 0.592363
0.805175 1.000000 0.721905
0.804899 1.000000 0.850780
0.804624 1.000000 0.979090
0.956578 0.000000 0.000000
0.956387 0.000000 0.083218
0.956096 0.000000 0.218694
0.955811 0.000000 0.351605
0.955530 0.000000 0.483024
0.955250 0.000000 0.613385
0.954973 0.000000 0.742927
0.954697 0.000000 0.871801
0.954422 0.000000 1.000000
0.953747 0.124727 0.000000
0.953556 0.124536 0.080387
0.953266 0.124245 0.215863
0.952981 0.123960 0.348774
0.952699 0.123679 0.480193
0.952420 0.123399 0.610554
0.952142 0.123122 0.740096
0.951866 0.122845 0.868970
0.951591 0.122570 0.997281
0.950893 0.256599 0.000000
0.950702 0.256408 0.077533
0.950411 0.256117 0.213009
0.950126 0.255833 0.345920
0.949845 0.255551 0.477339
0.949565 0.255272 0.607700
0.949288 0.254994 0.737242
0.949011 0.254718 0.866116
0.948736 0.254443 0.994426
0.948083 0.386434 0.000000
0.947891 0.386243 0.074723
0.947601 0.385952 0.210199
0.947316 0.385667 0.343110
0.947035 0.385386 0.474529
0.946755 0.385106 0.604890
0.946477 0.384829 0.734432
0.946201 0.384553 0.863306
0.945926 0.384278 0.991616
0.945301 0.514976 0.000000
0.945109 0.514785 0.071941
0.944819 0.514495 0.207416
0.944534 0.514210 0.340328
0.944252 0.513928 0.471746
0.943973 0.513649 0.602107
0.943695 0.513371 0.731649
0.943419 0.513095 0.860523
0.943144 0.512820 0.988834
0.942539 0.642570 0.000000
0.942348 0.642379 0.069179
0.942057 0.642088 0.204655
0.941772 0.641803 0.337566
0.941491 0.641522 0.468985
0.941211 0.641242 0.599346
0.940934 0.640965 0.728888
0.940657 0.640689 0.857762
0.940382 0.640414 0.986072
0.939793 0.769415 0.000000
0.939602 0.769224 0.066434
0.939312 0.768933 0.201909
0.939027 0.768648 0.334821
0.938745 0.768367 0.466239
0.938466 0.768087 0.596600
0.938188 0.767810 0.726142
0.937912 0.767533 0.855016
0.937637 0.767258 0.983327
0.937061 0.895641 0.000000
0.936870 0.895450 0.063702
0.936580 0.895160 0.199177
0.936295 0.894875 0.332088
0.936013 0.894593 0.463507
0.935734 0.894314 0.593868
0.935456 0.894036 0.723410
0.935180 0.893760 0.852284
0.934905 0.893485 0.980595
0.934746 1.000000 0.000000
0.934554 1.000000 0.061386
0.934264 1.000000 0.196861
0.933979 1.000000 0.329773
0.933697 1.000000 0.461191
0.933418 1.000000 0.591552
0.933140 1.000000 0.721094
0.932864 1.000000 0.849969
0.932589 1.000000 0.978279
1.000000 0.000000 0.000000
1.000000 0.000000 0.082791
1.000000 0.000000 0.218266
1.000000 0.000000 0.351178
1.000000 0.000000 0.482596
1.000000 0.000000 0.612957
1.000000 0.000000 0.742499
1.000000 0.000000 0.871373
1.000000 0.000000 0.999684
1.000000 0.124299 0.000000
1.000000 0.124108 0.079960
1.000000 0.123818 0.215436
1.000000 0.123533 0.348347
1.000000 0.123251 0.479765
1.000000 0.122972 0.610127
1.000000 0.122694 0.739669
1.000000 0.122418 0.868543
1.000000 0.122143 0.996853
1.000000 0.256172 0.000000
1.000000 0.255980 0.077106
1.000000 0.255690 0.212581
1.000000 0.255405 0.345492
1.000000 0.255123 0.476911
1.000000 0.254844 0.607272
1.000000 0.254566 0.736814
1.000000 0.254290 0.865688
1.000000 0.254015 0.993999
1.000000 0.386007 0.000000
1.000000 0.385815 0.074295
1.000000 0.385525 0.209771
1.000000 0.385240 0.342682
1.000000 0.384958 0.474101
1.000000 0.384679 0.604462
1.000000 0.384401 0.734004
1.000000 0.384125 0.862878
1.000000 0.383850 0.991189
1.000000 0.514549 0.000000
1.000000 0.514357 0.071513
1.000000 0.514067 0.206989
1.000000 0.513782 0.339900
1.000000 0.513501 0.471319
1.000000 0.513221 0.601680
1.000000 0.512943 0.731222
1.000000 0.512667 0.860096
1.000000 0.512392 0.988406
1.000000 0.642143 0.000000
1.000000 0.641951 0.068752
1.000000 0.641661 0.204227
1.000000 0.641376 0.337138
1.000000 0.641094 0.468557
1.000000 0.640815 0.598918
1.000000 0.640537 0.728460
1.000000 0.640261 0.857334
1.000000 0.639986 0.985645
1.000000 0.768987 0.000000
1.000000 0.768796 0.066006
1.000000 0.768506 0.201482
1.000000 0.768221 0.334393
1.000000 0.767939 0.465812
1.000000 0.767660 0.596173
1.000000 0.767382 0.725715
1.000000 0.767106 0.854589
1.000000 0.766831 0.982899
1.000000 0.895214 0.000000
1.000000 0.895023 0.063274
1.000000 0.894732 0.198750
1.000000 0.894447 0.331661
1.000000 0.894166 0.463080
1.000000 0.893886 0.593441
1.000000 0.893609 0.722983
1.000000 0.893332 0.851857
1.000000 0.893057 0.980167
1.000000 1.000000 0.000000
1.000000 1.000000 0.060958
1.000000 1.000000 0.196434
1.000000 1.000000 0.329345
1.000000 1.000000 0.460764
1.000000 1.000000 0.591125
1.000000 1.000000 0.720667
1.000000 1.000000 0.849541
1.000000 1.000000 0.977851
