skills/unified-director/assets/grade/luts/warm_skin_v02.cube
TITLE "warm_skin_v02"
LUT_3D_SIZE 17
DOMAIN_MIN 0.0 0.0 0.0
DOMAIN_MAX 1.0 1.0 1.0
0.017207 0.000058 0.000058
0.017260 0.000112 0.045985
0.017333 0.000184 0.108851
0.017405 0.000257 0.171267
0.017477 0.000328 0.233412
0.017548 0.000400 0.295360
0.017620 0.000472 0.357156
0.017691 0.000543 0.418826
0.017762 0.000614 0.480389
0.017834 0.000685 0.541860
0.017905 0.000756 0.603249
0.017976 0.000827 0.664565
0.018046 0.000898 0.725815
0.018117 0.000969 0.787004
0.018188 0.001040 0.848137
0.018259 0.001110 0.909218
0.018329 0.001181 0.970252
0.017931 0.063907 0.000783
0.017984 0.063960 0.046709
0.018057 0.064033 0.109576
0.018129 0.064105 0.171992
0.018201 0.064177 0.234136
0.018273 0.064249 0.296085
0.018344 0.064320 0.357880
0.018416 0.064392 0.419550
0.018487 0.064463 0.481114
0.018558 0.064534 0.542584
0.018629 0.064605 0.603974
0.018700 0.064676 0.665289
0.018771 0.064747 0.726539
0.018842 0.064818 0.787728
0.018912 0.064889 0.848861
0.018983 0.064959 0.909943
0.019054 0.065030 0.970976
0.018650 0.127265 0.001501
0.018703 0.127318 0.047428
0.018776 0.127391 0.110294
0.018848 0.127463 0.172710
0.018920 0.127535 0.234855
0.018991 0.127606 0.296803
0.019063 0.127678 0.358599
0.019134 0.127749 0.420269
0.019205 0.127821 0.481832
0.019277 0.127892 0.543303
0.019348 0.127963 0.604692
0.019419 0.128034 0.666008
0.019489 0.128104 0.727258
0.019560 0.128175 0.788447
0.019631 0.128246 0.849580
0.019702 0.128317 0.910661
0.019772 0.128387 0.971695
0.019364 0.190238 0.002216
0.019417 0.190291 0.048142
0.019490 0.190364 0.111009
0.019562 0.190436 0.173425
0.019634 0.190508 0.235569
0.019706 0.190579 0.297518
0.019777 0.190651 0.359313
0.019849 0.190722 0.420983
0.019920 0.190793 0.482547
0.019991 0.190865 0.544018
0.020062 0.190936 0.605407
0.020133 0.191006 0.666722
0.020204 0.191077 0.727972
0.020275 0.191148 0.789161
0.020345 0.191219 0.850294
0.020416 0.191290 0.911376
0.020487 0.191360 0.972409
0.020076 0.252963 0.002927
0.020129 0.253016 0.048854
0.020201 0.253088 0.111720
0.020274 0.253161 0.174136
0.020346 0.253233 0.236281
0.020417 0.253304 0.298229
0.020489 0.253376 0.360025
0.020560 0.253447 0.421695
0.020631 0.253518 0.483258
0.020702 0.253589 0.544729
0.020773 0.253660 0.606118
0.020844 0.253731 0.667434
0.020915 0.253802 0.728683
0.020986 0.253873 0.789872
0.021057 0.253944 0.851006
0.021127 0.254014 0.912087
0.021198 0.254085 0.973121
0.020785 0.315504 0.003637
0.020838 0.315557 0.049563
0.020911 0.315630 0.112430
0.020983 0.315702 0.174846
0.021055 0.315774 0.236990
0.021127 0.315845 0.298939
0.021198 0.315917 0.360734
0.021270 0.315988 0.422404
0.021341 0.316059 0.483968
0.021412 0.316131 0.545438
0.021483 0.316202 0.606828
0.021554 0.316273 0.668143
0.021625 0.316343 0.729393
0.021696 0.316414 0.790582
0.021766 0.316485 0.851715
0.021837 0.316556 0.912797
0.021908 0.316626 0.973830
0.021493 0.377899 0.004345
0.021546 0.377952 0.050271
0.021619 0.378025 0.113137
0.021691 0.378097 0.175553
0.021763 0.378169 0.237698
0.021835 0.378241 0.299646
0.021906 0.378312 0.361442
0.021977 0.378384 0.423112
0.022049 0.378455 0.484675
0.022120 0.378526 0.546146
0.022191 0.378597 0.607535
0.022262 0.378668 0.668851
0.022333 0.378739 0.730101
0.022403 0.378810 0.791290
0.022474 0.378880 0.852423
0.022545 0.378951 0.913504
0.022615 0.379022 0.974538
0.022199 0.440173 0.005051
0.022252 0.440226 0.050978
0.022325 0.440299 0.113844
0.022397 0.440371 0.176260
0.022469 0.440443 0.238404
0.022541 0.440515 0.300353
0.022612 0.440586 0.362148
0.022684 0.440658 0.423818
0.022755 0.440729 0.485382
0.022826 0.440800 0.546853
0.022897 0.440871 0.608242
0.022968 0.440942 0.669558
0.023039 0.441013 0.730807
0.023110 0.441084 0.791996
0.023180 0.441155 0.853129
0.023251 0.441225 0.914211
0.023322 0.441296 0.975244
0.022905 0.502344 0.005756
0.022958 0.502397 0.051683
0.023030 0.502470 0.114549
0.023103 0.502542 0.176965
0.023174 0.502614 0.239109
0.023246 0.502686 0.301058
0.023318 0.502757 0.362854
0.023389 0.502829 0.424524
0.023460 0.502900 0.486087
0.023531 0.502971 0.547558
0.023602 0.503042 0.608947
0.023673 0.503113 0.670263
0.023744 0.503184 0.731512
0.023815 0.503255 0.792701
0.023886 0.503325 0.853835
0.023956 0.503396 0.914916
0.024027 0.503467 0.975950
0.023609 0.564425 0.006460
0.023662 0.564478 0.052387
0.023735 0.564551 0.115253
0.023807 0.564623 0.177669
0.023879 0.564695 0.239814
0.023950 0.564766 0.301762
0.024022 0.564838 0.363558
0.024093 0.564909 0.425228
0.024164 0.564981 0.486791
0.024236 0.565052 0.548262
0.024307 0.565123 0.609651
0.024378 0.565194 0.670967
0.024448 0.565264 0.732217
0.024519 0.565335 0.793406
0.024590 0.565406 0.854539
0.024661 0.565477 0.915620
0.024731 0.565547 0.976654
0.024312 0.626425 0.007164
0.024365 0.626479 0.053090
0.024438 0.626551 0.115957
0.024510 0.626623 0.178373
0.024582 0.626695 0.240517
0.024654 0.626767 0.302466
0.024725 0.626839 0.364261
0.024797 0.626910 0.425931
0.024868 0.626981 0.487495
0.024939 0.627052 0.548965
0.025010 0.627123 0.610355
0.025081 0.627194 0.671670
0.025152 0.627265 0.732920
0.025223 0.627336 0.794109
0.025293 0.627407 0.855242
0.025364 0.627477 0.916324
0.025435 0.627548 0.977357
0.025015 0.688354 0.007866
0.025068 0.688407 0.053793
0.025140 0.688480 0.116659
0.025213 0.688552 0.179075
0.025285 0.688624 0.241219
0.025356 0.688696 0.303168
0.025428 0.688767 0.364964
0.025499 0.688839 0.426634
0.025570 0.688910 0.488197
0.025641 0.688981 0.549668
0.025712 0.689052 0.611057
0.025783 0.689123 0.672373
0.025854 0.689194 0.733622
0.025925 0.689264 0.794811
0.025996 0.689335 0.855945
0.026066 0.689406 0.917026
0.026137 0.689476 0.978060
0.025716 0.750217 0.008568
0.025769 0.750271 0.054495
0.025842 0.750343 0.117361
0.025914 0.750415 0.179777
0.025986 0.750487 0.241921
0.026058 0.750559 0.303870
0.026129 0.750631 0.365666
0.026201 0.750702 0.427335
0.026272 0.750773 0.488899
0.026343 0.750844 0.550370
0.026414 0.750915 0.611759
0.026485 0.750986 0.673075
0.026556 0.751057 0.734324
0.026627 0.751128 0.795513
0.026697 0.751199 0.856646
0.026768 0.751269 0.917728
0.026839 0.751340 0.978761
0.026417 0.812021 0.009269
0.026471 0.812074 0.055196
0.026543 0.812147 0.118062
0.026615 0.812219 0.180478
0.026687 0.812291 0.242622
0.026759 0.812363 0.304571
0.026831 0.812434 0.366367
0.026902 0.812505 0.428037
0.026973 0.812577 0.489600
0.027044 0.812648 0.551071
0.027115 0.812719 0.612460
0.027186 0.812790 0.673776
0.027257 0.812861 0.735025
0.027328 0.812931 0.796214
0.027399 0.813002 0.857347
0.027469 0.813073 0.918429
0.027540 0.813143 0.979463
0.027118 0.873769 0.009970
0.027171 0.873823 0.055896
0.027244 0.873895 0.118762
0.027316 0.873967 0.181178
0.027388 0.874039 0.243323
0.027459 0.874111 0.305271
0.027531 0.874183 0.367067
0.027602 0.874254 0.428737
0.027674 0.874325 0.490300
0.027745 0.874396 0.551771
0.027816 0.874467 0.613160
0.027887 0.874538 0.674476
0.027957 0.874609 0.735726
0.028028 0.874680 0.796915
0.028099 0.874751 0.858048
0.028170 0.874821 0.919129
0.028240 0.874892 0.980163
0.027818 0.935467 0.010669
0.027871 0.935520 0.056596
0.027944 0.935593 0.119462
0.028016 0.935665 0.181878
0.028088 0.935737 0.244023
0.028159 0.935808 0.305971
0.028231 0.935880 0.367767
0.028302 0.935951 0.429437
0.028373 0.936022 0.491000
0.028445 0.936094 0.552471
0.028516 0.936165 0.613860
0.028587 0.936236 0.675176
0.028657 0.936306 0.736426
0.028728 0.936377 0.797615
0.028799 0.936448 0.858748
0.028870 0.936519 0.919829
0.028940 0.936589 0.980863
0.028499 0.995562 0.011351
0.028553 0.995615 0.057278
0.028625 0.995688 0.120144
0.028697 0.995760 0.182560
0.028769 0.995832 0.244704
0.028841 0.995903 0.306653
0.028913 0.995975 0.368449
0.028984 0.996046 0.430119
0.029055 0.996117 0.491682
0.029126 0.996188 0.553153
0.029197 0.996260 0.614542
0.029268 0.996330 0.675858
0.029339 0.996401 0.737107
0.029410 0.996472 0.798296
0.029481 0.996543 0.859429
0.029551 0.996613 0.920511
0.029622 0.996684 0.981545
0.080594 0.000274 0.000274
0.080647 0.000327 0.046201
0.080720 0.000400 0.109067
0.080792 0.000472 0.171483
0.080864 0.000544 0.233627
0.080935 0.000616 0.295576
0.081007 0.000687 0.357371
0.081078 0.000758 0.419041
0.081150 0.000830 0.480605
0.081221 0.000901 0.542076
0.081292 0.000972 0.603465
0.081363 0.001043 0.664781
0.081433 0.001114 0.726030
0.081504 0.001184 0.787219
0.081575 0.001255 0.848352
0.081646 0.001326 0.909434
0.081716 0.001396 0.970467
0.081318 0.064123 0.000998
0.081371 0.064176 0.046925
0.081444 0.064249 0.109791
0.081516 0.064321 0.172207
0.081588 0.064393 0.234351
0.081660 0.064464 0.296300
0.081731 0.064536 0.358096
0.081803 0.064607 0.419766
0.081874 0.064679 0.481329
0.081945 0.064750 0.542800
0.082016 0.064821 0.604189
0.082087 0.064892 0.665505
0.082158 0.064962 0.726754
0.082229 0.065033 0.787943
0.082299 0.065104 0.849077
0.082370 0.065175 0.910158
0.082441 0.065245 0.971192
0.082037 0.127480 0.001717
0.082090 0.127533 0.047644
0.082163 0.127606 0.110510
0.082235 0.127678 0.172926
0.082307 0.127750 0.235070
0.082378 0.127822 0.297019
0.082450 0.127893 0.358814
0.082521 0.127965 0.420484
0.082593 0.128036 0.482048
0.082664 0.128107 0.543519
0.082735 0.128178 0.604908
0.082806 0.128249 0.666224
0.082876 0.128320 0.727473
0.082947 0.128391 0.788662
0.083018 0.128461 0.849795
0.083089 0.128532 0.910877
0.083159 0.128603 0.971910
0.082751 0.190453 0.002431
0.082804 0.190506 0.048358
0.082877 0.190579 0.111224
0.082949 0.190651 0.173640
0.083021 0.190723 0.235784
0.083093 0.190795 0.297733
0.083164 0.190866 0.359529
0.083236 0.190938 0.421199
0.083307 0.191009 0.482762
0.083378 0.191080 0.544233
0.083449 0.191151 0.605622
0.083520 0.191222 0.666938
0.083591 0.191293 0.728187
0.083662 0.191364 0.789376
0.083732 0.191434 0.850510
0.083803 0.191505 0.911591
0.083874 0.191576 0.972625
0.083463 0.253178 0.003143
0.083516 0.253231 0.049069
0.083589 0.253304 0.111936
0.083661 0.253376 0.174352
0.083733 0.253448 0.236496
0.083804 0.253520 0.298445
0.083876 0.253591 0.360240
0.083947 0.253662 0.421910
0.084018 0.253734 0.483474
0.084089 0.253805 0.544945
0.084161 0.253876 0.606334
0.084231 0.253947 0.667649
0.084302 0.254018 0.728899
0.084373 0.254088 0.790088
0.084444 0.254159 0.851221
0.084515 0.254230 0.912303
0.084585 0.254300 0.973336
0.084172 0.315719 0.003852
0.084225 0.315772 0.049779
0.084298 0.315845 0.112645
0.084370 0.315917 0.175061
0.084442 0.315989 0.237205
0.084514 0.316061 0.299154
0.084585 0.316132 0.360950
0.084657 0.316204 0.422620
0.084728 0.316275 0.484183
0.084799 0.316346 0.545654
0.084870 0.316417 0.607043
0.084941 0.316488 0.668359
0.085012 0.316559 0.729608
0.085083 0.316630 0.790797
0.085153 0.316700 0.851931
0.085224 0.316771 0.913012
0.085295 0.316842 0.974046
0.084880 0.378115 0.004560
0.084933 0.378168 0.050487
0.085006 0.378240 0.113353
0.085078 0.378313 0.175769
0.085150 0.378384 0.237913
0.085222 0.378456 0.299862
0.085293 0.378528 0.361658
0.085364 0.378599 0.423328
0.085436 0.378670 0.484891
0.085507 0.378741 0.546362
0.085578 0.378812 0.607751
0.085649 0.378883 0.669067
0.085720 0.378954 0.730316
0.085790 0.379025 0.791505
0.085861 0.379096 0.852638
0.085932 0.379166 0.913720
0.086002 0.379237 0.974753
0.085586 0.440389 0.005266
0.085639 0.440442 0.051193
0.085712 0.440515 0.114059
0.085784 0.440587 0.176475
0.085856 0.440659 0.238620
0.085928 0.440730 0.300568
0.085999 0.440802 0.362364
0.086071 0.440873 0.424034
0.086142 0.440945 0.485597
0.086213 0.441016 0.547068
0.086284 0.441087 0.608457
0.086355 0.441158 0.669773
0.086426 0.441228 0.731023
0.086497 0.441299 0.792212
0.086567 0.441370 0.853345
0.086638 0.441441 0.914426
0.086709 0.441511 0.975460
0.086292 0.502560 0.005972
0.086345 0.502613 0.051898
0.086417 0.502686 0.114765
0.086490 0.502758 0.177181
0.086562 0.502830 0.239325
0.086633 0.502901 0.301274
0.086705 0.502973 0.363069
0.086776 0.503044 0.424739
0.086847 0.503115 0.486303
0.086918 0.503186 0.547773
0.086989 0.503258 0.609162
0.087060 0.503328 0.670478
0.087131 0.503399 0.731728
0.087202 0.503470 0.792917
0.087273 0.503541 0.854050
0.087343 0.503612 0.915132
0.087414 0.503682 0.976165
0.086996 0.564640 0.006676
0.087049 0.564693 0.052603
0.087122 0.564766 0.115469
0.087194 0.564838 0.177885
0.087266 0.564910 0.240029
0.087337 0.564982 0.301978
0.087409 0.565053 0.363773
0.087480 0.565125 0.425443
0.087551 0.565196 0.487007
0.087623 0.565267 0.548478
0.087694 0.565338 0.609867
0.087765 0.565409 0.671183
0.087835 0.565480 0.732432
0.087906 0.565551 0.793621
0.087977 0.565621 0.854754
0.088048 0.565692 0.915836
0.088118 0.565763 0.976869
0.087699 0.626641 0.007379
0.087752 0.626694 0.053306
0.087825 0.626767 0.116172
0.087897 0.626839 0.178588
0.087969 0.626911 0.240732
0.088041 0.626982 0.302681
0.088112 0.627054 0.364477
0.088184 0.627125 0.426147
0.088255 0.627197 0.487710
0.088326 0.627268 0.549181
0.088397 0.627339 0.610570
0.088468 0.627410 0.671886
0.088539 0.627481 0.733135
0.088610 0.627551 0.794324
0.088680 0.627622 0.855458
0.088751 0.627693 0.916539
0.088822 0.627763 0.977573
0.088402 0.688569 0.008082
0.088455 0.688623 0.054008
0.088527 0.688695 0.116875
0.088600 0.688768 0.179291
0.088672 0.688839 0.241435
0.088743 0.688911 0.303384
0.088815 0.688983 0.365179
0.088886 0.689054 0.426849
0.088957 0.689125 0.488413
0.089028 0.689196 0.549883
0.089099 0.689267 0.611272
0.089170 0.689338 0.672588
0.089241 0.689409 0.733838
0.089312 0.689480 0.795027
0.089383 0.689551 0.856160
0.089453 0.689621 0.917242
0.089524 0.689692 0.978275
0.089103 0.750433 0.008783
0.089156 0.750486 0.054710
0.089229 0.750559 0.117576
0.089301 0.750631 0.179992
0.089373 0.750703 0.242137
0.089445 0.750774 0.304085
0.089516 0.750846 0.365881
0.089588 0.750917 0.427551
0.089659 0.750989 0.489114
0.089730 0.751060 0.550585
0.089801 0.751131 0.611974
0.089872 0.751202 0.673290
0.089943 0.751272 0.734540
0.090014 0.751343 0.795729
0.090085 0.751414 0.856862
0.090155 0.751485 0.917943
0.090226 0.751555 0.978977
0.089804 0.812236 0.009485
0.089858 0.812290 0.055411
0.089930 0.812362 0.118277
0.090002 0.812434 0.180693
0.090074 0.812506 0.242838
0.090146 0.812578 0.304786
0.090218 0.812650 0.366582
0.090289 0.812721 0.428252
0.090360 0.812792 0.489815
0.090431 0.812863 0.551286
0.090502 0.812934 0.612675
0.090573 0.813005 0.673991
0.090644 0.813076 0.735241
0.090715 0.813147 0.796430
0.090786 0.813218 0.857563
0.090856 0.813288 0.918644
0.090927 0.813359 0.979678
0.090505 0.873985 0.010185
0.090558 0.874038 0.056112
0.090631 0.874111 0.118978
0.090703 0.874183 0.181394
0.090775 0.874255 0.243538
0.090847 0.874326 0.305487
0.090918 0.874398 0.367282
0.090989 0.874469 0.428952
0.091061 0.874541 0.490516
0.091132 0.874612 0.551987
0.091203 0.874683 0.613376
0.091274 0.874754 0.674692
0.091345 0.874825 0.735941
0.091415 0.874895 0.797130
0.091486 0.874966 0.858263
0.091557 0.875037 0.919345
0.091627 0.875107 0.980378
0.091205 0.935682 0.010885
0.091258 0.935735 0.056812
0.091331 0.935808 0.119678
0.091403 0.935880 0.182094
0.091475 0.935952 0.244238
0.091546 0.936024 0.306187
0.091618 0.936095 0.367982
0.091689 0.936167 0.429652
0.091760 0.936238 0.491216
0.091832 0.936309 0.552687
0.091903 0.936380 0.614076
0.091974 0.936451 0.675391
0.092044 0.936522 0.736641
0.092115 0.936593 0.797830
0.092186 0.936663 0.858963
0.092257 0.936734 0.920045
0.092327 0.936805 0.981078
0.091886 0.995777 0.011567
0.091940 0.995830 0.057493
0.092012 0.995903 0.120359
0.092085 0.995975 0.182775
0.092156 0.996047 0.244920
0.092228 0.996119 0.306868
0.092300 0.996190 0.368664
0.092371 0.996262 0.430334
0.092442 0.996333 0.491897
0.092513 0.996404 0.553368
0.092584 0.996475 0.614757
0.092655 0.996546 0.676073
0.092726 0.996617 0.737323
0.092797 0.996688 0.798512
0.092868 0.996758 0.859645
0.092938 0.996829 0.920726
0.093009 0.996900 0.981760
0.143320 0.000487 0.000487
0.143373 0.000540 0.046414
0.143445 0.000613 0.109280
0.143518 0.000685 0.171696
0.143590 0.000757 0.233840
0.143661 0.000829 0.295789
0.143733 0.000900 0.357585
0.143804 0.000972 0.419255
0.143875 0.001043 0.480818
0.143946 0.001114 0.542289
0.144017 0.001185 0.603678
0.144088 0.001256 0.664994
0.144159 0.001327 0.726243
0.144230 0.001398 0.787432
0.144301 0.001468 0.848565
0.144371 0.001539 0.909647
0.144442 0.001610 0.970681
0.144044 0.064336 0.001211
0.144097 0.064389 0.047138
0.144170 0.064462 0.110004
0.144242 0.064534 0.172420
0.144314 0.064606 0.234565
0.144385 0.064678 0.296513
0.144457 0.064749 0.358309
0.144528 0.064820 0.419979
0.144600 0.064892 0.481542
0.144671 0.064963 0.543013
0.144742 0.065034 0.604402
0.144813 0.065105 0.665718
0.144883 0.065176 0.726968
0.144954 0.065246 0.788157
0.145025 0.065317 0.849290
0.145096 0.065388 0.910371
0.145166 0.065458 0.971405
0.144763 0.127693 0.001930
0.144816 0.127747 0.047857
0.144888 0.127819 0.110723
0.144961 0.127892 0.173139
0.145033 0.127963 0.235283
0.145104 0.128035 0.297232
0.145176 0.128107 0.359028
0.145247 0.128178 0.420698
0.145318 0.128249 0.482261
0.145389 0.128320 0.543732
0.145460 0.128391 0.605121
0.145531 0.128462 0.666437
0.145602 0.128533 0.727686
0.145673 0.128604 0.788875
0.145744 0.128675 0.850008
0.145814 0.128745 0.911090
0.145885 0.128816 0.972124
0.145477 0.190666 0.002644
0.145530 0.190719 0.048571
0.145603 0.190792 0.111437
0.145675 0.190864 0.173853
0.145747 0.190936 0.235998
0.145819 0.191008 0.297946
0.145890 0.191079 0.359742
0.145961 0.191151 0.421412
0.146033 0.191222 0.482975
0.146104 0.191293 0.544446
0.146175 0.191364 0.605835
0.146246 0.191435 0.667151
0.146317 0.191506 0.728401
0.146387 0.191577 0.789590
0.146458 0.191648 0.850723
0.146529 0.191718 0.911804
0.146599 0.191789 0.972838
0.146188 0.253391 0.003356
0.146242 0.253444 0.049283
0.146314 0.253517 0.112149
0.146386 0.253589 0.174565
0.146458 0.253661 0.236709
0.146530 0.253733 0.298658
0.146602 0.253804 0.360453
0.146673 0.253876 0.422123
0.146744 0.253947 0.483687
0.146815 0.254018 0.545158
0.146886 0.254089 0.606547
0.146957 0.254160 0.667863
0.147028 0.254231 0.729112
0.147099 0.254302 0.790301
0.147170 0.254372 0.851434
0.147240 0.254443 0.912516
0.147311 0.254514 0.973549
0.146898 0.315932 0.004065
0.146951 0.315986 0.049992
0.147024 0.316058 0.112858
0.147096 0.316130 0.175274
0.147168 0.316202 0.237419
0.147239 0.316274 0.299367
0.147311 0.316346 0.361163
0.147382 0.316417 0.422833
0.147454 0.316488 0.484396
0.147525 0.316559 0.545867
0.147596 0.316630 0.607256
0.147667 0.316701 0.668572
0.147738 0.316772 0.729822
0.147808 0.316843 0.791011
0.147879 0.316914 0.852144
0.147950 0.316984 0.913225
0.148020 0.317055 0.974259
0.147606 0.378328 0.004773
0.147659 0.378381 0.050700
0.147732 0.378454 0.113566
0.147804 0.378526 0.175982
0.147876 0.378598 0.238126
0.147947 0.378669 0.300075
0.148019 0.378741 0.361871
0.148090 0.378812 0.423541
0.148161 0.378883 0.485104
0.148232 0.378955 0.546575
0.148303 0.379026 0.607964
0.148374 0.379097 0.669280
0.148445 0.379167 0.730529
0.148516 0.379238 0.791718
0.148587 0.379309 0.852852
0.148657 0.379380 0.913933
0.148728 0.379450 0.974967
0.148312 0.440602 0.005480
0.148365 0.440655 0.051406
0.148438 0.440728 0.114273
0.148510 0.440800 0.176689
0.148582 0.440872 0.238833
0.148654 0.440944 0.300782
0.148725 0.441015 0.362577
0.148797 0.441086 0.424247
0.148868 0.441158 0.485811
0.148939 0.441229 0.547281
0.149010 0.441300 0.608670
0.149081 0.441371 0.669986
0.149152 0.441442 0.731236
0.149223 0.441512 0.792425
0.149293 0.441583 0.853558
0.149364 0.441654 0.914640
0.149435 0.441724 0.975673
0.149017 0.502773 0.006185
0.149070 0.502826 0.052112
0.149143 0.502899 0.114978
0.149215 0.502971 0.177394
0.149287 0.503043 0.239538
0.149359 0.503115 0.301487
0.149430 0.503186 0.363282
0.149502 0.503257 0.424952
0.149573 0.503329 0.486516
0.149644 0.503400 0.547987
0.149715 0.503471 0.609376
0.149786 0.503542 0.670692
0.149857 0.503613 0.731941
0.149928 0.503683 0.793130
0.149998 0.503754 0.854263
0.150069 0.503825 0.915345
0.150140 0.503895 0.976378
0.149722 0.564853 0.006889
0.149775 0.564907 0.052816
0.149847 0.564979 0.115682
0.149920 0.565052 0.178098
0.149991 0.565123 0.240242
0.150063 0.565195 0.302191
0.150135 0.565267 0.363987
0.150206 0.565338 0.425657
0.150277 0.565409 0.487220
0.150348 0.565480 0.548691
0.150419 0.565551 0.610080
0.150490 0.565622 0.671396
0.150561 0.565693 0.732645
0.150632 0.565764 0.793834
0.150703 0.565835 0.854967
0.150773 0.565905 0.916049
0.150844 0.565976 0.977083
0.150425 0.626854 0.007592
0.150478 0.626907 0.053519
0.150551 0.626980 0.116385
0.150623 0.627052 0.178801
0.150695 0.627124 0.240946
0.150766 0.627196 0.302894
0.150838 0.627267 0.364690
0.150909 0.627339 0.426360
0.150981 0.627410 0.487923
0.151052 0.627481 0.549394
0.151123 0.627552 0.610783
0.151194 0.627623 0.672099
0.151264 0.627694 0.733349
0.151335 0.627765 0.794538
0.151406 0.627835 0.855671
0.151477 0.627906 0.916752
0.151547 0.627977 0.977786
0.151127 0.688783 0.008295
0.151180 0.688836 0.054222
0.151253 0.688909 0.117088
0.151325 0.688981 0.179504
0.151397 0.689053 0.241648
0.151469 0.689124 0.303597
0.151540 0.689196 0.365392
0.151612 0.689267 0.427062
0.151683 0.689338 0.488626
0.151754 0.689410 0.550097
0.151825 0.689481 0.611486
0.151896 0.689551 0.672802
0.151967 0.689622 0.734051
0.152038 0.689693 0.795240
0.152109 0.689764 0.856373
0.152179 0.689835 0.917455
0.152250 0.689905 0.978488
0.151829 0.750646 0.008997
0.151882 0.750699 0.054923
0.151955 0.750772 0.117790
0.152027 0.750844 0.180206
0.152099 0.750916 0.242350
0.152171 0.750988 0.304299
0.152242 0.751059 0.366094
0.152314 0.751131 0.427764
0.152385 0.751202 0.489328
0.152456 0.751273 0.550798
0.152527 0.751344 0.612187
0.152598 0.751415 0.673503
0.152669 0.751486 0.734753
0.152740 0.751556 0.795942
0.152810 0.751627 0.857075
0.152881 0.751698 0.918157
0.152952 0.751769 0.979190
0.152530 0.812450 0.009698
0.152583 0.812503 0.055624
0.152656 0.812575 0.118491
0.152728 0.812648 0.180907
0.152800 0.812720 0.243051
0.152872 0.812791 0.305000
0.152943 0.812863 0.366795
0.153015 0.812934 0.428465
0.153086 0.813005 0.490029
0.153157 0.813076 0.551499
0.153228 0.813147 0.612889
0.153299 0.813218 0.674204
0.153370 0.813289 0.735454
0.153441 0.813360 0.796643
0.153511 0.813431 0.857776
0.153582 0.813501 0.918858
0.153653 0.813572 0.979891
0.153231 0.874198 0.010398
0.153284 0.874251 0.056325
0.153356 0.874324 0.119191
0.153429 0.874396 0.181607
0.153501 0.874468 0.243751
0.153572 0.874540 0.305700
0.153644 0.874611 0.367496
0.153715 0.874683 0.429166
0.153786 0.874754 0.490729
0.153857 0.874825 0.552200
0.153928 0.874896 0.613589
0.153999 0.874967 0.674905
0.154070 0.875038 0.736154
0.154141 0.875109 0.797343
0.154212 0.875179 0.858477
0.154282 0.875250 0.919558
0.154353 0.875321 0.980592
0.153930 0.935895 0.011098
0.153984 0.935949 0.057025
0.154056 0.936021 0.119891
0.154129 0.936093 0.182307
0.154200 0.936165 0.244451
0.154272 0.936237 0.306400
0.154344 0.936309 0.368196
0.154415 0.936380 0.429866
0.154486 0.936451 0.491429
0.154557 0.936522 0.552900
0.154628 0.936593 0.614289
0.154699 0.936664 0.675605
0.154770 0.936735 0.736854
0.154841 0.936806 0.798043
0.154912 0.936877 0.859176
0.154982 0.936947 0.920258
0.155053 0.937018 0.981292
0.154612 0.995990 0.011780
0.154665 0.996043 0.057706
0.154738 0.996116 0.120573
0.154810 0.996188 0.182989
0.154882 0.996260 0.245133
0.154954 0.996332 0.307082
0.155025 0.996403 0.368877
0.155097 0.996475 0.430547
0.155168 0.996546 0.492111
0.155239 0.996617 0.553581
0.155310 0.996688 0.614971
0.155381 0.996759 0.676286
0.155452 0.996830 0.737536
0.155523 0.996901 0.798725
0.155593 0.996971 0.859858
0.155664 0.997042 0.920940
0.155735 0.997113 0.981973
0.205714 0.000699 0.000699
0.205767 0.000752 0.046626
0.205840 0.000825 0.109492
0.205912 0.000897 0.171908
0.205984 0.000969 0.234052
0.206056 0.001041 0.296001
0.206127 0.001112 0.357797
0.206199 0.001184 0.419467
0.206270 0.001255 0.481030
0.206341 0.001326 0.542501
0.206412 0.001397 0.603890
0.206483 0.001468 0.665206
0.206554 0.001539 0.726455
0.206625 0.001610 0.787644
0.206695 0.001680 0.848778
0.206766 0.001751 0.909859
0.206837 0.001822 0.970893
0.206438 0.064548 0.001424
