skills/unified-director/assets/grade/luts/warm_skin_v20.cube
TITLE "warm_skin_v20"
LUT_3D_SIZE 17
DOMAIN_MIN 0.0 0.0 0.0
DOMAIN_MAX 1.0 1.0 1.0
0.056305 0.000000 0.000000
0.056305 0.000000 0.000000
0.056000 0.000000 0.073824
0.055703 0.000000 0.146241
0.055412 0.000000 0.217132
0.055125 0.000000 0.287058
0.054841 0.000000 0.356274
0.054559 0.000000 0.424933
0.054279 0.000000 0.493131
0.054001 0.000000 0.560937
0.053724 0.000000 0.628403
0.053448 0.000000 0.695569
0.053174 0.000000 0.762465
0.052900 0.000000 0.829117
0.052628 0.000000 0.895547
0.052356 0.000000 0.961772
0.052085 0.000000 1.000000
0.053636 0.062574 0.000000
0.053636 0.062574 0.000000
0.053331 0.062268 0.071155
0.053034 0.061971 0.143572
0.052743 0.061680 0.214463
0.052456 0.061393 0.284389
0.052172 0.061109 0.353605
0.051890 0.060827 0.422264
0.051610 0.060548 0.490462
0.051332 0.060269 0.558268
0.051055 0.059992 0.625734
0.050779 0.059717 0.692900
0.050505 0.059442 0.759796
0.050231 0.059169 0.826448
0.049959 0.058896 0.892878
0.049687 0.058624 0.959103
0.049416 0.058353 1.000000
0.050682 0.132593 0.000000
0.050682 0.132593 0.000000
0.050377 0.132287 0.068201
0.050079 0.131990 0.140617
0.049788 0.131699 0.211509
0.049502 0.131412 0.281434
0.049218 0.131128 0.350651
0.048936 0.130846 0.419310
0.048656 0.130566 0.487508
0.048378 0.130288 0.555314
0.048101 0.130011 0.622780
0.047825 0.129736 0.689946
0.047551 0.129461 0.756842
0.047277 0.129187 0.823494
0.047005 0.128915 0.889924
0.046733 0.128643 0.956149
0.046462 0.128372 1.000000
0.047795 0.201032 0.000000
0.047795 0.201032 0.000000
0.047489 0.200726 0.065314
0.047192 0.200429 0.137730
0.046901 0.200138 0.208622
0.046614 0.199851 0.278547
0.046330 0.199567 0.347764
0.046048 0.199285 0.416422
0.045768 0.199005 0.484620
0.045490 0.198727 0.552426
0.045213 0.198450 0.619893
0.044938 0.198175 0.687058
0.044663 0.197900 0.753954
0.044390 0.197627 0.820606
0.044117 0.197354 0.887036
0.043845 0.197082 0.953261
0.043574 0.196811 1.000000
0.044948 0.268497 0.000000
0.044948 0.268497 0.000000
0.044643 0.268191 0.062467
0.044345 0.267894 0.134883
0.044055 0.267603 0.205775
0.043768 0.267316 0.275700
0.043484 0.267032 0.344917
0.043202 0.266751 0.413576
0.042922 0.266471 0.481774
0.042644 0.266192 0.549580
0.042367 0.265916 0.617046
0.042091 0.265640 0.684212
0.041817 0.265365 0.751108
0.041543 0.265092 0.817760
0.041271 0.264819 0.884190
0.040999 0.264548 0.950415
0.040728 0.264277 1.000000
0.042132 0.335257 0.000000
0.042132 0.335257 0.000000
0.041826 0.334952 0.059651
0.041529 0.334654 0.132067
0.041238 0.334363 0.202959
0.040951 0.334077 0.272884
0.040667 0.333792 0.342101
0.040385 0.333511 0.410759
0.040105 0.333231 0.478957
0.039827 0.332953 0.546763
0.039550 0.332676 0.614229
0.039275 0.332400 0.681395
0.039000 0.332126 0.748291
0.038727 0.331852 0.814943
0.038454 0.331580 0.881373
0.038182 0.331308 0.947598
0.037911 0.331037 1.000000
0.039338 0.401465 0.000000
0.039338 0.401465 0.000000
0.039033 0.401160 0.056857
0.038735 0.400862 0.129273
0.038444 0.400572 0.200165
0.038158 0.400285 0.270090
0.037873 0.400001 0.339307
0.037592 0.399719 0.407966
0.037312 0.399439 0.476164
0.037034 0.399161 0.543970
0.036757 0.398884 0.611436
0.036481 0.398608 0.678602
0.036207 0.398334 0.745498
0.035933 0.398060 0.812150
0.035661 0.397788 0.878580
0.035389 0.397516 0.944805
0.035118 0.397245 1.000000
0.036564 0.467220 0.000000
0.036564 0.467220 0.000000
0.036258 0.466915 0.054083
0.035961 0.466617 0.126499
0.035670 0.466326 0.197391
0.035383 0.466040 0.267316
0.035099 0.465755 0.336533
0.034817 0.465474 0.405191
0.034538 0.465194 0.473389
0.034259 0.464916 0.541196
0.033983 0.464639 0.608662
0.033707 0.464363 0.675827
0.033432 0.464089 0.742723
0.033159 0.463815 0.809376
0.032886 0.463543 0.875805
0.032615 0.463271 0.942030
0.032344 0.463000 1.000000
0.033806 0.532591 0.000000
0.033806 0.532591 0.000000
0.033500 0.532285 0.051325
0.033203 0.531988 0.123741
0.032912 0.531697 0.194633
0.032625 0.531410 0.264558
0.032341 0.531126 0.333775
0.032059 0.530845 0.402433
0.031780 0.530565 0.470631
0.031501 0.530286 0.538438
0.031224 0.530010 0.605904
0.030949 0.529734 0.673069
0.030674 0.529459 0.739965
0.030401 0.529186 0.806618
0.030128 0.528913 0.873047
0.029856 0.528642 0.939272
0.029585 0.528371 1.000000
0.031062 0.597629 0.000000
0.031062 0.597629 0.000000
0.030756 0.597323 0.048581
0.030459 0.597026 0.120997
0.030168 0.596735 0.191889
0.029881 0.596448 0.261814
0.029597 0.596164 0.331031
0.029315 0.595882 0.399689
0.029036 0.595602 0.467887
0.028757 0.595324 0.535694
0.028480 0.595047 0.603160
0.028205 0.594772 0.670325
0.027930 0.594497 0.737221
0.027657 0.594224 0.803874
0.027384 0.593951 0.870303
0.027112 0.593679 0.936528
0.026841 0.593408 1.000000
0.028330 0.662373 0.000000
0.028330 0.662373 0.000000
0.028025 0.662067 0.045849
0.027727 0.661770 0.118265
0.027437 0.661479 0.189157
0.027150 0.661192 0.259082
0.026866 0.660908 0.328299
0.026584 0.660626 0.396958
0.026304 0.660346 0.465156
0.026026 0.660068 0.532962
0.025749 0.659791 0.600428
0.025473 0.659515 0.667594
0.025199 0.659241 0.734490
0.024925 0.658967 0.801142
0.024653 0.658695 0.867572
0.024381 0.658423 0.933797
0.024110 0.658152 0.999832
0.025610 0.726854 0.000000
0.025610 0.726854 0.000000
0.025304 0.726548 0.043129
0.025007 0.726251 0.115545
0.024716 0.725960 0.186437
0.024429 0.725673 0.256362
0.024145 0.725389 0.325579
0.023863 0.725107 0.394237
0.023583 0.724827 0.462435
0.023305 0.724549 0.530242
0.023028 0.724272 0.597708
0.022753 0.723997 0.664873
0.022478 0.723722 0.731769
0.022205 0.723449 0.798421
0.021932 0.723176 0.864851
0.021660 0.722904 0.931076
0.021389 0.722633 0.997112
0.022899 0.791097 0.000000
0.022899 0.791097 0.000000
0.022594 0.790791 0.040418
0.022296 0.790494 0.112834
0.022005 0.790203 0.183726
0.021719 0.789916 0.253651
0.021435 0.789632 0.322868
0.021153 0.789351 0.391527
0.020873 0.789071 0.459725
0.020595 0.788792 0.527531
0.020318 0.788516 0.594997
0.020042 0.788240 0.662163
0.019768 0.787965 0.729059
0.019494 0.787692 0.795711
0.019222 0.787419 0.862141
0.018950 0.787148 0.928366
0.018679 0.786877 0.994401
0.020198 0.855124 0.000000
0.020198 0.855124 0.000000
0.019892 0.854818 0.037717
0.019595 0.854521 0.110133
0.019304 0.854230 0.181025
0.019017 0.853943 0.250950
0.018733 0.853659 0.320167
0.018451 0.853377 0.388825
0.018172 0.853097 0.457023
0.017893 0.852819 0.524830
0.017616 0.852542 0.592296
0.017341 0.852267 0.659461
0.017066 0.851992 0.726357
0.016793 0.851719 0.793010
0.016520 0.851446 0.859439
0.016248 0.851174 0.925664
0.015977 0.850903 0.991700
0.017505 0.918952 0.000000
0.017505 0.918952 0.000000
0.017199 0.918646 0.035024
0.016902 0.918349 0.107440
0.016611 0.918058 0.178332
0.016324 0.917771 0.248257
0.016040 0.917487 0.317474
0.015758 0.917205 0.386132
0.015479 0.916925 0.454330
0.015200 0.916647 0.522137
0.014924 0.916370 0.589603
0.014648 0.916094 0.656768
0.014373 0.915820 0.723664
0.014100 0.915546 0.790317
0.013827 0.915274 0.856746
0.013556 0.915002 0.922971
0.013285 0.914731 0.989007
0.014820 0.982595 0.000000
0.014820 0.982595 0.000000
0.014514 0.982289 0.032339
0.014217 0.981992 0.104755
0.013926 0.981701 0.175647
0.013639 0.981414 0.245572
0.013355 0.981130 0.314789
0.013073 0.980848 0.383447
0.012793 0.980569 0.451645
0.012515 0.980290 0.519452
0.012238 0.980013 0.586918
0.011963 0.979738 0.654083
0.011688 0.979463 0.720979
0.011415 0.979190 0.787631
0.011142 0.978917 0.854061
0.010870 0.978645 0.920286
0.010599 0.978374 0.986322
0.013393 1.000000 0.000000
0.013393 1.000000 0.000000
0.013088 1.000000 0.030912
0.012791 1.000000 0.103329
0.012500 1.000000 0.174220
0.012213 1.000000 0.244146
0.011929 1.000000 0.313362
0.011647 1.000000 0.382021
0.011367 1.000000 0.450219
0.011089 1.000000 0.518025
0.010812 1.000000 0.585491
0.010536 1.000000 0.652657
0.010262 1.000000 0.719553
0.009988 1.000000 0.786205
0.009716 1.000000 0.852635
0.009444 1.000000 0.918860
0.009173 1.000000 0.984895
0.128684 0.000000 0.000000
0.128684 0.000000 0.000000
0.128378 0.000000 0.072943
0.128081 0.000000 0.145359
0.127790 0.000000 0.216251
0.127503 0.000000 0.286176
0.127219 0.000000 0.355393
0.126938 0.000000 0.424051
0.126658 0.000000 0.492249
0.126379 0.000000 0.560056
0.126103 0.000000 0.627522
0.125827 0.000000 0.694687
0.125552 0.000000 0.761583
0.125279 0.000000 0.828235
0.125006 0.000000 0.894665
0.124735 0.000000 0.960890
0.124464 0.000000 1.000000
0.126015 0.061692 0.000000
0.126015 0.061692 0.000000
0.125709 0.061387 0.070274
0.125412 0.061089 0.142690
0.125121 0.060799 0.213582
0.124834 0.060512 0.283507
0.124550 0.060228 0.352724
0.124269 0.059946 0.421382
0.123989 0.059666 0.489580
0.123710 0.059388 0.557387
0.123434 0.059111 0.624853
0.123158 0.058835 0.692018
0.122883 0.058561 0.758914
0.122610 0.058287 0.825566
0.122337 0.058015 0.891996
0.122066 0.057743 0.958221
0.121795 0.057472 1.000000
0.123061 0.131711 0.000000
0.123061 0.131711 0.000000
0.122755 0.131405 0.067320
0.122458 0.131108 0.139736
0.122167 0.130817 0.210628
0.121880 0.130530 0.280553
0.121596 0.130246 0.349770
0.121314 0.129964 0.418428
0.121034 0.129685 0.486626
0.120756 0.129406 0.554432
0.120479 0.129130 0.621899
0.120204 0.128854 0.689064
0.119929 0.128579 0.755960
0.119656 0.128306 0.822612
0.119383 0.128033 0.889042
0.119111 0.127762 0.955267
0.118840 0.127491 1.000000
0.120173 0.200150 0.000000
0.120173 0.200150 0.000000
0.119868 0.199844 0.064432
0.119570 0.199547 0.136848
0.119280 0.199256 0.207740
0.118993 0.198969 0.277665
0.118709 0.198685 0.346882
0.118427 0.198404 0.415541
0.118147 0.198124 0.483738
0.117869 0.197846 0.551545
0.117592 0.197569 0.619011
0.117316 0.197293 0.686176
0.117042 0.197019 0.753072
0.116768 0.196745 0.819725
0.116496 0.196472 0.886154
0.116224 0.196201 0.952379
0.115953 0.195930 1.000000
0.117327 0.267615 0.000000
0.117327 0.267615 0.000000
0.117021 0.267310 0.061586
0.116724 0.267013 0.134002
0.116433 0.266722 0.204894
0.116146 0.266435 0.274819
0.115862 0.266151 0.344036
0.115580 0.265869 0.412694
0.115301 0.265589 0.480892
0.115022 0.265311 0.548698
0.114745 0.265034 0.616165
0.114470 0.264758 0.683330
0.114195 0.264484 0.750226
0.113922 0.264210 0.816878
0.113649 0.263938 0.883308
0.113377 0.263666 0.949533
0.113106 0.263395 1.000000
0.114510 0.334376 0.000000
0.114510 0.334376 0.000000
0.114205 0.334070 0.058769
0.113907 0.333773 0.131185
0.113616 0.333482 0.202077
0.113329 0.333195 0.272002
0.113045 0.332911 0.341219
0.112764 0.332629 0.409877
0.112484 0.332349 0.478075
0.112206 0.332071 0.545882
0.111929 0.331794 0.613348
0.111653 0.331519 0.680513
0.111379 0.331244 0.747409
0.111105 0.330971 0.814062
0.110833 0.330698 0.880491
0.110561 0.330426 0.946716
0.110290 0.330155 1.000000
0.111717 0.400584 0.000000
0.111717 0.400584 0.000000
0.111411 0.400278 0.055976
0.111114 0.399981 0.128392
0.110823 0.399690 0.199284
0.110536 0.399403 0.269209
0.110252 0.399119 0.338426
0.109970 0.398837 0.407084
0.109690 0.398557 0.475282
0.109412 0.398279 0.543088
0.109135 0.398002 0.610554
0.108860 0.397727 0.677720
0.108585 0.397452 0.744616
0.108312 0.397179 0.811268
0.108039 0.396906 0.877698
0.107767 0.396634 0.943923
0.107496 0.396363 1.000000
0.108943 0.466339 0.000000
0.108943 0.466339 0.000000
0.108637 0.466033 0.053201
0.108340 0.465736 0.125618
0.108049 0.465445 0.196509
0.107762 0.465158 0.266434
0.107478 0.464874 0.335651
0.107196 0.464592 0.404310
0.106916 0.464312 0.472508
0.106638 0.464034 0.540314
0.106361 0.463757 0.607780
0.106085 0.463482 0.674946
0.105811 0.463207 0.741842
0.105537 0.462934 0.808494
0.105265 0.462661 0.874924
0.104993 0.462389 0.941149
0.104722 0.462118 1.000000
0.106185 0.531709 0.000000
0.106185 0.531709 0.000000
0.105879 0.531404 0.050443
0.105582 0.531107 0.122859
0.105291 0.530816 0.193751
0.105004 0.530529 0.263676
0.104720 0.530245 0.332893
0.104438 0.529963 0.401552
0.104158 0.529683 0.469750
0.103880 0.529405 0.537556
0.103603 0.529128 0.605022
0.103327 0.528852 0.672188
0.103053 0.528578 0.739084
0.102779 0.528304 0.805736
0.102507 0.528032 0.872166
0.102235 0.527760 0.938391
0.101964 0.527489 1.000000
0.103441 0.596747 0.000000
0.103441 0.596747 0.000000
0.103135 0.596441 0.047699
0.102838 0.596144 0.120115
0.102547 0.595853 0.191007
0.102260 0.595566 0.260932
0.101976 0.595282 0.330149
0.101694 0.595001 0.398808
0.101414 0.594721 0.467006
0.101136 0.594442 0.534812
0.100859 0.594166 0.602278
0.100583 0.593890 0.669444
0.100309 0.593616 0.736340
0.100035 0.593342 0.802992
0.099763 0.593069 0.869422
0.099491 0.592798 0.935647
0.099220 0.592527 1.000000
0.100709 0.661491 0.000000
0.100709 0.661491 0.000000
0.100403 0.661185 0.044968
0.100106 0.660888 0.117384
0.099815 0.660597 0.188276
0.099528 0.660310 0.258201
0.099244 0.660026 0.327418
0.098962 0.659744 0.396076
0.098683 0.659465 0.464274
0.098404 0.659186 0.532080
0.098127 0.658909 0.599547
0.097852 0.658634 0.666712
0.097577 0.658359 0.733608
0.097304 0.658086 0.800260
0.097031 0.657813 0.866690
0.096759 0.657541 0.932915
0.096488 0.657271 0.998951
0.097988 0.725972 0.000000
0.097988 0.725972 0.000000
0.097683 0.725666 0.042247
0.097385 0.725369 0.114663
0.097095 0.725078 0.185555
0.096808 0.724791 0.255480
0.096524 0.724507 0.324697
0.096242 0.724225 0.393356
0.095962 0.723946 0.461553
0.095684 0.723667 0.529360
0.095407 0.723391 0.596826
0.095131 0.723115 0.663991
0.094857 0.722840 0.730887
0.094583 0.722567 0.797540
0.094311 0.722294 0.863969
0.094039 0.722023 0.930194
0.093768 0.721752 0.996230
0.095278 0.790216 0.000000
0.095278 0.790216 0.000000
0.094972 0.789910 0.039537
0.094675 0.789613 0.111953
0.094384 0.789322 0.182845
0.094097 0.789035 0.252770
0.093813 0.788751 0.321987
0.093531 0.788469 0.390645
0.093252 0.788189 0.458843
0.092973 0.787911 0.526649
0.092696 0.787634 0.594116
0.092421 0.787358 0.661281
0.092146 0.787084 0.728177
0.091873 0.786810 0.794829
0.091600 0.786538 0.861259
0.091328 0.786266 0.927484
0.091057 0.785995 0.993519
0.092577 0.854242 0.000000
0.092577 0.854242 0.000000
0.092271 0.853937 0.036835
0.091974 0.853639 0.109251
0.091683 0.853348 0.180143
0.091396 0.853062 0.250068
0.091112 0.852777 0.319285
0.090830 0.852496 0.387944
0.090550 0.852216 0.456142
0.090272 0.851938 0.523948
0.089995 0.851661 0.591414
0.089719 0.851385 0.658580
0.089445 0.851111 0.725476
0.089171 0.850837 0.792128
0.088899 0.850565 0.858558
0.088627 0.850293 0.924783
0.088356 0.850022 0.990818
0.089884 0.918070 0.000000
0.089884 0.918070 0.000000
0.089578 0.917764 0.034142
0.089281 0.917467 0.106559
0.088990 0.917176 0.177450
0.088703 0.916889 0.247375
0.088419 0.916605 0.316592
0.088137 0.916323 0.385251
0.087857 0.916043 0.453449
0.087579 0.915765 0.521255
0.087302 0.915488 0.588721
0.087026 0.915213 0.655887
0.086752 0.914938 0.722783
0.086478 0.914665 0.789435
0.086206 0.914392 0.855865
0.085934 0.914120 0.922090
0.085663 0.913849 0.988125
0.087198 0.981713 0.000000
0.087198 0.981713 0.000000
0.086893 0.981408 0.031457
0.086595 0.981110 0.103873
0.086305 0.980819 0.174765
0.086018 0.980533 0.244690
0.085734 0.980248 0.313907
0.085452 0.979967 0.382566
0.085172 0.979687 0.450763
0.084894 0.979409 0.518570
0.084617 0.979132 0.586036
0.084341 0.978856 0.653201
0.084067 0.978582 0.720098
0.083793 0.978308 0.786750
0.083521 0.978036 0.853180
0.083249 0.977764 0.919404
0.082978 0.977493 0.985440
0.085772 1.000000 0.000000
0.085772 1.000000 0.000000
0.085466 1.000000 0.030031
0.085169 1.000000 0.102447
0.084878 1.000000 0.173339
0.084591 1.000000 0.243264
0.084307 1.000000 0.312481
0.084026 1.000000 0.381139
0.083746 1.000000 0.449337
0.083467 1.000000 0.517144
0.083191 1.000000 0.584610
0.082915 1.000000 0.651775
0.082640 1.000000 0.718671
0.082367 1.000000 0.785323
0.082094 1.000000 0.851753
0.081823 1.000000 0.917978
0.081552 1.000000 0.984014
0.199303 0.000000 0.000000
0.199303 0.000000 0.000000
0.198997 0.000000 0.072083
0.198700 0.000000 0.144499
0.198409 0.000000 0.215391
0.198122 0.000000 0.285316
0.197838 0.000000 0.354533
0.197556 0.000000 0.423191
0.197276 0.000000 0.491389
0.196998 0.000000 0.559195
0.196721 0.000000 0.626662
0.196446 0.000000 0.693827
0.196171 0.000000 0.760723
0.195898 0.000000 0.827375
0.195625 0.000000 0.893805
0.195353 0.000000 0.960030
0.195082 0.000000 1.000000
0.196634 0.060832 0.000000
0.196634 0.060832 0.000000
0.196328 0.060526 0.069414
0.196031 0.060229 0.141830
0.195740 0.059938 0.212722
0.195453 0.059651 0.282647
0.195169 0.059367 0.351864
0.194887 0.059086 0.420522
0.194607 0.058806 0.488720
0.194329 0.058528 0.556526
0.194052 0.058251 0.623993
0.193777 0.057975 0.691158
0.193502 0.057701 0.758054
0.193229 0.057427 0.824706
0.192956 0.057154 0.891136
0.192684 0.056883 0.957361
0.192413 0.056612 1.000000
0.193680 0.130851 0.000000
0.193680 0.130851 0.000000
0.193374 0.130545 0.066459
0.193077 0.130248 0.138876
0.192786 0.129957 0.209767
0.192499 0.129670 0.279693
0.192215 0.129386 0.348909
0.191933 0.129104 0.417568
0.191653 0.128824 0.485766
0.191375 0.128546 0.553572
0.191098 0.128269 0.621038
0.190822 0.127994 0.688204
0.190548 0.127719 0.755100
0.190274 0.127446 0.821752
0.190002 0.127173 0.888182
0.189730 0.126901 0.954407
0.189459 0.126630 1.000000
0.190792 0.199290 0.000000
0.190792 0.199290 0.000000
0.190486 0.198984 0.063572
0.190189 0.198687 0.135988
0.189898 0.198396 0.206880
0.189611 0.198109 0.276805
0.189327 0.197825 0.346022
0.189045 0.197543 0.414680
0.188766 0.197264 0.482878
0.188487 0.196985 0.550685
0.188210 0.196709 0.618151
0.187935 0.196433 0.685316
0.187660 0.196158 0.752212
0.187387 0.195885 0.818865
0.187114 0.195612 0.885294
0.186842 0.195341 0.951519
0.186572 0.195070 1.000000
0.187946 0.266755 0.000000
0.187946 0.266755 0.000000
0.187640 0.266450 0.060725
0.187343 0.266152 0.133142
0.187052 0.265861 0.204033
0.186765 0.265575 0.273959
0.186481 0.265290 0.343176
0.186199 0.265009 0.411834
0.185919 0.264729 0.480032
0.185641 0.264451 0.547838
0.185364 0.264174 0.615304
0.185088 0.263898 0.682470
0.184814 0.263624 0.749366
0.184540 0.263350 0.816018
0.184268 0.263078 0.882448
0.183996 0.262806 0.948673
0.183725 0.262535 1.000000
0.185129 0.333516 0.000000
0.185129 0.333516 0.000000
0.184823 0.333210 0.057909
0.184526 0.332913 0.130325
0.184235 0.332622 0.201217
0.183948 0.332335 0.271142
0.183664 0.332051 0.340359
0.183382 0.331769 0.409017
0.183102 0.331489 0.477215
0.182824 0.331211 0.545022
0.182547 0.330934 0.612488
0.182272 0.330658 0.679653
0.181997 0.330384 0.746549
0.181724 0.330110 0.813201
0.181451 0.329838 0.879631
0.181179 0.329566 0.945856
0.180908 0.329295 1.000000
0.182335 0.399724 0.000000
0.182335 0.399724 0.000000
0.182030 0.399418 0.055115
0.181733 0.399121 0.127532
0.181442 0.398830 0.198423
0.181155 0.398543 0.268349
0.180871 0.398259 0.337565
0.180589 0.397977 0.406224
0.180309 0.397697 0.474422
0.180031 0.397419 0.542228
0.179754 0.397142 0.609694
0.179478 0.396867 0.676860
0.179204 0.396592 0.743756
0.178930 0.396318 0.810408
0.178658 0.396046 0.876838
0.178386 0.395774 0.943063
0.178115 0.395503 1.000000
0.179561 0.465479 0.000000
0.179561 0.465479 0.000000
0.179255 0.465173 0.052341
0.178958 0.464876 0.124757
0.178667 0.464585 0.195649
0.178380 0.464298 0.265574
0.178096 0.464014 0.334791
0.177815 0.463732 0.403450
0.177535 0.463452 0.471648
0.177257 0.463174 0.539454
0.176980 0.462897 0.606920
0.176704 0.462621 0.674085
0.176430 0.462347 0.740982
0.176156 0.462073 0.807634
0.175883 0.461801 0.874064
0.175612 0.461529 0.940289
0.175341 0.461258 1.000000
0.176803 0.530849 0.000000
0.176803 0.530849 0.000000
0.176497 0.530544 0.049583
0.176200 0.530246 0.121999
0.175909 0.529955 0.192891
0.175622 0.529669 0.262816
0.175338 0.529384 0.332033
0.175057 0.529103 0.400692
0.174777 0.528823 0.468889
0.174499 0.528545 0.536696
0.174222 0.528268 0.604162
0.173946 0.527992 0.671327
0.173672 0.527718 0.738223
0.173398 0.527444 0.804876
0.173125 0.527172 0.871305
0.172854 0.526900 0.937530
0.172583 0.526629 1.000000
0.174059 0.595887 0.000000
0.174059 0.595887 0.000000
0.173753 0.595581 0.046839
0.173456 0.595284 0.119255
0.173165 0.594993 0.190147
0.172878 0.594706 0.260072
0.172594 0.594422 0.329289
0.172313 0.594140 0.397948
0.172033 0.593861 0.466145
0.171755 0.593582 0.533952
0.171478 0.593305 0.601418
0.171202 0.593030 0.668583
0.170928 0.592755 0.735479
0.170654 0.592482 0.802132
0.170381 0.592209 0.868561
0.170110 0.591937 0.934786
0.169839 0.591666 1.000000
0.171328 0.660631 0.000000
0.171328 0.660631 0.000000
0.171022 0.660325 0.044107
0.170725 0.660028 0.116524
0.170434 0.659737 0.187415
0.170147 0.659450 0.257341
0.169863 0.659166 0.326558
0.169581 0.658884 0.395216
0.169301 0.658604 0.463414
0.169023 0.658326 0.531220
0.168746 0.658049 0.598686
0.168470 0.657774 0.665852
0.168196 0.657499 0.732748
0.167922 0.657226 0.799400
0.167650 0.656953 0.865830
0.167378 0.656681 0.932055
0.167107 0.656410 0.998090
0.168607 0.725112 0.000000
0.168607 0.725112 0.000000
0.168301 0.724806 0.041387
0.168004 0.724509 0.113803
0.167713 0.724218 0.184695
0.167426 0.723931 0.254620
0.167142 0.723647 0.323837
0.166860 0.723365 0.392495
0.166581 0.723085 0.460693
0.166302 0.722807 0.528500
0.166026 0.722530 0.595966
0.165750 0.722255 0.663131
0.165475 0.721980 0.730027
0.165202 0.721707 0.796680
0.164929 0.721434 0.863109
0.164658 0.721162 0.929334
0.164387 0.720891 0.995370
0.165897 0.789355 0.000000
0.165897 0.789355 0.000000
0.165591 0.789050 0.038676
0.165294 0.788752 0.111093
0.165003 0.788462 0.181984
0.164716 0.788175 0.251910
0.164432 0.787891 0.321126
0.164150 0.787609 0.389785
0.163870 0.787329 0.457983
0.163592 0.787051 0.525789
0.163315 0.786774 0.593255
0.163039 0.786498 0.660421
0.162765 0.786224 0.727317
0.162491 0.785950 0.793969
0.162219 0.785678 0.860399
0.161947 0.785406 0.926624
0.161676 0.785135 0.992659
0.163195 0.853382 0.000000
0.163195 0.853382 0.000000
0.162889 0.853076 0.035975
0.162592 0.852779 0.108391
0.162301 0.852488 0.179283
0.162014 0.852201 0.249208
0.161730 0.851917 0.318425
0.161449 0.851636 0.387084
0.161169 0.851356 0.455281
0.160891 0.851077 0.523088
0.160614 0.850801 0.590554
0.160338 0.850525 0.657719
0.160064 0.850250 0.724615
0.159790 0.849977 0.791268
0.159517 0.849704 0.857697
0.159246 0.849433 0.923922
0.158975 0.849162 0.989958
0.160502 0.917210 0.000000
0.160502 0.917210 0.000000
0.160196 0.916904 0.033282
0.159899 0.916607 0.105698
0.159608 0.916316 0.176590
0.159321 0.916029 0.246515
0.159037 0.915745 0.315732
0.158756 0.915463 0.384391
0.158476 0.915183 0.452589
0.158198 0.914905 0.520395
0.157921 0.914628 0.587861
0.157645 0.914353 0.655026
0.157371 0.914078 0.721923
0.157097 0.913805 0.788575
0.156824 0.913532 0.855005
0.156553 0.913260 0.921230
0.156282 0.912989 0.987265
0.157817 0.980853 0.000000
0.157817 0.980853 0.000000
0.157511 0.980547 0.030597
0.157214 0.980250 0.103013
0.156923 0.979959 0.173905
0.156636 0.979672 0.243830
0.156352 0.979388 0.313047
0.156070 0.979107 0.381705
0.155791 0.978827 0.449903
0.155512 0.978548 0.517710
0.155236 0.978272 0.585176
0.154960 0.977996 0.652341
0.154685 0.977721 0.719237
0.154412 0.977448 0.785890
0.154139 0.977175 0.852319
0.153868 0.976904 0.918544
0.153597 0.976633 0.984580
0.156391 1.000000 0.000000
0.156391 1.000000 0.000000
0.156085 1.000000 0.029171
0.155788 1.000000 0.101587
0.155497 1.000000 0.172479
0.155210 1.000000 0.242404
0.154926 1.000000 0.311621
0.154644 1.000000 0.380279
0.154364 1.000000 0.448477
0.154086 1.000000 0.516283
0.153809 1.000000 0.583750
0.153534 1.000000 0.650915
0.153259 1.000000 0.717811
0.152986 1.000000 0.784463
0.152713 1.000000 0.850893
0.152441 1.000000 0.917118
0.152170 1.000000 0.983153
0.268870 0.000000 0.000000
0.268870 0.000000 0.000000
0.268565 0.000000 0.071235
0.268268 0.000000 0.143651
0.267977 0.000000 0.214543
0.267690 0.000000 0.284468
0.267406 0.000000 0.353685
0.267124 0.000000 0.422344
0.266844 0.000000 0.490542
0.266566 0.000000 0.558348
0.266289 0.000000 0.625814
0.266013 0.000000 0.692980
0.265739 0.000000 0.759876
0.265465 0.000000 0.826528
0.265193 0.000000 0.892958
0.264921 0.000000 0.959183
0.264650 0.000000 1.000000
0.266201 0.059985 0.000000
