skills/unified-director/assets/grade/luts/warm_skin_v02.cube
TITLE "warm_skin_v02"
LUT_3D_SIZE 5
DOMAIN_MIN 0.0 0.0 0.0
DOMAIN_MAX 1.0 1.0 1.0
0.017207 0.000058 0.000058
0.017477 0.000328 0.233412
0.017762 0.000614 0.480389
0.018046 0.000898 0.725815
0.018329 0.001181 0.970252
0.020076 0.252963 0.002927
0.020346 0.253233 0.236281
0.020631 0.253518 0.483258
0.020915 0.253802 0.728683
0.021198 0.254085 0.973121
0.022905 0.502344 0.005756
0.023174 0.502614 0.239109
0.023460 0.502900 0.486087
0.023744 0.503184 0.731512
0.024027 0.503467 0.975950
0.025716 0.750217 0.008568
0.025986 0.750487 0.241921
0.026272 0.750773 0.488899
0.026556 0.751057 0.734324
0.026839 0.751340 0.978761
0.028499 0.995562 0.011351
0.028769 0.995832 0.244704
0.029055 0.996117 0.491682
0.029339 0.996401 0.737107
0.029622 0.996684 0.981545
0.267884 0.000911 0.000911
0.268154 0.001181 0.234264
0.268440 0.001466 0.481241
0.268724 0.001750 0.726667
0.269007 0.002033 0.971104
0.270753 0.253815 0.003779
0.271023 0.254085 0.237133
0.271309 0.254370 0.484110
0.271593 0.254654 0.729536
0.271876 0.254937 0.973973
0.273582 0.503196 0.006608
0.273852 0.503466 0.239961
0.274138 0.503752 0.486939
0.274422 0.504036 0.732364
0.274705 0.504319 0.976802
0.276394 0.751069 0.009420
0.276664 0.751339 0.242773
0.276950 0.751625 0.489751
0.277233 0.751909 0.735176
0.277516 0.752192 0.979614
0.279177 0.996414 0.012203
0.279447 0.996684 0.245556
0.279733 0.996969 0.492534
0.280017 0.997253 0.737959
0.280299 0.997536 0.982397
0.515145 0.001751 0.001751
0.515415 0.002021 0.235104
0.515701 0.002307 0.482082
0.515985 0.002591 0.727507
0.516268 0.002873 0.971944
0.518014 0.254655 0.004620
0.518284 0.254925 0.237973
0.518570 0.255211 0.484951
0.518854 0.255495 0.730376
0.519136 0.255778 0.974813
0.520843 0.504037 0.007449
0.521113 0.504307 0.240802
0.521399 0.504592 0.487780
0.521683 0.504876 0.733205
0.521965 0.505159 0.977642
0.523655 0.751910 0.010261
0.523925 0.752180 0.243614
0.524210 0.752466 0.490591
0.524494 0.752750 0.736017
0.524777 0.753032 0.980454
0.526438 0.997254 0.013044
0.526708 0.997524 0.246397
0.526993 0.997810 0.493375
0.527277 0.998094 0.738800
0.527560 0.998377 0.983237
0.760964 0.002587 0.002587
0.761234 0.002857 0.235940
0.761520 0.003142 0.482917
0.761804 0.003426 0.728343
0.762087 0.003709 0.972780
0.763833 0.255491 0.005455
0.764103 0.255761 0.238809
0.764389 0.256046 0.485786
0.764673 0.256330 0.731212
0.764956 0.256613 0.975649
0.766662 0.504872 0.008284
0.766932 0.505142 0.241638
0.767218 0.505428 0.488615
0.767502 0.505712 0.734040
0.767785 0.505995 0.978478
0.769474 0.752745 0.011096
0.769744 0.753015 0.244449
0.770030 0.753301 0.491427
0.770314 0.753585 0.736852
0.770596 0.753868 0.981290
0.772257 0.998090 0.013879
0.772527 0.998360 0.247232
0.772813 0.998645 0.494210
0.773097 0.998929 0.739635
0.773379 0.999212 0.984073
0.987567 0.003357 0.003357
0.987837 0.003627 0.236710
0.988123 0.003913 0.483688
0.988407 0.004197 0.729113
0.988690 0.004479 0.973550
0.990436 0.256261 0.006226
0.990706 0.256531 0.239579
0.990992 0.256817 0.486557
0.991276 0.257101 0.731982
0.991559 0.257383 0.976419
0.993265 0.505643 0.009055
0.993535 0.505913 0.242408
0.993821 0.506198 0.489385
0.994105 0.506482 0.734811
0.994388 0.506765 0.979248
0.996077 0.753516 0.011866
0.996347 0.753786 0.245220
0.996633 0.754071 0.492197
0.996917 0.754355 0.737623
0.997199 0.754638 0.982060
0.998860 0.998860 0.014649
0.999130 0.999130 0.248003
0.999416 0.999416 0.494980
0.999700 0.999700 0.740406
0.999982 0.999982 0.984843
