skills/unified-director/assets/grade/luts/warm_skin_v20.cube
TITLE "warm_skin_v20"
LUT_3D_SIZE 5
DOMAIN_MIN 0.0 0.0 0.0
DOMAIN_MAX 1.0 1.0 1.0
0.056305 0.000000 0.000000
0.055412 0.000000 0.217132
0.054279 0.000000 0.493131
0.053174 0.000000 0.762465
0.052085 0.000000 1.000000
0.044948 0.268497 0.000000
0.044055 0.267603 0.205775
0.042922 0.266471 0.481774
0.041817 0.265365 0.751108
0.040728 0.264277 1.000000
0.033806 0.532591 0.000000
0.032912 0.531697 0.194633
0.031780 0.530565 0.470631
0.030674 0.529459 0.739965
0.029585 0.528371 1.000000
0.022899 0.791097 0.000000
0.022005 0.790203 0.183726
0.020873 0.789071 0.459725
0.019768 0.787965 0.729059
0.018679 0.786877 0.994401
0.013393 1.000000 0.000000
0.012500 1.000000 0.174220
0.011367 1.000000 0.450219
0.010262 1.000000 0.719553
0.009173 1.000000 0.984895
0.337687 0.000000 0.000000
0.336793 0.000000 0.213705
0.335661 0.000000 0.489703
0.334556 0.000000 0.759037
0.333467 0.000000 1.000000
0.326330 0.265070 0.000000
0.325436 0.264176 0.202348
0.324304 0.263043 0.478346
0.323199 0.261938 0.747680
0.322110 0.260849 1.000000
0.315188 0.529164 0.000000
0.314294 0.528270 0.191205
0.313161 0.527137 0.467204
0.312056 0.526032 0.736538
0.310967 0.524943 1.000000
0.304281 0.787670 0.000000
0.303387 0.786776 0.180299
0.302255 0.785643 0.456297
0.301150 0.784538 0.725631
0.300061 0.783449 0.990974
0.294775 1.000000 0.000000
0.293881 1.000000 0.170793
0.292749 1.000000 0.446791
0.291644 1.000000 0.716125
0.290555 1.000000 0.981468
0.608035 0.000000 0.000000
0.607141 0.000000 0.210412
0.606009 0.000000 0.486410
0.604903 0.000000 0.755744
0.603815 0.000000 1.000000
0.596678 0.261777 0.000000
0.595784 0.260883 0.199055
0.594651 0.259750 0.475053
0.593546 0.258645 0.744387
0.592457 0.257556 1.000000
0.585535 0.525871 0.000000
0.584642 0.524977 0.187913
0.583509 0.523844 0.463911
0.582404 0.522739 0.733245
0.581315 0.521650 0.998587
0.574629 0.784377 0.000000
0.573735 0.783483 0.177006
0.572602 0.782350 0.453004
0.571497 0.781245 0.722338
0.570408 0.780156 0.987681
0.565123 1.000000 0.000000
0.564229 1.000000 0.167500
0.563097 1.000000 0.443498
0.561991 1.000000 0.712832
0.560903 1.000000 0.978175
0.873284 0.000000 0.000000
0.872390 0.000000 0.207181
0.871258 0.000000 0.483180
0.870152 0.000000 0.752514
0.869064 0.000000 1.000000
0.861927 0.258546 0.000000
0.861033 0.257652 0.195824
0.859901 0.256519 0.471822
0.858795 0.255414 0.741156
0.857706 0.254325 1.000000
0.850785 0.522640 0.000000
0.849891 0.521746 0.184682
0.848758 0.520613 0.460680
0.847653 0.519508 0.730014
0.846564 0.518419 0.995356
0.839878 0.781146 0.000000
0.838984 0.780252 0.173775
0.837852 0.779119 0.449773
0.836746 0.778014 0.719107
0.835657 0.776925 0.984450
0.830372 1.000000 0.000000
0.829478 1.000000 0.164269
0.828346 1.000000 0.440268
0.827240 1.000000 0.709602
0.826152 1.000000 0.974944
1.000000 0.000000 0.000000
1.000000 0.000000 0.205062
1.000000 0.000000 0.481061
1.000000 0.000000 0.750395
1.000000 0.000000 1.000000
1.000000 0.256427 0.000000
1.000000 0.255533 0.193705
1.000000 0.254401 0.469703
1.000000 0.253295 0.739037
1.000000 0.252206 1.000000
1.000000 0.520521 0.000000
1.000000 0.519627 0.182563
1.000000 0.518494 0.458561
1.000000 0.517389 0.727895
1.000000 0.516300 0.993238
1.000000 0.779027 0.000000
1.000000 0.778133 0.171656
1.000000 0.777001 0.447654
1.000000 0.775895 0.716988
1.000000 0.774806 0.982331
1.000000 1.000000 0.000000
1.000000 1.000000 0.162150
1.000000 1.000000 0.438149
1.000000 1.000000 0.707483
1.000000 1.000000 0.972825
