skills/unified-director/assets/grade/luts/warm_skin_v13.cube
TITLE "warm_skin_v13"
LUT_3D_SIZE 17
DOMAIN_MIN 0.0 0.0 0.0
DOMAIN_MAX 1.0 1.0 1.0
0.039630 0.000000 0.000000
0.039588 0.000000 0.019017
0.039438 0.000000 0.089030
0.039292 0.000000 0.157217
0.039148 0.000000 0.224505
0.039005 0.000000 0.291189
0.038863 0.000000 0.357416
0.038722 0.000000 0.423278
0.038582 0.000000 0.488835
0.038442 0.000000 0.554130
0.038302 0.000000 0.619196
0.038163 0.000000 0.684059
0.038024 0.000000 0.748738
0.037886 0.000000 0.813251
0.037748 0.000000 0.877612
0.037611 0.000000 0.941833
0.037473 0.000000 1.000000
0.038256 0.063197 0.000000
0.038215 0.063156 0.017644
0.038065 0.063006 0.087656
0.037919 0.062860 0.155844
0.037775 0.062716 0.223132
0.037632 0.062573 0.289815
0.037490 0.062431 0.356043
0.037349 0.062289 0.421905
0.037208 0.062149 0.487462
0.037068 0.062009 0.552757
0.036929 0.061870 0.617823
0.036790 0.061731 0.682685
0.036651 0.061592 0.747365
0.036513 0.061454 0.811878
0.036375 0.061316 0.876239
0.036237 0.061178 0.940459
0.036100 0.061041 1.000000
0.036799 0.130538 0.000000
0.036758 0.130497 0.016186
0.036608 0.130347 0.086199
0.036461 0.130201 0.154386
0.036317 0.130056 0.221674
0.036174 0.129914 0.288358
0.036032 0.129772 0.354586
0.035891 0.129630 0.420447
0.035751 0.129490 0.486004
0.035611 0.129350 0.551299
0.035471 0.129211 0.616365
0.035332 0.129072 0.681228
0.035194 0.128933 0.745907
0.035055 0.128795 0.810420
0.034917 0.128657 0.874781
0.034780 0.128519 0.939002
0.034642 0.128382 1.000000
0.035365 0.196810 0.000000
0.035323 0.196769 0.014752
0.035173 0.196619 0.084764
0.035027 0.196472 0.152952
0.034883 0.196328 0.220240
0.034740 0.196185 0.286923
0.034598 0.196043 0.353151
0.034457 0.195902 0.419013
0.034316 0.195762 0.484570
0.034176 0.195622 0.549865
0.034037 0.195482 0.614931
0.033898 0.195343 0.679793
0.033759 0.195205 0.744473
0.033621 0.195066 0.808986
0.033483 0.194928 0.873347
0.033345 0.194791 0.937567
0.033208 0.194653 1.000000
0.033945 0.262410 0.000000
0.033903 0.262369 0.013332
0.033753 0.262219 0.083344
0.033607 0.262073 0.151532
0.033463 0.261929 0.218820
0.033320 0.261786 0.285504
0.033178 0.261644 0.351731
0.033037 0.261503 0.417593
0.032896 0.261362 0.483150
0.032756 0.261222 0.548445
0.032617 0.261083 0.613511
0.032478 0.260944 0.678374
0.032339 0.260805 0.743053
0.032201 0.260667 0.807566
0.032063 0.260529 0.871927
0.031925 0.260391 0.936147
0.031788 0.260254 1.000000
0.032535 0.327521 0.000000
0.032494 0.327480 0.011922
0.032344 0.327329 0.081935
0.032198 0.327183 0.150122
0.032054 0.327039 0.217411
0.031911 0.326896 0.284094
0.031769 0.326754 0.350322
0.031628 0.326613 0.416184
0.031487 0.326473 0.481741
0.031347 0.326333 0.547036
0.031208 0.326193 0.612102
0.031069 0.326054 0.676964
0.030930 0.325916 0.741644
0.030792 0.325777 0.806157
0.030654 0.325639 0.870518
0.030516 0.325502 0.934738
0.030379 0.325364 0.998828
0.031134 0.392245 0.000000
0.031093 0.392204 0.010522
0.030943 0.392054 0.080534
0.030797 0.391908 0.148722
0.030653 0.391764 0.216010
0.030510 0.391621 0.282693
0.030368 0.391479 0.348921
0.030227 0.391338 0.414783
0.030086 0.391197 0.480340
0.029946 0.391057 0.545635
0.029807 0.390918 0.610701
0.029668 0.390779 0.675563
0.029529 0.390640 0.740243
0.029391 0.390502 0.804756
0.029253 0.390364 0.869117
0.029115 0.390226 0.933337
0.028978 0.390089 0.997427
0.029740 0.456652 0.000000
0.029699 0.456610 0.009127
0.029549 0.456460 0.079140
0.029403 0.456314 0.147327
0.029259 0.456170 0.214616
0.029116 0.456027 0.281299
0.028974 0.455885 0.347527
0.028833 0.455744 0.413389
0.028692 0.455603 0.478946
0.028552 0.455463 0.544241
0.028413 0.455324 0.609307
0.028274 0.455185 0.674169
0.028135 0.455046 0.738849
0.027997 0.454908 0.803362
0.027859 0.454770 0.867723
0.027721 0.454632 0.931943
0.027584 0.454495 0.996033
0.028352 0.520788 0.000000
0.028311 0.520746 0.007739
0.028161 0.520596 0.077752
0.028015 0.520450 0.145939
0.027871 0.520306 0.213228
0.027728 0.520163 0.279911
0.027586 0.520021 0.346139
0.027445 0.519880 0.412001
0.027304 0.519739 0.477558
0.027164 0.519599 0.542853
0.027025 0.519460 0.607919
0.026886 0.519321 0.672781
0.026747 0.519182 0.737461
0.026609 0.519044 0.801974
0.026471 0.518906 0.866335
0.026333 0.518768 0.930555
0.026196 0.518631 0.994645
0.026969 0.584688 0.000000
0.026928 0.584647 0.006356
0.026778 0.584497 0.076369
0.026632 0.584351 0.144556
0.026487 0.584207 0.211845
0.026345 0.584064 0.278528
0.026203 0.583922 0.344756
0.026061 0.583781 0.410618
0.025921 0.583640 0.476174
0.025781 0.583500 0.541469
0.025642 0.583361 0.606536
0.025503 0.583222 0.671398
0.025364 0.583083 0.736078
0.025226 0.582945 0.800591
0.025088 0.582807 0.864952
0.024950 0.582669 0.929172
0.024813 0.582532 0.993262
0.025591 0.648381 0.000000
0.025549 0.648340 0.004978
0.025399 0.648190 0.074990
0.025253 0.648044 0.143178
0.025109 0.647900 0.210466
0.024966 0.647757 0.277150
0.024824 0.647615 0.343377
0.024683 0.647474 0.409239
0.024542 0.647333 0.474796
0.024402 0.647193 0.540091
0.024263 0.647054 0.605157
0.024124 0.646915 0.670019
0.023985 0.646776 0.734699
0.023847 0.646638 0.799212
0.023709 0.646500 0.863573
0.023571 0.646362 0.927793
0.023434 0.646225 0.991883
0.024216 0.711888 0.000000
0.024175 0.711847 0.003603
0.024025 0.711697 0.073616
0.023879 0.711550 0.141803
0.023734 0.711406 0.209091
0.023591 0.711263 0.275775
0.023449 0.711121 0.342003
0.023308 0.710980 0.407865
0.023168 0.710840 0.473421
0.023028 0.710700 0.538716
0.022888 0.710560 0.603782
0.022749 0.710421 0.668645
0.022611 0.710283 0.733324
0.022472 0.710144 0.797838
0.022335 0.710006 0.862198
0.022197 0.709869 0.926419
0.022060 0.709731 0.990509
0.022845 0.775226 0.000000
0.022804 0.775185 0.002232
0.022654 0.775035 0.072245
0.022508 0.774889 0.140432
0.022363 0.774744 0.207720
0.022221 0.774601 0.274404
0.022079 0.774460 0.340632
0.021937 0.774318 0.406494
0.021797 0.774178 0.472050
0.021657 0.774038 0.537345
0.021517 0.773898 0.602411
0.021378 0.773759 0.667274
0.021240 0.773621 0.731953
0.021102 0.773483 0.796467
0.020964 0.773345 0.860828
0.020826 0.773207 0.925048
0.020689 0.773070 0.989138
0.021478 0.838410 0.000000
0.021436 0.838369 0.000865
0.021286 0.838219 0.070877
0.021140 0.838073 0.139065
0.020996 0.837929 0.206353
0.020853 0.837786 0.273036
0.020711 0.837644 0.339264
0.020570 0.837502 0.405126
0.020429 0.837362 0.470683
0.020289 0.837222 0.535978
0.020150 0.837083 0.601044
0.020011 0.836944 0.665906
0.019872 0.836805 0.730586
0.019734 0.836667 0.795099
0.019596 0.836529 0.859460
0.019458 0.836391 0.923680
0.019321 0.836254 0.987770
0.020113 0.901453 0.000000
0.020072 0.901411 0.000000
0.019922 0.901261 0.069513
0.019776 0.901115 0.137700
0.019631 0.900971 0.204988
0.019488 0.900828 0.271672
0.019346 0.900686 0.337900
0.019205 0.900545 0.403762
0.019065 0.900404 0.469318
0.018925 0.900264 0.534613
0.018785 0.900125 0.599679
0.018646 0.899986 0.664542
0.018508 0.899847 0.729221
0.018369 0.899709 0.793735
0.018232 0.899571 0.858095
0.018094 0.899433 0.922316
0.017957 0.899296 0.986406
0.018751 0.964364 0.000000
0.018710 0.964322 0.000000
0.018560 0.964172 0.068151
0.018414 0.964026 0.136338
0.018270 0.963882 0.203627
0.018127 0.963739 0.270310
0.017985 0.963597 0.336538
0.017844 0.963456 0.402400
0.017703 0.963315 0.467957
0.017563 0.963176 0.533252
0.017424 0.963036 0.598318
0.017285 0.962897 0.663180
0.017146 0.962758 0.727860
0.017008 0.962620 0.792373
0.016870 0.962482 0.856734
0.016732 0.962345 0.920954
0.016595 0.962207 0.985044
0.017797 1.000000 0.000000
0.017756 1.000000 0.000000
0.017606 1.000000 0.067197
0.017460 1.000000 0.135384
0.017316 1.000000 0.202673
0.017173 1.000000 0.269356
0.017031 1.000000 0.335584
0.016890 1.000000 0.401446
0.016749 1.000000 0.467003
0.016609 1.000000 0.532298
0.016470 1.000000 0.597364
0.016331 1.000000 0.662226
0.016192 1.000000 0.726906
0.016054 1.000000 0.791419
0.015916 1.000000 0.855780
0.015778 1.000000 0.920000
0.015641 1.000000 0.984090
0.108615 0.000000 0.000000
0.108573 0.000000 0.018580
0.108423 0.000000 0.088592
0.108277 0.000000 0.156780
0.108133 0.000000 0.224068
0.107990 0.000000 0.290751
0.107848 0.000000 0.356979
0.107707 0.000000 0.422841
0.107566 0.000000 0.488398
0.107426 0.000000 0.553693
0.107287 0.000000 0.618759
0.107148 0.000000 0.683621
0.107009 0.000000 0.748301
0.106871 0.000000 0.812814
0.106733 0.000000 0.877175
0.106595 0.000000 0.941395
0.106458 0.000000 1.000000
0.107241 0.062760 0.000000
0.107200 0.062719 0.017206
0.107050 0.062569 0.087219
0.106904 0.062423 0.155406
0.106760 0.062278 0.222695
0.106617 0.062135 0.289378
0.106475 0.061993 0.355606
0.106334 0.061852 0.421468
0.106193 0.061712 0.487025
0.106053 0.061572 0.552320
0.105914 0.061432 0.617386
0.105775 0.061293 0.682248
0.105636 0.061155 0.746928
0.105498 0.061016 0.811441
0.105360 0.060879 0.875802
0.105222 0.060741 0.940022
0.105085 0.060604 1.000000
0.105784 0.130101 0.000000
0.105743 0.130060 0.015749
0.105592 0.129910 0.085761
0.105446 0.129764 0.153949
0.105302 0.129619 0.221237
0.105159 0.129476 0.287921
0.105017 0.129334 0.354148
0.104876 0.129193 0.420010
0.104736 0.129053 0.485567
0.104596 0.128913 0.550862
0.104456 0.128773 0.615928
0.104317 0.128634 0.680791
0.104178 0.128496 0.745470
0.104040 0.128357 0.809983
0.103902 0.128219 0.874344
0.103765 0.128082 0.938565
0.103627 0.127944 1.000000
0.104349 0.196373 0.000000
0.104308 0.196331 0.014314
0.104158 0.196181 0.084327
0.104012 0.196035 0.152514
0.103868 0.195891 0.219803
0.103725 0.195748 0.286486
0.103583 0.195606 0.352714
0.103442 0.195465 0.418576
0.103301 0.195324 0.484133
0.103161 0.195184 0.549428
0.103022 0.195045 0.614494
0.102883 0.194906 0.679356
0.102744 0.194767 0.744036
0.102606 0.194629 0.808549
0.102468 0.194491 0.872910
0.102330 0.194354 0.937130
0.102193 0.194216 1.000000
0.102930 0.261973 0.000000
0.102888 0.261932 0.012895
0.102738 0.261782 0.082907
0.102592 0.261636 0.151094
0.102448 0.261491 0.218383
0.102305 0.261349 0.285066
0.102163 0.261207 0.351294
0.102022 0.261065 0.417156
0.101881 0.260925 0.482713
0.101741 0.260785 0.548008
0.101602 0.260646 0.613074
0.101463 0.260507 0.677936
0.101324 0.260368 0.742616
0.101186 0.260230 0.807129
0.101048 0.260092 0.871490
0.100910 0.259954 0.935710
0.100773 0.259817 0.999800
0.101520 0.327084 0.000000
0.101479 0.327042 0.011485
0.101329 0.326892 0.081498
0.101183 0.326746 0.149685
0.101039 0.326602 0.216974
0.100896 0.326459 0.283657
0.100754 0.326317 0.349885
0.100613 0.326176 0.415747
0.100472 0.326035 0.481303
0.100332 0.325895 0.546598
0.100193 0.325756 0.611665
0.100054 0.325617 0.676527
0.099915 0.325478 0.741207
0.099777 0.325340 0.805720
0.099639 0.325202 0.870081
0.099501 0.325064 0.934301
0.099364 0.324927 0.998391
0.100119 0.391808 0.000000
0.100078 0.391767 0.010084
0.099928 0.391617 0.080097
0.099782 0.391471 0.148284
0.099638 0.391326 0.215573
0.099495 0.391183 0.282256
0.099353 0.391041 0.348484
0.099212 0.390900 0.414346
0.099071 0.390760 0.479903
0.098931 0.390620 0.545198
0.098792 0.390480 0.610264
0.098653 0.390341 0.675126
0.098514 0.390203 0.739806
0.098376 0.390065 0.804319
0.098238 0.389927 0.868680
0.098100 0.389789 0.932900
0.097963 0.389652 0.996990
0.098725 0.456214 0.000000
0.098684 0.456173 0.008690
0.098534 0.456023 0.078703
0.098388 0.455877 0.146890
0.098244 0.455733 0.214179
0.098101 0.455590 0.280862
0.097959 0.455448 0.347090
0.097818 0.455307 0.412952
0.097677 0.455166 0.478509
0.097537 0.455026 0.543804
0.097398 0.454887 0.608870
0.097259 0.454748 0.673732
0.097120 0.454609 0.738412
0.096982 0.454471 0.802925
0.096844 0.454333 0.867286
0.096706 0.454195 0.931506
0.096569 0.454058 0.995596
0.097337 0.520350 0.000000
0.097296 0.520309 0.007302
0.097146 0.520159 0.077315
0.097000 0.520013 0.145502
0.096855 0.519869 0.212790
0.096713 0.519726 0.279474
0.096571 0.519584 0.345702
0.096429 0.519443 0.411564
0.096289 0.519302 0.477120
0.096149 0.519162 0.542415
0.096009 0.519023 0.607481
0.095870 0.518884 0.672344
0.095732 0.518745 0.737023
0.095594 0.518607 0.801537
0.095456 0.518469 0.865898
0.095318 0.518331 0.930118
0.095181 0.518194 0.994208
0.095954 0.584251 0.000000
0.095913 0.584210 0.005919
0.095763 0.584060 0.075932
0.095617 0.583914 0.144119
0.095472 0.583769 0.211407
0.095329 0.583626 0.278091
0.095187 0.583485 0.344319
0.095046 0.583343 0.410181
0.094906 0.583203 0.475737
0.094766 0.583063 0.541032
0.094626 0.582923 0.606098
0.094487 0.582784 0.670961
0.094349 0.582646 0.735640
0.094210 0.582508 0.800154
0.094073 0.582370 0.864514
0.093935 0.582232 0.928735
0.093798 0.582095 0.992825
0.094575 0.647944 0.000000
0.094534 0.647903 0.004540
0.094384 0.647753 0.074553
0.094238 0.647607 0.142740
0.094094 0.647462 0.210029
0.093951 0.647319 0.276712
0.093809 0.647177 0.342940
0.093668 0.647036 0.408802
0.093527 0.646896 0.474359
0.093387 0.646756 0.539654
0.093248 0.646616 0.604720
0.093109 0.646477 0.669582
0.092970 0.646339 0.734262
0.092832 0.646200 0.798775
0.092694 0.646063 0.863136
0.092556 0.645925 0.927356
0.092419 0.645788 0.991446
0.093201 0.711451 0.000000
0.093160 0.711410 0.003166
0.093010 0.711259 0.073179
0.092863 0.711113 0.141366
0.092719 0.710969 0.208654
0.092576 0.710826 0.275338
0.092434 0.710684 0.341565
0.092293 0.710543 0.407427
0.092153 0.710403 0.472984
0.092013 0.710263 0.538279
0.091873 0.710123 0.603345
0.091734 0.709984 0.668208
0.091596 0.709845 0.732887
0.091457 0.709707 0.797400
0.091319 0.709569 0.861761
0.091182 0.709432 0.925982
0.091044 0.709294 0.990072
0.091830 0.774789 0.000000
0.091789 0.774748 0.001795
0.091639 0.774598 0.071808
0.091493 0.774451 0.139995
0.091348 0.774307 0.207283
0.091205 0.774164 0.273967
0.091063 0.774022 0.340195
0.090922 0.773881 0.406056
0.090782 0.773741 0.471613
0.090642 0.773601 0.536908
0.090502 0.773461 0.601974
0.090363 0.773322 0.666837
0.090225 0.773184 0.731516
0.090086 0.773045 0.796029
0.089948 0.772907 0.860390
0.089811 0.772770 0.924611
0.089673 0.772632 0.988701
0.090462 0.837973 0.000000
0.090421 0.837932 0.000427
0.090271 0.837782 0.070440
0.090125 0.837636 0.138627
0.089981 0.837491 0.205916
0.089838 0.837348 0.272599
0.089696 0.837206 0.338827
0.089555 0.837065 0.404689
0.089414 0.836925 0.470246
0.089274 0.836785 0.535541
0.089135 0.836645 0.600607
0.088996 0.836506 0.665469
0.088857 0.836368 0.730149
0.088719 0.836229 0.794662
0.088581 0.836092 0.859023
0.088443 0.835954 0.923243
0.088306 0.835816 0.987333
0.089098 0.901015 0.000000
0.089057 0.900974 0.000000
0.088907 0.900824 0.069076
0.088760 0.900678 0.137263
0.088616 0.900534 0.204551
0.088473 0.900391 0.271235
0.088331 0.900249 0.337462
0.088190 0.900108 0.403324
0.088050 0.899967 0.468881
0.087910 0.899827 0.534176
0.087770 0.899688 0.599242
0.087631 0.899549 0.664105
0.087493 0.899410 0.728784
0.087354 0.899272 0.793297
0.087216 0.899134 0.857658
0.087079 0.898996 0.921879
0.086941 0.898859 0.985969
0.087736 0.963927 0.000000
0.087695 0.963885 0.000000
0.087545 0.963735 0.067714
0.087399 0.963589 0.135901
0.087255 0.963445 0.203190
0.087112 0.963302 0.269873
0.086970 0.963160 0.336101
0.086829 0.963019 0.401963
0.086688 0.962878 0.467519
0.086548 0.962738 0.532815
0.086409 0.962599 0.597881
0.086270 0.962460 0.662743
0.086131 0.962321 0.727423
0.085993 0.962183 0.791936
0.085855 0.962045 0.856297
0.085717 0.961907 0.920517
0.085580 0.961770 0.984607
0.086782 1.000000 0.000000
0.086741 1.000000 0.000000
0.086591 1.000000 0.066760
0.086445 1.000000 0.134947
0.086301 1.000000 0.202235
0.086158 1.000000 0.268919
0.086016 1.000000 0.335147
0.085874 1.000000 0.401009
0.085734 1.000000 0.466565
0.085594 1.000000 0.531860
0.085455 1.000000 0.596926
0.085316 1.000000 0.661789
0.085177 1.000000 0.726468
0.085039 1.000000 0.790982
0.084901 1.000000 0.855343
0.084763 1.000000 0.919563
0.084626 1.000000 0.983653
0.176213 0.000000 0.000000
0.176171 0.000000 0.018151
0.176021 0.000000 0.088164
0.175875 0.000000 0.156351
0.175731 0.000000 0.223639
0.175588 0.000000 0.290323
0.175446 0.000000 0.356551
0.175305 0.000000 0.422413
0.175164 0.000000 0.487969
0.175024 0.000000 0.553264
0.174885 0.000000 0.618330
0.174746 0.000000 0.683193
0.174607 0.000000 0.747873
0.174469 0.000000 0.812386
0.174331 0.000000 0.876747
0.174193 0.000000 0.940967
0.174056 0.000000 1.000000
0.174839 0.062332 0.000000
0.174798 0.062290 0.016778
0.174648 0.062140 0.086791
0.174502 0.061994 0.154978
0.174358 0.061850 0.222266
0.174215 0.061707 0.288950
0.174073 0.061565 0.355177
0.173932 0.061424 0.421039
0.173791 0.061283 0.486596
0.173651 0.061143 0.551891
0.173512 0.061004 0.616957
0.173373 0.060865 0.681820
0.173234 0.060726 0.746499
0.173096 0.060588 0.811012
0.172958 0.060450 0.875373
0.172820 0.060312 0.939594
0.172683 0.060175 1.000000
0.173382 0.129673 0.000000
0.173341 0.129631 0.015320
0.173190 0.129481 0.085333
0.173044 0.129335 0.153520
0.172900 0.129191 0.220809
0.172757 0.129048 0.287492
0.172615 0.128906 0.353720
0.172474 0.128765 0.419582
0.172334 0.128624 0.485139
0.172194 0.128484 0.550434
0.172054 0.128345 0.615500
0.171915 0.128206 0.680362
0.171776 0.128067 0.745042
0.171638 0.127929 0.809555
0.171500 0.127791 0.873916
0.171363 0.127653 0.938136
0.171225 0.127516 1.000000
0.171947 0.195944 0.000000
0.171906 0.195903 0.013886
0.171756 0.195753 0.083899
0.171610 0.195607 0.152086
0.171466 0.195463 0.219374
0.171323 0.195320 0.286058
0.171181 0.195178 0.352286
0.171040 0.195037 0.418147
0.170899 0.194896 0.483704
0.170759 0.194756 0.548999
0.170620 0.194617 0.614065
0.170481 0.194478 0.678928
0.170342 0.194339 0.743607
0.170204 0.194201 0.808120
0.170066 0.194063 0.872481
0.169928 0.193925 0.936702
0.169791 0.193788 1.000000
0.170528 0.261545 0.000000
0.170486 0.261504 0.012466
0.170336 0.261353 0.082479
0.170190 0.261207 0.150666
0.170046 0.261063 0.217954
0.169903 0.260920 0.284638
0.169761 0.260778 0.350866
0.169620 0.260637 0.416728
0.169479 0.260497 0.482284
0.169339 0.260357 0.547579
0.169200 0.260217 0.612645
0.169061 0.260078 0.677508
0.168922 0.259939 0.742187
0.168784 0.259801 0.806701
0.168646 0.259663 0.871061
0.168508 0.259526 0.935282
0.168371 0.259388 0.999372
0.169118 0.326655 0.000000
0.169077 0.326614 0.011057
0.168927 0.326464 0.081070
0.168781 0.326318 0.149257
0.168637 0.326173 0.216545
0.168494 0.326031 0.283229
0.168352 0.325889 0.349456
0.168211 0.325747 0.415318
0.168070 0.325607 0.480875
0.167930 0.325467 0.546170
0.167791 0.325328 0.611236
0.167652 0.325189 0.676099
0.167513 0.325050 0.740778
0.167375 0.324912 0.805291
0.167237 0.324774 0.869652
0.167099 0.324636 0.933873
0.166962 0.324499 0.997963
0.167717 0.391380 0.000000
0.167676 0.391338 0.009656
0.167526 0.391188 0.079669
0.167380 0.391042 0.147856
0.167236 0.390898 0.215144
0.167093 0.390755 0.281828
0.166951 0.390613 0.348055
0.166810 0.390472 0.413917
0.166669 0.390331 0.479474
0.166529 0.390191 0.544769
0.166390 0.390052 0.609835
0.166251 0.389913 0.674698
0.166112 0.389774 0.739377
0.165974 0.389636 0.803890
0.165836 0.389498 0.868251
0.165698 0.389361 0.932472
0.165561 0.389223 0.996562
0.166323 0.455786 0.000000
0.166282 0.455745 0.008262
0.166132 0.455595 0.078275
0.165986 0.455449 0.146462
0.165842 0.455304 0.213750
0.165699 0.455161 0.280434
0.165557 0.455019 0.346661
0.165416 0.454878 0.412523
0.165275 0.454738 0.478080
0.165135 0.454598 0.543375
0.164996 0.454458 0.608441
0.164857 0.454319 0.673304
0.164718 0.454181 0.737983
0.164580 0.454042 0.802496
0.164442 0.453904 0.866857
0.164304 0.453767 0.931078
0.164167 0.453629 0.995168
0.164935 0.519922 0.000000
0.164894 0.519881 0.006874
0.164744 0.519731 0.076886
0.164598 0.519584 0.145074
0.164453 0.519440 0.212362
0.164311 0.519297 0.279046
0.164169 0.519155 0.345273
0.164027 0.519014 0.411135
0.163887 0.518874 0.476692
0.163747 0.518734 0.541987
0.163607 0.518594 0.607053
0.163468 0.518455 0.671916
0.163330 0.518317 0.736595
0.163192 0.518178 0.801108
0.163054 0.518040 0.865469
0.162916 0.517903 0.929689
0.162779 0.517765 0.993780
0.163552 0.583823 0.000000
0.163511 0.583781 0.005491
0.163361 0.583631 0.075503
0.163215 0.583485 0.143691
0.163070 0.583341 0.210979
0.162927 0.583198 0.277662
0.162785 0.583056 0.343890
0.162644 0.582915 0.409752
0.162504 0.582774 0.475309
0.162364 0.582635 0.540604
0.162224 0.582495 0.605670
0.162085 0.582356 0.670532
0.161947 0.582217 0.735212
0.161808 0.582079 0.799725
0.161671 0.581941 0.864086
0.161533 0.581804 0.928306
0.161396 0.581666 0.992396
0.162173 0.647516 0.000000
0.162132 0.647474 0.004112
0.161982 0.647324 0.074125
0.161836 0.647178 0.142312
0.161692 0.647034 0.209600
0.161549 0.646891 0.276284
0.161407 0.646749 0.342512
0.161266 0.646608 0.408374
0.161125 0.646467 0.473930
0.160985 0.646327 0.539225
0.160846 0.646188 0.604291
0.160707 0.646049 0.669154
0.160568 0.645910 0.733833
0.160430 0.645772 0.798347
0.160292 0.645634 0.862707
0.160154 0.645496 0.926928
0.160017 0.645359 0.991018
0.160799 0.711022 0.000000
0.160758 0.710981 0.002737
0.160608 0.710831 0.072750
0.160461 0.710685 0.140937
0.160317 0.710541 0.208226
0.160174 0.710398 0.274909
0.160032 0.710256 0.341137
0.159891 0.710115 0.406999
0.159751 0.709974 0.472556
0.159611 0.709834 0.537851
0.159471 0.709695 0.602917
0.159332 0.709556 0.667779
0.159194 0.709417 0.732459
0.159055 0.709279 0.796972
0.158917 0.709141 0.861333
0.158780 0.709003 0.925553
0.158642 0.708866 0.989643
0.159428 0.774361 0.000000
0.159387 0.774319 0.001367
0.159237 0.774169 0.071379
0.159091 0.774023 0.139567
0.158946 0.773879 0.206855
0.158803 0.773736 0.273538
0.158661 0.773594 0.339766
0.158520 0.773453 0.405628
0.158380 0.773312 0.471185
0.158240 0.773172 0.536480
0.158100 0.773033 0.601546
0.157961 0.772894 0.666408
0.157823 0.772755 0.731088
0.157684 0.772617 0.795601
0.157546 0.772479 0.859962
0.157409 0.772341 0.924182
0.157271 0.772204 0.988272
0.158060 0.837545 0.000000
0.158019 0.837503 0.000000
0.157869 0.837353 0.070012
0.157723 0.837207 0.138199
0.157579 0.837063 0.205487
0.157436 0.836920 0.272171
0.157294 0.836778 0.338399
0.157153 0.836637 0.404260
0.157012 0.836496 0.469817
0.156872 0.836356 0.535112
0.156733 0.836217 0.600178
0.156594 0.836078 0.665041
0.156455 0.835939 0.729720
0.156317 0.835801 0.794234
0.156179 0.835663 0.858594
0.156041 0.835525 0.922815
0.155904 0.835388 0.986905
0.156696 0.900587 0.000000
0.156655 0.900546 0.000000
0.156505 0.900396 0.068647
0.156358 0.900249 0.136834
0.156214 0.900105 0.204123
0.156071 0.899962 0.270806
0.155929 0.899820 0.337034
0.155788 0.899679 0.402896
0.155648 0.899539 0.468453
0.155508 0.899399 0.533748
0.155368 0.899259 0.598814
0.155229 0.899120 0.663676
0.155091 0.898982 0.728356
0.154952 0.898843 0.792869
0.154814 0.898705 0.857230
0.154677 0.898568 0.921450
0.154539 0.898430 0.985540
0.155334 0.963498 0.000000
0.155293 0.963457 0.000000
0.155143 0.963307 0.067286
0.154997 0.963161 0.135473
0.154853 0.963016 0.202761
0.154710 0.962874 0.269445
0.154568 0.962732 0.335672
0.154427 0.962590 0.401534
0.154286 0.962450 0.467091
0.154146 0.962310 0.532386
0.154007 0.962170 0.597452
0.153868 0.962031 0.662315
0.153729 0.961893 0.726994
0.153591 0.961755 0.791507
0.153453 0.961617 0.855868
0.153315 0.961479 0.920089
0.153178 0.961342 0.984179
0.154380 1.000000 0.000000
0.154339 1.000000 0.000000
0.154189 1.000000 0.066331
0.154043 1.000000 0.134519
0.153899 1.000000 0.201807
0.153756 1.000000 0.268491
0.153614 1.000000 0.334718
0.153472 1.000000 0.400580
0.153332 1.000000 0.466137
0.153192 1.000000 0.531432
0.153053 1.000000 0.596498
0.152914 1.000000 0.661361
0.152775 1.000000 0.726040
0.152637 1.000000 0.790553
0.152499 1.000000 0.854914
0.152361 1.000000 0.919135
0.152224 1.000000 0.983225
0.243026 0.000000 0.000000
0.242985 0.000000 0.017728
0.242835 0.000000 0.087740
0.242688 0.000000 0.155928
0.242544 0.000000 0.223216
0.242401 0.000000 0.289900
0.242259 0.000000 0.356127
0.242118 0.000000 0.421989
0.241978 0.000000 0.487546
0.241838 0.000000 0.552841
0.241698 0.000000 0.617907
0.241559 0.000000 0.682770
0.241421 0.000000 0.747449
0.241282 0.000000 0.811962
0.241144 0.000000 0.876323
0.241007 0.000000 0.940544
0.240869 0.000000 1.000000
0.241653 0.061908 0.000000
