skills/unified-director/assets/grade/luts/warm_skin_v20.cube
TITLE "warm_skin_v20"
LUT_3D_SIZE 9
DOMAIN_MIN 0.0 0.0 0.0
DOMAIN_MAX 1.0 1.0 1.0
0.056305 0.000000 0.000000
0.056000 0.000000 0.073824
0.055412 0.000000 0.217132
0.054841 0.000000 0.356274
0.054279 0.000000 0.493131
0.053724 0.000000 0.628403
0.053174 0.000000 0.762465
0.052628 0.000000 0.895547
0.052085 0.000000 1.000000
0.050682 0.132593 0.000000
0.050377 0.132287 0.068201
0.049788 0.131699 0.211509
0.049218 0.131128 0.350651
0.048656 0.130566 0.487508
0.048101 0.130011 0.622780
0.047551 0.129461 0.756842
0.047005 0.128915 0.889924
0.046462 0.128372 1.000000
0.044948 0.268497 0.000000
0.044643 0.268191 0.062467
0.044055 0.267603 0.205775
0.043484 0.267032 0.344917
0.042922 0.266471 0.481774
0.042367 0.265916 0.617046
0.041817 0.265365 0.751108
0.041271 0.264819 0.884190
0.040728 0.264277 1.000000
0.039338 0.401465 0.000000
0.039033 0.401160 0.056857
0.038444 0.400572 0.200165
0.037873 0.400001 0.339307
0.037312 0.399439 0.476164
0.036757 0.398884 0.611436
0.036207 0.398334 0.745498
0.035661 0.397788 0.878580
0.035118 0.397245 1.000000
0.033806 0.532591 0.000000
0.033500 0.532285 0.051325
0.032912 0.531697 0.194633
0.032341 0.531126 0.333775
0.031780 0.530565 0.470631
0.031224 0.530010 0.605904
0.030674 0.529459 0.739965
0.030128 0.528913 0.873047
0.029585 0.528371 1.000000
0.028330 0.662373 0.000000
0.028025 0.662067 0.045849
0.027437 0.661479 0.189157
0.026866 0.660908 0.328299
0.026304 0.660346 0.465156
0.025749 0.659791 0.600428
0.025199 0.659241 0.734490
0.024653 0.658695 0.867572
0.024110 0.658152 0.999832
0.022899 0.791097 0.000000
0.022594 0.790791 0.040418
0.022005 0.790203 0.183726
0.021435 0.789632 0.322868
0.020873 0.789071 0.459725
0.020318 0.788516 0.594997
0.019768 0.787965 0.729059
0.019222 0.787419 0.862141
0.018679 0.786877 0.994401
0.017505 0.918952 0.000000
0.017199 0.918646 0.035024
0.016611 0.918058 0.178332
0.016040 0.917487 0.317474
0.015479 0.916925 0.454330
0.014924 0.916370 0.589603
0.014373 0.915820 0.723664
0.013827 0.915274 0.856746
0.013285 0.914731 0.989007
0.013393 1.000000 0.000000
0.013088 1.000000 0.030912
0.012500 1.000000 0.174220
0.011929 1.000000 0.313362
0.011367 1.000000 0.450219
0.010812 1.000000 0.585491
0.010262 1.000000 0.719553
0.009716 1.000000 0.852635
0.009173 1.000000 0.984895
0.199303 0.000000 0.000000
0.198997 0.000000 0.072083
0.198409 0.000000 0.215391
0.197838 0.000000 0.354533
0.197276 0.000000 0.491389
0.196721 0.000000 0.626662
0.196171 0.000000 0.760723
0.195625 0.000000 0.893805
0.195082 0.000000 1.000000
0.193680 0.130851 0.000000
0.193374 0.130545 0.066459
0.192786 0.129957 0.209767
0.192215 0.129386 0.348909
0.191653 0.128824 0.485766
0.191098 0.128269 0.621038
0.190548 0.127719 0.755100
0.190002 0.127173 0.888182
0.189459 0.126630 1.000000
0.187946 0.266755 0.000000
0.187640 0.266450 0.060725
0.187052 0.265861 0.204033
0.186481 0.265290 0.343176
0.185919 0.264729 0.480032
0.185364 0.264174 0.615304
0.184814 0.263624 0.749366
0.184268 0.263078 0.882448
0.183725 0.262535 1.000000
0.182335 0.399724 0.000000
0.182030 0.399418 0.055115
0.181442 0.398830 0.198423
0.180871 0.398259 0.337565
0.180309 0.397697 0.474422
0.179754 0.397142 0.609694
0.179204 0.396592 0.743756
0.178658 0.396046 0.876838
0.178115 0.395503 1.000000
0.176803 0.530849 0.000000
0.176497 0.530544 0.049583
0.175909 0.529955 0.192891
0.175338 0.529384 0.332033
0.174777 0.528823 0.468889
0.174222 0.528268 0.604162
0.173672 0.527718 0.738223
0.173125 0.527172 0.871305
0.172583 0.526629 1.000000
0.171328 0.660631 0.000000
0.171022 0.660325 0.044107
0.170434 0.659737 0.187415
0.169863 0.659166 0.326558
0.169301 0.658604 0.463414
0.168746 0.658049 0.598686
0.168196 0.657499 0.732748
0.167650 0.656953 0.865830
0.167107 0.656410 0.998090
0.165897 0.789355 0.000000
0.165591 0.789050 0.038676
0.165003 0.788462 0.181984
0.164432 0.787891 0.321126
0.163870 0.787329 0.457983
0.163315 0.786774 0.593255
0.162765 0.786224 0.727317
0.162219 0.785678 0.860399
0.161676 0.785135 0.992659
0.160502 0.917210 0.000000
0.160196 0.916904 0.033282
0.159608 0.916316 0.176590
0.159037 0.915745 0.315732
0.158476 0.915183 0.452589
0.157921 0.914628 0.587861
0.157371 0.914078 0.721923
0.156824 0.913532 0.855005
0.156282 0.912989 0.987265
0.156391 1.000000 0.000000
0.156085 1.000000 0.029171
0.155497 1.000000 0.172479
0.154926 1.000000 0.311621
0.154364 1.000000 0.448477
0.153809 1.000000 0.583750
0.153259 1.000000 0.717811
0.152713 1.000000 0.850893
0.152170 1.000000 0.983153
0.337687 0.000000 0.000000
0.337382 0.000000 0.070397
0.336793 0.000000 0.213705
0.336223 0.000000 0.352847
0.335661 0.000000 0.489703
0.335106 0.000000 0.624976
0.334556 0.000000 0.759037
0.334010 0.000000 0.892119
0.333467 0.000000 1.000000
0.332064 0.129165 0.000000
0.331758 0.128859 0.064774
0.331170 0.128271 0.208082
0.330599 0.127700 0.347224
0.330038 0.127139 0.484080
0.329483 0.126584 0.619353
0.328933 0.126034 0.753414
0.328386 0.125487 0.886496
0.327844 0.124945 1.000000
0.326330 0.265070 0.000000
0.326024 0.264764 0.059040
0.325436 0.264176 0.202348
0.324865 0.263605 0.341490
0.324304 0.263043 0.478346
0.323749 0.262488 0.613619
0.323199 0.261938 0.747680
0.322652 0.261392 0.880762
0.322110 0.260849 1.000000
0.320720 0.398038 0.000000
0.320414 0.397732 0.053430
0.319826 0.397144 0.196738
0.319255 0.396573 0.335880
0.318694 0.396012 0.472736
0.318139 0.395457 0.608009
0.317589 0.394906 0.742070
0.317042 0.394360 0.875152
0.316500 0.393818 1.000000
0.315188 0.529164 0.000000
0.314882 0.528858 0.047897
0.314294 0.528270 0.191205
0.313723 0.527699 0.330348
0.313161 0.527137 0.467204
0.312606 0.526582 0.602476
0.312056 0.526032 0.736538
0.311510 0.525486 0.869620
0.310967 0.524943 1.000000
0.309712 0.658945 0.000000
0.309406 0.658639 0.042422
0.308818 0.658051 0.185730
0.308247 0.657480 0.324872
0.307686 0.656919 0.461728
0.307131 0.656364 0.597001
0.306581 0.655814 0.731062
0.306034 0.655267 0.864144
0.305492 0.654725 0.996405
0.304281 0.787670 0.000000
0.303975 0.787364 0.036991
0.303387 0.786776 0.180299
0.302816 0.786205 0.319441
0.302255 0.785643 0.456297
0.301700 0.785088 0.591570
0.301150 0.784538 0.725631
0.300603 0.783992 0.858713
0.300061 0.783449 0.990974
0.298887 0.915524 0.000000
0.298581 0.915218 0.031597
0.297993 0.914630 0.174905
0.297422 0.914059 0.314047
0.296860 0.913498 0.450903
0.296305 0.912943 0.586175
0.295755 0.912392 0.720237
0.295209 0.911846 0.853319
0.294666 0.911304 0.985579
0.294775 1.000000 0.000000
0.294470 1.000000 0.027485
0.293881 1.000000 0.170793
0.293311 1.000000 0.309935
0.292749 1.000000 0.446791
0.292194 1.000000 0.582064
0.291644 1.000000 0.716125
0.291098 1.000000 0.849207
0.290555 1.000000 0.981468
0.473677 0.000000 0.000000
0.473371 0.000000 0.068741
0.472783 0.000000 0.212049
0.472212 0.000000 0.351191
0.471650 0.000000 0.488047
0.471095 0.000000 0.623319
0.470545 0.000000 0.757381
0.469999 0.000000 0.890463
0.469456 0.000000 1.000000
0.468054 0.127509 0.000000
0.467748 0.127203 0.063117
0.467160 0.126615 0.206425
0.466589 0.126044 0.345567
0.466027 0.125482 0.482424
0.465472 0.124927 0.617696
0.464922 0.124377 0.751758
0.464376 0.123831 0.884840
0.463833 0.123288 1.000000
0.462320 0.263413 0.000000
0.462014 0.263108 0.057383
0.461426 0.262519 0.200691
0.460855 0.261948 0.339834
0.460293 0.261387 0.476690
0.459738 0.260832 0.611962
0.459188 0.260282 0.746024
0.458642 0.259736 0.879106
0.458099 0.259193 1.000000
0.456710 0.396382 0.000000
0.456404 0.396076 0.051773
0.455816 0.395488 0.195081
0.455245 0.394917 0.334223
0.454683 0.394355 0.471080
0.454128 0.393800 0.606352
0.453578 0.393250 0.740414
0.453032 0.392704 0.873496
0.452489 0.392161 1.000000
0.451177 0.527507 0.000000
0.450872 0.527201 0.046241
0.450283 0.526613 0.189549
0.449712 0.526042 0.328691
0.449151 0.525481 0.465547
0.448596 0.524926 0.600820
0.448046 0.524376 0.734881
0.447500 0.523830 0.867963
0.446957 0.523287 1.000000
0.445702 0.657289 0.000000
0.445396 0.656983 0.040765
0.444808 0.656395 0.184073
0.444237 0.655824 0.323215
0.443675 0.655262 0.460072
0.443120 0.654707 0.595344
0.442570 0.654157 0.729406
0.442024 0.653611 0.862488
0.441481 0.653068 0.994748
0.440271 0.786013 0.000000
0.439965 0.785708 0.035334
0.439377 0.785119 0.178642
0.438806 0.784549 0.317784
0.438244 0.783987 0.454641
0.437689 0.783432 0.589913
0.437139 0.782882 0.723975
0.436593 0.782336 0.857057
0.436050 0.781793 0.989317
0.434876 0.913868 0.000000
0.434571 0.913562 0.029940
0.433983 0.912974 0.173248
0.433412 0.912403 0.312390
0.432850 0.911841 0.449246
0.432295 0.911286 0.584519
0.431745 0.910736 0.718580
0.431199 0.910190 0.851662
0.430656 0.909647 0.983923
0.430765 1.000000 0.000000
0.430459 1.000000 0.025829
0.429871 1.000000 0.169137
0.429300 1.000000 0.308279
0.428738 1.000000 0.445135
0.428183 1.000000 0.580407
0.427633 1.000000 0.714469
0.427087 1.000000 0.847551
0.426544 1.000000 0.979811
0.608035 0.000000 0.000000
0.607729 0.000000 0.067104
0.607141 0.000000 0.210412
0.606570 0.000000 0.349554
0.606009 0.000000 0.486410
0.605453 0.000000 0.621683
0.604903 0.000000 0.755744
0.604357 0.000000 0.888826
0.603815 0.000000 1.000000
0.602412 0.125872 0.000000
0.602106 0.125567 0.061481
0.601518 0.124978 0.204789
0.600947 0.124407 0.343931
0.600385 0.123846 0.480787
0.599830 0.123291 0.616060
0.599280 0.122741 0.750121
0.598734 0.122195 0.883203
0.598191 0.121652 1.000000
0.596678 0.261777 0.000000
0.596372 0.261471 0.055747
0.595784 0.260883 0.199055
0.595213 0.260312 0.338197
0.594651 0.259750 0.475053
0.594096 0.259195 0.610326
0.593546 0.258645 0.744387
0.593000 0.258099 0.877469
0.592457 0.257556 1.000000
0.591068 0.394745 0.000000
0.590762 0.394439 0.050137
0.590174 0.393851 0.193445
0.589603 0.393280 0.332587
0.589041 0.392719 0.469443
0.588486 0.392164 0.604716
0.587936 0.391613 0.738777
0.587390 0.391067 0.871859
0.586847 0.390525 1.000000
0.585535 0.525871 0.000000
0.585230 0.525565 0.044605
0.584642 0.524977 0.187913
0.584071 0.524406 0.327055
0.583509 0.523844 0.463911
0.582954 0.523289 0.599183
0.582404 0.522739 0.733245
0.581858 0.522193 0.866327
0.581315 0.521650 0.998587
0.580060 0.655652 0.000000
0.579754 0.655346 0.039129
0.579166 0.654758 0.182437
0.578595 0.654187 0.321579
0.578033 0.653626 0.458435
0.577478 0.653071 0.593708
0.576928 0.652521 0.727769
0.576382 0.651974 0.860851
0.575839 0.651432 0.993112
0.574629 0.784377 0.000000
0.574323 0.784071 0.033698
0.573735 0.783483 0.177006
0.573164 0.782912 0.316148
0.572602 0.782350 0.453004
0.572047 0.781795 0.588277
0.571497 0.781245 0.722338
0.570951 0.780699 0.855420
0.570408 0.780156 0.987681
0.569235 0.912231 0.000000
0.568929 0.911925 0.028304
0.568341 0.911337 0.171612
0.567770 0.910766 0.310754
0.567208 0.910205 0.447610
0.566653 0.909650 0.582882
0.566103 0.909100 0.716944
0.565557 0.908553 0.850026
0.565014 0.908011 0.982286
0.565123 1.000000 0.000000
0.564817 1.000000 0.024192
0.564229 1.000000 0.167500
0.563658 1.000000 0.306642
0.563097 1.000000 0.443498
0.562541 1.000000 0.578771
0.561991 1.000000 0.712832
0.561445 1.000000 0.845914
0.560903 1.000000 0.978175
0.741157 0.000000 0.000000
0.740851 0.000000 0.065483
0.740263 0.000000 0.208791
0.739692 0.000000 0.347933
0.739130 0.000000 0.484789
0.738575 0.000000 0.620061
0.738025 0.000000 0.754123
0.737479 0.000000 0.887205
0.736936 0.000000 1.000000
0.735534 0.124251 0.000000
0.735228 0.123945 0.059859
0.734640 0.123357 0.203167
0.734069 0.122786 0.342309
0.733507 0.122224 0.479166
0.732952 0.121669 0.614438
0.732402 0.121119 0.748500
0.731856 0.120573 0.881582
0.731313 0.120030 1.000000
0.729800 0.260155 0.000000
0.729494 0.259849 0.054125
0.728906 0.259261 0.197433
0.728335 0.258690 0.336575
0.727773 0.258129 0.473432
0.727218 0.257574 0.608704
0.726668 0.257024 0.742766
0.726122 0.256477 0.875848
0.725579 0.255935 1.000000
0.724190 0.393124 0.000000
0.723884 0.392818 0.048515
0.723296 0.392230 0.191823
0.722725 0.391659 0.330965
0.722163 0.391097 0.467822
0.721608 0.390542 0.603094
0.721058 0.389992 0.737156
0.720512 0.389446 0.870238
0.719969 0.388903 1.000000
0.718657 0.524249 0.000000
0.718352 0.523943 0.042983
0.717763 0.523355 0.186291
0.717192 0.522784 0.325433
0.716631 0.522223 0.462289
0.716076 0.521668 0.597562
0.715526 0.521118 0.731623
0.714980 0.520571 0.864705
0.714437 0.520029 0.996966
0.713182 0.654031 0.000000
0.712876 0.653725 0.037507
0.712288 0.653137 0.180815
0.711717 0.652566 0.319957
0.711155 0.652004 0.456814
0.710600 0.651449 0.592086
0.710050 0.650899 0.726148
0.709504 0.650353 0.859230
0.708961 0.649810 0.991490
0.707751 0.782755 0.000000
0.707445 0.782450 0.032076
0.706857 0.781861 0.175384
0.706286 0.781290 0.314526
0.705724 0.780729 0.451383
0.705169 0.780174 0.586655
0.704619 0.779624 0.720717
0.704073 0.779078 0.853799
0.703530 0.778535 0.986059
0.702356 0.910610 0.000000
0.702051 0.910304 0.026682
0.701463 0.909716 0.169990
0.700892 0.909145 0.309132
0.700330 0.908583 0.445988
0.699775 0.908028 0.581261
0.699225 0.907478 0.715322
0.698679 0.906932 0.848404
0.698136 0.906389 0.980665
0.698245 1.000000 0.000000
0.697939 1.000000 0.022571
0.697351 1.000000 0.165879
0.696780 1.000000 0.305021
0.696218 1.000000 0.441877
0.695663 1.000000 0.577149
0.695113 1.000000 0.711211
0.694567 1.000000 0.844293
0.694024 1.000000 0.976553
0.873284 0.000000 0.000000
0.872978 0.000000 0.063873
0.872390 0.000000 0.207181
0.871819 0.000000 0.346323
0.871258 0.000000 0.483180
0.870703 0.000000 0.618452
0.870152 0.000000 0.752514
0.869606 0.000000 0.885596
0.869064 0.000000 1.000000
0.867661 0.122641 0.000000
0.867355 0.122336 0.058250
0.866767 0.121748 0.201558
0.866196 0.121177 0.340700
0.865635 0.120615 0.477556
0.865079 0.120060 0.612829
0.864529 0.119510 0.746890
0.863983 0.118964 0.879972
0.863440 0.118421 1.000000
0.861927 0.258546 0.000000
0.861621 0.258240 0.052516
0.861033 0.257652 0.195824
0.860462 0.257081 0.334966
0.859901 0.256519 0.471822
0.859345 0.255964 0.607095
0.858795 0.255414 0.741156
0.858249 0.254868 0.874238
0.857706 0.254325 1.000000
0.856317 0.391514 0.000000
0.856011 0.391208 0.046906
0.855423 0.390620 0.190214
0.854852 0.390049 0.329356
0.854290 0.389488 0.466212
0.853735 0.388933 0.601485
0.853185 0.388383 0.735546
0.852639 0.387836 0.868628
0.852096 0.387294 1.000000
0.850785 0.522640 0.000000
0.850479 0.522334 0.041374
0.849891 0.521746 0.184682
0.849320 0.521175 0.323824
0.848758 0.520613 0.460680
0.848203 0.520058 0.595953
0.847653 0.519508 0.730014
0.847107 0.518962 0.863096
0.846564 0.518419 0.995356
0.845309 0.652421 0.000000
0.845003 0.652116 0.035898
0.844415 0.651528 0.179206
0.843844 0.650957 0.318348
0.843283 0.650395 0.455204
0.842727 0.649840 0.590477
0.842177 0.649290 0.724538
0.841631 0.648744 0.857620
0.841088 0.648201 0.989881
0.839878 0.781146 0.000000
0.839572 0.780840 0.030467
0.838984 0.780252 0.173775
0.838413 0.779681 0.312917
0.837852 0.779119 0.449773
0.837296 0.778564 0.585046
0.836746 0.778014 0.719107
0.836200 0.777468 0.852189
0.835657 0.776925 0.984450
0.834484 0.909000 0.000000
0.834178 0.908695 0.025073
0.833590 0.908106 0.168381
0.833019 0.907535 0.307523
0.832457 0.906974 0.444379
0.831902 0.906419 0.579652
0.831352 0.905869 0.713713
0.830806 0.905323 0.846795
0.830263 0.904780 0.979056
0.830372 1.000000 0.000000
0.830066 1.000000 0.020961
0.829478 1.000000 0.164269
0.828907 1.000000 0.303411
0.828346 1.000000 0.440268
0.827791 1.000000 0.575540
0.827240 1.000000 0.709602
0.826694 1.000000 0.842684
0.826152 1.000000 0.974944
1.000000 0.000000 0.000000
1.000000 0.000000 0.062274
1.000000 0.000000 0.205582
1.000000 0.000000 0.344724
1.000000 0.000000 0.481580
1.000000 0.000000 0.616853
1.000000 0.000000 0.750914
1.000000 0.000000 0.883996
1.000000 0.000000 1.000000
0.998957 0.121042 0.000000
0.998651 0.120736 0.056651
0.998063 0.120148 0.199959
0.997492 0.119577 0.339101
0.996931 0.119016 0.475957
0.996376 0.118461 0.611230
0.995825 0.117910 0.745291
0.995279 0.117364 0.878373
0.994737 0.116822 1.000000
0.993223 0.256947 0.000000
0.992917 0.256641 0.050917
0.992329 0.256053 0.194225
0.991758 0.255482 0.333367
0.991197 0.254920 0.470223
0.990642 0.254365 0.605496
0.990092 0.253815 0.739557
0.989545 0.253269 0.872639
0.989003 0.252726 1.000000
0.987613 0.389915 0.000000
0.987307 0.389609 0.045307
0.986719 0.389021 0.188615
0.986148 0.388450 0.327757
0.985587 0.387889 0.464613
0.985032 0.387333 0.599886
0.984481 0.386783 0.733947
0.983935 0.386237 0.867029
0.983393 0.385694 0.999290
0.982081 0.521041 0.000000
0.981775 0.520735 0.039774
0.981187 0.520147 0.183082
0.980616 0.519576 0.322224
0.980054 0.519014 0.459081
0.979499 0.518459 0.594353
0.978949 0.517909 0.728415
0.978403 0.517363 0.861497
0.977860 0.516820 0.993757
0.976605 0.650822 0.000000
0.976299 0.650516 0.034299
0.975711 0.649928 0.177607
0.975140 0.649357 0.316749
0.974579 0.648796 0.453605
0.974024 0.648241 0.588878
0.973474 0.647690 0.722939
0.972927 0.647144 0.856021
0.972385 0.646602 0.988282
0.971174 0.779547 0.000000
0.970868 0.779241 0.028868
0.970280 0.778653 0.172176
0.969709 0.778082 0.311318
0.969148 0.777520 0.448174
0.968593 0.776965 0.583447
0.968043 0.776415 0.717508
0.967496 0.775869 0.850590
0.966954 0.775326 0.982851
0.965780 0.907401 0.000000
0.965474 0.907095 0.023473
0.964886 0.906507 0.166781
0.964315 0.905936 0.305923
0.963753 0.905375 0.442780
0.963198 0.904820 0.578052
0.962648 0.904269 0.712114
0.962102 0.903723 0.845196
0.961559 0.903181 0.977456
0.961668 1.000000 0.000000
0.961363 1.000000 0.019362
0.960774 1.000000 0.162670
0.960203 1.000000 0.301812
0.959642 1.000000 0.438668
0.959087 1.000000 0.573941
0.958537 1.000000 0.708002
0.957991 1.000000 0.841084
0.957448 1.000000 0.973345
1.000000 0.000000 0.000000
1.000000 0.000000 0.061754
1.000000 0.000000 0.205062
1.000000 0.000000 0.344204
1.000000 0.000000 0.481061
1.000000 0.000000 0.616333
1.000000 0.000000 0.750395
1.000000 0.000000 0.883477
1.000000 0.000000 1.000000
1.000000 0.120522 0.000000
1.000000 0.120217 0.056131
1.000000 0.119629 0.199439
1.000000 0.119058 0.338581
1.000000 0.118496 0.475437
1.000000 0.117941 0.610710
1.000000 0.117391 0.744771
1.000000 0.116845 0.877853
1.000000 0.116302 1.000000
1.000000 0.256427 0.000000
1.000000 0.256121 0.050397
1.000000 0.255533 0.193705
1.000000 0.254962 0.332847
1.000000 0.254401 0.469703
1.000000 0.253845 0.604976
1.000000 0.253295 0.739037
1.000000 0.252749 0.872119
1.000000 0.252206 1.000000
1.000000 0.389395 0.000000
1.000000 0.389089 0.044787
1.000000 0.388501 0.188095
1.000000 0.387930 0.327237
1.000000 0.387369 0.464093
1.000000 0.386814 0.599366
1.000000 0.386264 0.733427
1.000000 0.385717 0.866509
1.000000 0.385175 0.998770
1.000000 0.520521 0.000000
1.000000 0.520215 0.039255
1.000000 0.519627 0.182563
1.000000 0.519056 0.321705
1.000000 0.518494 0.458561
1.000000 0.517939 0.593834
1.000000 0.517389 0.727895
1.000000 0.516843 0.860977
1.000000 0.516300 0.993238
1.000000 0.650302 0.000000
1.000000 0.649997 0.033779
1.000000 0.649409 0.177087
1.000000 0.648838 0.316229
1.000000 0.648276 0.453085
1.000000 0.647721 0.588358
1.000000 0.647171 0.722419
1.000000 0.646625 0.855501
1.000000 0.646082 0.987762
1.000000 0.779027 0.000000
1.000000 0.778721 0.028348
1.000000 0.778133 0.171656
1.000000 0.777562 0.310798
1.000000 0.777001 0.447654
1.000000 0.776445 0.582927
1.000000 0.775895 0.716988
1.000000 0.775349 0.850070
1.000000 0.774806 0.982331
1.000000 0.906881 0.000000
1.000000 0.906576 0.022954
1.000000 0.905988 0.166262
1.000000 0.905417 0.305404
1.000000 0.904855 0.442260
1.000000 0.904300 0.577533
1.000000 0.903750 0.711594
1.000000 0.903204 0.844676
1.000000 0.902661 0.976937
1.000000 1.000000 0.000000
1.000000 1.000000 0.018842
1.000000 1.000000 0.162150
1.000000 1.000000 0.301292
1.000000 1.000000 0.438149
1.000000 1.000000 0.573421
1.000000 1.000000 0.707483
1.000000 1.000000 0.840565
1.000000 1.000000 0.972825
