skills/unified-director/assets/grade/luts/warm_skin_v13.cube
TITLE "warm_skin_v13"
LUT_3D_SIZE 5
DOMAIN_MIN 0.0 0.0 0.0
DOMAIN_MAX 1.0 1.0 1.0
0.039630 0.000000 0.000000
0.039148 0.000000 0.224505
0.038582 0.000000 0.488835
0.038024 0.000000 0.748738
0.037473 0.000000 1.000000
0.033945 0.262410 0.000000
0.033463 0.261929 0.218820
0.032896 0.261362 0.483150
0.032339 0.260805 0.743053
0.031788 0.260254 1.000000
0.028352 0.520788 0.000000
0.027871 0.520306 0.213228
0.027304 0.519739 0.477558
0.026747 0.519182 0.737461
0.026196 0.518631 0.994645
0.022845 0.775226 0.000000
0.022363 0.774744 0.207720
0.021797 0.774178 0.472050
0.021240 0.773621 0.731953
0.020689 0.773070 0.989138
0.017797 1.000000 0.000000
0.017316 1.000000 0.202673
0.016749 1.000000 0.467003
0.016192 1.000000 0.726906
0.015641 1.000000 0.984090
0.309289 0.000000 0.000000
0.308807 0.000000 0.222796
0.308241 0.000000 0.487126
0.307684 0.000000 0.747029
0.307132 0.000000 1.000000
0.303604 0.260701 0.000000
0.303122 0.260220 0.217111
0.302556 0.259653 0.481441
0.301998 0.259096 0.741344
0.301447 0.258545 0.998529
0.298011 0.519079 0.000000
0.297530 0.518597 0.211519
0.296963 0.518030 0.475849
0.296406 0.517473 0.735752
0.295855 0.516922 0.992936
0.292504 0.773517 0.000000
0.292023 0.773035 0.206011
0.291456 0.772469 0.470341
0.290899 0.771912 0.730245
0.290348 0.771361 0.987429
0.287456 1.000000 0.000000
0.286975 1.000000 0.200964
0.286408 1.000000 0.465294
0.285851 1.000000 0.725197
0.285300 1.000000 0.982381
0.570781 0.000000 0.000000
0.570299 0.000000 0.221139
0.569733 0.000000 0.485469
0.569176 0.000000 0.745372
0.568624 0.000000 1.000000
0.565096 0.259044 0.000000
0.564614 0.258562 0.215454
0.564048 0.257996 0.479784
0.563491 0.257439 0.739687
0.562939 0.256888 0.996871
0.559504 0.517421 0.000000
0.559022 0.516940 0.209861
0.558455 0.516373 0.474191
0.557898 0.515816 0.734094
0.557347 0.515265 0.991279
0.553996 0.771860 0.000000
0.553515 0.771378 0.204354
0.552948 0.770812 0.468684
0.552391 0.770255 0.728587
0.551840 0.769703 0.985772
0.548949 1.000000 0.000000
0.548467 1.000000 0.199306
0.547900 1.000000 0.463636
0.547343 1.000000 0.723539
0.546792 1.000000 0.980724
0.828613 0.000000 0.000000
0.828131 0.000000 0.219505
0.827564 0.000000 0.483835
0.827007 0.000000 0.743738
0.826456 0.000000 1.000000
0.822927 0.257410 0.000000
0.822446 0.256928 0.213820
0.821879 0.256362 0.478150
0.821322 0.255805 0.738053
0.820771 0.255254 0.995237
0.817335 0.515787 0.000000
0.816853 0.515306 0.208227
0.816287 0.514739 0.472557
0.815730 0.514182 0.732460
0.815179 0.513631 0.989645
0.811828 0.770226 0.000000
0.811346 0.769744 0.202720
0.810780 0.769178 0.467050
0.810223 0.768621 0.726953
0.809671 0.768069 0.984138
0.806780 1.000000 0.000000
0.806298 1.000000 0.197672
0.805732 1.000000 0.462002
0.805175 1.000000 0.721905
0.804624 1.000000 0.979090
1.000000 0.000000 0.000000
1.000000 0.000000 0.218266
1.000000 0.000000 0.482596
1.000000 0.000000 0.742499
1.000000 0.000000 0.999684
1.000000 0.256172 0.000000
1.000000 0.255690 0.212581
1.000000 0.255123 0.476911
1.000000 0.254566 0.736814
1.000000 0.254015 0.993999
1.000000 0.514549 0.000000
1.000000 0.514067 0.206989
1.000000 0.513501 0.471319
1.000000 0.512943 0.731222
1.000000 0.512392 0.988406
1.000000 0.768987 0.000000
1.000000 0.768506 0.201482
1.000000 0.767939 0.465812
1.000000 0.767382 0.725715
1.000000 0.766831 0.982899
1.000000 1.000000 0.000000
1.000000 1.000000 0.196434
1.000000 1.000000 0.460764
1.000000 1.000000 0.720667
1.000000 1.000000 0.977851
