skills/unified-director/assets/grade/luts/warm_skin_v02.cube
TITLE "warm_skin_v02"
LUT_3D_SIZE 9
DOMAIN_MIN 0.0 0.0 0.0
DOMAIN_MAX 1.0 1.0 1.0
0.017207 0.000058 0.000058
0.017333 0.000184 0.108851
0.017477 0.000328 0.233412
0.017620 0.000472 0.357156
0.017762 0.000614 0.480389
0.017905 0.000756 0.603249
0.018046 0.000898 0.725815
0.018188 0.001040 0.848137
0.018329 0.001181 0.970252
0.018650 0.127265 0.001501
0.018776 0.127391 0.110294
0.018920 0.127535 0.234855
0.019063 0.127678 0.358599
0.019205 0.127821 0.481832
0.019348 0.127963 0.604692
0.019489 0.128104 0.727258
0.019631 0.128246 0.849580
0.019772 0.128387 0.971695
0.020076 0.252963 0.002927
0.020201 0.253088 0.111720
0.020346 0.253233 0.236281
0.020489 0.253376 0.360025
0.020631 0.253518 0.483258
0.020773 0.253660 0.606118
0.020915 0.253802 0.728683
0.021057 0.253944 0.851006
0.021198 0.254085 0.973121
0.021493 0.377899 0.004345
0.021619 0.378025 0.113137
0.021763 0.378169 0.237698
0.021906 0.378312 0.361442
0.022049 0.378455 0.484675
0.022191 0.378597 0.607535
0.022333 0.378739 0.730101
0.022474 0.378880 0.852423
0.022615 0.379022 0.974538
0.022905 0.502344 0.005756
0.023030 0.502470 0.114549
0.023174 0.502614 0.239109
0.023318 0.502757 0.362854
0.023460 0.502900 0.486087
0.023602 0.503042 0.608947
0.023744 0.503184 0.731512
0.023886 0.503325 0.853835
0.024027 0.503467 0.975950
0.024312 0.626425 0.007164
0.024438 0.626551 0.115957
0.024582 0.626695 0.240517
0.024725 0.626839 0.364261
0.024868 0.626981 0.487495
0.025010 0.627123 0.610355
0.025152 0.627265 0.732920
0.025293 0.627407 0.855242
0.025435 0.627548 0.977357
0.025716 0.750217 0.008568
0.025842 0.750343 0.117361
0.025986 0.750487 0.241921
0.026129 0.750631 0.365666
0.026272 0.750773 0.488899
0.026414 0.750915 0.611759
0.026556 0.751057 0.734324
0.026697 0.751199 0.856646
0.026839 0.751340 0.978761
0.027118 0.873769 0.009970
0.027244 0.873895 0.118762
0.027388 0.874039 0.243323
0.027531 0.874183 0.367067
0.027674 0.874325 0.490300
0.027816 0.874467 0.613160
0.027957 0.874609 0.735726
0.028099 0.874751 0.858048
0.028240 0.874892 0.980163
0.028499 0.995562 0.011351
0.028625 0.995688 0.120144
0.028769 0.995832 0.244704
0.028913 0.995975 0.368449
0.029055 0.996117 0.491682
0.029197 0.996260 0.614542
0.029339 0.996401 0.737107
0.029481 0.996543 0.859429
0.029622 0.996684 0.981545
0.143320 0.000487 0.000487
0.143445 0.000613 0.109280
0.143590 0.000757 0.233840
0.143733 0.000900 0.357585
0.143875 0.001043 0.480818
0.144017 0.001185 0.603678
0.144159 0.001327 0.726243
0.144301 0.001468 0.848565
0.144442 0.001610 0.970681
0.144763 0.127693 0.001930
0.144888 0.127819 0.110723
0.145033 0.127963 0.235283
0.145176 0.128107 0.359028
0.145318 0.128249 0.482261
0.145460 0.128391 0.605121
0.145602 0.128533 0.727686
0.145744 0.128675 0.850008
0.145885 0.128816 0.972124
0.146188 0.253391 0.003356
0.146314 0.253517 0.112149
0.146458 0.253661 0.236709
0.146602 0.253804 0.360453
0.146744 0.253947 0.483687
0.146886 0.254089 0.606547
0.147028 0.254231 0.729112
0.147170 0.254372 0.851434
0.147311 0.254514 0.973549
0.147606 0.378328 0.004773
0.147732 0.378454 0.113566
0.147876 0.378598 0.238126
0.148019 0.378741 0.361871
0.148161 0.378883 0.485104
0.148303 0.379026 0.607964
0.148445 0.379167 0.730529
0.148587 0.379309 0.852852
0.148728 0.379450 0.974967
0.149017 0.502773 0.006185
0.149143 0.502899 0.114978
0.149287 0.503043 0.239538
0.149430 0.503186 0.363282
0.149573 0.503329 0.486516
0.149715 0.503471 0.609376
0.149857 0.503613 0.731941
0.149998 0.503754 0.854263
0.150140 0.503895 0.976378
0.150425 0.626854 0.007592
0.150551 0.626980 0.116385
0.150695 0.627124 0.240946
0.150838 0.627267 0.364690
0.150981 0.627410 0.487923
0.151123 0.627552 0.610783
0.151264 0.627694 0.733349
0.151406 0.627835 0.855671
0.151547 0.627977 0.977786
0.151829 0.750646 0.008997
0.151955 0.750772 0.117790
0.152099 0.750916 0.242350
0.152242 0.751059 0.366094
0.152385 0.751202 0.489328
0.152527 0.751344 0.612187
0.152669 0.751486 0.734753
0.152810 0.751627 0.857075
0.152952 0.751769 0.979190
0.153231 0.874198 0.010398
0.153356 0.874324 0.119191
0.153501 0.874468 0.243751
0.153644 0.874611 0.367496
0.153786 0.874754 0.490729
0.153928 0.874896 0.613589
0.154070 0.875038 0.736154
0.154212 0.875179 0.858477
0.154353 0.875321 0.980592
0.154612 0.995990 0.011780
0.154738 0.996116 0.120573
0.154882 0.996260 0.245133
0.155025 0.996403 0.368877
0.155168 0.996546 0.492111
0.155310 0.996688 0.614971
0.155452 0.996830 0.737536
0.155593 0.996971 0.859858
0.155735 0.997113 0.981973
0.267884 0.000911 0.000911
0.268010 0.001036 0.109703
0.268154 0.001181 0.234264
0.268297 0.001324 0.358008
0.268440 0.001466 0.481241
0.268582 0.001608 0.604101
0.268724 0.001750 0.726667
0.268865 0.001892 0.848989
0.269007 0.002033 0.971104
0.269327 0.128117 0.002354
0.269453 0.128243 0.111146
0.269597 0.128387 0.235707
0.269740 0.128530 0.359451
0.269883 0.128673 0.482684
0.270025 0.128815 0.605544
0.270167 0.128957 0.728110
0.270308 0.129098 0.850432
0.270450 0.129239 0.972547
0.270753 0.253815 0.003779
0.270879 0.253940 0.112572
0.271023 0.254085 0.237133
0.271166 0.254228 0.360877
0.271309 0.254370 0.484110
0.271451 0.254512 0.606970
0.271593 0.254654 0.729536
0.271734 0.254796 0.851858
0.271876 0.254937 0.973973
0.272170 0.378751 0.005197
0.272296 0.378877 0.113990
0.272440 0.379021 0.238550
0.272584 0.379164 0.362294
0.272726 0.379307 0.485528
0.272868 0.379449 0.608387
0.273010 0.379591 0.730953
0.273152 0.379732 0.853275
0.273293 0.379874 0.975390
0.273582 0.503196 0.006608
0.273708 0.503322 0.115401
0.273852 0.503466 0.239961
0.273995 0.503609 0.363706
0.274138 0.503752 0.486939
0.274280 0.503894 0.609799
0.274422 0.504036 0.732364
0.274563 0.504177 0.854687
0.274705 0.504319 0.976802
0.274990 0.627277 0.008016
0.275115 0.627403 0.116809
0.275260 0.627547 0.241369
0.275403 0.627691 0.365113
0.275545 0.627833 0.488347
0.275687 0.627975 0.611207
0.275829 0.628117 0.733772
0.275971 0.628259 0.856094
0.276112 0.628400 0.978209
0.276394 0.751069 0.009420
0.276520 0.751195 0.118213
0.276664 0.751339 0.242773
0.276807 0.751483 0.366518
0.276950 0.751625 0.489751
0.277092 0.751767 0.612611
0.277233 0.751909 0.735176
0.277375 0.752051 0.857498
0.277516 0.752192 0.979614
0.277795 0.874621 0.010822
0.277921 0.874747 0.119614
0.278065 0.874891 0.244175
0.278208 0.875035 0.367919
0.278351 0.875177 0.491152
0.278493 0.875319 0.614012
0.278635 0.875461 0.736578
0.278777 0.875603 0.858900
0.278918 0.875744 0.981015
0.279177 0.996414 0.012203
0.279303 0.996540 0.120996
0.279447 0.996684 0.245556
0.279590 0.996827 0.369301
0.279733 0.996969 0.492534
0.279875 0.997112 0.615394
0.280017 0.997253 0.737959
0.280158 0.997395 0.860282
0.280299 0.997536 0.982397
0.391747 0.001332 0.001332
0.391873 0.001457 0.110124
0.392017 0.001602 0.234685
0.392160 0.001745 0.358429
0.392303 0.001887 0.481662
0.392445 0.002029 0.604522
0.392587 0.002171 0.727088
0.392728 0.002313 0.849410
0.392870 0.002454 0.971525
0.393190 0.128538 0.002775
0.393316 0.128664 0.111567
0.393460 0.128808 0.236128
0.393603 0.128951 0.359872
0.393746 0.129094 0.483105
0.393888 0.129236 0.605965
0.394030 0.129378 0.728531
0.394171 0.129519 0.850853
0.394313 0.129660 0.972968
0.394616 0.254236 0.004200
0.394742 0.254362 0.112993
0.394886 0.254506 0.237554
0.395029 0.254649 0.361298
0.395172 0.254791 0.484531
0.395314 0.254933 0.607391
0.395456 0.255075 0.729957
0.395597 0.255217 0.852279
0.395739 0.255358 0.974394
0.396033 0.379172 0.005618
0.396159 0.379298 0.114411
0.396303 0.379442 0.238971
0.396447 0.379585 0.362715
0.396589 0.379728 0.485949
0.396731 0.379870 0.608808
0.396873 0.380012 0.731374
0.397015 0.380153 0.853696
0.397156 0.380295 0.975811
0.397445 0.503617 0.007029
0.397571 0.503743 0.115822
0.397715 0.503887 0.240383
0.397858 0.504030 0.364127
0.398001 0.504173 0.487360
0.398143 0.504315 0.610220
0.398285 0.504457 0.732785
0.398426 0.504598 0.855108
0.398567 0.504740 0.977223
0.398853 0.627698 0.008437
0.398978 0.627824 0.117230
0.399123 0.627968 0.241790
0.399266 0.628112 0.365534
0.399408 0.628254 0.488768
0.399550 0.628396 0.611628
0.399692 0.628538 0.734193
0.399834 0.628680 0.856515
0.399975 0.628821 0.978630
0.400257 0.751490 0.009841
0.400383 0.751616 0.118634
0.400527 0.751760 0.243194
0.400670 0.751904 0.366939
0.400813 0.752046 0.490172
0.400955 0.752188 0.613032
0.401096 0.752330 0.735597
0.401238 0.752472 0.857919
0.401379 0.752613 0.980035
0.401658 0.875042 0.011243
0.401784 0.875168 0.120036
0.401928 0.875312 0.244596
0.402071 0.875456 0.368340
0.402214 0.875598 0.491574
0.402356 0.875740 0.614433
0.402498 0.875882 0.736999
0.402640 0.876024 0.859321
0.402781 0.876165 0.981436
0.403040 0.996835 0.012624
0.403166 0.996961 0.121417
0.403310 0.997105 0.245977
0.403453 0.997248 0.369722
0.403596 0.997390 0.492955
0.403738 0.997533 0.615815
0.403880 0.997674 0.738380
0.404021 0.997816 0.860703
0.404162 0.997957 0.982818
0.515145 0.001751 0.001751
0.515271 0.001877 0.110544
0.515415 0.002021 0.235104
0.515558 0.002164 0.358849
0.515701 0.002307 0.482082
0.515843 0.002449 0.604942
0.515985 0.002591 0.727507
0.516126 0.002732 0.849829
0.516268 0.002873 0.971944
0.516588 0.128957 0.003194
0.516714 0.129083 0.111987
0.516858 0.129227 0.236547
0.517001 0.129370 0.360292
0.517144 0.129513 0.483525
0.517286 0.129655 0.606385
0.517428 0.129797 0.728950
0.517569 0.129939 0.851272
0.517711 0.130080 0.973387
0.518014 0.254655 0.004620
0.518140 0.254781 0.113413
0.518284 0.254925 0.237973
0.518427 0.255068 0.361717
0.518570 0.255211 0.484951
0.518712 0.255353 0.607811
0.518854 0.255495 0.730376
0.518995 0.255636 0.852698
0.519136 0.255778 0.974813
0.519431 0.379592 0.006037
0.519557 0.379717 0.114830
0.519701 0.379862 0.239390
0.519844 0.380005 0.363135
0.519987 0.380147 0.486368
0.520129 0.380289 0.609228
0.520271 0.380431 0.731793
0.520412 0.380573 0.854115
0.520554 0.380714 0.976231
0.520843 0.504037 0.007449
0.520969 0.504163 0.116242
0.521113 0.504307 0.240802
0.521256 0.504450 0.364546
0.521399 0.504592 0.487780
0.521541 0.504735 0.610640
0.521683 0.504876 0.733205
0.521824 0.505018 0.855527
0.521965 0.505159 0.977642
0.522250 0.628118 0.008856
0.522376 0.628244 0.117649
0.522520 0.628388 0.242209
0.522664 0.628531 0.365954
0.522806 0.628674 0.489187
0.522948 0.628816 0.612047
0.523090 0.628958 0.734612
0.523232 0.629099 0.856935
0.523373 0.629240 0.979050
0.523655 0.751910 0.010261
0.523781 0.752036 0.119053
0.523925 0.752180 0.243614
0.524068 0.752323 0.367358
0.524210 0.752466 0.490591
0.524353 0.752608 0.613451
0.524494 0.752750 0.736017
0.524636 0.752891 0.858339
0.524777 0.753032 0.980454
0.525056 0.875462 0.011662
0.525182 0.875588 0.120455
0.525326 0.875732 0.245015
0.525469 0.875875 0.368760
0.525612 0.876018 0.491993
0.525754 0.876160 0.614853
0.525896 0.876302 0.737418
0.526037 0.876443 0.859740
0.526179 0.876584 0.981856
0.526438 0.997254 0.013044
0.526564 0.997380 0.121837
0.526708 0.997524 0.246397
0.526851 0.997667 0.370141
0.526993 0.997810 0.493375
0.527136 0.997952 0.616234
0.527277 0.998094 0.738800
0.527419 0.998235 0.861122
0.527560 0.998377 0.983237
0.638194 0.002169 0.002169
0.638320 0.002295 0.110962
0.638464 0.002439 0.235522
0.638607 0.002582 0.359267
0.638750 0.002725 0.482500
0.638892 0.002867 0.605360
0.639034 0.003009 0.727925
0.639175 0.003150 0.850248
0.639317 0.003292 0.972363
0.639637 0.129376 0.003612
0.639763 0.129501 0.112405
0.639907 0.129646 0.236965
0.640050 0.129789 0.360710
0.640193 0.129931 0.483943
0.640335 0.130073 0.606803
0.640477 0.130215 0.729368
0.640618 0.130357 0.851691
0.640760 0.130498 0.973806
0.641063 0.255073 0.005038
0.641189 0.255199 0.113831
0.641333 0.255343 0.238391
0.641476 0.255486 0.362136
0.641619 0.255629 0.485369
0.641761 0.255771 0.608229
0.641903 0.255913 0.730794
0.642044 0.256055 0.853116
0.642186 0.256196 0.975232
0.642480 0.380010 0.006455
0.642606 0.380136 0.115248
0.642750 0.380280 0.239809
0.642894 0.380423 0.363553
0.643036 0.380566 0.486786
0.643178 0.380708 0.609646
0.643320 0.380850 0.732212
0.643462 0.380991 0.854534
0.643603 0.381132 0.976649
0.643892 0.504455 0.007867
0.644018 0.504581 0.116660
0.644162 0.504725 0.241220
0.644305 0.504868 0.364965
0.644448 0.505011 0.488198
0.644590 0.505153 0.611058
0.644732 0.505295 0.733623
0.644873 0.505436 0.855945
0.645015 0.505577 0.978060
0.645300 0.628536 0.009275
0.645425 0.628662 0.118067
0.645570 0.628806 0.242628
0.645713 0.628949 0.366372
0.645855 0.629092 0.489605
0.645997 0.629234 0.612465
0.646139 0.629376 0.735031
0.646281 0.629517 0.857353
0.646422 0.629659 0.979468
0.646704 0.752328 0.010679
0.646830 0.752454 0.119472
0.646974 0.752598 0.244032
0.647117 0.752741 0.367776
0.647260 0.752884 0.491010
0.647402 0.753026 0.613870
0.647544 0.753168 0.736435
0.647685 0.753309 0.858757
0.647826 0.753451 0.980872
0.648105 0.875880 0.012080
0.648231 0.876006 0.120873
0.648375 0.876150 0.245434
0.648519 0.876293 0.369178
0.648661 0.876436 0.492411
0.648803 0.876578 0.615271
0.648945 0.876720 0.737836
0.649087 0.876861 0.860159
0.649228 0.877003 0.982274
0.649487 0.997672 0.013462
0.649613 0.997798 0.122255
0.649757 0.997942 0.246815
0.649900 0.998086 0.370559
0.650043 0.998228 0.493793
0.650185 0.998370 0.616653
0.650327 0.998512 0.739218
0.650468 0.998654 0.861540
0.650609 0.998795 0.983655
0.760964 0.002587 0.002587
0.761090 0.002712 0.111379
0.761234 0.002857 0.235940
0.761378 0.003000 0.359684
0.761520 0.003142 0.482917
0.761662 0.003284 0.605777
0.761804 0.003426 0.728343
0.761946 0.003568 0.850665
0.762087 0.003709 0.972780
0.762407 0.129793 0.004030
0.762533 0.129919 0.112822
0.762677 0.130063 0.237383
0.762821 0.130206 0.361127
0.762963 0.130349 0.484360
0.763105 0.130491 0.607220
0.763247 0.130633 0.729786
0.763389 0.130774 0.852108
0.763530 0.130915 0.974223
0.763833 0.255491 0.005455
0.763959 0.255617 0.114248
0.764103 0.255761 0.238809
0.764246 0.255904 0.362553
0.764389 0.256046 0.485786
0.764531 0.256189 0.608646
0.764673 0.256330 0.731212
0.764814 0.256472 0.853534
0.764956 0.256613 0.975649
0.765250 0.380427 0.006873
0.765376 0.380553 0.115666
0.765520 0.380697 0.240226
0.765664 0.380840 0.363970
0.765806 0.380983 0.487204
0.765948 0.381125 0.610063
0.766090 0.381267 0.732629
0.766232 0.381408 0.854951
0.766373 0.381550 0.977066
0.766662 0.504872 0.008284
0.766788 0.504998 0.117077
0.766932 0.505142 0.241638
0.767075 0.505285 0.365382
0.767218 0.505428 0.488615
0.767360 0.505570 0.611475
0.767502 0.505712 0.734040
0.767643 0.505853 0.856363
0.767785 0.505995 0.978478
0.768070 0.628953 0.009692
0.768196 0.629079 0.118485
0.768340 0.629223 0.243045
0.768483 0.629367 0.366789
0.768625 0.629509 0.490023
0.768768 0.629651 0.612883
0.768909 0.629793 0.735448
0.769051 0.629935 0.857770
0.769192 0.630076 0.979885
0.769474 0.752745 0.011096
0.769600 0.752871 0.119889
0.769744 0.753015 0.244449
0.769887 0.753159 0.368194
0.770030 0.753301 0.491427
0.770172 0.753443 0.614287
0.770314 0.753585 0.736852
0.770455 0.753727 0.859174
0.770596 0.753868 0.981290
0.770875 0.876297 0.012498
0.771001 0.876423 0.121291
0.771145 0.876567 0.245851
0.771289 0.876711 0.369595
0.771431 0.876853 0.492829
0.771573 0.876995 0.615688
0.771715 0.877137 0.738254
0.771857 0.877279 0.860576
0.771998 0.877420 0.982691
0.772257 0.998090 0.013879
0.772383 0.998216 0.122672
0.772527 0.998360 0.247232
0.772670 0.998503 0.370977
0.772813 0.998645 0.494210
0.772955 0.998788 0.617070
0.773097 0.998929 0.739635
0.773238 0.999071 0.861958
0.773379 0.999212 0.984073
0.883502 0.003003 0.003003
0.883628 0.003129 0.111796
0.883772 0.003273 0.236356
0.883915 0.003416 0.360101
0.884058 0.003559 0.483334
0.884200 0.003701 0.606194
0.884342 0.003843 0.728759
0.884483 0.003984 0.851081
0.884624 0.004126 0.973197
0.884945 0.130209 0.004446
0.885071 0.130335 0.113239
0.885215 0.130479 0.237799
0.885358 0.130623 0.361544
0.885501 0.130765 0.484777
0.885643 0.130907 0.607637
0.885785 0.131049 0.730202
0.885926 0.131191 0.852524
0.886067 0.131332 0.974640
0.886371 0.255907 0.005872
0.886497 0.256033 0.114665
0.886641 0.256177 0.239225
0.886784 0.256320 0.362969
0.886926 0.256463 0.486203
0.887069 0.256605 0.609063
0.887210 0.256747 0.731628
0.887352 0.256888 0.853950
0.887493 0.257030 0.976065
0.887788 0.380844 0.007289
0.887914 0.380970 0.116082
0.888058 0.381114 0.240642
0.888201 0.381257 0.364387
0.888344 0.381399 0.487620
0.888486 0.381542 0.610480
0.888628 0.381683 0.733045
0.888769 0.381825 0.855368
0.888910 0.381966 0.977483
0.889200 0.505289 0.008701
0.889325 0.505415 0.117494
0.889470 0.505559 0.242054
0.889613 0.505702 0.365798
0.889755 0.505845 0.489032
0.889897 0.505987 0.611892
0.890039 0.506128 0.734457
0.890181 0.506270 0.856779
0.890322 0.506411 0.978894
0.890607 0.629370 0.010108
0.890733 0.629496 0.118901
0.890877 0.629640 0.243462
0.891020 0.629783 0.367206
0.891163 0.629926 0.490439
0.891305 0.630068 0.613299
0.891447 0.630210 0.735865
0.891588 0.630351 0.858187
0.891730 0.630492 0.980302
0.892011 0.753162 0.011513
0.892137 0.753288 0.120305
0.892281 0.753432 0.244866
0.892425 0.753575 0.368610
0.892567 0.753718 0.491844
0.892709 0.753860 0.614703
0.892851 0.754002 0.737269
0.892993 0.754143 0.859591
0.893134 0.754284 0.981706
0.893413 0.876714 0.012914
0.893539 0.876840 0.121707
0.893683 0.876984 0.246267
0.893826 0.877127 0.370012
0.893969 0.877270 0.493245
0.894111 0.877412 0.616105
0.894253 0.877554 0.738670
0.894394 0.877695 0.860992
0.894535 0.877836 0.983108
0.894794 0.998506 0.014296
0.894920 0.998632 0.123089
0.895064 0.998776 0.247649
0.895208 0.998919 0.371393
0.895350 0.999062 0.494627
0.895492 0.999204 0.617487
0.895634 0.999346 0.740052
0.895776 0.999487 0.862374
0.895917 0.999629 0.984489
0.987567 0.003357 0.003357
0.987693 0.003483 0.112150
0.987837 0.003627 0.236710
0.987981 0.003770 0.360454
0.988123 0.003913 0.483688
0.988265 0.004055 0.606548
0.988407 0.004197 0.729113
0.988549 0.004338 0.851435
0.988690 0.004479 0.973550
0.989010 0.130563 0.004800
0.989136 0.130689 0.113593
0.989280 0.130833 0.238153
0.989423 0.130976 0.361897
0.989566 0.131119 0.485131
0.989708 0.131261 0.607991
0.989850 0.131403 0.730556
0.989992 0.131544 0.852878
0.990133 0.131686 0.974993
0.990436 0.256261 0.006226
0.990562 0.256387 0.115019
0.990706 0.256531 0.239579
0.990849 0.256674 0.363323
0.990992 0.256817 0.486557
0.991134 0.256959 0.609416
0.991276 0.257101 0.731982
0.991417 0.257242 0.854304
0.991559 0.257383 0.976419
0.991853 0.381197 0.007643
0.991979 0.381323 0.116436
0.992123 0.381467 0.240996
0.992267 0.381611 0.364740
0.992409 0.381753 0.487974
0.992551 0.381895 0.610834
0.992693 0.382037 0.733399
0.992835 0.382179 0.855721
0.992976 0.382320 0.977836
0.993265 0.505643 0.009055
0.993391 0.505768 0.117847
0.993535 0.505913 0.242408
0.993678 0.506056 0.366152
0.993821 0.506198 0.489385
0.993963 0.506340 0.612245
0.994105 0.506482 0.734811
0.994246 0.506624 0.857133
0.994388 0.506765 0.979248
0.994673 0.629724 0.010462
0.994799 0.629850 0.119255
0.994943 0.629994 0.243815
0.995086 0.630137 0.367560
0.995228 0.630279 0.490793
0.995371 0.630422 0.613653
0.995512 0.630563 0.736218
0.995654 0.630705 0.858540
0.995795 0.630846 0.980656
0.996077 0.753516 0.011866
0.996203 0.753642 0.120659
0.996347 0.753786 0.245220
0.996490 0.753929 0.368964
0.996633 0.754071 0.492197
0.996775 0.754214 0.615057
0.996917 0.754355 0.737623
0.997058 0.754497 0.859945
0.997199 0.754638 0.982060
0.997478 0.877068 0.013268
0.997604 0.877194 0.122061
0.997748 0.877338 0.246621
0.997892 0.877481 0.370365
0.998034 0.877623 0.493599
0.998176 0.877766 0.616459
0.998318 0.877907 0.739024
0.998460 0.878049 0.861346
0.998601 0.878190 0.983461
0.998860 0.998860 0.014649
0.998986 0.998986 0.123442
0.999130 0.999130 0.248003
0.999273 0.999273 0.371747
0.999416 0.999416 0.494980
0.999558 0.999558 0.617840
0.999700 0.999700 0.740406
0.999841 0.999841 0.862728
0.999982 0.999982 0.984843
