skills/appstore-swiss-grid/assets/grade/luts/ad_warm_v03.cube
TITLE "ad_warm_v03"
LUT_3D_SIZE 9
DOMAIN_MIN 0.0 0.0 0.0
DOMAIN_MAX 1.0 1.0 1.0
0.014333 0.000000 0.000000
0.014083 0.000000 0.116575
0.013803 0.000000 0.246973
0.013526 0.000000 0.376412
0.013250 0.000000 0.505247
0.012975 0.000000 0.633641
0.012700 0.000000 0.761687
0.012426 0.000000 0.889445
0.012153 0.000000 1.000000
0.011540 0.128959 0.000000
0.011290 0.128709 0.113782
0.011010 0.128430 0.244180
0.010733 0.128153 0.373618
0.010457 0.127876 0.502454
0.010182 0.127601 0.630848
0.009907 0.127327 0.758894
0.009633 0.127053 0.886652
0.009360 0.126780 1.000000
0.008774 0.256729 0.000000
0.008524 0.256479 0.111016
0.008245 0.256200 0.241414
0.007967 0.255922 0.370853
0.007691 0.255646 0.499688
0.007416 0.255371 0.628083
0.007142 0.255096 0.756128
0.006868 0.254823 0.883887
0.006595 0.254549 1.000000
0.006028 0.383618 0.000000
0.005778 0.383368 0.108270
0.005498 0.383088 0.238668
0.005221 0.382811 0.368106
0.004945 0.382535 0.496942
0.004670 0.382260 0.625336
0.004395 0.381985 0.753382
0.004121 0.381711 0.881140
0.003848 0.381438 1.000000
0.003294 0.509939 0.000000
0.003044 0.509689 0.105536
0.002764 0.509409 0.235934
0.002487 0.509132 0.365372
0.002211 0.508856 0.494208
0.001936 0.508581 0.622602
0.001661 0.508306 0.750648
0.001387 0.508032 0.878406
0.001114 0.507759 1.000000
0.000569 0.635840 0.000000
0.000319 0.635590 0.102811
0.000039 0.635310 0.233209
0.000000 0.635033 0.362647
0.000000 0.634756 0.491483
0.000000 0.634481 0.619877
0.000000 0.634207 0.747923
0.000000 0.633933 0.875681
0.000000 0.633660 1.000000
0.000000 0.761407 0.000000
0.000000 0.761157 0.100093
0.000000 0.760877 0.230491
0.000000 0.760600 0.359930
0.000000 0.760324 0.488765
0.000000 0.760048 0.617159
0.000000 0.759774 0.745205
0.000000 0.759500 0.872963
0.000000 0.759227 1.000000
0.000000 0.886697 0.000000
0.000000 0.886447 0.097381
0.000000 0.886167 0.227779
0.000000 0.885890 0.357218
0.000000 0.885614 0.486053
0.000000 0.885339 0.614447
0.000000 0.885064 0.742493
0.000000 0.884790 0.870251
0.000000 0.884517 0.997764
0.000000 1.000000 0.000000
0.000000 1.000000 0.094743
0.000000 1.000000 0.225141
0.000000 1.000000 0.354579
0.000000 1.000000 0.483415
0.000000 1.000000 0.611809
0.000000 1.000000 0.739855
0.000000 1.000000 0.867613
0.000000 1.000000 0.995126
0.145824 0.000000 0.000000
0.145574 0.000000 0.115742
0.145295 0.000000 0.246140
0.145017 0.000000 0.375578
0.144741 0.000000 0.504414
0.144466 0.000000 0.632808
0.144192 0.000000 0.760854
0.143918 0.000000 0.888612
0.143645 0.000000 1.000000
0.143031 0.128126 0.000000
0.142781 0.127876 0.112949
0.142502 0.127597 0.243346
0.142224 0.127319 0.372785
0.141948 0.127043 0.501621
0.141673 0.126768 0.630015
0.141398 0.126493 0.758061
0.141125 0.126220 0.885819
0.140851 0.125946 1.000000
0.140266 0.255896 0.000000
0.140016 0.255646 0.110183
0.139736 0.255366 0.240581
0.139459 0.255089 0.370020
0.139183 0.254813 0.498855
0.138907 0.254538 0.627249
0.138633 0.254263 0.755295
0.138359 0.253989 0.883053
0.138086 0.253716 1.000000
0.137519 0.382785 0.000000
0.137269 0.382534 0.107437
0.136990 0.382255 0.237835
0.136712 0.381978 0.367273
0.136436 0.381701 0.496109
0.136161 0.381426 0.624503
0.135887 0.381152 0.752549
0.135613 0.380878 0.880307
0.135339 0.380605 1.000000
0.134785 0.509105 0.000000
0.134535 0.508855 0.104703
0.134256 0.508576 0.235100
0.133978 0.508299 0.364539
0.133702 0.508022 0.493375
0.133427 0.507747 0.621769
0.133152 0.507473 0.749815
0.132879 0.507199 0.877573
0.132605 0.506926 1.000000
0.132060 0.635006 0.000000
0.131810 0.634756 0.101977
0.131531 0.634477 0.232375
0.131253 0.634199 0.361814
0.130977 0.633923 0.490650
0.130702 0.633648 0.619044
0.130427 0.633374 0.747090
0.130154 0.633100 0.874848
0.129880 0.632826 1.000000
0.129342 0.760573 0.000000
0.129092 0.760323 0.099260
0.128813 0.760044 0.229658
0.128535 0.759766 0.359096
0.128259 0.759490 0.487932
0.127984 0.759215 0.616326
0.127710 0.758941 0.744372
0.127436 0.758667 0.872130
0.127162 0.758393 0.999643
0.126631 0.885864 0.000000
0.126380 0.885614 0.096548
0.126101 0.885334 0.226946
0.125824 0.885057 0.356384
0.125547 0.884780 0.485220
0.125272 0.884505 0.613614
0.124998 0.884231 0.741660
0.124724 0.883957 0.869418
0.124451 0.883684 0.996931
0.123992 1.000000 0.000000
0.123742 1.000000 0.093909
0.123462 1.000000 0.224307
0.123185 1.000000 0.353746
0.122909 1.000000 0.482581
0.122634 1.000000 0.610976
0.122359 1.000000 0.739021
0.122085 1.000000 0.866779
0.121812 1.000000 0.994293
0.275407 0.000000 0.000000
0.275157 0.000000 0.114920
0.274878 0.000000 0.245318
0.274600 0.000000 0.374757
0.274324 0.000000 0.503593
0.274049 0.000000 0.631987
0.273775 0.000000 0.760033
0.273501 0.000000 0.887791
0.273228 0.000000 1.000000
0.272614 0.127305 0.000000
0.272364 0.127055 0.112127
0.272085 0.126775 0.242525
0.271807 0.126498 0.371964
0.271531 0.126222 0.500799
0.271256 0.125947 0.629194
0.270982 0.125672 0.757239
0.270708 0.125398 0.884997
0.270434 0.125125 1.000000
0.269849 0.255075 0.000000
0.269599 0.254825 0.109362
0.269319 0.254545 0.239760
0.269042 0.254268 0.369198
0.268766 0.253991 0.498034
0.268490 0.253716 0.626428
0.268216 0.253442 0.754474
0.267942 0.253168 0.882232
0.267669 0.252895 1.000000
0.267102 0.381963 0.000000
0.266852 0.381713 0.106615
0.266573 0.381434 0.237013
0.266295 0.381156 0.366452
0.266019 0.380880 0.495287
0.265744 0.380605 0.623682
0.265470 0.380331 0.751727
0.265196 0.380057 0.879486
0.264923 0.379783 1.000000
0.264368 0.508284 0.000000
0.264118 0.508034 0.103881
0.263839 0.507755 0.234279
0.263561 0.507477 0.363718
0.263285 0.507201 0.492553
0.263010 0.506926 0.620948
0.262736 0.506652 0.748993
0.262462 0.506378 0.876751
0.262188 0.506104 1.000000
0.261643 0.634185 0.000000
0.261393 0.633935 0.101156
0.261114 0.633655 0.231554
0.260836 0.633378 0.360993
0.260560 0.633102 0.489828
0.260285 0.632827 0.618222
0.260010 0.632552 0.746268
0.259737 0.632278 0.874026
0.259463 0.632005 1.000000
0.258925 0.759752 0.000000
0.258675 0.759502 0.098438
0.258396 0.759223 0.228836
0.258118 0.758945 0.358275
0.257842 0.758669 0.487111
0.257567 0.758394 0.615505
0.257293 0.758119 0.743551
0.257019 0.757846 0.871309
0.256746 0.757572 0.998822
0.256214 0.885042 0.000000
0.255964 0.884792 0.095727
0.255684 0.884513 0.226125
0.255407 0.884235 0.355563
0.255130 0.883959 0.484399
0.254855 0.883684 0.612793
0.254581 0.883410 0.740839
0.254307 0.883136 0.868597
0.254034 0.882863 0.996110
0.253575 1.000000 0.000000
0.253325 1.000000 0.093088
0.253045 1.000000 0.223486
0.252768 1.000000 0.352925
0.252492 1.000000 0.481760
0.252217 1.000000 0.610154
0.251942 1.000000 0.738200
0.251668 1.000000 0.865958
0.251395 1.000000 0.993471
0.404150 0.000000 0.000000
0.403900 0.000000 0.114105
0.403620 0.000000 0.244503
0.403343 0.000000 0.373941
0.403066 0.000000 0.502777
0.402791 0.000000 0.631171
0.402517 0.000000 0.759217
0.402243 0.000000 0.886975
0.401970 0.000000 1.000000
0.401356 0.126489 0.000000
0.401106 0.126239 0.111311
0.400827 0.125959 0.241709
0.400549 0.125682 0.371148
0.400273 0.125406 0.499983
0.399998 0.125131 0.628378
0.399724 0.124856 0.756423
0.399450 0.124582 0.884182
0.399177 0.124309 1.000000
0.398591 0.254259 0.000000
0.398341 0.254009 0.108546
0.398061 0.253729 0.238944
0.397784 0.253452 0.368382
0.397508 0.253176 0.497218
0.397233 0.252900 0.625612
0.396958 0.252626 0.753658
0.396684 0.252352 0.881416
0.396411 0.252079 1.000000
0.395844 0.381147 0.000000
0.395594 0.380897 0.105799
0.395315 0.380618 0.236197
0.395038 0.380340 0.365636
0.394761 0.380064 0.494472
0.394486 0.379789 0.622866
0.394212 0.379515 0.750912
0.393938 0.379241 0.878670
0.393665 0.378968 1.000000
0.393110 0.507468 0.000000
0.392860 0.507218 0.103065
0.392581 0.506939 0.233463
0.392303 0.506661 0.362902
0.392027 0.506385 0.491737
0.391752 0.506110 0.620132
0.391478 0.505836 0.748177
0.391204 0.505562 0.875936
0.390931 0.505289 1.000000
0.390385 0.633369 0.000000
0.390135 0.633119 0.100340
0.389856 0.632840 0.230738
0.389578 0.632562 0.360177
0.389302 0.632286 0.489012
0.389027 0.632011 0.617407
0.388753 0.631736 0.745452
0.388479 0.631463 0.873211
0.388205 0.631189 1.000000
0.387668 0.758936 0.000000
0.387417 0.758686 0.097623
0.387138 0.758407 0.228020
0.386861 0.758129 0.357459
0.386584 0.757853 0.486295
0.386309 0.757578 0.614689
0.386035 0.757303 0.742735
0.385761 0.757030 0.870493
0.385488 0.756756 0.998006
0.384956 0.884226 0.000000
0.384706 0.883976 0.094911
0.384426 0.883697 0.225309
0.384149 0.883419 0.354747
0.383873 0.883143 0.483583
0.383597 0.882868 0.611977
0.383323 0.882594 0.740023
0.383049 0.882320 0.867781
0.382776 0.882047 0.995294
0.382317 1.000000 0.000000
0.382067 1.000000 0.092272
0.381788 1.000000 0.222670
0.381510 1.000000 0.352109
0.381234 1.000000 0.480944
0.380959 1.000000 0.609338
0.380684 1.000000 0.737384
0.380411 1.000000 0.865142
0.380137 1.000000 0.992655
0.532337 0.000000 0.000000
0.532087 0.000000 0.113292
0.531808 0.000000 0.243690
0.531531 0.000000 0.373129
0.531254 0.000000 0.501964
0.530979 0.000000 0.630358
0.530705 0.000000 0.758404
0.530431 0.000000 0.886162
0.530158 0.000000 1.000000
0.529544 0.125677 0.000000
0.529294 0.125427 0.110499
0.529015 0.125147 0.240897
0.528737 0.124870 0.370335
0.528461 0.124594 0.499171
0.528186 0.124318 0.627565
0.527912 0.124044 0.755611
0.527638 0.123770 0.883369
0.527364 0.123497 1.000000
0.526779 0.253446 0.000000
0.526529 0.253196 0.107733
0.526249 0.252917 0.238131
0.525972 0.252639 0.367570
0.525696 0.252363 0.496406
0.525421 0.252088 0.624800
0.525146 0.251814 0.752846
0.524872 0.251540 0.880604
0.524599 0.251266 1.000000
0.524032 0.380335 0.000000
0.523782 0.380085 0.104987
0.523503 0.379805 0.235385
0.523225 0.379528 0.364824
0.522949 0.379252 0.493659
0.522674 0.378977 0.622053
0.522400 0.378702 0.750099
0.522126 0.378428 0.877857
0.521853 0.378155 1.000000
0.521298 0.506656 0.000000
0.521048 0.506406 0.102253
0.520769 0.506126 0.232651
0.520491 0.505849 0.362089
0.520215 0.505573 0.490925
0.519940 0.505298 0.619319
0.519666 0.505023 0.747365
0.519392 0.504749 0.875123
0.519118 0.504476 1.000000
0.518573 0.632557 0.000000
0.518323 0.632307 0.099528
0.518044 0.632027 0.229926
0.517766 0.631750 0.359364
0.517490 0.631474 0.488200
0.517215 0.631198 0.616594
0.516941 0.630924 0.744640
0.516667 0.630650 0.872398
0.516393 0.630377 0.999911
0.515855 0.758124 0.000000
0.515605 0.757874 0.096810
0.515326 0.757594 0.227208
0.515048 0.757317 0.356647
0.514772 0.757041 0.485482
0.514497 0.756765 0.613876
0.514223 0.756491 0.741922
0.513949 0.756217 0.869680
0.513676 0.755944 0.997193
0.513144 0.883414 0.000000
0.512894 0.883164 0.094098
0.512614 0.882885 0.224496
0.512337 0.882607 0.353935
0.512061 0.882331 0.482770
0.511785 0.882056 0.611165
0.511511 0.881781 0.739210
0.511237 0.881507 0.866969
0.510964 0.881234 0.994482
0.510505 1.000000 0.000000
0.510255 1.000000 0.091460
0.509976 1.000000 0.221858
0.509698 1.000000 0.351296
0.509422 1.000000 0.480132
0.509147 1.000000 0.608526
0.508872 1.000000 0.736572
0.508599 1.000000 0.864330
0.508325 1.000000 0.991843
0.660111 0.000000 0.000000
0.659861 0.000000 0.112482
0.659581 0.000000 0.242880
0.659304 0.000000 0.372319
0.659028 0.000000 0.501154
0.658753 0.000000 0.629549
0.658478 0.000000 0.757594
0.658204 0.000000 0.885353
0.657931 0.000000 1.000000
0.657318 0.124867 0.000000
0.657068 0.124617 0.109689
0.656788 0.124337 0.240087
0.656511 0.124060 0.369526
0.656235 0.123784 0.498361
0.655960 0.123509 0.626755
0.655685 0.123234 0.754801
0.655411 0.122960 0.882559
0.655138 0.122687 1.000000
0.654552 0.252637 0.000000
0.654302 0.252386 0.106924
0.654023 0.252107 0.237322
0.653745 0.251830 0.366760
0.653469 0.251553 0.495596
0.653194 0.251278 0.623990
0.652920 0.251004 0.752036
0.652646 0.250730 0.879794
0.652372 0.250457 1.000000
0.651806 0.379525 0.000000
0.651556 0.379275 0.104177
0.651276 0.378996 0.234575
0.650999 0.378718 0.364014
0.650723 0.378442 0.492849
0.650448 0.378167 0.621244
0.650173 0.377893 0.749289
0.649899 0.377619 0.877048
0.649626 0.377345 1.000000
0.649072 0.505846 0.000000
0.648822 0.505596 0.101443
0.648542 0.505317 0.231841
0.648265 0.505039 0.361280
0.647989 0.504763 0.490115
0.647714 0.504488 0.618509
0.647439 0.504213 0.746555
0.647165 0.503940 0.874313
0.646892 0.503666 1.000000
0.646347 0.631747 0.000000
0.646097 0.631497 0.098718
0.645817 0.631217 0.229116
0.645540 0.630940 0.358555
0.645264 0.630664 0.487390
0.644988 0.630389 0.615784
0.644714 0.630114 0.743830
0.644440 0.629840 0.871588
0.644167 0.629567 0.999101
0.643629 0.757314 0.000000
0.643379 0.757064 0.096000
0.643099 0.756784 0.226398
0.642822 0.756507 0.355837
0.642546 0.756231 0.484672
0.642271 0.755956 0.613067
0.641996 0.755681 0.741112
0.641722 0.755407 0.868871
0.641449 0.755134 0.996384
0.640917 0.882604 0.000000
0.640667 0.882354 0.093289
0.640388 0.882075 0.223687
0.640110 0.881797 0.353125
0.639834 0.881521 0.481961
0.639559 0.881246 0.610355
0.639284 0.880972 0.738401
0.639011 0.880698 0.866159
0.638737 0.880424 0.993672
0.638279 1.000000 0.000000
0.638029 1.000000 0.090650
0.637749 1.000000 0.221048
0.637472 1.000000 0.350486
0.637195 1.000000 0.479322
0.636920 1.000000 0.607716
0.636646 1.000000 0.735762
0.636372 1.000000 0.863520
0.636099 1.000000 0.991033
0.787554 0.000000 0.000000
0.787303 0.000000 0.111675
0.787024 0.000000 0.242073
0.786747 0.000000 0.371511
0.786470 0.000000 0.500347
0.786195 0.000000 0.628741
0.785921 0.000000 0.756787
0.785647 0.000000 0.884545
0.785374 0.000000 1.000000
0.784760 0.124059 0.000000
0.784510 0.123809 0.108882
0.784231 0.123530 0.239279
0.783953 0.123252 0.368718
0.783677 0.122976 0.497554
0.783402 0.122701 0.625948
0.783128 0.122426 0.753994
0.782854 0.122153 0.881752
0.782580 0.121879 1.000000
0.781995 0.251829 0.000000
0.781745 0.251579 0.106116
0.781465 0.251299 0.236514
0.781188 0.251022 0.365953
0.780912 0.250746 0.494788
0.780637 0.250471 0.623182
0.780362 0.250196 0.751228
0.780088 0.249922 0.878986
0.779815 0.249649 1.000000
0.779248 0.378718 0.000000
0.778998 0.378467 0.103370
0.778719 0.378188 0.233768
0.778441 0.377911 0.363206
0.778165 0.377634 0.492042
0.777890 0.377359 0.620436
0.777616 0.377085 0.748482
0.777342 0.376811 0.876240
0.777069 0.376538 1.000000
0.776514 0.505038 0.000000
0.776264 0.504788 0.100636
0.775985 0.504509 0.231033
0.775707 0.504232 0.360472
0.775431 0.503955 0.489308
0.775156 0.503680 0.617702
0.774882 0.503406 0.745748
0.774608 0.503132 0.873506
0.774334 0.502859 1.000000
0.773789 0.630939 0.000000
0.773539 0.630689 0.097910
0.773260 0.630410 0.228308
0.772982 0.630132 0.357747
0.772706 0.629856 0.486583
0.772431 0.629581 0.614977
0.772157 0.629307 0.743023
0.771883 0.629033 0.870781
0.771609 0.628759 0.998294
0.771071 0.756506 0.000000
0.770821 0.756256 0.095193
0.770542 0.755977 0.225591
0.770265 0.755699 0.355029
0.769988 0.755423 0.483865
0.769713 0.755148 0.612259
0.769439 0.754874 0.740305
0.769165 0.754600 0.868063
0.768892 0.754326 0.995576
0.768360 0.881797 0.000000
0.768110 0.881547 0.092481
0.767830 0.881267 0.222879
0.767553 0.880990 0.352317
0.767277 0.880714 0.481153
0.767001 0.880438 0.609547
0.766727 0.880164 0.737593
0.766453 0.879890 0.865351
0.766180 0.879617 0.992864
0.765721 1.000000 0.000000
0.765471 1.000000 0.089842
0.765192 1.000000 0.220240
0.764914 1.000000 0.349679
0.764638 1.000000 0.478514
0.764363 1.000000 0.606909
0.764088 1.000000 0.734954
0.763815 1.000000 0.862712
0.763541 1.000000 0.990226
0.914720 0.000000 0.000000
0.914470 0.000000 0.110869
0.914191 0.000000 0.241267
0.913913 0.000000 0.370705
0.913637 0.000000 0.499541
0.913362 0.000000 0.627935
0.913088 0.000000 0.755981
0.912814 0.000000 0.883739
0.912541 0.000000 1.000000
0.911927 0.123253 0.000000
0.911677 0.123003 0.108076
0.911398 0.122724 0.238474
0.911120 0.122446 0.367912
0.910844 0.122170 0.496748
0.910569 0.121895 0.625142
0.910294 0.121621 0.753188
0.910021 0.121347 0.880946
0.909747 0.121073 1.000000
0.909162 0.251023 0.000000
0.908912 0.250773 0.105310
0.908632 0.250493 0.235708
0.908355 0.250216 0.365147
0.908079 0.249940 0.493982
0.907803 0.249665 0.622376
0.907529 0.249390 0.750422
0.907255 0.249116 0.878180
0.906982 0.248843 1.000000
0.906415 0.377912 0.000000
0.906165 0.377662 0.102564
0.905886 0.377382 0.232962
0.905608 0.377105 0.362400
0.905332 0.376829 0.491236
0.905057 0.376553 0.619630
0.904783 0.376279 0.747676
0.904509 0.376005 0.875434
0.904235 0.375732 1.000000
0.903681 0.504233 0.000000
0.903431 0.503983 0.099830
0.903152 0.503703 0.230228
0.902874 0.503426 0.359666
0.902598 0.503149 0.488502
0.902323 0.502874 0.616896
0.902048 0.502600 0.744942
0.901775 0.502326 0.872700
0.901501 0.502053 1.000000
0.900956 0.630133 0.000000
0.900706 0.629883 0.097105
0.900427 0.629604 0.227503
0.900149 0.629326 0.356941
0.899873 0.629050 0.485777
0.899598 0.628775 0.614171
0.899323 0.628501 0.742217
0.899050 0.628227 0.869975
0.898776 0.627953 0.997488
0.898238 0.755700 0.000000
0.897988 0.755450 0.094387
0.897709 0.755171 0.224785
0.897431 0.754893 0.354223
0.897155 0.754617 0.483059
0.896880 0.754342 0.611453
0.896606 0.754068 0.739499
0.896332 0.753794 0.867257
0.896059 0.753521 0.994770
0.895527 0.880991 0.000000
0.895276 0.880741 0.091675
0.894997 0.880461 0.222073
0.894720 0.880184 0.351511
0.894443 0.879908 0.480347
0.894168 0.879632 0.608741
0.893894 0.879358 0.736787
0.893620 0.879084 0.864545
0.893347 0.878811 0.992058
0.892888 1.000000 0.000000
0.892638 1.000000 0.089036
0.892358 1.000000 0.219434
0.892081 1.000000 0.348873
0.891805 1.000000 0.477708
0.891530 1.000000 0.606103
0.891255 1.000000 0.734148
0.890981 1.000000 0.861907
0.890708 1.000000 0.989420
1.000000 0.000000 0.000000
1.000000 0.000000 0.110176
1.000000 0.000000 0.240574
1.000000 0.000000 0.370013
1.000000 0.000000 0.498848
1.000000 0.000000 0.627242
1.000000 0.000000 0.755288
1.000000 0.000000 0.883046
1.000000 0.000000 1.000000
1.000000 0.122560 0.000000
1.000000 0.122310 0.107383
1.000000 0.122031 0.237781
1.000000 0.121753 0.367219
1.000000 0.121477 0.496055
1.000000 0.121202 0.624449
1.000000 0.120928 0.752495
1.000000 0.120654 0.880253
1.000000 0.120381 1.000000
1.000000 0.250330 0.000000
1.000000 0.250080 0.104617
1.000000 0.249801 0.235015
1.000000 0.249523 0.364454
1.000000 0.249247 0.493289
1.000000 0.248972 0.621684
1.000000 0.248697 0.749729
1.000000 0.248424 0.877488
1.000000 0.248150 1.000000
1.000000 0.377219 0.000000
1.000000 0.376969 0.101871
1.000000 0.376689 0.232269
1.000000 0.376412 0.361707
1.000000 0.376136 0.490543
1.000000 0.375861 0.618937
1.000000 0.375586 0.746983
1.000000 0.375312 0.874741
1.000000 0.375039 1.000000
1.000000 0.503540 0.000000
1.000000 0.503290 0.099137
1.000000 0.503010 0.229535
1.000000 0.502733 0.358973
1.000000 0.502457 0.487809
1.000000 0.502181 0.616203
1.000000 0.501907 0.744249
1.000000 0.501633 0.872007
1.000000 0.501360 0.999520
1.000000 0.629441 0.000000
1.000000 0.629190 0.096412
1.000000 0.628911 0.226810
1.000000 0.628634 0.356248
1.000000 0.628357 0.485084
1.000000 0.628082 0.613478
1.000000 0.627808 0.741524
1.000000 0.627534 0.869282
1.000000 0.627261 0.996795
1.000000 0.755008 0.000000
1.000000 0.754758 0.093694
1.000000 0.754478 0.224092
1.000000 0.754201 0.353530
1.000000 0.753924 0.482366
1.000000 0.753649 0.610760
1.000000 0.753375 0.738806
1.000000 0.753101 0.866564
1.000000 0.752828 0.994077
1.000000 0.880298 0.000000
1.000000 0.880048 0.090982
1.000000 0.879768 0.221380
1.000000 0.879491 0.350819
1.000000 0.879215 0.479654
1.000000 0.878940 0.608048
1.000000 0.878665 0.736094
1.000000 0.878391 0.863852
1.000000 0.878118 0.991365
1.000000 1.000000 0.000000
1.000000 1.000000 0.088344
1.000000 1.000000 0.218742
1.000000 1.000000 0.348180
1.000000 1.000000 0.477016
1.000000 1.000000 0.605410
1.000000 1.000000 0.733456
1.000000 1.000000 0.861214
1.000000 1.000000 0.988727
