skills/appstore-swiss-grid/assets/grade/luts/ad_warm_v03.cube
TITLE "ad_warm_v03"
LUT_3D_SIZE 17
DOMAIN_MIN 0.0 0.0 0.0
DOMAIN_MAX 1.0 1.0 1.0
0.014333 0.000000 0.000000
0.014224 0.000000 0.050694
0.014083 0.000000 0.116575
0.013943 0.000000 0.181933
0.013803 0.000000 0.246973
0.013665 0.000000 0.311782
0.013526 0.000000 0.376412
0.013388 0.000000 0.440892
0.013250 0.000000 0.505247
0.013112 0.000000 0.569493
0.012975 0.000000 0.633641
0.012837 0.000000 0.697703
0.012700 0.000000 0.761687
0.012563 0.000000 0.825599
0.012426 0.000000 0.889445
0.012290 0.000000 0.953230
0.012153 0.000000 1.000000
0.012935 0.064484 0.000000
0.012826 0.064376 0.049296
0.012685 0.064234 0.115177
0.012545 0.064094 0.180536
0.012406 0.063955 0.245575
0.012267 0.063816 0.310385
0.012128 0.063677 0.375014
0.011990 0.063539 0.439495
0.011852 0.063401 0.503849
0.011715 0.063264 0.568095
0.011577 0.063126 0.632244
0.011440 0.062989 0.696306
0.011303 0.062852 0.760289
0.011166 0.062715 0.824201
0.011029 0.062578 0.888048
0.010892 0.062441 0.951833
0.010755 0.062305 1.000000
0.011540 0.128959 0.000000
0.011431 0.128851 0.047901
0.011290 0.128709 0.113782
0.011150 0.128569 0.179140
0.011010 0.128430 0.244180
0.010871 0.128291 0.308989
0.010733 0.128153 0.373618
0.010595 0.128014 0.438099
0.010457 0.127876 0.502454
0.010319 0.127739 0.566699
0.010182 0.127601 0.630848
0.010044 0.127464 0.694910
0.009907 0.127327 0.758894
0.009770 0.127190 0.822806
0.009633 0.127053 0.886652
0.009497 0.126916 0.950437
0.009360 0.126780 1.000000
0.010154 0.192988 0.000000
0.010045 0.192879 0.046515
0.009904 0.192738 0.112396
0.009764 0.192598 0.177754
0.009624 0.192458 0.242794
0.009486 0.192320 0.307603
0.009347 0.192181 0.372233
0.009209 0.192043 0.436713
0.009071 0.191905 0.501068
0.008933 0.191767 0.565314
0.008796 0.191630 0.629462
0.008658 0.191492 0.693524
0.008521 0.191355 0.757508
0.008384 0.191218 0.821420
0.008247 0.191081 0.885266
0.008111 0.190945 0.949051
0.007974 0.190808 1.000000
0.008774 0.256729 0.000000
0.008665 0.256620 0.045135
0.008524 0.256479 0.111016
0.008384 0.256339 0.176375
0.008245 0.256200 0.241414
0.008106 0.256061 0.306224
0.007967 0.255922 0.370853
0.007829 0.255784 0.435334
0.007691 0.255646 0.499688
0.007554 0.255508 0.563934
0.007416 0.255371 0.628083
0.007279 0.255234 0.692145
0.007142 0.255096 0.756128
0.007005 0.254959 0.820040
0.006868 0.254823 0.883887
0.006731 0.254686 0.947672
0.006595 0.254549 1.000000
0.007399 0.320258 0.000000
0.007290 0.320149 0.043760
0.007149 0.320008 0.109641
0.007009 0.319868 0.175000
0.006870 0.319728 0.240039
0.006731 0.319589 0.304849
0.006592 0.319451 0.369478
0.006454 0.319313 0.433959
0.006316 0.319175 0.498313
0.006179 0.319037 0.562559
0.006041 0.318900 0.626708
0.005904 0.318762 0.690770
0.005767 0.318625 0.754753
0.005630 0.318488 0.818665
0.005493 0.318351 0.882512
0.005356 0.318215 0.946297
0.005219 0.318078 1.000000
0.006028 0.383618 0.000000
0.005919 0.383509 0.042389
0.005778 0.383368 0.108270
0.005638 0.383228 0.173628
0.005498 0.383088 0.238668
0.005359 0.382949 0.303477
0.005221 0.382811 0.368106
0.005083 0.382673 0.432587
0.004945 0.382535 0.496942
0.004807 0.382397 0.561187
0.004670 0.382260 0.625336
0.004532 0.382122 0.689398
0.004395 0.381985 0.753382
0.004258 0.381848 0.817294
0.004121 0.381711 0.881140
0.003985 0.381575 0.944925
0.003848 0.381438 1.000000
0.004660 0.446838 0.000000
0.004551 0.446729 0.041021
0.004410 0.446588 0.106902
0.004269 0.446448 0.172260
0.004130 0.446309 0.237300
0.003991 0.446170 0.302109
0.003853 0.446031 0.366738
0.003714 0.445893 0.431219
0.003576 0.445755 0.495574
0.003439 0.445617 0.559819
0.003301 0.445480 0.623968
0.003164 0.445342 0.688030
0.003027 0.445205 0.752014
0.002890 0.445068 0.815926
0.002753 0.444932 0.879772
0.002616 0.444795 0.943557
0.002480 0.444658 1.000000
0.003294 0.509939 0.000000
0.003185 0.509830 0.039655
0.003044 0.509689 0.105536
0.002904 0.509549 0.170894
0.002764 0.509409 0.235934
0.002625 0.509270 0.300743
0.002487 0.509132 0.365372
0.002349 0.508994 0.429853
0.002211 0.508856 0.494208
0.002073 0.508718 0.558453
0.001936 0.508581 0.622602
0.001798 0.508443 0.686664
0.001661 0.508306 0.750648
0.001524 0.508169 0.814560
0.001387 0.508032 0.878406
0.001251 0.507896 0.942191
0.001114 0.507759 1.000000
0.001930 0.572935 0.000000
0.001821 0.572827 0.038291
0.001680 0.572685 0.104172
0.001540 0.572545 0.169531
0.001401 0.572406 0.234570
0.001262 0.572267 0.299380
0.001123 0.572128 0.364009
0.000985 0.571990 0.428490
0.000847 0.571852 0.492844
0.000710 0.571715 0.557090
0.000572 0.571577 0.621239
0.000435 0.571440 0.685301
0.000298 0.571303 0.749284
0.000161 0.571166 0.813196
0.000024 0.571029 0.877043
0.000000 0.570892 0.940828
0.000000 0.570756 1.000000
0.000569 0.635840 0.000000
0.000460 0.635731 0.036930
0.000319 0.635590 0.102811
0.000179 0.635449 0.168169
0.000039 0.635310 0.233209
0.000000 0.635171 0.298018
0.000000 0.635033 0.362647
0.000000 0.634894 0.427128
0.000000 0.634756 0.491483
0.000000 0.634619 0.555728
0.000000 0.634481 0.619877
0.000000 0.634344 0.683939
0.000000 0.634207 0.747923
0.000000 0.634070 0.811835
0.000000 0.633933 0.875681
0.000000 0.633796 0.939466
0.000000 0.633660 1.000000
0.000000 0.698661 0.000000
0.000000 0.698552 0.035570
0.000000 0.698411 0.101451
0.000000 0.698271 0.166809
0.000000 0.698131 0.231849
0.000000 0.697992 0.296659
0.000000 0.697854 0.361288
0.000000 0.697716 0.425768
0.000000 0.697578 0.490123
0.000000 0.697440 0.554369
0.000000 0.697302 0.618517
0.000000 0.697165 0.682579
0.000000 0.697028 0.746563
0.000000 0.696891 0.810475
0.000000 0.696754 0.874321
0.000000 0.696618 0.938106
0.000000 0.696481 1.000000
0.000000 0.761407 0.000000
0.000000 0.761298 0.034212
0.000000 0.761157 0.100093
0.000000 0.761016 0.165451
0.000000 0.760877 0.230491
0.000000 0.760738 0.295300
0.000000 0.760600 0.359930
0.000000 0.760461 0.424410
0.000000 0.760324 0.488765
0.000000 0.760186 0.553011
0.000000 0.760048 0.617159
0.000000 0.759911 0.681221
0.000000 0.759774 0.745205
0.000000 0.759637 0.809117
0.000000 0.759500 0.872963
0.000000 0.759363 0.936748
0.000000 0.759227 1.000000
0.000000 0.824084 0.000000
0.000000 0.823975 0.032855
0.000000 0.823833 0.098736
0.000000 0.823693 0.164095
0.000000 0.823554 0.229134
0.000000 0.823415 0.293944
0.000000 0.823277 0.358573
0.000000 0.823138 0.423054
0.000000 0.823000 0.487408
0.000000 0.822863 0.551654
0.000000 0.822725 0.615803
0.000000 0.822588 0.679865
0.000000 0.822451 0.743848
0.000000 0.822314 0.807761
0.000000 0.822177 0.871607
0.000000 0.822040 0.935392
0.000000 0.821904 0.999120
0.000000 0.886697 0.000000
0.000000 0.886588 0.031500
0.000000 0.886447 0.097381
0.000000 0.886307 0.162739
0.000000 0.886167 0.227779
0.000000 0.886028 0.292589
0.000000 0.885890 0.357218
0.000000 0.885752 0.421698
0.000000 0.885614 0.486053
0.000000 0.885476 0.550299
0.000000 0.885339 0.614447
0.000000 0.885201 0.678510
0.000000 0.885064 0.742493
0.000000 0.884927 0.806405
0.000000 0.884790 0.870251
0.000000 0.884654 0.934036
0.000000 0.884517 0.997764
0.000000 0.949251 0.000000
0.000000 0.949143 0.030146
0.000000 0.949001 0.096027
0.000000 0.948861 0.161386
0.000000 0.948722 0.226425
0.000000 0.948583 0.291235
0.000000 0.948444 0.355864
0.000000 0.948306 0.420345
0.000000 0.948168 0.484699
0.000000 0.948031 0.548945
0.000000 0.947893 0.613094
0.000000 0.947756 0.677156
0.000000 0.947619 0.741139
0.000000 0.947482 0.805051
0.000000 0.947345 0.868897
0.000000 0.947208 0.932682
0.000000 0.947072 0.996411
0.000000 1.000000 0.000000
0.000000 1.000000 0.028862
0.000000 1.000000 0.094743
0.000000 1.000000 0.160101
0.000000 1.000000 0.225141
0.000000 1.000000 0.289950
0.000000 1.000000 0.354579
0.000000 1.000000 0.419060
0.000000 1.000000 0.483415
0.000000 1.000000 0.547660
0.000000 1.000000 0.611809
0.000000 1.000000 0.675871
0.000000 1.000000 0.739855
0.000000 1.000000 0.803767
0.000000 1.000000 0.867613
0.000000 1.000000 0.931398
0.000000 1.000000 0.995126
0.080496 0.000000 0.000000
0.080387 0.000000 0.050275
0.080246 0.000000 0.116156
0.080106 0.000000 0.181514
0.079966 0.000000 0.246554
0.079827 0.000000 0.311363
0.079689 0.000000 0.375992
0.079550 0.000000 0.440473
0.079413 0.000000 0.504828
0.079275 0.000000 0.569073
0.079137 0.000000 0.633222
0.079000 0.000000 0.697284
0.078863 0.000000 0.761268
0.078726 0.000000 0.825180
0.078589 0.000000 0.889026
0.078452 0.000000 0.952811
0.078316 0.000000 1.000000
0.079098 0.064065 0.000000
0.078989 0.063956 0.048877
0.078848 0.063815 0.114758
0.078708 0.063675 0.180116
0.078568 0.063536 0.245156
0.078430 0.063397 0.309966
0.078291 0.063258 0.374595
0.078153 0.063120 0.439075
0.078015 0.062982 0.503430
0.077877 0.062844 0.567676
0.077740 0.062707 0.631824
0.077602 0.062569 0.695886
0.077465 0.062432 0.759870
0.077328 0.062295 0.823782
0.077191 0.062159 0.887628
0.077055 0.062022 0.951413
0.076918 0.061885 1.000000
0.077702 0.128540 0.000000
0.077594 0.128431 0.047482
0.077452 0.128290 0.113363
0.077312 0.128150 0.178721
0.077173 0.128011 0.243761
0.077034 0.127872 0.308570
0.076895 0.127733 0.373199
0.076757 0.127595 0.437680
0.076619 0.127457 0.502035
0.076482 0.127319 0.566280
0.076344 0.127182 0.630429
0.076207 0.127045 0.694491
0.076070 0.126907 0.758475
0.075933 0.126770 0.822387
0.075796 0.126634 0.886233
0.075659 0.126497 0.950018
0.075523 0.126360 1.000000
0.076317 0.192569 0.000000
0.076208 0.192460 0.046096
0.076067 0.192319 0.111977
0.075926 0.192179 0.177335
0.075787 0.192039 0.242375
0.075648 0.191900 0.307184
0.075510 0.191762 0.371813
0.075371 0.191624 0.436294
0.075234 0.191486 0.500649
0.075096 0.191348 0.564894
0.074958 0.191210 0.629043
0.074821 0.191073 0.693105
0.074684 0.190936 0.757089
0.074547 0.190799 0.821001
0.074410 0.190662 0.884847
0.074273 0.190525 0.948632
0.074137 0.190389 1.000000
0.074937 0.256310 0.000000
0.074828 0.256201 0.044716
0.074687 0.256060 0.110597
0.074547 0.255920 0.175955
0.074407 0.255780 0.240995
0.074269 0.255641 0.305805
0.074130 0.255503 0.370434
0.073992 0.255365 0.434914
0.073854 0.255227 0.499269
0.073716 0.255089 0.563515
0.073579 0.254952 0.627663
0.073441 0.254814 0.691725
0.073304 0.254677 0.755709
0.073167 0.254540 0.819621
0.073030 0.254403 0.883467
0.072894 0.254267 0.947252
0.072757 0.254130 1.000000
0.073562 0.319839 0.000000
0.073453 0.319730 0.043341
0.073312 0.319588 0.109222
0.073172 0.319448 0.174580
0.073032 0.319309 0.239620
0.072893 0.319170 0.304429
0.072755 0.319032 0.369059
0.072617 0.318893 0.433539
0.072479 0.318755 0.497894
0.072341 0.318618 0.562140
0.072204 0.318480 0.626288
0.072066 0.318343 0.690350
0.071929 0.318206 0.754334
0.071792 0.318069 0.818246
0.071655 0.317932 0.882092
0.071519 0.317795 0.945877
0.071382 0.317659 1.000000
0.072191 0.383199 0.000000
0.072082 0.383090 0.041970
0.071940 0.382949 0.107851
0.071800 0.382808 0.173209
0.071661 0.382669 0.238249
0.071522 0.382530 0.303058
0.071384 0.382392 0.367687
0.071245 0.382253 0.432168
0.071107 0.382115 0.496523
0.070970 0.381978 0.560768
0.070832 0.381840 0.624917
0.070695 0.381703 0.688979
0.070558 0.381566 0.752963
0.070421 0.381429 0.816875
0.070284 0.381292 0.880721
0.070147 0.381155 0.944506
0.070011 0.381019 1.000000
0.070822 0.446419 0.000000
0.070713 0.446310 0.040601
0.070572 0.446169 0.106482
0.070432 0.446029 0.171841
0.070293 0.445889 0.236880
0.070154 0.445750 0.301690
0.070015 0.445612 0.366319
0.069877 0.445474 0.430800
0.069739 0.445336 0.495154
0.069601 0.445198 0.559400
0.069464 0.445060 0.623549
0.069327 0.444923 0.687611
0.069189 0.444786 0.751594
0.069052 0.444649 0.815506
0.068916 0.444512 0.879352
0.068779 0.444376 0.943137
0.068642 0.444239 1.000000
0.069456 0.509520 0.000000
0.069348 0.509411 0.039236
0.069206 0.509269 0.105117
0.069066 0.509129 0.170475
0.068927 0.508990 0.235515
0.068788 0.508851 0.300324
0.068649 0.508713 0.364953
0.068511 0.508574 0.429434
0.068373 0.508436 0.493789
0.068236 0.508299 0.558034
0.068098 0.508161 0.622183
0.067961 0.508024 0.686245
0.067824 0.507887 0.750229
0.067687 0.507750 0.814141
0.067550 0.507613 0.877987
0.067413 0.507476 0.941772
0.067277 0.507340 1.000000
0.068093 0.572516 0.000000
0.067984 0.572407 0.037872
0.067843 0.572266 0.103753
0.067703 0.572126 0.169111
0.067563 0.571987 0.234151
0.067424 0.571848 0.298960
0.067286 0.571709 0.363590
0.067148 0.571571 0.428070
0.067010 0.571433 0.492425
0.066872 0.571295 0.556671
0.066735 0.571158 0.620819
0.066597 0.571021 0.684881
0.066460 0.570883 0.748865
0.066323 0.570746 0.812777
0.066186 0.570610 0.876623
0.066050 0.570473 0.940408
0.065913 0.570336 1.000000
0.066731 0.635420 0.000000
0.066623 0.635311 0.036511
0.066481 0.635170 0.102392
0.066341 0.635030 0.167750
0.066202 0.634891 0.232789
0.066063 0.634752 0.297599
0.065924 0.634613 0.362228
0.065786 0.634475 0.426709
0.065648 0.634337 0.491064
0.065511 0.634199 0.555309
0.065373 0.634062 0.619458
0.065236 0.633925 0.683520
0.065099 0.633788 0.747504
0.064962 0.633651 0.811416
0.064825 0.633514 0.875262
0.064688 0.633377 0.939047
0.064552 0.633240 1.000000
0.065372 0.698241 0.000000
0.065263 0.698133 0.035151
0.065122 0.697991 0.101032
0.064982 0.697851 0.166390
0.064842 0.697712 0.231430
0.064703 0.697573 0.296239
0.064565 0.697434 0.360868
0.064427 0.697296 0.425349
0.064289 0.697158 0.489704
0.064151 0.697021 0.553949
0.064013 0.696883 0.618098
0.063876 0.696746 0.682160
0.063739 0.696609 0.746144
0.063602 0.696472 0.810056
0.063465 0.696335 0.873902
0.063328 0.696198 0.937687
0.063192 0.696062 1.000000
0.064014 0.760987 0.000000
0.063905 0.760878 0.033793
0.063764 0.760737 0.099674
0.063623 0.760597 0.165032
0.063484 0.760458 0.230072
0.063345 0.760319 0.294881
0.063207 0.760180 0.359510
0.063068 0.760042 0.423991
0.062931 0.759904 0.488346
0.062793 0.759767 0.552591
0.062655 0.759629 0.616740
0.062518 0.759492 0.680802
0.062381 0.759355 0.744786
0.062244 0.759218 0.808698
0.062107 0.759081 0.872544
0.061970 0.758944 0.936329
0.061834 0.758807 1.000000
0.062657 0.823664 0.000000
0.062548 0.823555 0.032436
0.062407 0.823414 0.098317
0.062267 0.823274 0.163675
0.062127 0.823135 0.228715
0.061989 0.822996 0.293525
0.061850 0.822857 0.358154
0.061712 0.822719 0.422634
0.061574 0.822581 0.486989
0.061436 0.822443 0.551235
0.061299 0.822306 0.615383
0.061161 0.822169 0.679445
0.061024 0.822032 0.743429
0.060887 0.821895 0.807341
0.060750 0.821758 0.871187
0.060614 0.821621 0.934972
0.060477 0.821484 0.998700
0.061302 0.886278 0.000000
0.061193 0.886169 0.031081
0.061052 0.886028 0.096962
0.060912 0.885887 0.162320
0.060772 0.885748 0.227360
0.060633 0.885609 0.292169
0.060495 0.885471 0.356798
0.060357 0.885332 0.421279
0.060219 0.885195 0.485634
0.060081 0.885057 0.549879
0.059944 0.884919 0.614028
0.059806 0.884782 0.678090
0.059669 0.884645 0.742074
0.059532 0.884508 0.805986
0.059395 0.884371 0.869832
0.059259 0.884234 0.933617
0.059122 0.884098 0.997345
0.059948 0.948832 0.000000
0.059839 0.948723 0.029727
0.059698 0.948582 0.095608
0.059558 0.948442 0.160966
0.059418 0.948303 0.226006
0.059279 0.948164 0.290815
0.059141 0.948025 0.355444
0.059003 0.947887 0.419925
0.058865 0.947749 0.484280
0.058727 0.947611 0.548525
0.058590 0.947474 0.612674
0.058452 0.947336 0.676736
0.058315 0.947199 0.740720
0.058178 0.947062 0.804632
0.058041 0.946926 0.868478
0.057905 0.946789 0.932263
0.057768 0.946652 0.995991
0.058663 1.000000 0.000000
0.058554 1.000000 0.028442
0.058413 1.000000 0.094323
0.058273 1.000000 0.159682
0.058134 1.000000 0.224721
0.057995 1.000000 0.289531
0.057856 1.000000 0.354160
0.057718 1.000000 0.418641
0.057580 1.000000 0.482995
0.057442 1.000000 0.547241
0.057305 1.000000 0.611390
0.057168 1.000000 0.675452
0.057030 1.000000 0.739435
0.056894 1.000000 0.803347
0.056757 1.000000 0.867194
0.056620 1.000000 0.930978
0.056483 1.000000 0.994707
0.145824 0.000000 0.000000
0.145716 0.000000 0.049861
0.145574 0.000000 0.115742
0.145434 0.000000 0.181100
0.145295 0.000000 0.246140
0.145156 0.000000 0.310949
0.145017 0.000000 0.375578
0.144879 0.000000 0.440059
0.144741 0.000000 0.504414
0.144604 0.000000 0.568659
0.144466 0.000000 0.632808
0.144329 0.000000 0.696870
0.144192 0.000000 0.760854
0.144055 0.000000 0.824766
0.143918 0.000000 0.888612
0.143781 0.000000 0.952397
0.143645 0.000000 1.000000
0.144427 0.063651 0.000000
0.144318 0.063542 0.048463
0.144177 0.063401 0.114344
0.144037 0.063261 0.179702
0.143897 0.063121 0.244742
0.143758 0.062983 0.309551
0.143620 0.062844 0.374181
0.143482 0.062706 0.438661
0.143344 0.062568 0.503016
0.143206 0.062430 0.567262
0.143068 0.062293 0.631410
0.142931 0.062155 0.695472
0.142794 0.062018 0.759456
0.142657 0.061881 0.823368
0.142520 0.061744 0.887214
0.142383 0.061608 0.950999
0.142247 0.061471 1.000000
0.143031 0.128126 0.000000
0.142922 0.128017 0.047068
0.142781 0.127876 0.112949
0.142641 0.127736 0.178307
0.142502 0.127597 0.243346
0.142363 0.127458 0.308156
0.142224 0.127319 0.372785
0.142086 0.127181 0.437266
0.141948 0.127043 0.501621
0.141810 0.126905 0.565866
0.141673 0.126768 0.630015
0.141536 0.126631 0.694077
0.141398 0.126493 0.758061
0.141261 0.126356 0.821973
0.141125 0.126220 0.885819
0.140988 0.126083 0.949604
0.140851 0.125946 1.000000
0.141645 0.192155 0.000000
0.141536 0.192046 0.045682
0.141395 0.191905 0.111563
0.141255 0.191765 0.176921
0.141116 0.191625 0.241961
0.140977 0.191486 0.306770
0.140838 0.191348 0.371399
0.140700 0.191209 0.435880
0.140562 0.191072 0.500235
0.140425 0.190934 0.564480
0.140287 0.190796 0.628629
0.140150 0.190659 0.692691
0.140013 0.190522 0.756675
0.139876 0.190385 0.820587
0.139739 0.190248 0.884433
0.139602 0.190111 0.948218
0.139465 0.189975 1.000000
0.140266 0.255896 0.000000
0.140157 0.255787 0.044302
0.140016 0.255646 0.110183
0.139876 0.255506 0.175541
0.139736 0.255366 0.240581
0.139597 0.255227 0.305390
0.139459 0.255089 0.370020
0.139321 0.254951 0.434500
0.139183 0.254813 0.498855
0.139045 0.254675 0.563101
0.138907 0.254538 0.627249
0.138770 0.254400 0.691311
0.138633 0.254263 0.755295
0.138496 0.254126 0.819207
0.138359 0.253989 0.883053
0.138222 0.253853 0.946838
0.138086 0.253716 1.000000
0.138891 0.319425 0.000000
0.138782 0.319316 0.042927
0.138641 0.319174 0.108808
0.138501 0.319034 0.174166
0.138361 0.318895 0.239206
0.138222 0.318756 0.304015
0.138084 0.318618 0.368645
0.137946 0.318479 0.433125
0.137808 0.318341 0.497480
0.137670 0.318204 0.561726
0.137532 0.318066 0.625874
0.137395 0.317929 0.689936
0.137258 0.317792 0.753920
0.137121 0.317655 0.817832
0.136984 0.317518 0.881678
0.136847 0.317381 0.945463
0.136711 0.317245 1.000000
0.137519 0.382785 0.000000
0.137410 0.382676 0.041556
0.137269 0.382534 0.107437
0.137129 0.382394 0.172795
0.136990 0.382255 0.237835
0.136851 0.382116 0.302644
0.136712 0.381978 0.367273
0.136574 0.381839 0.431754
0.136436 0.381701 0.496109
0.136298 0.381564 0.560354
0.136161 0.381426 0.624503
0.136024 0.381289 0.688565
0.135887 0.381152 0.752549
0.135750 0.381015 0.816461
0.135613 0.380878 0.880307
0.135476 0.380741 0.944092
0.135339 0.380605 1.000000
0.136151 0.446005 0.000000
0.136042 0.445896 0.040187
0.135901 0.445755 0.106068
0.135761 0.445615 0.171427
0.135621 0.445475 0.236466
0.135482 0.445336 0.301276
0.135344 0.445198 0.365905
0.135206 0.445060 0.430386
0.135068 0.444922 0.494740
0.134930 0.444784 0.558986
0.134793 0.444646 0.623135
0.134655 0.444509 0.687197
0.134518 0.444372 0.751180
0.134381 0.444235 0.815092
0.134244 0.444098 0.878938
0.134108 0.443961 0.942723
0.133971 0.443825 1.000000
0.134785 0.509105 0.000000
0.134676 0.508997 0.038822
0.134535 0.508855 0.104703
0.134395 0.508715 0.170061
0.134256 0.508576 0.235100
0.134117 0.508437 0.299910
0.133978 0.508299 0.364539
0.133840 0.508160 0.429020
0.133702 0.508022 0.493375
0.133564 0.507885 0.557620
0.133427 0.507747 0.621769
0.133290 0.507610 0.685831
0.133152 0.507473 0.749815
0.133015 0.507336 0.813727
0.132879 0.507199 0.877573
0.132742 0.507062 0.941358
0.132605 0.506926 1.000000
0.133422 0.572102 0.000000
0.133313 0.571993 0.037458
0.133172 0.571852 0.103339
0.133032 0.571712 0.168697
0.132892 0.571573 0.233737
0.132753 0.571434 0.298546
0.132615 0.571295 0.363176
0.132476 0.571157 0.427656
0.132339 0.571019 0.492011
0.132201 0.570881 0.556257
0.132063 0.570744 0.620405
0.131926 0.570606 0.684467
0.131789 0.570469 0.748451
0.131652 0.570332 0.812363
0.131515 0.570196 0.876209
0.131378 0.570059 0.939994
0.131242 0.569922 1.000000
0.132060 0.635006 0.000000
0.131951 0.634897 0.036096
0.131810 0.634756 0.101977
0.131670 0.634616 0.167336
0.131531 0.634477 0.232375
0.131392 0.634338 0.297185
0.131253 0.634199 0.361814
0.131115 0.634061 0.426295
0.130977 0.633923 0.490650
0.130839 0.633785 0.554895
0.130702 0.633648 0.619044
0.130565 0.633511 0.683106
0.130427 0.633374 0.747090
0.130290 0.633237 0.811002
0.130154 0.633100 0.874848
0.130017 0.632963 0.938633
0.129880 0.632826 1.000000
0.130700 0.697827 0.000000
0.130592 0.697719 0.034737
0.130450 0.697577 0.100618
0.130310 0.697437 0.165976
0.130171 0.697298 0.231016
0.130032 0.697159 0.295825
0.129893 0.697020 0.360454
0.129755 0.696882 0.424935
0.129617 0.696744 0.489290
0.129480 0.696607 0.553535
0.129342 0.696469 0.617684
0.129205 0.696332 0.681746
0.129068 0.696195 0.745730
0.128931 0.696058 0.809642
0.128794 0.695921 0.873488
0.128657 0.695784 0.937273
0.128521 0.695648 1.000000
0.129342 0.760573 0.000000
0.129233 0.760464 0.033379
0.129092 0.760323 0.099260
0.128952 0.760183 0.164618
0.128813 0.760044 0.229658
0.128674 0.759905 0.294467
0.128535 0.759766 0.359096
0.128397 0.759628 0.423577
0.128259 0.759490 0.487932
0.128122 0.759353 0.552177
0.127984 0.759215 0.616326
0.127847 0.759078 0.680388
0.127710 0.758941 0.744372
0.127573 0.758804 0.808284
0.127436 0.758667 0.872130
0.127299 0.758530 0.935915
0.127162 0.758393 0.999643
0.127986 0.823250 0.000000
0.127877 0.823141 0.032022
0.127736 0.823000 0.097903
0.127596 0.822860 0.163261
0.127456 0.822721 0.228301
0.127317 0.822582 0.293111
0.127179 0.822443 0.357740
0.127041 0.822305 0.422220
0.126903 0.822167 0.486575
0.126765 0.822029 0.550821
0.126627 0.821892 0.614969
0.126490 0.821755 0.679031
0.126353 0.821617 0.743015
0.126216 0.821481 0.806927
0.126079 0.821344 0.870773
0.125942 0.821207 0.934558
0.125806 0.821070 0.998286
0.126631 0.885864 0.000000
0.126522 0.885755 0.030667
0.126380 0.885614 0.096548
0.126240 0.885473 0.161906
0.126101 0.885334 0.226946
0.125962 0.885195 0.291755
0.125824 0.885057 0.356384
0.125685 0.884918 0.420865
0.125547 0.884780 0.485220
0.125410 0.884643 0.549465
0.125272 0.884505 0.613614
0.125135 0.884368 0.677676
0.124998 0.884231 0.741660
0.124861 0.884094 0.805572
0.124724 0.883957 0.869418
0.124587 0.883820 0.933203
0.124451 0.883684 0.996931
0.125277 0.948418 0.000000
0.125168 0.948309 0.029313
0.125027 0.948168 0.095194
0.124886 0.948028 0.160552
0.124747 0.947888 0.225592
0.124608 0.947750 0.290401
0.124470 0.947611 0.355030
0.124331 0.947473 0.419511
0.124193 0.947335 0.483866
0.124056 0.947197 0.548111
0.123918 0.947060 0.612260
0.123781 0.946922 0.676322
0.123644 0.946785 0.740306
0.123507 0.946648 0.804218
0.123370 0.946511 0.868064
0.123233 0.946375 0.931849
0.123097 0.946238 0.995577
0.123992 1.000000 0.000000
0.123883 1.000000 0.028028
0.123742 1.000000 0.093909
0.123602 1.000000 0.159268
0.123462 1.000000 0.224307
0.123324 1.000000 0.289117
0.123185 1.000000 0.353746
0.123047 1.000000 0.418227
0.122909 1.000000 0.482581
0.122771 1.000000 0.546827
0.122634 1.000000 0.610976
0.122496 1.000000 0.675038
0.122359 1.000000 0.739021
0.122222 1.000000 0.802933
0.122085 1.000000 0.866779
0.121949 1.000000 0.930564
0.121812 1.000000 0.994293
0.210751 0.000000 0.000000
0.210642 0.000000 0.049449
0.210501 0.000000 0.115330
0.210361 0.000000 0.180689
0.210221 0.000000 0.245728
0.210082 0.000000 0.310538
0.209944 0.000000 0.375167
0.209806 0.000000 0.439648
0.209668 0.000000 0.504002
0.209530 0.000000 0.568248
0.209393 0.000000 0.632396
0.209255 0.000000 0.696459
0.209118 0.000000 0.760442
0.208981 0.000000 0.824354
0.208844 0.000000 0.888200
0.208708 0.000000 0.951985
0.208571 0.000000 1.000000
0.209353 0.063240 0.000000
