skills/appstore-swiss-grid/assets/grade/luts/ad_warm_v03.cube
TITLE "ad_warm_v03"
LUT_3D_SIZE 5
DOMAIN_MIN 0.0 0.0 0.0
DOMAIN_MAX 1.0 1.0 1.0
0.014333 0.000000 0.000000
0.013803 0.000000 0.246973
0.013250 0.000000 0.505247
0.012700 0.000000 0.761687
0.012153 0.000000 1.000000
0.008774 0.256729 0.000000
0.008245 0.256200 0.241414
0.007691 0.255646 0.499688
0.007142 0.255096 0.756128
0.006595 0.254549 1.000000
0.003294 0.509939 0.000000
0.002764 0.509409 0.235934
0.002211 0.508856 0.494208
0.001661 0.508306 0.750648
0.001114 0.507759 1.000000
0.000000 0.761407 0.000000
0.000000 0.760877 0.230491
0.000000 0.760324 0.488765
0.000000 0.759774 0.745205
0.000000 0.759227 1.000000
0.000000 1.000000 0.000000
0.000000 1.000000 0.225141
0.000000 1.000000 0.483415
0.000000 1.000000 0.739855
0.000000 1.000000 0.995126
0.275407 0.000000 0.000000
0.274878 0.000000 0.245318
0.274324 0.000000 0.503593
0.273775 0.000000 0.760033
0.273228 0.000000 1.000000
0.269849 0.255075 0.000000
0.269319 0.254545 0.239760
0.268766 0.253991 0.498034
0.268216 0.253442 0.754474
0.267669 0.252895 1.000000
0.264368 0.508284 0.000000
0.263839 0.507755 0.234279
0.263285 0.507201 0.492553
0.262736 0.506652 0.748993
0.262188 0.506104 1.000000
0.258925 0.759752 0.000000
0.258396 0.759223 0.228836
0.257842 0.758669 0.487111
0.257293 0.758119 0.743551
0.256746 0.757572 0.998822
0.253575 1.000000 0.000000
0.253045 1.000000 0.223486
0.252492 1.000000 0.481760
0.251942 1.000000 0.738200
0.251395 1.000000 0.993471
0.532337 0.000000 0.000000
0.531808 0.000000 0.243690
0.531254 0.000000 0.501964
0.530705 0.000000 0.758404
0.530158 0.000000 1.000000
0.526779 0.253446 0.000000
0.526249 0.252917 0.238131
0.525696 0.252363 0.496406
0.525146 0.251814 0.752846
0.524599 0.251266 1.000000
0.521298 0.506656 0.000000
0.520769 0.506126 0.232651
0.520215 0.505573 0.490925
0.519666 0.505023 0.747365
0.519118 0.504476 1.000000
0.515855 0.758124 0.000000
0.515326 0.757594 0.227208
0.514772 0.757041 0.485482
0.514223 0.756491 0.741922
0.513676 0.755944 0.997193
0.510505 1.000000 0.000000
0.509976 1.000000 0.221858
0.509422 1.000000 0.480132
0.508872 1.000000 0.736572
0.508325 1.000000 0.991843
0.787554 0.000000 0.000000
0.787024 0.000000 0.242073
0.786470 0.000000 0.500347
0.785921 0.000000 0.756787
0.785374 0.000000 1.000000
0.781995 0.251829 0.000000
0.781465 0.251299 0.236514
0.780912 0.250746 0.494788
0.780362 0.250196 0.751228
0.779815 0.249649 1.000000
0.776514 0.505038 0.000000
0.775985 0.504509 0.231033
0.775431 0.503955 0.489308
0.774882 0.503406 0.745748
0.774334 0.502859 1.000000
0.771071 0.756506 0.000000
0.770542 0.755977 0.225591
0.769988 0.755423 0.483865
0.769439 0.754874 0.740305
0.768892 0.754326 0.995576
0.765721 1.000000 0.000000
0.765192 1.000000 0.220240
0.764638 1.000000 0.478514
0.764088 1.000000 0.734954
0.763541 1.000000 0.990226
1.000000 0.000000 0.000000
1.000000 0.000000 0.240574
1.000000 0.000000 0.498848
1.000000 0.000000 0.755288
1.000000 0.000000 1.000000
1.000000 0.250330 0.000000
1.000000 0.249801 0.235015
1.000000 0.249247 0.493289
1.000000 0.248697 0.749729
1.000000 0.248150 1.000000
1.000000 0.503540 0.000000
1.000000 0.503010 0.229535
1.000000 0.502457 0.487809
1.000000 0.501907 0.744249
1.000000 0.501360 0.999520
1.000000 0.755008 0.000000
1.000000 0.754478 0.224092
1.000000 0.753924 0.482366
1.000000 0.753375 0.738806
1.000000 0.752828 0.994077
1.000000 1.000000 0.000000
1.000000 1.000000 0.218742
1.000000 1.000000 0.477016
1.000000 1.000000 0.733456
1.000000 1.000000 0.988727
