skills/appstore-swiss-grid/assets/grade/luts/clean_bright_v06.cube
TITLE "clean_bright_v06"
LUT_3D_SIZE 17
DOMAIN_MIN 0.0 0.0 0.0
DOMAIN_MAX 1.0 1.0 1.0
0.019330 0.019330 0.019330
0.019266 0.019266 0.088034
0.019203 0.019203 0.154703
0.019142 0.019142 0.220370
0.019081 0.019081 0.285364
0.019020 0.019020 0.349849
0.018960 0.018960 0.413927
0.018900 0.018900 0.477665
0.018841 0.018841 0.541112
0.018781 0.018781 0.604305
0.018722 0.018722 0.667271
0.018663 0.018663 0.730034
0.018605 0.018605 0.792612
0.018546 0.018546 0.855022
0.018488 0.018488 0.917275
0.018429 0.018429 0.979384
0.018399 0.018399 1.000000
0.018692 0.087459 0.018692
0.018627 0.087395 0.087395
0.018565 0.087332 0.154065
0.018503 0.087271 0.219732
0.018442 0.087210 0.284725
0.018381 0.087149 0.349210
0.018321 0.087089 0.413288
0.018261 0.087029 0.477026
0.018202 0.086970 0.540473
0.018143 0.086910 0.603666
0.018084 0.086851 0.666632
0.018025 0.086792 0.729395
0.017966 0.086734 0.791974
0.017907 0.086675 0.854383
0.017849 0.086617 0.916636
0.017791 0.086558 0.978745
0.017760 0.086528 1.000000
0.018072 0.153572 0.018072
0.018007 0.153507 0.086775
0.017945 0.153445 0.153445
0.017883 0.153383 0.219112
0.017822 0.153322 0.284105
0.017762 0.153262 0.348590
0.017701 0.153202 0.412668
0.017642 0.153142 0.476406
0.017582 0.153082 0.539853
0.017523 0.153023 0.603046
0.017464 0.152964 0.666012
0.017405 0.152905 0.728775
0.017346 0.152846 0.791354
0.017287 0.152788 0.853763
0.017229 0.152729 0.916016
0.017171 0.152671 0.978125
0.017140 0.152640 1.000000
0.017461 0.218690 0.017461
0.017397 0.218626 0.086164
0.017334 0.218563 0.152834
0.017273 0.218501 0.218501
0.017212 0.218440 0.283494
0.017151 0.218380 0.347980
0.017091 0.218320 0.412057
0.017031 0.218260 0.475796
0.016972 0.218200 0.539243
0.016912 0.218141 0.602436
0.016853 0.218082 0.665402
0.016794 0.218023 0.728165
0.016736 0.217964 0.790743
0.016677 0.217906 0.853153
0.016619 0.217847 0.915406
0.016560 0.217789 0.977515
0.016530 0.217758 1.000000
0.016857 0.283140 0.016857
0.016793 0.283075 0.085560
0.016730 0.283013 0.152230
0.016668 0.282951 0.217897
0.016607 0.282890 0.282890
0.016547 0.282830 0.347375
0.016487 0.282770 0.411453
0.016427 0.282710 0.475192
0.016367 0.282650 0.538639
0.016308 0.282591 0.601831
0.016249 0.282532 0.664798
0.016190 0.282473 0.727561
0.016131 0.282414 0.790139
0.016073 0.282356 0.852548
0.016014 0.282297 0.914802
0.015956 0.282239 0.976910
0.015925 0.282208 1.000000
0.016258 0.347086 0.016258
0.016193 0.347022 0.084961
0.016130 0.346959 0.151631
0.016069 0.346897 0.217298
0.016008 0.346836 0.282291
0.015947 0.346776 0.346776
0.015887 0.346716 0.410854
0.015827 0.346656 0.474592
0.015768 0.346596 0.538039
0.015709 0.346537 0.601232
0.015649 0.346478 0.664198
0.015590 0.346419 0.726961
0.015532 0.346360 0.789540
0.015473 0.346302 0.851949
0.015415 0.346243 0.914202
0.015356 0.346185 0.976311
0.015326 0.346154 1.000000
0.015662 0.410628 0.015662
0.015597 0.410564 0.084365
0.015535 0.410501 0.151035
0.015473 0.410440 0.216702
0.015412 0.410379 0.281695
0.015352 0.410318 0.346180
0.015291 0.410258 0.410258
0.015232 0.410198 0.473996
0.015172 0.410139 0.537443
0.015113 0.410079 0.600636
0.015054 0.410020 0.663602
0.014995 0.409961 0.726365
0.014936 0.409903 0.788944
0.014877 0.409844 0.851353
0.014819 0.409786 0.913606
0.014761 0.409727 0.975715
0.014730 0.409697 1.000000
0.015069 0.473834 0.015069
0.015005 0.473769 0.083772
0.014942 0.473707 0.150442
0.014881 0.473645 0.216109
0.014820 0.473584 0.281102
0.014759 0.473524 0.345587
0.014699 0.473464 0.409665
0.014639 0.473404 0.473404
0.014579 0.473344 0.536851
0.014520 0.473285 0.600043
0.014461 0.473226 0.663010
0.014402 0.473167 0.725773
0.014343 0.473108 0.788351
0.014285 0.473050 0.850760
0.014226 0.472991 0.913014
0.014168 0.472933 0.975122
0.014138 0.472902 1.000000
0.014479 0.536751 0.014479
0.014415 0.536686 0.083183
0.014352 0.536624 0.149852
0.014291 0.536562 0.215519
0.014230 0.536501 0.280512
0.014169 0.536441 0.344998
0.014109 0.536380 0.409076
0.014049 0.536321 0.472814
0.013990 0.536261 0.536261
0.013930 0.536202 0.599454
0.013871 0.536143 0.662420
0.013812 0.536084 0.725183
0.013754 0.536025 0.787761
0.013695 0.535966 0.850171
0.013637 0.535908 0.912424
0.013578 0.535850 0.974533
0.013548 0.535819 1.000000
0.013892 0.599415 0.013892
0.013827 0.599351 0.082595
0.013765 0.599288 0.149265
0.013703 0.599226 0.214932
0.013642 0.599165 0.279925
0.013582 0.599105 0.344410
0.013521 0.599045 0.408488
0.013462 0.598985 0.472226
0.013402 0.598925 0.535674
0.013343 0.598866 0.598866
0.013284 0.598807 0.661832
0.013225 0.598748 0.724596
0.013166 0.598689 0.787174
0.013108 0.598631 0.849583
0.013049 0.598572 0.911836
0.012991 0.598514 0.973945
0.012960 0.598483 1.000000
0.013306 0.661855 0.013306
0.013242 0.661791 0.082010
0.013179 0.661728 0.148679
0.013118 0.661667 0.214347
0.013057 0.661606 0.279340
0.012996 0.661545 0.343825
0.012936 0.661485 0.407903
0.012876 0.661425 0.471641
0.012817 0.661365 0.535088
0.012757 0.661306 0.598281
0.012698 0.661247 0.661247
0.012639 0.661188 0.724010
0.012581 0.661129 0.786588
0.012522 0.661071 0.848998
0.012464 0.661012 0.911251
0.012405 0.660954 0.973360
0.012375 0.660924 1.000000
0.012723 0.724094 0.012723
0.012658 0.724029 0.081426
0.012596 0.723967 0.148096
0.012534 0.723905 0.213763
0.012473 0.723844 0.278756
0.012413 0.723783 0.343241
0.012353 0.723723 0.407319
0.012293 0.723663 0.471057
0.012233 0.723604 0.534505
0.012174 0.723545 0.597697
0.012115 0.723486 0.660664
0.012056 0.723427 0.723427
0.011997 0.723368 0.786005
0.011939 0.723309 0.848414
0.011880 0.723251 0.910668
0.011822 0.723193 0.972776
0.011791 0.723162 1.000000
0.012141 0.786149 0.012141
0.012077 0.786084 0.080844
0.012014 0.786022 0.147514
0.011952 0.785960 0.213181
0.011891 0.785899 0.278174
0.011831 0.785839 0.342659
0.011771 0.785779 0.406737
0.011711 0.785719 0.470476
0.011651 0.785659 0.533923
0.011592 0.785600 0.597115
0.011533 0.785541 0.660082
0.011474 0.785482 0.722845
0.011415 0.785423 0.785423
0.011357 0.785365 0.847832
0.011298 0.785306 0.910086
0.011240 0.785248 0.972194
0.011210 0.785217 1.000000
0.011561 0.848037 0.011561
0.011496 0.847972 0.080264
0.011434 0.847909 0.146934
0.011372 0.847848 0.212601
0.011311 0.847787 0.277594
0.011251 0.847726 0.342079
0.011191 0.847666 0.406157
0.011131 0.847606 0.469895
0.011071 0.847547 0.533343
0.011012 0.847488 0.596535
0.010953 0.847428 0.659502
0.010894 0.847370 0.722265
0.010835 0.847311 0.784843
0.010777 0.847252 0.847252
0.010718 0.847194 0.909506
0.010660 0.847135 0.971614
0.010629 0.847105 1.000000
0.010982 0.909769 0.010982
0.010918 0.909705 0.079685
0.010855 0.909642 0.146355
0.010793 0.909581 0.212022
0.010732 0.909520 0.277015
0.010672 0.909459 0.341500
0.010612 0.909399 0.405578
0.010552 0.909339 0.469317
0.010492 0.909280 0.532764
0.010433 0.909220 0.595956
0.010374 0.909161 0.658923
0.010315 0.909102 0.721686
0.010256 0.909044 0.784264
0.010198 0.908985 0.846673
0.010139 0.908927 0.908927
0.010081 0.908868 0.971035
0.010051 0.908838 1.000000
0.010405 0.971359 0.010405
0.010340 0.971295 0.079108
0.010278 0.971232 0.145778
0.010216 0.971170 0.211445
0.010155 0.971109 0.276438
0.010095 0.971049 0.340923
0.010034 0.970989 0.405001
0.009975 0.970929 0.468739
0.009915 0.970869 0.532186
0.009856 0.970810 0.595379
0.009797 0.970751 0.658345
0.009738 0.970692 0.721108
0.009679 0.970633 0.783687
0.009620 0.970575 0.846096
0.009562 0.970516 0.908349
0.009504 0.970458 0.970458
0.009473 0.970427 1.000000
0.010102 1.000000 0.010102
0.010037 1.000000 0.078805
0.009975 1.000000 0.145475
0.009913 1.000000 0.211142
0.009852 1.000000 0.276135
0.009792 1.000000 0.340620
0.009731 1.000000 0.404698
0.009672 1.000000 0.468436
0.009612 1.000000 0.531883
0.009553 1.000000 0.595076
0.009494 1.000000 0.658042
0.009435 1.000000 0.720805
0.009376 1.000000 0.783384
0.009317 1.000000 0.845793
0.009259 1.000000 0.908046
0.009201 1.000000 0.970155
0.009170 1.000000 1.000000
0.087908 0.019140 0.019140
0.087844 0.019076 0.087844
0.087781 0.019013 0.154513
0.087719 0.018952 0.220181
0.087658 0.018891 0.285174
0.087598 0.018830 0.349659
0.087538 0.018770 0.413737
0.087478 0.018710 0.477475
0.087418 0.018651 0.540922
0.087359 0.018591 0.604115
0.087300 0.018532 0.667081
0.087241 0.018473 0.729844
0.087182 0.018415 0.792423
0.087124 0.018356 0.854832
0.087065 0.018298 0.917085
0.087007 0.018239 0.979194
0.086977 0.018209 1.000000
0.087269 0.087269 0.018502
0.087205 0.087205 0.087205
0.087142 0.087142 0.153875
0.087081 0.087081 0.219542
0.087020 0.087020 0.284535
0.086959 0.086959 0.349020
0.086899 0.086899 0.413098
0.086839 0.086839 0.476836
0.086780 0.086780 0.540283
0.086720 0.086720 0.603476
0.086661 0.086661 0.666442
0.086602 0.086602 0.729205
0.086544 0.086544 0.791784
0.086485 0.086485 0.854193
0.086427 0.086427 0.916446
0.086368 0.086368 0.978555
0.086338 0.086338 1.000000
0.086650 0.153382 0.017882
0.086585 0.153317 0.086585
0.086523 0.153255 0.153255
0.086461 0.153193 0.218922
0.086400 0.153132 0.283915
0.086339 0.153072 0.348400
0.086279 0.153012 0.412478
0.086219 0.152952 0.476216
0.086160 0.152892 0.539664
0.086101 0.152833 0.602856
0.086041 0.152774 0.665823
0.085983 0.152715 0.728586
0.085924 0.152656 0.791164
0.085865 0.152598 0.853573
0.085807 0.152539 0.915827
0.085749 0.152481 0.977935
0.085718 0.152450 1.000000
0.086039 0.218500 0.017271
0.085975 0.218436 0.085975
0.085912 0.218373 0.152644
0.085850 0.218312 0.218312
0.085789 0.218251 0.283305
0.085729 0.218190 0.347790
0.085669 0.218130 0.411868
0.085609 0.218070 0.475606
0.085549 0.218010 0.539053
0.085490 0.217951 0.602246
0.085431 0.217892 0.665212
0.085372 0.217833 0.727975
0.085313 0.217774 0.790553
0.085255 0.217716 0.852963
0.085196 0.217657 0.915216
0.085138 0.217599 0.977325
0.085107 0.217569 1.000000
0.085435 0.282950 0.016667
0.085370 0.282886 0.085370
0.085308 0.282823 0.152040
0.085246 0.282761 0.217707
0.085185 0.282700 0.282700
0.085125 0.282640 0.347185
0.085065 0.282580 0.411263
0.085005 0.282520 0.475002
0.084945 0.282460 0.538449
0.084886 0.282401 0.601641
0.084827 0.282342 0.664608
0.084768 0.282283 0.727371
0.084709 0.282224 0.789949
0.084651 0.282166 0.852358
0.084592 0.282107 0.914612
0.084534 0.282049 0.976720
0.084503 0.282018 1.000000
0.084835 0.346896 0.016068
0.084771 0.346832 0.084771
0.084708 0.346769 0.151441
0.084647 0.346707 0.217108
0.084586 0.346646 0.282101
0.084525 0.346586 0.346586
0.084465 0.346526 0.410664
0.084405 0.346466 0.474402
0.084346 0.346406 0.537849
0.084286 0.346347 0.601042
0.084227 0.346288 0.664008
0.084168 0.346229 0.726771
0.084110 0.346170 0.789350
0.084051 0.346112 0.851759
0.083993 0.346053 0.914012
0.083934 0.345995 0.976121
0.083904 0.345964 1.000000
0.084240 0.410438 0.015472
0.084175 0.410374 0.084175
0.084113 0.410311 0.150845
0.084051 0.410250 0.216512
0.083990 0.410189 0.281505
0.083929 0.410128 0.345990
0.083869 0.410068 0.410068
0.083809 0.410008 0.473806
0.083750 0.409949 0.537254
0.083691 0.409889 0.600446
0.083631 0.409830 0.663413
0.083573 0.409771 0.726176
0.083514 0.409713 0.788754
0.083455 0.409654 0.851163
0.083397 0.409596 0.913417
0.083339 0.409537 0.975525
0.083308 0.409507 1.000000
0.083647 0.473644 0.014879
0.083583 0.473580 0.083583
0.083520 0.473517 0.150252
0.083458 0.473455 0.215919
0.083397 0.473394 0.280912
0.083337 0.473334 0.345398
0.083277 0.473274 0.409476
0.083217 0.473214 0.473214
0.083157 0.473154 0.536661
0.083098 0.473095 0.599854
0.083039 0.473036 0.662820
0.082980 0.472977 0.725583
0.082921 0.472918 0.788161
0.082863 0.472860 0.850571
0.082804 0.472801 0.912824
0.082746 0.472743 0.974933
0.082715 0.472712 1.000000
0.083057 0.536561 0.014289
0.082993 0.536496 0.082993
0.082930 0.536434 0.149662
0.082868 0.536372 0.215330
0.082807 0.536311 0.280323
0.082747 0.536251 0.344808
0.082687 0.536191 0.408886
0.082627 0.536131 0.472624
0.082567 0.536071 0.536071
0.082508 0.536012 0.599264
0.082449 0.535953 0.662230
0.082390 0.535894 0.724993
0.082331 0.535835 0.787572
0.082273 0.535777 0.849981
0.082214 0.535718 0.912234
0.082156 0.535660 0.974343
0.082126 0.535629 1.000000
0.082470 0.599225 0.013702
0.082405 0.599161 0.082405
0.082343 0.599098 0.149075
0.082281 0.599037 0.214742
0.082220 0.598976 0.279735
0.082159 0.598915 0.344220
0.082099 0.598855 0.408298
0.082039 0.598795 0.472036
0.081980 0.598736 0.535484
0.081921 0.598676 0.598676
0.081862 0.598617 0.661643
0.081803 0.598558 0.724406
0.081744 0.598499 0.786984
0.081685 0.598441 0.849393
0.081627 0.598382 0.911647
0.081569 0.598324 0.973755
0.081538 0.598294 1.000000
0.081884 0.661665 0.013117
0.081820 0.661601 0.081820
0.081757 0.661538 0.148490
0.081696 0.661477 0.214157
0.081635 0.661416 0.279150
0.081574 0.661355 0.343635
0.081514 0.661295 0.407713
0.081454 0.661235 0.471451
0.081395 0.661176 0.534898
0.081335 0.661116 0.598091
0.081276 0.661057 0.661057
0.081217 0.660998 0.723820
0.081158 0.660940 0.786399
0.081100 0.660881 0.848808
0.081041 0.660823 0.911061
0.080983 0.660764 0.973170
0.080953 0.660734 1.000000
0.081301 0.723904 0.012533
0.081236 0.723839 0.081236
0.081174 0.723777 0.147906
0.081112 0.723715 0.213573
0.081051 0.723654 0.278566
0.080991 0.723594 0.343051
0.080930 0.723533 0.407129
0.080871 0.723474 0.470868
0.080811 0.723414 0.534315
0.080752 0.723355 0.597507
0.080693 0.723296 0.660474
0.080634 0.723237 0.723237
0.080575 0.723178 0.785815
0.080516 0.723119 0.848224
0.080458 0.723061 0.910478
0.080400 0.723003 0.972586
0.080369 0.722972 1.000000
0.080719 0.785959 0.011951
0.080654 0.785895 0.080654
0.080592 0.785832 0.147324
0.080530 0.785770 0.212991
0.080469 0.785709 0.277984
0.080409 0.785649 0.342470
0.080349 0.785589 0.406547
0.080289 0.785529 0.470286
0.080229 0.785469 0.533733
0.080170 0.785410 0.596925
0.080111 0.785351 0.659892
0.080052 0.785292 0.722655
0.079993 0.785233 0.785233
0.079935 0.785175 0.847643
0.079876 0.785116 0.909896
0.079818 0.785058 0.972005
0.079787 0.785027 1.000000
0.080139 0.847847 0.011371
0.080074 0.847782 0.080074
0.080012 0.847720 0.146744
0.079950 0.847658 0.212411
0.079889 0.847597 0.277404
0.079829 0.847536 0.341889
0.079768 0.847476 0.405967
0.079709 0.847416 0.469706
0.079649 0.847357 0.533153
0.079590 0.847298 0.596345
0.079531 0.847239 0.659312
0.079472 0.847180 0.722075
0.079413 0.847121 0.784653
0.079354 0.847062 0.847062
0.079296 0.847004 0.909316
0.079238 0.846946 0.971424
0.079207 0.846915 1.000000
0.079560 0.909580 0.010792
0.079495 0.909515 0.079495
0.079433 0.909453 0.146165
0.079371 0.909391 0.211832
0.079310 0.909330 0.276825
0.079250 0.909269 0.341311
0.079190 0.909209 0.405388
0.079130 0.909149 0.469127
0.079070 0.909090 0.532574
0.079011 0.909031 0.595767
0.078952 0.908972 0.658733
0.078893 0.908913 0.721496
0.078834 0.908854 0.784074
0.078776 0.908795 0.846484
0.078717 0.908737 0.908737
0.078659 0.908679 0.970846
0.078628 0.908648 1.000000
0.078983 0.971169 0.010215
0.078918 0.971105 0.078918
0.078855 0.971042 0.145588
0.078794 0.970980 0.211255
0.078733 0.970919 0.276248
0.078672 0.970859 0.340733
0.078612 0.970799 0.404811
0.078552 0.970739 0.468549
0.078493 0.970679 0.531997
0.078434 0.970620 0.595189
0.078374 0.970561 0.658155
0.078316 0.970502 0.720919
0.078257 0.970443 0.783497
0.078198 0.970385 0.845906
0.078140 0.970326 0.908159
0.078081 0.970268 0.970268
0.078051 0.970238 1.000000
0.078680 1.000000 0.009912
0.078615 1.000000 0.078615
0.078553 1.000000 0.145285
0.078491 1.000000 0.210952
0.078430 1.000000 0.275945
0.078369 1.000000 0.340430
0.078309 1.000000 0.404508
0.078249 1.000000 0.468246
0.078190 1.000000 0.531694
0.078131 1.000000 0.594886
0.078071 1.000000 0.657853
0.078013 1.000000 0.720616
0.077954 1.000000 0.783194
0.077895 1.000000 0.845603
0.077837 1.000000 0.907856
0.077779 1.000000 0.969965
0.077748 1.000000 1.000000
0.154456 0.018956 0.018956
0.154392 0.018892 0.087659
0.154329 0.018829 0.154329
0.154268 0.018768 0.219996
0.154207 0.018707 0.284989
0.154146 0.018646 0.349475
0.154086 0.018586 0.413552
0.154026 0.018526 0.477291
0.153967 0.018467 0.540738
0.153907 0.018407 0.603930
0.153848 0.018348 0.666897
0.153789 0.018289 0.729660
0.153731 0.018230 0.792238
0.153672 0.018172 0.854648
0.153614 0.018113 0.916901
0.153555 0.018055 0.979009
0.153525 0.018025 1.000000
0.153818 0.087085 0.018318
0.153753 0.087021 0.087021
0.153691 0.086958 0.153691
0.153629 0.086897 0.219358
0.153568 0.086836 0.284351
0.153507 0.086775 0.348836
0.153447 0.086715 0.412914
0.153387 0.086655 0.476652
0.153328 0.086595 0.540099
0.153269 0.086536 0.603292
0.153209 0.086477 0.666258
0.153151 0.086418 0.729021
0.153092 0.086359 0.791600
0.153033 0.086301 0.854009
0.152975 0.086242 0.916262
0.152917 0.086184 0.978371
0.152886 0.086154 1.000000
0.153198 0.153198 0.017698
0.153133 0.153133 0.086401
0.153071 0.153071 0.153071
0.153009 0.153009 0.218738
0.152948 0.152948 0.283731
0.152888 0.152888 0.348216
0.152827 0.152827 0.412294
0.152768 0.152768 0.476032
0.152708 0.152708 0.539479
0.152649 0.152649 0.602672
0.152590 0.152590 0.665638
0.152531 0.152531 0.728401
0.152472 0.152472 0.790980
0.152413 0.152413 0.853389
0.152355 0.152355 0.915642
0.152297 0.152297 0.977751
0.152266 0.152266 1.000000
0.152587 0.218316 0.017087
0.152523 0.218251 0.085790
0.152460 0.218189 0.152460
0.152399 0.218127 0.218127
0.152338 0.218066 0.283120
0.152277 0.218006 0.347605
0.152217 0.217946 0.411683
0.152157 0.217886 0.475422
0.152098 0.217826 0.538869
0.152038 0.217767 0.602061
0.151979 0.217708 0.665028
0.151920 0.217649 0.727791
0.151861 0.217590 0.790369
0.151803 0.217532 0.852778
0.151744 0.217473 0.915032
0.151686 0.217415 0.977140
0.151656 0.217384 1.000000
0.151983 0.282766 0.016483
0.151918 0.282701 0.085186
0.151856 0.282639 0.151856
0.151794 0.282577 0.217523
0.151733 0.282516 0.282516
0.151673 0.282456 0.347001
0.151613 0.282395 0.411079
0.151553 0.282336 0.474817
0.151493 0.282276 0.538265
0.151434 0.282217 0.601457
0.151375 0.282158 0.664424
0.151316 0.282099 0.727187
0.151257 0.282040 0.789765
0.151199 0.281981 0.852174
0.151140 0.281923 0.914428
0.151082 0.281865 0.976536
0.151051 0.281834 1.000000
0.151383 0.346712 0.015883
0.151319 0.346647 0.084587
0.151256 0.346585 0.151256
0.151195 0.346523 0.216924
0.151134 0.346462 0.281917
0.151073 0.346402 0.346402
0.151013 0.346342 0.410480
0.150953 0.346282 0.474218
0.150894 0.346222 0.537665
0.150834 0.346163 0.600858
0.150775 0.346104 0.663824
0.150716 0.346045 0.726587
0.150658 0.345986 0.789165
0.150599 0.345928 0.851575
0.150541 0.345869 0.913828
0.150482 0.345811 0.975937
0.150452 0.345780 1.000000
0.150788 0.410254 0.015288
0.150723 0.410190 0.083991
0.150661 0.410127 0.150661
0.150599 0.410066 0.216328
0.150538 0.410005 0.281321
0.150478 0.409944 0.345806
0.150417 0.409884 0.409884
0.150358 0.409824 0.473622
0.150298 0.409764 0.537069
0.150239 0.409705 0.600262
0.150180 0.409646 0.663228
0.150121 0.409587 0.725991
0.150062 0.409528 0.788570
0.150003 0.409470 0.850979
0.149945 0.409411 0.913232
0.149887 0.409353 0.975341
0.149856 0.409323 1.000000
0.150195 0.473460 0.014695
0.150131 0.473395 0.083398
0.150068 0.473333 0.150068
0.150006 0.473271 0.215735
0.149945 0.473210 0.280728
0.149885 0.473150 0.345213
0.149825 0.473089 0.409291
0.149765 0.473030 0.473030
0.149705 0.472970 0.536477
0.149646 0.472911 0.599669
0.149587 0.472852 0.662636
0.149528 0.472793 0.725399
0.149469 0.472734 0.787977
0.149411 0.472675 0.850386
0.149352 0.472617 0.912640
0.149294 0.472559 0.974748
0.149264 0.472528 1.000000
0.149605 0.536377 0.014105
0.149541 0.536312 0.082808
0.149478 0.536250 0.149478
0.149417 0.536188 0.215145
0.149356 0.536127 0.280138
0.149295 0.536066 0.344623
0.149235 0.536006 0.408701
0.149175 0.535946 0.472440
0.149116 0.535887 0.535887
0.149056 0.535828 0.599079
0.148997 0.535768 0.662046
0.148938 0.535710 0.724809
0.148880 0.535651 0.787387
0.148821 0.535592 0.849797
0.148763 0.535534 0.912050
0.148704 0.535476 0.974158
0.148674 0.535445 1.000000
0.149018 0.599041 0.013518
0.148953 0.598976 0.082221
0.148891 0.598914 0.148891
0.148829 0.598852 0.214558
0.148768 0.598791 0.279551
0.148708 0.598731 0.344036
0.148647 0.598671 0.408114
0.148588 0.598611 0.471852
0.148528 0.598551 0.535299
0.148469 0.598492 0.598492
0.148410 0.598433 0.661458
0.148351 0.598374 0.724221
0.148292 0.598315 0.786800
0.148233 0.598257 0.849209
0.148175 0.598198 0.911462
0.148117 0.598140 0.973571
0.148086 0.598109 1.000000
0.148432 0.661481 0.012932
0.148368 0.661417 0.081636
0.148305 0.661354 0.148305
0.148244 0.661292 0.213972
0.148183 0.661231 0.278965
0.148122 0.661171 0.343451
0.148062 0.661111 0.407529
0.148002 0.661051 0.471267
0.147943 0.660991 0.534714
0.147883 0.660932 0.597907
0.147824 0.660873 0.660873
0.147765 0.660814 0.723636
0.147707 0.660755 0.786214
0.147648 0.660697 0.848624
0.147590 0.660638 0.910877
0.147531 0.660580 0.972986
0.147501 0.660549 1.000000
0.147849 0.723720 0.012349
0.147784 0.723655 0.081052
0.147722 0.723592 0.147722
0.147660 0.723531 0.213389
0.147599 0.723470 0.278382
0.147539 0.723409 0.342867
0.147479 0.723349 0.406945
0.147419 0.723289 0.470683
0.147359 0.723230 0.534130
0.147300 0.723170 0.597323
0.147241 0.723111 0.660289
0.147182 0.723052 0.723052
0.147123 0.722994 0.785631
0.147065 0.722935 0.848040
0.147006 0.722877 0.910293
0.146948 0.722818 0.972402
0.146917 0.722788 1.000000
0.147267 0.785775 0.011767
0.147203 0.785710 0.080470
0.147140 0.785648 0.147140
0.147078 0.785586 0.212807
0.147017 0.785525 0.277800
0.146957 0.785465 0.342285
0.146897 0.785404 0.406363
0.146837 0.785345 0.470101
0.146777 0.785285 0.533549
0.146718 0.785226 0.596741
0.146659 0.785167 0.659708
0.146600 0.785108 0.722471
0.146541 0.785049 0.785049
0.146483 0.784990 0.847458
0.146424 0.784932 0.909712
0.146366 0.784874 0.971820
0.146335 0.784843 1.000000
0.146687 0.847662 0.011187
0.146622 0.847598 0.079890
0.146560 0.847535 0.146560
0.146498 0.847474 0.212227
0.146437 0.847413 0.277220
0.146377 0.847352 0.341705
0.146317 0.847292 0.405783
0.146257 0.847232 0.469521
0.146197 0.847173 0.532968
0.146138 0.847113 0.596161
0.146079 0.847054 0.659127
0.146020 0.846995 0.721890
0.145961 0.846937 0.784469
0.145903 0.846878 0.846878
0.145844 0.846820 0.909131
0.145786 0.846761 0.971240
0.145755 0.846731 1.000000
0.146108 0.909395 0.010608
0.146044 0.909331 0.079311
0.145981 0.909268 0.145981
0.145919 0.909207 0.211648
0.145858 0.909146 0.276641
0.145798 0.909085 0.341126
0.145738 0.909025 0.405204
0.145678 0.908965 0.468943
0.145618 0.908906 0.532390
0.145559 0.908846 0.595582
0.145500 0.908787 0.658549
0.145441 0.908728 0.721312
0.145382 0.908670 0.783890
0.145324 0.908611 0.846299
0.145265 0.908553 0.908553
0.145207 0.908494 0.970661
0.145176 0.908464 1.000000
0.145531 0.970985 0.010031
0.145466 0.970920 0.078734
0.145404 0.970858 0.145404
0.145342 0.970796 0.211071
0.145281 0.970735 0.276064
0.145220 0.970675 0.340549
0.145160 0.970615 0.404627
0.145100 0.970555 0.468365
0.145041 0.970495 0.531812
0.144982 0.970436 0.595005
0.144923 0.970377 0.657971
0.144864 0.970318 0.720734
0.144805 0.970259 0.783313
0.144746 0.970201 0.845722
0.144688 0.970142 0.907975
0.144630 0.970084 0.970084
0.144599 0.970053 1.000000
0.145228 1.000000 0.009728
0.145163 1.000000 0.078431
0.145101 1.000000 0.145101
0.145039 1.000000 0.210768
0.144978 1.000000 0.275761
0.144917 1.000000 0.340246
0.144857 1.000000 0.404324
0.144798 1.000000 0.468062
0.144738 1.000000 0.531509
0.144679 1.000000 0.594702
0.144620 1.000000 0.657668
0.144561 1.000000 0.720431
0.144502 1.000000 0.783010
0.144443 1.000000 0.845419
0.144385 1.000000 0.907672
0.144327 1.000000 0.969781
0.144296 1.000000 1.000000
0.220004 0.018775 0.018775
0.219939 0.018710 0.087478
0.219877 0.018648 0.154148
0.219815 0.018586 0.219815
0.219754 0.018525 0.284808
0.219693 0.018465 0.349293
0.219633 0.018404 0.413371
0.219573 0.018345 0.477109
0.219514 0.018285 0.540556
0.219455 0.018226 0.603749
0.219395 0.018167 0.666715
0.219337 0.018108 0.729478
0.219278 0.018049 0.792057
0.219219 0.017990 0.854466
0.219161 0.017932 0.916719
0.219103 0.017874 0.978828
0.219072 0.017843 1.000000
0.219365 0.086904 0.018136
