skills/appstore-swiss-grid/assets/grade/luts/clean_bright_v06.cube
TITLE "clean_bright_v06"
LUT_3D_SIZE 9
DOMAIN_MIN 0.0 0.0 0.0
DOMAIN_MAX 1.0 1.0 1.0
0.019330 0.019330 0.019330
0.019203 0.019203 0.154703
0.019081 0.019081 0.285364
0.018960 0.018960 0.413927
0.018841 0.018841 0.541112
0.018722 0.018722 0.667271
0.018605 0.018605 0.792612
0.018488 0.018488 0.917275
0.018399 0.018399 1.000000
0.018072 0.153572 0.018072
0.017945 0.153445 0.153445
0.017822 0.153322 0.284105
0.017701 0.153202 0.412668
0.017582 0.153082 0.539853
0.017464 0.152964 0.666012
0.017346 0.152846 0.791354
0.017229 0.152729 0.916016
0.017140 0.152640 1.000000
0.016857 0.283140 0.016857
0.016730 0.283013 0.152230
0.016607 0.282890 0.282890
0.016487 0.282770 0.411453
0.016367 0.282650 0.538639
0.016249 0.282532 0.664798
0.016131 0.282414 0.790139
0.016014 0.282297 0.914802
0.015925 0.282208 1.000000
0.015662 0.410628 0.015662
0.015535 0.410501 0.151035
0.015412 0.410379 0.281695
0.015291 0.410258 0.410258
0.015172 0.410139 0.537443
0.015054 0.410020 0.663602
0.014936 0.409903 0.788944
0.014819 0.409786 0.913606
0.014730 0.409697 1.000000
0.014479 0.536751 0.014479
0.014352 0.536624 0.149852
0.014230 0.536501 0.280512
0.014109 0.536380 0.409076
0.013990 0.536261 0.536261
0.013871 0.536143 0.662420
0.013754 0.536025 0.787761
0.013637 0.535908 0.912424
0.013548 0.535819 1.000000
0.013306 0.661855 0.013306
0.013179 0.661728 0.148679
0.013057 0.661606 0.279340
0.012936 0.661485 0.407903
0.012817 0.661365 0.535088
0.012698 0.661247 0.661247
0.012581 0.661129 0.786588
0.012464 0.661012 0.911251
0.012375 0.660924 1.000000
0.012141 0.786149 0.012141
0.012014 0.786022 0.147514
0.011891 0.785899 0.278174
0.011771 0.785779 0.406737
0.011651 0.785659 0.533923
0.011533 0.785541 0.660082
0.011415 0.785423 0.785423
0.011298 0.785306 0.910086
0.011210 0.785217 1.000000
0.010982 0.909769 0.010982
0.010855 0.909642 0.146355
0.010732 0.909520 0.277015
0.010612 0.909399 0.405578
0.010492 0.909280 0.532764
0.010374 0.909161 0.658923
0.010256 0.909044 0.784264
0.010139 0.908927 0.908927
0.010051 0.908838 1.000000
0.010102 1.000000 0.010102
0.009975 1.000000 0.145475
0.009852 1.000000 0.276135
0.009731 1.000000 0.404698
0.009612 1.000000 0.531883
0.009494 1.000000 0.658042
0.009376 1.000000 0.783384
0.009259 1.000000 0.908046
0.009170 1.000000 1.000000
0.154456 0.018956 0.018956
0.154329 0.018829 0.154329
0.154207 0.018707 0.284989
0.154086 0.018586 0.413552
0.153967 0.018467 0.540738
0.153848 0.018348 0.666897
0.153731 0.018230 0.792238
0.153614 0.018113 0.916901
0.153525 0.018025 1.000000
0.153198 0.153198 0.017698
0.153071 0.153071 0.153071
0.152948 0.152948 0.283731
0.152827 0.152827 0.412294
0.152708 0.152708 0.539479
0.152590 0.152590 0.665638
0.152472 0.152472 0.790980
0.152355 0.152355 0.915642
0.152266 0.152266 1.000000
0.151983 0.282766 0.016483
0.151856 0.282639 0.151856
0.151733 0.282516 0.282516
0.151613 0.282395 0.411079
0.151493 0.282276 0.538265
0.151375 0.282158 0.664424
0.151257 0.282040 0.789765
0.151140 0.281923 0.914428
0.151051 0.281834 1.000000
0.150788 0.410254 0.015288
0.150661 0.410127 0.150661
0.150538 0.410005 0.281321
0.150417 0.409884 0.409884
0.150298 0.409764 0.537069
0.150180 0.409646 0.663228
0.150062 0.409528 0.788570
0.149945 0.409411 0.913232
0.149856 0.409323 1.000000
0.149605 0.536377 0.014105
0.149478 0.536250 0.149478
0.149356 0.536127 0.280138
0.149235 0.536006 0.408701
0.149116 0.535887 0.535887
0.148997 0.535768 0.662046
0.148880 0.535651 0.787387
0.148763 0.535534 0.912050
0.148674 0.535445 1.000000
0.148432 0.661481 0.012932
0.148305 0.661354 0.148305
0.148183 0.661231 0.278965
0.148062 0.661111 0.407529
0.147943 0.660991 0.534714
0.147824 0.660873 0.660873
0.147707 0.660755 0.786214
0.147590 0.660638 0.910877
0.147501 0.660549 1.000000
0.147267 0.785775 0.011767
0.147140 0.785648 0.147140
0.147017 0.785525 0.277800
0.146897 0.785404 0.406363
0.146777 0.785285 0.533549
0.146659 0.785167 0.659708
0.146541 0.785049 0.785049
0.146424 0.784932 0.909712
0.146335 0.784843 1.000000
0.146108 0.909395 0.010608
0.145981 0.909268 0.145981
0.145858 0.909146 0.276641
0.145738 0.909025 0.405204
0.145618 0.908906 0.532390
0.145500 0.908787 0.658549
0.145382 0.908670 0.783890
0.145265 0.908553 0.908553
0.145176 0.908464 1.000000
0.145228 1.000000 0.009728
0.145101 1.000000 0.145101
0.144978 1.000000 0.275761
0.144857 1.000000 0.404324
0.144738 1.000000 0.531509
0.144620 1.000000 0.657668
0.144502 1.000000 0.783010
0.144385 1.000000 0.907672
0.144296 1.000000 1.000000
0.284878 0.018595 0.018595
0.284751 0.018468 0.153968
0.284628 0.018345 0.284628
0.284508 0.018225 0.413191
0.284388 0.018105 0.540377
0.284270 0.017987 0.666536
0.284152 0.017869 0.791877
0.284035 0.017752 0.916540
0.283946 0.017664 1.000000
0.283619 0.152837 0.017337
0.283492 0.152710 0.152710
0.283370 0.152587 0.283370
0.283249 0.152466 0.411933
0.283130 0.152347 0.539118
0.283011 0.152229 0.665277
0.282894 0.152111 0.790619
0.282777 0.151994 0.915281
0.282688 0.151905 1.000000
0.282405 0.282405 0.016122
0.282278 0.282278 0.151495
0.282155 0.282155 0.282155
0.282034 0.282034 0.410718
0.281915 0.281915 0.537903
0.281797 0.281797 0.664062
0.281679 0.281679 0.789404
0.281562 0.281562 0.914066
0.281473 0.281473 1.000000
0.281209 0.409893 0.014927
0.281082 0.409766 0.150300
0.280960 0.409643 0.280960
0.280839 0.409523 0.409523
0.280720 0.409403 0.536708
0.280601 0.409285 0.662867
0.280484 0.409167 0.788209
0.280367 0.409050 0.912871
0.280278 0.408961 1.000000
0.280027 0.536016 0.013744
0.279900 0.535888 0.149117
0.279777 0.535766 0.279777
0.279657 0.535645 0.408340
0.279537 0.535526 0.535526
0.279419 0.535407 0.661685
0.279301 0.535290 0.787026
0.279184 0.535173 0.911689
0.279095 0.535084 1.000000
0.278854 0.661120 0.012571
0.278727 0.660993 0.147944
0.278604 0.660870 0.278604
0.278484 0.660750 0.407167
0.278364 0.660630 0.534353
0.278246 0.660512 0.660512
0.278128 0.660394 0.785853
0.278011 0.660277 0.910516
0.277922 0.660188 1.000000
0.277689 0.785414 0.011406
0.277562 0.785287 0.146779
0.277439 0.785164 0.277439
0.277318 0.785043 0.406002
0.277199 0.784924 0.533188
0.277081 0.784806 0.659347
0.276963 0.784688 0.784688
0.276846 0.784571 0.909351
0.276757 0.784482 1.000000
0.276530 0.909034 0.010247
0.276403 0.908907 0.145620
0.276280 0.908785 0.276280
0.276159 0.908664 0.404843
0.276040 0.908545 0.532029
0.275922 0.908426 0.658188
0.275804 0.908309 0.783529
0.275687 0.908192 0.908192
0.275598 0.908103 1.000000
0.275649 1.000000 0.009367
0.275522 1.000000 0.144740
0.275400 1.000000 0.275400
0.275279 1.000000 0.403963
0.275160 1.000000 0.531148
0.275041 1.000000 0.657307
0.274924 1.000000 0.782649
0.274807 1.000000 0.907311
0.274718 1.000000 1.000000
0.413206 0.018240 0.018240
0.413079 0.018113 0.153613
0.412957 0.017990 0.284273
0.412836 0.017869 0.412836
0.412717 0.017750 0.540022
0.412598 0.017632 0.666180
0.412481 0.017514 0.791522
0.412364 0.017397 0.916184
0.412275 0.017308 1.000000
0.411948 0.152481 0.016981
0.411821 0.152354 0.152354
0.411698 0.152232 0.283014
0.411577 0.152111 0.411577
0.411458 0.151992 0.538763
0.411340 0.151873 0.664922
0.411222 0.151756 0.790263
0.411105 0.151639 0.914926
0.411016 0.151550 1.000000
0.410733 0.282049 0.015767
0.410606 0.281922 0.151140
0.410483 0.281800 0.281800
0.410363 0.281679 0.410363
0.410243 0.281560 0.537548
0.410125 0.281441 0.663707
0.410007 0.281324 0.789049
0.409890 0.281207 0.913711
0.409801 0.281118 1.000000
0.409538 0.409538 0.014571
0.409411 0.409411 0.149944
0.409288 0.409288 0.280604
0.409167 0.409167 0.409167
0.409048 0.409048 0.536353
0.408930 0.408930 0.662512
0.408812 0.408812 0.787853
0.408695 0.408695 0.912516
0.408606 0.408606 1.000000
0.408355 0.535660 0.013389
0.408228 0.535533 0.148762
0.408106 0.535411 0.279422
0.407985 0.535290 0.407985
0.407866 0.535170 0.535170
0.407747 0.535052 0.661329
0.407630 0.534934 0.786671
0.407513 0.534817 0.911333
0.407424 0.534729 1.000000
0.407182 0.660765 0.012216
0.407055 0.660638 0.147589
0.406933 0.660515 0.278249
0.406812 0.660394 0.406812
0.406693 0.660275 0.533998
0.406574 0.660157 0.660157
0.406457 0.660039 0.785498
0.406340 0.659922 0.910161
0.406251 0.659833 1.000000
0.406017 0.785058 0.011051
0.405890 0.784931 0.146424
0.405767 0.784809 0.277084
0.405647 0.784688 0.405647
0.405527 0.784569 0.532832
0.405409 0.784450 0.658991
0.405291 0.784333 0.784333
0.405174 0.784216 0.908995
0.405086 0.784127 1.000000
0.404858 0.908679 0.009892
0.404731 0.908552 0.145265
0.404608 0.908429 0.275925
0.404488 0.908309 0.404488
0.404368 0.908189 0.531673
0.404250 0.908071 0.657832
0.404132 0.907953 0.783174
0.404015 0.907836 0.907836
0.403927 0.907747 1.000000
0.403978 1.000000 0.009011
0.403851 1.000000 0.144384
0.403728 1.000000 0.275044
0.403607 1.000000 0.403607
0.403488 1.000000 0.530793
0.403370 1.000000 0.656952
0.403252 1.000000 0.782293
0.403135 1.000000 0.906956
0.403046 1.000000 1.000000
0.540160 0.017888 0.017888
0.540033 0.017761 0.153261
0.539910 0.017639 0.283921
0.539789 0.017518 0.412485
0.539670 0.017399 0.539670
0.539552 0.017280 0.665829
0.539434 0.017163 0.791170
0.539317 0.017046 0.915833
0.539228 0.016957 1.000000
0.538901 0.152130 0.016630
0.538774 0.152003 0.152003
0.538651 0.151880 0.282663
0.538531 0.151759 0.411226
0.538411 0.151640 0.538411
0.538293 0.151522 0.664570
0.538175 0.151404 0.789912
0.538058 0.151287 0.914574
0.537970 0.151198 1.000000
0.537686 0.281698 0.015415
0.537559 0.281571 0.150788
0.537437 0.281448 0.281448
0.537316 0.281328 0.410011
0.537197 0.281208 0.537197
0.537078 0.281090 0.663356
0.536961 0.280972 0.788697
0.536844 0.280855 0.913360
0.536755 0.280766 1.000000
0.536491 0.409186 0.014220
0.536364 0.409059 0.149593
0.536241 0.408937 0.280253
0.536121 0.408816 0.408816
0.536001 0.408697 0.536001
0.535883 0.408578 0.662160
0.535765 0.408461 0.787502
0.535648 0.408344 0.912164
0.535560 0.408255 1.000000
0.535309 0.535309 0.013037
0.535182 0.535182 0.148410
0.535059 0.535059 0.279070
0.534938 0.534938 0.407634
0.534819 0.534819 0.534819
0.534701 0.534701 0.660978
0.534583 0.534583 0.786319
0.534466 0.534466 0.910982
0.534377 0.534377 1.000000
0.534136 0.660413 0.011864
0.534009 0.660286 0.147237
0.533886 0.660163 0.277898
0.533765 0.660043 0.406461
0.533646 0.659923 0.533646
0.533528 0.659805 0.659805
0.533410 0.659687 0.785146
0.533293 0.659570 0.909809
0.533204 0.659482 1.000000
0.532970 0.784707 0.010699
0.532843 0.784580 0.146072
0.532721 0.784457 0.276732
0.532600 0.784337 0.405295
0.532481 0.784217 0.532481
0.532362 0.784099 0.658640
0.532245 0.783981 0.783981
0.532128 0.783864 0.908644
0.532039 0.783775 1.000000
0.531812 0.908327 0.009540
0.531684 0.908200 0.144913
0.531562 0.908078 0.275573
0.531441 0.907957 0.404136
0.531322 0.907838 0.531322
0.531203 0.907719 0.657481
0.531086 0.907602 0.782822
0.530969 0.907485 0.907485
0.530880 0.907396 1.000000
0.530931 1.000000 0.008660
0.530804 1.000000 0.144033
0.530681 1.000000 0.274693
0.530561 1.000000 0.403256
0.530441 1.000000 0.530441
0.530323 1.000000 0.656600
0.530205 1.000000 0.781942
0.530088 1.000000 0.906604
0.529999 1.000000 1.000000
0.666088 0.017540 0.017540
0.665961 0.017413 0.152913
0.665839 0.017290 0.283573
0.665718 0.017169 0.412136
0.665599 0.017050 0.539321
0.665480 0.016932 0.665480
0.665363 0.016814 0.790822
0.665246 0.016697 0.915484
0.665157 0.016608 1.000000
0.664830 0.151781 0.016281
0.664703 0.151654 0.151654
0.664580 0.151531 0.282314
0.664460 0.151411 0.410877
0.664340 0.151291 0.538063
0.664222 0.151173 0.664222
0.664104 0.151055 0.789563
0.663987 0.150938 0.914226
0.663898 0.150850 1.000000
0.663615 0.281349 0.015066
0.663488 0.281222 0.150439
0.663365 0.281100 0.281100
0.663245 0.280979 0.409663
0.663125 0.280859 0.536848
0.663007 0.280741 0.663007
0.662889 0.280623 0.788348
0.662772 0.280506 0.913011
0.662683 0.280418 1.000000
0.662420 0.408838 0.013871
0.662293 0.408711 0.149244
0.662170 0.408588 0.279904
0.662050 0.408467 0.408467
0.661930 0.408348 0.535653
0.661812 0.408230 0.661812
0.661694 0.408112 0.787153
0.661577 0.407995 0.911816
0.661488 0.407906 1.000000
0.661237 0.534960 0.012689
0.661110 0.534833 0.148062
0.660988 0.534710 0.278722
0.660867 0.534590 0.407285
0.660748 0.534470 0.534470
0.660629 0.534352 0.660629
0.660512 0.534234 0.785971
0.660395 0.534117 0.910633
0.660306 0.534028 1.000000
0.660065 0.660065 0.011516
0.659937 0.659937 0.146889
0.659815 0.659815 0.277549
0.659694 0.659694 0.406112
0.659575 0.659575 0.533297
0.659456 0.659456 0.659456
0.659339 0.659339 0.784798
0.659222 0.659222 0.909460
0.659133 0.659133 1.000000
0.658899 0.784358 0.010350
0.658772 0.784231 0.145723
0.658650 0.784109 0.276384
0.658529 0.783988 0.404947
0.658410 0.783869 0.532132
0.658291 0.783750 0.658291
0.658173 0.783633 0.783633
0.658056 0.783516 0.908295
0.657968 0.783427 1.000000
0.657740 0.907979 0.009191
0.657613 0.907852 0.144564
0.657491 0.907729 0.275225
0.657370 0.907608 0.403788
0.657251 0.907489 0.530973
0.657132 0.907371 0.657132
0.657014 0.907253 0.782474
0.656897 0.907136 0.907136
0.656809 0.907047 1.000000
0.656860 1.000000 0.008311
0.656733 1.000000 0.143684
0.656610 1.000000 0.274344
0.656489 1.000000 0.402907
0.656370 1.000000 0.530093
0.656252 1.000000 0.656252
0.656134 1.000000 0.781593
0.656017 1.000000 0.906256
0.655928 1.000000 1.000000
0.791201 0.017193 0.017193
0.791074 0.017066 0.152566
0.790951 0.016944 0.283226
0.790831 0.016823 0.411789
0.790711 0.016704 0.538975
0.790593 0.016585 0.665134
0.790475 0.016468 0.790475
0.790358 0.016351 0.915138
0.790269 0.016262 1.000000
0.789943 0.151435 0.015935
0.789815 0.151308 0.151308
0.789693 0.151185 0.281968
0.789572 0.151064 0.410531
0.789453 0.150945 0.537716
0.789334 0.150827 0.663875
0.789217 0.150709 0.789217
0.789100 0.150592 0.913879
0.789011 0.150503 1.000000
0.788728 0.281003 0.014720
0.788601 0.280876 0.150093
0.788478 0.280753 0.280753
0.788357 0.280632 0.409316
0.788238 0.280513 0.536502
0.788120 0.280395 0.662661
0.788002 0.280277 0.788002
0.787885 0.280160 0.912665
0.787796 0.280071 1.000000
0.787533 0.408491 0.013525
0.787405 0.408364 0.148898
0.787283 0.408242 0.279558
0.787162 0.408121 0.408121
0.787043 0.408002 0.535306
0.786924 0.407883 0.661465
0.786807 0.407765 0.786807
0.786690 0.407648 0.911469
0.786601 0.407560 1.000000
0.786350 0.534614 0.012342
0.786223 0.534487 0.147715
0.786100 0.534364 0.278375
0.785980 0.534243 0.406938
0.785860 0.534124 0.534124
0.785742 0.534006 0.660283
0.785624 0.533888 0.785624
0.785507 0.533771 0.910287
0.785418 0.533682 1.000000
0.785177 0.659718 0.011169
0.785050 0.659591 0.146542
0.784927 0.659468 0.277203
0.784807 0.659348 0.405766
0.784687 0.659228 0.532951
0.784569 0.659110 0.659110
0.784451 0.658992 0.784451
0.784334 0.658875 0.909114
0.784246 0.658786 1.000000
0.784012 0.784012 0.010004
0.783885 0.783885 0.145377
0.783762 0.783762 0.276037
0.783642 0.783642 0.404600
0.783522 0.783522 0.531786
0.783404 0.783404 0.657945
0.783286 0.783286 0.783286
0.783169 0.783169 0.907949
0.783080 0.783080 1.000000
0.782853 0.907632 0.008845
0.782726 0.907505 0.144218
0.782603 0.907383 0.274878
0.782483 0.907262 0.403441
0.782363 0.907143 0.530627
0.782245 0.907024 0.656786
0.782127 0.906907 0.782127
0.782010 0.906790 0.906790
0.781921 0.906701 1.000000
0.781972 1.000000 0.007965
0.781845 1.000000 0.143338
0.781723 1.000000 0.273998
0.781602 1.000000 0.402561
0.781483 1.000000 0.529746
0.781364 1.000000 0.655905
0.781247 1.000000 0.781247
0.781130 1.000000 0.905909
0.781041 1.000000 1.000000
0.915636 0.016849 0.016849
0.915509 0.016722 0.152222
0.915386 0.016599 0.282882
0.915266 0.016478 0.411445
0.915146 0.016359 0.538630
0.915028 0.016241 0.664789
0.914910 0.016123 0.790131
0.914793 0.016006 0.914793
0.914704 0.015917 1.000000
0.914378 0.151090 0.015590
0.914251 0.150963 0.150963
0.914128 0.150841 0.281623
0.914007 0.150720 0.410186
0.913888 0.150601 0.537372
0.913769 0.150482 0.663531
0.913652 0.150365 0.788872
0.913535 0.150248 0.913535
0.913446 0.150159 1.000000
0.913163 0.280658 0.014375
0.913036 0.280531 0.149748
0.912913 0.280409 0.280409
0.912792 0.280288 0.408972
0.912673 0.280169 0.536157
0.912555 0.280050 0.662316
0.912437 0.279933 0.787658
0.912320 0.279816 0.912320
0.912231 0.279727 1.000000
0.911968 0.408147 0.013180
0.911840 0.408020 0.148553
0.911718 0.407897 0.279213
0.911597 0.407776 0.407776
0.911478 0.407657 0.534962
0.911359 0.407539 0.661121
0.911242 0.407421 0.786462
0.911125 0.407304 0.911125
0.911036 0.407215 1.000000
0.910785 0.534269 0.011998
0.910658 0.534142 0.147371
0.910535 0.534019 0.278031
0.910415 0.533899 0.406594
0.910295 0.533779 0.533779
0.910177 0.533661 0.659938
0.910059 0.533543 0.785280
0.909942 0.533426 0.909942
0.909853 0.533337 1.000000
0.909612 0.659374 0.010825
0.909485 0.659247 0.146198
0.909363 0.659124 0.276858
0.909242 0.659003 0.405421
0.909122 0.658884 0.532607
0.909004 0.658765 0.658765
0.908886 0.658648 0.784107
0.908769 0.658531 0.908769
0.908681 0.658442 1.000000
0.908447 0.783667 0.009660
0.908320 0.783540 0.145033
0.908197 0.783418 0.275693
0.908077 0.783297 0.404256
0.907957 0.783178 0.531441
0.907839 0.783059 0.657600
0.907721 0.782942 0.782942
0.907604 0.782825 0.907604
0.907515 0.782736 1.000000
0.907288 0.907288 0.008501
0.907161 0.907161 0.143874
0.907038 0.907038 0.274534
0.906918 0.906918 0.403097
0.906798 0.906798 0.530282
0.906680 0.906680 0.656441
0.906562 0.906562 0.781783
0.906445 0.906445 0.906445
0.906356 0.906356 1.000000
0.906408 1.000000 0.007620
0.906280 1.000000 0.142993
0.906158 1.000000 0.273653
0.906037 1.000000 0.402216
0.905918 1.000000 0.529402
0.905799 1.000000 0.655561
0.905682 1.000000 0.780902
0.905565 1.000000 0.905565
0.905476 1.000000 1.000000
1.000000 0.016587 0.016587
1.000000 0.016460 0.151960
1.000000 0.016337 0.282620
1.000000 0.016217 0.411183
1.000000 0.016097 0.538369
1.000000 0.015979 0.664528
1.000000 0.015861 0.789869
1.000000 0.015744 0.914532
1.000000 0.015655 1.000000
1.000000 0.150829 0.015329
1.000000 0.150701 0.150701
1.000000 0.150579 0.281362
1.000000 0.150458 0.409925
1.000000 0.150339 0.537110
1.000000 0.150220 0.663269
1.000000 0.150103 0.788611
1.000000 0.149986 0.913273
1.000000 0.149897 1.000000
1.000000 0.280397 0.014114
1.000000 0.280270 0.149487
1.000000 0.280147 0.280147
1.000000 0.280026 0.408710
1.000000 0.279907 0.535895
1.000000 0.279788 0.662054
1.000000 0.279671 0.787396
1.000000 0.279554 0.912058
1.000000 0.279465 1.000000
1.000000 0.407885 0.012918
1.000000 0.407758 0.148291
1.000000 0.407635 0.278952
1.000000 0.407515 0.407515
1.000000 0.407395 0.534700
1.000000 0.407277 0.660859
1.000000 0.407159 0.786201
1.000000 0.407042 0.910863
1.000000 0.406953 1.000000
1.000000 0.534007 0.011736
1.000000 0.533880 0.147109
1.000000 0.533758 0.277769
1.000000 0.533637 0.406332
1.000000 0.533518 0.533518
1.000000 0.533399 0.659677
1.000000 0.533282 0.785018
1.000000 0.533165 0.909681
1.000000 0.533076 1.000000
1.000000 0.659112 0.010563
1.000000 0.658985 0.145936
1.000000 0.658862 0.276596
1.000000 0.658742 0.405159
1.000000 0.658622 0.532345
1.000000 0.658504 0.658504
1.000000 0.658386 0.783845
1.000000 0.658269 0.908508
1.000000 0.658180 1.000000
1.000000 0.783406 0.009398
1.000000 0.783279 0.144771
1.000000 0.783156 0.275431
1.000000 0.783035 0.403994
1.000000 0.782916 0.531180
1.000000 0.782798 0.657338
1.000000 0.782680 0.782680
1.000000 0.782563 0.907342
1.000000 0.782474 1.000000
1.000000 0.907026 0.008239
1.000000 0.906899 0.143612
1.000000 0.906777 0.274272
1.000000 0.906656 0.402835
1.000000 0.906536 0.530021
1.000000 0.906418 0.656179
1.000000 0.906300 0.781521
1.000000 0.906183 0.906183
1.000000 0.906095 1.000000
1.000000 1.000000 0.007358
1.000000 1.000000 0.142731
1.000000 1.000000 0.273392
1.000000 1.000000 0.401955
1.000000 1.000000 0.529140
1.000000 1.000000 0.655299
1.000000 1.000000 0.780640
1.000000 1.000000 0.905303
1.000000 1.000000 1.000000
