skills/appstore-swiss-grid/assets/grade/luts/clean_bright_v06.cube
TITLE "clean_bright_v06"
LUT_3D_SIZE 5
DOMAIN_MIN 0.0 0.0 0.0
DOMAIN_MAX 1.0 1.0 1.0
0.019330 0.019330 0.019330
0.019081 0.019081 0.285364
0.018841 0.018841 0.541112
0.018605 0.018605 0.792612
0.018399 0.018399 1.000000
0.016857 0.283140 0.016857
0.016607 0.282890 0.282890
0.016367 0.282650 0.538639
0.016131 0.282414 0.790139
0.015925 0.282208 1.000000
0.014479 0.536751 0.014479
0.014230 0.536501 0.280512
0.013990 0.536261 0.536261
0.013754 0.536025 0.787761
0.013548 0.535819 1.000000
0.012141 0.786149 0.012141
0.011891 0.785899 0.278174
0.011651 0.785659 0.533923
0.011415 0.785423 0.785423
0.011210 0.785217 1.000000
0.010102 1.000000 0.010102
0.009852 1.000000 0.276135
0.009612 1.000000 0.531883
0.009376 1.000000 0.783384
0.009170 1.000000 1.000000
0.284878 0.018595 0.018595
0.284628 0.018345 0.284628
0.284388 0.018105 0.540377
0.284152 0.017869 0.791877
0.283946 0.017664 1.000000
0.282405 0.282405 0.016122
0.282155 0.282155 0.282155
0.281915 0.281915 0.537903
0.281679 0.281679 0.789404
0.281473 0.281473 1.000000
0.280027 0.536016 0.013744
0.279777 0.535766 0.279777
0.279537 0.535526 0.535526
0.279301 0.535290 0.787026
0.279095 0.535084 1.000000
0.277689 0.785414 0.011406
0.277439 0.785164 0.277439
0.277199 0.784924 0.533188
0.276963 0.784688 0.784688
0.276757 0.784482 1.000000
0.275649 1.000000 0.009367
0.275400 1.000000 0.275400
0.275160 1.000000 0.531148
0.274924 1.000000 0.782649
0.274718 1.000000 1.000000
0.540160 0.017888 0.017888
0.539910 0.017639 0.283921
0.539670 0.017399 0.539670
0.539434 0.017163 0.791170
0.539228 0.016957 1.000000
0.537686 0.281698 0.015415
0.537437 0.281448 0.281448
0.537197 0.281208 0.537197
0.536961 0.280972 0.788697
0.536755 0.280766 1.000000
0.535309 0.535309 0.013037
0.535059 0.535059 0.279070
0.534819 0.534819 0.534819
0.534583 0.534583 0.786319
0.534377 0.534377 1.000000
0.532970 0.784707 0.010699
0.532721 0.784457 0.276732
0.532481 0.784217 0.532481
0.532245 0.783981 0.783981
0.532039 0.783775 1.000000
0.530931 1.000000 0.008660
0.530681 1.000000 0.274693
0.530441 1.000000 0.530441
0.530205 1.000000 0.781942
0.529999 1.000000 1.000000
0.791201 0.017193 0.017193
0.790951 0.016944 0.283226
0.790711 0.016704 0.538975
0.790475 0.016468 0.790475
0.790269 0.016262 1.000000
0.788728 0.281003 0.014720
0.788478 0.280753 0.280753
0.788238 0.280513 0.536502
0.788002 0.280277 0.788002
0.787796 0.280071 1.000000
0.786350 0.534614 0.012342
0.786100 0.534364 0.278375
0.785860 0.534124 0.534124
0.785624 0.533888 0.785624
0.785418 0.533682 1.000000
0.784012 0.784012 0.010004
0.783762 0.783762 0.276037
0.783522 0.783522 0.531786
0.783286 0.783286 0.783286
0.783080 0.783080 1.000000
0.781972 1.000000 0.007965
0.781723 1.000000 0.273998
0.781483 1.000000 0.529746
0.781247 1.000000 0.781247
0.781041 1.000000 1.000000
1.000000 0.016587 0.016587
1.000000 0.016337 0.282620
1.000000 0.016097 0.538369
1.000000 0.015861 0.789869
1.000000 0.015655 1.000000
1.000000 0.280397 0.014114
1.000000 0.280147 0.280147
1.000000 0.279907 0.535895
1.000000 0.279671 0.787396
1.000000 0.279465 1.000000
1.000000 0.534007 0.011736
1.000000 0.533758 0.277769
1.000000 0.533518 0.533518
1.000000 0.533282 0.785018
1.000000 0.533076 1.000000
1.000000 0.783406 0.009398
1.000000 0.783156 0.275431
1.000000 0.782916 0.531180
1.000000 0.782680 0.782680
1.000000 0.782474 1.000000
1.000000 1.000000 0.007358
1.000000 1.000000 0.273392
1.000000 1.000000 0.529140
1.000000 1.000000 0.780640
1.000000 1.000000 1.000000
