skills/appstore-swiss-grid/assets/grade/luts/cool_tech_v04.cube
TITLE "cool_tech_v04"
LUT_3D_SIZE 9
DOMAIN_MIN 0.0 0.0 0.0
DOMAIN_MAX 1.0 1.0 1.0
0.000030 0.000030 0.013545
0.000290 0.000290 0.132676
0.000555 0.000555 0.253728
0.000822 0.000822 0.375660
0.001090 0.001090 0.498179
0.001359 0.001359 0.621142
0.001629 0.001629 0.744463
0.001899 0.001899 0.868081
0.002128 0.002128 0.972654
0.002532 0.117732 0.016047
0.002792 0.117993 0.135178
0.003057 0.118258 0.256230
0.003324 0.118525 0.378162
0.003592 0.118793 0.500681
0.003861 0.119062 0.623645
0.004131 0.119332 0.746965
0.004401 0.119602 0.870584
0.004630 0.119831 0.975156
0.005152 0.240969 0.018667
0.005412 0.241229 0.137798
0.005677 0.241494 0.258850
0.005944 0.241761 0.380781
0.006212 0.242029 0.503301
0.006481 0.242298 0.626264
0.006751 0.242568 0.749584
0.007021 0.242838 0.873203
0.007250 0.243067 0.977776
0.007792 0.365172 0.021307
0.008052 0.365432 0.140438
0.008317 0.365697 0.261490
0.008584 0.365964 0.383422
0.008852 0.366232 0.505941
0.009121 0.366501 0.628905
0.009391 0.366771 0.752225
0.009661 0.367041 0.875844
0.009890 0.367270 0.980417
0.010446 0.490004 0.023961
0.010706 0.490264 0.143092
0.010971 0.490529 0.264144
0.011238 0.490796 0.386075
0.011506 0.491064 0.508595
0.011775 0.491333 0.631558
0.012045 0.491603 0.754878
0.012315 0.491873 0.878497
0.012544 0.492102 0.983070
0.013109 0.615305 0.026625
0.013370 0.615565 0.145755
0.013635 0.615830 0.266807
0.013901 0.616097 0.388739
0.014169 0.616365 0.511259
0.014438 0.616634 0.634222
0.014708 0.616904 0.757542
0.014979 0.617174 0.881161
0.015208 0.617403 0.985734
0.015781 0.740980 0.029296
0.016041 0.741240 0.148427
0.016306 0.741505 0.269479
0.016573 0.741772 0.391411
0.016841 0.742040 0.513930
0.017110 0.742309 0.636894
0.017380 0.742579 0.760214
0.017650 0.742849 0.883833
0.017879 0.743078 0.988405
0.018459 0.866966 0.031975
0.018720 0.867227 0.151105
0.018984 0.867492 0.272157
0.019251 0.867759 0.394089
0.019519 0.868027 0.516609
0.019788 0.868296 0.639572
0.020058 0.868565 0.762892
0.020329 0.868836 0.886511
0.020557 0.869065 0.991084
0.021109 0.991636 0.034625
0.021370 0.991896 0.153755
0.021635 0.992161 0.274807
0.021901 0.992428 0.396739
0.022170 0.992696 0.519259
0.022439 0.992965 0.642222
0.022708 0.993235 0.765542
0.022979 0.993505 0.889161
0.023208 0.993734 0.993734
0.098716 0.000663 0.014178
0.098977 0.000923 0.133309
0.099241 0.001188 0.254361
0.099508 0.001455 0.376293
0.099776 0.001723 0.498812
0.100045 0.001992 0.621776
0.100315 0.002262 0.745096
0.100585 0.002532 0.868715
0.100814 0.002761 0.973287
0.101218 0.118366 0.016680
0.101479 0.118626 0.135811
0.101743 0.118891 0.256863
0.102010 0.119158 0.378795
0.102278 0.119426 0.501314
0.102547 0.119695 0.624278
0.102817 0.119965 0.747598
0.103088 0.120235 0.871217
0.103316 0.120464 0.975790
0.103838 0.241602 0.019300
0.104098 0.241862 0.138431
0.104363 0.242127 0.259483
0.104630 0.242394 0.381415
0.104898 0.242662 0.503934
0.105167 0.242931 0.626897
0.105437 0.243201 0.750218
0.105707 0.243471 0.873836
0.105936 0.243700 0.978409
0.106478 0.365805 0.021941
0.106739 0.366065 0.141071
0.107004 0.366330 0.262123
0.107270 0.366597 0.384055
0.107538 0.366865 0.506574
0.107807 0.367134 0.629538
0.108077 0.367404 0.752858
0.108348 0.367674 0.876477
0.108576 0.367903 0.981050
0.109132 0.490637 0.024594
0.109392 0.490898 0.143725
0.109657 0.491162 0.264777
0.109924 0.491429 0.386709
0.110192 0.491697 0.509228
0.110461 0.491966 0.632191
0.110731 0.492236 0.755512
0.111001 0.492506 0.879130
0.111230 0.492735 0.983703
0.111795 0.615938 0.027258
0.112056 0.616198 0.146388
0.112321 0.616463 0.267440
0.112588 0.616730 0.389372
0.112856 0.616998 0.511892
0.113125 0.617267 0.634855
0.113395 0.617537 0.758175
0.113665 0.617807 0.881794
0.113894 0.618036 0.986367
0.114467 0.741613 0.029929
0.114728 0.741873 0.149060
0.114992 0.742138 0.270112
0.115259 0.742405 0.392044
0.115527 0.742673 0.514563
0.115796 0.742942 0.637527
0.116066 0.743212 0.760847
0.116337 0.743482 0.884466
0.116565 0.743711 0.989039
0.117145 0.867599 0.032608
0.117406 0.867860 0.151738
0.117671 0.868125 0.272790
0.117937 0.868392 0.394722
0.118206 0.868660 0.517242
0.118475 0.868929 0.640205
0.118744 0.869199 0.763525
0.119015 0.869469 0.887144
0.119244 0.869698 0.991717
0.119795 0.992269 0.035258
0.120056 0.992529 0.154388
0.120321 0.992794 0.275441
0.120588 0.993061 0.397372
0.120856 0.993329 0.519892
0.121125 0.993598 0.642855
0.121395 0.993868 0.766175
0.121665 0.994138 0.889794
0.121894 0.994367 0.994367
0.219920 0.001440 0.014956
0.220181 0.001701 0.134086
0.220446 0.001966 0.255138
0.220712 0.002232 0.377070
0.220980 0.002501 0.499590
0.221249 0.002770 0.622553
0.221519 0.003039 0.745873
0.221790 0.003310 0.869492
0.222019 0.003539 0.974065
0.222422 0.119143 0.017458
0.222683 0.119404 0.136589
0.222948 0.119669 0.257641
0.223215 0.119935 0.379572
0.223483 0.120203 0.502092
0.223752 0.120472 0.625055
0.224021 0.120742 0.748375
0.224292 0.121013 0.871994
0.224521 0.121241 0.976567
0.225042 0.242379 0.020078
0.225303 0.242640 0.139208
0.225568 0.242905 0.260260
0.225834 0.243171 0.382192
0.226102 0.243439 0.504712
0.226371 0.243709 0.627675
0.226641 0.243978 0.750995
0.226912 0.244249 0.874614
0.227140 0.244478 0.979187
0.227682 0.366582 0.022718
0.227943 0.366843 0.141849
0.228208 0.367108 0.262901
0.228475 0.367375 0.384832
0.228743 0.367643 0.507352
0.229012 0.367912 0.630315
0.229281 0.368181 0.753635
0.229552 0.368452 0.877254
0.229781 0.368681 0.981827
0.230336 0.491414 0.025372
0.230597 0.491675 0.144502
0.230862 0.491940 0.265554
0.231128 0.492207 0.387486
0.231396 0.492475 0.510006
0.231665 0.492744 0.632969
0.231935 0.493014 0.756289
0.232206 0.493284 0.879908
0.232434 0.493513 0.984481
0.233000 0.616715 0.028035
0.233260 0.616976 0.147166
0.233525 0.617241 0.268218
0.233792 0.617507 0.390150
0.234060 0.617775 0.512669
0.234329 0.618044 0.635633
0.234599 0.618314 0.758953
0.234869 0.618585 0.882572
0.235098 0.618814 0.987144
0.235671 0.742390 0.030707
0.235932 0.742651 0.149838
0.236197 0.742916 0.270890
0.236464 0.743182 0.392821
0.236732 0.743450 0.515341
0.237001 0.743719 0.638304
0.237270 0.743989 0.761624
0.237541 0.744260 0.885243
0.237770 0.744489 0.989816
0.238350 0.868377 0.033385
0.238610 0.868638 0.152516
0.238875 0.868902 0.273568
0.239142 0.869169 0.395500
0.239410 0.869437 0.518019
0.239679 0.869706 0.640982
0.239949 0.869976 0.764303
0.240219 0.870247 0.887921
0.240448 0.870475 0.992494
0.241000 0.993046 0.036035
0.241260 0.993307 0.155166
0.241525 0.993572 0.276218
0.241792 0.993838 0.398150
0.242060 0.994106 0.520669
0.242329 0.994375 0.643633
0.242599 0.994645 0.766953
0.242869 0.994916 0.890572
0.243098 0.995144 0.995144
0.342159 0.002224 0.015740
0.342420 0.002485 0.134871
0.342684 0.002750 0.255923
0.342951 0.003017 0.377854
0.343219 0.003285 0.500374
0.343488 0.003554 0.623337
0.343758 0.003824 0.746657
0.344028 0.004094 0.870276
0.344257 0.004323 0.974849
0.344661 0.119927 0.018242
0.344922 0.120188 0.137373
0.345187 0.120453 0.258425
0.345453 0.120719 0.380356
0.345721 0.120988 0.502876
0.345990 0.121257 0.625839
0.346260 0.121526 0.749159
0.346531 0.121797 0.872778
0.346759 0.122026 0.977351
0.347281 0.243163 0.020862
0.347541 0.243424 0.139992
0.347806 0.243689 0.261045
0.348073 0.243956 0.382976
0.348341 0.244224 0.505496
0.348610 0.244493 0.628459
0.348880 0.244762 0.751779
0.349150 0.245033 0.875398
0.349379 0.245262 0.979971
0.349921 0.367366 0.023502
0.350182 0.367627 0.142633
0.350447 0.367892 0.263685
0.350713 0.368159 0.385617
0.350981 0.368427 0.508136
0.351250 0.368696 0.631099
0.351520 0.368966 0.754420
0.351791 0.369236 0.878038
0.352019 0.369465 0.982611
0.352575 0.492199 0.026156
0.352835 0.492459 0.145286
0.353100 0.492724 0.266339
0.353367 0.492991 0.388270
0.353635 0.493259 0.510790
0.353904 0.493528 0.633753
0.354174 0.493798 0.757073
0.354444 0.494068 0.880692
0.354673 0.494297 0.985265
0.355238 0.617499 0.028820
0.355499 0.617760 0.147950
0.355764 0.618025 0.269002
0.356031 0.618292 0.390934
0.356299 0.618560 0.513453
0.356568 0.618829 0.636417
0.356838 0.619098 0.759737
0.357108 0.619369 0.883356
0.357337 0.619598 0.987929
0.357910 0.743174 0.031491
0.358171 0.743435 0.150622
0.358436 0.743700 0.271674
0.358702 0.743967 0.393605
0.358970 0.744235 0.516125
0.359239 0.744504 0.639088
0.359509 0.744773 0.762408
0.359780 0.745044 0.886027
0.360008 0.745273 0.990600
0.360588 0.869161 0.034169
0.360849 0.869422 0.153300
0.361114 0.869687 0.274352
0.361381 0.869953 0.396284
0.361649 0.870221 0.518803
0.361918 0.870490 0.641767
0.362187 0.870760 0.765087
0.362458 0.871031 0.888706
0.362687 0.871259 0.993278
0.363238 0.993830 0.036820
0.363499 0.994091 0.155950
0.363764 0.994356 0.277002
0.364031 0.994623 0.398934
0.364299 0.994891 0.521454
0.364568 0.995160 0.644417
0.364838 0.995429 0.767737
0.365108 0.995700 0.891356
0.365337 0.995929 0.995929
0.465049 0.003013 0.016528
0.465310 0.003273 0.135659
0.465575 0.003538 0.256711
0.465842 0.003805 0.378643
0.466110 0.004073 0.501162
0.466379 0.004342 0.624126
0.466648 0.004612 0.747446
0.466919 0.004882 0.871065
0.467148 0.005111 0.975637
0.467551 0.120716 0.019030
0.467812 0.120976 0.138161
0.468077 0.121241 0.259213
0.468344 0.121508 0.381145
0.468612 0.121776 0.503664
0.468881 0.122045 0.626628
0.469151 0.122315 0.749948
0.469421 0.122585 0.873567
0.469650 0.122814 0.978140
0.470171 0.243952 0.021650
0.470432 0.244212 0.140781
0.470697 0.244477 0.261833
0.470963 0.244744 0.383765
0.471232 0.245012 0.506284
0.471501 0.245281 0.629247
0.471770 0.245551 0.752568
0.472041 0.245821 0.876186
0.472270 0.246050 0.980759
0.472812 0.368155 0.024291
0.473072 0.368415 0.143421
0.473337 0.368680 0.264473
0.473604 0.368947 0.386405
0.473872 0.369215 0.508924
0.474141 0.369484 0.631888
0.474411 0.369754 0.755208
0.474681 0.370024 0.878827
0.474910 0.370253 0.983400
0.475465 0.492987 0.026944
0.475726 0.493248 0.146075
0.475991 0.493512 0.267127
0.476257 0.493779 0.389059
0.476526 0.494047 0.511578
0.476795 0.494316 0.634541
0.477064 0.494586 0.757862
0.477335 0.494856 0.881480
0.477564 0.495085 0.986053
0.478129 0.618288 0.029608
0.478390 0.618548 0.148738
0.478654 0.618813 0.269790
0.478921 0.619080 0.391722
0.479189 0.619348 0.514242
0.479458 0.619617 0.637205
0.479728 0.619887 0.760525
0.479998 0.620157 0.884144
0.480227 0.620386 0.988717
0.480800 0.743963 0.032279
0.481061 0.744223 0.151410
0.481326 0.744488 0.272462
0.481593 0.744755 0.394394
0.481861 0.745023 0.516913
0.482130 0.745292 0.639877
0.482400 0.745562 0.763197
0.482670 0.745832 0.886816
0.482899 0.746061 0.991389
0.483479 0.869949 0.034958
0.483739 0.870210 0.154088
0.484004 0.870475 0.275140
0.484271 0.870742 0.397072
0.484539 0.871010 0.519592
0.484808 0.871279 0.642555
0.485078 0.871549 0.765875
0.485348 0.871819 0.889494
0.485577 0.872048 0.994067
0.486129 0.994619 0.037608
0.486390 0.994879 0.156739
0.486654 0.995144 0.277791
0.486921 0.995411 0.399722
0.487189 0.995679 0.522242
0.487458 0.995948 0.645205
0.487728 0.996218 0.768525
0.487999 0.996488 0.892144
0.488227 0.996717 0.996717
0.588419 0.003804 0.017320
0.588679 0.004065 0.136450
0.588944 0.004330 0.257502
0.589211 0.004596 0.379434
0.589479 0.004864 0.501954
0.589748 0.005133 0.624917
0.590018 0.005403 0.748237
0.590288 0.005674 0.871856
0.590517 0.005903 0.976429
0.590921 0.121507 0.019822
0.591182 0.121768 0.138952
0.591446 0.122032 0.260005
0.591713 0.122299 0.381936
0.591981 0.122567 0.504456
0.592250 0.122836 0.627419
0.592520 0.123106 0.750739
0.592791 0.123377 0.874358
0.593019 0.123605 0.978931
0.593541 0.244743 0.022442
0.593801 0.245004 0.141572
0.594066 0.245269 0.262624
0.594333 0.245535 0.384556
0.594601 0.245803 0.507076
0.594870 0.246072 0.630039
0.595140 0.246342 0.753359
0.595410 0.246613 0.876978
0.595639 0.246841 0.981551
0.596181 0.368946 0.025082
0.596442 0.369207 0.144213
0.596707 0.369472 0.265265
0.596973 0.369738 0.387196
0.597241 0.370007 0.509716
0.597510 0.370276 0.632679
0.597780 0.370545 0.755999
0.598051 0.370816 0.879618
0.598279 0.371045 0.984191
0.598835 0.493778 0.027736
0.599095 0.494039 0.146866
0.599360 0.494304 0.267918
0.599627 0.494571 0.389850
0.599895 0.494839 0.512370
0.600164 0.495108 0.635333
0.600434 0.495377 0.758653
0.600704 0.495648 0.882272
0.600933 0.495877 0.986845
0.601498 0.619079 0.030399
0.601759 0.619340 0.149530
0.602024 0.619605 0.270582
0.602291 0.619871 0.392514
0.602559 0.620139 0.515033
0.602828 0.620408 0.637996
0.603098 0.620678 0.761317
0.603368 0.620949 0.884935
0.603597 0.621177 0.989508
0.604170 0.744754 0.033071
0.604431 0.745015 0.152201
0.604695 0.745280 0.273254
0.604962 0.745546 0.395185
0.605230 0.745814 0.517705
0.605499 0.746083 0.640668
0.605769 0.746353 0.763988
0.606040 0.746624 0.887607
0.606268 0.746852 0.992180
0.606848 0.870741 0.035749
0.607109 0.871001 0.154880
0.607374 0.871266 0.275932
0.607640 0.871533 0.397863
0.607909 0.871801 0.520383
0.608178 0.872070 0.643346
0.608447 0.872340 0.766666
0.608718 0.872610 0.890285
0.608947 0.872839 0.994858
0.609498 0.995410 0.038399
0.609759 0.995671 0.157530
0.610024 0.995936 0.278582
0.610291 0.996202 0.400514
0.610559 0.996470 0.523033
0.610828 0.996739 0.645997
0.611098 0.997009 0.769317
0.611368 0.997280 0.892936
0.611597 0.997508 0.997508
0.712168 0.004598 0.018114
0.712429 0.004859 0.137244
0.712693 0.005123 0.258296
0.712960 0.005390 0.380228
0.713228 0.005658 0.502748
0.713497 0.005927 0.625711
0.713767 0.006197 0.749031
0.714038 0.006468 0.872650
0.714266 0.006696 0.977223
0.714670 0.122301 0.020616
0.714931 0.122561 0.139746
0.715196 0.122826 0.260798
0.715462 0.123093 0.382730
0.715730 0.123361 0.505250
0.715999 0.123630 0.628213
0.716269 0.123900 0.751533
0.716540 0.124170 0.875152
0.716768 0.124399 0.979725
0.717290 0.245537 0.023236
0.717550 0.245798 0.142366
0.717815 0.246062 0.263418
0.718082 0.246329 0.385350
0.718350 0.246597 0.507869
0.718619 0.246866 0.630833
0.718889 0.247136 0.754153
0.719159 0.247407 0.877772
0.719388 0.247635 0.982345
0.719930 0.369740 0.025876
0.720191 0.370001 0.145006
0.720456 0.370266 0.266058
0.720722 0.370532 0.387990
0.720990 0.370800 0.510510
0.721259 0.371069 0.633473
0.721529 0.371339 0.756793
0.721800 0.371610 0.880412
0.722029 0.371838 0.984985
0.722584 0.494572 0.028529
0.722844 0.494833 0.147660
0.723109 0.495098 0.268712
0.723376 0.495364 0.390644
0.723644 0.495632 0.513163
0.723913 0.495901 0.636127
0.724183 0.496171 0.759447
0.724453 0.496442 0.883066
0.724682 0.496671 0.987639
0.725247 0.619873 0.031193
0.725508 0.620134 0.150324
0.725773 0.620398 0.271376
0.726040 0.620665 0.393307
0.726308 0.620933 0.515827
0.726577 0.621202 0.638790
0.726847 0.621472 0.762110
0.727117 0.621742 0.885729
0.727346 0.621971 0.990302
0.727919 0.745548 0.033865
0.728180 0.745809 0.152995
0.728445 0.746073 0.274047
0.728711 0.746340 0.395979
0.728979 0.746608 0.518499
0.729248 0.746877 0.641462
0.729518 0.747147 0.764782
0.729789 0.747417 0.888401
0.730017 0.747646 0.992974
0.730597 0.871535 0.036543
0.730858 0.871795 0.155674
0.731123 0.872060 0.276726
0.731390 0.872327 0.398657
0.731658 0.872595 0.521177
0.731927 0.872864 0.644140
0.732196 0.873134 0.767460
0.732467 0.873404 0.891079
0.732696 0.873633 0.995652
0.733248 0.996204 0.039193
0.733508 0.996465 0.158324
0.733773 0.996729 0.279376
0.734040 0.996996 0.401307
0.734308 0.997264 0.523827
0.734577 0.997533 0.646790
0.734847 0.997803 0.770111
0.735117 0.998073 0.893729
0.735346 0.998302 0.998302
0.836232 0.005394 0.018909
0.836492 0.005654 0.138040
0.836757 0.005919 0.259092
0.837024 0.006186 0.381024
0.837292 0.006454 0.503543
0.837561 0.006723 0.626507
0.837831 0.006993 0.749827
0.838101 0.007263 0.873446
0.838330 0.007492 0.978019
0.838734 0.123097 0.021412
0.838994 0.123357 0.140542
0.839259 0.123622 0.261594
0.839526 0.123889 0.383526
0.839794 0.124157 0.506046
0.840063 0.124426 0.629009
0.840333 0.124696 0.752329
0.840603 0.124966 0.875948
0.840832 0.125195 0.980521
0.841354 0.246333 0.024031
0.841614 0.246593 0.143162
0.841879 0.246858 0.264214
0.842146 0.247125 0.386146
0.842414 0.247393 0.508665
0.842683 0.247662 0.631629
0.842953 0.247932 0.754949
0.843223 0.248202 0.878568
0.843452 0.248431 0.983140
0.843994 0.370536 0.026672
0.844255 0.370797 0.145802
0.844519 0.371061 0.266854
0.844786 0.371328 0.388786
0.845054 0.371596 0.511306
0.845323 0.371865 0.634269
0.845593 0.372135 0.757589
0.845863 0.372406 0.881208
0.846092 0.372634 0.985781
0.846648 0.495368 0.029325
0.846908 0.495629 0.148456
0.847173 0.495894 0.269508
0.847440 0.496160 0.391440
0.847708 0.496428 0.513959
0.847977 0.496697 0.636923
0.848247 0.496967 0.760243
0.848517 0.497238 0.883862
0.848746 0.497466 0.988434
0.849311 0.620669 0.031989
0.849572 0.620929 0.151120
0.849837 0.621194 0.272172
0.850103 0.621461 0.394103
0.850372 0.621729 0.516623
0.850641 0.621998 0.639586
0.850910 0.622268 0.762906
0.851181 0.622538 0.886525
0.851410 0.622767 0.991098
0.851983 0.746344 0.034661
0.852243 0.746604 0.153791
0.852508 0.746869 0.274843
0.852775 0.747136 0.396775
0.853043 0.747404 0.519295
0.853312 0.747673 0.642258
0.853582 0.747943 0.765578
0.853852 0.748213 0.889197
0.854081 0.748442 0.993770
0.854661 0.872331 0.037339
0.854922 0.872591 0.156469
0.855187 0.872856 0.277521
0.855453 0.873123 0.399453
0.855721 0.873391 0.521973
0.855990 0.873660 0.644936
0.856260 0.873930 0.768256
0.856531 0.874200 0.891875
0.856759 0.874429 0.996448
0.857311 0.997000 0.039989
0.857572 0.997260 0.159120
0.857837 0.997525 0.280172
0.858104 0.997792 0.402103
0.858372 0.998060 0.524623
0.858641 0.998329 0.647586
0.858910 0.998599 0.770906
0.859181 0.998869 0.894525
0.859410 0.999098 0.999098
0.960564 0.006191 0.019707
0.960825 0.006452 0.138838
0.961090 0.006717 0.259890
0.961357 0.006984 0.381821
0.961625 0.007252 0.504341
0.961894 0.007521 0.627304
0.962163 0.007791 0.750624
0.962434 0.008061 0.874243
0.962663 0.008290 0.978816
0.963066 0.123894 0.022209
0.963327 0.124155 0.141340
0.963592 0.124420 0.262392
0.963859 0.124687 0.384323
0.964127 0.124955 0.506843
0.964396 0.125224 0.629806
0.964666 0.125493 0.753127
0.964936 0.125764 0.876745
0.965165 0.125993 0.981318
0.965686 0.247130 0.024829
0.965947 0.247391 0.143960
0.966212 0.247656 0.265012
0.966478 0.247923 0.386943
0.966746 0.248191 0.509463
0.967016 0.248460 0.632426
0.967285 0.248730 0.755746
0.967556 0.249000 0.879365
0.967785 0.249229 0.983938
0.968327 0.371334 0.027469
0.968587 0.371594 0.146600
0.968852 0.371859 0.267652
0.969119 0.372126 0.389584
0.969387 0.372394 0.512103
0.969656 0.372663 0.635066
0.969926 0.372933 0.758387
0.970196 0.373203 0.882005
0.970425 0.373432 0.986578
0.970980 0.496166 0.030123
0.971241 0.496426 0.149254
0.971506 0.496691 0.270306
0.971772 0.496958 0.392237
0.972040 0.497226 0.514757
0.972310 0.497495 0.637720
0.972579 0.497765 0.761040
0.972850 0.498035 0.884659
0.973079 0.498264 0.989232
0.973644 0.621466 0.032787
0.973904 0.621727 0.151917
0.974169 0.621992 0.272969
0.974436 0.622259 0.394901
0.974704 0.622527 0.517421
0.974973 0.622796 0.640384
0.975243 0.623065 0.763704
0.975513 0.623336 0.887323
0.975742 0.623565 0.991896
0.976315 0.747141 0.035458
0.976576 0.747402 0.154589
0.976841 0.747667 0.275641
0.977108 0.747934 0.397572
0.977376 0.748202 0.520092
0.977645 0.748471 0.643055
0.977915 0.748740 0.766376
0.978185 0.749011 0.889994
0.978414 0.749240 0.994567
0.978994 0.873128 0.038136
0.979254 0.873389 0.157267
0.979519 0.873654 0.278319
0.979786 0.873920 0.400251
0.980054 0.874188 0.522770
0.980323 0.874457 0.645734
0.980593 0.874727 0.769054
0.980863 0.874998 0.892673
0.981092 0.875227 0.997245
0.981644 0.997797 0.040787
0.981905 0.998058 0.159917
0.982169 0.998323 0.280969
0.982436 0.998590 0.402901
0.982704 0.998858 0.525421
0.982973 0.999127 0.648384
0.983243 0.999396 0.771704
0.983513 0.999667 0.895323
0.983742 0.999896 0.999896
