skills/appstore-swiss-grid/assets/grade/luts/cool_tech_v04.cube
TITLE "cool_tech_v04"
LUT_3D_SIZE 17
DOMAIN_MIN 0.0 0.0 0.0
DOMAIN_MAX 1.0 1.0 1.0
0.000030 0.000030 0.013545
0.000159 0.000159 0.072701
0.000290 0.000290 0.132676
0.000422 0.000422 0.193062
0.000555 0.000555 0.253728
0.000688 0.000688 0.314607
0.000822 0.000822 0.375660
0.000956 0.000956 0.436857
0.001090 0.001090 0.498179
0.001224 0.001224 0.559612
0.001359 0.001359 0.621142
0.001494 0.001494 0.682762
0.001629 0.001629 0.744463
0.001764 0.001764 0.806238
0.001899 0.001899 0.868081
0.002035 0.002035 0.929989
0.002128 0.002128 0.972654
0.001236 0.056757 0.014751
0.001365 0.056886 0.073907
0.001496 0.057017 0.133882
0.001628 0.057150 0.194268
0.001761 0.057282 0.254934
0.001894 0.057415 0.315813
0.002028 0.057549 0.376865
0.002162 0.057683 0.438063
0.002296 0.057817 0.499385
0.002430 0.057951 0.560818
0.002565 0.058086 0.622348
0.002700 0.058221 0.683968
0.002835 0.058356 0.745668
0.002970 0.058491 0.807443
0.003105 0.058626 0.869287
0.003241 0.058762 0.931195
0.003334 0.058855 0.973860
0.002532 0.117732 0.016047
0.002661 0.117862 0.075203
0.002792 0.117993 0.135178
0.002925 0.118125 0.195564
0.003057 0.118258 0.256230
0.003190 0.118391 0.317110
0.003324 0.118525 0.378162
0.003458 0.118659 0.439359
0.003592 0.118793 0.500681
0.003726 0.118927 0.562114
0.003861 0.119062 0.623645
0.003996 0.119197 0.685264
0.004131 0.119332 0.746965
0.004266 0.119467 0.808740
0.004401 0.119602 0.870584
0.004537 0.119738 0.932492
0.004630 0.119831 0.975156
0.003838 0.179194 0.017354
0.003968 0.179323 0.076509
0.004099 0.179454 0.136484
0.004231 0.179586 0.196870
0.004364 0.179719 0.257537
0.004497 0.179852 0.318416
0.004631 0.179986 0.379468
0.004764 0.180120 0.440665
0.004899 0.180254 0.501988
0.005033 0.180388 0.563420
0.005168 0.180523 0.624951
0.005302 0.180658 0.686571
0.005437 0.180793 0.748271
0.005573 0.180928 0.810046
0.005708 0.181063 0.871890
0.005843 0.181199 0.933798
0.005937 0.181292 0.976463
0.005152 0.240969 0.018667
0.005281 0.241098 0.077823
0.005412 0.241229 0.137798
0.005544 0.241361 0.198184
0.005677 0.241494 0.258850
0.005810 0.241627 0.319729
0.005944 0.241761 0.380781
0.006078 0.241895 0.441979
0.006212 0.242029 0.503301
0.006346 0.242163 0.564734
0.006481 0.242298 0.626264
0.006616 0.242433 0.687884
0.006751 0.242568 0.749584
0.006886 0.242703 0.811359
0.007021 0.242838 0.873203
0.007157 0.242974 0.935111
0.007250 0.243067 0.977776
0.006470 0.302977 0.019985
0.006599 0.303107 0.079141
0.006730 0.303238 0.139116
0.006862 0.303370 0.199502
0.006995 0.303503 0.260168
0.007128 0.303636 0.321047
0.007262 0.303769 0.382100
0.007396 0.303903 0.443297
0.007530 0.304037 0.504619
0.007664 0.304172 0.566052
0.007799 0.304306 0.627583
0.007934 0.304441 0.689202
0.008069 0.304576 0.750903
0.008204 0.304711 0.812678
0.008339 0.304847 0.874522
0.008475 0.304982 0.936429
0.008568 0.305075 0.979094
0.007792 0.365172 0.021307
0.007921 0.365301 0.080463
0.008052 0.365432 0.140438
0.008185 0.365564 0.200824
0.008317 0.365697 0.261490
0.008451 0.365830 0.322370
0.008584 0.365964 0.383422
0.008718 0.366098 0.444619
0.008852 0.366232 0.505941
0.008987 0.366366 0.567374
0.009121 0.366501 0.628905
0.009256 0.366636 0.690524
0.009391 0.366771 0.752225
0.009526 0.366906 0.814000
0.009661 0.367041 0.875844
0.009797 0.367177 0.937752
0.009890 0.367270 0.980417
0.009117 0.427521 0.022633
0.009247 0.427651 0.081788
0.009378 0.427782 0.141763
0.009510 0.427914 0.202149
0.009643 0.428047 0.262815
0.009776 0.428180 0.323695
0.009910 0.428314 0.384747
0.010043 0.428447 0.445944
0.010178 0.428582 0.507267
0.010312 0.428716 0.568699
0.010447 0.428851 0.630230
0.010581 0.428985 0.691850
0.010716 0.429120 0.753550
0.010852 0.429256 0.815325
0.010987 0.429391 0.877169
0.011122 0.429526 0.939077
0.011216 0.429620 0.981742
0.010446 0.490004 0.023961
0.010575 0.490133 0.083117
0.010706 0.490264 0.143092
0.010838 0.490397 0.203478
0.010971 0.490529 0.264144
0.011104 0.490662 0.325023
0.011238 0.490796 0.386075
0.011372 0.490930 0.447273
0.011506 0.491064 0.508595
0.011640 0.491199 0.570028
0.011775 0.491333 0.631558
0.011910 0.491468 0.693178
0.012045 0.491603 0.754878
0.012180 0.491738 0.816653
0.012315 0.491873 0.878497
0.012451 0.492009 0.940405
0.012544 0.492102 0.983070
0.011776 0.552602 0.025292
0.011906 0.552732 0.084447
0.012037 0.552863 0.144422
0.012169 0.552995 0.204808
0.012302 0.553128 0.265474
0.012435 0.553261 0.326354
0.012568 0.553395 0.387406
0.012702 0.553529 0.448603
0.012837 0.553663 0.509926
0.012971 0.553797 0.571358
0.013106 0.553932 0.632889
0.013240 0.554067 0.694509
0.013375 0.554202 0.756209
0.013511 0.554337 0.817984
0.013646 0.554472 0.879828
0.013781 0.554608 0.941736
0.013875 0.554701 0.984401
0.013109 0.615305 0.026625
0.013239 0.615434 0.085780
0.013370 0.615565 0.145755
0.013502 0.615697 0.206141
0.013635 0.615830 0.266807
0.013768 0.615963 0.327687
0.013901 0.616097 0.388739
0.014035 0.616231 0.449936
0.014169 0.616365 0.511259
0.014304 0.616499 0.572691
0.014438 0.616634 0.634222
0.014573 0.616769 0.695842
0.014708 0.616904 0.757542
0.014843 0.617039 0.819317
0.014979 0.617174 0.881161
0.015114 0.617310 0.943069
0.015208 0.617403 0.985734
0.014444 0.678100 0.027960
0.014573 0.678229 0.087115
0.014705 0.678360 0.147090
0.014837 0.678492 0.207476
0.014970 0.678625 0.268142
0.015103 0.678758 0.329022
0.015236 0.678892 0.390074
0.015370 0.679026 0.451271
0.015504 0.679160 0.512594
0.015639 0.679294 0.574026
0.015773 0.679429 0.635557
0.015908 0.679564 0.697176
0.016043 0.679699 0.758877
0.016178 0.679834 0.820652
0.016314 0.679969 0.882496
0.016449 0.680105 0.944404
0.016542 0.680198 0.987069
0.015781 0.740980 0.029296
0.015910 0.741109 0.088452
0.016041 0.741240 0.148427
0.016174 0.741372 0.208813
0.016306 0.741505 0.269479
0.016439 0.741638 0.330359
0.016573 0.741772 0.391411
0.016707 0.741906 0.452608
0.016841 0.742040 0.513930
0.016975 0.742174 0.575363
0.017110 0.742309 0.636894
0.017245 0.742444 0.698513
0.017380 0.742579 0.760214
0.017515 0.742714 0.821989
0.017650 0.742849 0.883833
0.017786 0.742985 0.945741
0.017879 0.743078 0.988405
0.017119 0.803937 0.030635
0.017249 0.804066 0.089790
0.017380 0.804198 0.149765
0.017512 0.804330 0.210151
0.017645 0.804463 0.270817
0.017778 0.804596 0.331697
0.017911 0.804729 0.392749
0.018045 0.804863 0.453946
0.018179 0.804997 0.515269
0.018314 0.805132 0.576701
0.018448 0.805266 0.638232
0.018583 0.805401 0.699852
0.018718 0.805536 0.761552
0.018853 0.805671 0.823327
0.018989 0.805807 0.885171
0.019124 0.805942 0.947079
0.019217 0.806035 0.989744
0.018459 0.866966 0.031975
0.018588 0.867096 0.091130
0.018720 0.867227 0.151105
0.018852 0.867359 0.211491
0.018984 0.867492 0.272157
0.019118 0.867625 0.333037
0.019251 0.867759 0.394089
0.019385 0.867892 0.455286
0.019519 0.868027 0.516609
0.019654 0.868161 0.578041
0.019788 0.868296 0.639572
0.019923 0.868430 0.701191
0.020058 0.868565 0.762892
0.020193 0.868701 0.824667
0.020329 0.868836 0.886511
0.020464 0.868971 0.948419
0.020557 0.869065 0.991084
0.019800 0.930062 0.033316
0.019930 0.930192 0.092471
0.020061 0.930323 0.152446
0.020193 0.930455 0.212832
0.020326 0.930588 0.273499
0.020459 0.930721 0.334378
0.020593 0.930855 0.395430
0.020726 0.930988 0.456627
0.020861 0.931123 0.517950
0.020995 0.931257 0.579382
0.021130 0.931392 0.640913
0.021264 0.931526 0.702533
0.021399 0.931661 0.764233
0.021535 0.931797 0.826008
0.021670 0.931932 0.887852
0.021805 0.932067 0.949760
0.021899 0.932161 0.992425
0.021109 0.991636 0.034625
0.021239 0.991765 0.093780
0.021370 0.991896 0.153755
0.021502 0.992028 0.214141
0.021635 0.992161 0.274807
0.021768 0.992294 0.335687
0.021901 0.992428 0.396739
0.022035 0.992562 0.457936
0.022170 0.992696 0.519259
0.022304 0.992830 0.580691
0.022439 0.992965 0.642222
0.022573 0.993100 0.703842
0.022708 0.993235 0.765542
0.022843 0.993370 0.827317
0.022979 0.993505 0.889161
0.023114 0.993641 0.951069
0.023208 0.993734 0.993734
0.038856 0.000279 0.013794
0.038985 0.000408 0.072950
0.039117 0.000539 0.132925
0.039249 0.000671 0.193311
0.039381 0.000804 0.253977
0.039515 0.000937 0.314856
0.039648 0.001071 0.375909
0.039782 0.001205 0.437106
0.039916 0.001339 0.498428
0.040051 0.001473 0.559861
0.040185 0.001608 0.621392
0.040320 0.001743 0.683011
0.040455 0.001878 0.744712
0.040590 0.002013 0.806487
0.040726 0.002148 0.868331
0.040861 0.002284 0.930238
0.040954 0.002377 0.972903
0.040062 0.057006 0.015000
0.040191 0.057135 0.074156
0.040323 0.057266 0.134131
0.040455 0.057399 0.194517
0.040587 0.057531 0.255183
0.040721 0.057665 0.316062
0.040854 0.057798 0.377115
0.040988 0.057932 0.438312
0.041122 0.058066 0.499634
0.041257 0.058201 0.561067
0.041391 0.058335 0.622597
0.041526 0.058470 0.684217
0.041661 0.058605 0.745918
0.041796 0.058740 0.807693
0.041931 0.058875 0.869536
0.042067 0.059011 0.931444
0.042160 0.059104 0.974109
0.041358 0.117982 0.016296
0.041488 0.118111 0.075452
0.041619 0.118242 0.135427
0.041751 0.118374 0.195813
0.041884 0.118507 0.256479
0.042017 0.118640 0.317359
0.042150 0.118774 0.378411
0.042284 0.118908 0.439608
0.042418 0.119042 0.500930
0.042553 0.119176 0.562363
0.042687 0.119311 0.623894
0.042822 0.119446 0.685513
0.042957 0.119581 0.747214
0.043092 0.119716 0.808989
0.043228 0.119851 0.870833
0.043363 0.119987 0.932741
0.043457 0.120080 0.975406
0.042665 0.179443 0.017603
0.042794 0.179572 0.076759
0.042925 0.179703 0.136734
0.043057 0.179835 0.197120
0.043190 0.179968 0.257786
0.043323 0.180101 0.318665
0.043457 0.180235 0.379717
0.043591 0.180369 0.440915
0.043725 0.180503 0.502237
0.043859 0.180637 0.563669
0.043994 0.180772 0.625200
0.044129 0.180907 0.686820
0.044264 0.181042 0.748520
0.044399 0.181177 0.810295
0.044534 0.181312 0.872139
0.044670 0.181448 0.934047
0.044763 0.181541 0.976712
0.043978 0.241218 0.018916
0.044107 0.241347 0.078072
0.044239 0.241478 0.138047
0.044371 0.241610 0.198433
0.044503 0.241743 0.259099
0.044637 0.241876 0.319978
0.044770 0.242010 0.381031
0.044904 0.242144 0.442228
0.045038 0.242278 0.503550
0.045173 0.242412 0.564983
0.045307 0.242547 0.626513
0.045442 0.242682 0.688133
0.045577 0.242817 0.749834
0.045712 0.242952 0.811609
0.045847 0.243087 0.873452
0.045983 0.243223 0.935360
0.046076 0.243316 0.978025
0.045296 0.303226 0.020234
0.045425 0.303356 0.079390
0.045557 0.303487 0.139365
0.045689 0.303619 0.199751
0.045822 0.303752 0.260417
0.045955 0.303885 0.321297
0.046088 0.304018 0.382349
0.046222 0.304152 0.443546
0.046356 0.304286 0.504868
0.046491 0.304421 0.566301
0.046625 0.304555 0.627832
0.046760 0.304690 0.689451
0.046895 0.304825 0.751152
0.047030 0.304960 0.812927
0.047166 0.305096 0.874771
0.047301 0.305231 0.936679
0.047394 0.305325 0.979343
0.046618 0.365421 0.021557
0.046748 0.365550 0.080712
0.046879 0.365681 0.140687
0.047011 0.365814 0.201073
0.047144 0.365946 0.261739
0.047277 0.366079 0.322619
0.047410 0.366213 0.383671
0.047544 0.366347 0.444868
0.047678 0.366481 0.506190
0.047813 0.366616 0.567623
0.047948 0.366750 0.629154
0.048082 0.366885 0.690773
0.048217 0.367020 0.752474
0.048352 0.367155 0.814249
0.048488 0.367290 0.876093
0.048623 0.367426 0.938001
0.048717 0.367519 0.980666
0.047944 0.427770 0.022882
0.048073 0.427900 0.082038
0.048204 0.428031 0.142013
0.048336 0.428163 0.202398
0.048469 0.428296 0.263065
0.048602 0.428429 0.323944
0.048736 0.428563 0.384996
0.048870 0.428697 0.446193
0.049004 0.428831 0.507516
0.049138 0.428965 0.568948
0.049273 0.429100 0.630479
0.049408 0.429235 0.692099
0.049543 0.429370 0.753799
0.049678 0.429505 0.815574
0.049813 0.429640 0.877418
0.049949 0.429775 0.939326
0.050042 0.429869 0.981991
0.049272 0.490253 0.024210
0.049401 0.490382 0.083366
0.049533 0.490514 0.143341
0.049665 0.490646 0.203727
0.049797 0.490778 0.264393
0.049931 0.490912 0.325272
0.050064 0.491045 0.386325
0.050198 0.491179 0.447522
0.050332 0.491313 0.508844
0.050467 0.491448 0.570277
0.050601 0.491582 0.631807
0.050736 0.491717 0.693427
0.050871 0.491852 0.755128
0.051006 0.491987 0.816903
0.051141 0.492122 0.878746
0.051277 0.492258 0.940654
0.051370 0.492351 0.983319
0.050603 0.552852 0.025541
0.050732 0.552981 0.084697
0.050863 0.553112 0.144672
0.050995 0.553244 0.205057
0.051128 0.553377 0.265724
0.051261 0.553510 0.326603
0.051395 0.553644 0.387655
0.051529 0.553778 0.448852
0.051663 0.553912 0.510175
0.051797 0.554046 0.571607
0.051932 0.554181 0.633138
0.052067 0.554316 0.694758
0.052202 0.554451 0.756458
0.052337 0.554586 0.818233
0.052472 0.554721 0.880077
0.052608 0.554857 0.941985
0.052701 0.554950 0.984650
0.051936 0.615554 0.026874
0.052065 0.615683 0.086029
0.052196 0.615814 0.146004
0.052328 0.615946 0.206390
0.052461 0.616079 0.267056
0.052594 0.616212 0.327936
0.052728 0.616346 0.388988
0.052862 0.616480 0.450185
0.052996 0.616614 0.511508
0.053130 0.616748 0.572940
0.053265 0.616883 0.634471
0.053400 0.617018 0.696091
0.053535 0.617153 0.757791
0.053670 0.617288 0.819566
0.053805 0.617423 0.881410
0.053941 0.617559 0.943318
0.054034 0.617652 0.985983
0.053270 0.678349 0.028209
0.053400 0.678478 0.087364
0.053531 0.678609 0.147339
0.053663 0.678742 0.207725
0.053796 0.678874 0.268391
0.053929 0.679007 0.329271
0.054063 0.679141 0.390323
0.054197 0.679275 0.451520
0.054331 0.679409 0.512843
0.054465 0.679543 0.574275
0.054600 0.679678 0.635806
0.054735 0.679813 0.697426
0.054870 0.679948 0.759126
0.055005 0.680083 0.820901
0.055140 0.680218 0.882745
0.055275 0.680354 0.944653
0.055369 0.680447 0.987318
0.054607 0.741229 0.029545
0.054737 0.741358 0.088701
0.054868 0.741489 0.148676
0.055000 0.741621 0.209062
0.055133 0.741754 0.269728
0.055266 0.741887 0.330608
0.055399 0.742021 0.391660
0.055533 0.742155 0.452857
0.055667 0.742289 0.514179
0.055802 0.742423 0.575612
0.055936 0.742558 0.637143
0.056071 0.742693 0.698762
0.056206 0.742828 0.760463
0.056341 0.742963 0.822238
0.056477 0.743098 0.884082
0.056612 0.743234 0.945990
0.056705 0.743327 0.988655
0.055945 0.804186 0.030884
0.056075 0.804316 0.090039
0.056206 0.804447 0.150014
0.056338 0.804579 0.210400
0.056471 0.804712 0.271066
0.056604 0.804845 0.331946
0.056738 0.804978 0.392998
0.056872 0.805112 0.454195
0.057006 0.805246 0.515518
0.057140 0.805381 0.576950
0.057275 0.805515 0.638481
0.057410 0.805650 0.700101
0.057545 0.805785 0.761801
0.057680 0.805920 0.823576
0.057815 0.806056 0.885420
0.057951 0.806191 0.947328
0.058044 0.806285 0.989993
0.057285 0.867215 0.032224
0.057415 0.867345 0.091379
0.057546 0.867476 0.151354
0.057678 0.867608 0.211740
0.057811 0.867741 0.272406
0.057944 0.867874 0.333286
0.058078 0.868008 0.394338
0.058211 0.868142 0.455535
0.058346 0.868276 0.516858
0.058480 0.868410 0.578290
0.058615 0.868545 0.639821
0.058749 0.868680 0.701440
0.058884 0.868815 0.763141
0.059020 0.868950 0.824916
0.059155 0.869085 0.886760
0.059290 0.869220 0.948668
0.059384 0.869314 0.991333
0.058627 0.930311 0.033565
0.058756 0.930441 0.092721
0.058887 0.930572 0.152696
0.059019 0.930704 0.213081
0.059152 0.930837 0.273748
0.059285 0.930970 0.334627
0.059419 0.931104 0.395679
0.059553 0.931238 0.456877
0.059687 0.931372 0.518199
0.059821 0.931506 0.579631
0.059956 0.931641 0.641162
0.060091 0.931776 0.702782
0.060226 0.931911 0.764482
0.060361 0.932046 0.826257
0.060496 0.932181 0.888101
0.060632 0.932316 0.950009
0.060725 0.932410 0.992674
0.059936 0.991885 0.034874
0.060065 0.992014 0.094029
0.060196 0.992145 0.154004
0.060328 0.992277 0.214390
0.060461 0.992410 0.275057
0.060594 0.992543 0.335936
0.060728 0.992677 0.396988
0.060862 0.992811 0.458185
0.060996 0.992945 0.519508
0.061130 0.993079 0.580940
0.061265 0.993214 0.642471
0.061400 0.993349 0.704091
0.061535 0.993484 0.765791
0.061670 0.993619 0.827566
0.061805 0.993754 0.889410
0.061941 0.993890 0.951318
0.062034 0.993983 0.993983
0.098716 0.000663 0.014178
0.098845 0.000792 0.073334
0.098977 0.000923 0.133309
0.099109 0.001055 0.193695
0.099241 0.001188 0.254361
0.099375 0.001321 0.315240
0.099508 0.001455 0.376293
0.099642 0.001589 0.437490
0.099776 0.001723 0.498812
0.099911 0.001857 0.560245
0.100045 0.001992 0.621776
0.100180 0.002127 0.683395
0.100315 0.002262 0.745096
0.100450 0.002397 0.806871
0.100585 0.002532 0.868715
0.100721 0.002668 0.930622
0.100814 0.002761 0.973287
0.099922 0.057390 0.015384
0.100051 0.057519 0.074540
0.100182 0.057650 0.134515
0.100315 0.057783 0.194901
0.100447 0.057915 0.255567
0.100580 0.058049 0.316446
0.100714 0.058182 0.377499
0.100848 0.058316 0.438696
0.100982 0.058450 0.500018
0.101116 0.058585 0.561451
0.101251 0.058719 0.622981
0.101386 0.058854 0.684601
0.101521 0.058989 0.746302
0.101656 0.059124 0.808077
0.101791 0.059259 0.869920
0.101927 0.059395 0.931828
0.102020 0.059488 0.974493
0.101218 0.118366 0.016680
0.101347 0.118495 0.075836
0.101479 0.118626 0.135811
0.101611 0.118758 0.196197
0.101743 0.118891 0.256863
0.101877 0.119024 0.317743
0.102010 0.119158 0.378795
0.102144 0.119292 0.439992
0.102278 0.119426 0.501314
0.102413 0.119560 0.562747
0.102547 0.119695 0.624278
0.102682 0.119830 0.685897
0.102817 0.119965 0.747598
0.102952 0.120100 0.809373
0.103088 0.120235 0.871217
0.103223 0.120371 0.933125
0.103316 0.120464 0.975790
0.102525 0.179827 0.017987
0.102654 0.179956 0.077143
0.102785 0.180087 0.137118
0.102917 0.180219 0.197504
0.103050 0.180352 0.258170
0.103183 0.180485 0.319049
0.103317 0.180619 0.380101
0.103451 0.180753 0.441299
0.103585 0.180887 0.502621
0.103719 0.181021 0.564053
0.103854 0.181156 0.625584
0.103989 0.181291 0.687204
0.104124 0.181426 0.748904
0.104259 0.181561 0.810679
0.104394 0.181696 0.872523
0.104530 0.181832 0.934431
0.104623 0.181925 0.977096
0.103838 0.241602 0.019300
0.103967 0.241731 0.078456
0.104098 0.241862 0.138431
0.104231 0.241994 0.198817
0.104363 0.242127 0.259483
0.104496 0.242260 0.320362
0.104630 0.242394 0.381415
0.104764 0.242528 0.442612
0.104898 0.242662 0.503934
0.105032 0.242796 0.565367
0.105167 0.242931 0.626897
0.105302 0.243066 0.688517
0.105437 0.243201 0.750218
0.105572 0.243336 0.811993
0.105707 0.243471 0.873836
0.105843 0.243607 0.935744
0.105936 0.243700 0.978409
0.105156 0.303610 0.020618
0.105285 0.303740 0.079774
0.105417 0.303871 0.139749
0.105549 0.304003 0.200135
0.105681 0.304136 0.260801
0.105815 0.304269 0.321681
0.105948 0.304402 0.382733
0.106082 0.304536 0.443930
0.106216 0.304670 0.505252
0.106351 0.304805 0.566685
0.106485 0.304939 0.628216
0.106620 0.305074 0.689835
0.106755 0.305209 0.751536
0.106890 0.305344 0.813311
0.107026 0.305480 0.875155
0.107161 0.305615 0.937063
0.107254 0.305709 0.979727
0.106478 0.365805 0.021941
0.106608 0.365934 0.081096
0.106739 0.366065 0.141071
0.106871 0.366198 0.201457
0.107004 0.366330 0.262123
0.107137 0.366463 0.323003
0.107270 0.366597 0.384055
0.107404 0.366731 0.445252
0.107538 0.366865 0.506574
0.107673 0.367000 0.568007
0.107807 0.367134 0.629538
0.107942 0.367269 0.691157
0.108077 0.367404 0.752858
0.108212 0.367539 0.814633
0.108348 0.367674 0.876477
0.108483 0.367810 0.938385
0.108576 0.367903 0.981050
0.107804 0.428154 0.023266
0.107933 0.428284 0.082422
0.108064 0.428415 0.142397
0.108196 0.428547 0.202782
0.108329 0.428680 0.263449
0.108462 0.428813 0.324328
0.108596 0.428947 0.385380
0.108730 0.429081 0.446577
0.108864 0.429215 0.507900
0.108998 0.429349 0.569332
0.109133 0.429484 0.630863
0.109268 0.429619 0.692483
0.109403 0.429754 0.754183
0.109538 0.429889 0.815958
0.109673 0.430024 0.877802
0.109809 0.430159 0.939710
0.109902 0.430253 0.982375
0.109132 0.490637 0.024594
0.109261 0.490766 0.083750
0.109392 0.490898 0.143725
0.109525 0.491030 0.204111
0.109657 0.491162 0.264777
0.109790 0.491296 0.325656
0.109924 0.491429 0.386709
0.110058 0.491563 0.447906
0.110192 0.491697 0.509228
0.110326 0.491832 0.570661
0.110461 0.491966 0.632191
0.110596 0.492101 0.693811
0.110731 0.492236 0.755512
0.110866 0.492371 0.817287
0.111001 0.492506 0.879130
0.111137 0.492642 0.941038
0.111230 0.492735 0.983703
0.110462 0.553236 0.025925
0.110592 0.553365 0.085081
0.110723 0.553496 0.145056
0.110855 0.553628 0.205441
0.110988 0.553761 0.266108
0.111121 0.553894 0.326987
0.111255 0.554028 0.388039
0.111389 0.554162 0.449236
0.111523 0.554296 0.510559
0.111657 0.554430 0.571991
0.111792 0.554565 0.633522
0.111927 0.554700 0.695142
0.112062 0.554835 0.756842
0.112197 0.554970 0.818617
0.112332 0.555105 0.880461
0.112468 0.555241 0.942369
0.112561 0.555334 0.985034
0.111795 0.615938 0.027258
0.111925 0.616067 0.086413
0.112056 0.616198 0.146388
0.112188 0.616330 0.206774
0.112321 0.616463 0.267440
0.112454 0.616596 0.328320
0.112588 0.616730 0.389372
0.112722 0.616864 0.450569
0.112856 0.616998 0.511892
0.112990 0.617132 0.573324
0.113125 0.617267 0.634855
0.113260 0.617402 0.696475
0.113395 0.617537 0.758175
0.113530 0.617672 0.819950
0.113665 0.617807 0.881794
0.113800 0.617943 0.943702
0.113894 0.618036 0.986367
0.113130 0.678733 0.028593
0.113260 0.678862 0.087748
0.113391 0.678993 0.147723
0.113523 0.679126 0.208109
0.113656 0.679258 0.268775
0.113789 0.679391 0.329655
0.113923 0.679525 0.390707
0.114056 0.679659 0.451904
0.114191 0.679793 0.513227
0.114325 0.679927 0.574659
0.114460 0.680062 0.636190
0.114594 0.680197 0.697810
0.114729 0.680332 0.759510
0.114865 0.680467 0.821285
0.115000 0.680602 0.883129
0.115135 0.680738 0.945037
0.115229 0.680831 0.987702
0.114467 0.741613 0.029929
0.114596 0.741742 0.089085
0.114728 0.741873 0.149060
0.114860 0.742005 0.209446
0.114992 0.742138 0.270112
0.115126 0.742271 0.330992
0.115259 0.742405 0.392044
0.115393 0.742539 0.453241
0.115527 0.742673 0.514563
0.115662 0.742807 0.575996
0.115796 0.742942 0.637527
0.115931 0.743077 0.699146
0.116066 0.743212 0.760847
0.116201 0.743347 0.822622
0.116337 0.743482 0.884466
0.116472 0.743618 0.946374
0.116565 0.743711 0.989039
0.115805 0.804570 0.031268
0.115935 0.804700 0.090423
0.116066 0.804831 0.150398
0.116198 0.804963 0.210784
0.116331 0.805096 0.271450
0.116464 0.805229 0.332330
0.116598 0.805362 0.393382
0.116731 0.805496 0.454579
0.116866 0.805630 0.515902
0.117000 0.805765 0.577334
0.117135 0.805899 0.638865
0.117269 0.806034 0.700485
0.117404 0.806169 0.762185
0.117540 0.806304 0.823960
0.117675 0.806440 0.885804
0.117810 0.806575 0.947712
0.117904 0.806669 0.990377
0.117145 0.867599 0.032608
0.117275 0.867729 0.091763
0.117406 0.867860 0.151738
0.117538 0.867992 0.212124
0.117671 0.868125 0.272790
0.117804 0.868258 0.333670
0.117937 0.868392 0.394722
0.118071 0.868526 0.455919
0.118206 0.868660 0.517242
0.118340 0.868794 0.578674
0.118475 0.868929 0.640205
0.118609 0.869064 0.701824
0.118744 0.869199 0.763525
0.118880 0.869334 0.825300
0.119015 0.869469 0.887144
0.119150 0.869604 0.949052
0.119244 0.869698 0.991717
0.118487 0.930695 0.033949
0.118616 0.930825 0.093105
0.118747 0.930956 0.153080
0.118879 0.931088 0.213465
0.119012 0.931221 0.274132
0.119145 0.931354 0.335011
0.119279 0.931488 0.396063
0.119413 0.931622 0.457261
0.119547 0.931756 0.518583
0.119681 0.931890 0.580015
0.119816 0.932025 0.641546
0.119951 0.932160 0.703166
0.120086 0.932295 0.764866
0.120221 0.932430 0.826641
0.120356 0.932565 0.888485
0.120492 0.932700 0.950393
0.120585 0.932794 0.993058
0.119795 0.992269 0.035258
0.119925 0.992398 0.094413
0.120056 0.992529 0.154388
0.120188 0.992661 0.214774
0.120321 0.992794 0.275441
0.120454 0.992927 0.336320
0.120588 0.993061 0.397372
0.120722 0.993195 0.458569
0.120856 0.993329 0.519892
0.120990 0.993463 0.581324
0.121125 0.993598 0.642855
0.121260 0.993733 0.704475
0.121395 0.993868 0.766175
0.121530 0.994003 0.827950
0.121665 0.994138 0.889794
0.121800 0.994274 0.951702
0.121894 0.994367 0.994367
0.159146 0.001050 0.014566
0.159276 0.001180 0.073722
0.159407 0.001311 0.133697
0.159539 0.001443 0.194082
0.159672 0.001576 0.254749
0.159805 0.001709 0.315628
0.159938 0.001843 0.376680
0.160072 0.001976 0.437878
0.160207 0.002111 0.499200
0.160341 0.002245 0.560632
0.160476 0.002380 0.622163
0.160610 0.002514 0.683783
0.160745 0.002649 0.745483
0.160880 0.002785 0.807258
0.161016 0.002920 0.869102
0.161151 0.003055 0.931010
0.161245 0.003149 0.973675
0.160352 0.057777 0.015772
