skills/appstore-swiss-grid/assets/grade/luts/cool_tech_v04.cube
TITLE "cool_tech_v04"
LUT_3D_SIZE 5
DOMAIN_MIN 0.0 0.0 0.0
DOMAIN_MAX 1.0 1.0 1.0
0.000030 0.000030 0.013545
0.000555 0.000555 0.253728
0.001090 0.001090 0.498179
0.001629 0.001629 0.744463
0.002128 0.002128 0.972654
0.005152 0.240969 0.018667
0.005677 0.241494 0.258850
0.006212 0.242029 0.503301
0.006751 0.242568 0.749584
0.007250 0.243067 0.977776
0.010446 0.490004 0.023961
0.010971 0.490529 0.264144
0.011506 0.491064 0.508595
0.012045 0.491603 0.754878
0.012544 0.492102 0.983070
0.015781 0.740980 0.029296
0.016306 0.741505 0.269479
0.016841 0.742040 0.513930
0.017380 0.742579 0.760214
0.017879 0.743078 0.988405
0.021109 0.991636 0.034625
0.021635 0.992161 0.274807
0.022170 0.992696 0.519259
0.022708 0.993235 0.765542
0.023208 0.993734 0.993734
0.219920 0.001440 0.014956
0.220446 0.001966 0.255138
0.220980 0.002501 0.499590
0.221519 0.003039 0.745873
0.222019 0.003539 0.974065
0.225042 0.242379 0.020078
0.225568 0.242905 0.260260
0.226102 0.243439 0.504712
0.226641 0.243978 0.750995
0.227140 0.244478 0.979187
0.230336 0.491414 0.025372
0.230862 0.491940 0.265554
0.231396 0.492475 0.510006
0.231935 0.493014 0.756289
0.232434 0.493513 0.984481
0.235671 0.742390 0.030707
0.236197 0.742916 0.270890
0.236732 0.743450 0.515341
0.237270 0.743989 0.761624
0.237770 0.744489 0.989816
0.241000 0.993046 0.036035
0.241525 0.993572 0.276218
0.242060 0.994106 0.520669
0.242599 0.994645 0.766953
0.243098 0.995144 0.995144
0.465049 0.003013 0.016528
0.465575 0.003538 0.256711
0.466110 0.004073 0.501162
0.466648 0.004612 0.747446
0.467148 0.005111 0.975637
0.470171 0.243952 0.021650
0.470697 0.244477 0.261833
0.471232 0.245012 0.506284
0.471770 0.245551 0.752568
0.472270 0.246050 0.980759
0.475465 0.492987 0.026944
0.475991 0.493512 0.267127
0.476526 0.494047 0.511578
0.477064 0.494586 0.757862
0.477564 0.495085 0.986053
0.480800 0.743963 0.032279
0.481326 0.744488 0.272462
0.481861 0.745023 0.516913
0.482400 0.745562 0.763197
0.482899 0.746061 0.991389
0.486129 0.994619 0.037608
0.486654 0.995144 0.277791
0.487189 0.995679 0.522242
0.487728 0.996218 0.768525
0.488227 0.996717 0.996717
0.712168 0.004598 0.018114
0.712693 0.005123 0.258296
0.713228 0.005658 0.502748
0.713767 0.006197 0.749031
0.714266 0.006696 0.977223
0.717290 0.245537 0.023236
0.717815 0.246062 0.263418
0.718350 0.246597 0.507869
0.718889 0.247136 0.754153
0.719388 0.247635 0.982345
0.722584 0.494572 0.028529
0.723109 0.495098 0.268712
0.723644 0.495632 0.513163
0.724183 0.496171 0.759447
0.724682 0.496671 0.987639
0.727919 0.745548 0.033865
0.728445 0.746073 0.274047
0.728979 0.746608 0.518499
0.729518 0.747147 0.764782
0.730017 0.747646 0.992974
0.733248 0.996204 0.039193
0.733773 0.996729 0.279376
0.734308 0.997264 0.523827
0.734847 0.997803 0.770111
0.735346 0.998302 0.998302
0.960564 0.006191 0.019707
0.961090 0.006717 0.259890
0.961625 0.007252 0.504341
0.962163 0.007791 0.750624
0.962663 0.008290 0.978816
0.965686 0.247130 0.024829
0.966212 0.247656 0.265012
0.966746 0.248191 0.509463
0.967285 0.248730 0.755746
0.967785 0.249229 0.983938
0.970980 0.496166 0.030123
0.971506 0.496691 0.270306
0.972040 0.497226 0.514757
0.972579 0.497765 0.761040
0.973079 0.498264 0.989232
0.976315 0.747141 0.035458
0.976841 0.747667 0.275641
0.977376 0.748202 0.520092
0.977915 0.748740 0.766376
0.978414 0.749240 0.994567
0.981644 0.997797 0.040787
0.982169 0.998323 0.280969
0.982704 0.998858 0.525421
0.983243 0.999396 0.771704
0.983742 0.999896 0.999896
