skills/appstore-swiss-grid/assets/grade/luts/soft_pastel_v05.cube
TITLE "soft_pastel_v05"
LUT_3D_SIZE 9
DOMAIN_MIN 0.0 0.0 0.0
DOMAIN_MAX 1.0 1.0 1.0
0.032213 0.030234 0.028250
0.033183 0.031204 0.143419
0.034127 0.032148 0.255455
0.035058 0.033079 0.366002
0.035981 0.034001 0.475557
0.036897 0.034918 0.584368
0.037809 0.035829 0.692582
0.038716 0.036737 0.800299
0.039601 0.037621 0.905336
0.041814 0.153938 0.037851
0.042784 0.154908 0.153020
0.043728 0.155852 0.265055
0.044659 0.156783 0.375603
0.045582 0.157706 0.485158
0.046498 0.158622 0.593968
0.047410 0.159534 0.702183
0.048317 0.160441 0.809900
0.049202 0.161326 0.914937
0.051159 0.274343 0.047196
0.052129 0.275313 0.162365
0.053073 0.276257 0.274400
0.054004 0.277188 0.384948
0.054926 0.278110 0.494503
0.055843 0.279027 0.603313
0.056754 0.279938 0.711527
0.057662 0.280845 0.819245
0.058546 0.281730 0.924281
0.060381 0.393161 0.056417
0.061351 0.394131 0.171586
0.062294 0.395075 0.283622
0.063225 0.396006 0.394169
0.064148 0.396929 0.503724
0.065064 0.397845 0.612535
0.065976 0.398757 0.720749
0.066883 0.399664 0.828467
0.067768 0.400549 0.933503
0.069520 0.510919 0.065557
0.070490 0.511889 0.180725
0.071433 0.512833 0.292761
0.072365 0.513764 0.403308
0.073287 0.514686 0.512864
0.074204 0.515603 0.621674
0.075115 0.516514 0.729888
0.076022 0.517422 0.837606
0.076907 0.518306 0.942642
0.078597 0.627879 0.074634
0.079567 0.628849 0.189803
0.080511 0.629793 0.301838
0.081442 0.630724 0.412386
0.082365 0.631647 0.521941
0.083281 0.632563 0.630751
0.084193 0.633475 0.738966
0.085100 0.634382 0.846683
0.085985 0.635267 0.951720
0.087625 0.744201 0.083662
0.088595 0.745171 0.198831
0.089539 0.746114 0.310866
0.090470 0.747046 0.421414
0.091393 0.747968 0.530969
0.092309 0.748885 0.639779
0.093220 0.749796 0.747993
0.094128 0.750703 0.855711
0.095012 0.751588 0.960748
0.096612 0.859990 0.092648
0.097582 0.860960 0.207817
0.098525 0.861904 0.319853
0.099456 0.862835 0.430400
0.100379 0.863758 0.539955
0.101295 0.864674 0.648766
0.102207 0.865585 0.756980
0.103114 0.866493 0.864698
0.103999 0.867377 0.969734
0.105224 0.970959 0.101261
0.106194 0.971929 0.216430
0.107138 0.972873 0.328465
0.108069 0.973804 0.439013
0.108991 0.974727 0.548568
0.109908 0.975643 0.657378
0.110819 0.976554 0.765592
0.111727 0.977462 0.873310
0.112611 0.978346 0.978346
0.149077 0.033086 0.031102
0.150047 0.034056 0.146271
0.150990 0.034999 0.258306
0.151921 0.035930 0.368854
0.152844 0.036853 0.478409
0.153761 0.037770 0.587219
0.154672 0.038681 0.695433
0.155579 0.039588 0.803151
0.156464 0.040473 0.908188
0.158677 0.156790 0.040703
0.159647 0.157760 0.155871
0.160591 0.158703 0.267907
0.161522 0.159635 0.378454
0.162445 0.160557 0.488010
0.163361 0.161474 0.596820
0.164273 0.162385 0.705034
0.165180 0.163292 0.812752
0.166065 0.164177 0.917788
0.168022 0.277194 0.050047
0.168992 0.278165 0.165216
0.169936 0.279108 0.277252
0.170867 0.280039 0.387799
0.171790 0.280962 0.497354
0.172706 0.281878 0.606165
0.173618 0.282790 0.714379
0.174525 0.283697 0.822097
0.175410 0.284582 0.927133
0.177244 0.396013 0.059269
0.178214 0.396983 0.174438
0.179157 0.397927 0.286473
0.180089 0.398858 0.397021
0.181011 0.399780 0.506576
0.181928 0.400697 0.615386
0.182839 0.401608 0.723601
0.183746 0.402516 0.831318
0.184631 0.403400 0.936355
0.186383 0.513771 0.068408
0.187353 0.514741 0.183577
0.188297 0.515684 0.295613
0.189228 0.516615 0.406160
0.190151 0.517538 0.515715
0.191067 0.518455 0.624526
0.191978 0.519366 0.732740
0.192886 0.520273 0.840457
0.193770 0.521158 0.945494
0.195460 0.630731 0.077486
0.196430 0.631701 0.192654
0.197374 0.632645 0.304690
0.198305 0.633576 0.415237
0.199228 0.634498 0.524793
0.200144 0.635415 0.633603
0.201056 0.636326 0.741817
0.201963 0.637234 0.849535
0.202848 0.638118 0.954571
0.204488 0.747052 0.086514
0.205458 0.748022 0.201682
0.206402 0.748966 0.313718
0.207333 0.749897 0.424265
0.208256 0.750820 0.533821
0.209172 0.751736 0.642631
0.210084 0.752648 0.750845
0.210991 0.753555 0.858563
0.211876 0.754440 0.963599
0.213475 0.862842 0.095500
0.214445 0.863812 0.210669
0.215388 0.864755 0.322704
0.216320 0.865686 0.433252
0.217242 0.866609 0.542807
0.218159 0.867526 0.651617
0.219070 0.868437 0.759832
0.219977 0.869344 0.867549
0.220862 0.870229 0.972586
0.222087 0.973811 0.104112
0.223057 0.974781 0.219281
0.224001 0.975724 0.331317
0.224932 0.976655 0.441864
0.225855 0.977578 0.551419
0.226771 0.978495 0.660230
0.227683 0.979406 0.768444
0.228590 0.980313 0.876162
0.229475 0.981198 0.981198
0.262882 0.035863 0.033879
0.263852 0.036833 0.149048
0.264796 0.037776 0.261083
0.265727 0.038707 0.371631
0.266649 0.039630 0.481186
0.267566 0.040547 0.589996
0.268477 0.041458 0.698210
0.269385 0.042365 0.805928
0.270269 0.043250 0.910965
0.272483 0.159567 0.043480
0.273453 0.160537 0.158649
0.274396 0.161481 0.270684
0.275328 0.162412 0.381231
0.276250 0.163334 0.490787
0.277167 0.164251 0.599597
0.278078 0.165162 0.707811
0.278985 0.166069 0.815529
0.279870 0.166954 0.920565
0.281828 0.279972 0.052824
0.282798 0.280942 0.167993
0.283741 0.281885 0.280029
0.284672 0.282816 0.390576
0.285595 0.283739 0.500131
0.286511 0.284655 0.608942
0.287423 0.285567 0.717156
0.288330 0.286474 0.824874
0.289215 0.287359 0.929910
0.291049 0.398790 0.062046
0.292019 0.399760 0.177215
0.292963 0.400704 0.289250
0.293894 0.401635 0.399798
0.294817 0.402557 0.509353
0.295733 0.403474 0.618163
0.296644 0.404385 0.726378
0.297552 0.405293 0.834095
0.298436 0.406177 0.939132
0.300188 0.516548 0.071185
0.301158 0.517518 0.186354
0.302102 0.518461 0.298390
0.303033 0.519392 0.408937
0.303956 0.520315 0.518492
0.304872 0.521232 0.627303
0.305784 0.522143 0.735517
0.306691 0.523050 0.843234
0.307576 0.523935 0.948271
0.309266 0.633508 0.080263
0.310236 0.634478 0.195431
0.311179 0.635422 0.307467
0.312111 0.636353 0.418014
0.313033 0.637275 0.527570
0.313950 0.638192 0.636380
0.314861 0.639103 0.744594
0.315768 0.640011 0.852312
0.316653 0.640895 0.957348
0.318294 0.749829 0.089291
0.319264 0.750799 0.204459
0.320207 0.751743 0.316495
0.321138 0.752674 0.427042
0.322061 0.753597 0.536598
0.322978 0.754513 0.645408
0.323889 0.755425 0.753622
0.324796 0.756332 0.861340
0.325681 0.757217 0.966376
0.327280 0.865619 0.098277
0.328250 0.866589 0.213446
0.329194 0.867532 0.325481
0.330125 0.868463 0.436029
0.331048 0.869386 0.545584
0.331964 0.870303 0.654394
0.332875 0.871214 0.762609
0.333783 0.872121 0.870326
0.334667 0.873006 0.975363
0.335893 0.976588 0.106889
0.336863 0.977558 0.222058
0.337806 0.978501 0.334094
0.338737 0.979433 0.444641
0.339660 0.980355 0.554196
0.340576 0.981272 0.663007
0.341488 0.982183 0.771221
0.342395 0.983090 0.878939
0.343280 0.983975 0.983975
0.375200 0.038603 0.036620
0.376170 0.039573 0.151788
0.377114 0.040517 0.263824
0.378045 0.041448 0.374371
0.378968 0.042371 0.483927
0.379884 0.043287 0.592737
0.380795 0.044199 0.700951
0.381703 0.045106 0.808669
0.382587 0.045991 0.913705
0.384801 0.162308 0.046220
0.385771 0.163278 0.161389
0.386715 0.164221 0.273425
0.387646 0.165152 0.383972
0.388568 0.166075 0.493527
0.389485 0.166992 0.602338
0.390396 0.167903 0.710552
0.391304 0.168810 0.818270
0.392188 0.169695 0.923306
0.394146 0.282712 0.055565
0.395116 0.283682 0.170734
0.396059 0.284626 0.282769
0.396990 0.285557 0.393317
0.397913 0.286480 0.502872
0.398830 0.287396 0.611683
0.399741 0.288308 0.719897
0.400648 0.289215 0.827614
0.401533 0.290100 0.932651
0.403367 0.401531 0.064787
0.404337 0.402501 0.179956
0.405281 0.403444 0.291991
0.406212 0.404375 0.402539
0.407135 0.405298 0.512094
0.408051 0.406215 0.620904
0.408963 0.407126 0.729118
0.409870 0.408033 0.836836
0.410755 0.408918 0.941872
0.412507 0.519288 0.073926
0.413477 0.520258 0.189095
0.414420 0.521202 0.301130
0.415351 0.522133 0.411678
0.416274 0.523056 0.521233
0.417190 0.523972 0.630043
0.418102 0.524884 0.738258
0.419009 0.525791 0.845975
0.419894 0.526676 0.951012
0.421584 0.636249 0.083003
0.422554 0.637219 0.198172
0.423498 0.638162 0.310208
0.424429 0.639093 0.420755
0.425351 0.640016 0.530310
0.426268 0.640933 0.639121
0.427179 0.641844 0.747335
0.428087 0.642751 0.855053
0.428971 0.643636 0.960089
0.430612 0.752570 0.092031
0.431582 0.753540 0.207200
0.432525 0.754484 0.319236
0.433456 0.755415 0.429783
0.434379 0.756338 0.539338
0.435296 0.757254 0.648149
0.436207 0.758166 0.756363
0.437114 0.759073 0.864080
0.437999 0.759958 0.969117
0.439598 0.868359 0.101018
0.440568 0.869329 0.216187
0.441512 0.870273 0.328222
0.442443 0.871204 0.438770
0.443366 0.872127 0.548325
0.444282 0.873043 0.657135
0.445194 0.873955 0.765349
0.446101 0.874862 0.873067
0.446986 0.875747 0.978103
0.448211 0.979328 0.109630
0.449181 0.980299 0.224799
0.450124 0.981242 0.336834
0.451055 0.982173 0.447382
0.451978 0.983096 0.556937
0.452895 0.984012 0.665748
0.453806 0.984924 0.773962
0.454713 0.985831 0.881679
0.455598 0.986716 0.986716
0.486521 0.041320 0.039336
0.487491 0.042290 0.154505
0.488435 0.043233 0.266540
0.489366 0.044164 0.377088
0.490288 0.045087 0.486643
0.491205 0.046004 0.595453
0.492116 0.046915 0.703668
0.493024 0.047822 0.811385
0.493908 0.048707 0.916422
0.496122 0.165024 0.048937
0.497092 0.165994 0.164106
0.498035 0.166938 0.276141
0.498966 0.167869 0.386689
0.499889 0.168791 0.496244
0.500806 0.169708 0.605054
0.501717 0.170619 0.713268
0.502624 0.171527 0.820986
0.503509 0.172411 0.926022
0.505466 0.285429 0.058282
0.506436 0.286399 0.173450
0.507380 0.287342 0.285486
0.508311 0.288273 0.396033
0.509234 0.289196 0.505589
0.510150 0.290113 0.614399
0.511062 0.291024 0.722613
0.511969 0.291931 0.830331
0.512854 0.292816 0.935367
0.514688 0.404247 0.067503
0.515658 0.405217 0.182672
0.516602 0.406161 0.294707
0.517533 0.407092 0.405255
0.518456 0.408015 0.514810
0.519372 0.408931 0.623621
0.520283 0.409842 0.731835
0.521191 0.410750 0.839552
0.522075 0.411634 0.944589
0.523827 0.522005 0.076642
0.524797 0.522975 0.191811
0.525741 0.523918 0.303847
0.526672 0.524849 0.414394
0.527595 0.525772 0.523949
0.528511 0.526689 0.632760
0.529423 0.527600 0.740974
0.530330 0.528507 0.848692
0.531215 0.529392 0.953728
0.532905 0.638965 0.085720
0.533875 0.639935 0.200889
0.534818 0.640879 0.312924
0.535749 0.641810 0.423472
0.536672 0.642732 0.533027
0.537589 0.643649 0.641837
0.538500 0.644560 0.750051
0.539407 0.645468 0.857769
0.540292 0.646352 0.962805
0.541933 0.755287 0.094748
0.542903 0.756257 0.209916
0.543846 0.757200 0.321952
0.544777 0.758131 0.432499
0.545700 0.759054 0.542055
0.546616 0.759971 0.650865
0.547528 0.760882 0.759079
0.548435 0.761789 0.866797
0.549320 0.762674 0.971833
0.550919 0.871076 0.103734
0.551889 0.872046 0.218903
0.552833 0.872989 0.330938
0.553764 0.873921 0.441486
0.554687 0.874843 0.551041
0.555603 0.875760 0.659852
0.556514 0.876671 0.768066
0.557422 0.877578 0.875783
0.558306 0.878463 0.980820
0.559531 0.982045 0.112347
0.560501 0.983015 0.227515
0.561445 0.983959 0.339551
0.562376 0.984890 0.450098
0.563299 0.985812 0.559654
0.564215 0.986729 0.668464
0.565127 0.987640 0.776678
0.566034 0.988548 0.884396
0.566919 0.989432 0.989432
0.597091 0.044018 0.042034
0.598061 0.044988 0.157203
0.599005 0.045931 0.269238
0.599936 0.046863 0.379786
0.600858 0.047785 0.489341
0.601775 0.048702 0.598151
0.602686 0.049613 0.706366
0.603594 0.050520 0.814083
0.604478 0.051405 0.919120
0.606692 0.167722 0.051635
0.607662 0.168692 0.166804
0.608605 0.169636 0.278839
0.609536 0.170567 0.389387
0.610459 0.171490 0.498942
0.611376 0.172406 0.607752
0.612287 0.173317 0.715966
0.613194 0.174225 0.823684
0.614079 0.175109 0.928721
0.616036 0.288127 0.060980
0.617006 0.289097 0.176148
0.617950 0.290040 0.288184
0.618881 0.290971 0.398731
0.619804 0.291894 0.508287
0.620720 0.292811 0.617097
0.621632 0.293722 0.725311
0.622539 0.294629 0.833029
0.623424 0.295514 0.938065
0.625258 0.406945 0.070201
0.626228 0.407915 0.185370
0.627172 0.408859 0.297406
0.628103 0.409790 0.407953
0.629025 0.410713 0.517508
0.629942 0.411629 0.626319
0.630853 0.412540 0.734533
0.631761 0.413448 0.842250
0.632645 0.414332 0.947287
0.634397 0.524703 0.079340
0.635367 0.525673 0.194509
0.636311 0.526616 0.306545
0.637242 0.527548 0.417092
0.638165 0.528470 0.526648
0.639081 0.529387 0.635458
0.639993 0.530298 0.743672
0.640900 0.531205 0.851390
0.641785 0.532090 0.956426
0.643475 0.641663 0.088418
0.644445 0.642633 0.203587
0.645388 0.643577 0.315622
0.646319 0.644508 0.426170
0.647242 0.645431 0.535725
0.648159 0.646347 0.644535
0.649070 0.647258 0.752749
0.649977 0.648166 0.860467
0.650862 0.649050 0.965504
0.652503 0.757985 0.097446
0.653473 0.758955 0.212614
0.654416 0.759898 0.324650
0.655347 0.760829 0.435197
0.656270 0.761752 0.544753
0.657186 0.762669 0.653563
0.658098 0.763580 0.761777
0.659005 0.764487 0.869495
0.659890 0.765372 0.974531
0.661489 0.873774 0.106432
0.662459 0.874744 0.221601
0.663403 0.875688 0.333637
0.664334 0.876619 0.444184
0.665256 0.877541 0.553739
0.666173 0.878458 0.662550
0.667084 0.879369 0.770764
0.667992 0.880277 0.878481
0.668876 0.881161 0.983518
0.670101 0.984743 0.115045
0.671071 0.985713 0.230213
0.672015 0.986657 0.342249
0.672946 0.987588 0.452796
0.673869 0.988510 0.562352
0.674785 0.989427 0.671162
0.675697 0.990338 0.779376
0.676604 0.991246 0.887094
0.677489 0.992130 0.992130
0.707059 0.046701 0.044717
0.708029 0.047671 0.159886
0.708973 0.048615 0.271922
0.709904 0.049546 0.382469
0.710827 0.050469 0.492025
0.711743 0.051385 0.600835
0.712654 0.052297 0.709049
0.713562 0.053204 0.816767
0.714446 0.054089 0.921803
0.716660 0.170405 0.054318
0.717630 0.171375 0.169487
0.718573 0.172319 0.281523
0.719505 0.173250 0.392070
0.720427 0.174173 0.501625
0.721344 0.175089 0.610436
0.722255 0.176001 0.718650
0.723162 0.176908 0.826367
0.724047 0.177793 0.931404
0.726005 0.290810 0.063663
0.726975 0.291780 0.178832
0.727918 0.292724 0.290867
0.728849 0.293655 0.401415
0.729772 0.294578 0.510970
0.730688 0.295494 0.619780
0.731600 0.296405 0.727995
0.732507 0.297313 0.835712
0.733392 0.298197 0.940749
0.735226 0.409628 0.072885
0.736196 0.410599 0.188053
0.737140 0.411542 0.300089
0.738071 0.412473 0.410636
0.738994 0.413396 0.520192
0.739910 0.414312 0.629002
0.740822 0.415224 0.737216
0.741729 0.416131 0.844934
0.742613 0.417016 0.949970
0.744365 0.527386 0.082024
0.745335 0.528356 0.197193
0.746279 0.529300 0.309228
0.747210 0.530231 0.419776
0.748133 0.531154 0.529331
0.749049 0.532070 0.638141
0.749961 0.532982 0.746355
0.750868 0.533889 0.854073
0.751753 0.534774 0.959110
0.753443 0.644346 0.091101
0.754413 0.645316 0.206270
0.755356 0.646260 0.318306
0.756288 0.647191 0.428853
0.757210 0.648114 0.538408
0.758127 0.649030 0.647219
0.759038 0.649942 0.755433
0.759945 0.650849 0.863150
0.760830 0.651734 0.968187
0.762471 0.760668 0.100129
0.763441 0.761638 0.215298
0.764384 0.762582 0.327333
0.765315 0.763513 0.437881
0.766238 0.764436 0.547436
0.767155 0.765352 0.656246
0.768066 0.766263 0.764461
0.768973 0.767171 0.872178
0.769858 0.768055 0.977215
0.771457 0.876457 0.109116
0.772427 0.877427 0.224284
0.773371 0.878371 0.336320
0.774302 0.879302 0.446867
0.775225 0.880225 0.556423
0.776141 0.881141 0.665233
0.777053 0.882053 0.773447
0.777960 0.882960 0.881165
0.778844 0.883845 0.986201
0.780070 0.987426 0.117728
0.781040 0.988396 0.232897
0.781983 0.989340 0.344932
0.782914 0.990271 0.455480
0.783837 0.991194 0.565035
0.784754 0.992110 0.673845
0.785665 0.993022 0.782060
0.786572 0.993929 0.889777
0.787457 0.994814 0.994814
0.816525 0.049372 0.047389
0.817495 0.050342 0.162557
0.818439 0.051286 0.274593
0.819370 0.052217 0.385140
0.820293 0.053140 0.494696
0.821209 0.054056 0.603506
0.822121 0.054968 0.711720
0.823028 0.055875 0.819438
0.823913 0.056760 0.924474
0.826126 0.173077 0.056989
0.827096 0.174047 0.172158
0.828040 0.174990 0.284194
0.828971 0.175921 0.394741
0.829894 0.176844 0.504296
0.830810 0.177760 0.613107
0.831721 0.178672 0.721321
0.832629 0.179579 0.829039
0.833513 0.180464 0.934075
0.835471 0.293481 0.066334
0.836441 0.294451 0.181503
0.837384 0.295395 0.293538
0.838316 0.296326 0.404086
0.839238 0.297249 0.513641
0.840155 0.298165 0.622451
0.841066 0.299077 0.730666
0.841973 0.299984 0.838383
0.842858 0.300869 0.943420
0.844692 0.412300 0.075556
0.845662 0.413270 0.190725
0.846606 0.414213 0.302760
0.847537 0.415144 0.413308
0.848460 0.416067 0.522863
0.849376 0.416984 0.631673
0.850288 0.417895 0.739887
0.851195 0.418802 0.847605
0.852080 0.419687 0.952641
0.853832 0.530057 0.084695
0.854802 0.531027 0.199864
0.855745 0.531971 0.311899
0.856676 0.532902 0.422447
0.857599 0.533825 0.532002
0.858516 0.534741 0.640812
0.859427 0.535653 0.749027
0.860334 0.536560 0.856744
0.861219 0.537445 0.961781
0.862909 0.647018 0.093772
0.863879 0.647988 0.208941
0.864823 0.648931 0.320977
0.865754 0.649862 0.431524
0.866677 0.650785 0.541079
0.867593 0.651702 0.649890
0.868504 0.652613 0.758104
0.869412 0.653520 0.865822
0.870296 0.654405 0.970858
0.871937 0.763339 0.102800
0.872907 0.764309 0.217969
0.873851 0.765253 0.330005
0.874782 0.766184 0.440552
0.875704 0.767107 0.550107
0.876621 0.768023 0.658918
0.877532 0.768935 0.767132
0.878440 0.769842 0.874849
0.879324 0.770726 0.979886
0.880923 0.879128 0.111787
0.881893 0.880098 0.226956
0.882837 0.881042 0.338991
0.883768 0.881973 0.449539
0.884691 0.882896 0.559094
0.885607 0.883812 0.667904
0.886519 0.884724 0.776118
0.887426 0.885631 0.883836
0.888311 0.886516 0.988872
0.889536 0.990097 0.120399
0.890506 0.991067 0.235568
0.891449 0.992011 0.347603
0.892381 0.992942 0.458151
0.893303 0.993865 0.567706
0.894220 0.994781 0.676517
0.895131 0.995693 0.784731
0.896038 0.996600 0.892448
0.896923 0.997485 0.997485
0.919602 0.051888 0.049904
0.920572 0.052858 0.165073
0.921516 0.053801 0.277108
0.922447 0.054732 0.387656
0.923370 0.055655 0.497211
0.924286 0.056571 0.606021
0.925198 0.057483 0.714235
0.926105 0.058390 0.821953
0.926989 0.059275 0.926989
0.929203 0.175592 0.059505
0.930173 0.176562 0.174673
0.931117 0.177505 0.286709
0.932048 0.178437 0.397256
0.932970 0.179359 0.506812
0.933887 0.180276 0.615622
0.934798 0.181187 0.723836
0.935706 0.182094 0.831554
0.936590 0.182979 0.936590
0.938548 0.295996 0.068849
0.939518 0.296966 0.184018
0.940461 0.297910 0.296054
0.941392 0.298841 0.406601
0.942315 0.299764 0.516156
0.943232 0.300680 0.624967
0.944143 0.301592 0.733181
0.945050 0.302499 0.840899
0.945935 0.303384 0.945935
0.947769 0.414815 0.078071
0.948739 0.415785 0.193240
0.949683 0.416728 0.305275
0.950614 0.417660 0.415823
0.951537 0.418582 0.525378
0.952453 0.419499 0.634188
0.953365 0.420410 0.742403
0.954272 0.421317 0.850120
0.955157 0.422202 0.955157
0.956909 0.532573 0.087210
0.957879 0.533543 0.202379
0.958822 0.534486 0.314415
0.959753 0.535417 0.424962
0.960676 0.536340 0.534517
0.961592 0.537257 0.643328
0.962504 0.538168 0.751542
0.963411 0.539075 0.859259
0.964296 0.539960 0.964296
0.965986 0.649533 0.096288
0.966956 0.650503 0.211456
0.967900 0.651446 0.323492
0.968831 0.652378 0.434039
0.969753 0.653300 0.543595
0.970670 0.654217 0.652405
0.971581 0.655128 0.760619
0.972489 0.656035 0.868337
0.973373 0.656920 0.973373
0.975014 0.765854 0.105315
0.975984 0.766824 0.220484
0.976927 0.767768 0.332520
0.977859 0.768699 0.443067
0.978781 0.769622 0.552622
0.979698 0.770538 0.661433
0.980609 0.771450 0.769647
0.981516 0.772357 0.877365
0.982401 0.773242 0.982401
0.984000 0.881644 0.114302
0.984970 0.882614 0.229471
0.985914 0.883557 0.341506
0.986845 0.884488 0.452054
0.987768 0.885411 0.561609
0.988684 0.886328 0.670419
0.989596 0.887239 0.778634
0.990503 0.888146 0.886351
0.991388 0.889031 0.991388
0.992613 0.992613 0.122914
0.993583 0.993583 0.238083
0.994526 0.994526 0.350119
0.995457 0.995457 0.460666
0.996380 0.996380 0.570221
0.997297 0.997297 0.679032
0.998208 0.998208 0.787246
0.999115 0.999115 0.894964
1.000000 1.000000 1.000000
