skills/appstore-swiss-grid/assets/grade/luts/soft_pastel_v11.cube
TITLE "soft_pastel_v11"
LUT_3D_SIZE 5
DOMAIN_MIN 0.0 0.0 0.0
DOMAIN_MAX 1.0 1.0 1.0
0.056466 0.051771 0.047055
0.059039 0.054344 0.262924
0.061507 0.056812 0.469951
0.063926 0.059231 0.672944
0.066314 0.061619 0.873278
0.081912 0.290162 0.072500
0.084484 0.292735 0.288369
0.086952 0.295202 0.495397
0.089372 0.297622 0.698389
0.091759 0.300010 0.898723
0.106342 0.519043 0.096930
0.108915 0.521616 0.312800
0.111382 0.524084 0.519827
0.113802 0.526503 0.722820
0.116190 0.528891 0.923154
0.130301 0.743510 0.120890
0.132874 0.746083 0.336759
0.135342 0.748551 0.543786
0.137761 0.750970 0.746779
0.140149 0.753358 0.947113
0.153563 0.961445 0.144152
0.156136 0.964018 0.360021
0.158604 0.966485 0.567048
0.161023 0.968905 0.770041
0.163411 0.971293 0.970375
0.276631 0.059323 0.054607
0.279204 0.061896 0.270476
0.281671 0.064364 0.477503
0.284091 0.066783 0.680496
0.286479 0.069171 0.880830
0.302076 0.297714 0.080052
0.304649 0.300287 0.295921
0.307117 0.302754 0.502949
0.309536 0.305174 0.705941
0.311924 0.307562 0.906276
0.326507 0.526595 0.104483
0.329080 0.529168 0.320352
0.331547 0.531636 0.527379
0.333967 0.534055 0.730372
0.336354 0.536443 0.930706
0.350466 0.751062 0.128442
0.353039 0.753635 0.344311
0.355506 0.756103 0.551338
0.357926 0.758522 0.754331
0.360314 0.760910 0.954665
0.373728 0.968997 0.151704
0.376301 0.971570 0.367573
0.378768 0.974037 0.574600
0.381188 0.976457 0.777593
0.383576 0.978845 0.977927
0.488233 0.066582 0.061865
0.490806 0.069154 0.277734
0.493273 0.071622 0.484762
0.495693 0.074042 0.687754
0.498081 0.076429 0.888088
0.513678 0.304972 0.087311
0.516251 0.307545 0.303180
0.518719 0.310013 0.510207
0.521138 0.312432 0.713200
0.523526 0.314820 0.913534
0.538109 0.533854 0.111741
0.540682 0.536427 0.327610
0.543149 0.538894 0.534637
0.545569 0.541314 0.737630
0.547957 0.543702 0.937964
0.562068 0.758321 0.135700
0.564641 0.760894 0.351569
0.567109 0.763361 0.558597
0.569528 0.765781 0.761589
0.571916 0.768169 0.961924
0.585330 0.976255 0.158962
0.587903 0.978828 0.374831
0.590371 0.981296 0.581859
0.592790 0.983715 0.784851
0.595178 0.986103 0.985186
0.695796 0.073701 0.068985
0.698369 0.076274 0.284854
0.700836 0.078742 0.491881
0.703256 0.081161 0.694874
0.705643 0.083549 0.895208
0.721241 0.312092 0.094430
0.723814 0.314665 0.310300
0.726282 0.317133 0.517327
0.728701 0.319552 0.720320
0.731089 0.321940 0.920654
0.745671 0.540973 0.118861
0.748244 0.543546 0.334730
0.750712 0.546014 0.541757
0.753131 0.548434 0.744750
0.755519 0.550821 0.945084
0.769631 0.765441 0.142820
0.772204 0.768014 0.358689
0.774671 0.770481 0.565716
0.777091 0.772901 0.768709
0.779479 0.775288 0.969043
0.792893 0.983375 0.166082
0.795466 0.985948 0.381951
0.797933 0.988416 0.588978
0.800353 0.990835 0.791971
0.802741 0.993223 0.992305
0.893044 0.080467 0.075751
0.895617 0.083040 0.291620
0.898085 0.085508 0.498647
0.900504 0.087927 0.701640
0.902892 0.090315 0.901974
0.918489 0.318858 0.101196
0.921062 0.321431 0.317066
0.923530 0.323899 0.524093
0.925949 0.326318 0.727086
0.928337 0.328706 0.927420
0.942920 0.547739 0.125627
0.945493 0.550312 0.341496
0.947960 0.552780 0.548523
0.950380 0.555200 0.751516
0.952768 0.557587 0.951850
0.966879 0.772207 0.149586
0.969452 0.774780 0.365455
0.971920 0.777247 0.572482
0.974339 0.779667 0.775475
0.976727 0.782054 0.975809
0.990141 0.990141 0.172848
0.992714 0.992714 0.388717
0.995182 0.995182 0.595744
0.997601 0.997601 0.798737
0.999989 0.999989 0.999071
