skills/appstore-swiss-grid/assets/grade/luts/soft_pastel_v05.cube
TITLE "soft_pastel_v05"
LUT_3D_SIZE 17
DOMAIN_MIN 0.0 0.0 0.0
DOMAIN_MAX 1.0 1.0 1.0
0.032213 0.030234 0.028250
0.032704 0.030724 0.086477
0.033183 0.031204 0.143419
0.033657 0.031678 0.199674
0.034127 0.032148 0.255455
0.034594 0.032614 0.310874
0.035058 0.033079 0.366002
0.035520 0.033541 0.420885
0.035981 0.034001 0.475557
0.036440 0.034460 0.530045
0.036897 0.034918 0.584368
0.037354 0.035374 0.638542
0.037809 0.035829 0.692582
0.038263 0.036283 0.746498
0.038716 0.036737 0.800299
0.039168 0.037189 0.853995
0.039601 0.037621 0.905336
0.037066 0.092756 0.033103
0.037556 0.093246 0.091329
0.038036 0.093726 0.148271
0.038510 0.094200 0.204526
0.038979 0.094670 0.260307
0.039446 0.095136 0.315727
0.039911 0.095601 0.370854
0.040373 0.096063 0.425737
0.040833 0.096523 0.480410
0.041292 0.096982 0.534897
0.041750 0.097440 0.589220
0.042206 0.097896 0.643395
0.042661 0.098351 0.697434
0.043115 0.098805 0.751350
0.043568 0.099259 0.805152
0.044021 0.099711 0.858847
0.044453 0.100143 0.910188
0.041814 0.153938 0.037851
0.042305 0.154429 0.096078
0.042784 0.154908 0.153020
0.043258 0.155382 0.209274
0.043728 0.155852 0.265055
0.044195 0.156319 0.320475
0.044659 0.156783 0.375603
0.045121 0.157245 0.430486
0.045582 0.157706 0.485158
0.046041 0.158165 0.539646
0.046498 0.158622 0.593968
0.046954 0.159078 0.648143
0.047410 0.159534 0.702183
0.047864 0.159988 0.756099
0.048317 0.160441 0.809900
0.048769 0.160893 0.863596
0.049202 0.161326 0.914937
0.046506 0.214392 0.042543
0.046997 0.214883 0.100770
0.047476 0.215362 0.157712
0.047950 0.215836 0.213966
0.048420 0.216306 0.269747
0.048887 0.216773 0.325167
0.049351 0.217237 0.380295
0.049813 0.217699 0.435178
0.050274 0.218160 0.489850
0.050733 0.218619 0.544337
0.051190 0.219076 0.598660
0.051646 0.219533 0.652835
0.052102 0.219988 0.706875
0.052556 0.220442 0.760790
0.053009 0.220895 0.814592
0.053461 0.221347 0.868288
0.053893 0.221780 0.919629
0.051159 0.274343 0.047196
0.051649 0.274833 0.105422
0.052129 0.275313 0.162365
0.052603 0.275787 0.218619
0.053073 0.276257 0.274400
0.053539 0.276723 0.329820
0.054004 0.277188 0.384948
0.054466 0.277650 0.439831
0.054926 0.278110 0.494503
0.055385 0.278569 0.548990
0.055843 0.279027 0.603313
0.056299 0.279483 0.657488
0.056754 0.279938 0.711527
0.057208 0.280392 0.765443
0.057662 0.280845 0.819245
0.058114 0.281298 0.872941
0.058546 0.281730 0.924281
0.055782 0.333908 0.051819
0.056272 0.334398 0.110045
0.056752 0.334878 0.166987
0.057226 0.335352 0.223242
0.057695 0.335822 0.279023
0.058162 0.336288 0.334443
0.058627 0.336753 0.389570
0.059089 0.337215 0.444453
0.059549 0.337675 0.499126
0.060008 0.338134 0.553613
0.060466 0.338592 0.607936
0.060922 0.339048 0.662111
0.061377 0.339503 0.716150
0.061831 0.339957 0.770066
0.062284 0.340411 0.823868
0.062737 0.340863 0.877563
0.063169 0.341295 0.928904
0.060381 0.393161 0.056417
0.060871 0.393652 0.114644
0.061351 0.394131 0.171586
0.061824 0.394605 0.227841
0.062294 0.395075 0.283622
0.062761 0.395542 0.339041
0.063225 0.396006 0.394169
0.063688 0.396468 0.449052
0.064148 0.396929 0.503724
0.064607 0.397388 0.558212
0.065064 0.397845 0.612535
0.065521 0.398302 0.666709
0.065976 0.398757 0.720749
0.066430 0.399211 0.774665
0.066883 0.399664 0.828467
0.067335 0.400116 0.882162
0.067768 0.400549 0.933503
0.064959 0.452153 0.060996
0.065449 0.452643 0.119222
0.065929 0.453123 0.176165
0.066403 0.453597 0.232419
0.066873 0.454066 0.288200
0.067339 0.454533 0.343620
0.067804 0.454998 0.398748
0.068266 0.455460 0.453631
0.068726 0.455920 0.508303
0.069185 0.456379 0.562790
0.069643 0.456837 0.617113
0.070099 0.457293 0.671288
0.070554 0.457748 0.725327
0.071008 0.458202 0.779243
0.071462 0.458655 0.833045
0.071914 0.459108 0.886741
0.072346 0.459540 0.938081
0.069520 0.510919 0.065557
0.070010 0.511409 0.123783
0.070490 0.511889 0.180725
0.070964 0.512363 0.236980
0.071433 0.512833 0.292761
0.071900 0.513299 0.348181
0.072365 0.513764 0.403308
0.072827 0.514226 0.458191
0.073287 0.514686 0.512864
0.073746 0.515145 0.567351
0.074204 0.515603 0.621674
0.074660 0.516059 0.675849
0.075115 0.516514 0.729888
0.075569 0.516968 0.783804
0.076022 0.517422 0.837606
0.076475 0.517874 0.891301
0.076907 0.518306 0.942642
0.074065 0.569487 0.070102
0.074556 0.569978 0.128329
0.075035 0.570457 0.185271
0.075509 0.570931 0.241526
0.075979 0.571401 0.297307
0.076446 0.571868 0.352726
0.076910 0.572332 0.407854
0.077372 0.572794 0.462737
0.077833 0.573255 0.517409
0.078292 0.573714 0.571897
0.078749 0.574171 0.626220
0.079206 0.574627 0.680394
0.079661 0.575083 0.734434
0.080115 0.575537 0.788350
0.080568 0.575990 0.842151
0.081020 0.576442 0.895847
0.081453 0.576875 0.947188
0.078597 0.627879 0.074634
0.079088 0.628370 0.132861
0.079567 0.628849 0.189803
0.080041 0.629323 0.246057
0.080511 0.629793 0.301838
0.080978 0.630260 0.357258
0.081442 0.630724 0.412386
0.081904 0.631186 0.467269
0.082365 0.631647 0.521941
0.082824 0.632106 0.576429
0.083281 0.632563 0.630751
0.083737 0.633019 0.684926
0.084193 0.633475 0.738966
0.084647 0.633929 0.792882
0.085100 0.634382 0.846683
0.085552 0.634834 0.900379
0.085985 0.635267 0.951720
0.083117 0.686112 0.079154
0.083607 0.686603 0.137380
0.084087 0.687082 0.194322
0.084561 0.687556 0.250577
0.085030 0.688026 0.306358
0.085497 0.688493 0.361778
0.085961 0.688957 0.416905
0.086424 0.689419 0.471788
0.086884 0.689880 0.526461
0.087343 0.690339 0.580948
0.087801 0.690796 0.635271
0.088257 0.691253 0.689446
0.088712 0.691708 0.743485
0.089166 0.692162 0.797401
0.089619 0.692615 0.851203
0.090072 0.693067 0.904898
0.090504 0.693500 0.956239
0.087625 0.744201 0.083662
0.088115 0.744691 0.141889
0.088595 0.745171 0.198831
0.089069 0.745645 0.255085
0.089539 0.746114 0.310866
0.090005 0.746581 0.366286
0.090470 0.747046 0.421414
0.090932 0.747508 0.476297
0.091393 0.747968 0.530969
0.091851 0.748427 0.585456
0.092309 0.748885 0.639779
0.092765 0.749341 0.693954
0.093220 0.749796 0.747993
0.093675 0.750250 0.801909
0.094128 0.750703 0.855711
0.094580 0.751156 0.909407
0.095012 0.751588 0.960748
0.092123 0.802157 0.088160
0.092613 0.802647 0.146387
0.093093 0.803127 0.203329
0.093567 0.803601 0.259583
0.094037 0.804070 0.315364
0.094503 0.804537 0.370784
0.094968 0.805001 0.425912
0.095430 0.805464 0.480795
0.095891 0.805924 0.535467
0.096349 0.806383 0.589954
0.096807 0.806841 0.644277
0.097263 0.807297 0.698452
0.097718 0.807752 0.752491
0.098173 0.808206 0.806407
0.098626 0.808659 0.860209
0.099078 0.809112 0.913905
0.099510 0.809544 0.965246
0.096612 0.859990 0.092648
0.097102 0.860480 0.150875
0.097582 0.860960 0.207817
0.098055 0.861434 0.264072
0.098525 0.861904 0.319853
0.098992 0.862370 0.375272
0.099456 0.862835 0.430400
0.099919 0.863297 0.485283
0.100379 0.863758 0.539955
0.100838 0.864216 0.594443
0.101295 0.864674 0.648766
0.101752 0.865130 0.702940
0.102207 0.865585 0.756980
0.102661 0.866040 0.810896
0.103114 0.866493 0.864698
0.103566 0.866945 0.918393
0.103999 0.867377 0.969734
0.101091 0.917710 0.097128
0.101582 0.918200 0.155355
0.102061 0.918680 0.212297
0.102535 0.919153 0.268551
0.103005 0.919623 0.324332
0.103472 0.920090 0.379752
0.103936 0.920554 0.434880
0.104398 0.921017 0.489763
0.104859 0.921477 0.544435
0.105318 0.921936 0.598923
0.105775 0.922394 0.653245
0.106231 0.922850 0.707420
0.106687 0.923305 0.761460
0.107141 0.923759 0.815376
0.107594 0.924212 0.869177
0.108046 0.924665 0.922873
0.108479 0.925097 0.974214
0.105224 0.970959 0.101261
0.105714 0.971450 0.159487
0.106194 0.971929 0.216430
0.106668 0.972403 0.272684
0.107138 0.972873 0.328465
0.107604 0.973340 0.383885
0.108069 0.973804 0.439013
0.108531 0.974266 0.493896
0.108991 0.974727 0.548568
0.109450 0.975186 0.603055
0.109908 0.975643 0.657378
0.110364 0.976099 0.711553
0.110819 0.976554 0.765592
0.111273 0.977009 0.819508
0.111727 0.977462 0.873310
0.112179 0.977914 0.927006
0.112611 0.978346 0.978346
0.091260 0.031675 0.029691
0.091751 0.032165 0.087918
0.092230 0.032645 0.144860
0.092704 0.033119 0.201114
0.093174 0.033588 0.256895
0.093641 0.034055 0.312315
0.094105 0.034520 0.367443
0.094567 0.034982 0.422326
0.095028 0.035442 0.476998
0.095487 0.035901 0.531486
0.095944 0.036359 0.585808
0.096400 0.036815 0.639983
0.096856 0.037270 0.694023
0.097310 0.037724 0.747939
0.097763 0.038177 0.801740
0.098215 0.038630 0.855436
0.098648 0.039062 0.906777
0.096113 0.094197 0.034543
0.096603 0.094687 0.092770
0.097083 0.095167 0.149712
0.097556 0.095641 0.205967
0.098026 0.096110 0.261748
0.098493 0.096577 0.317167
0.098957 0.097042 0.372295
0.099420 0.097504 0.427178
0.099880 0.097964 0.481851
0.100339 0.098423 0.536338
0.100797 0.098881 0.590661
0.101253 0.099337 0.644835
0.101708 0.099792 0.698875
0.102162 0.100246 0.752791
0.102615 0.100699 0.806593
0.103067 0.101152 0.860288
0.103500 0.101584 0.911629
0.100861 0.155379 0.039292
0.101351 0.155869 0.097519
0.101831 0.156349 0.154461
0.102305 0.156823 0.210715
0.102775 0.157293 0.266496
0.103241 0.157759 0.321916
0.103706 0.158224 0.377044
0.104168 0.158686 0.431927
0.104628 0.159147 0.486599
0.105087 0.159605 0.541086
0.105545 0.160063 0.595409
0.106001 0.160519 0.649584
0.106456 0.160974 0.703623
0.106910 0.161429 0.757539
0.107364 0.161882 0.811341
0.107816 0.162334 0.865037
0.108248 0.162766 0.916378
0.105553 0.215833 0.043984
0.106043 0.216324 0.102210
0.106523 0.216803 0.159153
0.106997 0.217277 0.215407
0.107467 0.217747 0.271188
0.107933 0.218214 0.326608
0.108398 0.218678 0.381736
0.108860 0.219140 0.436619
0.109320 0.219601 0.491291
0.109779 0.220060 0.545778
0.110237 0.220517 0.600101
0.110693 0.220973 0.654276
0.111148 0.221429 0.708315
0.111602 0.221883 0.762231
0.112056 0.222336 0.816033
0.112508 0.222788 0.869729
0.112940 0.223221 0.921069
0.110206 0.275784 0.048637
0.110696 0.276274 0.106863
0.111176 0.276754 0.163805
0.111650 0.277228 0.220060
0.112119 0.277697 0.275841
0.112586 0.278164 0.331261
0.113050 0.278628 0.386388
0.113513 0.279091 0.441271
0.113973 0.279551 0.495944
0.114432 0.280010 0.550431
0.114890 0.280468 0.604754
0.115346 0.280924 0.658929
0.115801 0.281379 0.712968
0.116255 0.281833 0.766884
0.116708 0.282286 0.820686
0.117161 0.282739 0.874381
0.117593 0.283171 0.925722
0.114829 0.335349 0.053260
0.115319 0.335839 0.111486
0.115799 0.336319 0.168428
0.116272 0.336793 0.224683
0.116742 0.337262 0.280464
0.117209 0.337729 0.335884
0.117673 0.338194 0.391011
0.118136 0.338656 0.445894
0.118596 0.339116 0.500567
0.119055 0.339575 0.555054
0.119513 0.340033 0.609377
0.119969 0.340489 0.663551
0.120424 0.340944 0.717591
0.120878 0.341398 0.771507
0.121331 0.341851 0.825309
0.121783 0.342304 0.879004
0.122216 0.342736 0.930345
0.119427 0.394602 0.057858
0.119918 0.395093 0.116085
0.120397 0.395572 0.173027
0.120871 0.396046 0.229282
0.121341 0.396516 0.285063
0.121808 0.396983 0.340482
0.122272 0.397447 0.395610
0.122734 0.397909 0.450493
0.123195 0.398370 0.505165
0.123654 0.398829 0.559653
0.124111 0.399286 0.613976
0.124568 0.399742 0.668150
0.125023 0.400197 0.722190
0.125477 0.400652 0.776106
0.125930 0.401105 0.829907
0.126382 0.401557 0.883603
0.126815 0.401989 0.934944
0.124006 0.453594 0.062437
0.124496 0.454084 0.120663
0.124976 0.454564 0.177605
0.125450 0.455037 0.233860
0.125919 0.455507 0.289641
0.126386 0.455974 0.345061
0.126850 0.456438 0.400188
0.127313 0.456901 0.455071
0.127773 0.457361 0.509744
0.128232 0.457820 0.564231
0.128690 0.458278 0.618554
0.129146 0.458734 0.672729
0.129601 0.459189 0.726768
0.130055 0.459643 0.780684
0.130508 0.460096 0.834486
0.130961 0.460549 0.888181
0.131393 0.460981 0.939522
0.128567 0.512360 0.066997
0.129057 0.512850 0.125224
0.129537 0.513330 0.182166
0.130010 0.513804 0.238421
0.130480 0.514273 0.294202
0.130947 0.514740 0.349622
0.131411 0.515205 0.404749
0.131874 0.515667 0.459632
0.132334 0.516127 0.514305
0.132793 0.516586 0.568792
0.133251 0.517044 0.623115
0.133707 0.517500 0.677289
0.134162 0.517955 0.731329
0.134616 0.518409 0.785245
0.135069 0.518862 0.839047
0.135521 0.519315 0.892742
0.135954 0.519747 0.944083
0.133112 0.570928 0.071543
0.133603 0.571419 0.129770
0.134082 0.571898 0.186712
0.134556 0.572372 0.242966
0.135026 0.572842 0.298747
0.135493 0.573309 0.354167
0.135957 0.573773 0.409295
0.136419 0.574235 0.464178
0.136880 0.574696 0.518850
0.137339 0.575154 0.573338
0.137796 0.575612 0.627660
0.138252 0.576068 0.681835
0.138708 0.576523 0.735875
0.139162 0.576978 0.789791
0.139615 0.577431 0.843592
0.140067 0.577883 0.897288
0.140499 0.578315 0.948629
0.137644 0.629320 0.076075
0.138134 0.629810 0.134302
0.138614 0.630290 0.191244
0.139088 0.630764 0.247498
0.139558 0.631234 0.303279
0.140024 0.631701 0.358699
0.140489 0.632165 0.413827
0.140951 0.632627 0.468710
0.141411 0.633088 0.523382
0.141870 0.633546 0.577869
0.142328 0.634004 0.632192
0.142784 0.634460 0.686367
0.143239 0.634915 0.740406
0.143693 0.635370 0.794322
0.144147 0.635823 0.848124
0.144599 0.636275 0.901820
0.145031 0.636707 0.953161
0.142163 0.687553 0.080594
0.142654 0.688044 0.138821
0.143134 0.688523 0.195763
0.143607 0.688997 0.252018
0.144077 0.689467 0.307799
0.144544 0.689934 0.363218
0.145008 0.690398 0.418346
0.145470 0.690860 0.473229
0.145931 0.691321 0.527901
0.146390 0.691780 0.582389
0.146847 0.692237 0.636712
0.147304 0.692693 0.690886
0.147759 0.693149 0.744926
0.148213 0.693603 0.798842
0.148666 0.694056 0.852644
0.149118 0.694508 0.906339
0.149551 0.694940 0.957680
0.146672 0.745642 0.085103
0.147162 0.746132 0.143329
0.147642 0.746612 0.200272
0.148116 0.747085 0.256526
0.148585 0.747555 0.312307
0.149052 0.748022 0.367727
0.149517 0.748486 0.422854
0.149979 0.748949 0.477737
0.150439 0.749409 0.532410
0.150898 0.749868 0.586897
0.151356 0.750326 0.641220
0.151812 0.750782 0.695395
0.152267 0.751237 0.749434
0.152721 0.751691 0.803350
0.153174 0.752144 0.857152
0.153627 0.752597 0.910847
0.154059 0.753029 0.962188
0.151170 0.803598 0.089601
0.151660 0.804088 0.147827
0.152140 0.804568 0.204770
0.152614 0.805041 0.261024
0.153083 0.805511 0.316805
0.153550 0.805978 0.372225
0.154015 0.806442 0.427352
0.154477 0.806905 0.482235
0.154937 0.807365 0.536908
0.155396 0.807824 0.591395
0.155854 0.808281 0.645718
0.156310 0.808738 0.699893
0.156765 0.809193 0.753932
0.157219 0.809647 0.807848
0.157672 0.810100 0.861650
0.158125 0.810552 0.915345
0.158557 0.810985 0.966686
0.155658 0.861431 0.094089
0.156149 0.861921 0.152316
0.156628 0.862401 0.209258
0.157102 0.862875 0.265513
0.157572 0.863345 0.321294
0.158039 0.863811 0.376713
0.158503 0.864276 0.431841
0.158965 0.864738 0.486724
0.159426 0.865198 0.541396
0.159885 0.865657 0.595884
0.160342 0.866115 0.650207
0.160799 0.866571 0.704381
0.161254 0.867026 0.758421
0.161708 0.867480 0.812337
0.162161 0.867934 0.866138
0.162613 0.868386 0.919834
0.163046 0.868818 0.971175
0.160138 0.919150 0.098569
0.160628 0.919641 0.156796
0.161108 0.920121 0.213738
0.161582 0.920594 0.269992
0.162052 0.921064 0.325773
0.162518 0.921531 0.381193
0.162983 0.921995 0.436321
0.163445 0.922457 0.491204
0.163905 0.922918 0.545876
0.164364 0.923377 0.600363
0.164822 0.923834 0.654686
0.165278 0.924291 0.708861
0.165733 0.924746 0.762900
0.166187 0.925200 0.816816
0.166641 0.925653 0.870618
0.167093 0.926105 0.924314
0.167525 0.926538 0.975655
0.164271 0.972400 0.102702
0.164761 0.972890 0.160928
0.165241 0.973370 0.217870
0.165715 0.973844 0.274125
0.166184 0.974314 0.329906
0.166651 0.974780 0.385326
0.167115 0.975245 0.440453
0.167578 0.975707 0.495336
0.168038 0.976167 0.550009
0.168497 0.976626 0.604496
0.168955 0.977084 0.658819
0.169411 0.977540 0.712994
0.169866 0.977995 0.767033
0.170320 0.978449 0.820949
0.170773 0.978903 0.874751
0.171226 0.979355 0.928446
0.171658 0.979787 0.979787
0.149077 0.033086 0.031102
0.149567 0.033576 0.089329
0.150047 0.034056 0.146271
0.150520 0.034529 0.202525
0.150990 0.034999 0.258306
0.151457 0.035466 0.313726
0.151921 0.035930 0.368854
0.152384 0.036393 0.423737
0.152844 0.036853 0.478409
0.153303 0.037312 0.532896
0.153761 0.037770 0.587219
0.154217 0.038226 0.641394
0.154672 0.038681 0.695433
0.155126 0.039135 0.749349
0.155579 0.039588 0.803151
0.156032 0.040041 0.856847
0.156464 0.040473 0.908188
0.153929 0.095608 0.035954
0.154419 0.096098 0.094181
0.154899 0.096578 0.151123
0.155373 0.097051 0.207378
0.155843 0.097521 0.263159
0.156309 0.097988 0.318578
0.156774 0.098452 0.373706
0.157236 0.098915 0.428589
0.157697 0.099375 0.483261
0.158155 0.099834 0.537749
0.158613 0.100292 0.592072
0.159069 0.100748 0.646246
0.159524 0.101203 0.700286
0.159979 0.101657 0.754202
0.160432 0.102110 0.808003
0.160884 0.102562 0.861699
0.161316 0.102995 0.913040
0.158677 0.156790 0.040703
0.159168 0.157280 0.098929
0.159647 0.157760 0.155871
0.160121 0.158234 0.212126
0.160591 0.158703 0.267907
0.161058 0.159170 0.323327
0.161522 0.159635 0.378454
0.161984 0.160097 0.433337
0.162445 0.160557 0.488010
0.162904 0.161016 0.542497
0.163361 0.161474 0.596820
0.163818 0.161930 0.650995
0.164273 0.162385 0.705034
0.164727 0.162839 0.758950
0.165180 0.163292 0.812752
0.165632 0.163745 0.866447
0.166065 0.164177 0.917788
0.163369 0.217244 0.045395
0.163860 0.217734 0.103621
0.164339 0.218214 0.160563
0.164813 0.218688 0.216818
0.165283 0.219158 0.272599
0.165750 0.219624 0.328019
0.166214 0.220089 0.383146
0.166676 0.220551 0.438029
0.167137 0.221012 0.492702
0.167596 0.221470 0.547189
0.168053 0.221928 0.601512
0.168510 0.222384 0.655687
0.168965 0.222839 0.709726
0.169419 0.223294 0.763642
0.169872 0.223747 0.817444
0.170324 0.224199 0.871139
0.170757 0.224631 0.922480
0.168022 0.277194 0.050047
0.168513 0.277685 0.108274
0.168992 0.278165 0.165216
0.169466 0.278638 0.221471
0.169936 0.279108 0.277252
0.170403 0.279575 0.332671
0.170867 0.280039 0.387799
0.171329 0.280501 0.442682
0.171790 0.280962 0.497354
0.172249 0.281421 0.551842
0.172706 0.281878 0.606165
0.173162 0.282335 0.660339
0.173618 0.282790 0.714379
0.174072 0.283244 0.768295
0.174525 0.283697 0.822097
0.174977 0.284149 0.875792
0.175410 0.284582 0.927133
0.172645 0.336760 0.054670
0.173136 0.337250 0.112897
0.173615 0.337730 0.169839
0.174089 0.338203 0.226094
0.174559 0.338673 0.281875
0.175026 0.339140 0.337294
0.175490 0.339604 0.392422
0.175952 0.340067 0.447305
0.176413 0.340527 0.501977
0.176871 0.340986 0.556465
0.177329 0.341444 0.610788
0.177785 0.341900 0.664962
0.178240 0.342355 0.719002
0.178695 0.342809 0.772918
0.179148 0.343262 0.826719
0.179600 0.343715 0.880415
0.180032 0.344147 0.931756
0.177244 0.396013 0.059269
0.177734 0.396503 0.117496
0.178214 0.396983 0.174438
0.178688 0.397457 0.230692
0.179157 0.397927 0.286473
0.179624 0.398393 0.341893
0.180089 0.398858 0.397021
0.180551 0.399320 0.451904
0.181011 0.399780 0.506576
0.181470 0.400239 0.561064
0.181928 0.400697 0.615386
0.182384 0.401153 0.669561
0.182839 0.401608 0.723601
0.183293 0.402062 0.777517
0.183746 0.402516 0.831318
0.184199 0.402968 0.885014
0.184631 0.403400 0.936355
0.181822 0.455004 0.063847
0.182313 0.455495 0.122074
0.182792 0.455974 0.179016
0.183266 0.456448 0.235271
0.183736 0.456918 0.291052
0.184203 0.457385 0.346471
0.184667 0.457849 0.401599
0.185129 0.458311 0.456482
0.185590 0.458772 0.511154
0.186049 0.459231 0.565642
0.186506 0.459688 0.619965
0.186962 0.460145 0.674139
0.187418 0.460600 0.728179
0.187872 0.461054 0.782095
0.188325 0.461507 0.835897
0.188777 0.461959 0.889592
0.189209 0.462392 0.940933
0.186383 0.513771 0.068408
0.186873 0.514261 0.126635
0.187353 0.514741 0.183577
0.187827 0.515214 0.239832
0.188297 0.515684 0.295613
0.188763 0.516151 0.351032
0.189228 0.516615 0.406160
0.189690 0.517078 0.461043
0.190151 0.517538 0.515715
0.190609 0.517997 0.570203
0.191067 0.518455 0.624526
0.191523 0.518911 0.678700
0.191978 0.519366 0.732740
0.192433 0.519820 0.786656
0.192886 0.520273 0.840457
0.193338 0.520726 0.894153
0.193770 0.521158 0.945494
0.190929 0.572339 0.072954
0.191419 0.572829 0.131181
0.191899 0.573309 0.188123
0.192372 0.573783 0.244377
0.192842 0.574253 0.300158
0.193309 0.574719 0.355578
0.193773 0.575184 0.410706
0.194236 0.575646 0.465589
0.194696 0.576106 0.520261
0.195155 0.576565 0.574748
0.195613 0.577023 0.629071
0.196069 0.577479 0.683246
0.196524 0.577934 0.737285
0.196978 0.578388 0.791201
0.197431 0.578842 0.845003
0.197884 0.579294 0.898699
0.198316 0.579726 0.950039
0.195460 0.630731 0.077486
0.195951 0.631221 0.135712
0.196430 0.631701 0.192654
0.196904 0.632175 0.248909
0.197374 0.632645 0.304690
0.197841 0.633111 0.360110
0.198305 0.633576 0.415237
0.198767 0.634038 0.470120
0.199228 0.634498 0.524793
0.199687 0.634957 0.579280
0.200144 0.635415 0.633603
0.200601 0.635871 0.687778
0.201056 0.636326 0.741817
0.201510 0.636780 0.795733
0.201963 0.637234 0.849535
0.202415 0.637686 0.903230
0.202848 0.638118 0.954571
0.199980 0.688964 0.082005
0.200470 0.689454 0.140232
0.200950 0.689934 0.197174
0.201424 0.690408 0.253429
0.201894 0.690878 0.309210
0.202360 0.691344 0.364629
0.202825 0.691809 0.419757
0.203287 0.692271 0.474640
0.203747 0.692731 0.529312
0.204206 0.693190 0.583800
0.204664 0.693648 0.638123
0.205120 0.694104 0.692297
0.205575 0.694559 0.746337
0.206029 0.695013 0.800253
0.206483 0.695467 0.854054
0.206935 0.695919 0.907750
0.207367 0.696351 0.959091
0.204488 0.747052 0.086514
0.204979 0.747543 0.144740
0.205458 0.748022 0.201682
0.205932 0.748496 0.257937
0.206402 0.748966 0.313718
0.206869 0.749433 0.369138
0.207333 0.749897 0.424265
0.207795 0.750359 0.479148
0.208256 0.750820 0.533821
0.208715 0.751279 0.588308
0.209172 0.751736 0.642631
0.209629 0.752193 0.696805
0.210084 0.752648 0.750845
0.210538 0.753102 0.804761
0.210991 0.753555 0.858563
0.211443 0.754007 0.912258
0.211876 0.754440 0.963599
0.208986 0.805008 0.091012
0.209477 0.805499 0.149238
0.209956 0.805978 0.206180
0.210430 0.806452 0.262435
0.210900 0.806922 0.318216
0.211367 0.807389 0.373636
0.211831 0.807853 0.428763
0.212293 0.808315 0.483646
0.212754 0.808776 0.538319
0.213213 0.809235 0.592806
0.213670 0.809692 0.647129
0.214127 0.810149 0.701303
0.214582 0.810604 0.755343
0.215036 0.811058 0.809259
0.215489 0.811511 0.863061
0.215941 0.811963 0.916756
0.216374 0.812396 0.968097
0.213475 0.862842 0.095500
0.213965 0.863332 0.153727
0.214445 0.863812 0.210669
0.214919 0.864286 0.266923
0.215388 0.864755 0.322704
0.215855 0.865222 0.378124
0.216320 0.865686 0.433252
0.216782 0.866149 0.488135
0.217242 0.866609 0.542807
0.217701 0.867068 0.597295
0.218159 0.867526 0.651617
0.218615 0.867982 0.705792
0.219070 0.868437 0.759832
0.219524 0.868891 0.813748
0.219977 0.869344 0.867549
0.220430 0.869797 0.921245
0.220862 0.870229 0.972586
0.217954 0.920561 0.099980
0.218445 0.921052 0.158206
0.218924 0.921531 0.215148
0.219398 0.922005 0.271403
0.219868 0.922475 0.327184
0.220335 0.922942 0.382604
0.220799 0.923406 0.437731
0.221261 0.923868 0.492614
0.221722 0.924329 0.547287
0.222181 0.924788 0.601774
0.222638 0.925245 0.656097
0.223095 0.925702 0.710272
0.223550 0.926157 0.764311
0.224004 0.926611 0.818227
0.224457 0.927064 0.872029
0.224909 0.927516 0.925724
0.225342 0.927949 0.977065
0.222087 0.973811 0.104112
0.222578 0.974301 0.162339
0.223057 0.974781 0.219281
0.223531 0.975255 0.275536
0.224001 0.975724 0.331317
0.224468 0.976191 0.386736
0.224932 0.976655 0.441864
0.225394 0.977118 0.496747
0.225855 0.977578 0.551419
0.226314 0.978037 0.605907
0.226771 0.978495 0.660230
0.227227 0.978951 0.714404
0.227683 0.979406 0.768444
0.228137 0.979860 0.822360
0.228590 0.980313 0.876162
0.229042 0.980766 0.929857
0.229475 0.981198 0.981198
0.206215 0.034480 0.032496
0.206705 0.034970 0.090723
0.207185 0.035450 0.147665
0.207659 0.035924 0.203919
0.208129 0.036394 0.259700
0.208595 0.036860 0.315120
0.209060 0.037325 0.370248
0.209522 0.037787 0.425131
0.209983 0.038247 0.479803
0.210441 0.038706 0.534291
0.210899 0.039164 0.588614
0.211355 0.039620 0.642788
0.211810 0.040075 0.696828
0.212265 0.040529 0.750744
0.212718 0.040983 0.804545
0.213170 0.041435 0.858241
0.213602 0.041867 0.909582
0.211067 0.097002 0.037349
