skills/appstore-swiss-grid/assets/grade/luts/soft_pastel_v11.cube
TITLE "soft_pastel_v11"
LUT_3D_SIZE 17
DOMAIN_MIN 0.0 0.0 0.0
DOMAIN_MAX 1.0 1.0 1.0
0.056466 0.051771 0.047055
0.057129 0.052434 0.102676
0.057775 0.053080 0.156856
0.058410 0.053715 0.210190
0.059039 0.054344 0.262924
0.059662 0.054967 0.315193
0.060281 0.055586 0.367084
0.060895 0.056200 0.418656
0.061507 0.056812 0.469951
0.062115 0.057420 0.521004
0.062721 0.058026 0.571840
0.063325 0.058630 0.622481
0.063926 0.059231 0.672944
0.064526 0.059831 0.723243
0.065123 0.060428 0.773392
0.065719 0.061024 0.823400
0.066314 0.061619 0.873278
0.063013 0.113110 0.053602
0.063676 0.113773 0.109223
0.064322 0.114419 0.163403
0.064958 0.115055 0.216737
0.065586 0.115683 0.269471
0.066209 0.116306 0.321741
0.066828 0.116925 0.373631
0.067442 0.117540 0.425203
0.068054 0.118151 0.476498
0.068662 0.118760 0.527551
0.069268 0.119365 0.578387
0.069872 0.119969 0.629028
0.070473 0.120571 0.679491
0.071073 0.121170 0.729791
0.071671 0.121768 0.779939
0.072267 0.122364 0.829948
0.072861 0.122958 0.879825
0.069400 0.172946 0.059989
0.070063 0.173609 0.115610
0.070709 0.174255 0.169790
0.071345 0.174891 0.223124
0.071973 0.175519 0.275858
0.072596 0.176142 0.328127
0.073215 0.176761 0.380018
0.073829 0.177376 0.431590
0.074441 0.177987 0.482885
0.075049 0.178595 0.533938
0.075655 0.179201 0.584774
0.076259 0.179805 0.635415
0.076860 0.180406 0.685878
0.077460 0.181006 0.736177
0.078057 0.181604 0.786326
0.078653 0.182200 0.836335
0.079248 0.182794 0.886212
0.075690 0.231878 0.066279
0.076353 0.232541 0.121900
0.076999 0.233187 0.176080
0.077635 0.233822 0.229414
0.078263 0.234451 0.282148
0.078886 0.235074 0.334418
0.079505 0.235693 0.386308
0.080120 0.236307 0.437880
0.080731 0.236919 0.489175
0.081339 0.237527 0.540228
0.081945 0.238133 0.591064
0.082549 0.238737 0.641705
0.083150 0.239338 0.692168
0.083750 0.239938 0.742468
0.084348 0.240535 0.792616
0.084944 0.241131 0.842625
0.085538 0.241726 0.892502
0.081912 0.290162 0.072500
0.082574 0.290825 0.128121
0.083220 0.291471 0.182301
0.083856 0.292106 0.235635
0.084484 0.292735 0.288369
0.085107 0.293358 0.340639
0.085726 0.293976 0.392530
0.086341 0.294591 0.444101
0.086952 0.295202 0.495397
0.087561 0.295811 0.546449
0.088166 0.296417 0.597286
0.088770 0.297020 0.647926
0.089372 0.297622 0.698389
0.089971 0.298221 0.748689
0.090569 0.298819 0.798838
0.091165 0.299415 0.848846
0.091759 0.300010 0.898723
0.088079 0.347941 0.078667
0.088742 0.348604 0.134289
0.089388 0.349250 0.188468
0.090023 0.349886 0.241803
0.090652 0.350514 0.294537
0.091275 0.351137 0.346806
0.091893 0.351756 0.398697
0.092508 0.352370 0.450268
0.093119 0.352982 0.501564
0.093728 0.353590 0.552617
0.094334 0.354196 0.603453
0.094937 0.354800 0.654094
0.095539 0.355401 0.704557
0.096138 0.356001 0.754856
0.096736 0.356599 0.805005
0.097332 0.357195 0.855013
0.097927 0.357789 0.904891
0.094202 0.405308 0.084791
0.094865 0.405971 0.140412
0.095511 0.406617 0.194592
0.096146 0.407253 0.247926
0.096775 0.407881 0.300660
0.097398 0.408504 0.352929
0.098017 0.409123 0.404820
0.098631 0.409737 0.456392
0.099243 0.410349 0.507687
0.099851 0.410957 0.558740
0.100457 0.411563 0.609576
0.101061 0.412167 0.660217
0.101662 0.412768 0.710680
0.102262 0.413368 0.760979
0.102859 0.413966 0.811128
0.103455 0.414562 0.861136
0.104050 0.415156 0.911014
0.100288 0.462327 0.090877
0.100951 0.462990 0.146498
0.101597 0.463635 0.200678
0.102233 0.464271 0.254012
0.102861 0.464900 0.306746
0.103484 0.465523 0.359015
0.104103 0.466141 0.410906
0.104717 0.466756 0.462478
0.105329 0.467367 0.513773
0.105937 0.467976 0.564826
0.106543 0.468582 0.615662
0.107147 0.469185 0.666303
0.107748 0.469787 0.716766
0.108348 0.470386 0.767065
0.108945 0.470984 0.817214
0.109541 0.471580 0.867223
0.110136 0.472174 0.917100
0.106342 0.519043 0.096930
0.107005 0.519706 0.152552
0.107651 0.520352 0.206731
0.108286 0.520988 0.260066
0.108915 0.521616 0.312800
0.109538 0.522239 0.365069
0.110156 0.522858 0.416960
0.110771 0.523472 0.468531
0.111382 0.524084 0.519827
0.111991 0.524692 0.570880
0.112597 0.525298 0.621716
0.113201 0.525902 0.672357
0.113802 0.526503 0.722820
0.114402 0.527103 0.773119
0.114999 0.527701 0.823268
0.115595 0.528297 0.873276
0.116190 0.528891 0.923154
0.112367 0.575494 0.102956
0.113030 0.576157 0.158577
0.113676 0.576803 0.212757
0.114312 0.577438 0.266091
0.114940 0.578067 0.318825
0.115563 0.578690 0.371095
0.116182 0.579309 0.422986
0.116797 0.579923 0.474557
0.117408 0.580535 0.525852
0.118016 0.581143 0.576905
0.118622 0.581749 0.627742
0.119226 0.582353 0.678382
0.119827 0.582954 0.728845
0.120427 0.583554 0.779145
0.121025 0.584151 0.829293
0.121621 0.584747 0.879302
0.122215 0.585342 0.929179
0.118368 0.631708 0.108956
0.119030 0.632370 0.164577
0.119676 0.633016 0.218757
0.120312 0.633652 0.272091
0.120941 0.634280 0.324825
0.121564 0.634903 0.377095
0.122182 0.635522 0.428986
0.122797 0.636137 0.480557
0.123408 0.636748 0.531853
0.124017 0.637357 0.582905
0.124623 0.637962 0.633742
0.125226 0.638566 0.684382
0.125828 0.639168 0.734845
0.126427 0.639767 0.785145
0.127025 0.640365 0.835294
0.127621 0.640961 0.885302
0.128215 0.641555 0.935180
0.124345 0.687707 0.114933
0.125008 0.688370 0.170555
0.125654 0.689015 0.224734
0.126289 0.689651 0.278069
0.126918 0.690280 0.330803
0.127541 0.690903 0.383072
0.128159 0.691521 0.434963
0.128774 0.692136 0.486534
0.129385 0.692747 0.537830
0.129994 0.693356 0.588883
0.130600 0.693962 0.639719
0.131203 0.694565 0.690360
0.131805 0.695167 0.740823
0.132404 0.695766 0.791122
0.133002 0.696364 0.841271
0.133598 0.696960 0.891279
0.134193 0.697554 0.941157
0.130301 0.743510 0.120890
0.130964 0.744173 0.176511
0.131610 0.744819 0.230691
0.132246 0.745455 0.284025
0.132874 0.746083 0.336759
0.133497 0.746706 0.389029
0.134116 0.747325 0.440919
0.134730 0.747939 0.492491
0.135342 0.748551 0.543786
0.135950 0.749159 0.594839
0.136556 0.749765 0.645675
0.137160 0.750369 0.696316
0.137761 0.750970 0.746779
0.138361 0.751570 0.797079
0.138958 0.752168 0.847227
0.139555 0.752764 0.897236
0.140149 0.753358 0.947113
0.136238 0.799135 0.126827
0.136901 0.799797 0.182448
0.137547 0.800443 0.236628
0.138183 0.801079 0.289962
0.138811 0.801707 0.342696
0.139434 0.802331 0.394966
0.140053 0.802949 0.446857
0.140668 0.803564 0.498428
0.141279 0.804175 0.549723
0.141887 0.804784 0.600776
0.142493 0.805390 0.651613
0.143097 0.805993 0.702253
0.143698 0.806595 0.752716
0.144298 0.807194 0.803016
0.144896 0.807792 0.853164
0.145492 0.808388 0.903173
0.146086 0.808982 0.953050
0.142158 0.854593 0.132747
0.142821 0.855256 0.188368
0.143467 0.855902 0.242548
0.144102 0.856537 0.295882
0.144731 0.857166 0.348616
0.145354 0.857789 0.400885
0.145972 0.858407 0.452776
0.146587 0.859022 0.504347
0.147199 0.859633 0.555643
0.147807 0.860242 0.606696
0.148413 0.860848 0.657532
0.149017 0.861451 0.708173
0.149618 0.862053 0.758636
0.150218 0.862652 0.808935
0.150815 0.863250 0.859084
0.151411 0.863846 0.909092
0.152006 0.864441 0.958970
0.148061 0.909897 0.138650
0.148724 0.910560 0.194271
0.149370 0.911206 0.248451
0.150005 0.911842 0.301785
0.150634 0.912470 0.354519
0.151257 0.913093 0.406788
0.151876 0.913712 0.458679
0.152490 0.914326 0.510251
0.153102 0.914938 0.561546
0.153710 0.915546 0.612599
0.154316 0.916152 0.663435
0.154920 0.916756 0.714076
0.155521 0.917357 0.764539
0.156121 0.917957 0.814838
0.156718 0.918554 0.864987
0.157314 0.919151 0.914995
0.157909 0.919745 0.964873
0.153563 0.961445 0.144152
0.154226 0.962108 0.199773
0.154872 0.962754 0.253953
0.155508 0.963389 0.307287
0.156136 0.964018 0.360021
0.156759 0.964641 0.412291
0.157378 0.965259 0.464181
0.157992 0.965874 0.515753
0.158604 0.966485 0.567048
0.159212 0.967094 0.618101
0.159818 0.967700 0.668937
0.160422 0.968303 0.719578
0.161023 0.968905 0.770041
0.161623 0.969504 0.820341
0.162220 0.970102 0.870489
0.162817 0.970698 0.920498
0.163411 0.971293 0.970375
0.113045 0.053712 0.048995
0.113708 0.054375 0.104617
0.114354 0.055021 0.158796
0.114990 0.055656 0.212131
0.115618 0.056285 0.264865
0.116241 0.056908 0.317134
0.116860 0.057526 0.369025
0.117475 0.058141 0.420596
0.118086 0.058752 0.471892
0.118694 0.059361 0.522945
0.119300 0.059967 0.573781
0.119904 0.060570 0.624422
0.120505 0.061172 0.674885
0.121105 0.061771 0.725184
0.121703 0.062369 0.775333
0.122299 0.062965 0.825341
0.122893 0.063560 0.875219
0.119593 0.115051 0.055543
0.120256 0.115714 0.111164
0.120901 0.116360 0.165344
0.121537 0.116996 0.218678
0.122166 0.117624 0.271412
0.122789 0.118247 0.323681
0.123407 0.118866 0.375572
0.124022 0.119480 0.427144
0.124633 0.120092 0.478439
0.125242 0.120700 0.529492
0.125848 0.121306 0.580328
0.126451 0.121910 0.630969
0.127053 0.122511 0.681432
0.127652 0.123111 0.731731
0.128250 0.123709 0.781880
0.128846 0.124305 0.831889
0.129441 0.124899 0.881766
0.125979 0.174887 0.061929
0.126642 0.175550 0.117551
0.127288 0.176196 0.171730
0.127924 0.176832 0.225065
0.128552 0.177460 0.277799
0.129175 0.178083 0.330068
0.129794 0.178702 0.381959
0.130409 0.179316 0.433530
0.131020 0.179928 0.484826
0.131629 0.180536 0.535879
0.132234 0.181142 0.586715
0.132838 0.181746 0.637356
0.133440 0.182347 0.687819
0.134039 0.182947 0.738118
0.134637 0.183544 0.788267
0.135233 0.184141 0.838275
0.135827 0.184735 0.888153
0.132270 0.233819 0.068220
0.132933 0.234482 0.123841
0.133578 0.235128 0.178021
0.134214 0.235763 0.231355
0.134843 0.236392 0.284089
0.135466 0.237015 0.336359
0.136084 0.237633 0.388249
0.136699 0.238248 0.439821
0.137310 0.238859 0.491116
0.137919 0.239468 0.542169
0.138525 0.240074 0.593005
0.139128 0.240677 0.643646
0.139730 0.241279 0.694109
0.140329 0.241878 0.744409
0.140927 0.242476 0.794557
0.141523 0.243072 0.844566
0.142118 0.243667 0.894443
0.138491 0.292103 0.074441
0.139154 0.292766 0.130062
0.139800 0.293411 0.184242
0.140435 0.294047 0.237576
0.141064 0.294676 0.290310
0.141687 0.295299 0.342580
0.142305 0.295917 0.394470
0.142920 0.296532 0.446042
0.143531 0.297143 0.497337
0.144140 0.297752 0.548390
0.144746 0.298358 0.599226
0.145349 0.298961 0.649867
0.145951 0.299563 0.700330
0.146550 0.300162 0.750630
0.147148 0.300760 0.800778
0.147744 0.301356 0.850787
0.148339 0.301950 0.900664
0.144658 0.349882 0.080608
0.145321 0.350545 0.136229
0.145967 0.351191 0.190409
0.146603 0.351827 0.243743
0.147231 0.352455 0.296477
0.147854 0.353078 0.348747
0.148473 0.353697 0.400638
0.149087 0.354311 0.452209
0.149699 0.354923 0.503505
0.150307 0.355531 0.554557
0.150913 0.356137 0.605394
0.151517 0.356741 0.656035
0.152118 0.357342 0.706497
0.152718 0.357942 0.756797
0.153315 0.358539 0.806946
0.153911 0.359135 0.856954
0.154506 0.359730 0.906832
0.150781 0.407249 0.086731
0.151444 0.407912 0.142353
0.152090 0.408558 0.196532
0.152726 0.409193 0.249867
0.153354 0.409822 0.302601
0.153977 0.410445 0.354870
0.154596 0.411064 0.406761
0.155211 0.411678 0.458332
0.155822 0.412290 0.509628
0.156430 0.412898 0.560681
0.157036 0.413504 0.611517
0.157640 0.414108 0.662158
0.158241 0.414709 0.712621
0.158841 0.415309 0.762920
0.159439 0.415906 0.813069
0.160035 0.416502 0.863077
0.160629 0.417097 0.912955
0.156867 0.464267 0.092817
0.157530 0.464930 0.148439
0.158176 0.465576 0.202618
0.158812 0.466212 0.255953
0.159440 0.466840 0.308687
0.160063 0.467463 0.360956
0.160682 0.468082 0.412847
0.161297 0.468697 0.464418
0.161908 0.469308 0.515714
0.162516 0.469916 0.566767
0.163122 0.470522 0.617603
0.163726 0.471126 0.668244
0.164327 0.471727 0.718707
0.164927 0.472327 0.769006
0.165525 0.472925 0.819155
0.166121 0.473521 0.869163
0.166715 0.474115 0.919041
0.162921 0.520984 0.098871
0.163584 0.521647 0.154492
0.164230 0.522293 0.208672
0.164866 0.522928 0.262006
0.165494 0.523557 0.314741
0.166117 0.524180 0.367010
0.166736 0.524798 0.418901
0.167350 0.525413 0.470472
0.167962 0.526025 0.521768
0.168570 0.526633 0.572821
0.169176 0.527239 0.623657
0.169780 0.527843 0.674298
0.170381 0.528444 0.724761
0.170981 0.529044 0.775060
0.171579 0.529641 0.825209
0.172175 0.530237 0.875217
0.172769 0.530832 0.925095
0.168947 0.577435 0.104897
0.169610 0.578098 0.160518
0.170255 0.578744 0.214698
0.170891 0.579379 0.268032
0.171520 0.580008 0.320766
0.172143 0.580631 0.373036
0.172761 0.581249 0.424926
0.173376 0.581864 0.476498
0.173987 0.582475 0.527793
0.174596 0.583084 0.578846
0.175202 0.583690 0.629682
0.175805 0.584293 0.680323
0.176407 0.584895 0.730786
0.177006 0.585494 0.781086
0.177604 0.586092 0.831234
0.178200 0.586688 0.881243
0.178795 0.587283 0.931120
0.174947 0.633648 0.110897
0.175610 0.634311 0.166518
0.176256 0.634957 0.220698
0.176891 0.635593 0.274032
0.177520 0.636221 0.326766
0.178143 0.636844 0.379036
0.178761 0.637463 0.430926
0.179376 0.638077 0.482498
0.179987 0.638689 0.533793
0.180596 0.639297 0.584846
0.181202 0.639903 0.635682
0.181805 0.640507 0.686323
0.182407 0.641108 0.736786
0.183006 0.641708 0.787086
0.183604 0.642306 0.837234
0.184200 0.642902 0.887243
0.184795 0.643496 0.937120
0.180924 0.689647 0.116874
0.181587 0.690310 0.172495
0.182233 0.690956 0.226675
0.182869 0.691592 0.280009
0.183497 0.692220 0.332743
0.184120 0.692843 0.385013
0.184739 0.693462 0.436904
0.185353 0.694077 0.488475
0.185965 0.694688 0.539771
0.186573 0.695296 0.590823
0.187179 0.695902 0.641660
0.187783 0.696506 0.692301
0.188384 0.697107 0.742763
0.188984 0.697707 0.793063
0.189581 0.698305 0.843212
0.190177 0.698901 0.893220
0.190772 0.699495 0.943098
0.186881 0.745451 0.122831
0.187543 0.746114 0.178452
0.188189 0.746760 0.232632
0.188825 0.747395 0.285966
0.189454 0.748024 0.338700
0.190077 0.748647 0.390969
0.190695 0.749266 0.442860
0.191310 0.749880 0.494431
0.191921 0.750492 0.545727
0.192530 0.751100 0.596780
0.193136 0.751706 0.647616
0.193739 0.752310 0.698257
0.194341 0.752911 0.748720
0.194940 0.753511 0.799019
0.195538 0.754108 0.849168
0.196134 0.754704 0.899176
0.196728 0.755299 0.949054
0.192818 0.801075 0.128768
0.193481 0.801738 0.184389
0.194127 0.802384 0.238569
0.194762 0.803020 0.291903
0.195391 0.803648 0.344637
0.196014 0.804271 0.396907
0.196632 0.804890 0.448797
0.197247 0.805504 0.500369
0.197858 0.806116 0.551664
0.198467 0.806724 0.602717
0.199073 0.807330 0.653553
0.199676 0.807934 0.704194
0.200278 0.808535 0.754657
0.200877 0.809135 0.804957
0.201475 0.809733 0.855105
0.202071 0.810329 0.905114
0.202666 0.810923 0.954991
0.198737 0.856534 0.134687
0.199400 0.857197 0.190308
0.200046 0.857842 0.244488
0.200682 0.858478 0.297822
0.201310 0.859107 0.350557
0.201933 0.859730 0.402826
0.202552 0.860348 0.454717
0.203166 0.860963 0.506288
0.203778 0.861574 0.557584
0.204386 0.862183 0.608637
0.204992 0.862789 0.659473
0.205596 0.863392 0.710114
0.206197 0.863994 0.760577
0.206797 0.864593 0.810876
0.207395 0.865191 0.861025
0.207991 0.865787 0.911033
0.208585 0.866382 0.960911
0.204640 0.911838 0.140590
0.205303 0.912501 0.196212
0.205949 0.913147 0.250391
0.206585 0.913782 0.303726
0.207213 0.914411 0.356460
0.207836 0.915034 0.408729
0.208455 0.915652 0.460620
0.209070 0.916267 0.512191
0.209681 0.916878 0.563487
0.210289 0.917487 0.614540
0.210895 0.918093 0.665376
0.211499 0.918697 0.716017
0.212100 0.919298 0.766480
0.212700 0.919898 0.816779
0.213298 0.920495 0.866928
0.213894 0.921091 0.916936
0.214488 0.921686 0.966814
0.210143 0.963386 0.146093
0.210805 0.964049 0.201714
0.211451 0.964694 0.255893
0.212087 0.965330 0.309228
0.212715 0.965959 0.361962
0.213338 0.966582 0.414231
0.213957 0.967200 0.466122
0.214572 0.967815 0.517693
0.215183 0.968426 0.568989
0.215792 0.969035 0.620042
0.216397 0.969641 0.670878
0.217001 0.970244 0.721519
0.217603 0.970846 0.771982
0.218202 0.971445 0.822281
0.218800 0.972043 0.872430
0.219396 0.972639 0.922438
0.219990 0.973233 0.972316
0.168309 0.055607 0.050891
0.168972 0.056270 0.106512
0.169617 0.056916 0.160692
0.170253 0.057552 0.214026
0.170882 0.058180 0.266760
0.171505 0.058803 0.319030
0.172123 0.059422 0.370921
0.172738 0.060037 0.422492
0.173349 0.060648 0.473788
0.173958 0.061257 0.524840
0.174564 0.061862 0.575677
0.175167 0.062466 0.626317
0.175769 0.063068 0.676780
0.176368 0.063667 0.727080
0.176966 0.064265 0.777228
0.177562 0.064861 0.827237
0.178156 0.065455 0.877114
0.174856 0.116947 0.057438
0.175519 0.117610 0.113059
0.176165 0.118256 0.167239
0.176800 0.118891 0.220573
0.177429 0.119520 0.273308
0.178052 0.120143 0.325577
0.178670 0.120761 0.377468
0.179285 0.121376 0.429039
0.179896 0.121987 0.480335
0.180505 0.122596 0.531388
0.181111 0.123202 0.582224
0.181714 0.123805 0.632865
0.182316 0.124407 0.683328
0.182915 0.125006 0.733627
0.183513 0.125604 0.783776
0.184109 0.126200 0.833784
0.184704 0.126795 0.883662
0.181243 0.176783 0.063825
0.181906 0.177446 0.119446
0.182551 0.178092 0.173626
0.183187 0.178727 0.226960
0.183816 0.179356 0.279694
0.184439 0.179979 0.331964
0.185057 0.180597 0.383855
0.185672 0.181212 0.435426
0.186283 0.181823 0.486722
0.186892 0.182432 0.537774
0.187498 0.183038 0.588611
0.188101 0.183641 0.639251
0.188703 0.184243 0.689714
0.189302 0.184842 0.740014
0.189900 0.185440 0.790163
0.190496 0.186036 0.840171
0.191090 0.186631 0.890049
0.187533 0.235714 0.070115
0.188196 0.236377 0.125737
0.188842 0.237023 0.179916
0.189477 0.237659 0.233251
0.190106 0.238287 0.285985
0.190729 0.238910 0.338254
0.191347 0.239529 0.390145
0.191962 0.240144 0.441716
0.192573 0.240755 0.493012
0.193182 0.241364 0.544065
0.193788 0.241969 0.594901
0.194391 0.242573 0.645542
0.194993 0.243175 0.696005
0.195592 0.243774 0.746304
0.196190 0.244372 0.796453
0.196786 0.244968 0.846461
0.197381 0.245562 0.896339
0.193754 0.293998 0.076336
0.194417 0.294661 0.131958
0.195063 0.295307 0.186137
0.195698 0.295943 0.239472
0.196327 0.296571 0.292206
0.196950 0.297194 0.344475
0.197568 0.297813 0.396366
0.198183 0.298427 0.447937
0.198795 0.299039 0.499233
0.199403 0.299647 0.550286
0.200009 0.300253 0.601122
0.200613 0.300857 0.651763
0.201214 0.301458 0.702226
0.201814 0.302058 0.752525
0.202411 0.302656 0.802674
0.203007 0.303252 0.852682
0.203602 0.303846 0.902560
0.199921 0.351778 0.082504
0.200584 0.352441 0.138125
0.201230 0.353086 0.192305
0.201866 0.353722 0.245639
0.202494 0.354351 0.298373
0.203117 0.354974 0.350643
0.203736 0.355592 0.402533
0.204350 0.356207 0.454105
0.204962 0.356818 0.505400
0.205570 0.357427 0.556453
0.206176 0.358033 0.607289
0.206780 0.358636 0.657930
0.207381 0.359238 0.708393
0.207981 0.359837 0.758693
0.208579 0.360435 0.808841
0.209175 0.361031 0.858850
0.209769 0.361626 0.908727
0.206045 0.409145 0.088627
0.206708 0.409808 0.144248
0.207353 0.410453 0.198428
0.207989 0.411089 0.251762
0.208618 0.411718 0.304496
0.209241 0.412341 0.356766
0.209859 0.412959 0.408657
0.210474 0.413574 0.460228
0.211085 0.414185 0.511523
0.211694 0.414794 0.562576
0.212300 0.415400 0.613413
0.212903 0.416003 0.664053
0.213505 0.416605 0.714516
0.214104 0.417204 0.764816
0.214702 0.417802 0.814964
0.215298 0.418398 0.864973
0.215892 0.418993 0.914850
0.212131 0.466163 0.094713
0.212794 0.466826 0.150334
0.213439 0.467472 0.204514
0.214075 0.468107 0.257848
0.214704 0.468736 0.310582
0.215327 0.469359 0.362852
0.215945 0.469977 0.414743
0.216560 0.470592 0.466314
0.217171 0.471204 0.517610
0.217780 0.471812 0.568662
0.218386 0.472418 0.619499
0.218989 0.473022 0.670139
0.219591 0.473623 0.720602
0.220190 0.474223 0.770902
0.220788 0.474820 0.821051
0.221384 0.475416 0.871059
0.221978 0.476011 0.920936
0.218184 0.522880 0.100767
0.218847 0.523543 0.156388
0.219493 0.524188 0.210568
0.220129 0.524824 0.263902
0.220757 0.525453 0.316636
0.221380 0.526076 0.368906
0.221999 0.526694 0.420796
0.222614 0.527309 0.472368
0.223225 0.527920 0.523663
0.223834 0.528529 0.574716
0.224439 0.529135 0.625552
0.225043 0.529738 0.676193
0.225644 0.530340 0.726656
0.226244 0.530939 0.776956
0.226842 0.531537 0.827104
0.227438 0.532133 0.877113
0.228032 0.532727 0.926990
0.224210 0.579330 0.106792
0.224873 0.579993 0.162414
0.225519 0.580639 0.216593
0.226154 0.581275 0.269928
0.226783 0.581903 0.322662
0.227406 0.582526 0.374931
0.228024 0.583145 0.426822
0.228639 0.583760 0.478393
0.229250 0.584371 0.529689
0.229859 0.584980 0.580742
0.230465 0.585585 0.631578
0.231068 0.586189 0.682219
0.231670 0.586791 0.732682
0.232269 0.587390 0.782981
0.232867 0.587988 0.833130
0.233463 0.588584 0.883138
0.234058 0.589178 0.933016
0.230210 0.635544 0.112793
0.230873 0.636207 0.168414
0.231519 0.636853 0.222594
0.232154 0.637488 0.275928
0.232783 0.638117 0.328662
0.233406 0.638740 0.380931
0.234025 0.639358 0.432822
0.234639 0.639973 0.484393
0.235251 0.640584 0.535689
0.235859 0.641193 0.586742
0.236465 0.641799 0.637578
0.237069 0.642402 0.688219
0.237670 0.643004 0.738682
0.238270 0.643603 0.788981
0.238867 0.644201 0.839130
0.239463 0.644797 0.889138
0.240058 0.645392 0.939016
0.236187 0.691543 0.118770
0.236850 0.692206 0.174391
0.237496 0.692852 0.228571
0.238132 0.693487 0.281905
0.238760 0.694116 0.334639
0.239383 0.694739 0.386909
0.240002 0.695357 0.438799
0.240616 0.695972 0.490371
0.241228 0.696584 0.541666
0.241836 0.697192 0.592719
0.242442 0.697798 0.643555
0.243046 0.698402 0.694196
0.243647 0.699003 0.744659
0.244247 0.699603 0.794959
0.244845 0.700200 0.845107
0.245441 0.700796 0.895116
0.246035 0.701391 0.944993
0.242144 0.747347 0.124726
0.242807 0.748010 0.180347
0.243452 0.748655 0.234527
0.244088 0.749291 0.287861
0.244717 0.749920 0.340595
0.245340 0.750543 0.392865
0.245958 0.751161 0.444756
0.246573 0.751776 0.496327
0.247184 0.752387 0.547623
0.247793 0.752996 0.598675
0.248399 0.753602 0.649512
0.249002 0.754205 0.700153
0.249604 0.754807 0.750615
0.250203 0.755406 0.800915
0.250801 0.756004 0.851064
0.251397 0.756600 0.901072
0.251992 0.757195 0.950950
0.248081 0.802971 0.130663
0.248744 0.803634 0.186285
0.249390 0.804280 0.240464
0.250025 0.804915 0.293799
0.250654 0.805544 0.346533
0.251277 0.806167 0.398802
0.251895 0.806785 0.450693
0.252510 0.807400 0.502264
0.253122 0.808011 0.553560
0.253730 0.808620 0.604613
0.254336 0.809226 0.655449
0.254940 0.809830 0.706090
0.255541 0.810431 0.756553
0.256141 0.811031 0.806852
0.256738 0.811628 0.857001
0.257334 0.812224 0.907009
0.257929 0.812819 0.956887
0.254000 0.858429 0.136583
0.254663 0.859092 0.192204
0.255309 0.859738 0.246384
0.255945 0.860374 0.299718
0.256573 0.861002 0.352452
0.257196 0.861625 0.404722
0.257815 0.862244 0.456612
0.258430 0.862858 0.508184
0.259041 0.863470 0.559479
0.259650 0.864078 0.610532
0.260255 0.864684 0.661368
0.260859 0.865288 0.712009
0.261461 0.865889 0.762472
0.262060 0.866489 0.812772
0.262658 0.867087 0.862920
0.263254 0.867683 0.912929
0.263848 0.868277 0.962806
0.259904 0.913734 0.142486
0.260567 0.914397 0.198107
0.261212 0.915042 0.252287
0.261848 0.915678 0.305621
0.262477 0.916307 0.358355
0.263100 0.916930 0.410625
0.263718 0.917548 0.462516
0.264333 0.918163 0.514087
0.264944 0.918774 0.565383
0.265553 0.919383 0.616435
0.266159 0.919989 0.667272
0.266762 0.920592 0.717912
0.267364 0.921194 0.768375
0.267963 0.921793 0.818675
0.268561 0.922391 0.868823
0.269157 0.922987 0.918832
0.269751 0.923581 0.968709
0.265406 0.965281 0.147988
0.266069 0.965944 0.203609
0.266714 0.966590 0.257789
0.267350 0.967226 0.311123
0.267979 0.967854 0.363857
0.268602 0.968477 0.416127
0.269220 0.969096 0.468018
0.269835 0.969710 0.519589
0.270446 0.970322 0.570885
0.271055 0.970930 0.621937
0.271661 0.971536 0.672774
0.272264 0.972140 0.723415
0.272866 0.972741 0.773877
0.273465 0.973341 0.824177
0.274063 0.973939 0.874326
0.274659 0.974535 0.924334
0.275254 0.975129 0.974212
0.222762 0.057475 0.052759
0.223425 0.058138 0.108380
0.224071 0.058784 0.162560
0.224707 0.059420 0.215894
0.225335 0.060048 0.268628
0.225958 0.060671 0.320898
0.226577 0.061290 0.372788
0.227191 0.061905 0.424360
0.227803 0.062516 0.475655
0.228411 0.063124 0.526708
0.229017 0.063730 0.577544
0.229621 0.064334 0.628185
0.230222 0.064935 0.678648
0.230822 0.065535 0.728948
0.231420 0.066133 0.779096
0.232016 0.066729 0.829105
0.232610 0.067323 0.878982
0.229310 0.118815 0.059306
