skills/appstore-swiss-grid/assets/grade/luts/soft_pastel_v11.cube
TITLE "soft_pastel_v11"
LUT_3D_SIZE 9
DOMAIN_MIN 0.0 0.0 0.0
DOMAIN_MAX 1.0 1.0 1.0
0.056466 0.051771 0.047055
0.057775 0.053080 0.156856
0.059039 0.054344 0.262924
0.060281 0.055586 0.367084
0.061507 0.056812 0.469951
0.062721 0.058026 0.571840
0.063926 0.059231 0.672944
0.065123 0.060428 0.773392
0.066314 0.061619 0.873278
0.069400 0.172946 0.059989
0.070709 0.174255 0.169790
0.071973 0.175519 0.275858
0.073215 0.176761 0.380018
0.074441 0.177987 0.482885
0.075655 0.179201 0.584774
0.076860 0.180406 0.685878
0.078057 0.181604 0.786326
0.079248 0.182794 0.886212
0.081912 0.290162 0.072500
0.083220 0.291471 0.182301
0.084484 0.292735 0.288369
0.085726 0.293976 0.392530
0.086952 0.295202 0.495397
0.088166 0.296417 0.597286
0.089372 0.297622 0.698389
0.090569 0.298819 0.798838
0.091759 0.300010 0.898723
0.094202 0.405308 0.084791
0.095511 0.406617 0.194592
0.096775 0.407881 0.300660
0.098017 0.409123 0.404820
0.099243 0.410349 0.507687
0.100457 0.411563 0.609576
0.101662 0.412768 0.710680
0.102859 0.413966 0.811128
0.104050 0.415156 0.911014
0.106342 0.519043 0.096930
0.107651 0.520352 0.206731
0.108915 0.521616 0.312800
0.110156 0.522858 0.416960
0.111382 0.524084 0.519827
0.112597 0.525298 0.621716
0.113802 0.526503 0.722820
0.114999 0.527701 0.823268
0.116190 0.528891 0.923154
0.118368 0.631708 0.108956
0.119676 0.633016 0.218757
0.120941 0.634280 0.324825
0.122182 0.635522 0.428986
0.123408 0.636748 0.531853
0.124623 0.637962 0.633742
0.125828 0.639168 0.734845
0.127025 0.640365 0.835294
0.128215 0.641555 0.935180
0.130301 0.743510 0.120890
0.131610 0.744819 0.230691
0.132874 0.746083 0.336759
0.134116 0.747325 0.440919
0.135342 0.748551 0.543786
0.136556 0.749765 0.645675
0.137761 0.750970 0.746779
0.138958 0.752168 0.847227
0.140149 0.753358 0.947113
0.142158 0.854593 0.132747
0.143467 0.855902 0.242548
0.144731 0.857166 0.348616
0.145972 0.858407 0.452776
0.147199 0.859633 0.555643
0.148413 0.860848 0.657532
0.149618 0.862053 0.758636
0.150815 0.863250 0.859084
0.152006 0.864441 0.958970
0.153563 0.961445 0.144152
0.154872 0.962754 0.253953
0.156136 0.964018 0.360021
0.157378 0.965259 0.464181
0.158604 0.966485 0.567048
0.159818 0.967700 0.668937
0.161023 0.968905 0.770041
0.162220 0.970102 0.870489
0.163411 0.971293 0.970375
0.168309 0.055607 0.050891
0.169617 0.056916 0.160692
0.170882 0.058180 0.266760
0.172123 0.059422 0.370921
0.173349 0.060648 0.473788
0.174564 0.061862 0.575677
0.175769 0.063068 0.676780
0.176966 0.064265 0.777228
0.178156 0.065455 0.877114
0.181243 0.176783 0.063825
0.182551 0.178092 0.173626
0.183816 0.179356 0.279694
0.185057 0.180597 0.383855
0.186283 0.181823 0.486722
0.187498 0.183038 0.588611
0.188703 0.184243 0.689714
0.189900 0.185440 0.790163
0.191090 0.186631 0.890049
0.193754 0.293998 0.076336
0.195063 0.295307 0.186137
0.196327 0.296571 0.292206
0.197568 0.297813 0.396366
0.198795 0.299039 0.499233
0.200009 0.300253 0.601122
0.201214 0.301458 0.702226
0.202411 0.302656 0.802674
0.203602 0.303846 0.902560
0.206045 0.409145 0.088627
0.207353 0.410453 0.198428
0.208618 0.411718 0.304496
0.209859 0.412959 0.408657
0.211085 0.414185 0.511523
0.212300 0.415400 0.613413
0.213505 0.416605 0.714516
0.214702 0.417802 0.814964
0.215892 0.418993 0.914850
0.218184 0.522880 0.100767
0.219493 0.524188 0.210568
0.220757 0.525453 0.316636
0.221999 0.526694 0.420796
0.223225 0.527920 0.523663
0.224439 0.529135 0.625552
0.225644 0.530340 0.726656
0.226842 0.531537 0.827104
0.228032 0.532727 0.926990
0.230210 0.635544 0.112793
0.231519 0.636853 0.222594
0.232783 0.638117 0.328662
0.234025 0.639358 0.432822
0.235251 0.640584 0.535689
0.236465 0.641799 0.637578
0.237670 0.643004 0.738682
0.238867 0.644201 0.839130
0.240058 0.645392 0.939016
0.242144 0.747347 0.124726
0.243452 0.748655 0.234527
0.244717 0.749920 0.340595
0.245958 0.751161 0.444756
0.247184 0.752387 0.547623
0.248399 0.753602 0.649512
0.249604 0.754807 0.750615
0.250801 0.756004 0.851064
0.251992 0.757195 0.950950
0.254000 0.858429 0.136583
0.255309 0.859738 0.246384
0.256573 0.861002 0.352452
0.257815 0.862244 0.456612
0.259041 0.863470 0.559479
0.260255 0.864684 0.661368
0.261461 0.865889 0.762472
0.262658 0.867087 0.862920
0.263848 0.868277 0.962806
0.265406 0.965281 0.147988
0.266714 0.966590 0.257789
0.267979 0.967854 0.363857
0.269220 0.969096 0.468018
0.270446 0.970322 0.570885
0.271661 0.971536 0.672774
0.272866 0.972741 0.773877
0.274063 0.973939 0.874326
0.275254 0.975129 0.974212
0.276631 0.059323 0.054607
0.277939 0.060632 0.164408
0.279204 0.061896 0.270476
0.280445 0.063138 0.374636
0.281671 0.064364 0.477503
0.282886 0.065578 0.579392
0.284091 0.066783 0.680496
0.285288 0.067980 0.780944
0.286479 0.069171 0.880830
0.289565 0.180498 0.067541
0.290874 0.181807 0.177342
0.292138 0.183071 0.283410
0.293379 0.184313 0.387570
0.294605 0.185539 0.490437
0.295820 0.186753 0.592326
0.297025 0.187958 0.693430
0.298222 0.189156 0.793878
0.299413 0.190346 0.893764
0.302076 0.297714 0.080052
0.303385 0.299023 0.189853
0.304649 0.300287 0.295921
0.305891 0.301528 0.400082
0.307117 0.302754 0.502949
0.308331 0.303969 0.604838
0.309536 0.305174 0.705941
0.310734 0.306371 0.806390
0.311924 0.307562 0.906276
0.314367 0.412860 0.092343
0.315675 0.414169 0.202144
0.316940 0.415433 0.308212
0.318181 0.416675 0.412372
0.319407 0.417901 0.515239
0.320622 0.419115 0.617128
0.321827 0.420320 0.718232
0.323024 0.421518 0.818680
0.324215 0.422708 0.918566
0.326507 0.526595 0.104483
0.327815 0.527904 0.214284
0.329080 0.529168 0.320352
0.330321 0.530410 0.424512
0.331547 0.531636 0.527379
0.332762 0.532850 0.629268
0.333967 0.534055 0.730372
0.335164 0.535253 0.830820
0.336354 0.536443 0.930706
0.338532 0.639260 0.116508
0.339841 0.640568 0.226309
0.341105 0.641833 0.332377
0.342347 0.643074 0.436538
0.343573 0.644300 0.539405
0.344787 0.645515 0.641294
0.345992 0.646720 0.742397
0.347190 0.647917 0.842846
0.348380 0.649107 0.942732
0.350466 0.751062 0.128442
0.351775 0.752371 0.238243
0.353039 0.753635 0.344311
0.354280 0.754877 0.448471
0.355506 0.756103 0.551338
0.356721 0.757317 0.653227
0.357926 0.758522 0.754331
0.359123 0.759720 0.854779
0.360314 0.760910 0.954665
0.362323 0.862145 0.140299
0.363631 0.863454 0.250100
0.364896 0.864718 0.356168
0.366137 0.865959 0.460328
0.367363 0.867186 0.563195
0.368578 0.868400 0.665084
0.369783 0.869605 0.766188
0.370980 0.870802 0.866636
0.372171 0.871993 0.966522
0.373728 0.968997 0.151704
0.375037 0.970306 0.261505
0.376301 0.971570 0.367573
0.377542 0.972811 0.471733
0.378768 0.974037 0.574600
0.379983 0.975252 0.676489
0.381188 0.976457 0.777593
0.382385 0.977654 0.878041
0.383576 0.978845 0.977927
0.383076 0.062974 0.058258
0.384385 0.064283 0.168059
0.385649 0.065547 0.274127
0.386890 0.066789 0.378288
0.388117 0.068015 0.481154
0.389331 0.069229 0.583044
0.390536 0.070434 0.684147
0.391733 0.071632 0.784595
0.392924 0.072822 0.884481
0.396010 0.184150 0.071192
0.397319 0.185458 0.180993
0.398583 0.186723 0.287061
0.399825 0.187964 0.391222
0.401051 0.189190 0.494089
0.402265 0.190405 0.595978
0.403470 0.191610 0.697081
0.404667 0.192807 0.797529
0.405858 0.193998 0.897415
0.408521 0.301365 0.083703
0.409830 0.302674 0.193504
0.411094 0.303938 0.299573
0.412336 0.305180 0.403733
0.413562 0.306406 0.506600
0.414776 0.307620 0.608489
0.415982 0.308825 0.709593
0.417179 0.310023 0.810041
0.418369 0.311213 0.909927
0.420812 0.416512 0.095994
0.422121 0.417820 0.205795
0.423385 0.419085 0.311863
0.424626 0.420326 0.416024
0.425853 0.421552 0.518890
0.427067 0.422767 0.620780
0.428272 0.423972 0.721883
0.429469 0.425169 0.822331
0.430660 0.426359 0.922217
0.432952 0.530247 0.108134
0.434261 0.531555 0.217935
0.435525 0.532820 0.324003
0.436766 0.534061 0.428163
0.437992 0.535287 0.531030
0.439207 0.536502 0.632919
0.440412 0.537707 0.734023
0.441609 0.538904 0.834471
0.442800 0.540094 0.934357
0.444977 0.642911 0.120159
0.446286 0.644220 0.229960
0.447550 0.645484 0.336029
0.448792 0.646725 0.440189
0.450018 0.647951 0.543056
0.451232 0.649166 0.644945
0.452438 0.650371 0.746049
0.453635 0.651568 0.846497
0.454825 0.652759 0.946383
0.456911 0.754714 0.132093
0.458220 0.756022 0.241894
0.459484 0.757287 0.347962
0.460726 0.758528 0.452123
0.461952 0.759754 0.554990
0.463166 0.760969 0.656879
0.464371 0.762174 0.757982
0.465568 0.763371 0.858431
0.466759 0.764561 0.958317
0.468768 0.865796 0.143950
0.470077 0.867105 0.253751
0.471341 0.868369 0.359819
0.472582 0.869611 0.463979
0.473808 0.870837 0.566846
0.475023 0.872051 0.668735
0.476228 0.873256 0.769839
0.477425 0.874454 0.870287
0.478616 0.875644 0.970173
0.480173 0.972648 0.155355
0.481482 0.973957 0.265156
0.482746 0.975221 0.371224
0.483988 0.976463 0.475385
0.485214 0.977689 0.578252
0.486428 0.978903 0.680141
0.487633 0.980108 0.781244
0.488830 0.981305 0.881693
0.490021 0.982496 0.981579
0.488233 0.066582 0.061865
0.489542 0.067890 0.171666
0.490806 0.069154 0.277734
0.492047 0.070396 0.381895
0.493273 0.071622 0.484762
0.494488 0.072837 0.586651
0.495693 0.074042 0.687754
0.496890 0.075239 0.788203
0.498081 0.076429 0.888088
0.501167 0.187757 0.074799
0.502476 0.189066 0.184600
0.503740 0.190330 0.290668
0.504981 0.191571 0.394829
0.506207 0.192797 0.497696
0.507422 0.194012 0.599585
0.508627 0.195217 0.700688
0.509824 0.196414 0.801137
0.511015 0.197605 0.901023
0.513678 0.304972 0.087311
0.514987 0.306281 0.197111
0.516251 0.307545 0.303180
0.517493 0.308787 0.407340
0.518719 0.310013 0.510207
0.519933 0.311227 0.612096
0.521138 0.312432 0.713200
0.522336 0.313630 0.813648
0.523526 0.314820 0.913534
0.525969 0.420119 0.099601
0.527278 0.421427 0.209402
0.528542 0.422692 0.315470
0.529783 0.423933 0.419631
0.531009 0.425159 0.522498
0.532224 0.426374 0.624387
0.533429 0.427579 0.725490
0.534626 0.428776 0.825939
0.535817 0.429967 0.925824
0.538109 0.533854 0.111741
0.539417 0.535162 0.221542
0.540682 0.536427 0.327610
0.541923 0.537668 0.431770
0.543149 0.538894 0.534637
0.544364 0.540109 0.636526
0.545569 0.541314 0.737630
0.546766 0.542511 0.838078
0.547957 0.543702 0.937964
0.550134 0.646518 0.123767
0.551443 0.647827 0.233568
0.552707 0.649091 0.339636
0.553949 0.650332 0.443796
0.555175 0.651559 0.546663
0.556389 0.652773 0.648552
0.557594 0.653978 0.749656
0.558792 0.655175 0.850104
0.559982 0.656366 0.949990
0.562068 0.758321 0.135700
0.563377 0.759629 0.245501
0.564641 0.760894 0.351569
0.565882 0.762135 0.455730
0.567109 0.763361 0.558597
0.568323 0.764576 0.660486
0.569528 0.765781 0.761589
0.570725 0.766978 0.862038
0.571916 0.768169 0.961924
0.573925 0.869403 0.147557
0.575234 0.870712 0.257358
0.576498 0.871976 0.363426
0.577739 0.873218 0.467587
0.578965 0.874444 0.570453
0.580180 0.875658 0.672343
0.581385 0.876863 0.773446
0.582582 0.878061 0.873894
0.583773 0.879251 0.973780
0.585330 0.976255 0.158962
0.586639 0.977564 0.268763
0.587903 0.978828 0.374831
0.589144 0.980070 0.478992
0.590371 0.981296 0.581859
0.591585 0.982510 0.683748
0.592790 0.983715 0.784851
0.593987 0.984913 0.885300
0.595178 0.986103 0.985186
0.592409 0.070155 0.065439
0.593718 0.071464 0.175240
0.594982 0.072728 0.281308
0.596224 0.073969 0.385468
0.597450 0.075196 0.488335
0.598664 0.076410 0.590224
0.599869 0.077615 0.691328
0.601067 0.078812 0.791776
0.602257 0.080003 0.891662
0.605343 0.191330 0.078373
0.606652 0.192639 0.188174
0.607916 0.193903 0.294242
0.609158 0.195145 0.398402
0.610384 0.196371 0.501269
0.611598 0.197585 0.603158
0.612804 0.198790 0.704262
0.614001 0.199988 0.804710
0.615191 0.201178 0.904596
0.617855 0.308546 0.090884
0.619164 0.309854 0.200685
0.620428 0.311119 0.306753
0.621669 0.312360 0.410914
0.622895 0.313586 0.513780
0.624110 0.314801 0.615670
0.625315 0.316006 0.716773
0.626512 0.317203 0.817221
0.627703 0.318394 0.917107
0.630145 0.423692 0.103175
0.631454 0.425001 0.212976
0.632718 0.426265 0.319044
0.633960 0.427507 0.423204
0.635186 0.428733 0.526071
0.636400 0.429947 0.627960
0.637605 0.431152 0.729064
0.638803 0.432349 0.829512
0.639993 0.433540 0.929398
0.642285 0.537427 0.115314
0.643594 0.538736 0.225115
0.644858 0.540000 0.331184
0.646100 0.541242 0.435344
0.647326 0.542468 0.538211
0.648540 0.543682 0.640100
0.649745 0.544887 0.741204
0.650943 0.546084 0.841652
0.652133 0.547275 0.941538
0.654311 0.650091 0.127340
0.655620 0.651400 0.237141
0.656884 0.652664 0.343209
0.658125 0.653906 0.447370
0.659351 0.655132 0.550236
0.660566 0.656346 0.652126
0.661771 0.657551 0.753229
0.662968 0.658749 0.853677
0.664159 0.659939 0.953563
0.666245 0.761894 0.139274
0.667553 0.763203 0.249075
0.668818 0.764467 0.355143
0.670059 0.765709 0.459303
0.671285 0.766935 0.562170
0.672500 0.768149 0.664059
0.673705 0.769354 0.765163
0.674902 0.770551 0.865611
0.676092 0.771742 0.965497
0.678101 0.872977 0.151130
0.679410 0.874286 0.260931
0.680674 0.875550 0.367000
0.681916 0.876791 0.471160
0.683142 0.878017 0.574027
0.684356 0.879232 0.675916
0.685561 0.880437 0.777020
0.686759 0.881634 0.877468
0.687949 0.882825 0.977354
0.689507 0.979829 0.162536
0.690815 0.981137 0.272337
0.692080 0.982402 0.378405
0.693321 0.983643 0.482565
0.694547 0.984869 0.585432
0.695762 0.986084 0.687321
0.696967 0.987289 0.788425
0.698164 0.988486 0.888873
0.699354 0.989677 0.988759
0.695796 0.073701 0.068985
0.697104 0.075010 0.178786
0.698369 0.076274 0.284854
0.699610 0.077516 0.389014
0.700836 0.078742 0.491881
0.702051 0.079956 0.593770
0.703256 0.081161 0.694874
0.704453 0.082359 0.795322
0.705643 0.083549 0.895208
0.708730 0.194877 0.081919
0.710038 0.196185 0.191720
0.711303 0.197450 0.297788
0.712544 0.198691 0.401948
0.713770 0.199917 0.504815
0.714985 0.201132 0.606704
0.716190 0.202337 0.707808
0.717387 0.203534 0.808256
0.718577 0.204724 0.908142
0.721241 0.312092 0.094430
0.722550 0.313401 0.204231
0.723814 0.314665 0.310300
0.725055 0.315907 0.414460
0.726282 0.317133 0.517327
0.727496 0.318347 0.619216
0.728701 0.319552 0.720320
0.729898 0.320749 0.820768
0.731089 0.321940 0.920654
0.733532 0.427239 0.106721
0.734840 0.428547 0.216522
0.736105 0.429811 0.322590
0.737346 0.431053 0.426750
0.738572 0.432279 0.529617
0.739787 0.433494 0.631506
0.740992 0.434699 0.732610
0.742189 0.435896 0.833058
0.743379 0.437086 0.932944
0.745671 0.540973 0.118861
0.746980 0.542282 0.228662
0.748244 0.543546 0.334730
0.749486 0.544788 0.438890
0.750712 0.546014 0.541757
0.751926 0.547228 0.643646
0.753131 0.548434 0.744750
0.754329 0.549631 0.845198
0.755519 0.550821 0.945084
0.757697 0.653638 0.130886
0.759006 0.654946 0.240687
0.760270 0.656211 0.346756
0.761512 0.657452 0.450916
0.762738 0.658678 0.553783
0.763952 0.659893 0.655672
0.765157 0.661098 0.756776
0.766354 0.662295 0.857224
0.767545 0.663486 0.957110
0.769631 0.765441 0.142820
0.770939 0.766749 0.252621
0.772204 0.768014 0.358689
0.773445 0.769255 0.462850
0.774671 0.770481 0.565716
0.775886 0.771696 0.667606
0.777091 0.772901 0.768709
0.778288 0.774098 0.869157
0.779479 0.775288 0.969043
0.781487 0.876523 0.154677
0.782796 0.877832 0.264478
0.784060 0.879096 0.370546
0.785302 0.880338 0.474706
0.786528 0.881564 0.577573
0.787742 0.882778 0.679462
0.788948 0.883983 0.780566
0.790145 0.885180 0.881014
0.791335 0.886371 0.980900
0.792893 0.983375 0.166082
0.794201 0.984684 0.275883
0.795466 0.985948 0.381951
0.796707 0.987190 0.486112
0.797933 0.988416 0.588978
0.799148 0.989630 0.690868
0.800353 0.990835 0.791971
0.801550 0.992032 0.892419
0.802741 0.993223 0.992305
0.798520 0.077225 0.072509
0.799829 0.078534 0.182310
0.801093 0.079798 0.288378
0.802335 0.081039 0.392538
0.803561 0.082266 0.495405
0.804775 0.083480 0.597294
0.805980 0.084685 0.698398
0.807177 0.085882 0.798846
0.808368 0.087073 0.898732
0.811454 0.198400 0.085443
0.812763 0.199709 0.195244
0.814027 0.200973 0.301312
0.815269 0.202215 0.405472
0.816495 0.203441 0.508339
0.817709 0.204655 0.610228
0.818914 0.205860 0.711332
0.820112 0.207058 0.811780
0.821302 0.208248 0.911666
0.823966 0.315616 0.097954
0.825274 0.316924 0.207755
0.826539 0.318189 0.313823
0.827780 0.319430 0.417984
0.829006 0.320656 0.520850
0.830221 0.321871 0.622740
0.831426 0.323076 0.723843
0.832623 0.324273 0.824291
0.833813 0.325464 0.924177
0.836256 0.430762 0.110245
0.837565 0.432071 0.220046
0.838829 0.433335 0.326114
0.840071 0.434577 0.430274
0.841297 0.435803 0.533141
0.842511 0.437017 0.635030
0.843716 0.438222 0.736134
0.844913 0.439419 0.836582
0.846104 0.440610 0.936468
0.848396 0.544497 0.122384
0.849705 0.545806 0.232185
0.850969 0.547070 0.338254
0.852211 0.548312 0.442414
0.853437 0.549538 0.545281
0.854651 0.550752 0.647170
0.855856 0.551957 0.748274
0.857053 0.553154 0.848722
0.858244 0.554345 0.948608
0.860422 0.657161 0.134410
0.861730 0.658470 0.244211
0.862995 0.659734 0.350279
0.864236 0.660976 0.454440
0.865462 0.662202 0.557306
0.866677 0.663416 0.659196
0.867882 0.664621 0.760299
0.869079 0.665819 0.860747
0.870270 0.667009 0.960633
0.872355 0.768964 0.146344
0.873664 0.770273 0.256145
0.874928 0.771537 0.362213
0.876170 0.772779 0.466373
0.877396 0.774005 0.569240
0.878610 0.775219 0.671129
0.879815 0.776424 0.772233
0.881013 0.777621 0.872681
0.882203 0.778812 0.972567
0.884212 0.880047 0.158200
0.885521 0.881356 0.268001
0.886785 0.882620 0.374070
0.888027 0.883861 0.478230
0.889253 0.885087 0.581097
0.890467 0.886302 0.682986
0.891672 0.887507 0.784090
0.892869 0.888704 0.884538
0.894060 0.889895 0.984424
0.895617 0.986899 0.169606
0.896926 0.988207 0.279407
0.898190 0.989472 0.385475
0.899432 0.990713 0.489635
0.900658 0.991939 0.592502
0.901872 0.993154 0.694391
0.903077 0.994359 0.795495
0.904275 0.995556 0.895943
0.905465 0.996747 0.995829
0.893044 0.080467 0.075751
0.894353 0.081776 0.185552
0.895617 0.083040 0.291620
0.896858 0.084282 0.395780
0.898085 0.085508 0.498647
0.899299 0.086722 0.600536
0.900504 0.087927 0.701640
0.901701 0.089125 0.802088
0.902892 0.090315 0.901974
0.905978 0.201643 0.088685
0.907287 0.202951 0.198486
0.908551 0.204216 0.304554
0.909792 0.205457 0.408714
0.911019 0.206683 0.511581
0.912233 0.207898 0.613470
0.913438 0.209103 0.714574
0.914635 0.210300 0.815022
0.915826 0.211490 0.914908
0.918489 0.318858 0.101196
0.919798 0.320167 0.210997
0.921062 0.321431 0.317066
0.922304 0.322673 0.421226
0.923530 0.323899 0.524093
0.924744 0.325113 0.625982
0.925949 0.326318 0.727086
0.927147 0.327515 0.827534
0.928337 0.328706 0.927420
0.930780 0.434005 0.113487
0.932089 0.435313 0.223288
0.933353 0.436578 0.329356
0.934594 0.437819 0.433516
0.935821 0.439045 0.536383
0.937035 0.440260 0.638272
0.938240 0.441465 0.739376
0.939437 0.442662 0.839824
0.940628 0.443852 0.939710
0.942920 0.547739 0.125627
0.944229 0.549048 0.235428
0.945493 0.550312 0.341496
0.946734 0.551554 0.445656
0.947960 0.552780 0.548523
0.949175 0.553994 0.650412
0.950380 0.555200 0.751516
0.951577 0.556397 0.851964
0.952768 0.557587 0.951850
0.954945 0.660404 0.137652
0.956254 0.661713 0.247453
0.957518 0.662977 0.353522
0.958760 0.664218 0.457682
0.959986 0.665444 0.560549
0.961200 0.666659 0.662438
0.962405 0.667864 0.763542
0.963603 0.669061 0.863990
0.964793 0.670252 0.963876
0.966879 0.772207 0.149586
0.968188 0.773515 0.259387
0.969452 0.774780 0.365455
0.970694 0.776021 0.469616
0.971920 0.777247 0.572482
0.973134 0.778462 0.674372
0.974339 0.779667 0.775475
0.975536 0.780864 0.875923
0.976727 0.782054 0.975809
0.978736 0.883289 0.161443
0.980045 0.884598 0.271244
0.981309 0.885862 0.377312
0.982550 0.887104 0.481472
0.983776 0.888330 0.584339
0.984991 0.889544 0.686228
0.986196 0.890749 0.787332
0.987393 0.891946 0.887780
0.988584 0.893137 0.987666
0.990141 0.990141 0.172848
0.991450 0.991450 0.282649
0.992714 0.992714 0.388717
0.993956 0.993956 0.492878
0.995182 0.995182 0.595744
0.996396 0.996396 0.697634
0.997601 0.997601 0.798737
0.998798 0.998798 0.899185
0.999989 0.999989 0.999071
