skills/appstore-swiss-grid/assets/grade/luts/soft_pastel_v05.cube
TITLE "soft_pastel_v05"
LUT_3D_SIZE 5
DOMAIN_MIN 0.0 0.0 0.0
DOMAIN_MAX 1.0 1.0 1.0
0.032213 0.030234 0.028250
0.034127 0.032148 0.255455
0.035981 0.034001 0.475557
0.037809 0.035829 0.692582
0.039601 0.037621 0.905336
0.051159 0.274343 0.047196
0.053073 0.276257 0.274400
0.054926 0.278110 0.494503
0.056754 0.279938 0.711527
0.058546 0.281730 0.924281
0.069520 0.510919 0.065557
0.071433 0.512833 0.292761
0.073287 0.514686 0.512864
0.075115 0.516514 0.729888
0.076907 0.518306 0.942642
0.087625 0.744201 0.083662
0.089539 0.746114 0.310866
0.091393 0.747968 0.530969
0.093220 0.749796 0.747993
0.095012 0.751588 0.960748
0.105224 0.970959 0.101261
0.107138 0.972873 0.328465
0.108991 0.974727 0.548568
0.110819 0.976554 0.765592
0.112611 0.978346 0.978346
0.262882 0.035863 0.033879
0.264796 0.037776 0.261083
0.266649 0.039630 0.481186
0.268477 0.041458 0.698210
0.270269 0.043250 0.910965
0.281828 0.279972 0.052824
0.283741 0.281885 0.280029
0.285595 0.283739 0.500131
0.287423 0.285567 0.717156
0.289215 0.287359 0.929910
0.300188 0.516548 0.071185
0.302102 0.518461 0.298390
0.303956 0.520315 0.518492
0.305784 0.522143 0.735517
0.307576 0.523935 0.948271
0.318294 0.749829 0.089291
0.320207 0.751743 0.316495
0.322061 0.753597 0.536598
0.323889 0.755425 0.753622
0.325681 0.757217 0.966376
0.335893 0.976588 0.106889
0.337806 0.978501 0.334094
0.339660 0.980355 0.554196
0.341488 0.982183 0.771221
0.343280 0.983975 0.983975
0.486521 0.041320 0.039336
0.488435 0.043233 0.266540
0.490288 0.045087 0.486643
0.492116 0.046915 0.703668
0.493908 0.048707 0.916422
0.505466 0.285429 0.058282
0.507380 0.287342 0.285486
0.509234 0.289196 0.505589
0.511062 0.291024 0.722613
0.512854 0.292816 0.935367
0.523827 0.522005 0.076642
0.525741 0.523918 0.303847
0.527595 0.525772 0.523949
0.529423 0.527600 0.740974
0.531215 0.529392 0.953728
0.541933 0.755287 0.094748
0.543846 0.757200 0.321952
0.545700 0.759054 0.542055
0.547528 0.760882 0.759079
0.549320 0.762674 0.971833
0.559531 0.982045 0.112347
0.561445 0.983959 0.339551
0.563299 0.985812 0.559654
0.565127 0.987640 0.776678
0.566919 0.989432 0.989432
0.707059 0.046701 0.044717
0.708973 0.048615 0.271922
0.710827 0.050469 0.492025
0.712654 0.052297 0.709049
0.714446 0.054089 0.921803
0.726005 0.290810 0.063663
0.727918 0.292724 0.290867
0.729772 0.294578 0.510970
0.731600 0.296405 0.727995
0.733392 0.298197 0.940749
0.744365 0.527386 0.082024
0.746279 0.529300 0.309228
0.748133 0.531154 0.529331
0.749961 0.532982 0.746355
0.751753 0.534774 0.959110
0.762471 0.760668 0.100129
0.764384 0.762582 0.327333
0.766238 0.764436 0.547436
0.768066 0.766263 0.764461
0.769858 0.768055 0.977215
0.780070 0.987426 0.117728
0.781983 0.989340 0.344932
0.783837 0.991194 0.565035
0.785665 0.993022 0.782060
0.787457 0.994814 0.994814
0.919602 0.051888 0.049904
0.921516 0.053801 0.277108
0.923370 0.055655 0.497211
0.925198 0.057483 0.714235
0.926989 0.059275 0.926989
0.938548 0.295996 0.068849
0.940461 0.297910 0.296054
0.942315 0.299764 0.516156
0.944143 0.301592 0.733181
0.945935 0.303384 0.945935
0.956909 0.532573 0.087210
0.958822 0.534486 0.314415
0.960676 0.536340 0.534517
0.962504 0.538168 0.751542
0.964296 0.539960 0.964296
0.975014 0.765854 0.105315
0.976927 0.767768 0.332520
0.978781 0.769622 0.552622
0.980609 0.771450 0.769647
0.982401 0.773242 0.982401
0.992613 0.992613 0.122914
0.994526 0.994526 0.350119
0.996380 0.996380 0.570221
0.998208 0.998208 0.787246
1.000000 1.000000 1.000000
