skills/appstore-swiss-grid/assets/grade/luts/trailer_punch_v13.cube
TITLE "trailer_punch_v13"
LUT_3D_SIZE 5
DOMAIN_MIN 0.0 0.0 0.0
DOMAIN_MAX 1.0 1.0 1.0
0.000000 0.000000 0.000000
0.000000 0.000000 0.223772
0.000000 0.000000 0.539082
0.000000 0.000000 0.865498
0.000000 0.000000 1.000000
0.000000 0.202249 0.000000
0.000000 0.199833 0.199833
0.000000 0.196427 0.515143
0.000000 0.192902 0.841559
0.000000 0.189709 1.000000
0.000000 0.487233 0.000000
0.000000 0.484816 0.166101
0.000000 0.481411 0.481411
0.000000 0.477886 0.807827
0.000000 0.474693 1.000000
0.000000 0.782254 0.000000
0.000000 0.779837 0.131181
0.000000 0.776432 0.446491
0.000000 0.772907 0.772907
0.000000 0.769714 1.000000
0.000000 1.000000 0.000000
0.000000 1.000000 0.099553
0.000000 1.000000 0.414863
0.000000 1.000000 0.741279
0.000000 1.000000 1.000000
0.219072 0.000000 0.000000
0.216656 0.000000 0.216656
0.213250 0.000000 0.531966
0.209725 0.000000 0.858382
0.206532 0.000000 1.000000
0.195133 0.195133 0.000000
0.192717 0.192717 0.192717
0.189311 0.189311 0.508027
0.185786 0.185786 0.834443
0.182593 0.182593 1.000000
0.161401 0.480117 0.000000
0.158985 0.477700 0.158985
0.155580 0.474295 0.474295
0.152054 0.470770 0.800711
0.148861 0.467577 1.000000
0.126482 0.775138 0.000000
0.124065 0.772721 0.124065
0.120660 0.769316 0.439375
0.117134 0.765791 0.765791
0.113942 0.762598 1.000000
0.094853 1.000000 0.000000
0.092437 1.000000 0.092437
0.089031 1.000000 0.407747
0.085506 1.000000 0.734163
0.082313 1.000000 1.000000
0.527760 0.000000 0.000000
0.525344 0.000000 0.206629
0.521939 0.000000 0.521939
0.518413 0.000000 0.848355
0.515220 0.000000 1.000000
0.503821 0.185106 0.000000
0.501405 0.182690 0.182690
0.498000 0.179284 0.498000
0.494474 0.175759 0.824415
0.491281 0.172566 1.000000
0.470090 0.470090 0.000000
0.467673 0.467673 0.148958
0.464268 0.464268 0.464268
0.460743 0.460743 0.790684
0.457550 0.457550 1.000000
0.435170 0.765111 0.000000
0.432753 0.762694 0.114038
0.429348 0.759289 0.429348
0.425823 0.755764 0.755764
0.422630 0.752571 1.000000
0.403542 1.000000 0.000000
0.401125 1.000000 0.082410
0.397720 1.000000 0.397720
0.394194 1.000000 0.724136
0.391002 1.000000 1.000000
0.847321 0.000000 0.000000
0.844905 0.000000 0.196248
0.841499 0.000000 0.511558
0.837974 0.000000 0.837974
0.834781 0.000000 1.000000
0.823382 0.174726 0.000000
0.820966 0.172309 0.172309
0.817560 0.168904 0.487619
0.814035 0.165379 0.814035
0.810842 0.162186 1.000000
0.789651 0.459709 0.000000
0.787234 0.457293 0.138577
0.783829 0.453887 0.453887
0.780303 0.450362 0.780303
0.777111 0.447169 1.000000
0.754731 0.754731 0.000000
0.752314 0.752314 0.103658
0.748909 0.748909 0.418968
0.745384 0.745384 0.745384
0.742191 0.742191 1.000000
0.723102 1.000000 0.000000
0.720686 1.000000 0.072029
0.717281 1.000000 0.387339
0.713755 1.000000 0.713755
0.710562 1.000000 1.000000
1.000000 0.000000 0.000000
1.000000 0.000000 0.186847
1.000000 0.000000 0.502157
1.000000 0.000000 0.828572
1.000000 0.000000 1.000000
1.000000 0.165324 0.000000
1.000000 0.162907 0.162907
1.000000 0.159502 0.478217
1.000000 0.155977 0.804633
1.000000 0.152784 1.000000
1.000000 0.450308 0.000000
1.000000 0.447891 0.129176
1.000000 0.444486 0.444486
1.000000 0.440960 0.770902
1.000000 0.437768 1.000000
1.000000 0.745329 0.000000
1.000000 0.742912 0.094256
1.000000 0.739507 0.409566
1.000000 0.735982 0.735982
1.000000 0.732789 1.000000
1.000000 1.000000 0.000000
1.000000 1.000000 0.062628
1.000000 1.000000 0.377938
1.000000 1.000000 0.704354
1.000000 1.000000 1.000000
