skills/appstore-swiss-grid/assets/grade/luts/trailer_punch_v13.cube
TITLE "trailer_punch_v13"
LUT_3D_SIZE 9
DOMAIN_MIN 0.0 0.0 0.0
DOMAIN_MAX 1.0 1.0 1.0
0.000000 0.000000 0.000000
0.000000 0.000000 0.074159
0.000000 0.000000 0.223772
0.000000 0.000000 0.379585
0.000000 0.000000 0.539082
0.000000 0.000000 0.701242
0.000000 0.000000 0.865498
0.000000 0.000000 1.000000
0.000000 0.000000 1.000000
0.000000 0.067026 0.000000
0.000000 0.066225 0.066225
0.000000 0.064610 0.215838
0.000000 0.062927 0.371651
0.000000 0.061204 0.531148
0.000000 0.059453 0.693308
0.000000 0.057679 0.857564
0.000000 0.055887 1.000000
0.000000 0.054486 1.000000
0.000000 0.202249 0.000000
0.000000 0.201448 0.050220
0.000000 0.199833 0.199833
0.000000 0.198150 0.355646
0.000000 0.196427 0.515143
0.000000 0.194676 0.677303
0.000000 0.192902 0.841559
0.000000 0.191110 1.000000
0.000000 0.189709 1.000000
0.000000 0.343076 0.000000
0.000000 0.342275 0.033551
0.000000 0.340659 0.183164
0.000000 0.338977 0.338977
0.000000 0.337254 0.498474
0.000000 0.335503 0.660634
0.000000 0.333729 0.824890
0.000000 0.331936 0.990880
0.000000 0.330536 1.000000
0.000000 0.487233 0.000000
0.000000 0.486432 0.016488
0.000000 0.484816 0.166101
0.000000 0.483133 0.321914
0.000000 0.481411 0.481411
0.000000 0.479660 0.643571
0.000000 0.477886 0.807827
0.000000 0.476093 0.973817
0.000000 0.474693 1.000000
0.000000 0.633796 0.000000
0.000000 0.632995 0.000000
0.000000 0.631379 0.148753
0.000000 0.629697 0.304566
0.000000 0.627974 0.464063
0.000000 0.626223 0.626223
0.000000 0.624449 0.790479
0.000000 0.622656 0.956469
0.000000 0.621256 1.000000
0.000000 0.782254 0.000000
0.000000 0.781453 0.000000
0.000000 0.779837 0.131181
0.000000 0.778155 0.286994
0.000000 0.776432 0.446491
0.000000 0.774681 0.608651
0.000000 0.772907 0.772907
0.000000 0.771114 0.938897
0.000000 0.769714 1.000000
0.000000 0.932279 0.000000
0.000000 0.931478 0.000000
0.000000 0.929862 0.113423
0.000000 0.928180 0.269236
0.000000 0.926457 0.428733
0.000000 0.924706 0.590893
0.000000 0.922932 0.755149
0.000000 0.921139 0.921139
0.000000 0.919739 1.000000
0.000000 1.000000 0.000000
0.000000 1.000000 0.000000
0.000000 1.000000 0.099553
0.000000 1.000000 0.255366
0.000000 1.000000 0.414863
0.000000 1.000000 0.577023
0.000000 1.000000 0.741279
0.000000 1.000000 0.907269
0.000000 1.000000 1.000000
0.072601 0.000000 0.000000
0.071801 0.000000 0.071801
0.070185 0.000000 0.221413
0.068502 0.000000 0.377226
0.066780 0.000000 0.536723
0.065028 0.000000 0.698883
0.063254 0.000000 0.863139
0.061462 0.000000 1.000000
0.060061 0.000000 1.000000
0.064668 0.064668 0.000000
0.063867 0.063867 0.063867
0.062251 0.062251 0.213480
0.060569 0.060569 0.369293
0.058846 0.058846 0.528790
0.057095 0.057095 0.690950
0.055321 0.055321 0.855206
0.053528 0.053528 1.000000
0.052128 0.052128 1.000000
0.048662 0.199891 0.000000
0.047862 0.199090 0.047862
0.046246 0.197474 0.197474
0.044563 0.195792 0.353287
0.042841 0.194069 0.512784
0.041089 0.192318 0.674944
0.039315 0.190544 0.839200
0.037523 0.188751 1.000000
0.036122 0.187351 1.000000
0.031994 0.340718 0.000000
0.031193 0.339917 0.031193
0.029577 0.338301 0.180806
0.027894 0.336618 0.336618
0.026172 0.334896 0.496116
0.024420 0.333145 0.658275
0.022647 0.331371 0.822532
0.020854 0.329578 0.988521
0.019454 0.328178 1.000000
0.014931 0.484875 0.000000
0.014130 0.484074 0.014130
0.012514 0.482458 0.163743
0.010831 0.480775 0.319555
0.009109 0.479053 0.479053
0.007357 0.477301 0.641212
0.005584 0.475527 0.805469
0.003791 0.473735 0.971458
0.002391 0.472335 1.000000
0.000000 0.631438 0.000000
0.000000 0.630637 0.000000
0.000000 0.629021 0.146395
0.000000 0.627338 0.302208
0.000000 0.625616 0.461705
0.000000 0.623865 0.623865
0.000000 0.622091 0.788121
0.000000 0.620298 0.954111
0.000000 0.618898 1.000000
0.000000 0.779896 0.000000
0.000000 0.779095 0.000000
0.000000 0.777479 0.128823
0.000000 0.775796 0.284636
0.000000 0.774074 0.444133
0.000000 0.772323 0.606293
0.000000 0.770549 0.770549
0.000000 0.768756 0.936539
0.000000 0.767356 1.000000
0.000000 0.929921 0.000000
0.000000 0.929120 0.000000
0.000000 0.927504 0.111065
0.000000 0.925821 0.266878
0.000000 0.924099 0.426375
0.000000 0.922348 0.588535
0.000000 0.920574 0.752791
0.000000 0.918781 0.918781
0.000000 0.917381 1.000000
0.000000 1.000000 0.000000
0.000000 1.000000 0.000000
0.000000 1.000000 0.097195
0.000000 1.000000 0.253007
0.000000 1.000000 0.412505
0.000000 1.000000 0.574664
0.000000 1.000000 0.738920
0.000000 1.000000 0.904910
0.000000 1.000000 1.000000
0.219072 0.000000 0.000000
0.218271 0.000000 0.067043
0.216656 0.000000 0.216656
0.214973 0.000000 0.372469
0.213250 0.000000 0.531966
0.211499 0.000000 0.694125
0.209725 0.000000 0.858382
0.207933 0.000000 1.000000
0.206532 0.000000 1.000000
0.211139 0.059910 0.000000
0.210338 0.059109 0.059109
0.208722 0.057494 0.208722
0.207039 0.055811 0.364535
0.205317 0.054088 0.524032
0.203566 0.052337 0.686192
0.201792 0.050563 0.850448
0.199999 0.048770 1.000000
0.198599 0.047370 1.000000
0.195133 0.195133 0.000000
0.194332 0.194332 0.043104
0.192717 0.192717 0.192717
0.191034 0.191034 0.348529
0.189311 0.189311 0.508027
0.187560 0.187560 0.670186
0.185786 0.185786 0.834443
0.183994 0.183994 1.000000
0.182593 0.182593 1.000000
0.178464 0.335960 0.000000
0.177664 0.335159 0.026435
0.176048 0.333543 0.176048
0.174365 0.331861 0.331861
0.172643 0.330138 0.491358
0.170891 0.328387 0.653518
0.169117 0.326613 0.817774
0.167325 0.324820 0.983764
0.165924 0.323420 1.000000
0.161401 0.480117 0.000000
0.160601 0.479316 0.009372
0.158985 0.477700 0.158985
0.157302 0.476017 0.314798
0.155580 0.474295 0.474295
0.153828 0.472544 0.636455
0.152054 0.470770 0.800711
0.150262 0.468977 0.966701
0.148861 0.467577 1.000000
0.144054 0.626680 0.000000
0.143253 0.625879 0.000000
0.141637 0.624263 0.141637
0.139954 0.622581 0.297450
0.138232 0.620858 0.456947
0.136480 0.619107 0.619107
0.134707 0.617333 0.783363
0.132914 0.615540 0.949353
0.131514 0.614140 1.000000
0.126482 0.775138 0.000000
0.125681 0.774337 0.000000
0.124065 0.772721 0.124065
0.122382 0.771039 0.279878
0.120660 0.769316 0.439375
0.118908 0.767565 0.601535
0.117134 0.765791 0.765791
0.115342 0.763998 0.931781
0.113942 0.762598 1.000000
0.108724 0.925163 0.000000
0.107923 0.924362 0.000000
0.106307 0.922746 0.106307
0.104625 0.921064 0.262120
0.102902 0.919341 0.421617
0.101151 0.917590 0.583777
0.099377 0.915816 0.748033
0.097584 0.914023 0.914023
0.096184 0.912623 1.000000
0.094853 1.000000 0.000000
0.094052 1.000000 0.000000
0.092437 1.000000 0.092437
0.090754 1.000000 0.248250
0.089031 1.000000 0.407747
0.087280 1.000000 0.569907
0.085506 1.000000 0.734163
0.083714 1.000000 0.900153
0.082313 1.000000 1.000000
0.371613 0.000000 0.000000
0.370812 0.000000 0.062088
0.369196 0.000000 0.211701
0.367514 0.000000 0.367514
0.365791 0.000000 0.527011
0.364040 0.000000 0.689171
0.362266 0.000000 0.853427
0.360473 0.000000 1.000000
0.359073 0.000000 1.000000
0.363679 0.054955 0.000000
0.362879 0.054154 0.054154
0.361263 0.052539 0.203767
0.359580 0.050856 0.359580
0.357858 0.049133 0.519077
0.356106 0.047382 0.681237
0.354332 0.045608 0.845493
0.352540 0.043815 1.000000
0.351139 0.042415 1.000000
0.347674 0.190178 0.000000
0.346873 0.189377 0.038149
0.345257 0.187762 0.187762
0.343574 0.186079 0.343574
0.341852 0.184356 0.503072
0.340101 0.182605 0.665231
0.338327 0.180831 0.829488
0.336534 0.179039 0.995478
0.335134 0.177638 1.000000
0.331005 0.331005 0.000000
0.330204 0.330204 0.021480
0.328588 0.328588 0.171093
0.326906 0.326906 0.326906
0.325183 0.325183 0.486403
0.323432 0.323432 0.648563
0.321658 0.321658 0.812819
0.319865 0.319865 0.978809
0.318465 0.318465 1.000000
0.313942 0.475162 0.000000
0.313141 0.474361 0.004417
0.311525 0.472745 0.154030
0.309843 0.471062 0.309843
0.308120 0.469340 0.469340
0.306369 0.467589 0.631500
0.304595 0.465815 0.795756
0.302802 0.464022 0.961746
0.301402 0.462622 1.000000
0.296594 0.621725 0.000000
0.295793 0.620924 0.000000
0.294178 0.619308 0.136682
0.292495 0.617626 0.292495
0.290772 0.615903 0.451992
0.289021 0.614152 0.614152
0.287247 0.612378 0.778408
0.285455 0.610585 0.944398
0.284054 0.609185 1.000000
0.279022 0.770183 0.000000
0.278221 0.769382 0.000000
0.276606 0.767766 0.119110
0.274923 0.766084 0.274923
0.273200 0.764361 0.434420
0.271449 0.762610 0.596580
0.269675 0.760836 0.760836
0.267882 0.759043 0.926826
0.266482 0.757643 1.000000
0.261265 0.920208 0.000000
0.260464 0.919407 0.000000
0.258848 0.917791 0.101352
0.257165 0.916109 0.257165
0.255443 0.914386 0.416662
0.253691 0.912635 0.578822
0.251918 0.910861 0.743078
0.250125 0.909068 0.909068
0.248725 0.907668 1.000000
0.247394 1.000000 0.000000
0.246593 1.000000 0.000000
0.244977 1.000000 0.087482
0.243295 1.000000 0.243295
0.241572 1.000000 0.402792
0.239821 1.000000 0.564952
0.238047 1.000000 0.729208
0.236254 1.000000 0.895198
0.234854 1.000000 1.000000
0.527760 0.000000 0.000000
0.526960 0.000000 0.057016
0.525344 0.000000 0.206629
0.523661 0.000000 0.362441
0.521939 0.000000 0.521939
0.520187 0.000000 0.684098
0.518413 0.000000 0.848355
0.516621 0.000000 1.000000
0.515220 0.000000 1.000000
0.519827 0.049883 0.000000
0.519026 0.049082 0.049082
0.517410 0.047466 0.198695
0.515728 0.045784 0.354508
0.514005 0.044061 0.514005
0.512254 0.042310 0.676165
0.510480 0.040536 0.840421
0.508687 0.038743 1.000000
0.507287 0.037343 1.000000
0.503821 0.185106 0.000000
0.503021 0.184305 0.033077
0.501405 0.182690 0.182690
0.499722 0.181007 0.338502
0.498000 0.179284 0.498000
0.496248 0.177533 0.660159
0.494474 0.175759 0.824415
0.492682 0.173966 0.990405
0.491281 0.172566 1.000000
0.487153 0.325933 0.000000
0.486352 0.325132 0.016408
0.484736 0.323516 0.166021
0.483053 0.321834 0.321834
0.481331 0.320111 0.481331
0.479579 0.318360 0.643491
0.477805 0.316586 0.807747
0.476013 0.314793 0.973737
0.474613 0.313393 1.000000
0.470090 0.470090 0.000000
0.469289 0.469289 0.000000
0.467673 0.467673 0.148958
0.465990 0.465990 0.304771
0.464268 0.464268 0.464268
0.462516 0.462516 0.626428
0.460743 0.460743 0.790684
0.458950 0.458950 0.956674
0.457550 0.457550 1.000000
0.452742 0.616653 0.000000
0.451941 0.615852 0.000000
0.450325 0.614236 0.131610
0.448642 0.612554 0.287423
0.446920 0.610831 0.446920
0.445169 0.609080 0.609080
0.443395 0.607306 0.773336
0.441602 0.605513 0.939326
0.440202 0.604113 1.000000
0.435170 0.765111 0.000000
0.434369 0.764310 0.000000
0.432753 0.762694 0.114038
0.431070 0.761012 0.269851
0.429348 0.759289 0.429348
0.427597 0.757538 0.591508
0.425823 0.755764 0.755764
0.424030 0.753971 0.921754
0.422630 0.752571 1.000000
0.417412 0.915136 0.000000
0.416611 0.914335 0.000000
0.414995 0.912719 0.096280
0.413313 0.911036 0.252093
0.411590 0.909314 0.411590
0.409839 0.907563 0.573750
0.408065 0.905789 0.738006
0.406272 0.903996 0.903996
0.404872 0.902596 1.000000
0.403542 1.000000 0.000000
0.402741 1.000000 0.000000
0.401125 1.000000 0.082410
0.399442 1.000000 0.238222
0.397720 1.000000 0.397720
0.395968 1.000000 0.559879
0.394194 1.000000 0.724136
0.392402 1.000000 0.890125
0.391002 1.000000 1.000000
0.686515 0.000000 0.000000
0.685714 0.000000 0.051859
0.684098 0.000000 0.201472
0.682415 0.000000 0.357285
0.680693 0.000000 0.516782
0.678942 0.000000 0.678942
0.677168 0.000000 0.843198
0.675375 0.000000 1.000000
0.673975 0.000000 1.000000
0.678581 0.044726 0.000000
0.677780 0.043925 0.043925
0.676165 0.042310 0.193538
0.674482 0.040627 0.349351
0.672759 0.038904 0.508848
0.671008 0.037153 0.671008
0.669234 0.035379 0.835264
0.667442 0.033587 1.000000
0.666041 0.032186 1.000000
0.662576 0.179949 0.000000
0.661775 0.179148 0.027920
0.660159 0.177533 0.177533
0.658476 0.175850 0.333346
0.656754 0.174127 0.492843
0.655003 0.172376 0.655003
0.653229 0.170602 0.819259
0.651436 0.168810 0.985249
0.650036 0.167409 1.000000
0.645907 0.320776 0.000000
0.645106 0.319975 0.011251
0.643490 0.318359 0.160864
0.641808 0.316677 0.316677
0.640085 0.314954 0.476174
0.638334 0.313203 0.638334
0.636560 0.311429 0.802590
0.634767 0.309636 0.968580
0.633367 0.308236 1.000000
0.628844 0.464933 0.000000
0.628043 0.464132 0.000000
0.626427 0.462516 0.143801
0.624745 0.460833 0.299614
0.623022 0.459111 0.459111
0.621271 0.457360 0.621271
0.619497 0.455586 0.785527
0.617704 0.453793 0.951517
0.616304 0.452393 1.000000
0.611496 0.611496 0.000000
0.610695 0.610695 0.000000
0.609079 0.609079 0.126453
0.607397 0.607397 0.282266
0.605674 0.605674 0.441763
0.603923 0.603923 0.603923
0.602149 0.602149 0.768179
0.600356 0.600356 0.934169
0.598956 0.598956 1.000000
0.593924 0.759954 0.000000
0.593123 0.759153 0.000000
0.591507 0.757537 0.108881
0.589825 0.755855 0.264694
0.588102 0.754132 0.424191
0.586351 0.752381 0.586351
0.584577 0.750607 0.750607
0.582784 0.748814 0.916597
0.581384 0.747414 1.000000
0.576166 0.909979 0.000000
0.575366 0.909178 0.000000
0.573750 0.907562 0.091123
0.572067 0.905880 0.246936
0.570345 0.904157 0.406433
0.568593 0.902406 0.568593
0.566819 0.900632 0.732849
0.565027 0.898839 0.898839
0.563626 0.897439 1.000000
0.562296 1.000000 0.000000
0.561495 1.000000 0.000000
0.559879 1.000000 0.077253
0.558196 1.000000 0.233066
0.556474 1.000000 0.392563
0.554723 1.000000 0.554723
0.552949 1.000000 0.718979
0.551156 1.000000 0.884969
0.549756 1.000000 1.000000
0.847321 0.000000 0.000000
0.846520 0.000000 0.046635
0.844905 0.000000 0.196248
0.843222 0.000000 0.352061
0.841499 0.000000 0.511558
0.839748 0.000000 0.673718
0.837974 0.000000 0.837974
0.836182 0.000000 1.000000
0.834781 0.000000 1.000000
0.839388 0.039503 0.000000
0.838587 0.038702 0.038702
0.836971 0.037086 0.188315
0.835288 0.035403 0.344128
0.833566 0.033681 0.503625
0.831815 0.031930 0.665785
0.830041 0.030156 0.830041
0.828248 0.028363 0.996031
0.826848 0.026963 1.000000
0.823382 0.174726 0.000000
0.822581 0.173925 0.022696
0.820966 0.172309 0.172309
0.819283 0.170626 0.328122
0.817560 0.168904 0.487619
0.815809 0.167153 0.649779
0.814035 0.165379 0.814035
0.812243 0.163586 0.980025
0.810842 0.162186 1.000000
0.806714 0.315553 0.000000
0.805913 0.314752 0.006028
0.804297 0.313136 0.155640
0.802614 0.311453 0.311453
0.800892 0.309731 0.470950
0.799140 0.307979 0.633110
0.797366 0.306206 0.797366
0.795574 0.304413 0.963356
0.794174 0.303013 1.000000
0.789651 0.459709 0.000000
0.788850 0.458908 0.000000
0.787234 0.457293 0.138577
0.785551 0.455610 0.294390
0.783829 0.453887 0.453887
0.782077 0.452136 0.616047
0.780303 0.450362 0.780303
0.778511 0.448570 0.946293
0.777111 0.447169 1.000000
0.772303 0.606273 0.000000
0.771502 0.605472 0.000000
0.769886 0.603856 0.121230
0.768203 0.602173 0.277042
0.766481 0.600451 0.436540
0.764730 0.598699 0.598699
0.762956 0.596926 0.762956
0.761163 0.595133 0.928945
0.759763 0.593733 1.000000
0.754731 0.754731 0.000000
0.753930 0.753930 0.000000
0.752314 0.752314 0.103658
0.750631 0.750631 0.259470
0.748909 0.748909 0.418968
0.747157 0.747157 0.581127
0.745384 0.745384 0.745384
0.743591 0.743591 0.911373
0.742191 0.742191 1.000000
0.736973 0.904756 0.000000
0.736172 0.903955 0.000000
0.734556 0.902339 0.085900
0.732874 0.900656 0.241713
0.731151 0.898934 0.401210
0.729400 0.897182 0.563370
0.727626 0.895408 0.727626
0.725833 0.893616 0.893616
0.724433 0.892216 1.000000
0.723102 1.000000 0.000000
0.722302 1.000000 0.000000
0.720686 1.000000 0.072029
0.719003 1.000000 0.227842
0.717281 1.000000 0.387339
0.715529 1.000000 0.549499
0.713755 1.000000 0.713755
0.711963 1.000000 0.879745
0.710562 1.000000 1.000000
1.000000 0.000000 0.000000
1.000000 0.000000 0.041357
1.000000 0.000000 0.190970
1.000000 0.000000 0.346783
1.000000 0.000000 0.506280
1.000000 0.000000 0.668440
1.000000 0.000000 0.832696
0.998686 0.000000 0.998686
0.997285 0.000000 1.000000
1.000000 0.034224 0.000000
1.000000 0.033423 0.033423
0.999475 0.031808 0.183036
0.997792 0.030125 0.338849
0.996070 0.028402 0.498346
0.994319 0.026651 0.660506
0.992545 0.024877 0.824762
0.990752 0.023084 0.990752
0.989352 0.021684 1.000000
0.985886 0.169447 0.000000
0.985085 0.168646 0.017418
0.983470 0.167031 0.167031
0.981787 0.165348 0.322843
0.980064 0.163625 0.482341
0.978313 0.161874 0.644500
0.976539 0.160100 0.808757
0.974747 0.158308 0.974747
0.973346 0.156907 1.000000
0.969217 0.310274 0.000000
0.968417 0.309473 0.000749
0.966801 0.307857 0.150362
0.965118 0.306175 0.306175
0.963396 0.304452 0.465672
0.961644 0.302701 0.627832
0.959870 0.300927 0.792088
0.958078 0.299134 0.958078
0.956677 0.297734 1.000000
0.952154 0.454431 0.000000
0.951354 0.453630 0.000000
0.949738 0.452014 0.133299
0.948055 0.450331 0.289112
0.946333 0.448609 0.448609
0.944581 0.446858 0.610769
0.942807 0.445084 0.775025
0.941015 0.443291 0.941015
0.939614 0.441891 1.000000
0.934807 0.600994 0.000000
0.934006 0.600193 0.000000
0.932390 0.598577 0.115951
0.930707 0.596895 0.271764
0.928985 0.595172 0.431261
0.927233 0.593421 0.593421
0.925460 0.591647 0.757677
0.923667 0.589854 0.923667
0.922267 0.588454 1.000000
0.917235 0.749452 0.000000
0.916434 0.748651 0.000000
0.914818 0.747035 0.098379
0.913135 0.745353 0.254192
0.911413 0.743630 0.413689
0.909661 0.741879 0.575849
0.907887 0.740105 0.740105
0.906095 0.738312 0.906095
0.904695 0.736912 1.000000
0.899477 0.899477 0.000000
0.898676 0.898676 0.000000
0.897060 0.897060 0.080621
0.895378 0.895378 0.236434
0.893655 0.893655 0.395931
0.891904 0.891904 0.558091
0.890130 0.890130 0.722347
0.888337 0.888337 0.888337
0.886937 0.886937 1.000000
0.885606 1.000000 0.000000
0.884805 1.000000 0.000000
0.883190 1.000000 0.066751
0.881507 1.000000 0.222564
0.879784 1.000000 0.382061
0.878033 1.000000 0.544221
0.876259 1.000000 0.708477
0.874467 1.000000 0.874467
0.873066 1.000000 1.000000
1.000000 0.000000 0.000000
1.000000 0.000000 0.037234
1.000000 0.000000 0.186847
1.000000 0.000000 0.342659
1.000000 0.000000 0.502157
1.000000 0.000000 0.664316
1.000000 0.000000 0.828572
1.000000 0.000000 0.994562
1.000000 0.000000 1.000000
1.000000 0.030101 0.000000
1.000000 0.029300 0.029300
1.000000 0.027684 0.178913
1.000000 0.026002 0.334726
1.000000 0.024279 0.494223
1.000000 0.022528 0.656383
1.000000 0.020754 0.820639
1.000000 0.018961 0.986629
1.000000 0.017561 1.000000
1.000000 0.165324 0.000000
1.000000 0.164523 0.013295
1.000000 0.162907 0.162907
1.000000 0.161225 0.318720
1.000000 0.159502 0.478217
1.000000 0.157751 0.640377
1.000000 0.155977 0.804633
1.000000 0.154184 0.970623
1.000000 0.152784 1.000000
1.000000 0.306151 0.000000
1.000000 0.305350 0.000000
1.000000 0.303734 0.146239
1.000000 0.302051 0.302051
1.000000 0.300329 0.461549
1.000000 0.298578 0.623708
1.000000 0.296804 0.787965
1.000000 0.295011 0.953955
1.000000 0.293611 1.000000
1.000000 0.450308 0.000000
1.000000 0.449507 0.000000
1.000000 0.447891 0.129176
1.000000 0.446208 0.284989
1.000000 0.444486 0.444486
1.000000 0.442734 0.606645
1.000000 0.440960 0.770902
1.000000 0.439168 0.936892
1.000000 0.437768 1.000000
1.000000 0.596871 0.000000
1.000000 0.596070 0.000000
1.000000 0.594454 0.111828
1.000000 0.592771 0.267641
1.000000 0.591049 0.427138
1.000000 0.589298 0.589298
1.000000 0.587524 0.753554
1.000000 0.585731 0.919544
1.000000 0.584331 1.000000
1.000000 0.745329 0.000000
1.000000 0.744528 0.000000
1.000000 0.742912 0.094256
1.000000 0.741229 0.250069
1.000000 0.739507 0.409566
1.000000 0.737756 0.571726
1.000000 0.735982 0.735982
1.000000 0.734189 0.901972
1.000000 0.732789 1.000000
1.000000 0.895354 0.000000
1.000000 0.894553 0.000000
1.000000 0.892937 0.076498
1.000000 0.891254 0.232311
1.000000 0.889532 0.391808
1.000000 0.887781 0.553968
1.000000 0.886007 0.718224
1.000000 0.884214 0.884214
1.000000 0.882814 1.000000
1.000000 1.000000 0.000000
1.000000 1.000000 0.000000
1.000000 1.000000 0.062628
1.000000 1.000000 0.218440
1.000000 1.000000 0.377938
1.000000 1.000000 0.540097
1.000000 1.000000 0.704354
1.000000 1.000000 0.870343
1.000000 1.000000 1.000000
