skills/appstore-swiss-grid/assets/grade/luts/trailer_punch_v13.cube
TITLE "trailer_punch_v13"
LUT_3D_SIZE 17
DOMAIN_MIN 0.0 0.0 0.0
DOMAIN_MAX 1.0 1.0 1.0
0.000000 0.000000 0.000000
0.000000 0.000000 0.005109
0.000000 0.000000 0.074159
0.000000 0.000000 0.147885
0.000000 0.000000 0.223772
0.000000 0.000000 0.301121
0.000000 0.000000 0.379585
0.000000 0.000000 0.458952
0.000000 0.000000 0.539082
0.000000 0.000000 0.619871
0.000000 0.000000 0.701242
0.000000 0.000000 0.783134
0.000000 0.000000 0.865498
0.000000 0.000000 0.948294
0.000000 0.000000 1.000000
0.000000 0.000000 1.000000
0.000000 0.000000 1.000000
0.000000 0.004618 0.000000
0.000000 0.004563 0.004563
0.000000 0.003817 0.073612
0.000000 0.003021 0.147339
0.000000 0.002201 0.223225
0.000000 0.001366 0.300574
0.000000 0.000518 0.379038
0.000000 0.000000 0.458406
0.000000 0.000000 0.538535
0.000000 0.000000 0.619324
0.000000 0.000000 0.700695
0.000000 0.000000 0.782587
0.000000 0.000000 0.864951
0.000000 0.000000 0.947747
0.000000 0.000000 1.000000
0.000000 0.000000 1.000000
0.000000 0.000000 1.000000
0.000000 0.067026 0.000000
0.000000 0.066971 0.000000
0.000000 0.066225 0.066225
0.000000 0.065429 0.139952
0.000000 0.064610 0.215838
0.000000 0.063774 0.293187
0.000000 0.062927 0.371651
0.000000 0.062070 0.451019
0.000000 0.061204 0.531148
0.000000 0.060332 0.611937
0.000000 0.059453 0.693308
0.000000 0.058569 0.775200
0.000000 0.057679 0.857564
0.000000 0.056785 0.940360
0.000000 0.055887 1.000000
0.000000 0.054984 1.000000
0.000000 0.054486 1.000000
0.000000 0.133662 0.000000
0.000000 0.133606 0.000000
0.000000 0.132861 0.058338
0.000000 0.132064 0.132064
0.000000 0.131245 0.207951
0.000000 0.130410 0.285300
0.000000 0.129562 0.363764
0.000000 0.128705 0.443132
0.000000 0.127840 0.523261
0.000000 0.126967 0.604050
0.000000 0.126088 0.685421
0.000000 0.125204 0.767313
0.000000 0.124314 0.849677
0.000000 0.123420 0.932473
0.000000 0.122522 1.000000
0.000000 0.121619 1.000000
0.000000 0.121122 1.000000
0.000000 0.202249 0.000000
0.000000 0.202194 0.000000
0.000000 0.201448 0.050220
0.000000 0.200652 0.123946
0.000000 0.199833 0.199833
0.000000 0.198997 0.277182
0.000000 0.198150 0.355646
0.000000 0.197293 0.435013
0.000000 0.196427 0.515143
0.000000 0.195555 0.595932
0.000000 0.194676 0.677303
0.000000 0.193792 0.759195
0.000000 0.192902 0.841559
0.000000 0.192008 0.924355
0.000000 0.191110 1.000000
0.000000 0.190207 1.000000
0.000000 0.189709 1.000000
0.000000 0.272159 0.000000
0.000000 0.272104 0.000000
0.000000 0.271358 0.041945
0.000000 0.270562 0.115671
0.000000 0.269742 0.191558
0.000000 0.268907 0.268907
0.000000 0.268060 0.347371
0.000000 0.267203 0.426738
0.000000 0.266337 0.506868
0.000000 0.265465 0.587657
0.000000 0.264586 0.669028
0.000000 0.263701 0.750920
0.000000 0.262812 0.833284
0.000000 0.261918 0.916080
0.000000 0.261019 0.999274
0.000000 0.260117 1.000000
0.000000 0.259619 1.000000
0.000000 0.343076 0.000000
0.000000 0.343021 0.000000
0.000000 0.342275 0.033551
0.000000 0.341479 0.107277
0.000000 0.340659 0.183164
0.000000 0.339824 0.260513
0.000000 0.338977 0.338977
0.000000 0.338120 0.418344
0.000000 0.337254 0.498474
0.000000 0.336382 0.579263
0.000000 0.335503 0.660634
0.000000 0.334619 0.742526
0.000000 0.333729 0.824890
0.000000 0.332835 0.907686
0.000000 0.331936 0.990880
0.000000 0.331034 1.000000
0.000000 0.330536 1.000000
0.000000 0.414810 0.000000
0.000000 0.414755 0.000000
0.000000 0.414009 0.025060
0.000000 0.413213 0.098787
0.000000 0.412394 0.174673
0.000000 0.411558 0.252022
0.000000 0.410711 0.330486
0.000000 0.409854 0.409854
0.000000 0.408988 0.489983
0.000000 0.408116 0.570772
0.000000 0.407237 0.652143
0.000000 0.406353 0.734035
0.000000 0.405463 0.816399
0.000000 0.404569 0.899195
0.000000 0.403670 0.982389
0.000000 0.402768 1.000000
0.000000 0.402270 1.000000
0.000000 0.487233 0.000000
0.000000 0.487178 0.000000
0.000000 0.486432 0.016488
0.000000 0.485636 0.090214
0.000000 0.484816 0.166101
0.000000 0.483981 0.243450
0.000000 0.483133 0.321914
0.000000 0.482276 0.401281
0.000000 0.481411 0.481411
0.000000 0.480538 0.562200
0.000000 0.479660 0.643571
0.000000 0.478775 0.725463
0.000000 0.477886 0.807827
0.000000 0.476992 0.890623
0.000000 0.476093 0.973817
0.000000 0.475191 1.000000
0.000000 0.474693 1.000000
0.000000 0.560252 0.000000
0.000000 0.560196 0.000000
0.000000 0.559451 0.007845
0.000000 0.558654 0.081572
0.000000 0.557835 0.157458
0.000000 0.556999 0.234807
0.000000 0.556152 0.313271
0.000000 0.555295 0.392639
0.000000 0.554430 0.472768
0.000000 0.553557 0.553557
0.000000 0.552678 0.634928
0.000000 0.551794 0.716820
0.000000 0.550904 0.799184
0.000000 0.550010 0.881980
0.000000 0.549112 0.965174
0.000000 0.548209 1.000000
0.000000 0.547712 1.000000
0.000000 0.633796 0.000000
0.000000 0.633741 0.000000
0.000000 0.632995 0.000000
0.000000 0.632199 0.072866
0.000000 0.631379 0.148753
0.000000 0.630544 0.226102
0.000000 0.629697 0.304566
0.000000 0.628840 0.383934
0.000000 0.627974 0.464063
0.000000 0.627102 0.544852
0.000000 0.626223 0.626223
0.000000 0.625339 0.708115
0.000000 0.624449 0.790479
0.000000 0.623555 0.873275
0.000000 0.622656 0.956469
0.000000 0.621754 1.000000
0.000000 0.621256 1.000000
0.000000 0.707812 0.000000
0.000000 0.707757 0.000000
0.000000 0.707011 0.000000
0.000000 0.706215 0.064106
0.000000 0.705395 0.139992
0.000000 0.704560 0.217341
0.000000 0.703712 0.295805
0.000000 0.702855 0.375173
0.000000 0.701990 0.455302
0.000000 0.701117 0.536091
0.000000 0.700239 0.617462
0.000000 0.699354 0.699354
0.000000 0.698465 0.781718
0.000000 0.697570 0.864514
0.000000 0.696672 0.947708
0.000000 0.695770 1.000000
0.000000 0.695272 1.000000
0.000000 0.782254 0.000000
0.000000 0.782199 0.000000
0.000000 0.781453 0.000000
0.000000 0.780657 0.055294
0.000000 0.779837 0.131181
0.000000 0.779002 0.208530
0.000000 0.778155 0.286994
0.000000 0.777298 0.366361
0.000000 0.776432 0.446491
0.000000 0.775560 0.527280
0.000000 0.774681 0.608651
0.000000 0.773797 0.690543
0.000000 0.772907 0.772907
0.000000 0.772013 0.855703
0.000000 0.771114 0.938897
0.000000 0.770212 1.000000
0.000000 0.769714 1.000000
0.000000 0.857087 0.000000
0.000000 0.857032 0.000000
0.000000 0.856286 0.000000
0.000000 0.855490 0.046437
0.000000 0.854670 0.122324
0.000000 0.853835 0.199673
0.000000 0.852987 0.278136
0.000000 0.852130 0.357504
0.000000 0.851265 0.437634
0.000000 0.850392 0.518422
0.000000 0.849514 0.599793
0.000000 0.848629 0.681685
0.000000 0.847740 0.764050
0.000000 0.846845 0.846845
0.000000 0.845947 0.930039
0.000000 0.845045 1.000000
0.000000 0.844547 1.000000
0.000000 0.932279 0.000000
0.000000 0.932224 0.000000
0.000000 0.931478 0.000000
0.000000 0.930682 0.037537
0.000000 0.929862 0.113423
0.000000 0.929027 0.190773
0.000000 0.928180 0.269236
0.000000 0.927323 0.348604
0.000000 0.926457 0.428733
0.000000 0.925585 0.509522
0.000000 0.924706 0.590893
0.000000 0.923821 0.672785
0.000000 0.922932 0.755149
0.000000 0.922038 0.837945
0.000000 0.921139 0.921139
0.000000 0.920237 1.000000
0.000000 0.919739 1.000000
0.000000 1.000000 0.000000
0.000000 1.000000 0.000000
0.000000 1.000000 0.000000
0.000000 1.000000 0.028597
0.000000 1.000000 0.104484
0.000000 1.000000 0.181833
0.000000 1.000000 0.260297
0.000000 1.000000 0.339664
0.000000 1.000000 0.419794
0.000000 1.000000 0.500583
0.000000 1.000000 0.581954
0.000000 0.999348 0.663846
0.000000 0.998458 0.746210
0.000000 0.997564 0.829006
0.000000 0.996665 0.912200
0.000000 0.995763 0.995763
0.000000 0.995265 1.000000
0.000000 1.000000 0.000000
0.000000 1.000000 0.000000
0.000000 1.000000 0.000000
0.000000 1.000000 0.023666
0.000000 1.000000 0.099553
0.000000 1.000000 0.176902
0.000000 1.000000 0.255366
0.000000 1.000000 0.334733
0.000000 1.000000 0.414863
0.000000 1.000000 0.495652
0.000000 1.000000 0.577023
0.000000 1.000000 0.658915
0.000000 1.000000 0.741279
0.000000 1.000000 0.824075
0.000000 1.000000 0.907269
0.000000 1.000000 0.990832
0.000000 1.000000 1.000000
0.005002 0.000000 0.000000
0.004947 0.000000 0.004947
0.004201 0.000000 0.073996
0.003405 0.000000 0.147723
0.002585 0.000000 0.223609
0.001750 0.000000 0.300958
0.000902 0.000000 0.379422
0.000045 0.000000 0.458790
0.000000 0.000000 0.538919
0.000000 0.000000 0.619708
0.000000 0.000000 0.701079
0.000000 0.000000 0.782971
0.000000 0.000000 0.865335
0.000000 0.000000 0.948131
0.000000 0.000000 1.000000
0.000000 0.000000 1.000000
0.000000 0.000000 1.000000
0.004455 0.004455 0.000000
0.004400 0.004400 0.004400
0.003654 0.003654 0.073450
0.002858 0.002858 0.147176
0.002039 0.002039 0.223063
0.001203 0.001203 0.300412
0.000356 0.000356 0.378876
0.000000 0.000000 0.458243
0.000000 0.000000 0.538373
0.000000 0.000000 0.619162
0.000000 0.000000 0.700533
0.000000 0.000000 0.782425
0.000000 0.000000 0.864789
0.000000 0.000000 0.947585
0.000000 0.000000 1.000000
0.000000 0.000000 1.000000
0.000000 0.000000 1.000000
0.000000 0.066864 0.000000
0.000000 0.066809 0.000000
0.000000 0.066063 0.066063
0.000000 0.065267 0.139789
0.000000 0.064447 0.215676
0.000000 0.063612 0.293025
0.000000 0.062764 0.371489
0.000000 0.061907 0.450856
0.000000 0.061042 0.530986
0.000000 0.060169 0.611775
0.000000 0.059291 0.693146
0.000000 0.058406 0.775038
0.000000 0.057517 0.857402
0.000000 0.056623 0.940198
0.000000 0.055724 1.000000
0.000000 0.054822 1.000000
0.000000 0.054324 1.000000
0.000000 0.133499 0.000000
0.000000 0.133444 0.000000
0.000000 0.132698 0.058176
0.000000 0.131902 0.131902
0.000000 0.131082 0.207789
0.000000 0.130247 0.285138
0.000000 0.129400 0.363601
0.000000 0.128543 0.442969
0.000000 0.127677 0.523099
0.000000 0.126805 0.603888
0.000000 0.125926 0.685258
0.000000 0.125041 0.767150
0.000000 0.124152 0.849515
0.000000 0.123258 0.932311
0.000000 0.122359 1.000000
0.000000 0.121457 1.000000
0.000000 0.120959 1.000000
0.000000 0.202087 0.000000
0.000000 0.202032 0.000000
0.000000 0.201286 0.050057
0.000000 0.200490 0.123784
0.000000 0.199670 0.199670
0.000000 0.198835 0.277019
0.000000 0.197988 0.355483
0.000000 0.197130 0.434851
0.000000 0.196265 0.514980
0.000000 0.195392 0.595769
0.000000 0.194514 0.677140
0.000000 0.193629 0.759032
0.000000 0.192740 0.841396
0.000000 0.191846 0.924192
0.000000 0.190947 1.000000
0.000000 0.190045 1.000000
0.000000 0.189547 1.000000
0.000000 0.271997 0.000000
0.000000 0.271941 0.000000
0.000000 0.271196 0.041783
0.000000 0.270399 0.115509
0.000000 0.269580 0.191395
0.000000 0.268745 0.268745
0.000000 0.267897 0.347208
0.000000 0.267040 0.426576
0.000000 0.266175 0.506705
0.000000 0.265302 0.587494
0.000000 0.264423 0.668865
0.000000 0.263539 0.750757
0.000000 0.262649 0.833121
0.000000 0.261755 0.915917
0.000000 0.260857 0.999111
0.000000 0.259954 1.000000
0.000000 0.259457 1.000000
0.000000 0.342914 0.000000
0.000000 0.342858 0.000000
0.000000 0.342113 0.033389
0.000000 0.341317 0.107115
0.000000 0.340497 0.183001
0.000000 0.339662 0.260351
0.000000 0.338814 0.338814
0.000000 0.337957 0.418182
0.000000 0.337092 0.498311
0.000000 0.336219 0.579100
0.000000 0.335340 0.660471
0.000000 0.334456 0.742363
0.000000 0.333567 0.824727
0.000000 0.332672 0.907523
0.000000 0.331774 0.990717
0.000000 0.330871 1.000000
0.000000 0.330374 1.000000
0.000000 0.414648 0.000000
0.000000 0.414593 0.000000
0.000000 0.413847 0.024898
0.000000 0.413051 0.098624
0.000000 0.412231 0.174511
0.000000 0.411396 0.251860
0.000000 0.410548 0.330324
0.000000 0.409691 0.409691
0.000000 0.408826 0.489821
0.000000 0.407953 0.570610
0.000000 0.407075 0.651981
0.000000 0.406190 0.733873
0.000000 0.405301 0.816237
0.000000 0.404406 0.899033
0.000000 0.403508 0.982227
0.000000 0.402606 1.000000
0.000000 0.402108 1.000000
0.000000 0.487070 0.000000
0.000000 0.487015 0.000000
0.000000 0.486269 0.016326
0.000000 0.485473 0.090052
0.000000 0.484654 0.165938
0.000000 0.483818 0.243288
0.000000 0.482971 0.321751
0.000000 0.482114 0.401119
0.000000 0.481248 0.481248
0.000000 0.480376 0.562037
0.000000 0.479497 0.643408
0.000000 0.478613 0.725300
0.000000 0.477723 0.807664
0.000000 0.476829 0.890460
0.000000 0.475931 0.973654
0.000000 0.475028 1.000000
0.000000 0.474530 1.000000
0.000000 0.560089 0.000000
0.000000 0.560034 0.000000
0.000000 0.559288 0.007683
0.000000 0.558492 0.081409
0.000000 0.557672 0.157296
0.000000 0.556837 0.234645
0.000000 0.555990 0.313109
0.000000 0.555132 0.392476
0.000000 0.554267 0.472606
0.000000 0.553395 0.553395
0.000000 0.552516 0.634765
0.000000 0.551631 0.716658
0.000000 0.550742 0.799022
0.000000 0.549848 0.881818
0.000000 0.548949 0.965012
0.000000 0.548047 1.000000
0.000000 0.547549 1.000000
0.000000 0.633634 0.000000
0.000000 0.633578 0.000000
0.000000 0.632833 0.000000
0.000000 0.632037 0.072704
0.000000 0.631217 0.148591
0.000000 0.630382 0.225940
0.000000 0.629534 0.304403
0.000000 0.628677 0.383771
0.000000 0.627812 0.463901
0.000000 0.626939 0.544690
0.000000 0.626060 0.626060
0.000000 0.625176 0.707952
0.000000 0.624287 0.790317
0.000000 0.623392 0.873113
0.000000 0.622494 0.956307
0.000000 0.621591 1.000000
0.000000 0.621094 1.000000
0.000000 0.707649 0.000000
0.000000 0.707594 0.000000
0.000000 0.706848 0.000000
0.000000 0.706052 0.063943
0.000000 0.705233 0.139830
0.000000 0.704397 0.217179
0.000000 0.703550 0.295643
0.000000 0.702693 0.375010
0.000000 0.701827 0.455140
0.000000 0.700955 0.535929
0.000000 0.700076 0.617300
0.000000 0.699192 0.699192
0.000000 0.698302 0.781556
0.000000 0.697408 0.864352
0.000000 0.696510 0.947546
0.000000 0.695607 1.000000
0.000000 0.695109 1.000000
0.000000 0.782092 0.000000
0.000000 0.782036 0.000000
0.000000 0.781291 0.000000
0.000000 0.780495 0.055132
0.000000 0.779675 0.131019
0.000000 0.778840 0.208368
0.000000 0.777992 0.286831
0.000000 0.777135 0.366199
0.000000 0.776270 0.446329
0.000000 0.775397 0.527117
0.000000 0.774518 0.608488
0.000000 0.773634 0.690380
0.000000 0.772745 0.772745
0.000000 0.771850 0.855540
0.000000 0.770952 0.938734
0.000000 0.770049 1.000000
0.000000 0.769552 1.000000
0.000000 0.856924 0.000000
0.000000 0.856869 0.000000
0.000000 0.856123 0.000000
0.000000 0.855327 0.046274
0.000000 0.854508 0.122161
0.000000 0.853672 0.199510
0.000000 0.852825 0.277974
0.000000 0.851968 0.357342
0.000000 0.851102 0.437471
0.000000 0.850230 0.518260
0.000000 0.849351 0.599631
0.000000 0.848467 0.681523
0.000000 0.847577 0.763887
0.000000 0.846683 0.846683
0.000000 0.845785 0.929877
0.000000 0.844882 1.000000
0.000000 0.844384 1.000000
0.000000 0.932117 0.000000
0.000000 0.932061 0.000000
0.000000 0.931316 0.000000
0.000000 0.930519 0.037374
0.000000 0.929700 0.113261
0.000000 0.928865 0.190610
0.000000 0.928017 0.269074
0.000000 0.927160 0.348441
0.000000 0.926295 0.428571
0.000000 0.925422 0.509360
0.000000 0.924543 0.590731
0.000000 0.923659 0.672623
0.000000 0.922769 0.754987
0.000000 0.921875 0.837783
0.000000 0.920977 0.920977
0.000000 0.920074 1.000000
0.000000 0.919577 1.000000
0.000000 1.000000 0.000000
0.000000 1.000000 0.000000
0.000000 1.000000 0.000000
0.000000 1.000000 0.028435
0.000000 1.000000 0.104321
0.000000 1.000000 0.181671
0.000000 1.000000 0.260134
0.000000 1.000000 0.339502
0.000000 1.000000 0.419631
0.000000 1.000000 0.500420
0.000000 1.000000 0.581791
0.000000 0.999185 0.663683
0.000000 0.998296 0.746047
0.000000 0.997401 0.828843
0.000000 0.996503 0.912037
0.000000 0.995600 0.995600
0.000000 0.995103 1.000000
0.000000 1.000000 0.000000
0.000000 1.000000 0.000000
0.000000 1.000000 0.000000
0.000000 1.000000 0.023504
0.000000 1.000000 0.099390
0.000000 1.000000 0.176739
0.000000 1.000000 0.255203
0.000000 1.000000 0.334571
0.000000 1.000000 0.414700
0.000000 1.000000 0.495489
0.000000 1.000000 0.576860
0.000000 1.000000 0.658752
0.000000 1.000000 0.741116
0.000000 1.000000 0.823912
0.000000 1.000000 0.907106
0.000000 1.000000 0.990669
0.000000 1.000000 1.000000
0.072601 0.000000 0.000000
0.072546 0.000000 0.002751
0.071801 0.000000 0.071801
0.071004 0.000000 0.145527
0.070185 0.000000 0.221413
0.069349 0.000000 0.298763
0.068502 0.000000 0.377226
0.067645 0.000000 0.456594
0.066780 0.000000 0.536723
0.065907 0.000000 0.617512
0.065028 0.000000 0.698883
0.064144 0.000000 0.780775
0.063254 0.000000 0.863139
0.062360 0.000000 0.945935
0.061462 0.000000 1.000000
0.060559 0.000000 1.000000
0.060061 0.000000 1.000000
0.072055 0.002259 0.000000
0.072000 0.002204 0.002204
0.071254 0.001459 0.071254
0.070458 0.000662 0.144980
0.069638 0.000000 0.220867
0.068803 0.000000 0.298216
0.067956 0.000000 0.376680
0.067098 0.000000 0.456047
0.066233 0.000000 0.536177
0.065361 0.000000 0.616966
0.064482 0.000000 0.698337
0.063597 0.000000 0.780229
0.062708 0.000000 0.862593
0.061814 0.000000 0.945389
0.060915 0.000000 1.000000
0.060013 0.000000 1.000000
0.059515 0.000000 1.000000
0.064668 0.064668 0.000000
0.064613 0.064613 0.000000
0.063867 0.063867 0.063867
0.063071 0.063071 0.137593
0.062251 0.062251 0.213480
0.061416 0.061416 0.290829
0.060569 0.060569 0.369293
0.059711 0.059711 0.448660
0.058846 0.058846 0.528790
0.057974 0.057974 0.609579
0.057095 0.057095 0.690950
0.056210 0.056210 0.772842
0.055321 0.055321 0.855206
0.054427 0.054427 0.938002
0.053528 0.053528 1.000000
0.052626 0.052626 1.000000
0.052128 0.052128 1.000000
0.056781 0.131303 0.000000
0.056726 0.131248 0.000000
0.055980 0.130502 0.055980
0.055184 0.129706 0.129706
0.054364 0.128887 0.205593
0.053529 0.128051 0.282942
0.052681 0.127204 0.361406
0.051824 0.126347 0.440773
0.050959 0.125481 0.520903
0.050086 0.124609 0.601692
0.049208 0.123730 0.683063
0.048323 0.122846 0.764955
0.047434 0.121956 0.847319
0.046539 0.121062 0.930115
0.045641 0.120163 1.000000
0.044739 0.119261 1.000000
0.044241 0.118763 1.000000
0.048662 0.199891 0.000000
0.048607 0.199836 0.000000
0.047862 0.199090 0.047862
0.047065 0.198294 0.121588
0.046246 0.197474 0.197474
0.045410 0.196639 0.274824
0.044563 0.195792 0.353287
0.043706 0.194935 0.432655
0.042841 0.194069 0.512784
0.041968 0.193197 0.593573
0.041089 0.192318 0.674944
0.040205 0.191433 0.756836
0.039315 0.190544 0.839200
0.038421 0.189650 0.921996
0.037523 0.188751 1.000000
0.036620 0.187849 1.000000
0.036122 0.187351 1.000000
0.040388 0.269801 0.000000
0.040332 0.269746 0.000000
0.039587 0.269000 0.039587
0.038791 0.268204 0.113313
0.037971 0.267384 0.189200
0.037136 0.266549 0.266549
0.036288 0.265701 0.345012
0.035431 0.264844 0.424380
0.034566 0.263979 0.504510
0.033693 0.263106 0.585299
0.032814 0.262228 0.666669
0.031930 0.261343 0.748561
0.031041 0.260454 0.830926
0.030146 0.259559 0.913722
0.029248 0.258661 0.996915
0.028345 0.257759 1.000000
0.027848 0.257261 1.000000
0.031994 0.340718 0.000000
0.031938 0.340663 0.000000
0.031193 0.339917 0.031193
0.030396 0.339121 0.104919
0.029577 0.338301 0.180806
0.028742 0.337466 0.258155
0.027894 0.336618 0.336618
0.027037 0.335761 0.415986
0.026172 0.334896 0.496116
0.025299 0.334023 0.576905
0.024420 0.333145 0.658275
0.023536 0.332260 0.740167
0.022647 0.331371 0.822532
0.021752 0.330477 0.905328
0.020854 0.329578 0.988521
0.019951 0.328676 1.000000
0.019454 0.328178 1.000000
0.023503 0.412452 0.000000
0.023448 0.412397 0.000000
0.022702 0.411651 0.022702
0.021906 0.410855 0.096428
0.021086 0.410035 0.172315
0.020251 0.409200 0.249664
0.019403 0.408352 0.328128
0.018546 0.407495 0.407495
0.017681 0.406630 0.487625
0.016808 0.405757 0.568414
0.015930 0.404879 0.649785
0.015045 0.403994 0.731677
0.014156 0.403105 0.814041
0.013262 0.402211 0.896837
0.012363 0.401312 0.980031
0.011461 0.400410 1.000000
0.010963 0.399912 1.000000
0.014931 0.484875 0.000000
0.014875 0.484819 0.000000
0.014130 0.484074 0.014130
0.013334 0.483277 0.087856
0.012514 0.482458 0.163743
0.011679 0.481623 0.241092
0.010831 0.480775 0.319555
0.009974 0.479918 0.398923
0.009109 0.479053 0.479053
0.008236 0.478180 0.559842
0.007357 0.477301 0.641212
0.006473 0.476417 0.723104
0.005584 0.475527 0.805469
0.004689 0.474633 0.888265
0.003791 0.473735 0.971458
0.002888 0.472832 1.000000
0.002391 0.472335 1.000000
0.006288 0.557893 0.000000
0.006233 0.557838 0.000000
0.005487 0.557092 0.005487
0.004691 0.556296 0.079213
0.003871 0.555477 0.155100
0.003036 0.554641 0.232449
0.002188 0.553794 0.310913
0.001331 0.552937 0.390280
0.000466 0.552071 0.470410
0.000000 0.551199 0.551199
0.000000 0.550320 0.632570
0.000000 0.549436 0.714462
0.000000 0.548546 0.796826
0.000000 0.547652 0.879622
0.000000 0.546753 0.962816
0.000000 0.545851 1.000000
0.000000 0.545353 1.000000
0.000000 0.631438 0.000000
0.000000 0.631383 0.000000
0.000000 0.630637 0.000000
0.000000 0.629841 0.070508
0.000000 0.629021 0.146395
0.000000 0.628186 0.223744
0.000000 0.627338 0.302208
0.000000 0.626481 0.381575
0.000000 0.625616 0.461705
0.000000 0.624743 0.542494
0.000000 0.623865 0.623865
0.000000 0.622980 0.705757
0.000000 0.622091 0.788121
0.000000 0.621197 0.870917
0.000000 0.620298 0.954111
0.000000 0.619396 1.000000
0.000000 0.618898 1.000000
0.000000 0.705453 0.000000
0.000000 0.705398 0.000000
0.000000 0.704653 0.000000
0.000000 0.703856 0.061747
0.000000 0.703037 0.137634
0.000000 0.702201 0.214983
0.000000 0.701354 0.293447
0.000000 0.700497 0.372814
0.000000 0.699632 0.452944
0.000000 0.698759 0.533733
0.000000 0.697880 0.615104
0.000000 0.696996 0.696996
0.000000 0.696106 0.779360
0.000000 0.695212 0.862156
0.000000 0.694314 0.945350
0.000000 0.693411 1.000000
0.000000 0.692913 1.000000
0.000000 0.779896 0.000000
0.000000 0.779841 0.000000
0.000000 0.779095 0.000000
0.000000 0.778299 0.052936
0.000000 0.777479 0.128823
0.000000 0.776644 0.206172
0.000000 0.775796 0.284636
0.000000 0.774939 0.364003
0.000000 0.774074 0.444133
0.000000 0.773201 0.524922
0.000000 0.772323 0.606293
0.000000 0.771438 0.688185
0.000000 0.770549 0.770549
0.000000 0.769655 0.853345
0.000000 0.768756 0.936539
0.000000 0.767854 1.000000
0.000000 0.767356 1.000000
0.000000 0.854728 0.000000
0.000000 0.854673 0.000000
0.000000 0.853928 0.000000
0.000000 0.853131 0.044079
0.000000 0.852312 0.119965
0.000000 0.851476 0.197314
0.000000 0.850629 0.275778
0.000000 0.849772 0.355146
0.000000 0.848907 0.435275
0.000000 0.848034 0.516064
0.000000 0.847155 0.597435
0.000000 0.846271 0.679327
0.000000 0.845381 0.761691
0.000000 0.844487 0.844487
0.000000 0.843589 0.927681
0.000000 0.842686 1.000000
0.000000 0.842188 1.000000
0.000000 0.929921 0.000000
0.000000 0.929866 0.000000
0.000000 0.929120 0.000000
0.000000 0.928324 0.035179
0.000000 0.927504 0.111065
0.000000 0.926669 0.188414
0.000000 0.925821 0.266878
0.000000 0.924964 0.346246
0.000000 0.924099 0.426375
0.000000 0.923226 0.507164
0.000000 0.922348 0.588535
0.000000 0.921463 0.670427
0.000000 0.920574 0.752791
0.000000 0.919679 0.835587
0.000000 0.918781 0.918781
0.000000 0.917879 1.000000
0.000000 0.917381 1.000000
0.000000 1.000000 0.000000
0.000000 1.000000 0.000000
0.000000 1.000000 0.000000
0.000000 1.000000 0.026239
0.000000 1.000000 0.102126
0.000000 1.000000 0.179475
0.000000 1.000000 0.257938
0.000000 1.000000 0.337306
0.000000 0.999625 0.417436
0.000000 0.998752 0.498225
0.000000 0.997874 0.579595
0.000000 0.996989 0.661487
0.000000 0.996100 0.743852
0.000000 0.995206 0.826648
0.000000 0.994307 0.909841
0.000000 0.993405 0.993405
0.000000 0.992907 1.000000
0.000000 1.000000 0.000000
0.000000 1.000000 0.000000
0.000000 1.000000 0.000000
0.000000 1.000000 0.021308
0.000000 1.000000 0.097195
0.000000 1.000000 0.174544
0.000000 1.000000 0.253007
0.000000 1.000000 0.332375
0.000000 1.000000 0.412505
0.000000 1.000000 0.493293
0.000000 1.000000 0.574664
0.000000 1.000000 0.656556
0.000000 1.000000 0.738920
0.000000 1.000000 0.821716
0.000000 1.000000 0.904910
0.000000 1.000000 0.988474
0.000000 1.000000 1.000000
0.144779 0.000000 0.000000
0.144724 0.000000 0.000406
0.143979 0.000000 0.069456
0.143182 0.000000 0.143182
0.142363 0.000000 0.219069
0.141527 0.000000 0.296418
0.140680 0.000000 0.374882
0.139823 0.000000 0.454249
0.138957 0.000000 0.534379
0.138085 0.000000 0.615168
0.137206 0.000000 0.696539
0.136322 0.000000 0.778431
0.135432 0.000000 0.860795
0.134538 0.000000 0.943591
0.133640 0.000000 1.000000
0.132737 0.000000 1.000000
0.132239 0.000000 1.000000
0.144233 0.000000 0.000000
