skills/appstore-swiss-grid/assets/grade/luts/warm_skin_v01.cube
TITLE "warm_skin_v01"
LUT_3D_SIZE 5
DOMAIN_MIN 0.0 0.0 0.0
DOMAIN_MAX 1.0 1.0 1.0
0.015397 0.000067 0.000067
0.015741 0.000411 0.234070
0.016102 0.000772 0.479524
0.016462 0.001131 0.723652
0.016820 0.001489 0.966935
0.019023 0.252113 0.003692
0.019367 0.252457 0.237696
0.019728 0.252818 0.483150
0.020088 0.253177 0.727278
0.020445 0.253535 0.970561
0.022599 0.500676 0.007268
0.022943 0.501021 0.241272
0.023304 0.501382 0.486725
0.023663 0.501741 0.730854
0.024021 0.502099 0.974137
0.026156 0.747943 0.010825
0.026500 0.748287 0.244829
0.026861 0.748648 0.490283
0.027221 0.749008 0.734411
0.027578 0.749365 0.977694
0.029701 0.994371 0.014371
0.030045 0.994715 0.248374
0.030406 0.995076 0.493828
0.030766 0.995435 0.737956
0.031124 0.995793 0.981239
0.264314 0.001142 0.001142
0.264658 0.001486 0.235146
0.265019 0.001847 0.480599
0.265378 0.002206 0.724728
0.265736 0.002564 0.968010
0.267940 0.253188 0.004768
0.268284 0.253532 0.238771
0.268645 0.253893 0.484225
0.269004 0.254252 0.728353
0.269362 0.254610 0.971636
0.271515 0.501752 0.008344
0.271860 0.502096 0.242347
0.272221 0.502457 0.487801
0.272580 0.502816 0.731929
0.272938 0.503174 0.975212
0.275073 0.749018 0.011901
0.275417 0.749363 0.245904
0.275778 0.749724 0.491358
0.276137 0.750083 0.735486
0.276495 0.750441 0.978769
0.278618 0.995446 0.015446
0.278962 0.995790 0.249450
0.279323 0.996151 0.494903
0.279682 0.996510 0.739032
0.280040 0.996868 0.982314
0.510265 0.002204 0.002204
0.510609 0.002549 0.236208
0.510970 0.002910 0.481662
0.511329 0.003269 0.725790
0.511687 0.003627 0.969073
0.513891 0.254250 0.005830
0.514235 0.254595 0.239834
0.514596 0.254956 0.485287
0.514955 0.255315 0.729416
0.515313 0.255673 0.972699
0.517466 0.502814 0.009406
0.517811 0.503159 0.243410
0.518172 0.503520 0.488863
0.518531 0.503879 0.732992
0.518889 0.504237 0.976275
0.521024 0.750081 0.012963
0.521368 0.750425 0.246967
0.521729 0.750786 0.492420
0.522088 0.751145 0.736549
0.522446 0.751503 0.979832
0.524569 0.996508 0.016508
0.524913 0.996853 0.250512
0.525274 0.997214 0.495966
0.525633 0.997573 0.740094
0.525991 0.997931 0.983377
0.754972 0.003262 0.003262
0.755317 0.003606 0.237265
0.755678 0.003967 0.482719
0.756037 0.004326 0.726847
0.756395 0.004684 0.970130
0.758598 0.255307 0.006887
0.758943 0.255652 0.240891
0.759304 0.256013 0.486345
0.759663 0.256372 0.730473
0.760021 0.256730 0.973756
0.762174 0.503871 0.010463
0.762519 0.504216 0.244467
0.762880 0.504577 0.489920
0.763239 0.504936 0.734049
0.763597 0.505294 0.977332
0.765731 0.751138 0.014020
0.766076 0.751482 0.248024
0.766437 0.751843 0.493478
0.766796 0.752203 0.737606
0.767154 0.752560 0.980889
0.769276 0.997566 0.017566
0.769621 0.997910 0.251569
0.769982 0.998271 0.497023
0.770341 0.998630 0.741151
0.770699 0.998988 0.984434
0.984252 0.004252 0.004252
0.984596 0.004596 0.238256
0.984957 0.004957 0.483709
0.985317 0.005317 0.727838
0.985675 0.005675 0.971120
0.987878 0.256298 0.007878
0.988222 0.256642 0.241882
0.988583 0.257003 0.487335
0.988943 0.257363 0.731464
0.989300 0.257721 0.974746
0.991454 0.504862 0.011454
0.991798 0.505206 0.245457
0.992159 0.505567 0.490911
0.992518 0.505927 0.735039
0.992876 0.506285 0.978322
0.995011 0.752128 0.015011
0.995355 0.752473 0.249015
0.995716 0.752834 0.494468
0.996076 0.753193 0.738597
0.996433 0.753551 0.981879
0.998556 0.998556 0.018556
0.998900 0.998900 0.252560
0.999261 0.999261 0.498013
0.999621 0.999621 0.742142
0.999979 0.999979 0.985424
