skills/appstore-swiss-grid/assets/grade/luts/warm_skin_v01.cube
TITLE "warm_skin_v01"
LUT_3D_SIZE 9
DOMAIN_MIN 0.0 0.0 0.0
DOMAIN_MAX 1.0 1.0 1.0
0.015397 0.000067 0.000067
0.015559 0.000229 0.110435
0.015741 0.000411 0.234070
0.015922 0.000592 0.357015
0.016102 0.000772 0.479524
0.016282 0.000952 0.601714
0.016462 0.001131 0.723652
0.016641 0.001310 0.845382
0.016820 0.001489 0.966935
0.017223 0.126966 0.001892
0.017385 0.127128 0.112260
0.017567 0.127310 0.235896
0.017748 0.127491 0.358840
0.017928 0.127671 0.481349
0.018108 0.127851 0.603540
0.018287 0.128031 0.725478
0.018466 0.128210 0.847208
0.018645 0.128389 0.968761
0.019023 0.252113 0.003692
0.019185 0.252275 0.114061
0.019367 0.252457 0.237696
0.019548 0.252638 0.360640
0.019728 0.252818 0.483150
0.019908 0.252998 0.605340
0.020088 0.253177 0.727278
0.020267 0.253356 0.849008
0.020445 0.253535 0.970561
0.020814 0.376606 0.005483
0.020976 0.376768 0.115852
0.021158 0.376950 0.239487
0.021339 0.377131 0.362431
0.021519 0.377311 0.484941
0.021699 0.377491 0.607131
0.021879 0.377670 0.729069
0.022058 0.377849 0.850799
0.022236 0.378028 0.972352
0.022599 0.500676 0.007268
0.022761 0.500839 0.117637
0.022943 0.501021 0.241272
0.023124 0.501202 0.364216
0.023304 0.501382 0.486725
0.023484 0.501562 0.608916
0.023663 0.501741 0.730854
0.023842 0.501920 0.852584
0.024021 0.502099 0.974137
0.024379 0.624434 0.009049
0.024542 0.624597 0.119417
0.024723 0.624778 0.243052
0.024904 0.624959 0.365997
0.025085 0.625140 0.488506
0.025264 0.625319 0.610696
0.025444 0.625499 0.732634
0.025623 0.625678 0.854364
0.025802 0.625857 0.975917
0.026156 0.747943 0.010825
0.026318 0.748105 0.121194
0.026500 0.748287 0.244829
0.026681 0.748468 0.367773
0.026861 0.748648 0.490283
0.027041 0.748828 0.612473
0.027221 0.749008 0.734411
0.027400 0.749187 0.856141
0.027578 0.749365 0.977694
0.027930 0.871245 0.012599
0.028092 0.871407 0.122968
0.028274 0.871589 0.246603
0.028455 0.871770 0.369547
0.028635 0.871950 0.492056
0.028815 0.872130 0.614247
0.028994 0.872310 0.736185
0.029173 0.872489 0.857915
0.029352 0.872668 0.979468
0.029701 0.994371 0.014371
0.029863 0.994533 0.124739
0.030045 0.994715 0.248374
0.030226 0.994896 0.371319
0.030406 0.995076 0.493828
0.030586 0.995256 0.616018
0.030766 0.995435 0.737956
0.030945 0.995614 0.859686
0.031124 0.995793 0.981239
0.140531 0.000607 0.000607
0.140694 0.000769 0.110975
0.140876 0.000951 0.234611
0.141056 0.001132 0.357555
0.141237 0.001313 0.480064
0.141417 0.001492 0.602255
0.141596 0.001672 0.724193
0.141775 0.001851 0.845923
0.141954 0.002030 0.967476
0.142357 0.127507 0.002433
0.142519 0.127669 0.112801
0.142701 0.127851 0.236436
0.142882 0.128032 0.359381
0.143062 0.128212 0.481890
0.143242 0.128392 0.604080
0.143421 0.128571 0.726018
0.143601 0.128750 0.847748
0.143779 0.128929 0.969301
0.144157 0.252653 0.004233
0.144320 0.252815 0.114601
0.144502 0.252997 0.238237
0.144682 0.253178 0.361181
0.144863 0.253359 0.483690
0.145042 0.253538 0.605880
0.145222 0.253718 0.727819
0.145401 0.253897 0.849549
0.145580 0.254076 0.971101
0.145948 0.377146 0.006024
0.146111 0.377309 0.116392
0.146292 0.377491 0.240028
0.146473 0.377671 0.362972
0.146654 0.377852 0.485481
0.146833 0.378031 0.607671
0.147013 0.378211 0.729610
0.147192 0.378390 0.851340
0.147371 0.378569 0.972892
0.147733 0.501217 0.007809
0.147895 0.501379 0.118177
0.148077 0.501561 0.241813
0.148258 0.501742 0.364757
0.148438 0.501922 0.487266
0.148618 0.502102 0.609456
0.148798 0.502282 0.731395
0.148977 0.502461 0.853125
0.149156 0.502640 0.974677
0.149513 0.624975 0.009589
0.149676 0.625137 0.119957
0.149858 0.625319 0.243593
0.150039 0.625500 0.366537
0.150219 0.625680 0.489046
0.150399 0.625860 0.611237
0.150578 0.626039 0.733175
0.150757 0.626218 0.854905
0.150936 0.626397 0.976458
0.151290 0.748484 0.011366
0.151453 0.748646 0.121734
0.151634 0.748828 0.245370
0.151815 0.749009 0.368314
0.151996 0.749189 0.490823
0.152175 0.749369 0.613013
0.152355 0.749548 0.734952
0.152534 0.749727 0.856682
0.152713 0.749906 0.978234
0.153064 0.871786 0.013140
0.153226 0.871948 0.123508
0.153408 0.872130 0.247144
0.153589 0.872311 0.370088
0.153769 0.872491 0.492597
0.153949 0.872671 0.614787
0.154129 0.872850 0.736726
0.154308 0.873029 0.858456
0.154487 0.873208 0.980008
0.154835 0.994911 0.014911
0.154998 0.995073 0.125279
0.155180 0.995255 0.248915
0.155360 0.995436 0.371859
0.155541 0.995617 0.494368
0.155721 0.995796 0.616559
0.155900 0.995976 0.738497
0.156079 0.996155 0.860227
0.156258 0.996334 0.981780
0.264314 0.001142 0.001142
0.264476 0.001304 0.111510
0.264658 0.001486 0.235146
0.264839 0.001667 0.358090
0.265019 0.001847 0.480599
0.265199 0.002027 0.602789
0.265378 0.002206 0.724728
0.265557 0.002386 0.846458
0.265736 0.002564 0.968010
0.266139 0.128041 0.002967
0.266302 0.128204 0.113336
0.266484 0.128386 0.236971
0.266664 0.128567 0.359915
0.266845 0.128747 0.482425
0.267025 0.128927 0.604615
0.267204 0.129106 0.726553
0.267383 0.129285 0.848283
0.267562 0.129464 0.969836
0.267940 0.253188 0.004768
0.268102 0.253350 0.115136
0.268284 0.253532 0.238771
0.268465 0.253713 0.361716
0.268645 0.253893 0.484225
0.268825 0.254073 0.606415
0.269004 0.254252 0.728353
0.269183 0.254432 0.850084
0.269362 0.254610 0.971636
0.269731 0.377681 0.006559
0.269893 0.377843 0.116927
0.270075 0.378025 0.240562
0.270256 0.378206 0.363507
0.270436 0.378386 0.486016
0.270616 0.378566 0.608206
0.270795 0.378746 0.730144
0.270974 0.378925 0.851875
0.271153 0.379104 0.973427
0.271515 0.501752 0.008344
0.271678 0.501914 0.118712
0.271860 0.502096 0.242347
0.272041 0.502277 0.365292
0.272221 0.502457 0.487801
0.272401 0.502637 0.609991
0.272580 0.502816 0.731929
0.272759 0.502996 0.853659
0.272938 0.503174 0.975212
0.273296 0.625510 0.010124
0.273458 0.625672 0.120492
0.273640 0.625854 0.244128
0.273821 0.626035 0.367072
0.274001 0.626215 0.489581
0.274181 0.626395 0.611771
0.274360 0.626574 0.733710
0.274540 0.626753 0.855440
0.274718 0.626932 0.976992
0.275073 0.749018 0.011901
0.275235 0.749181 0.122269
0.275417 0.749363 0.245904
0.275598 0.749543 0.368849
0.275778 0.749724 0.491358
0.275958 0.749903 0.613548
0.276137 0.750083 0.735486
0.276316 0.750262 0.857217
0.276495 0.750441 0.978769
0.276846 0.872320 0.013675
0.277009 0.872483 0.124043
0.277191 0.872665 0.247678
0.277372 0.872846 0.370623
0.277552 0.873026 0.493132
0.277732 0.873206 0.615322
0.277911 0.873385 0.737260
0.278090 0.873564 0.858990
0.278269 0.873743 0.980543
0.278618 0.995446 0.015446
0.278780 0.995608 0.125814
0.278962 0.995790 0.249450
0.279143 0.995971 0.372394
0.279323 0.996151 0.494903
0.279503 0.996331 0.617093
0.279682 0.996510 0.739032
0.279861 0.996690 0.860762
0.280040 0.996868 0.982314
0.387490 0.001674 0.001674
0.387652 0.001836 0.112042
0.387834 0.002018 0.235678
0.388015 0.002199 0.358622
0.388195 0.002379 0.481131
0.388375 0.002559 0.603321
0.388554 0.002739 0.725260
0.388734 0.002918 0.846990
0.388912 0.003097 0.968542
0.389315 0.128574 0.003500
0.389478 0.128736 0.113868
0.389660 0.128918 0.237503
0.389841 0.129099 0.360448
0.390021 0.129279 0.482957
0.390201 0.129459 0.605147
0.390380 0.129638 0.727085
0.390559 0.129817 0.848815
0.390738 0.129996 0.970368
0.391116 0.253720 0.005300
0.391278 0.253882 0.115668
0.391460 0.254064 0.239304
0.391641 0.254245 0.362248
0.391821 0.254425 0.484757
0.392001 0.254605 0.606947
0.392180 0.254785 0.728886
0.392359 0.254964 0.850616
0.392538 0.255143 0.972168
0.392907 0.378213 0.007091
0.393069 0.378376 0.117459
0.393251 0.378557 0.241095
0.393432 0.378738 0.364039
0.393612 0.378919 0.486548
0.393792 0.379098 0.608738
0.393971 0.379278 0.730677
0.394150 0.379457 0.852407
0.394329 0.379636 0.973959
0.394692 0.502284 0.008876
0.394854 0.502446 0.119244
0.395036 0.502628 0.242879
0.395217 0.502809 0.365824
0.395397 0.502989 0.488333
0.395577 0.503169 0.610523
0.395756 0.503349 0.732461
0.395935 0.503528 0.854192
0.396114 0.503706 0.975744
0.396472 0.626042 0.010656
0.396634 0.626204 0.121024
0.396816 0.626386 0.244660
0.396997 0.626567 0.367604
0.397177 0.626747 0.490113
0.397357 0.626927 0.612304
0.397537 0.627106 0.734242
0.397716 0.627285 0.855972
0.397894 0.627464 0.977525
0.398249 0.749550 0.012433
0.398411 0.749713 0.122801
0.398593 0.749895 0.246437
0.398774 0.750076 0.369381
0.398954 0.750256 0.491890
0.399134 0.750436 0.614080
0.399313 0.750615 0.736019
0.399492 0.750794 0.857749
0.399671 0.750973 0.979301
0.400023 0.872852 0.014207
0.400185 0.873015 0.124575
0.400367 0.873197 0.248210
0.400548 0.873378 0.371155
0.400728 0.873558 0.493664
0.400908 0.873738 0.615854
0.401087 0.873917 0.737792
0.401266 0.874096 0.859523
0.401445 0.874275 0.981075
0.401794 0.995978 0.015978
0.401956 0.996140 0.126346
0.402138 0.996322 0.249982
0.402319 0.996503 0.372926
0.402499 0.996683 0.495435
0.402679 0.996863 0.617625
0.402858 0.997043 0.739564
0.403038 0.997222 0.861294
0.403216 0.997401 0.982846
0.510265 0.002204 0.002204
0.510427 0.002367 0.112573
0.510609 0.002549 0.236208
0.510790 0.002730 0.359152
0.510970 0.002910 0.481662
0.511150 0.003090 0.603852
0.511329 0.003269 0.725790
0.511508 0.003448 0.847520
0.511687 0.003627 0.969073
0.512090 0.129104 0.004030
0.512253 0.129266 0.114398
0.512434 0.129448 0.238034
0.512615 0.129629 0.360978
0.512796 0.129809 0.483487
0.512975 0.129989 0.605677
0.513155 0.130169 0.727616
0.513334 0.130348 0.849346
0.513513 0.130526 0.970898
0.513891 0.254250 0.005830
0.514053 0.254413 0.116199
0.514235 0.254595 0.239834
0.514416 0.254776 0.362778
0.514596 0.254956 0.485287
0.514776 0.255136 0.607478
0.514955 0.255315 0.729416
0.515134 0.255494 0.851146
0.515313 0.255673 0.972699
0.515681 0.378744 0.007621
0.515844 0.378906 0.117990
0.516026 0.379088 0.241625
0.516207 0.379269 0.364569
0.516387 0.379449 0.487078
0.516567 0.379629 0.609269
0.516746 0.379808 0.731207
0.516925 0.379987 0.852937
0.517104 0.380166 0.974490
0.517466 0.502814 0.009406
0.517629 0.502977 0.119774
0.517811 0.503159 0.243410
0.517992 0.503340 0.366354
0.518172 0.503520 0.488863
0.518352 0.503700 0.611054
0.518531 0.503879 0.732992
0.518710 0.504058 0.854722
0.518889 0.504237 0.976275
0.519247 0.626572 0.011186
0.519409 0.626734 0.121555
0.519591 0.626916 0.245190
0.519772 0.627097 0.368135
0.519952 0.627277 0.490644
0.520132 0.627457 0.612834
0.520311 0.627637 0.734772
0.520490 0.627816 0.856502
0.520669 0.627995 0.978055
0.521024 0.750081 0.012963
0.521186 0.750243 0.123332
0.521368 0.750425 0.246967
0.521549 0.750606 0.369911
0.521729 0.750786 0.492420
0.521909 0.750966 0.614611
0.522088 0.751145 0.736549
0.522267 0.751324 0.858279
0.522446 0.751503 0.979832
0.522797 0.873383 0.014737
0.522960 0.873545 0.125105
0.523142 0.873727 0.248741
0.523323 0.873908 0.371685
0.523503 0.874088 0.494194
0.523683 0.874268 0.616385
0.523862 0.874447 0.738323
0.524041 0.874627 0.860053
0.524220 0.874805 0.981606
0.524569 0.996508 0.016508
0.524731 0.996671 0.126877
0.524913 0.996853 0.250512
0.525094 0.997034 0.373456
0.525274 0.997214 0.495966
0.525454 0.997394 0.618156
0.525633 0.997573 0.740094
0.525812 0.997752 0.861824
0.525991 0.997931 0.983377
0.632739 0.002733 0.002733
0.632901 0.002896 0.113102
0.633083 0.003078 0.236737
0.633264 0.003259 0.359681
0.633444 0.003439 0.482191
0.633624 0.003619 0.604381
0.633803 0.003798 0.726319
0.633983 0.003977 0.848049
0.634161 0.004156 0.969602
0.634564 0.129633 0.004559
0.634727 0.129795 0.114927
0.634909 0.129977 0.238563
0.635090 0.130158 0.361507
0.635270 0.130338 0.484016
0.635450 0.130518 0.606206
0.635629 0.130698 0.728145
0.635808 0.130877 0.849875
0.635987 0.131056 0.971427
0.636365 0.254779 0.006359
0.636527 0.254942 0.116728
0.636709 0.255124 0.240363
0.636890 0.255305 0.363307
0.637070 0.255485 0.485817
0.637250 0.255665 0.608007
0.637429 0.255844 0.729945
0.637608 0.256023 0.851675
0.637787 0.256202 0.973228
0.638156 0.379273 0.008150
0.638318 0.379435 0.118519
0.638500 0.379617 0.242154
0.638681 0.379798 0.365098
0.638861 0.379978 0.487608
0.639041 0.380158 0.609798
0.639220 0.380337 0.731736
0.639399 0.380516 0.853466
0.639578 0.380695 0.975019
0.639941 0.503343 0.009935
0.640103 0.503506 0.120303
0.640285 0.503688 0.243939
0.640466 0.503869 0.366883
0.640646 0.504049 0.489392
0.640826 0.504229 0.611583
0.641005 0.504408 0.733521
0.641184 0.504587 0.855251
0.641363 0.504766 0.976804
0.641721 0.627101 0.011716
0.641883 0.627264 0.122084
0.642065 0.627445 0.245719
0.642246 0.627626 0.368664
0.642426 0.627807 0.491173
0.642606 0.627986 0.613363
0.642786 0.628166 0.735301
0.642965 0.628345 0.857031
0.643143 0.628524 0.978584
0.643498 0.750610 0.013492
0.643660 0.750772 0.123861
0.643842 0.750954 0.247496
0.644023 0.751135 0.370440
0.644203 0.751315 0.492950
0.644383 0.751495 0.615140
0.644562 0.751674 0.737078
0.644741 0.751854 0.858808
0.644920 0.752032 0.980361
0.645272 0.873912 0.015266
0.645434 0.874074 0.125634
0.645616 0.874256 0.249270
0.645797 0.874437 0.372214
0.645977 0.874617 0.494723
0.646157 0.874797 0.616914
0.646336 0.874977 0.738852
0.646515 0.875156 0.860582
0.646694 0.875335 0.982135
0.647043 0.997037 0.017037
0.647205 0.997200 0.127406
0.647387 0.997382 0.251041
0.647568 0.997563 0.373985
0.647748 0.997743 0.496495
0.647928 0.997923 0.618685
0.648107 0.998102 0.740623
0.648287 0.998281 0.862353
0.648465 0.998460 0.983906
0.754972 0.003262 0.003262
0.755135 0.003424 0.113630
0.755317 0.003606 0.237265
0.755498 0.003787 0.360210
0.755678 0.003967 0.482719
0.755858 0.004147 0.604909
0.756037 0.004326 0.726847
0.756216 0.004505 0.848577
0.756395 0.004684 0.970130
0.756798 0.130161 0.005087
0.756960 0.130323 0.115455
0.757142 0.130505 0.239091
0.757323 0.130686 0.362035
0.757503 0.130866 0.484544
0.757683 0.131046 0.606734
0.757863 0.131226 0.728673
0.758042 0.131405 0.850403
0.758221 0.131584 0.971956
0.758598 0.255307 0.006887
0.758761 0.255470 0.117256
0.758943 0.255652 0.240891
0.759124 0.255833 0.363835
0.759304 0.256013 0.486345
0.759484 0.256193 0.608535
0.759663 0.256372 0.730473
0.759842 0.256551 0.852203
0.760021 0.256730 0.973756
0.760389 0.379801 0.008678
0.760552 0.379963 0.119047
0.760734 0.380145 0.242682
0.760915 0.380326 0.365626
0.761095 0.380506 0.488136
0.761275 0.380686 0.610326
0.761454 0.380865 0.732264
0.761633 0.381044 0.853994
0.761812 0.381223 0.975547
0.762174 0.503871 0.010463
0.762337 0.504034 0.120832
0.762519 0.504216 0.244467
0.762699 0.504397 0.367411
0.762880 0.504577 0.489920
0.763059 0.504757 0.612111
0.763239 0.504936 0.734049
0.763418 0.505115 0.855779
0.763597 0.505294 0.977332
0.763955 0.627629 0.012244
0.764117 0.627792 0.122612
0.764299 0.627973 0.246247
0.764480 0.628154 0.369192
0.764660 0.628335 0.491701
0.764840 0.628514 0.613891
0.765019 0.628694 0.735829
0.765198 0.628873 0.857559
0.765377 0.629052 0.979112
0.765731 0.751138 0.014020
0.765894 0.751300 0.124389
0.766076 0.751482 0.248024
0.766257 0.751663 0.370968
0.766437 0.751843 0.493478
0.766617 0.752023 0.615668
0.766796 0.752203 0.737606
0.766975 0.752382 0.859336
0.767154 0.752560 0.980889
0.767505 0.874440 0.015794
0.767668 0.874602 0.126163
0.767850 0.874784 0.249798
0.768030 0.874965 0.372742
0.768211 0.875145 0.495251
0.768390 0.875325 0.617442
0.768570 0.875505 0.739380
0.768749 0.875684 0.861110
0.768928 0.875863 0.982663
0.769276 0.997566 0.017566
0.769439 0.997728 0.127934
0.769621 0.997910 0.251569
0.769802 0.998091 0.374514
0.769982 0.998271 0.497023
0.770162 0.998451 0.619213
0.770341 0.998630 0.741151
0.770520 0.998809 0.862881
0.770699 0.998988 0.984434
0.877006 0.003789 0.003789
0.877168 0.003951 0.114157
0.877350 0.004133 0.237792
0.877531 0.004314 0.360737
0.877711 0.004494 0.483246
0.877891 0.004674 0.605436
0.878070 0.004853 0.727374
0.878249 0.005032 0.849105
0.878428 0.005211 0.970657
0.878831 0.130688 0.005614
0.878994 0.130851 0.115983
0.879176 0.131033 0.239618
0.879356 0.131213 0.362562
0.879537 0.131394 0.485071
0.879716 0.131573 0.607262
0.879896 0.131753 0.729200
0.880075 0.131932 0.850930
0.880254 0.132111 0.972483
0.880632 0.255835 0.007415
0.880794 0.255997 0.117783
0.880976 0.256179 0.241418
0.881157 0.256360 0.364363
0.881337 0.256540 0.486872
0.881517 0.256720 0.609062
0.881696 0.256899 0.731000
0.881875 0.257078 0.852730
0.882054 0.257257 0.974283
0.882423 0.380328 0.009206
0.882585 0.380490 0.119574
0.882767 0.380672 0.243209
0.882948 0.380853 0.366154
0.883128 0.381033 0.488663
0.883308 0.381213 0.610853
0.883487 0.381392 0.732791
0.883666 0.381572 0.854521
0.883845 0.381750 0.976074
0.884207 0.504399 0.010990
0.884370 0.504561 0.121359
0.884552 0.504743 0.244994
0.884733 0.504924 0.367938
0.884913 0.505104 0.490448
0.885093 0.505284 0.612638
0.885272 0.505463 0.734576
0.885451 0.505642 0.856306
0.885630 0.505821 0.977859
0.885988 0.628156 0.012771
0.886150 0.628319 0.123139
0.886332 0.628501 0.246775
0.886513 0.628682 0.369719
0.886693 0.628862 0.492228
0.886873 0.629042 0.614418
0.887052 0.629221 0.736357
0.887232 0.629400 0.858087
0.887410 0.629579 0.979639
0.887765 0.751665 0.014548
0.887927 0.751827 0.124916
0.888109 0.752009 0.248551
0.888290 0.752190 0.371496
0.888470 0.752371 0.494005
0.888650 0.752550 0.616195
0.888829 0.752730 0.738133
0.889008 0.752909 0.859863
0.889187 0.753088 0.981416
0.889538 0.874967 0.016321
0.889701 0.875130 0.126690
0.889883 0.875312 0.250325
0.890064 0.875492 0.373269
0.890244 0.875673 0.495779
0.890424 0.875852 0.617969
0.890603 0.876032 0.739907
0.890782 0.876211 0.861637
0.890961 0.876390 0.983190
0.891310 0.998093 0.018093
0.891472 0.998255 0.128461
0.891654 0.998437 0.252096
0.891835 0.998618 0.375041
0.892015 0.998798 0.497550
0.892195 0.998978 0.619740
0.892374 0.999157 0.741678
0.892553 0.999336 0.863409
0.892732 0.999515 0.984961
0.984252 0.004252 0.004252
0.984414 0.004414 0.114620
0.984596 0.004596 0.238256
0.984777 0.004777 0.361200
0.984957 0.004957 0.483709
0.985137 0.005137 0.605899
0.985317 0.005317 0.727838
0.985496 0.005496 0.849568
0.985675 0.005675 0.971120
0.986078 0.131152 0.006078
0.986240 0.131314 0.116446
0.986422 0.131496 0.240081
0.986603 0.131677 0.363026
0.986783 0.131857 0.485535
0.986963 0.132037 0.607725
0.987142 0.132216 0.729663
0.987321 0.132395 0.851393
0.987500 0.132574 0.972946
0.987878 0.256298 0.007878
0.988040 0.256460 0.118246
0.988222 0.256642 0.241882
0.988403 0.256823 0.364826
0.988583 0.257003 0.487335
0.988763 0.257183 0.609525
0.988943 0.257363 0.731464
0.989122 0.257542 0.853194
0.989300 0.257721 0.974746
0.989669 0.380791 0.009669
0.989831 0.380954 0.120037
0.990013 0.381135 0.243673
0.990194 0.381316 0.366617
0.990374 0.381497 0.489126
0.990554 0.381676 0.611316
0.990733 0.381856 0.733255
0.990913 0.382035 0.854985
0.991091 0.382214 0.976537
0.991454 0.504862 0.011454
0.991616 0.505024 0.121822
0.991798 0.505206 0.245457
0.991979 0.505387 0.368402
0.992159 0.505567 0.490911
0.992339 0.505747 0.613101
0.992518 0.505927 0.735039
0.992697 0.506106 0.856770
0.992876 0.506285 0.978322
0.993234 0.628620 0.013234
0.993397 0.628782 0.123602
0.993578 0.628964 0.247238
0.993759 0.629145 0.370182
0.993940 0.629325 0.492691
0.994119 0.629505 0.614882
0.994299 0.629684 0.736820
0.994478 0.629863 0.858550
0.994657 0.630042 0.980103
0.995011 0.752128 0.015011
0.995173 0.752291 0.125379
0.995355 0.752473 0.249015
0.995536 0.752654 0.371959
0.995716 0.752834 0.494468
0.995896 0.753014 0.616658
0.996076 0.753193 0.738597
0.996255 0.753372 0.860327
0.996433 0.753551 0.981879
0.996785 0.875431 0.016785
0.996947 0.875593 0.127153
0.997129 0.875775 0.250788
0.997310 0.875956 0.373733
0.997490 0.876136 0.496242
0.997670 0.876316 0.618432
0.997849 0.876495 0.740370
0.998028 0.876674 0.862101
0.998207 0.876853 0.983653
0.998556 0.998556 0.018556
0.998718 0.998718 0.128924
0.998900 0.998900 0.252560
0.999081 0.999081 0.375504
0.999261 0.999261 0.498013
0.999441 0.999441 0.620203
0.999621 0.999621 0.742142
0.999800 0.999800 0.863872
0.999979 0.999979 0.985424
