skills/appstore-swiss-grid/assets/grade/luts/warm_skin_v01.cube
TITLE "warm_skin_v01"
LUT_3D_SIZE 17
DOMAIN_MIN 0.0 0.0 0.0
DOMAIN_MAX 1.0 1.0 1.0
0.015397 0.000067 0.000067
0.015468 0.000137 0.048127
0.015559 0.000229 0.110435
0.015651 0.000320 0.172367
0.015741 0.000411 0.234070
0.015832 0.000501 0.295607
0.015922 0.000592 0.357015
0.016012 0.000682 0.418315
0.016102 0.000772 0.479524
0.016192 0.000862 0.540654
0.016282 0.000952 0.601714
0.016372 0.001041 0.662711
0.016462 0.001131 0.723652
0.016551 0.001221 0.784541
0.016641 0.001310 0.845382
0.016730 0.001400 0.906179
0.016820 0.001489 0.966935
0.016316 0.063958 0.000986
0.016387 0.064028 0.049047
0.016479 0.064120 0.111354
0.016570 0.064211 0.173286
0.016660 0.064302 0.234989
0.016751 0.064392 0.296527
0.016841 0.064483 0.357934
0.016932 0.064573 0.419234
0.017022 0.064663 0.480443
0.017112 0.064753 0.541573
0.017201 0.064843 0.602633
0.017291 0.064933 0.663631
0.017381 0.065022 0.724571
0.017470 0.065112 0.785460
0.017560 0.065201 0.846301
0.017649 0.065291 0.907098
0.017739 0.065380 0.967854
0.017223 0.126966 0.001892
0.017293 0.127037 0.049953
0.017385 0.127128 0.112260
0.017476 0.127220 0.174193
0.017567 0.127310 0.235896
0.017657 0.127401 0.297433
0.017748 0.127491 0.358840
0.017838 0.127581 0.420140
0.017928 0.127671 0.481349
0.018018 0.127761 0.542479
0.018108 0.127851 0.603540
0.018198 0.127941 0.664537
0.018287 0.128031 0.725478
0.018377 0.128120 0.786367
0.018466 0.128210 0.847208
0.018556 0.128299 0.908005
0.018645 0.128389 0.968761
0.018124 0.189646 0.002794
0.018195 0.189716 0.050855
0.018287 0.189808 0.113162
0.018378 0.189899 0.175094
0.018469 0.189990 0.236797
0.018559 0.190080 0.298335
0.018649 0.190171 0.359742
0.018740 0.190261 0.421042
0.018830 0.190351 0.482251
0.018920 0.190441 0.543381
0.019009 0.190531 0.604441
0.019099 0.190621 0.665439
0.019189 0.190710 0.726380
0.019278 0.190800 0.787268
0.019368 0.190889 0.848110
0.019457 0.190979 0.908907
0.019547 0.191068 0.969662
0.019023 0.252113 0.003692
0.019094 0.252183 0.051753
0.019185 0.252275 0.114061
0.019276 0.252366 0.175993
0.019367 0.252457 0.237696
0.019458 0.252547 0.299233
0.019548 0.252638 0.360640
0.019638 0.252728 0.421941
0.019728 0.252818 0.483150
0.019818 0.252908 0.544280
0.019908 0.252998 0.605340
0.019998 0.253087 0.666337
0.020088 0.253177 0.727278
0.020177 0.253267 0.788167
0.020267 0.253356 0.849008
0.020356 0.253446 0.909805
0.020445 0.253535 0.970561
0.019919 0.314422 0.004589
0.019990 0.314492 0.052650
0.020082 0.314584 0.114957
0.020173 0.314675 0.176889
0.020264 0.314766 0.238593
0.020354 0.314857 0.300130
0.020444 0.314947 0.361537
0.020535 0.315037 0.422837
0.020625 0.315127 0.484046
0.020715 0.315217 0.545176
0.020805 0.315307 0.606236
0.020894 0.315397 0.667234
0.020984 0.315486 0.728175
0.021074 0.315576 0.789063
0.021163 0.315665 0.849905
0.021252 0.315755 0.910702
0.021342 0.315844 0.971457
0.020814 0.376606 0.005483
0.020885 0.376676 0.053544
0.020976 0.376768 0.115852
0.021067 0.376859 0.177784
0.021158 0.376950 0.239487
0.021249 0.377040 0.301024
0.021339 0.377131 0.362431
0.021429 0.377221 0.423731
0.021519 0.377311 0.484941
0.021609 0.377401 0.546071
0.021699 0.377491 0.607131
0.021789 0.377581 0.668128
0.021879 0.377670 0.729069
0.021968 0.377760 0.789958
0.022058 0.377849 0.850799
0.022147 0.377939 0.911596
0.022236 0.378028 0.972352
0.021707 0.438686 0.006376
0.021778 0.438756 0.054437
0.021869 0.438848 0.116745
0.021960 0.438939 0.178677
0.022051 0.439030 0.240380
0.022142 0.439120 0.301917
0.022232 0.439211 0.363325
0.022322 0.439301 0.424625
0.022412 0.439391 0.485834
0.022502 0.439481 0.546964
0.022592 0.439571 0.608024
0.022682 0.439660 0.669021
0.022772 0.439750 0.729962
0.022861 0.439840 0.790851
0.022951 0.439929 0.851692
0.023040 0.440019 0.912489
0.023130 0.440108 0.973245
0.022599 0.500676 0.007268
0.022669 0.500747 0.055329
0.022761 0.500839 0.117637
0.022852 0.500930 0.179569
0.022943 0.501021 0.241272
0.023034 0.501111 0.302809
0.023124 0.501202 0.364216
0.023214 0.501292 0.425516
0.023304 0.501382 0.486725
0.023394 0.501472 0.547856
0.023484 0.501562 0.608916
0.023574 0.501651 0.669913
0.023663 0.501741 0.730854
0.023753 0.501831 0.791743
0.023842 0.501920 0.852584
0.023932 0.502010 0.913381
0.024021 0.502099 0.974137
0.023489 0.562590 0.008159
0.023560 0.562660 0.056220
0.023652 0.562752 0.118527
0.023743 0.562843 0.180460
0.023834 0.562934 0.242163
0.023924 0.563025 0.303700
0.024015 0.563115 0.365107
0.024105 0.563205 0.426407
0.024195 0.563295 0.487616
0.024285 0.563385 0.548746
0.024375 0.563475 0.609806
0.024464 0.563565 0.670804
0.024554 0.563654 0.731745
0.024644 0.563744 0.792634
0.024733 0.563833 0.853475
0.024823 0.563923 0.914272
0.024912 0.564012 0.975027
0.024379 0.624434 0.009049
0.024450 0.624505 0.057110
0.024542 0.624597 0.119417
0.024633 0.624688 0.181349
0.024723 0.624778 0.243052
0.024814 0.624869 0.304590
0.024904 0.624959 0.365997
0.024995 0.625050 0.427297
0.025085 0.625140 0.488506
0.025175 0.625230 0.549636
0.025264 0.625319 0.610696
0.025354 0.625409 0.671694
0.025444 0.625499 0.732634
0.025533 0.625588 0.793523
0.025623 0.625678 0.854364
0.025712 0.625767 0.915161
0.025802 0.625857 0.975917
0.025268 0.686217 0.009937
0.025339 0.686287 0.057998
0.025430 0.686379 0.120306
0.025521 0.686470 0.182238
0.025612 0.686561 0.243941
0.025703 0.686651 0.305478
0.025793 0.686742 0.366885
0.025883 0.686832 0.428186
0.025973 0.686922 0.489395
0.026063 0.687012 0.550525
0.026153 0.687102 0.611585
0.026243 0.687192 0.672582
0.026333 0.687281 0.733523
0.026422 0.687371 0.794412
0.026512 0.687460 0.855253
0.026601 0.687550 0.916050
0.026690 0.687639 0.976806
0.026156 0.747943 0.010825
0.026227 0.748014 0.058886
0.026318 0.748105 0.121194
0.026409 0.748196 0.183126
0.026500 0.748287 0.244829
0.026591 0.748378 0.306366
0.026681 0.748468 0.367773
0.026771 0.748558 0.429074
0.026861 0.748648 0.490283
0.026951 0.748738 0.551413
0.027041 0.748828 0.612473
0.027131 0.748918 0.673470
0.027221 0.749008 0.734411
0.027310 0.749097 0.795300
0.027400 0.749187 0.856141
0.027489 0.749276 0.916938
0.027578 0.749365 0.977694
0.027043 0.809618 0.011713
0.027114 0.809688 0.059774
0.027206 0.809780 0.122081
0.027297 0.809871 0.184013
0.027387 0.809962 0.245716
0.027478 0.810053 0.307254
0.027568 0.810143 0.368661
0.027659 0.810233 0.429961
0.027749 0.810323 0.491170
0.027839 0.810413 0.552300
0.027928 0.810503 0.613360
0.028018 0.810593 0.674358
0.028108 0.810682 0.735298
0.028197 0.810772 0.796187
0.028287 0.810861 0.857028
0.028376 0.810951 0.917825
0.028466 0.811040 0.978581
0.027930 0.871245 0.012599
0.028000 0.871316 0.060660
0.028092 0.871407 0.122968
0.028183 0.871499 0.184900
0.028274 0.871589 0.246603
0.028365 0.871680 0.308140
0.028455 0.871770 0.369547
0.028545 0.871860 0.430847
0.028635 0.871950 0.492056
0.028725 0.872040 0.553186
0.028815 0.872130 0.614247
0.028905 0.872220 0.675244
0.028994 0.872310 0.736185
0.029084 0.872399 0.797074
0.029173 0.872489 0.857915
0.029263 0.872578 0.918712
0.029352 0.872668 0.979468
0.028816 0.932828 0.013485
0.028886 0.932899 0.061546
0.028978 0.932991 0.123853
0.029069 0.933082 0.185786
0.029160 0.933173 0.247489
0.029251 0.933263 0.309026
0.029341 0.933353 0.370433
0.029431 0.933444 0.431733
0.029521 0.933534 0.492942
0.029611 0.933624 0.554072
0.029701 0.933714 0.615133
0.029791 0.933803 0.676130
0.029880 0.933893 0.737071
0.029970 0.933983 0.797960
0.030059 0.934072 0.858801
0.030149 0.934161 0.919598
0.030238 0.934251 0.980354
0.029701 0.994371 0.014371
0.029772 0.994441 0.062431
0.029863 0.994533 0.124739
0.029955 0.994624 0.186671
0.030045 0.994715 0.248374
0.030136 0.994805 0.309911
0.030226 0.994896 0.371319
0.030316 0.994986 0.432619
0.030406 0.995076 0.493828
0.030496 0.995166 0.554958
0.030586 0.995256 0.616018
0.030676 0.995345 0.677015
0.030766 0.995435 0.737956
0.030855 0.995525 0.798845
0.030945 0.995614 0.859686
0.031034 0.995704 0.920483
0.031124 0.995793 0.981239
0.078256 0.000338 0.000338
0.078326 0.000409 0.048399
0.078418 0.000500 0.110706
0.078509 0.000592 0.172639
0.078600 0.000682 0.234342
0.078690 0.000773 0.295879
0.078781 0.000863 0.357286
0.078871 0.000953 0.418586
0.078961 0.001043 0.479795
0.079051 0.001133 0.540925
0.079141 0.001223 0.601985
0.079230 0.001313 0.662983
0.079320 0.001403 0.723924
0.079410 0.001492 0.784813
0.079499 0.001582 0.845654
0.079589 0.001671 0.906451
0.079678 0.001761 0.967207
0.079175 0.064229 0.001257
0.079245 0.064300 0.049318
0.079337 0.064392 0.111625
0.079428 0.064483 0.173558
0.079519 0.064573 0.235261
0.079609 0.064664 0.296798
0.079700 0.064754 0.358205
0.079790 0.064845 0.419505
0.079880 0.064935 0.480714
0.079970 0.065025 0.541844
0.080060 0.065114 0.602905
0.080150 0.065204 0.663902
0.080239 0.065294 0.724843
0.080329 0.065383 0.785732
0.080418 0.065473 0.846573
0.080508 0.065562 0.907370
0.080597 0.065652 0.968126
0.080081 0.127238 0.002164
0.080152 0.127308 0.050225
0.080243 0.127400 0.112532
0.080335 0.127491 0.174464
0.080425 0.127582 0.236167
0.080516 0.127672 0.297705
0.080606 0.127763 0.359112
0.080696 0.127853 0.420412
0.080787 0.127943 0.481621
0.080876 0.128033 0.542751
0.080966 0.128123 0.603811
0.081056 0.128213 0.664809
0.081146 0.128302 0.725749
0.081235 0.128392 0.786638
0.081325 0.128481 0.847479
0.081414 0.128571 0.908276
0.081504 0.128660 0.969032
0.080983 0.189917 0.003065
0.081054 0.189988 0.051126
0.081145 0.190080 0.113434
0.081236 0.190171 0.175366
0.081327 0.190261 0.237069
0.081418 0.190352 0.298606
0.081508 0.190442 0.360013
0.081598 0.190533 0.421313
0.081688 0.190623 0.482523
0.081778 0.190713 0.543653
0.081868 0.190802 0.604713
0.081958 0.190892 0.665710
0.082047 0.190982 0.726651
0.082137 0.191071 0.787540
0.082227 0.191161 0.848381
0.082316 0.191250 0.909178
0.082405 0.191340 0.969934
0.081881 0.252384 0.003964
0.081952 0.252455 0.052025
0.082044 0.252546 0.114332
0.082135 0.252638 0.176265
0.082226 0.252728 0.237968
0.082316 0.252819 0.299505
0.082407 0.252909 0.360912
0.082497 0.252999 0.422212
0.082587 0.253089 0.483421
0.082677 0.253179 0.544551
0.082767 0.253269 0.605611
0.082856 0.253359 0.666609
0.082946 0.253449 0.727550
0.083036 0.253538 0.788439
0.083125 0.253628 0.849280
0.083215 0.253717 0.910077
0.083304 0.253807 0.970832
0.082778 0.314693 0.004860
0.082849 0.314764 0.052921
0.082940 0.314856 0.115229
0.083031 0.314947 0.177161
0.083122 0.315038 0.238864
0.083213 0.315128 0.300401
0.083303 0.315218 0.361808
0.083393 0.315309 0.423108
0.083483 0.315399 0.484318
0.083573 0.315489 0.545448
0.083663 0.315579 0.606508
0.083753 0.315668 0.667505
0.083842 0.315758 0.728446
0.083932 0.315848 0.789335
0.084022 0.315937 0.850176
0.084111 0.316026 0.910973
0.084200 0.316116 0.971729
0.083672 0.376877 0.005755
0.083743 0.376948 0.053816
0.083835 0.377040 0.116123
0.083926 0.377131 0.178056
0.084017 0.377222 0.239759
0.084107 0.377312 0.301296
0.084198 0.377402 0.362703
0.084288 0.377493 0.424003
0.084378 0.377583 0.485212
0.084468 0.377673 0.546342
0.084558 0.377762 0.607402
0.084647 0.377852 0.668400
0.084737 0.377942 0.729341
0.084827 0.378031 0.790230
0.084916 0.378121 0.851071
0.085006 0.378210 0.911868
0.085095 0.378300 0.972623
0.084565 0.438957 0.006648
0.084636 0.439028 0.054709
0.084728 0.439119 0.117016
0.084819 0.439211 0.178949
0.084910 0.439301 0.240652
0.085000 0.439392 0.302189
0.085091 0.439482 0.363596
0.085181 0.439572 0.424896
0.085271 0.439663 0.486105
0.085361 0.439752 0.547235
0.085451 0.439842 0.608295
0.085540 0.439932 0.669293
0.085630 0.440022 0.730234
0.085720 0.440111 0.791123
0.085809 0.440201 0.851964
0.085899 0.440290 0.912761
0.085988 0.440380 0.973516
0.085457 0.500948 0.007540
0.085528 0.501019 0.055601
0.085620 0.501110 0.117908
0.085711 0.501202 0.179840
0.085802 0.501292 0.241544
0.085892 0.501383 0.303081
0.085982 0.501473 0.364488
0.086073 0.501563 0.425788
0.086163 0.501653 0.486997
0.086253 0.501743 0.548127
0.086342 0.501833 0.609187
0.086432 0.501923 0.670185
0.086522 0.502013 0.731126
0.086611 0.502102 0.792014
0.086701 0.502192 0.852856
0.086790 0.502281 0.913653
0.086880 0.502371 0.974408
0.086348 0.562861 0.008430
0.086419 0.562932 0.056491
0.086510 0.563024 0.118799
0.086601 0.563115 0.180731
0.086692 0.563206 0.242434
0.086783 0.563296 0.303971
0.086873 0.563387 0.365379
0.086963 0.563477 0.426679
0.087053 0.563567 0.487888
0.087143 0.563657 0.549018
0.087233 0.563747 0.610078
0.087323 0.563836 0.671075
0.087413 0.563926 0.732016
0.087502 0.564016 0.792905
0.087592 0.564105 0.853746
0.087681 0.564194 0.914543
0.087771 0.564284 0.975299
0.087238 0.624706 0.009320
0.087308 0.624776 0.057381
0.087400 0.624868 0.119688
0.087491 0.624959 0.181621
0.087582 0.625050 0.243324
0.087672 0.625141 0.304861
0.087763 0.625231 0.366268
0.087853 0.625321 0.427568
0.087943 0.625411 0.488777
0.088033 0.625501 0.549907
0.088123 0.625591 0.610968
0.088213 0.625681 0.671965
0.088302 0.625770 0.732906
0.088392 0.625860 0.793795
0.088481 0.625949 0.854636
0.088571 0.626039 0.915433
0.088660 0.626128 0.976189
0.088126 0.686488 0.010209
0.088197 0.686559 0.058270
0.088289 0.686651 0.120577
0.088380 0.686742 0.182510
0.088471 0.686833 0.244213
0.088561 0.686923 0.305750
0.088652 0.687013 0.367157
0.088742 0.687104 0.428457
0.088832 0.687194 0.489666
0.088922 0.687284 0.550796
0.089012 0.687373 0.611856
0.089101 0.687463 0.672854
0.089191 0.687553 0.733795
0.089281 0.687642 0.794684
0.089370 0.687732 0.855525
0.089460 0.687821 0.916322
0.089549 0.687911 0.977077
0.089014 0.748214 0.011097
0.089085 0.748285 0.059158
0.089177 0.748377 0.121465
0.089268 0.748468 0.183398
0.089359 0.748559 0.245101
0.089449 0.748649 0.306638
0.089540 0.748740 0.368045
0.089630 0.748830 0.429345
0.089720 0.748920 0.490554
0.089810 0.749010 0.551684
0.089900 0.749100 0.612744
0.089989 0.749189 0.673742
0.090079 0.749279 0.734683
0.090169 0.749369 0.795572
0.090258 0.749458 0.856413
0.090348 0.749548 0.917210
0.090437 0.749637 0.977965
0.089902 0.809889 0.011984
0.089972 0.809960 0.060045
0.090064 0.810052 0.122353
0.090155 0.810143 0.184285
0.090246 0.810234 0.245988
0.090337 0.810324 0.307525
0.090427 0.810414 0.368932
0.090517 0.810505 0.430232
0.090607 0.810595 0.491441
0.090697 0.810685 0.552571
0.090787 0.810774 0.613632
0.090877 0.810864 0.674629
0.090966 0.810954 0.735570
0.091056 0.811043 0.796459
0.091145 0.811133 0.857300
0.091235 0.811222 0.918097
0.091324 0.811312 0.978853
0.090788 0.871517 0.012871
0.090859 0.871587 0.060932
0.090951 0.871679 0.123239
0.091042 0.871770 0.185171
0.091133 0.871861 0.246874
0.091223 0.871951 0.308412
0.091313 0.872042 0.369819
0.091404 0.872132 0.431119
0.091494 0.872222 0.492328
0.091584 0.872312 0.553458
0.091673 0.872402 0.614518
0.091763 0.872492 0.675516
0.091853 0.872581 0.736457
0.091942 0.872671 0.797345
0.092032 0.872760 0.858187
0.092121 0.872850 0.918984
0.092211 0.872939 0.979739
0.091674 0.933100 0.013757
0.091745 0.933171 0.061818
0.091837 0.933262 0.124125
0.091928 0.933353 0.186057
0.092018 0.933444 0.247760
0.092109 0.933535 0.309298
0.092199 0.933625 0.370705
0.092290 0.933715 0.432005
0.092380 0.933805 0.493214
0.092470 0.933895 0.554344
0.092559 0.933985 0.615404
0.092649 0.934075 0.676402
0.092739 0.934164 0.737342
0.092828 0.934254 0.798231
0.092918 0.934344 0.859073
0.093007 0.934433 0.919869
0.093097 0.934522 0.980625
0.092560 0.994642 0.014642
0.092630 0.994713 0.062703
0.092722 0.994804 0.125010
0.092813 0.994896 0.186943
0.092904 0.994986 0.248646
0.092994 0.995077 0.310183
0.093085 0.995167 0.371590
0.093175 0.995257 0.432890
0.093265 0.995347 0.494099
0.093355 0.995437 0.555229
0.093445 0.995527 0.616289
0.093534 0.995617 0.677287
0.093624 0.995707 0.738228
0.093714 0.995796 0.799117
0.093803 0.995886 0.859958
0.093893 0.995975 0.920755
0.093982 0.996065 0.981511
0.140531 0.000607 0.000607
0.140602 0.000678 0.048668
0.140694 0.000769 0.110975
0.140785 0.000861 0.172908
0.140876 0.000951 0.234611
0.140966 0.001042 0.296148
0.141056 0.001132 0.357555
0.141147 0.001222 0.418855
0.141237 0.001313 0.480064
0.141327 0.001402 0.541194
0.141417 0.001492 0.602255
0.141506 0.001582 0.663252
0.141596 0.001672 0.724193
0.141685 0.001761 0.785082
0.141775 0.001851 0.845923
0.141864 0.001940 0.906720
0.141954 0.002030 0.967476
0.141450 0.064498 0.001526
0.141521 0.064569 0.049587
0.141613 0.064661 0.111895
0.141704 0.064752 0.173827
0.141795 0.064842 0.235530
0.141885 0.064933 0.297067
0.141976 0.065023 0.358474
0.142066 0.065114 0.419774
0.142156 0.065204 0.480983
0.142246 0.065294 0.542113
0.142336 0.065383 0.603174
0.142425 0.065473 0.664171
0.142515 0.065563 0.725112
0.142605 0.065652 0.786001
0.142694 0.065742 0.846842
0.142784 0.065831 0.907639
0.142873 0.065921 0.968395
0.142357 0.127507 0.002433
0.142428 0.127577 0.050494
0.142519 0.127669 0.112801
0.142610 0.127760 0.174733
0.142701 0.127851 0.236436
0.142792 0.127941 0.297974
0.142882 0.128032 0.359381
0.142972 0.128122 0.420681
0.143062 0.128212 0.481890
0.143152 0.128302 0.543020
0.143242 0.128392 0.604080
0.143332 0.128482 0.665078
0.143421 0.128571 0.726018
0.143511 0.128661 0.786907
0.143601 0.128750 0.847748
0.143690 0.128840 0.908545
0.143779 0.128929 0.969301
0.143259 0.190186 0.003334
0.143329 0.190257 0.051395
0.143421 0.190349 0.113703
0.143512 0.190440 0.175635
0.143603 0.190530 0.237338
0.143693 0.190621 0.298875
0.143784 0.190711 0.360282
0.143874 0.190802 0.421582
0.143964 0.190892 0.482792
0.144054 0.190982 0.543922
0.144144 0.191071 0.604982
0.144234 0.191161 0.665979
0.144323 0.191251 0.726920
0.144413 0.191340 0.787809
0.144502 0.191430 0.848650
0.144592 0.191519 0.909447
0.144681 0.191609 0.970203
0.144157 0.252653 0.004233
0.144228 0.252724 0.052294
0.144320 0.252815 0.114601
0.144411 0.252907 0.176534
0.144502 0.252997 0.238237
0.144592 0.253088 0.299774
0.144682 0.253178 0.361181
0.144773 0.253268 0.422481
0.144863 0.253359 0.483690
0.144953 0.253448 0.544820
0.145042 0.253538 0.605880
0.145132 0.253628 0.666878
0.145222 0.253718 0.727819
0.145311 0.253807 0.788708
0.145401 0.253897 0.849549
0.145490 0.253986 0.910346
0.145580 0.254076 0.971101
0.145054 0.314962 0.005129
0.145124 0.315033 0.053190
0.145216 0.315125 0.115498
0.145307 0.315216 0.177430
0.145398 0.315307 0.239133
0.145488 0.315397 0.300670
0.145579 0.315488 0.362077
0.145669 0.315578 0.423377
0.145759 0.315668 0.484587
0.145849 0.315758 0.545717
0.145939 0.315848 0.606777
0.146029 0.315937 0.667774
0.146118 0.316027 0.728715
0.146208 0.316117 0.789604
0.146297 0.316206 0.850445
0.146387 0.316296 0.911242
0.146476 0.316385 0.971998
0.145948 0.377146 0.006024
0.146019 0.377217 0.054085
0.146111 0.377309 0.116392
0.146202 0.377400 0.178325
0.146292 0.377491 0.240028
0.146383 0.377581 0.301565
0.146473 0.377671 0.362972
0.146564 0.377762 0.424272
0.146654 0.377852 0.485481
0.146744 0.377942 0.546611
0.146833 0.378031 0.607671
0.146923 0.378121 0.668669
0.147013 0.378211 0.729610
0.147102 0.378300 0.790499
0.147192 0.378390 0.851340
0.147281 0.378479 0.912137
0.147371 0.378569 0.972892
0.146841 0.439226 0.006917
0.146912 0.439297 0.054978
0.147004 0.439389 0.117285
0.147095 0.439480 0.179218
0.147186 0.439570 0.240921
0.147276 0.439661 0.302458
0.147366 0.439751 0.363865
0.147457 0.439841 0.425165
0.147547 0.439932 0.486374
0.147637 0.440021 0.547504
0.147726 0.440111 0.608564
0.147816 0.440201 0.669562
0.147906 0.440291 0.730503
0.147995 0.440380 0.791392
0.148085 0.440470 0.852233
0.148174 0.440559 0.913030
0.148264 0.440649 0.973786
0.147733 0.501217 0.007809
0.147804 0.501288 0.055870
0.147895 0.501379 0.118177
0.147987 0.501471 0.180109
0.148077 0.501561 0.241813
0.148168 0.501652 0.303350
0.148258 0.501742 0.364757
0.148348 0.501832 0.426057
0.148438 0.501922 0.487266
0.148528 0.502012 0.548396
0.148618 0.502102 0.609456
0.148708 0.502192 0.670454
0.148798 0.502282 0.731395
0.148887 0.502371 0.792283
0.148977 0.502461 0.853125
0.149066 0.502550 0.913922
0.149156 0.502640 0.974677
0.148624 0.563130 0.008700
0.148694 0.563201 0.056760
0.148786 0.563293 0.119068
0.148877 0.563384 0.181000
0.148968 0.563475 0.242703
0.149059 0.563565 0.304240
0.149149 0.563656 0.365648
0.149239 0.563746 0.426948
0.149329 0.563836 0.488157
0.149419 0.563926 0.549287
0.149509 0.564016 0.610347
0.149599 0.564105 0.671344
0.149688 0.564195 0.732285
0.149778 0.564285 0.793174
0.149867 0.564374 0.854015
0.149957 0.564464 0.914812
0.150046 0.564553 0.975568
0.149513 0.624975 0.009589
0.149584 0.625045 0.057650
0.149676 0.625137 0.119957
0.149767 0.625228 0.181890
0.149858 0.625319 0.243593
0.149948 0.625410 0.305130
0.150039 0.625500 0.366537
0.150129 0.625590 0.427837
0.150219 0.625680 0.489046
0.150309 0.625770 0.550176
0.150399 0.625860 0.611237
0.150488 0.625950 0.672234
0.150578 0.626039 0.733175
0.150668 0.626129 0.794064
0.150757 0.626218 0.854905
0.150847 0.626308 0.915702
0.150936 0.626397 0.976458
0.150402 0.686757 0.010478
0.150473 0.686828 0.058539
0.150565 0.686920 0.120846
0.150656 0.687011 0.182779
0.150747 0.687102 0.244482
0.150837 0.687192 0.306019
0.150927 0.687282 0.367426
0.151018 0.687373 0.428726
0.151108 0.687463 0.489935
0.151198 0.687553 0.551065
0.151287 0.687642 0.612125
0.151377 0.687732 0.673123
0.151467 0.687822 0.734064
0.151556 0.687911 0.794953
0.151646 0.688001 0.855794
0.151735 0.688090 0.916591
0.151825 0.688180 0.977346
0.151290 0.748484 0.011366
0.151361 0.748554 0.059427
0.151453 0.748646 0.121734
0.151544 0.748737 0.183667
0.151634 0.748828 0.245370
0.151725 0.748918 0.306907
0.151815 0.749009 0.368314
0.151906 0.749099 0.429614
0.151996 0.749189 0.490823
0.152086 0.749279 0.551953
0.152175 0.749369 0.613013
0.152265 0.749458 0.674011
0.152355 0.749548 0.734952
0.152444 0.749638 0.795841
0.152534 0.749727 0.856682
0.152623 0.749817 0.917479
0.152713 0.749906 0.978234
0.152177 0.810158 0.012253
0.152248 0.810229 0.060314
0.152340 0.810321 0.122622
0.152431 0.810412 0.184554
0.152522 0.810503 0.246257
0.152612 0.810593 0.307794
0.152703 0.810683 0.369201
0.152793 0.810774 0.430501
0.152883 0.810864 0.491710
0.152973 0.810954 0.552841
0.153063 0.811044 0.613901
0.153152 0.811133 0.674898
0.153242 0.811223 0.735839
0.153332 0.811313 0.796728
0.153421 0.811402 0.857569
0.153511 0.811491 0.918366
0.153600 0.811581 0.979122
0.153064 0.871786 0.013140
0.153135 0.871856 0.061201
0.153226 0.871948 0.123508
0.153318 0.872039 0.185440
0.153408 0.872130 0.247144
0.153499 0.872220 0.308681
0.153589 0.872311 0.370088
0.153679 0.872401 0.431388
0.153769 0.872491 0.492597
0.153859 0.872581 0.553727
0.153949 0.872671 0.614787
0.154039 0.872761 0.675785
0.154129 0.872850 0.736726
0.154218 0.872940 0.797614
0.154308 0.873029 0.858456
0.154397 0.873119 0.919253
0.154487 0.873208 0.980008
0.153950 0.933369 0.014026
0.154021 0.933440 0.062087
0.154112 0.933531 0.124394
0.154203 0.933622 0.186326
0.154294 0.933713 0.248029
0.154385 0.933804 0.309567
0.154475 0.933894 0.370974
0.154565 0.933984 0.432274
0.154655 0.934074 0.493483
0.154745 0.934164 0.554613
0.154835 0.934254 0.615673
0.154925 0.934344 0.676671
0.155015 0.934434 0.737611
0.155104 0.934523 0.798500
0.155194 0.934613 0.859342
0.155283 0.934702 0.920138
0.155373 0.934791 0.980894
0.154835 0.994911 0.014911
0.154906 0.994982 0.062972
0.154998 0.995073 0.125279
0.155089 0.995165 0.187212
0.155180 0.995255 0.248915
0.155270 0.995346 0.310452
0.155360 0.995436 0.371859
0.155451 0.995526 0.433159
0.155541 0.995617 0.494368
0.155631 0.995706 0.555498
0.155721 0.995796 0.616559
0.155810 0.995886 0.677556
0.155900 0.995976 0.738497
0.155989 0.996065 0.799386
0.156079 0.996155 0.860227
0.156168 0.996244 0.921024
0.156258 0.996334 0.981780
0.202520 0.000875 0.000875
0.202590 0.000946 0.048936
0.202682 0.001037 0.111243
0.202773 0.001128 0.173175
0.202864 0.001219 0.234879
0.202954 0.001310 0.296416
0.203045 0.001400 0.357823
0.203135 0.001490 0.419123
0.203225 0.001580 0.480332
0.203315 0.001670 0.541462
0.203405 0.001760 0.602522
0.203495 0.001850 0.663520
0.203584 0.001940 0.724461
0.203674 0.002029 0.785350
0.203763 0.002119 0.846191
0.203853 0.002208 0.906988
0.203942 0.002297 0.967743
0.203439 0.064766 0.001794
