skills/appstore-swiss-grid/assets/grade/luts/warm_skin_v03.cube
TITLE "warm_skin_v03"
LUT_3D_SIZE 5
DOMAIN_MIN 0.0 0.0 0.0
DOMAIN_MAX 1.0 1.0 1.0
0.019055 0.000047 0.000047
0.019251 0.000244 0.232729
0.019461 0.000454 0.481239
0.019670 0.000662 0.727964
0.019877 0.000870 0.973557
0.021163 0.253814 0.002156
0.021360 0.254011 0.234837
0.021570 0.254221 0.483348
0.021778 0.254429 0.730073
0.021986 0.254637 0.975665
0.023242 0.504014 0.004235
0.023439 0.504210 0.236916
0.023649 0.504420 0.485426
0.023857 0.504629 0.732152
0.024065 0.504836 0.977744
0.025307 0.752492 0.006299
0.025503 0.752689 0.238981
0.025713 0.752899 0.487491
0.025922 0.753107 0.734216
0.026129 0.753315 0.979809
0.027336 0.996750 0.008329
0.027533 0.996946 0.241010
0.027743 0.997156 0.489520
0.027951 0.997365 0.736246
0.028159 0.997572 0.981838
0.271487 0.000674 0.000674
0.271684 0.000871 0.233356
0.271894 0.001081 0.481866
0.272102 0.001290 0.728591
0.272310 0.001497 0.974184
0.273595 0.254441 0.002783
0.273792 0.254638 0.235464
0.274002 0.254848 0.483975
0.274211 0.255056 0.730700
0.274418 0.255264 0.976292
0.275674 0.504641 0.004862
0.275871 0.504837 0.237543
0.276081 0.505047 0.486054
0.276289 0.505256 0.732779
0.276497 0.505463 0.978371
0.277739 0.753119 0.006926
0.277935 0.753316 0.239608
0.278145 0.753526 0.488118
0.278354 0.753734 0.734843
0.278561 0.753942 0.980436
0.279768 0.997377 0.008956
0.279965 0.997573 0.241637
0.280175 0.997783 0.490148
0.280383 0.997992 0.736873
0.280591 0.998199 0.982465
0.520055 0.001292 0.001292
0.520252 0.001489 0.233974
0.520462 0.001699 0.482484
0.520670 0.001907 0.729209
0.520878 0.002115 0.974801
0.522164 0.255059 0.003400
0.522360 0.255255 0.236082
0.522570 0.255466 0.484592
0.522779 0.255674 0.731317
0.522986 0.255882 0.976910
0.524243 0.505258 0.005479
0.524439 0.505455 0.238161
0.524649 0.505665 0.486671
0.524858 0.505873 0.733396
0.525065 0.506081 0.978989
0.526307 0.753737 0.007544
0.526504 0.753933 0.240225
0.526714 0.754143 0.488736
0.526922 0.754352 0.735461
0.527130 0.754559 0.981053
0.528337 0.997994 0.009573
0.528533 0.998191 0.242255
0.528743 0.998401 0.490765
0.528952 0.998609 0.737490
0.529159 0.998817 0.983083
0.766983 0.001905 0.001905
0.767180 0.002102 0.234587
0.767390 0.002312 0.483097
0.767598 0.002521 0.729822
0.767806 0.002728 0.975415
0.769091 0.255672 0.004014
0.769288 0.255869 0.236695
0.769498 0.256079 0.485206
0.769706 0.256287 0.731931
0.769914 0.256495 0.977523
0.771170 0.505872 0.006093
0.771367 0.506068 0.238774
0.771577 0.506278 0.487285
0.771785 0.506487 0.734010
0.771993 0.506694 0.979602
0.773235 0.754350 0.008157
0.773431 0.754547 0.240839
0.773641 0.754757 0.489349
0.773850 0.754965 0.736074
0.774057 0.755173 0.981667
0.775264 0.998608 0.010187
0.775461 0.998804 0.242868
0.775671 0.999014 0.491378
0.775879 0.999223 0.738104
0.776087 0.999430 0.983696
0.990883 0.002462 0.002462
0.991079 0.002658 0.235143
0.991289 0.002868 0.483653
0.991498 0.003077 0.730379
0.991705 0.003284 0.975971
0.992991 0.256229 0.004570
0.993188 0.256425 0.237252
0.993398 0.256635 0.485762
0.993606 0.256844 0.732487
0.993814 0.257051 0.978080
0.995070 0.506428 0.006649
0.995267 0.506625 0.239330
0.995477 0.506835 0.487841
0.995685 0.507043 0.734566
0.995893 0.507251 0.980158
0.997135 0.754906 0.008713
0.997331 0.755103 0.241395
0.997541 0.755313 0.489905
0.997750 0.755521 0.736630
0.997957 0.755729 0.982223
0.999164 0.999164 0.010743
0.999361 0.999361 0.243424
0.999571 0.999571 0.491935
0.999779 0.999779 0.738660
0.999987 0.999987 0.984252
