skills/appstore-swiss-grid/assets/grade/luts/warm_skin_v03.cube
TITLE "warm_skin_v03"
LUT_3D_SIZE 9
DOMAIN_MIN 0.0 0.0 0.0
DOMAIN_MAX 1.0 1.0 1.0
0.019055 0.000047 0.000047
0.019145 0.000138 0.107234
0.019251 0.000244 0.232729
0.019357 0.000349 0.357278
0.019461 0.000454 0.481239
0.019566 0.000558 0.604771
0.019670 0.000662 0.727964
0.019774 0.000766 0.850879
0.019877 0.000870 0.973557
0.020114 0.127563 0.001107
0.020205 0.127654 0.108293
0.020311 0.127760 0.233788
0.020416 0.127865 0.358338
0.020521 0.127970 0.482299
0.020625 0.128075 0.605830
0.020729 0.128179 0.729024
0.020833 0.128282 0.851939
0.020937 0.128386 0.974616
0.021163 0.253814 0.002156
0.021254 0.253905 0.109342
0.021360 0.254011 0.234837
0.021465 0.254116 0.359387
0.021570 0.254221 0.483348
0.021674 0.254325 0.606879
0.021778 0.254429 0.730073
0.021882 0.254533 0.852988
0.021986 0.254637 0.975665
0.022205 0.379194 0.003198
0.022296 0.379285 0.110384
0.022402 0.379391 0.235879
0.022507 0.379496 0.360429
0.022612 0.379601 0.484389
0.022716 0.379705 0.607921
0.022820 0.379810 0.731114
0.022924 0.379913 0.854029
0.023028 0.380017 0.976707
0.023242 0.504014 0.004235
0.023333 0.504104 0.111421
0.023439 0.504210 0.236916
0.023544 0.504316 0.361466
0.023649 0.504420 0.485426
0.023753 0.504525 0.608958
0.023857 0.504629 0.732152
0.023961 0.504733 0.855066
0.024065 0.504836 0.977744
0.024276 0.628418 0.005268
0.024366 0.628508 0.112454
0.024472 0.628614 0.237950
0.024578 0.628720 0.362499
0.024682 0.628824 0.486460
0.024787 0.628929 0.609992
0.024891 0.629033 0.733185
0.024995 0.629137 0.856100
0.025098 0.629240 0.978778
0.025307 0.752492 0.006299
0.025397 0.752583 0.113485
0.025503 0.752689 0.238981
0.025608 0.752794 0.363530
0.025713 0.752899 0.487491
0.025818 0.753003 0.611022
0.025922 0.753107 0.734216
0.026026 0.753211 0.857131
0.026129 0.753315 0.979809
0.026335 0.876293 0.007328
0.026426 0.876383 0.114514
0.026532 0.876489 0.240009
0.026637 0.876595 0.364559
0.026742 0.876699 0.488520
0.026846 0.876804 0.612051
0.026950 0.876908 0.735245
0.027054 0.877012 0.858160
0.027158 0.877115 0.980837
0.027336 0.996750 0.008329
0.027427 0.996840 0.115515
0.027533 0.996946 0.241010
0.027638 0.997052 0.365560
0.027743 0.997156 0.489520
0.027847 0.997261 0.613052
0.027951 0.997365 0.736246
0.028055 0.997469 0.859160
0.028159 0.997572 0.981838
0.146141 0.000363 0.000363
0.146232 0.000454 0.107549
0.146338 0.000560 0.233045
0.146443 0.000665 0.357594
0.146548 0.000770 0.481555
0.146652 0.000874 0.605086
0.146756 0.000978 0.728280
0.146860 0.001082 0.851195
0.146964 0.001186 0.973873
0.147201 0.127879 0.001423
0.147291 0.127970 0.108609
0.147397 0.128076 0.234104
0.147503 0.128181 0.358654
0.147607 0.128286 0.482614
0.147712 0.128390 0.606146
0.147816 0.128494 0.729339
0.147920 0.128598 0.852254
0.148023 0.128702 0.974932
0.148250 0.254130 0.002472
0.148340 0.254221 0.109658
0.148446 0.254327 0.235153
0.148551 0.254432 0.359703
0.148656 0.254537 0.483663
0.148761 0.254641 0.607195
0.148865 0.254745 0.730388
0.148969 0.254849 0.853303
0.149072 0.254953 0.975981
0.149291 0.379510 0.003513
0.149382 0.379601 0.110699
0.149488 0.379707 0.236195
0.149593 0.379812 0.360744
0.149698 0.379917 0.484705
0.149802 0.380021 0.608237
0.149906 0.380125 0.731430
0.150010 0.380229 0.854345
0.150114 0.380333 0.977023
0.150328 0.504329 0.004550
0.150419 0.504420 0.111737
0.150525 0.504526 0.237232
0.150630 0.504631 0.361781
0.150735 0.504736 0.485742
0.150839 0.504840 0.609274
0.150944 0.504945 0.732467
0.151047 0.505048 0.855382
0.151151 0.505152 0.978060
0.151362 0.628733 0.005584
0.151453 0.628824 0.112770
0.151559 0.628930 0.238265
0.151664 0.629035 0.362815
0.151769 0.629140 0.486776
0.151873 0.629244 0.610307
0.151977 0.629349 0.733501
0.152081 0.629452 0.856416
0.152185 0.629556 0.979093
0.152393 0.752808 0.006615
0.152484 0.752898 0.113801
0.152590 0.753004 0.239296
0.152695 0.753110 0.363846
0.152800 0.753214 0.487807
0.152904 0.753319 0.611338
0.153008 0.753423 0.734532
0.153112 0.753527 0.857447
0.153216 0.753630 0.980124
0.153422 0.876608 0.007643
0.153512 0.876699 0.114830
0.153618 0.876805 0.240325
0.153723 0.876910 0.364875
0.153828 0.877015 0.488835
0.153933 0.877120 0.612367
0.154037 0.877224 0.735560
0.154141 0.877328 0.858475
0.154244 0.877431 0.981153
0.154422 0.997065 0.008644
0.154513 0.997156 0.115831
0.154619 0.997262 0.241326
0.154724 0.997367 0.365875
0.154829 0.997472 0.489836
0.154933 0.997576 0.613368
0.155038 0.997681 0.736561
0.155141 0.997784 0.859476
0.155245 0.997888 0.982154
0.271487 0.000674 0.000674
0.271577 0.000765 0.107861
0.271684 0.000871 0.233356
0.271789 0.000976 0.357905
0.271894 0.001081 0.481866
0.271998 0.001186 0.605398
0.272102 0.001290 0.728591
0.272206 0.001393 0.851506
0.272310 0.001497 0.974184
0.272546 0.128191 0.001734
0.272637 0.128281 0.108920
0.272743 0.128387 0.234415
0.272848 0.128492 0.358965
0.272953 0.128597 0.482926
0.273057 0.128702 0.606457
0.273162 0.128806 0.729651
0.273265 0.128910 0.852566
0.273369 0.129013 0.975243
0.273595 0.254441 0.002783
0.273686 0.254532 0.109969
0.273792 0.254638 0.235464
0.273897 0.254743 0.360014
0.274002 0.254848 0.483975
0.274106 0.254952 0.607506
0.274211 0.255056 0.730700
0.274314 0.255160 0.853615
0.274418 0.255264 0.976292
0.274637 0.379822 0.003825
0.274728 0.379912 0.111011
0.274834 0.380018 0.236506
0.274939 0.380123 0.361056
0.275044 0.380228 0.485016
0.275148 0.380333 0.608548
0.275252 0.380437 0.731742
0.275356 0.380541 0.854656
0.275460 0.380644 0.977334
0.275674 0.504641 0.004862
0.275765 0.504731 0.112048
0.275871 0.504837 0.237543
0.275976 0.504943 0.362093
0.276081 0.505047 0.486054
0.276185 0.505152 0.609585
0.276289 0.505256 0.732779
0.276393 0.505360 0.855694
0.276497 0.505463 0.978371
0.276708 0.629045 0.005895
0.276798 0.629135 0.113082
0.276904 0.629241 0.238577
0.277010 0.629347 0.363126
0.277114 0.629451 0.487087
0.277219 0.629556 0.610619
0.277323 0.629660 0.733812
0.277427 0.629764 0.856727
0.277531 0.629867 0.979405
0.277739 0.753119 0.006926
0.277829 0.753210 0.114112
0.277935 0.753316 0.239608
0.278041 0.753421 0.364157
0.278145 0.753526 0.488118
0.278250 0.753630 0.611650
0.278354 0.753734 0.734843
0.278458 0.753838 0.857758
0.278561 0.753942 0.980436
0.278767 0.876920 0.007955
0.278858 0.877010 0.115141
0.278964 0.877117 0.240636
0.279069 0.877222 0.365186
0.279174 0.877327 0.489147
0.279278 0.877431 0.612678
0.279382 0.877535 0.735872
0.279486 0.877639 0.858787
0.279590 0.877743 0.981464
0.279768 0.997377 0.008956
0.279859 0.997467 0.116142
0.279965 0.997573 0.241637
0.280070 0.997679 0.366187
0.280175 0.997783 0.490148
0.280279 0.997888 0.613679
0.280383 0.997992 0.736873
0.280487 0.998096 0.859788
0.280591 0.998199 0.982465
0.396036 0.000984 0.000984
0.396126 0.001074 0.108170
0.396232 0.001181 0.233665
0.396338 0.001286 0.358215
0.396442 0.001391 0.482176
0.396547 0.001495 0.605707
0.396651 0.001599 0.728901
0.396755 0.001703 0.851816
0.396858 0.001807 0.974493
0.397095 0.128500 0.002043
0.397186 0.128591 0.109230
0.397292 0.128697 0.234725
0.397397 0.128802 0.359274
0.397502 0.128907 0.483235
0.397606 0.129011 0.606767
0.397710 0.129115 0.729960
0.397814 0.129219 0.852875
0.397918 0.129323 0.975553
0.398144 0.254751 0.003092
0.398235 0.254841 0.110279
0.398341 0.254947 0.235774
0.398446 0.255053 0.360323
0.398551 0.255157 0.484284
0.398655 0.255262 0.607816
0.398759 0.255366 0.731009
0.398863 0.255470 0.853924
0.398967 0.255573 0.976602
0.399186 0.380131 0.004134
0.399276 0.380222 0.111320
0.399382 0.380328 0.236816
0.399488 0.380433 0.361365
0.399593 0.380538 0.485326
0.399697 0.380642 0.608857
0.399801 0.380746 0.732051
0.399905 0.380850 0.854966
0.400009 0.380954 0.977644
0.400223 0.504950 0.005171
0.400314 0.505041 0.112357
0.400420 0.505147 0.237853
0.400525 0.505252 0.362402
0.400630 0.505357 0.486363
0.400734 0.505461 0.609895
0.400838 0.505565 0.733088
0.400942 0.505669 0.856003
0.401046 0.505773 0.978681
0.401257 0.629354 0.006205
0.401347 0.629445 0.113391
0.401453 0.629551 0.238886
0.401558 0.629656 0.363436
0.401663 0.629761 0.487397
0.401768 0.629865 0.610928
0.401872 0.629969 0.734122
0.401976 0.630073 0.857037
0.402079 0.630177 0.979714
0.402287 0.753428 0.007236
0.402378 0.753519 0.114422
0.402484 0.753625 0.239917
0.402589 0.753730 0.364467
0.402694 0.753835 0.488427
0.402799 0.753940 0.611959
0.402903 0.754044 0.735153
0.403006 0.754148 0.858067
0.403110 0.754251 0.980745
0.403316 0.877229 0.008264
0.403407 0.877320 0.115451
0.403513 0.877426 0.240946
0.403618 0.877531 0.365495
0.403723 0.877636 0.489456
0.403827 0.877740 0.612988
0.403931 0.877844 0.736181
0.404035 0.877948 0.859096
0.404139 0.878052 0.981774
0.404317 0.997686 0.009265
0.404408 0.997777 0.116451
0.404514 0.997883 0.241947
0.404619 0.997988 0.366496
0.404724 0.998093 0.490457
0.404828 0.998197 0.613988
0.404932 0.998301 0.737182
0.405036 0.998405 0.860097
0.405140 0.998509 0.982775
0.520055 0.001292 0.001292
0.520146 0.001383 0.108478
0.520252 0.001489 0.233974
0.520357 0.001594 0.358523
0.520462 0.001699 0.482484
0.520566 0.001803 0.606015
0.520670 0.001907 0.729209
0.520774 0.002011 0.852124
0.520878 0.002115 0.974801
0.521115 0.128808 0.002351
0.521205 0.128899 0.109538
0.521311 0.129005 0.235033
0.521417 0.129110 0.359582
0.521521 0.129215 0.483543
0.521626 0.129319 0.607075
0.521730 0.129423 0.730268
0.521834 0.129527 0.853183
0.521937 0.129631 0.975861
0.522164 0.255059 0.003400
0.522254 0.255149 0.110587
0.522360 0.255255 0.236082
0.522466 0.255361 0.360631
0.522570 0.255466 0.484592
0.522675 0.255570 0.608124
0.522779 0.255674 0.731317
0.522883 0.255778 0.854232
0.522986 0.255882 0.976910
0.523205 0.380439 0.004442
0.523296 0.380530 0.111628
0.523402 0.380636 0.237124
0.523507 0.380741 0.361673
0.523612 0.380846 0.485634
0.523717 0.380950 0.609166
0.523821 0.381054 0.732359
0.523925 0.381158 0.855274
0.524028 0.381262 0.977952
0.524243 0.505258 0.005479
0.524333 0.505349 0.112665
0.524439 0.505455 0.238161
0.524544 0.505560 0.362710
0.524649 0.505665 0.486671
0.524754 0.505769 0.610203
0.524858 0.505873 0.733396
0.524962 0.505977 0.856311
0.525065 0.506081 0.978989
0.525276 0.629662 0.006513
0.525367 0.629753 0.113699
0.525473 0.629859 0.239194
0.525578 0.629964 0.363744
0.525683 0.630069 0.487705
0.525787 0.630173 0.611236
0.525891 0.630277 0.734430
0.525995 0.630381 0.857345
0.526099 0.630485 0.980022
0.526307 0.753737 0.007544
0.526398 0.753827 0.114730
0.526504 0.753933 0.240225
0.526609 0.754038 0.364775
0.526714 0.754143 0.488736
0.526818 0.754248 0.612267
0.526922 0.754352 0.735461
0.527026 0.754456 0.858376
0.527130 0.754559 0.981053
0.527336 0.877537 0.008572
0.527426 0.877628 0.115759
0.527532 0.877734 0.241254
0.527638 0.877839 0.365803
0.527742 0.877944 0.489764
0.527847 0.878048 0.613296
0.527951 0.878153 0.736489
0.528055 0.878256 0.859404
0.528158 0.878360 0.982082
0.528337 0.997994 0.009573
0.528427 0.998085 0.116759
0.528533 0.998191 0.242255
0.528638 0.998296 0.366804
0.528743 0.998401 0.490765
0.528848 0.998505 0.614297
0.528952 0.998609 0.737490
0.529056 0.998713 0.860405
0.529159 0.998817 0.983083
0.643678 0.001599 0.001599
0.643769 0.001690 0.108785
0.643875 0.001796 0.234281
0.643980 0.001901 0.358830
0.644085 0.002006 0.482791
0.644189 0.002110 0.606322
0.644293 0.002214 0.729516
0.644397 0.002318 0.852431
0.644501 0.002422 0.975109
0.644737 0.129115 0.002659
0.644828 0.129206 0.109845
0.644934 0.129312 0.235340
0.645039 0.129417 0.359890
0.645144 0.129522 0.483850
0.645248 0.129626 0.607382
0.645353 0.129730 0.730576
0.645456 0.129834 0.853490
0.645560 0.129938 0.976168
0.645786 0.255366 0.003708
0.645877 0.255457 0.110894
0.645983 0.255563 0.236389
0.646088 0.255668 0.360939
0.646193 0.255773 0.484899
0.646297 0.255877 0.608431
0.646402 0.255981 0.731624
0.646505 0.256085 0.854539
0.646609 0.256189 0.977217
0.646828 0.380746 0.004749
0.646919 0.380837 0.111936
0.647025 0.380943 0.237431
0.647130 0.381048 0.361980
0.647235 0.381153 0.485941
0.647339 0.381257 0.609473
0.647443 0.381361 0.732666
0.647547 0.381465 0.855581
0.647651 0.381569 0.978259
0.647865 0.505565 0.005786
0.647956 0.505656 0.112973
0.648062 0.505762 0.238468
0.648167 0.505867 0.363017
0.648272 0.505972 0.486978
0.648376 0.506076 0.610510
0.648480 0.506181 0.733703
0.648584 0.506284 0.856618
0.648688 0.506388 0.979296
0.648899 0.629969 0.006820
0.648989 0.630060 0.114006
0.649096 0.630166 0.239502
0.649201 0.630271 0.364051
0.649306 0.630376 0.488012
0.649410 0.630480 0.611543
0.649514 0.630585 0.734737
0.649618 0.630688 0.857652
0.649722 0.630792 0.980330
0.649930 0.754044 0.007851
0.650020 0.754134 0.115037
0.650126 0.754240 0.240532
0.650232 0.754346 0.365082
0.650336 0.754450 0.489043
0.650441 0.754555 0.612574
0.650545 0.754659 0.735768
0.650649 0.754763 0.858683
0.650752 0.754866 0.981360
0.650958 0.877845 0.008880
0.651049 0.877935 0.116066
0.651155 0.878041 0.241561
0.651260 0.878146 0.366111
0.651365 0.878251 0.490071
0.651469 0.878356 0.613603
0.651574 0.878460 0.736796
0.651677 0.878564 0.859711
0.651781 0.878667 0.982389
0.651959 0.998301 0.009880
0.652050 0.998392 0.117067
0.652156 0.998498 0.242562
0.652261 0.998603 0.367111
0.652366 0.998708 0.491072
0.652470 0.998812 0.614604
0.652574 0.998917 0.737797
0.652678 0.999020 0.860712
0.652782 0.999124 0.983390
0.766983 0.001905 0.001905
0.767073 0.001996 0.109092
0.767180 0.002102 0.234587
0.767285 0.002207 0.359136
0.767390 0.002312 0.483097
0.767494 0.002416 0.606629
0.767598 0.002521 0.729822
0.767702 0.002624 0.852737
0.767806 0.002728 0.975415
0.768042 0.129422 0.002965
0.768133 0.129512 0.110151
0.768239 0.129618 0.235646
0.768344 0.129723 0.360196
0.768449 0.129828 0.484157
0.768553 0.129933 0.607688
0.768658 0.130037 0.730882
0.768761 0.130141 0.853797
0.768865 0.130244 0.976474
0.769091 0.255672 0.004014
0.769182 0.255763 0.111200
0.769288 0.255869 0.236695
0.769393 0.255974 0.361245
0.769498 0.256079 0.485206
0.769602 0.256183 0.608737
0.769706 0.256287 0.731931
0.769810 0.256391 0.854846
0.769914 0.256495 0.977523
0.770133 0.381053 0.005056
0.770224 0.381143 0.112242
0.770330 0.381249 0.237737
0.770435 0.381354 0.362287
0.770540 0.381459 0.486247
0.770644 0.381564 0.609779
0.770748 0.381668 0.732973
0.770852 0.381772 0.855887
0.770956 0.381875 0.978565
0.771170 0.505872 0.006093
0.771261 0.505962 0.113279
0.771367 0.506068 0.238774
0.771472 0.506174 0.363324
0.771577 0.506278 0.487285
0.771681 0.506383 0.610816
0.771785 0.506487 0.734010
0.771889 0.506591 0.856925
0.771993 0.506694 0.979602
0.772204 0.630276 0.007126
0.772294 0.630366 0.114313
0.772400 0.630472 0.239808
0.772506 0.630578 0.364357
0.772610 0.630682 0.488318
0.772715 0.630787 0.611850
0.772819 0.630891 0.735043
0.772923 0.630995 0.857958
0.773026 0.631098 0.980636
0.773235 0.754350 0.008157
0.773325 0.754441 0.115343
0.773431 0.754547 0.240839
0.773537 0.754652 0.365388
0.773641 0.754757 0.489349
0.773746 0.754861 0.612881
0.773850 0.754965 0.736074
0.773954 0.755069 0.858989
0.774057 0.755173 0.981667
0.774263 0.878151 0.009186
0.774354 0.878241 0.116372
0.774460 0.878348 0.241867
0.774565 0.878453 0.366417
0.774670 0.878558 0.490378
0.774774 0.878662 0.613909
0.774878 0.878766 0.737103
0.774982 0.878870 0.860018
0.775086 0.878974 0.982695
0.775264 0.998608 0.010187
0.775355 0.998698 0.117373
0.775461 0.998804 0.242868
0.775566 0.998910 0.367418
0.775671 0.999014 0.491378
0.775775 0.999119 0.614910
0.775879 0.999223 0.738104
0.775983 0.999327 0.861018
0.776087 0.999430 0.983696
0.890023 0.002211 0.002211
0.890113 0.002302 0.109397
0.890220 0.002408 0.234893
0.890325 0.002513 0.359442
0.890430 0.002618 0.483403
0.890534 0.002722 0.606934
0.890638 0.002826 0.730128
0.890742 0.002930 0.853043
0.890846 0.003034 0.975721
0.891082 0.129727 0.003271
0.891173 0.129818 0.110457
0.891279 0.129924 0.235952
0.891384 0.130029 0.360502
0.891489 0.130134 0.484462
0.891593 0.130238 0.607994
0.891698 0.130342 0.731188
0.891801 0.130446 0.854102
0.891905 0.130550 0.976780
0.892131 0.255978 0.004320
0.892222 0.256069 0.111506
0.892328 0.256175 0.237001
0.892433 0.256280 0.361551
0.892538 0.256385 0.485511
0.892642 0.256489 0.609043
0.892747 0.256593 0.732236
0.892850 0.256697 0.855151
0.892954 0.256801 0.977829
0.893173 0.381358 0.005361
0.893264 0.381449 0.112548
0.893370 0.381555 0.238043
0.893475 0.381660 0.362592
0.893580 0.381765 0.486553
0.893684 0.381869 0.610085
0.893788 0.381973 0.733278
0.893892 0.382077 0.856193
0.893996 0.382181 0.978871
0.894210 0.506177 0.006398
0.894301 0.506268 0.113585
0.894407 0.506374 0.239080
0.894512 0.506479 0.363629
0.894617 0.506584 0.487590
0.894721 0.506688 0.611122
0.894825 0.506793 0.734315
0.894929 0.506896 0.857230
0.895033 0.507000 0.979908
0.895244 0.630581 0.007432
0.895334 0.630672 0.114618
0.895440 0.630778 0.240114
0.895546 0.630883 0.364663
0.895650 0.630988 0.488624
0.895755 0.631092 0.612155
0.895859 0.631197 0.735349
0.895963 0.631300 0.858264
0.896067 0.631404 0.980942
0.896275 0.754656 0.008463
0.896365 0.754746 0.115649
0.896471 0.754852 0.241144
0.896577 0.754958 0.365694
0.896681 0.755062 0.489655
0.896786 0.755167 0.613186
0.896890 0.755271 0.736380
0.896994 0.755375 0.859295
0.897097 0.755478 0.981972
0.897303 0.878457 0.009492
0.897394 0.878547 0.116678
0.897500 0.878653 0.242173
0.897605 0.878758 0.366723
0.897710 0.878863 0.490683
0.897814 0.878968 0.614215
0.897918 0.879072 0.737408
0.898022 0.879176 0.860323
0.898126 0.879279 0.983001
0.898304 0.998913 0.010492
0.898395 0.999004 0.117679
0.898501 0.999110 0.243174
0.898606 0.999215 0.367723
0.898711 0.999320 0.491684
0.898815 0.999424 0.615216
0.898919 0.999529 0.738409
0.899023 0.999632 0.861324
0.899127 0.999736 0.984002
0.990883 0.002462 0.002462
0.990973 0.002552 0.109648
0.991079 0.002658 0.235143
0.991185 0.002764 0.359693
0.991289 0.002868 0.483653
0.991394 0.002973 0.607185
0.991498 0.003077 0.730379
0.991602 0.003181 0.853293
0.991705 0.003284 0.975971
0.991942 0.129978 0.003521
0.992033 0.130068 0.110707
0.992139 0.130174 0.236203
0.992244 0.130280 0.360752
0.992349 0.130384 0.484713
0.992453 0.130489 0.608245
0.992557 0.130593 0.731438
0.992661 0.130697 0.854353
0.992765 0.130801 0.977031
0.992991 0.256229 0.004570
0.993082 0.256319 0.111756
0.993188 0.256425 0.237252
0.993293 0.256530 0.361801
0.993398 0.256635 0.485762
0.993502 0.256740 0.609293
0.993606 0.256844 0.732487
0.993710 0.256948 0.855402
0.993814 0.257051 0.978080
0.994033 0.381609 0.005612
0.994124 0.381699 0.112798
0.994230 0.381805 0.238293
0.994335 0.381911 0.362843
0.994440 0.382015 0.486804
0.994544 0.382120 0.610335
0.994648 0.382224 0.733529
0.994752 0.382328 0.856444
0.994856 0.382431 0.979121
0.995070 0.506428 0.006649
0.995161 0.506519 0.113835
0.995267 0.506625 0.239330
0.995372 0.506730 0.363880
0.995477 0.506835 0.487841
0.995581 0.506939 0.611372
0.995685 0.507043 0.734566
0.995789 0.507147 0.857481
0.995893 0.507251 0.980158
0.996104 0.630832 0.007683
0.996194 0.630923 0.114869
0.996300 0.631029 0.240364
0.996406 0.631134 0.364914
0.996510 0.631239 0.488874
0.996615 0.631343 0.612406
0.996719 0.631447 0.735600
0.996823 0.631551 0.858514
0.996926 0.631655 0.981192
0.997135 0.754906 0.008713
0.997225 0.754997 0.115900
0.997331 0.755103 0.241395
0.997436 0.755208 0.365945
0.997541 0.755313 0.489905
0.997646 0.755417 0.613437
0.997750 0.755521 0.736630
0.997854 0.755625 0.859545
0.997957 0.755729 0.982223
0.998163 0.878707 0.009742
0.998254 0.878798 0.116928
0.998360 0.878904 0.242424
0.998465 0.879009 0.366973
0.998570 0.879114 0.490934
0.998674 0.879218 0.614465
0.998778 0.879322 0.737659
0.998882 0.879426 0.860574
0.998986 0.879530 0.983252
0.999164 0.999164 0.010743
0.999255 0.999255 0.117929
0.999361 0.999361 0.243424
0.999466 0.999466 0.367974
0.999571 0.999571 0.491935
0.999675 0.999675 0.615466
0.999779 0.999779 0.738660
0.999883 0.999883 0.861575
0.999987 0.999987 0.984252
