skills/appstore-swiss-grid/assets/grade/luts/warm_skin_v03.cube
TITLE "warm_skin_v03"
LUT_3D_SIZE 17
DOMAIN_MIN 0.0 0.0 0.0
DOMAIN_MAX 1.0 1.0 1.0
0.019055 0.000047 0.000047
0.019092 0.000084 0.043797
0.019145 0.000138 0.107234
0.019199 0.000191 0.170139
0.019251 0.000244 0.232729
0.019304 0.000297 0.295092
0.019357 0.000349 0.357278
0.019409 0.000402 0.419320
0.019461 0.000454 0.481239
0.019514 0.000506 0.543052
0.019566 0.000558 0.604771
0.019618 0.000610 0.666405
0.019670 0.000662 0.727964
0.019722 0.000714 0.789454
0.019774 0.000766 0.850879
0.019826 0.000818 0.912246
0.019877 0.000870 0.973557
0.019585 0.063855 0.000577
0.019622 0.063892 0.044327
0.019676 0.063945 0.107764
0.019729 0.063999 0.170669
0.019782 0.064051 0.233259
0.019834 0.064104 0.295622
0.019887 0.064157 0.357809
0.019939 0.064209 0.419850
0.019992 0.064261 0.481769
0.020044 0.064314 0.543582
0.020096 0.064366 0.605301
0.020148 0.064418 0.666936
0.020200 0.064470 0.728494
0.020252 0.064522 0.789984
0.020304 0.064574 0.851409
0.020356 0.064626 0.912776
0.020408 0.064678 0.974087
0.020114 0.127563 0.001107
0.020151 0.127600 0.044856
0.020205 0.127654 0.108293
0.020258 0.127707 0.171199
0.020311 0.127760 0.233788
0.020364 0.127813 0.296151
0.020416 0.127865 0.358338
0.020469 0.127918 0.420380
0.020521 0.127970 0.482299
0.020573 0.128022 0.544111
0.020625 0.128075 0.605830
0.020677 0.128127 0.667465
0.020729 0.128179 0.729024
0.020781 0.128231 0.790513
0.020833 0.128282 0.851939
0.020885 0.128334 0.913305
0.020937 0.128386 0.974616
0.020640 0.190831 0.001632
0.020677 0.190868 0.045382
0.020731 0.190921 0.108819
0.020784 0.190975 0.171724
0.020837 0.191027 0.234314
0.020889 0.191080 0.296677
0.020942 0.191133 0.358864
0.020994 0.191185 0.420905
0.021047 0.191237 0.482824
0.021099 0.191290 0.544637
0.021151 0.191342 0.606356
0.021203 0.191394 0.667991
0.021255 0.191446 0.729549
0.021307 0.191498 0.791039
0.021359 0.191550 0.852464
0.021411 0.191602 0.913831
0.021463 0.191653 0.975142
0.021163 0.253814 0.002156
0.021200 0.253851 0.045905
0.021254 0.253905 0.109342
0.021307 0.253958 0.172248
0.021360 0.254011 0.234837
0.021413 0.254064 0.297200
0.021465 0.254116 0.359387
0.021518 0.254169 0.421429
0.021570 0.254221 0.483348
0.021622 0.254273 0.545160
0.021674 0.254325 0.606879
0.021726 0.254377 0.668514
0.021778 0.254429 0.730073
0.021830 0.254481 0.791562
0.021882 0.254533 0.852988
0.021934 0.254585 0.914354
0.021986 0.254637 0.975665
0.021685 0.316588 0.002677
0.021722 0.316625 0.046427
0.021775 0.316678 0.109864
0.021829 0.316731 0.172769
0.021881 0.316784 0.235359
0.021934 0.316837 0.297722
0.021987 0.316890 0.359908
0.022039 0.316942 0.421950
0.022091 0.316994 0.483869
0.022144 0.317047 0.545682
0.022196 0.317099 0.607401
0.022248 0.317151 0.669036
0.022300 0.317203 0.730594
0.022352 0.317255 0.792084
0.022404 0.317307 0.853509
0.022456 0.317359 0.914876
0.022507 0.317410 0.976187
0.022205 0.379194 0.003198
0.022242 0.379231 0.046947
0.022296 0.379285 0.110384
0.022349 0.379338 0.173290
0.022402 0.379391 0.235879
0.022454 0.379444 0.298242
0.022507 0.379496 0.360429
0.022559 0.379549 0.422470
0.022612 0.379601 0.484389
0.022664 0.379653 0.546202
0.022716 0.379705 0.607921
0.022768 0.379758 0.669556
0.022820 0.379810 0.731114
0.022872 0.379862 0.792604
0.022924 0.379913 0.854029
0.022976 0.379965 0.915396
0.023028 0.380017 0.976707
0.022724 0.441663 0.003717
0.022761 0.441700 0.047466
0.022815 0.441754 0.110903
0.022868 0.441807 0.173809
0.022921 0.441860 0.236398
0.022973 0.441912 0.298761
0.023026 0.441965 0.360948
0.023078 0.442017 0.422989
0.023131 0.442070 0.484908
0.023183 0.442122 0.546721
0.023235 0.442174 0.608440
0.023287 0.442226 0.670075
0.023339 0.442278 0.731633
0.023391 0.442330 0.793123
0.023443 0.442382 0.854548
0.023495 0.442434 0.915915
0.023547 0.442486 0.977226
0.023242 0.504014 0.004235
0.023279 0.504051 0.047984
0.023333 0.504104 0.111421
0.023386 0.504157 0.174327
0.023439 0.504210 0.236916
0.023491 0.504263 0.299279
0.023544 0.504316 0.361466
0.023596 0.504368 0.423507
0.023649 0.504420 0.485426
0.023701 0.504473 0.547239
0.023753 0.504525 0.608958
0.023805 0.504577 0.670593
0.023857 0.504629 0.732152
0.023909 0.504681 0.793641
0.023961 0.504733 0.855066
0.024013 0.504785 0.916433
0.024065 0.504836 0.977744
0.023759 0.566261 0.004752
0.023796 0.566298 0.048501
0.023850 0.566352 0.111938
0.023903 0.566405 0.174844
0.023956 0.566458 0.237433
0.024009 0.566511 0.299796
0.024061 0.566563 0.361983
0.024114 0.566616 0.424025
0.024166 0.566668 0.485944
0.024218 0.566720 0.547756
0.024270 0.566772 0.609475
0.024322 0.566824 0.671110
0.024374 0.566876 0.732669
0.024426 0.566928 0.794158
0.024478 0.566980 0.855584
0.024530 0.567032 0.916950
0.024582 0.567084 0.978261
0.024276 0.628418 0.005268
0.024313 0.628455 0.049018
0.024366 0.628508 0.112454
0.024419 0.628561 0.175360
0.024472 0.628614 0.237950
0.024525 0.628667 0.300313
0.024578 0.628720 0.362499
0.024630 0.628772 0.424541
0.024682 0.628824 0.486460
0.024735 0.628877 0.548273
0.024787 0.628929 0.609992
0.024839 0.628981 0.671626
0.024891 0.629033 0.733185
0.024943 0.629085 0.794675
0.024995 0.629137 0.856100
0.025047 0.629189 0.917466
0.025098 0.629240 0.978778
0.024791 0.690492 0.005784
0.024828 0.690529 0.049534
0.024882 0.690583 0.112970
0.024935 0.690636 0.175876
0.024988 0.690689 0.238466
0.025041 0.690741 0.300829
0.025093 0.690794 0.363015
0.025146 0.690846 0.425057
0.025198 0.690899 0.486976
0.025250 0.690951 0.548789
0.025302 0.691003 0.610507
0.025355 0.691055 0.672142
0.025407 0.691107 0.733701
0.025459 0.691159 0.795190
0.025510 0.691211 0.856616
0.025562 0.691263 0.917982
0.025614 0.691315 0.979294
0.025307 0.752492 0.006299
0.025344 0.752529 0.050049
0.025397 0.752583 0.113485
0.025450 0.752636 0.176391
0.025503 0.752689 0.238981
0.025556 0.752741 0.301344
0.025608 0.752794 0.363530
0.025661 0.752846 0.425572
0.025713 0.752899 0.487491
0.025765 0.752951 0.549304
0.025818 0.753003 0.611022
0.025870 0.753055 0.672657
0.025922 0.753107 0.734216
0.025974 0.753159 0.795705
0.026026 0.753211 0.857131
0.026077 0.753263 0.918497
0.026129 0.753315 0.979809
0.025821 0.814424 0.006814
0.025858 0.814461 0.050563
0.025912 0.814514 0.114000
0.025965 0.814567 0.176906
0.026018 0.814620 0.239495
0.026070 0.814673 0.301858
0.026123 0.814726 0.364045
0.026175 0.814778 0.426086
0.026228 0.814830 0.488005
0.026280 0.814883 0.549818
0.026332 0.814935 0.611537
0.026384 0.814987 0.673172
0.026436 0.815039 0.734731
0.026488 0.815091 0.796220
0.026540 0.815143 0.857646
0.026592 0.815195 0.919012
0.026644 0.815246 0.980323
0.026335 0.876293 0.007328
0.026372 0.876330 0.051077
0.026426 0.876383 0.114514
0.026479 0.876437 0.177420
0.026532 0.876489 0.240009
0.026585 0.876542 0.302372
0.026637 0.876595 0.364559
0.026690 0.876647 0.426600
0.026742 0.876699 0.488520
0.026794 0.876752 0.550332
0.026846 0.876804 0.612051
0.026898 0.876856 0.673686
0.026950 0.876908 0.735245
0.027002 0.876960 0.796734
0.027054 0.877012 0.858160
0.027106 0.877064 0.919526
0.027158 0.877115 0.980837
0.026849 0.938104 0.007841
0.026886 0.938141 0.051591
0.026939 0.938194 0.115028
0.026993 0.938247 0.177933
0.027045 0.938300 0.240523
0.027098 0.938353 0.302886
0.027151 0.938405 0.365072
0.027203 0.938458 0.427114
0.027255 0.938510 0.489033
0.027308 0.938562 0.550846
0.027360 0.938615 0.612565
0.027412 0.938667 0.674199
0.027464 0.938719 0.735758
0.027516 0.938771 0.797248
0.027568 0.938823 0.858673
0.027620 0.938874 0.920039
0.027671 0.938926 0.981351
0.027336 0.996750 0.008329
0.027373 0.996787 0.052078
0.027427 0.996840 0.115515
0.027480 0.996893 0.178421
0.027533 0.996946 0.241010
0.027585 0.996999 0.303373
0.027638 0.997052 0.365560
0.027690 0.997104 0.427601
0.027743 0.997156 0.489520
0.027795 0.997209 0.551333
0.027847 0.997261 0.613052
0.027899 0.997313 0.674687
0.027951 0.997365 0.736246
0.028003 0.997417 0.797735
0.028055 0.997469 0.859160
0.028107 0.997521 0.920527
0.028159 0.997572 0.981838
0.082967 0.000206 0.000206
0.083004 0.000243 0.043956
0.083057 0.000297 0.107392
0.083110 0.000350 0.170298
0.083163 0.000403 0.232888
0.083216 0.000455 0.295251
0.083268 0.000508 0.357437
0.083321 0.000560 0.419479
0.083373 0.000613 0.481398
0.083425 0.000665 0.543211
0.083478 0.000717 0.604929
0.083530 0.000769 0.666564
0.083582 0.000821 0.728123
0.083634 0.000873 0.789612
0.083686 0.000925 0.851038
0.083737 0.000977 0.912404
0.083789 0.001029 0.973716
0.083497 0.064014 0.000736
0.083534 0.064051 0.044486
0.083587 0.064104 0.107922
0.083640 0.064157 0.170828
0.083693 0.064210 0.233418
0.083746 0.064263 0.295781
0.083799 0.064316 0.357967
0.083851 0.064368 0.420009
0.083903 0.064420 0.481928
0.083956 0.064473 0.543741
0.084008 0.064525 0.605460
0.084060 0.064577 0.667094
0.084112 0.064629 0.728653
0.084164 0.064681 0.790143
0.084216 0.064733 0.851568
0.084268 0.064785 0.912934
0.084319 0.064836 0.974246
0.084026 0.127722 0.001266
0.084063 0.127759 0.045015
0.084117 0.127813 0.108452
0.084170 0.127866 0.171358
0.084223 0.127919 0.233947
0.084275 0.127972 0.296310
0.084328 0.128024 0.358497
0.084380 0.128077 0.420538
0.084433 0.128129 0.482457
0.084485 0.128181 0.544270
0.084537 0.128233 0.605989
0.084589 0.128285 0.667624
0.084641 0.128337 0.729183
0.084693 0.128389 0.790672
0.084745 0.128441 0.852097
0.084797 0.128493 0.913464
0.084849 0.128545 0.974775
0.084552 0.190990 0.001791
0.084589 0.191027 0.045541
0.084642 0.191080 0.108977
0.084695 0.191133 0.171883
0.084748 0.191186 0.234473
0.084801 0.191239 0.296836
0.084854 0.191291 0.359022
0.084906 0.191344 0.421064
0.084958 0.191396 0.482983
0.085011 0.191448 0.544796
0.085063 0.191501 0.606515
0.085115 0.191553 0.668149
0.085167 0.191605 0.729708
0.085219 0.191657 0.791198
0.085271 0.191709 0.852623
0.085323 0.191760 0.913989
0.085374 0.191812 0.975301
0.085075 0.253973 0.002315
0.085112 0.254010 0.046064
0.085166 0.254064 0.109501
0.085219 0.254117 0.172407
0.085272 0.254170 0.234996
0.085324 0.254222 0.297359
0.085377 0.254275 0.359546
0.085429 0.254327 0.421587
0.085482 0.254380 0.483506
0.085534 0.254432 0.545319
0.085586 0.254484 0.607038
0.085638 0.254536 0.668673
0.085690 0.254588 0.730232
0.085742 0.254640 0.791721
0.085794 0.254692 0.853146
0.085846 0.254744 0.914513
0.085898 0.254796 0.975824
0.085597 0.316746 0.002836
0.085634 0.316783 0.046586
0.085687 0.316837 0.110022
0.085740 0.316890 0.172928
0.085793 0.316943 0.235518
0.085846 0.316996 0.297881
0.085898 0.317048 0.360067
0.085951 0.317101 0.422109
0.086003 0.317153 0.484028
0.086055 0.317205 0.545841
0.086108 0.317257 0.607559
0.086160 0.317310 0.669194
0.086212 0.317362 0.730753
0.086264 0.317414 0.792242
0.086316 0.317465 0.853668
0.086367 0.317517 0.915034
0.086419 0.317569 0.976346
0.086117 0.379353 0.003356
0.086154 0.379390 0.047106
0.086207 0.379444 0.110543
0.086260 0.379497 0.173448
0.086313 0.379550 0.236038
0.086366 0.379603 0.298401
0.086419 0.379655 0.360587
0.086471 0.379708 0.422629
0.086523 0.379760 0.484548
0.086576 0.379812 0.546361
0.086628 0.379864 0.608080
0.086680 0.379916 0.669714
0.086732 0.379968 0.731273
0.086784 0.380020 0.792763
0.086836 0.380072 0.854188
0.086888 0.380124 0.915554
0.086939 0.380176 0.976866
0.086636 0.441822 0.003875
0.086673 0.441859 0.047625
0.086726 0.441912 0.111062
0.086780 0.441966 0.173967
0.086832 0.442018 0.236557
0.086885 0.442071 0.298920
0.086938 0.442124 0.361106
0.086990 0.442176 0.423148
0.087042 0.442228 0.485067
0.087095 0.442281 0.546880
0.087147 0.442333 0.608599
0.087199 0.442385 0.670233
0.087251 0.442437 0.731792
0.087303 0.442489 0.793282
0.087355 0.442541 0.854707
0.087407 0.442593 0.916074
0.087458 0.442645 0.977385
0.087154 0.504172 0.004393
0.087191 0.504209 0.048143
0.087244 0.504263 0.111580
0.087298 0.504316 0.174485
0.087350 0.504369 0.237075
0.087403 0.504422 0.299438
0.087456 0.504474 0.361624
0.087508 0.504527 0.423666
0.087560 0.504579 0.485585
0.087613 0.504631 0.547398
0.087665 0.504683 0.609117
0.087717 0.504736 0.670752
0.087769 0.504788 0.732310
0.087821 0.504840 0.793800
0.087873 0.504891 0.855225
0.087925 0.504943 0.916592
0.087977 0.504995 0.977903
0.087671 0.566420 0.004911
0.087708 0.566457 0.048660
0.087762 0.566511 0.112097
0.087815 0.566564 0.175003
0.087868 0.566617 0.237592
0.087920 0.566669 0.299955
0.087973 0.566722 0.362142
0.088025 0.566774 0.424183
0.088078 0.566827 0.486102
0.088130 0.566879 0.547915
0.088182 0.566931 0.609634
0.088234 0.566983 0.671269
0.088286 0.567035 0.732828
0.088338 0.567087 0.794317
0.088390 0.567139 0.855742
0.088442 0.567191 0.917109
0.088494 0.567243 0.978420
0.088187 0.628576 0.005427
0.088224 0.628613 0.049177
0.088278 0.628667 0.112613
0.088331 0.628720 0.175519
0.088384 0.628773 0.238109
0.088437 0.628826 0.300472
0.088489 0.628878 0.362658
0.088542 0.628931 0.424700
0.088594 0.628983 0.486619
0.088646 0.629035 0.548432
0.088699 0.629087 0.610150
0.088751 0.629140 0.671785
0.088803 0.629192 0.733344
0.088855 0.629244 0.794833
0.088906 0.629295 0.856259
0.088958 0.629347 0.917625
0.089010 0.629399 0.978937
0.088703 0.690651 0.005943
0.088740 0.690688 0.049692
0.088794 0.690741 0.113129
0.088847 0.690795 0.176035
0.088900 0.690847 0.238624
0.088953 0.690900 0.300987
0.089005 0.690953 0.363174
0.089058 0.691005 0.425215
0.089110 0.691057 0.487135
0.089162 0.691110 0.548947
0.089214 0.691162 0.610666
0.089266 0.691214 0.672301
0.089318 0.691266 0.733860
0.089370 0.691318 0.795349
0.089422 0.691370 0.856775
0.089474 0.691422 0.918141
0.089526 0.691473 0.979452
0.089218 0.752651 0.006458
0.089255 0.752688 0.050208
0.089309 0.752741 0.113644
0.089362 0.752794 0.176550
0.089415 0.752847 0.239139
0.089468 0.752900 0.301502
0.089520 0.752953 0.363689
0.089573 0.753005 0.425731
0.089625 0.753057 0.487650
0.089677 0.753110 0.549462
0.089729 0.753162 0.611181
0.089781 0.753214 0.672816
0.089834 0.753266 0.734375
0.089885 0.753318 0.795864
0.089937 0.753370 0.857290
0.089989 0.753422 0.918656
0.090041 0.753473 0.979967
0.089733 0.814583 0.006972
0.089770 0.814620 0.050722
0.089824 0.814673 0.114159
0.089877 0.814726 0.177064
0.089930 0.814779 0.239654
0.089982 0.814832 0.302017
0.090035 0.814884 0.364204
0.090087 0.814937 0.426245
0.090140 0.814989 0.488164
0.090192 0.815041 0.549977
0.090244 0.815094 0.611696
0.090296 0.815146 0.673331
0.090348 0.815198 0.734889
0.090400 0.815250 0.796379
0.090452 0.815302 0.857804
0.090504 0.815353 0.919171
0.090556 0.815405 0.980482
0.090247 0.876452 0.007487
0.090284 0.876489 0.051236
0.090338 0.876542 0.114673
0.090391 0.876595 0.177579
0.090444 0.876648 0.240168
0.090496 0.876701 0.302531
0.090549 0.876753 0.364718
0.090601 0.876806 0.426759
0.090654 0.876858 0.488678
0.090706 0.876910 0.550491
0.090758 0.876963 0.612210
0.090810 0.877015 0.673845
0.090862 0.877067 0.735403
0.090914 0.877119 0.796893
0.090966 0.877171 0.858318
0.091018 0.877222 0.919685
0.091070 0.877274 0.980996
0.090761 0.938262 0.008000
0.090798 0.938299 0.051750
0.090851 0.938353 0.115186
0.090904 0.938406 0.178092
0.090957 0.938459 0.240682
0.091010 0.938512 0.303045
0.091062 0.938564 0.365231
0.091115 0.938617 0.427273
0.091167 0.938669 0.489192
0.091219 0.938721 0.551005
0.091272 0.938773 0.612723
0.091324 0.938825 0.674358
0.091376 0.938877 0.735917
0.091428 0.938929 0.797406
0.091480 0.938981 0.858832
0.091531 0.939033 0.920198
0.091583 0.939085 0.981510
0.091248 0.996908 0.008487
0.091285 0.996945 0.052237
0.091338 0.996999 0.115674
0.091392 0.997052 0.178579
0.091444 0.997105 0.241169
0.091497 0.997158 0.303532
0.091550 0.997210 0.365718
0.091602 0.997263 0.427760
0.091654 0.997315 0.489679
0.091707 0.997367 0.551492
0.091759 0.997419 0.613211
0.091811 0.997472 0.674846
0.091863 0.997524 0.736404
0.091915 0.997576 0.797894
0.091967 0.997627 0.859319
0.092019 0.997679 0.920686
0.092071 0.997731 0.981997
0.146141 0.000363 0.000363
0.146178 0.000400 0.044113
0.146232 0.000454 0.107549
0.146285 0.000507 0.170455
0.146338 0.000560 0.233045
0.146390 0.000612 0.295408
0.146443 0.000665 0.357594
0.146495 0.000717 0.419636
0.146548 0.000770 0.481555
0.146600 0.000822 0.543368
0.146652 0.000874 0.605086
0.146704 0.000926 0.666721
0.146756 0.000978 0.728280
0.146808 0.001030 0.789769
0.146860 0.001082 0.851195
0.146912 0.001134 0.912561
0.146964 0.001186 0.973873
0.146671 0.064171 0.000893
0.146708 0.064208 0.044643
0.146762 0.064261 0.108079
0.146815 0.064314 0.170985
0.146868 0.064367 0.233575
0.146921 0.064420 0.295938
0.146973 0.064472 0.358124
0.147026 0.064525 0.420166
0.147078 0.064577 0.482085
0.147130 0.064629 0.543898
0.147182 0.064682 0.605617
0.147234 0.064734 0.667251
0.147286 0.064786 0.728810
0.147338 0.064838 0.790300
0.147390 0.064890 0.851725
0.147442 0.064941 0.913091
0.147494 0.064993 0.974403
0.147201 0.127879 0.001423
0.147238 0.127916 0.045172
0.147291 0.127970 0.108609
0.147344 0.128023 0.171515
0.147397 0.128076 0.234104
0.147450 0.128129 0.296467
0.147503 0.128181 0.358654
0.147555 0.128234 0.420695
0.147607 0.128286 0.482614
0.147659 0.128338 0.544427
0.147712 0.128390 0.606146
0.147764 0.128442 0.667781
0.147816 0.128494 0.729339
0.147868 0.128546 0.790829
0.147920 0.128598 0.852254
0.147971 0.128650 0.913621
0.148023 0.128702 0.974932
0.147726 0.191147 0.001948
0.147763 0.191183 0.045698
0.147817 0.191237 0.109134
0.147870 0.191290 0.172040
0.147923 0.191343 0.234630
0.147976 0.191396 0.296993
0.148028 0.191448 0.359179
0.148081 0.191501 0.421221
0.148133 0.191553 0.483140
0.148185 0.191605 0.544953
0.148237 0.191658 0.606672
0.148289 0.191710 0.668306
0.148341 0.191762 0.729865
0.148393 0.191814 0.791355
0.148445 0.191866 0.852780
0.148497 0.191917 0.914146
0.148549 0.191969 0.975458
0.148250 0.254130 0.002472
0.148287 0.254167 0.046221
0.148340 0.254221 0.109658
0.148393 0.254274 0.172563
0.148446 0.254327 0.235153
0.148499 0.254379 0.297516
0.148551 0.254432 0.359703
0.148604 0.254484 0.421744
0.148656 0.254537 0.483663
0.148708 0.254589 0.545476
0.148761 0.254641 0.607195
0.148813 0.254693 0.668830
0.148865 0.254745 0.730388
0.148917 0.254797 0.791878
0.148969 0.254849 0.853303
0.149020 0.254901 0.914670
0.149072 0.254953 0.975981
0.148771 0.316903 0.002993
0.148808 0.316940 0.046743
0.148862 0.316994 0.110179
0.148915 0.317047 0.173085
0.148968 0.317100 0.235675
0.149020 0.317153 0.298038
0.149073 0.317205 0.360224
0.149125 0.317258 0.422266
0.149178 0.317310 0.484185
0.149230 0.317362 0.545998
0.149282 0.317414 0.607716
0.149334 0.317467 0.669351
0.149386 0.317519 0.730910
0.149438 0.317570 0.792399
0.149490 0.317622 0.853825
0.149542 0.317674 0.915191
0.149594 0.317726 0.976503
0.149291 0.379510 0.003513
0.149328 0.379547 0.047263
0.149382 0.379601 0.110699
0.149435 0.379654 0.173605
0.149488 0.379707 0.236195
0.149541 0.379759 0.298558
0.149593 0.379812 0.360744
0.149646 0.379864 0.422786
0.149698 0.379917 0.484705
0.149750 0.379969 0.546518
0.149802 0.380021 0.608237
0.149854 0.380073 0.669871
0.149906 0.380125 0.731430
0.149958 0.380177 0.792920
0.150010 0.380229 0.854345
0.150062 0.380281 0.915711
0.150114 0.380333 0.977023
0.149810 0.441979 0.004032
0.149847 0.442016 0.047782
0.149901 0.442069 0.111219
0.149954 0.442123 0.174124
0.150007 0.442175 0.236714
0.150060 0.442228 0.299077
0.150112 0.442281 0.361263
0.150165 0.442333 0.423305
0.150217 0.442385 0.485224
0.150269 0.442438 0.547037
0.150321 0.442490 0.608756
0.150373 0.442542 0.670390
0.150426 0.442594 0.731949
0.150477 0.442646 0.793439
0.150529 0.442698 0.854864
0.150581 0.442750 0.916230
0.150633 0.442801 0.977542
0.150328 0.504329 0.004550
0.150365 0.504366 0.048300
0.150419 0.504420 0.111737
0.150472 0.504473 0.174642
0.150525 0.504526 0.237232
0.150578 0.504579 0.299595
0.150630 0.504631 0.361781
0.150683 0.504684 0.423823
0.150735 0.504736 0.485742
0.150787 0.504788 0.547555
0.150839 0.504840 0.609274
0.150892 0.504893 0.670908
0.150944 0.504945 0.732467
0.150996 0.504996 0.793957
0.151047 0.505048 0.855382
0.151099 0.505100 0.916749
0.151151 0.505152 0.978060
0.150846 0.566577 0.005068
0.150883 0.566614 0.048817
0.150936 0.566668 0.112254
0.150989 0.566721 0.175160
0.151042 0.566774 0.237749
0.151095 0.566826 0.300112
0.151147 0.566879 0.362299
0.151200 0.566931 0.424340
0.151252 0.566984 0.486259
0.151304 0.567036 0.548072
0.151357 0.567088 0.609791
0.151409 0.567140 0.671426
0.151461 0.567192 0.732984
0.151513 0.567244 0.794474
0.151565 0.567296 0.855899
0.151616 0.567348 0.917266
0.151668 0.567400 0.978577
0.151362 0.628733 0.005584
0.151399 0.628770 0.049334
0.151453 0.628824 0.112770
0.151506 0.628877 0.175676
0.151559 0.628930 0.238265
0.151611 0.628983 0.300629
0.151664 0.629035 0.362815
0.151716 0.629088 0.424857
0.151769 0.629140 0.486776
0.151821 0.629192 0.548588
0.151873 0.629244 0.610307
0.151925 0.629297 0.671942
0.151977 0.629349 0.733501
0.152029 0.629401 0.794990
0.152081 0.629452 0.856416
0.152133 0.629504 0.917782
0.152185 0.629556 0.979093
0.151878 0.690808 0.006100
0.151915 0.690845 0.049849
0.151968 0.690898 0.113286
0.152022 0.690951 0.176192
0.152074 0.691004 0.238781
0.152127 0.691057 0.301144
0.152180 0.691110 0.363331
0.152232 0.691162 0.425372
0.152284 0.691214 0.487292
0.152337 0.691267 0.549104
0.152389 0.691319 0.610823
0.152441 0.691371 0.672458
0.152493 0.691423 0.734017
0.152545 0.691475 0.795506
0.152597 0.691527 0.856932
0.152649 0.691579 0.918298
0.152700 0.691630 0.979609
0.152393 0.752808 0.006615
0.152430 0.752845 0.050364
0.152484 0.752898 0.113801
0.152537 0.752951 0.176707
0.152590 0.753004 0.239296
0.152642 0.753057 0.301659
0.152695 0.753110 0.363846
0.152747 0.753162 0.425888
0.152800 0.753214 0.487807
0.152852 0.753267 0.549619
0.152904 0.753319 0.611338
0.152956 0.753371 0.672973
0.153008 0.753423 0.734532
0.153060 0.753475 0.796021
0.153112 0.753527 0.857447
0.153164 0.753579 0.918813
0.153216 0.753630 0.980124
0.152908 0.814739 0.007129
0.152944 0.814776 0.050879
0.152998 0.814830 0.114316
0.153051 0.814883 0.177221
0.153104 0.814936 0.239811
0.153157 0.814989 0.302174
0.153209 0.815041 0.364360
0.153262 0.815094 0.426402
0.153314 0.815146 0.488321
0.153366 0.815198 0.550134
0.153419 0.815251 0.611853
0.153471 0.815303 0.673488
0.153523 0.815355 0.735046
0.153575 0.815407 0.796536
0.153627 0.815458 0.857961
0.153678 0.815510 0.919328
0.153730 0.815562 0.980639
0.153422 0.876608 0.007643
0.153459 0.876645 0.051393
0.153512 0.876699 0.114830
0.153565 0.876752 0.177735
0.153618 0.876805 0.240325
0.153671 0.876858 0.302688
0.153723 0.876910 0.364875
0.153776 0.876963 0.426916
0.153828 0.877015 0.488835
0.153880 0.877067 0.550648
0.153933 0.877120 0.612367
0.153985 0.877172 0.674002
0.154037 0.877224 0.735560
0.154089 0.877276 0.797050
0.154141 0.877328 0.858475
0.154192 0.877379 0.919842
0.154244 0.877431 0.981153
0.153935 0.938419 0.008157
0.153972 0.938456 0.051907
0.154026 0.938510 0.115343
0.154079 0.938563 0.178249
0.154132 0.938616 0.240839
0.154184 0.938669 0.303202
0.154237 0.938721 0.365388
0.154289 0.938774 0.427430
0.154342 0.938826 0.489349
0.154394 0.938878 0.551162
0.154446 0.938930 0.612880
0.154498 0.938982 0.674515
0.154550 0.939034 0.736074
0.154602 0.939086 0.797563
0.154654 0.939138 0.858989
0.154706 0.939190 0.920355
0.154758 0.939242 0.981667
0.154422 0.997065 0.008644
0.154459 0.997102 0.052394
0.154513 0.997156 0.115831
0.154566 0.997209 0.178736
0.154619 0.997262 0.241326
0.154672 0.997315 0.303689
0.154724 0.997367 0.365875
0.154777 0.997420 0.427917
0.154829 0.997472 0.489836
0.154881 0.997524 0.551649
0.154933 0.997576 0.613368
0.154986 0.997629 0.675002
0.155038 0.997681 0.736561
0.155089 0.997732 0.798051
0.155141 0.997784 0.859476
0.155193 0.997836 0.920842
0.155245 0.997888 0.982154
0.208941 0.000519 0.000519
0.208978 0.000556 0.044269
0.209032 0.000610 0.107705
0.209085 0.000663 0.170611
0.209138 0.000716 0.233201
0.209191 0.000768 0.295564
0.209243 0.000821 0.357750
0.209296 0.000873 0.419792
0.209348 0.000926 0.481711
0.209400 0.000978 0.543524
0.209452 0.001030 0.605242
0.209504 0.001082 0.666877
0.209556 0.001134 0.728436
0.209608 0.001186 0.789925
0.209660 0.001238 0.851351
0.209712 0.001290 0.912717
0.209764 0.001342 0.974029
0.209471 0.064327 0.001049
