skills/creativeops-grade/examples/golden_run_v0.4_auto_grade/bundle/grade/luts/warm_v0.1.cube
TITLE "warm_v0.1"
LUT_3D_SIZE 2
DOMAIN_MIN 0.0 0.0 0.0
DOMAIN_MAX 1.0 1.0 1.0

# Slight warm bias (tiny, safe). Values are clamped into [0..1].
0.0000 0.0000 0.0000
1.0000 0.9900 0.9800
0.0000 0.0000 0.0000
1.0000 0.9900 0.9800
0.0000 0.0000 0.0000
1.0000 0.9900 0.9800
0.0000 0.0000 0.0000
1.0000 0.9900 0.9800

