skills/promo-director/assets/grade/luts/moody_teal_v08.cube
TITLE "moody_teal_v08"
LUT_3D_SIZE 9
DOMAIN_MIN 0.0 0.0 0.0
DOMAIN_MAX 1.0 1.0 1.0
0.000000 0.000000 0.000000
0.000686 0.000686 0.104072
0.001461 0.001461 0.221460
0.002253 0.002253 0.341550
0.003056 0.003056 0.463407
0.003869 0.003869 0.586587
0.004688 0.004688 0.710829
0.005513 0.005513 0.835959
0.006080 0.006080 0.921869
0.005095 0.082561 0.005095
0.005781 0.083247 0.109167
0.006555 0.084022 0.226555
0.007347 0.084814 0.346644
0.008151 0.085617 0.468501
0.008963 0.086430 0.591682
0.009783 0.087249 0.715924
0.010608 0.088074 0.841053
0.011175 0.088641 0.926964
0.012706 0.205902 0.012706
0.013392 0.206589 0.116778
0.014166 0.207363 0.234166
0.014958 0.208155 0.354256
0.015762 0.208959 0.476112
0.016574 0.209771 0.599293
0.017394 0.210590 0.723535
0.018219 0.211416 0.848664
0.018786 0.211982 0.934575
0.020519 0.332515 0.020519
0.021205 0.333202 0.124591
0.021979 0.333976 0.241979
0.022771 0.334768 0.362068
0.023575 0.335572 0.483925
0.024387 0.336384 0.607106
0.025207 0.337204 0.731348
0.026032 0.338029 0.856477
0.026599 0.338595 0.942388
0.028457 0.461156 0.028457
0.029143 0.461842 0.132529
0.029917 0.462617 0.249917
0.030709 0.463409 0.370007
0.031513 0.464212 0.491863
0.032325 0.465025 0.615044
0.033145 0.465844 0.739286
0.033970 0.466669 0.864415
0.034537 0.467236 0.950326
0.036486 0.591282 0.036486
0.037173 0.591968 0.140559
0.037947 0.592742 0.257946
0.038739 0.593535 0.378036
0.039543 0.594338 0.499893
0.040355 0.595151 0.623073
0.041175 0.595970 0.747315
0.042000 0.596795 0.872445
0.042566 0.597362 0.958356
0.044589 0.722584 0.044589
0.045275 0.723271 0.148661
0.046049 0.724045 0.266049
0.046841 0.724837 0.386139
0.047645 0.725641 0.507995
0.048457 0.726453 0.631176
0.049277 0.727273 0.755418
0.050102 0.728098 0.880548
0.050669 0.728664 0.966458
0.052751 0.854863 0.052751
0.053438 0.855550 0.156824
0.054212 0.856324 0.274211
0.055004 0.857116 0.394301
0.055808 0.857920 0.516158
0.056620 0.858732 0.639338
0.057439 0.859551 0.763580
0.058265 0.860377 0.888710
0.058831 0.860943 0.974621
0.060227 0.976017 0.060227
0.060914 0.976703 0.164300
0.061688 0.977477 0.281687
0.062480 0.978269 0.401777
0.063284 0.979073 0.523634
0.064096 0.979886 0.646814
0.064915 0.980705 0.771056
0.065741 0.981530 0.896186
0.066307 0.982097 0.982097
0.052913 0.001015 0.001015
0.053600 0.001701 0.105087
0.054374 0.002475 0.222475
0.055166 0.003267 0.342564
0.055970 0.004071 0.464421
0.056782 0.004883 0.587602
0.057601 0.005703 0.711843
0.058427 0.006528 0.836973
0.058993 0.007095 0.922884
0.058008 0.083576 0.006109
0.058694 0.084262 0.110182
0.059468 0.085036 0.227569
0.060260 0.085828 0.347659
0.061064 0.086632 0.469516
0.061877 0.087444 0.592696
0.062696 0.088264 0.716938
0.063521 0.089089 0.842068
0.064088 0.089656 0.927979
0.065619 0.206917 0.013720
0.066305 0.207603 0.117793
0.067079 0.208378 0.235180
0.067872 0.209170 0.355270
0.068675 0.209973 0.477127
0.069488 0.210786 0.600307
0.070307 0.211605 0.724549
0.071132 0.212430 0.849679
0.071699 0.212997 0.935590
0.073432 0.333530 0.021533
0.074118 0.334216 0.125606
0.074892 0.334991 0.242993
0.075684 0.335783 0.363083
0.076488 0.336586 0.484940
0.077301 0.337399 0.608120
0.078120 0.338218 0.732362
0.078945 0.339043 0.857492
0.079512 0.339610 0.943403
0.081370 0.462171 0.029471
0.082056 0.462857 0.133544
0.082830 0.463631 0.250931
0.083623 0.464423 0.371021
0.084426 0.465227 0.492878
0.085239 0.466039 0.616058
0.086058 0.466859 0.740300
0.086883 0.467684 0.865430
0.087450 0.468251 0.951341
0.089400 0.592296 0.037501
0.090086 0.592983 0.141573
0.090860 0.593757 0.258961
0.091652 0.594549 0.379051
0.092456 0.595353 0.500908
0.093268 0.596165 0.624088
0.094088 0.596985 0.748330
0.094913 0.597810 0.873460
0.095480 0.598376 0.959370
0.097502 0.723599 0.045603
0.098188 0.724285 0.149676
0.098963 0.725060 0.267063
0.099755 0.725852 0.387153
0.100558 0.726655 0.509010
0.101371 0.727468 0.632190
0.102190 0.728287 0.756432
0.103015 0.729112 0.881562
0.103582 0.729679 0.967473
0.105665 0.855878 0.053766
0.106351 0.856564 0.157838
0.107125 0.857338 0.275226
0.107917 0.858130 0.395316
0.108721 0.858934 0.517173
0.109533 0.859747 0.640353
0.110353 0.860566 0.764595
0.111178 0.861391 0.889725
0.111745 0.861958 0.975635
0.113141 0.977031 0.061242
0.113827 0.977718 0.165314
0.114601 0.978492 0.282702
0.115393 0.979284 0.402792
0.116197 0.980088 0.524649
0.117009 0.980900 0.647829
0.117829 0.981720 0.772071
0.118654 0.982545 0.897201
0.119221 0.983111 0.983111
0.169800 0.003256 0.003256
0.170486 0.003942 0.107328
0.171260 0.004716 0.224716
0.172052 0.005508 0.344806
0.172856 0.006312 0.466663
0.173668 0.007125 0.589843
0.174488 0.007944 0.714085
0.175313 0.008769 0.839215
0.175880 0.009336 0.925125
0.174894 0.085817 0.008350
0.175581 0.086503 0.112423
0.176355 0.087277 0.229810
0.177147 0.088069 0.349900
0.177951 0.088873 0.471757
0.178763 0.089686 0.594937
0.179582 0.090505 0.719179
0.180408 0.091330 0.844309
0.180974 0.091897 0.930220
0.182505 0.209158 0.015962
0.183192 0.209845 0.120034
0.183966 0.210619 0.237421
0.184758 0.211411 0.357511
0.185562 0.212214 0.479368
0.186374 0.213027 0.602549
0.187193 0.213846 0.726790
0.188019 0.214672 0.851920
0.188585 0.215238 0.937831
0.190318 0.335771 0.023774
0.191005 0.336458 0.127847
0.191779 0.337232 0.245234
0.192571 0.338024 0.365324
0.193375 0.338828 0.487181
0.194187 0.339640 0.610361
0.195006 0.340459 0.734603
0.195832 0.341285 0.859733
0.196398 0.341851 0.945644
0.198256 0.464412 0.031713
0.198943 0.465098 0.135785
0.199717 0.465872 0.253172
0.200509 0.466664 0.373262
0.201313 0.467468 0.495119
0.202125 0.468281 0.618300
0.202944 0.469100 0.742541
0.203770 0.469925 0.867671
0.204336 0.470492 0.953582
0.206286 0.594538 0.039742
0.206972 0.595224 0.143815
0.207747 0.595998 0.261202
0.208539 0.596790 0.381292
0.209342 0.597594 0.503149
0.210155 0.598406 0.626329
0.210974 0.599226 0.750571
0.211799 0.600051 0.875701
0.212366 0.600618 0.961612
0.214388 0.725840 0.047845
0.215075 0.726527 0.151917
0.215849 0.727301 0.269304
0.216641 0.728093 0.389394
0.217445 0.728897 0.511251
0.218257 0.729709 0.634432
0.219077 0.730528 0.758673
0.219902 0.731354 0.883803
0.220468 0.731920 0.969714
0.222551 0.858119 0.056007
0.223237 0.858805 0.160080
0.224012 0.859580 0.277467
0.224804 0.860372 0.397557
0.225607 0.861175 0.519414
0.226420 0.861988 0.642594
0.227239 0.862807 0.766836
0.228064 0.863632 0.891966
0.228631 0.864199 0.977877
0.230027 0.979273 0.063483
0.230713 0.979959 0.167556
0.231488 0.980733 0.284943
0.232280 0.981525 0.405033
0.233083 0.982329 0.526890
0.233896 0.983141 0.650070
0.234715 0.983961 0.774312
0.235540 0.984786 0.899442
0.236107 0.985353 0.985353
0.290360 0.005568 0.005568
0.291047 0.006254 0.109640
0.291821 0.007028 0.227027
0.292613 0.007820 0.347117
0.293416 0.008624 0.468974
0.294229 0.009436 0.592155
0.295048 0.010256 0.716396
0.295874 0.011081 0.841526
0.296440 0.011648 0.927437
0.295455 0.088129 0.010662
0.296141 0.088815 0.114735
0.296915 0.089589 0.232122
0.297707 0.090381 0.352212
0.298511 0.091185 0.474069
0.299323 0.091997 0.597249
0.300143 0.092817 0.721491
0.300968 0.093642 0.846621
0.301535 0.094209 0.932532
0.303066 0.211470 0.018273
0.303752 0.212156 0.122346
0.304526 0.212930 0.239733
0.305318 0.213722 0.359823
0.306122 0.214526 0.481680
0.306935 0.215339 0.604860
0.307754 0.216158 0.729102
0.308579 0.216983 0.854232
0.309146 0.217550 0.940143
0.310879 0.338083 0.026086
0.311565 0.338769 0.130159
0.312339 0.339544 0.247546
0.313131 0.340336 0.367636
0.313935 0.341139 0.489493
0.314747 0.341952 0.612673
0.315567 0.342771 0.736915
0.316392 0.343596 0.862045
0.316959 0.344163 0.947956
0.318817 0.466724 0.034024
0.319503 0.467410 0.138097
0.320277 0.468184 0.255484
0.321069 0.468976 0.375574
0.321873 0.469780 0.497431
0.322686 0.470592 0.620611
0.323505 0.471412 0.744853
0.324330 0.472237 0.869983
0.324897 0.472804 0.955894
0.326847 0.596849 0.042054
0.327533 0.597536 0.146126
0.328307 0.598310 0.263514
0.329099 0.599102 0.383604
0.329903 0.599906 0.505461
0.330715 0.600718 0.628641
0.331535 0.601538 0.752883
0.332360 0.602363 0.878013
0.332927 0.602929 0.963923
0.334949 0.728152 0.050156
0.335635 0.728838 0.154229
0.336409 0.729613 0.271616
0.337201 0.730405 0.391706
0.338005 0.731208 0.513563
0.338818 0.732021 0.636743
0.339637 0.732840 0.760985
0.340462 0.733665 0.886115
0.341029 0.734232 0.972026
0.343111 0.860431 0.058319
0.343798 0.861117 0.162391
0.344572 0.861891 0.279779
0.345364 0.862683 0.399869
0.346168 0.863487 0.521726
0.346980 0.864299 0.644906
0.347800 0.865119 0.769148
0.348625 0.865944 0.894278
0.349191 0.866511 0.980188
0.350587 0.981584 0.065795
0.351274 0.982271 0.169867
0.352048 0.983045 0.287255
0.352840 0.983837 0.407345
0.353644 0.984641 0.529202
0.354456 0.985453 0.652382
0.355276 0.986272 0.776624
0.356101 0.987098 0.901754
0.356667 0.987664 0.987664
0.413039 0.007920 0.007920
0.413726 0.008606 0.111992
0.414500 0.009380 0.229380
0.415292 0.010172 0.349470
0.416096 0.010976 0.471327
0.416908 0.011789 0.594507
0.417727 0.012608 0.718749
0.418553 0.013433 0.843879
0.419119 0.014000 0.929789
0.418134 0.090481 0.013014
0.418820 0.091167 0.117087
0.419595 0.091941 0.234474
0.420387 0.092734 0.354564
0.421190 0.093537 0.476421
0.422003 0.094350 0.599601
0.422822 0.095169 0.723843
0.423647 0.095994 0.848973
0.424214 0.096561 0.934884
0.425745 0.213822 0.020626
0.426431 0.214509 0.124698
0.427206 0.215283 0.242085
0.427998 0.216075 0.362175
0.428801 0.216878 0.484032
0.429614 0.217691 0.607213
0.430433 0.218510 0.731454
0.431258 0.219336 0.856584
0.431825 0.219902 0.942495
0.433558 0.340435 0.028438
0.434244 0.341122 0.132511
0.435019 0.341896 0.249898
0.435811 0.342688 0.369988
0.436614 0.343492 0.491845
0.437427 0.344304 0.615025
0.438246 0.345123 0.739267
0.439071 0.345949 0.864397
0.439638 0.346515 0.950308
0.441496 0.469076 0.036377
0.442182 0.469762 0.140449
0.442957 0.470536 0.257836
0.443749 0.471328 0.377926
0.444552 0.472132 0.499783
0.445365 0.472945 0.622964
0.446184 0.473764 0.747205
0.447009 0.474589 0.872335
0.447576 0.475156 0.958246
0.449526 0.599202 0.044406
0.450212 0.599888 0.148479
0.450986 0.600662 0.265866
0.451778 0.601454 0.385956
0.452582 0.602258 0.507813
0.453394 0.603070 0.630993
0.454214 0.603890 0.755235
0.455039 0.604715 0.880365
0.455606 0.605282 0.966276
0.457628 0.730504 0.052509
0.458314 0.731191 0.156581
0.459089 0.731965 0.273969
0.459881 0.732757 0.394058
0.460684 0.733561 0.515915
0.461497 0.734373 0.639096
0.462316 0.735192 0.763337
0.463141 0.736018 0.888467
0.463708 0.736584 0.974378
0.465791 0.862783 0.060671
0.466477 0.863469 0.164744
0.467251 0.864244 0.282131
0.468043 0.865036 0.402221
0.468847 0.865839 0.524078
0.469659 0.866652 0.647258
0.470479 0.867471 0.771500
0.471304 0.868296 0.896630
0.471871 0.868863 0.982541
0.473267 0.983937 0.068147
0.473953 0.984623 0.172220
0.474727 0.985397 0.289607
0.475519 0.986189 0.409697
0.476323 0.986993 0.531554
0.477135 0.987805 0.654734
0.477955 0.988625 0.778976
0.478780 0.989450 0.904106
0.479347 0.990017 0.990017
0.537231 0.010301 0.010301
0.537917 0.010988 0.114374
0.538691 0.011762 0.231761
0.539483 0.012554 0.351851
0.540287 0.013357 0.473708
0.541099 0.014170 0.596888
0.541919 0.014989 0.721130
0.542744 0.015815 0.846260
0.543311 0.016381 0.932171
0.542325 0.092862 0.015396
0.543012 0.093549 0.119468
0.543786 0.094323 0.236856
0.544578 0.095115 0.356946
0.545381 0.095918 0.478802
0.546194 0.096731 0.601983
0.547013 0.097550 0.726225
0.547839 0.098376 0.851355
0.548405 0.098942 0.937265
0.549936 0.216203 0.023007
0.550623 0.216890 0.127079
0.551397 0.217664 0.244467
0.552189 0.218456 0.364557
0.552993 0.219260 0.486414
0.553805 0.220072 0.609594
0.554624 0.220892 0.733836
0.555450 0.221717 0.858966
0.556016 0.222283 0.944876
0.557749 0.342817 0.030820
0.558436 0.343503 0.134892
0.559210 0.344277 0.252280
0.560002 0.345069 0.372370
0.560805 0.345873 0.494226
0.561618 0.346685 0.617407
0.562437 0.347505 0.741649
0.563263 0.348330 0.866779
0.563829 0.348897 0.952689
0.565687 0.471457 0.038758
0.566374 0.472144 0.142830
0.567148 0.472918 0.260218
0.567940 0.473710 0.380308
0.568744 0.474513 0.502165
0.569556 0.475326 0.625345
0.570375 0.476145 0.749587
0.571201 0.476971 0.874717
0.571767 0.477537 0.960627
0.573717 0.601583 0.046788
0.574403 0.602269 0.150860
0.575178 0.603044 0.268247
0.575970 0.603836 0.388337
0.576773 0.604639 0.510194
0.577586 0.605452 0.633375
0.578405 0.606271 0.757616
0.579230 0.607096 0.882746
0.579797 0.607663 0.968657
0.581819 0.732886 0.054890
0.582506 0.733572 0.158962
0.583280 0.734346 0.276350
0.584072 0.735138 0.396440
0.584876 0.735942 0.518297
0.585688 0.736754 0.641477
0.586507 0.737574 0.765719
0.587333 0.738399 0.890849
0.587899 0.738966 0.976759
0.589982 0.865164 0.063052
0.590668 0.865851 0.167125
0.591442 0.866625 0.284512
0.592234 0.867417 0.404602
0.593038 0.868221 0.526459
0.593851 0.869033 0.649639
0.594670 0.869853 0.773881
0.595495 0.870678 0.899011
0.596062 0.871244 0.984922
0.597458 0.986318 0.070529
0.598144 0.987004 0.174601
0.598919 0.987779 0.291988
0.599711 0.988571 0.412078
0.600514 0.989374 0.533935
0.601327 0.990187 0.657116
0.602146 0.991006 0.781357
0.602971 0.991831 0.906487
0.603538 0.992398 0.992398
0.662603 0.012705 0.012705
0.663289 0.013392 0.116778
0.664063 0.014166 0.234165
0.664855 0.014958 0.354255
0.665659 0.015761 0.476112
0.666472 0.016574 0.599292
0.667291 0.017393 0.723534
0.668116 0.018219 0.848664
0.668683 0.018785 0.934575
0.667697 0.095266 0.017800
0.668384 0.095953 0.121872
0.669158 0.096727 0.239260
0.669950 0.097519 0.359350
0.670754 0.098322 0.481206
0.671566 0.099135 0.604387
0.672386 0.099954 0.728629
0.673211 0.100780 0.853759
0.673777 0.101346 0.939669
0.675309 0.218607 0.025411
0.675995 0.219294 0.129483
0.676769 0.220068 0.246871
0.677561 0.220860 0.366961
0.678365 0.221664 0.488817
0.679177 0.222476 0.611998
0.679997 0.223296 0.736240
0.680822 0.224121 0.861370
0.681389 0.224687 0.947280
0.683121 0.345221 0.033224
0.683808 0.345907 0.137296
0.684582 0.346681 0.254684
0.685374 0.347473 0.374774
0.686178 0.348277 0.496630
0.686990 0.349089 0.619811
0.687810 0.349909 0.744053
0.688635 0.350734 0.869183
0.689201 0.351301 0.955093
0.691060 0.473861 0.041162
0.691746 0.474548 0.145234
0.692520 0.475322 0.262622
0.693312 0.476114 0.382712
0.694116 0.476917 0.504569
0.694928 0.477730 0.627749
0.695748 0.478549 0.751991
0.696573 0.479375 0.877121
0.697140 0.479941 0.963031
0.699089 0.603987 0.049192
0.699776 0.604673 0.153264
0.700550 0.605448 0.270651
0.701342 0.606240 0.390741
0.702146 0.607043 0.512598
0.702958 0.607856 0.635779
0.703777 0.608675 0.760020
0.704603 0.609500 0.885150
0.705169 0.610067 0.971061
0.707192 0.735290 0.057294
0.707878 0.735976 0.161366
0.708652 0.736750 0.278754
0.709444 0.737542 0.398844
0.710248 0.738346 0.520701
0.711060 0.739158 0.643881
0.711880 0.739978 0.768123
0.712705 0.740803 0.893253
0.713272 0.741370 0.979163
0.715354 0.867568 0.065456
0.716041 0.868255 0.169529
0.716815 0.869029 0.286916
0.717607 0.869821 0.407006
0.718410 0.870625 0.528863
0.719223 0.871437 0.652043
0.720042 0.872257 0.776285
0.720868 0.873082 0.901415
0.721434 0.873648 0.987326
0.722830 0.988722 0.072932
0.723517 0.989408 0.177005
0.724291 0.990183 0.294392
0.725083 0.990975 0.414482
0.725887 0.991778 0.536339
0.726699 0.992591 0.659519
0.727518 0.993410 0.783761
0.728344 0.994235 0.908891
0.728910 0.994802 0.994802
0.788947 0.015128 0.015128
0.789633 0.015814 0.119200
0.790407 0.016588 0.236588
0.791199 0.017380 0.356678
0.792003 0.018184 0.478534
0.792815 0.018996 0.601715
0.793635 0.019816 0.725957
0.794460 0.020641 0.851087
0.795027 0.021208 0.936997
0.794041 0.097689 0.020222
0.794728 0.098375 0.124295
0.795502 0.099149 0.241682
0.796294 0.099941 0.361772
0.797098 0.100745 0.483629
0.797910 0.101557 0.606809
0.798729 0.102377 0.731051
0.799555 0.103202 0.856181
0.800121 0.103769 0.942092
0.801652 0.221030 0.027833
0.802339 0.221716 0.131906
0.803113 0.222491 0.249293
0.803905 0.223283 0.369383
0.804709 0.224086 0.491240
0.805521 0.224899 0.614420
0.806340 0.225718 0.738662
0.807166 0.226543 0.863792
0.807732 0.227110 0.949703
0.809465 0.347643 0.035646
0.810152 0.348330 0.139719
0.810926 0.349104 0.257106
0.811718 0.349896 0.377196
0.812522 0.350699 0.499053
0.813334 0.351512 0.622233
0.814153 0.352331 0.746475
0.814979 0.353157 0.871605
0.815545 0.353723 0.957516
0.817403 0.476284 0.043584
0.818090 0.476970 0.147657
0.818864 0.477744 0.265044
0.819656 0.478536 0.385134
0.820460 0.479340 0.506991
0.821272 0.480152 0.630171
0.822091 0.480972 0.754413
0.822917 0.481797 0.879543
0.823483 0.482364 0.965454
0.825433 0.606410 0.051614
0.826119 0.607096 0.155687
0.826894 0.607870 0.273074
0.827686 0.608662 0.393164
0.828489 0.609466 0.515021
0.829302 0.610278 0.638201
0.830121 0.611098 0.762443
0.830946 0.611923 0.887573
0.831513 0.612490 0.973484
0.833535 0.737712 0.059716
0.834222 0.738399 0.163789
0.834996 0.739173 0.281176
0.835788 0.739965 0.401266
0.836592 0.740768 0.523123
0.837404 0.741581 0.646303
0.838223 0.742400 0.770545
0.839049 0.743226 0.895675
0.839615 0.743792 0.981586
0.841698 0.869991 0.067879
0.842384 0.870677 0.171952
0.843158 0.871452 0.289339
0.843951 0.872244 0.409429
0.844754 0.873047 0.531286
0.845567 0.873860 0.654466
0.846386 0.874679 0.778708
0.847211 0.875504 0.903838
0.847778 0.876071 0.989748
0.849174 0.991145 0.075355
0.849860 0.991831 0.179428
0.850635 0.992605 0.296815
0.851427 0.993397 0.416905
0.852230 0.994201 0.538762
0.853043 0.995013 0.661942
0.853862 0.995833 0.786184
0.854687 0.996658 0.911314
0.855254 0.997225 0.997225
0.916117 0.017566 0.017566
0.916803 0.018253 0.121639
0.917577 0.019027 0.239026
0.918369 0.019819 0.359116
0.919173 0.020622 0.480973
0.919985 0.021435 0.604153
0.920805 0.022254 0.728395
0.921630 0.023080 0.853525
0.922197 0.023646 0.939436
0.921211 0.100127 0.022661
0.921898 0.100814 0.126733
0.922672 0.101588 0.244121
0.923464 0.102380 0.364211
0.924267 0.103183 0.486067
0.925080 0.103996 0.609248
0.925899 0.104815 0.733490
0.926725 0.105641 0.858620
0.927291 0.106207 0.944530
0.928822 0.223468 0.030272
0.929509 0.224155 0.134344
0.930283 0.224929 0.251732
0.931075 0.225721 0.371822
0.931879 0.226525 0.493679
0.932691 0.227337 0.616859
0.933510 0.228157 0.741101
0.934336 0.228982 0.866231
0.934902 0.229548 0.952141
0.936635 0.350082 0.038085
0.937322 0.350768 0.142157
0.938096 0.351542 0.259545
0.938888 0.352334 0.379635
0.939691 0.353138 0.501491
0.940504 0.353950 0.624672
0.941323 0.354770 0.748914
0.942149 0.355595 0.874044
0.942715 0.356162 0.959954
0.944573 0.478722 0.046023
0.945260 0.479409 0.150095
0.946034 0.480183 0.267483
0.946826 0.480975 0.387573
0.947630 0.481778 0.509430
0.948442 0.482591 0.632610
0.949261 0.483410 0.756852
0.950087 0.484236 0.881982
0.950653 0.484802 0.967892
0.952603 0.608848 0.054053
0.953289 0.609534 0.158125
0.954064 0.610309 0.275512
0.954856 0.611101 0.395602
0.955659 0.611904 0.517459
0.956472 0.612717 0.640640
0.957291 0.613536 0.764881
0.958116 0.614361 0.890011
0.958683 0.614928 0.975922
0.960705 0.740151 0.062155
0.961392 0.740837 0.166227
0.962166 0.741611 0.283615
0.962958 0.742403 0.403705
0.963762 0.743207 0.525562
0.964574 0.744019 0.648742
0.965393 0.744839 0.772984
0.966219 0.745664 0.898114
0.966785 0.746231 0.984024
0.968868 0.872429 0.070317
0.969554 0.873116 0.174390
0.970328 0.873890 0.291777
0.971120 0.874682 0.411867
0.971924 0.875486 0.533724
0.972737 0.876298 0.656904
0.973556 0.877118 0.781146
0.974381 0.877943 0.906276
0.974948 0.878509 0.992187
0.976344 0.993583 0.077794
0.977030 0.994269 0.181866
0.977804 0.995044 0.299253
0.978597 0.995836 0.419343
0.979400 0.996639 0.541200
0.980213 0.997452 0.664380
0.981032 0.998271 0.788622
0.981857 0.999096 0.913752
0.982424 0.999663 0.999663
