skills/promo-director/assets/grade/luts/moody_teal_v08.cube
TITLE "moody_teal_v08"
LUT_3D_SIZE 5
DOMAIN_MIN 0.0 0.0 0.0
DOMAIN_MAX 1.0 1.0 1.0
0.000000 0.000000 0.000000
0.001461 0.001461 0.221460
0.003056 0.003056 0.463407
0.004688 0.004688 0.710829
0.006080 0.006080 0.921869
0.012706 0.205902 0.012706
0.014166 0.207363 0.234166
0.015762 0.208959 0.476112
0.017394 0.210590 0.723535
0.018786 0.211982 0.934575
0.028457 0.461156 0.028457
0.029917 0.462617 0.249917
0.031513 0.464212 0.491863
0.033145 0.465844 0.739286
0.034537 0.467236 0.950326
0.044589 0.722584 0.044589
0.046049 0.724045 0.266049
0.047645 0.725641 0.507995
0.049277 0.727273 0.755418
0.050669 0.728664 0.966458
0.060227 0.976017 0.060227
0.061688 0.977477 0.281687
0.063284 0.979073 0.523634
0.064915 0.980705 0.771056
0.066307 0.982097 0.982097
0.169800 0.003256 0.003256
0.171260 0.004716 0.224716
0.172856 0.006312 0.466663
0.174488 0.007944 0.714085
0.175880 0.009336 0.925125
0.182505 0.209158 0.015962
0.183966 0.210619 0.237421
0.185562 0.212214 0.479368
0.187193 0.213846 0.726790
0.188585 0.215238 0.937831
0.198256 0.464412 0.031713
0.199717 0.465872 0.253172
0.201313 0.467468 0.495119
0.202944 0.469100 0.742541
0.204336 0.470492 0.953582
0.214388 0.725840 0.047845
0.215849 0.727301 0.269304
0.217445 0.728897 0.511251
0.219077 0.730528 0.758673
0.220468 0.731920 0.969714
0.230027 0.979273 0.063483
0.231488 0.980733 0.284943
0.233083 0.982329 0.526890
0.234715 0.983961 0.774312
0.236107 0.985353 0.985353
0.413039 0.007920 0.007920
0.414500 0.009380 0.229380
0.416096 0.010976 0.471327
0.417727 0.012608 0.718749
0.419119 0.014000 0.929789
0.425745 0.213822 0.020626
0.427206 0.215283 0.242085
0.428801 0.216878 0.484032
0.430433 0.218510 0.731454
0.431825 0.219902 0.942495
0.441496 0.469076 0.036377
0.442957 0.470536 0.257836
0.444552 0.472132 0.499783
0.446184 0.473764 0.747205
0.447576 0.475156 0.958246
0.457628 0.730504 0.052509
0.459089 0.731965 0.273969
0.460684 0.733561 0.515915
0.462316 0.735192 0.763337
0.463708 0.736584 0.974378
0.473267 0.983937 0.068147
0.474727 0.985397 0.289607
0.476323 0.986993 0.531554
0.477955 0.988625 0.778976
0.479347 0.990017 0.990017
0.662603 0.012705 0.012705
0.664063 0.014166 0.234165
0.665659 0.015761 0.476112
0.667291 0.017393 0.723534
0.668683 0.018785 0.934575
0.675309 0.218607 0.025411
0.676769 0.220068 0.246871
0.678365 0.221664 0.488817
0.679997 0.223296 0.736240
0.681389 0.224687 0.947280
0.691060 0.473861 0.041162
0.692520 0.475322 0.262622
0.694116 0.476917 0.504569
0.695748 0.478549 0.751991
0.697140 0.479941 0.963031
0.707192 0.735290 0.057294
0.708652 0.736750 0.278754
0.710248 0.738346 0.520701
0.711880 0.739978 0.768123
0.713272 0.741370 0.979163
0.722830 0.988722 0.072932
0.724291 0.990183 0.294392
0.725887 0.991778 0.536339
0.727518 0.993410 0.783761
0.728910 0.994802 0.994802
0.916117 0.017566 0.017566
0.917577 0.019027 0.239026
0.919173 0.020622 0.480973
0.920805 0.022254 0.728395
0.922197 0.023646 0.939436
0.928822 0.223468 0.030272
0.930283 0.224929 0.251732
0.931879 0.226525 0.493679
0.933510 0.228157 0.741101
0.934902 0.229548 0.952141
0.944573 0.478722 0.046023
0.946034 0.480183 0.267483
0.947630 0.481778 0.509430
0.949261 0.483410 0.756852
0.950653 0.484802 0.967892
0.960705 0.740151 0.062155
0.962166 0.741611 0.283615
0.963762 0.743207 0.525562
0.965393 0.744839 0.772984
0.966785 0.746231 0.984024
0.976344 0.993583 0.077794
0.977804 0.995044 0.299253
0.979400 0.996639 0.541200
0.981032 0.998271 0.788622
0.982424 0.999663 0.999663
