skills/promo-director/assets/grade/luts/moody_teal_v08.cube
TITLE "moody_teal_v08"
LUT_3D_SIZE 17
DOMAIN_MIN 0.0 0.0 0.0
DOMAIN_MAX 1.0 1.0 1.0
0.000000 0.000000 0.000000
0.000311 0.000311 0.047174
0.000686 0.000686 0.104072
0.001071 0.001071 0.162328
0.001461 0.001461 0.221460
0.001855 0.001855 0.281244
0.002253 0.002253 0.341550
0.002653 0.002653 0.402291
0.003056 0.003056 0.463407
0.003462 0.003462 0.524851
0.003869 0.003869 0.586587
0.004278 0.004278 0.648588
0.004688 0.004688 0.710829
0.005100 0.005100 0.773291
0.005513 0.005513 0.835959
0.005928 0.005928 0.898817
0.006080 0.006080 0.921869
0.001444 0.023399 0.001444
0.001755 0.023711 0.048618
0.002130 0.024086 0.105516
0.002515 0.024470 0.163772
0.002905 0.024860 0.222904
0.003299 0.025254 0.282688
0.003697 0.025652 0.342994
0.004097 0.026053 0.403735
0.004500 0.026456 0.464851
0.004905 0.026861 0.526294
0.005313 0.027268 0.588031
0.005722 0.027677 0.650031
0.006132 0.028088 0.712273
0.006544 0.028500 0.774735
0.006957 0.028913 0.837403
0.007372 0.029327 0.900261
0.007524 0.029479 0.923313
0.005095 0.082561 0.005095
0.005406 0.082872 0.052268
0.005781 0.083247 0.109167
0.006165 0.083632 0.167423
0.006555 0.084022 0.226555
0.006950 0.084416 0.286339
0.007347 0.084814 0.346644
0.007748 0.085214 0.407386
0.008151 0.085617 0.468501
0.008556 0.086023 0.529945
0.008963 0.086430 0.591682
0.009372 0.086839 0.653682
0.009783 0.087249 0.715924
0.010195 0.087661 0.778386
0.010608 0.088074 0.841053
0.011023 0.088489 0.903911
0.011175 0.088641 0.926964
0.008866 0.143680 0.008866
0.009177 0.143991 0.056040
0.009553 0.144367 0.112939
0.009937 0.144751 0.171194
0.010327 0.145141 0.230326
0.010721 0.145535 0.290110
0.011119 0.145933 0.350416
0.011519 0.146334 0.411157
0.011922 0.146737 0.472273
0.012328 0.147142 0.533717
0.012735 0.147549 0.595453
0.013144 0.147958 0.657454
0.013554 0.148368 0.719695
0.013966 0.148780 0.782158
0.014380 0.149194 0.844825
0.014794 0.149608 0.907683
0.014946 0.149760 0.930736
0.012706 0.205902 0.012706
0.013017 0.206213 0.059879
0.013392 0.206589 0.116778
0.013776 0.206973 0.175034
0.014166 0.207363 0.234166
0.014561 0.207757 0.293950
0.014958 0.208155 0.354256
0.015359 0.208556 0.414997
0.015762 0.208959 0.476112
0.016167 0.209364 0.537556
0.016574 0.209771 0.599293
0.016983 0.210180 0.661293
0.017394 0.210590 0.723535
0.017806 0.211002 0.785997
0.018219 0.211416 0.848664
0.018634 0.211830 0.911522
0.018786 0.211982 0.934575
0.016593 0.268905 0.016593
0.016905 0.269216 0.063767
0.017280 0.269591 0.120666
0.017664 0.269976 0.178922
0.018054 0.270366 0.238053
0.018448 0.270760 0.297837
0.018846 0.271158 0.358143
0.019247 0.271558 0.418885
0.019650 0.271961 0.480000
0.020055 0.272367 0.541444
0.020462 0.272774 0.603180
0.020871 0.273183 0.665181
0.021282 0.273593 0.727422
0.021693 0.274005 0.789885
0.022107 0.274419 0.852552
0.022521 0.274833 0.915410
0.022673 0.274985 0.938463
0.020519 0.332515 0.020519
0.020830 0.332827 0.067692
0.021205 0.333202 0.124591
0.021589 0.333586 0.182847
0.021979 0.333976 0.241979
0.022374 0.334370 0.301763
0.022771 0.334768 0.362068
0.023172 0.335169 0.422810
0.023575 0.335572 0.483925
0.023980 0.335977 0.545369
0.024387 0.336384 0.607106
0.024796 0.336793 0.669106
0.025207 0.337204 0.731348
0.025619 0.337615 0.793810
0.026032 0.338029 0.856477
0.026447 0.338443 0.919335
0.026599 0.338595 0.942388
0.024475 0.396624 0.024475
0.024786 0.396935 0.071648
0.025161 0.397310 0.128547
0.025545 0.397695 0.186803
0.025935 0.398085 0.245935
0.026329 0.398479 0.305719
0.026727 0.398877 0.366024
0.027128 0.399277 0.426766
0.027531 0.399680 0.487881
0.027936 0.400086 0.549325
0.028343 0.400493 0.611062
0.028752 0.400902 0.673062
0.029163 0.401312 0.735304
0.029575 0.401724 0.797766
0.029988 0.402138 0.860433
0.030403 0.402552 0.923291
0.030555 0.402704 0.946344
0.028457 0.461156 0.028457
0.028768 0.461467 0.075630
0.029143 0.461842 0.132529
0.029527 0.462227 0.190785
0.029917 0.462617 0.249917
0.030312 0.463011 0.309701
0.030709 0.463409 0.370007
0.031110 0.463809 0.430748
0.031513 0.464212 0.491863
0.031918 0.464618 0.553307
0.032325 0.465025 0.615044
0.032734 0.465434 0.677044
0.033145 0.465844 0.739286
0.033557 0.466256 0.801748
0.033970 0.466669 0.864415
0.034385 0.467084 0.927273
0.034537 0.467236 0.950326
0.032461 0.526056 0.032461
0.032773 0.526367 0.079635
0.033148 0.526742 0.136534
0.033532 0.527127 0.194790
0.033922 0.527517 0.253921
0.034316 0.527911 0.313706
0.034714 0.528309 0.374011
0.035115 0.528709 0.434753
0.035518 0.529112 0.495868
0.035923 0.529518 0.557312
0.036330 0.529925 0.619048
0.036739 0.530334 0.681049
0.037150 0.530744 0.743290
0.037562 0.531156 0.805753
0.037975 0.531569 0.868420
0.038389 0.531984 0.931278
0.038541 0.532136 0.954331
0.036486 0.591282 0.036486
0.036798 0.591593 0.083660
0.037173 0.591968 0.140559
0.037557 0.592353 0.198815
0.037947 0.592742 0.257946
0.038341 0.593137 0.317730
0.038739 0.593535 0.378036
0.039140 0.593935 0.438778
0.039543 0.594338 0.499893
0.039948 0.594743 0.561337
0.040355 0.595151 0.623073
0.040764 0.595560 0.685074
0.041175 0.595970 0.747315
0.041586 0.596382 0.809778
0.042000 0.596795 0.872445
0.042414 0.597210 0.935303
0.042566 0.597362 0.958356
0.040529 0.656800 0.040529
0.040841 0.657112 0.087703
0.041216 0.657487 0.144602
0.041600 0.657871 0.202858
0.041990 0.658261 0.261989
0.042384 0.658655 0.321773
0.042782 0.659053 0.382079
0.043183 0.659454 0.442821
0.043586 0.659857 0.503936
0.043991 0.660262 0.565380
0.044398 0.660669 0.627116
0.044807 0.661078 0.689117
0.045218 0.661489 0.751358
0.045629 0.661900 0.813821
0.046043 0.662314 0.876488
0.046457 0.662728 0.939346
0.046609 0.662880 0.962399
0.044589 0.722584 0.044589
0.044900 0.722896 0.091763
0.045275 0.723271 0.148661
0.045659 0.723655 0.206917
0.046049 0.724045 0.266049
0.046444 0.724439 0.325833
0.046841 0.724837 0.386139
0.047242 0.725238 0.446880
0.047645 0.725641 0.507995
0.048050 0.726046 0.569439
0.048457 0.726453 0.631176
0.048866 0.726862 0.693176
0.049277 0.727273 0.755418
0.049689 0.727685 0.817880
0.050102 0.728098 0.880548
0.050517 0.728512 0.943405
0.050669 0.728664 0.966458
0.048663 0.788612 0.048663
0.048974 0.788923 0.095837
0.049349 0.789298 0.152736
0.049734 0.789682 0.210991
0.050124 0.790072 0.270123
0.050518 0.790467 0.329907
0.050916 0.790864 0.390213
0.051316 0.791265 0.450954
0.051719 0.791668 0.512070
0.052125 0.792073 0.573514
0.052532 0.792480 0.635250
0.052941 0.792889 0.697251
0.053351 0.793300 0.759492
0.053763 0.793712 0.821955
0.054176 0.794125 0.884622
0.054591 0.794540 0.947480
0.054743 0.794692 0.970533
0.052751 0.854863 0.052751
0.053062 0.855174 0.099925
0.053438 0.855550 0.156824
0.053822 0.855934 0.215080
0.054212 0.856324 0.274211
0.054606 0.856718 0.333995
0.055004 0.857116 0.394301
0.055405 0.857516 0.455042
0.055808 0.857920 0.516158
0.056213 0.858325 0.577602
0.056620 0.858732 0.639338
0.057029 0.859141 0.701339
0.057439 0.859551 0.763580
0.057851 0.859963 0.826043
0.058265 0.860377 0.888710
0.058679 0.860791 0.951568
0.058831 0.860943 0.974621
0.056852 0.921323 0.056852
0.057163 0.921634 0.104026
0.057539 0.922010 0.160925
0.057923 0.922394 0.219181
0.058313 0.922784 0.278312
0.058707 0.923178 0.338096
0.059105 0.923576 0.398402
0.059506 0.923976 0.459144
0.059909 0.924379 0.520259
0.060314 0.924785 0.581703
0.060721 0.925192 0.643439
0.061130 0.925601 0.705440
0.061540 0.926011 0.767681
0.061952 0.926423 0.830144
0.062366 0.926837 0.892811
0.062780 0.927251 0.955669
0.062932 0.927403 0.978722
0.060227 0.976017 0.060227
0.060538 0.976328 0.107401
0.060914 0.976703 0.164300
0.061298 0.977087 0.222556
0.061688 0.977477 0.281687
0.062082 0.977872 0.341471
0.062480 0.978269 0.401777
0.062881 0.978670 0.462519
0.063284 0.979073 0.523634
0.063689 0.979478 0.585078
0.064096 0.979886 0.646814
0.064505 0.980294 0.708815
0.064915 0.980705 0.771056
0.065327 0.981117 0.833519
0.065741 0.981530 0.896186
0.066155 0.981945 0.959044
0.066307 0.982097 0.982097
0.000000 0.000000 0.000000
0.000311 0.000311 0.047174
0.000686 0.000686 0.104072
0.001071 0.001071 0.162328
0.001461 0.001461 0.221460
0.001855 0.001855 0.281244
0.002253 0.002253 0.341550
0.002653 0.002653 0.402291
0.003056 0.003056 0.463407
0.003462 0.003462 0.524851
0.003869 0.003869 0.586587
0.004278 0.004278 0.648588
0.004688 0.004688 0.710829
0.005100 0.005100 0.773291
0.005513 0.005513 0.835959
0.005928 0.005928 0.898817
0.006080 0.006080 0.921869
0.001444 0.023399 0.001444
0.001755 0.023711 0.048618
0.002130 0.024086 0.105516
0.002515 0.024470 0.163772
0.002905 0.024860 0.222904
0.003299 0.025254 0.282688
0.003697 0.025652 0.342994
0.004097 0.026053 0.403735
0.004500 0.026456 0.464851
0.004905 0.026861 0.526294
0.005313 0.027268 0.588031
0.005722 0.027677 0.650031
0.006132 0.028088 0.712273
0.006544 0.028500 0.774735
0.006957 0.028913 0.837403
0.007372 0.029327 0.900261
0.007524 0.029479 0.923313
0.005095 0.082561 0.005095
0.005406 0.082872 0.052268
0.005781 0.083247 0.109167
0.006165 0.083632 0.167423
0.006555 0.084022 0.226555
0.006950 0.084416 0.286339
0.007347 0.084814 0.346644
0.007748 0.085214 0.407386
0.008151 0.085617 0.468501
0.008556 0.086023 0.529945
0.008963 0.086430 0.591682
0.009372 0.086839 0.653682
0.009783 0.087249 0.715924
0.010195 0.087661 0.778386
0.010608 0.088074 0.841053
0.011023 0.088489 0.903911
0.011175 0.088641 0.926964
0.008866 0.143680 0.008866
0.009177 0.143991 0.056040
0.009553 0.144367 0.112939
0.009937 0.144751 0.171194
0.010327 0.145141 0.230326
0.010721 0.145535 0.290110
0.011119 0.145933 0.350416
0.011519 0.146334 0.411157
0.011922 0.146737 0.472273
0.012328 0.147142 0.533717
0.012735 0.147549 0.595453
0.013144 0.147958 0.657454
0.013554 0.148368 0.719695
0.013966 0.148780 0.782158
0.014380 0.149194 0.844825
0.014794 0.149608 0.907683
0.014946 0.149760 0.930736
0.012706 0.205902 0.012706
0.013017 0.206213 0.059879
0.013392 0.206589 0.116778
0.013776 0.206973 0.175034
0.014166 0.207363 0.234166
0.014561 0.207757 0.293950
0.014958 0.208155 0.354256
0.015359 0.208556 0.414997
0.015762 0.208959 0.476112
0.016167 0.209364 0.537556
0.016574 0.209771 0.599293
0.016983 0.210180 0.661293
0.017394 0.210590 0.723535
0.017806 0.211002 0.785997
0.018219 0.211416 0.848664
0.018634 0.211830 0.911522
0.018786 0.211982 0.934575
0.016593 0.268905 0.016593
0.016905 0.269216 0.063767
0.017280 0.269591 0.120666
0.017664 0.269976 0.178922
0.018054 0.270366 0.238053
0.018448 0.270760 0.297837
0.018846 0.271158 0.358143
0.019247 0.271558 0.418885
0.019650 0.271961 0.480000
0.020055 0.272367 0.541444
0.020462 0.272774 0.603180
0.020871 0.273183 0.665181
0.021282 0.273593 0.727422
0.021693 0.274005 0.789885
0.022107 0.274419 0.852552
0.022521 0.274833 0.915410
0.022673 0.274985 0.938463
0.020519 0.332515 0.020519
0.020830 0.332827 0.067692
0.021205 0.333202 0.124591
0.021589 0.333586 0.182847
0.021979 0.333976 0.241979
0.022374 0.334370 0.301763
0.022771 0.334768 0.362068
0.023172 0.335169 0.422810
0.023575 0.335572 0.483925
0.023980 0.335977 0.545369
0.024387 0.336384 0.607106
0.024796 0.336793 0.669106
0.025207 0.337204 0.731348
0.025619 0.337615 0.793810
0.026032 0.338029 0.856477
0.026447 0.338443 0.919335
0.026599 0.338595 0.942388
0.024475 0.396624 0.024475
0.024786 0.396935 0.071648
0.025161 0.397310 0.128547
0.025545 0.397695 0.186803
0.025935 0.398085 0.245935
0.026329 0.398479 0.305719
0.026727 0.398877 0.366024
0.027128 0.399277 0.426766
0.027531 0.399680 0.487881
0.027936 0.400086 0.549325
0.028343 0.400493 0.611062
0.028752 0.400902 0.673062
0.029163 0.401312 0.735304
0.029575 0.401724 0.797766
0.029988 0.402138 0.860433
0.030403 0.402552 0.923291
0.030555 0.402704 0.946344
0.028457 0.461156 0.028457
0.028768 0.461467 0.075630
0.029143 0.461842 0.132529
0.029527 0.462227 0.190785
0.029917 0.462617 0.249917
0.030312 0.463011 0.309701
0.030709 0.463409 0.370007
0.031110 0.463809 0.430748
0.031513 0.464212 0.491863
0.031918 0.464618 0.553307
0.032325 0.465025 0.615044
0.032734 0.465434 0.677044
0.033145 0.465844 0.739286
0.033557 0.466256 0.801748
0.033970 0.466669 0.864415
0.034385 0.467084 0.927273
0.034537 0.467236 0.950326
0.032461 0.526056 0.032461
0.032773 0.526367 0.079635
0.033148 0.526742 0.136534
0.033532 0.527127 0.194790
0.033922 0.527517 0.253921
0.034316 0.527911 0.313706
0.034714 0.528309 0.374011
0.035115 0.528709 0.434753
0.035518 0.529112 0.495868
0.035923 0.529518 0.557312
0.036330 0.529925 0.619048
0.036739 0.530334 0.681049
0.037150 0.530744 0.743290
0.037562 0.531156 0.805753
0.037975 0.531569 0.868420
0.038389 0.531984 0.931278
0.038541 0.532136 0.954331
0.036486 0.591282 0.036486
0.036798 0.591593 0.083660
0.037173 0.591968 0.140559
0.037557 0.592353 0.198815
0.037947 0.592742 0.257946
0.038341 0.593137 0.317730
0.038739 0.593535 0.378036
0.039140 0.593935 0.438778
0.039543 0.594338 0.499893
0.039948 0.594743 0.561337
0.040355 0.595151 0.623073
0.040764 0.595560 0.685074
0.041175 0.595970 0.747315
0.041586 0.596382 0.809778
0.042000 0.596795 0.872445
0.042414 0.597210 0.935303
0.042566 0.597362 0.958356
0.040529 0.656800 0.040529
0.040841 0.657112 0.087703
0.041216 0.657487 0.144602
0.041600 0.657871 0.202858
0.041990 0.658261 0.261989
0.042384 0.658655 0.321773
0.042782 0.659053 0.382079
0.043183 0.659454 0.442821
0.043586 0.659857 0.503936
0.043991 0.660262 0.565380
0.044398 0.660669 0.627116
0.044807 0.661078 0.689117
0.045218 0.661489 0.751358
0.045629 0.661900 0.813821
0.046043 0.662314 0.876488
0.046457 0.662728 0.939346
0.046609 0.662880 0.962399
0.044589 0.722584 0.044589
0.044900 0.722896 0.091763
0.045275 0.723271 0.148661
0.045659 0.723655 0.206917
0.046049 0.724045 0.266049
0.046444 0.724439 0.325833
0.046841 0.724837 0.386139
0.047242 0.725238 0.446880
0.047645 0.725641 0.507995
0.048050 0.726046 0.569439
0.048457 0.726453 0.631176
0.048866 0.726862 0.693176
0.049277 0.727273 0.755418
0.049689 0.727685 0.817880
0.050102 0.728098 0.880548
0.050517 0.728512 0.943405
0.050669 0.728664 0.966458
0.048663 0.788612 0.048663
0.048974 0.788923 0.095837
0.049349 0.789298 0.152736
0.049734 0.789682 0.210991
0.050124 0.790072 0.270123
0.050518 0.790467 0.329907
0.050916 0.790864 0.390213
0.051316 0.791265 0.450954
0.051719 0.791668 0.512070
0.052125 0.792073 0.573514
0.052532 0.792480 0.635250
0.052941 0.792889 0.697251
0.053351 0.793300 0.759492
0.053763 0.793712 0.821955
0.054176 0.794125 0.884622
0.054591 0.794540 0.947480
0.054743 0.794692 0.970533
0.052751 0.854863 0.052751
0.053062 0.855174 0.099925
0.053438 0.855550 0.156824
0.053822 0.855934 0.215080
0.054212 0.856324 0.274211
0.054606 0.856718 0.333995
0.055004 0.857116 0.394301
0.055405 0.857516 0.455042
0.055808 0.857920 0.516158
0.056213 0.858325 0.577602
0.056620 0.858732 0.639338
0.057029 0.859141 0.701339
0.057439 0.859551 0.763580
0.057851 0.859963 0.826043
0.058265 0.860377 0.888710
0.058679 0.860791 0.951568
0.058831 0.860943 0.974621
0.056852 0.921323 0.056852
0.057163 0.921634 0.104026
0.057539 0.922010 0.160925
0.057923 0.922394 0.219181
0.058313 0.922784 0.278312
0.058707 0.923178 0.338096
0.059105 0.923576 0.398402
0.059506 0.923976 0.459144
0.059909 0.924379 0.520259
0.060314 0.924785 0.581703
0.060721 0.925192 0.643439
0.061130 0.925601 0.705440
0.061540 0.926011 0.767681
0.061952 0.926423 0.830144
0.062366 0.926837 0.892811
0.062780 0.927251 0.955669
0.062932 0.927403 0.978722
0.060227 0.976017 0.060227
0.060538 0.976328 0.107401
0.060914 0.976703 0.164300
0.061298 0.977087 0.222556
0.061688 0.977477 0.281687
0.062082 0.977872 0.341471
0.062480 0.978269 0.401777
0.062881 0.978670 0.462519
0.063284 0.979073 0.523634
0.063689 0.979478 0.585078
0.064096 0.979886 0.646814
0.064505 0.980294 0.708815
0.064915 0.980705 0.771056
0.065327 0.981117 0.833519
0.065741 0.981530 0.896186
0.066155 0.981945 0.959044
0.066307 0.982097 0.982097
0.052913 0.001015 0.001015
0.053224 0.001326 0.048188
0.053600 0.001701 0.105087
0.053984 0.002085 0.163343
0.054374 0.002475 0.222475
0.054768 0.002869 0.282259
0.055166 0.003267 0.342564
0.055566 0.003668 0.403306
0.055970 0.004071 0.464421
0.056375 0.004476 0.525865
0.056782 0.004883 0.587602
0.057191 0.005292 0.649602
0.057601 0.005703 0.711843
0.058013 0.006115 0.774306
0.058427 0.006528 0.836973
0.058841 0.006943 0.899831
0.058993 0.007095 0.922884
0.054357 0.024414 0.002459
0.054668 0.024725 0.049632
0.055044 0.025100 0.106531
0.055428 0.025485 0.164787
0.055818 0.025875 0.223918
0.056212 0.026269 0.283703
0.056610 0.026667 0.344008
0.057010 0.027067 0.404750
0.057413 0.027470 0.465865
0.057819 0.027876 0.527309
0.058226 0.028283 0.589045
0.058635 0.028692 0.651046
0.059045 0.029102 0.713287
0.059457 0.029514 0.775750
0.059871 0.029927 0.838417
0.060285 0.030342 0.901275
0.060437 0.030494 0.924328
0.058008 0.083576 0.006109
0.058319 0.083887 0.053283
0.058694 0.084262 0.110182
0.059078 0.084646 0.168437
0.059468 0.085036 0.227569
0.059863 0.085431 0.287353
0.060260 0.085828 0.347659
0.060661 0.086229 0.408400
0.061064 0.086632 0.469516
0.061469 0.087037 0.530960
0.061877 0.087444 0.592696
0.062285 0.087853 0.654697
0.062696 0.088264 0.716938
0.063108 0.088676 0.779401
0.063521 0.089089 0.842068
0.063936 0.089504 0.904926
0.064088 0.089656 0.927979
0.061779 0.144695 0.009881
0.062090 0.145006 0.057054
0.062466 0.145381 0.113953
0.062850 0.145766 0.172209
0.063240 0.146156 0.231341
0.063634 0.146550 0.291125
0.064032 0.146948 0.351431
0.064433 0.147348 0.412172
0.064836 0.147751 0.473287
0.065241 0.148156 0.534731
0.065648 0.148564 0.596468
0.066057 0.148973 0.658468
0.066467 0.149383 0.720710
0.066879 0.149795 0.783172
0.067293 0.150208 0.845840
0.067707 0.150623 0.908697
0.067859 0.150775 0.931750
0.065619 0.206917 0.013720
0.065930 0.207228 0.060894
0.066305 0.207603 0.117793
0.066689 0.207988 0.176049
0.067079 0.208378 0.235180
0.067474 0.208772 0.294964
0.067872 0.209170 0.355270
0.068272 0.209570 0.416011
0.068675 0.209973 0.477127
0.069080 0.210378 0.538571
0.069488 0.210786 0.600307
0.069897 0.211195 0.662308
0.070307 0.211605 0.724549
0.070719 0.212017 0.787012
0.071132 0.212430 0.849679
0.071547 0.212845 0.912537
0.071699 0.212997 0.935590
0.069507 0.269920 0.017608
0.069818 0.270231 0.064782
0.070193 0.270606 0.121680
0.070577 0.270990 0.179936
0.070967 0.271380 0.239068
0.071362 0.271775 0.298852
0.071759 0.272172 0.359158
0.072160 0.272573 0.419899
0.072563 0.272976 0.481015
0.072968 0.273381 0.542459
0.073375 0.273788 0.604195
0.073784 0.274197 0.666196
0.074195 0.274608 0.728437
0.074607 0.275020 0.790899
0.075020 0.275433 0.853567
0.075435 0.275848 0.916425
0.075587 0.276000 0.939477
0.073432 0.333530 0.021533
0.073743 0.333841 0.068707
0.074118 0.334216 0.125606
0.074502 0.334601 0.183861
0.074892 0.334991 0.242993
0.075287 0.335385 0.302777
0.075684 0.335783 0.363083
0.076085 0.336183 0.423824
0.076488 0.336586 0.484940
0.076893 0.336992 0.546384
0.077301 0.337399 0.608120
0.077709 0.337808 0.670121
0.078120 0.338218 0.732362
0.078532 0.338630 0.794825
0.078945 0.339043 0.857492
0.079360 0.339458 0.920350
0.079512 0.339610 0.943403
0.077388 0.397639 0.025489
0.077699 0.397950 0.072663
0.078074 0.398325 0.129562
0.078458 0.398709 0.187817
0.078848 0.399099 0.246949
0.079243 0.399494 0.306733
0.079640 0.399891 0.367039
0.080041 0.400292 0.427780
0.080444 0.400695 0.488896
0.080849 0.401100 0.550340
0.081257 0.401507 0.612076
0.081665 0.401916 0.674077
0.082076 0.402327 0.736318
0.082488 0.402739 0.798781
0.082901 0.403152 0.861448
0.083316 0.403567 0.924306
0.083468 0.403719 0.947359
0.081370 0.462171 0.029471
0.081681 0.462482 0.076645
0.082056 0.462857 0.133544
0.082441 0.463241 0.191800
0.082830 0.463631 0.250931
0.083225 0.464025 0.310715
0.083623 0.464423 0.371021
0.084023 0.464824 0.431762
0.084426 0.465227 0.492878
0.084831 0.465632 0.554322
0.085239 0.466039 0.616058
0.085648 0.466448 0.678059
0.086058 0.466859 0.740300
0.086470 0.467271 0.802763
0.086883 0.467684 0.865430
0.087298 0.468099 0.928288
0.087450 0.468251 0.951341
0.085375 0.527071 0.033476
0.085686 0.527382 0.080650
0.086061 0.527757 0.137549
0.086445 0.528141 0.195804
0.086835 0.528531 0.254936
0.087230 0.528925 0.314720
0.087627 0.529323 0.375026
0.088028 0.529724 0.435767
0.088431 0.530127 0.496883
0.088836 0.530532 0.558327
0.089243 0.530939 0.620063
0.089652 0.531348 0.682064
0.090063 0.531759 0.744305
0.090475 0.532171 0.806768
0.090888 0.532584 0.869435
0.091303 0.532999 0.932293
0.091455 0.533151 0.955346
0.089400 0.592296 0.037501
0.089711 0.592608 0.084675
0.090086 0.592983 0.141573
0.090470 0.593367 0.199829
0.090860 0.593757 0.258961
0.091255 0.594151 0.318745
0.091652 0.594549 0.379051
0.092053 0.594950 0.439792
0.092456 0.595353 0.500908
0.092861 0.595758 0.562352
0.093268 0.596165 0.624088
0.093677 0.596574 0.686089
0.094088 0.596985 0.748330
0.094500 0.597397 0.810792
0.094913 0.597810 0.873460
0.095328 0.598224 0.936318
0.095480 0.598376 0.959370
0.093443 0.657815 0.041544
0.093754 0.658126 0.088718
0.094129 0.658501 0.145616
0.094513 0.658886 0.203872
0.094903 0.659276 0.263004
0.095297 0.659670 0.322788
0.095695 0.660068 0.383094
0.096096 0.660468 0.443835
0.096499 0.660871 0.504951
0.096904 0.661277 0.566394
0.097311 0.661684 0.628131
0.097720 0.662093 0.690132
0.098131 0.662503 0.752373
0.098543 0.662915 0.814835
0.098956 0.663328 0.877503
0.099371 0.663743 0.940361
0.099523 0.663895 0.963413
0.097502 0.723599 0.045603
0.097813 0.723910 0.092777
0.098188 0.724285 0.149676
0.098573 0.724670 0.207932
0.098963 0.725060 0.267063
0.099357 0.725454 0.326847
0.099755 0.725852 0.387153
0.100155 0.726252 0.447895
0.100558 0.726655 0.509010
0.100963 0.727061 0.570454
0.101371 0.727468 0.632190
0.101780 0.727877 0.694191
0.102190 0.728287 0.756432
0.102602 0.728699 0.818895
0.103015 0.729112 0.881562
0.103430 0.729527 0.944420
0.103582 0.729679 0.967473
0.101576 0.789626 0.049678
0.101887 0.789937 0.096851
0.102263 0.790313 0.153750
0.102647 0.790697 0.212006
0.103037 0.791087 0.271138
0.103431 0.791481 0.330922
0.103829 0.791879 0.391228
0.104230 0.792279 0.451969
0.104633 0.792683 0.513084
0.105038 0.793088 0.574528
0.105445 0.793495 0.636265
0.105854 0.793904 0.698265
0.106264 0.794314 0.760507
0.106676 0.794726 0.822969
0.107090 0.795140 0.885636
0.107504 0.795554 0.948494
0.107656 0.795706 0.971547
0.105665 0.855878 0.053766
0.105976 0.856189 0.100940
0.106351 0.856564 0.157838
0.106735 0.856948 0.216094
0.107125 0.857338 0.275226
0.107519 0.857733 0.335010
0.107917 0.858130 0.395316
0.108318 0.858531 0.456057
0.108721 0.858934 0.517173
0.109126 0.859339 0.578616
0.109533 0.859747 0.640353
0.109942 0.860155 0.702353
0.110353 0.860566 0.764595
0.110765 0.860978 0.827057
0.111178 0.861391 0.889725
0.111592 0.861806 0.952583
0.111745 0.861958 0.975635
0.109766 0.922338 0.057867
0.110077 0.922649 0.105041
0.110452 0.923024 0.161939
0.110836 0.923408 0.220195
0.111226 0.923798 0.279327
0.111620 0.924193 0.339111
0.112018 0.924590 0.399417
0.112419 0.924991 0.460158
0.112822 0.925394 0.521274
0.113227 0.925799 0.582717
0.113634 0.926206 0.644454
0.114043 0.926615 0.706455
0.114454 0.927026 0.768696
0.114866 0.927438 0.831158
0.115279 0.927851 0.893826
0.115694 0.928266 0.956684
0.115846 0.928418 0.979736
0.113141 0.977031 0.061242
0.113452 0.977343 0.108416
0.113827 0.977718 0.165314
0.114211 0.978102 0.223570
0.114601 0.978492 0.282702
0.114995 0.978886 0.342486
0.115393 0.979284 0.402792
0.115794 0.979685 0.463533
0.116197 0.980088 0.524649
0.116602 0.980493 0.586092
0.117009 0.980900 0.647829
0.117418 0.981309 0.709830
0.117829 0.981720 0.772071
0.118241 0.982132 0.834533
0.118654 0.982545 0.897201
0.119069 0.982959 0.960059
0.119221 0.983111 0.983111
0.110703 0.002123 0.002123
0.111014 0.002434 0.049296
0.111389 0.002809 0.106195
0.111773 0.003193 0.164451
0.112163 0.003583 0.223583
0.112558 0.003978 0.283367
0.112955 0.004375 0.343673
0.113356 0.004776 0.404414
0.113759 0.005179 0.465529
0.114164 0.005584 0.526973
0.114571 0.005991 0.588710
0.114980 0.006400 0.650710
0.115391 0.006811 0.712952
0.115803 0.007223 0.775414
0.116216 0.007636 0.838081
0.116631 0.008051 0.900939
0.116783 0.008203 0.923992
0.112147 0.025522 0.003567
