skills/promo-director/assets/grade/luts/night_blue_v12.cube
TITLE "night_blue_v12"
LUT_3D_SIZE 5
DOMAIN_MIN 0.0 0.0 0.0
DOMAIN_MAX 1.0 1.0 1.0
0.000000 0.000000 0.000000
0.002184 0.002184 0.191300
0.004803 0.004803 0.420659
0.007524 0.007524 0.659031
0.009956 0.009956 0.872061
0.016169 0.157509 0.016169
0.018353 0.159693 0.207469
0.020971 0.162312 0.436828
0.023693 0.165033 0.675200
0.026125 0.167465 0.888230
0.041788 0.407072 0.041788
0.043972 0.409256 0.233088
0.046590 0.411875 0.462446
0.049311 0.414596 0.700819
0.051744 0.417028 0.913849
0.068563 0.667904 0.068563
0.070747 0.670088 0.259863
0.073365 0.672706 0.489222
0.076087 0.675428 0.727594
0.078519 0.677860 0.940624
0.096063 0.935800 0.096063
0.098247 0.937984 0.287364
0.100866 0.940602 0.516722
0.103587 0.943324 0.755094
0.106019 0.945756 0.968125
0.097841 0.003218 0.003218
0.100025 0.005402 0.194518
0.102644 0.008020 0.423877
0.105365 0.010742 0.662249
0.107797 0.013174 0.875279
0.114010 0.160727 0.019387
0.116194 0.162911 0.210687
0.118813 0.165530 0.440046
0.121534 0.168251 0.678418
0.123966 0.170683 0.891448
0.139629 0.410290 0.045005
0.141813 0.412474 0.236305
0.144431 0.415093 0.465664
0.147153 0.417814 0.704036
0.149585 0.420246 0.917066
0.166404 0.671121 0.071781
0.168588 0.673305 0.263081
0.171206 0.675924 0.492439
0.173928 0.678645 0.730812
0.176360 0.681077 0.943842
0.193904 0.939018 0.099281
0.196088 0.941202 0.290581
0.198707 0.943820 0.519940
0.201428 0.946542 0.758312
0.203860 0.948974 0.971342
0.325889 0.010718 0.010718
0.328073 0.012902 0.202018
0.330692 0.015520 0.431376
0.333413 0.018242 0.669749
0.335845 0.020674 0.882779
0.342058 0.168227 0.026887
0.344242 0.170411 0.218187
0.346861 0.173030 0.447545
0.349582 0.175751 0.685918
0.352014 0.178183 0.898948
0.367677 0.417790 0.052505
0.369861 0.419974 0.243805
0.372479 0.422592 0.473164
0.375201 0.425314 0.711536
0.377633 0.427746 0.924566
0.394452 0.678621 0.079280
0.396636 0.680805 0.270581
0.399255 0.683424 0.499939
0.401976 0.686145 0.738311
0.404408 0.688577 0.951342
0.421953 0.946518 0.106781
0.424137 0.948702 0.298081
0.426755 0.951320 0.527440
0.429476 0.954041 0.765812
0.431909 0.956474 0.978842
0.566089 0.018617 0.018617
0.568273 0.020801 0.209917
0.570892 0.023420 0.439276
0.573613 0.026141 0.677648
0.576045 0.028573 0.890678
0.582258 0.176127 0.034786
0.584442 0.178311 0.226086
0.587061 0.180929 0.455445
0.589782 0.183650 0.693817
0.592214 0.186083 0.906847
0.607877 0.425689 0.060405
0.610061 0.427873 0.251705
0.612679 0.430492 0.481064
0.615401 0.433213 0.719436
0.617833 0.435645 0.932466
0.634652 0.686521 0.087180
0.636836 0.688705 0.278480
0.639455 0.691323 0.507839
0.642176 0.694045 0.746211
0.644608 0.696477 0.959241
0.662153 0.954417 0.114681
0.664337 0.956601 0.305981
0.666955 0.959220 0.535339
0.669677 0.961941 0.773712
0.672109 0.964373 0.986742
0.813411 0.026751 0.026751
0.815595 0.028935 0.218051
0.818213 0.031553 0.447410
0.820934 0.034275 0.685782
0.823367 0.036707 0.898812
0.829579 0.184260 0.042920
0.831763 0.186444 0.234220
0.834382 0.189063 0.463579
0.837103 0.191784 0.701951
0.839535 0.194216 0.914981
0.855198 0.433823 0.068538
0.857382 0.436007 0.259839
0.860001 0.438626 0.489197
0.862722 0.441347 0.727569
0.865154 0.443779 0.940600
0.881973 0.694655 0.095314
0.884157 0.696839 0.286614
0.886776 0.699457 0.515973
0.889497 0.702178 0.754345
0.891929 0.704611 0.967375
0.909474 0.962551 0.122814
0.911658 0.964735 0.314114
0.914276 0.967353 0.543473
0.916998 0.970075 0.781845
0.919430 0.972507 0.994876
