skills/promo-director/assets/grade/luts/night_blue_v12.cube
TITLE "night_blue_v12"
LUT_3D_SIZE 9
DOMAIN_MIN 0.0 0.0 0.0
DOMAIN_MAX 1.0 1.0 1.0
0.000000 0.000000 0.000000
0.000943 0.000943 0.082562
0.002184 0.002184 0.191300
0.003477 0.003477 0.304525
0.004803 0.004803 0.420659
0.006153 0.006153 0.538970
0.007524 0.007524 0.659031
0.008911 0.008911 0.780558
0.009956 0.009956 0.872061
0.004236 0.041263 0.004236
0.005178 0.042206 0.086797
0.006420 0.043447 0.195536
0.007712 0.044740 0.308761
0.009038 0.046065 0.424895
0.010389 0.047416 0.543206
0.011760 0.048787 0.663267
0.013147 0.050174 0.784794
0.014192 0.051219 0.876297
0.016169 0.157509 0.016169
0.017112 0.158452 0.098730
0.018353 0.159693 0.207469
0.019646 0.160986 0.320694
0.020971 0.162312 0.436828
0.022322 0.163663 0.555139
0.023693 0.165033 0.675200
0.025080 0.166421 0.796727
0.026125 0.167465 0.888230
0.028784 0.280403 0.028784
0.029727 0.281346 0.111346
0.030968 0.282587 0.220085
0.032261 0.283880 0.333310
0.033587 0.285206 0.449443
0.034938 0.286557 0.567755
0.036308 0.287927 0.687815
0.037696 0.289315 0.809342
0.038740 0.290359 0.900846
0.041788 0.407072 0.041788
0.042730 0.408015 0.124349
0.043972 0.409256 0.233088
0.045264 0.410549 0.346313
0.046590 0.411875 0.462446
0.047941 0.413226 0.580758
0.049311 0.414596 0.700819
0.050699 0.415984 0.822345
0.051744 0.417028 0.913849
0.055067 0.536434 0.055067
0.056010 0.537377 0.137629
0.057251 0.538618 0.246367
0.058544 0.539911 0.359592
0.059869 0.541237 0.475726
0.061220 0.542587 0.594037
0.062591 0.543958 0.714098
0.063978 0.545345 0.835625
0.065023 0.546390 0.927128
0.068563 0.667904 0.068563
0.069505 0.668846 0.151124
0.070747 0.670088 0.259863
0.072039 0.671380 0.373088
0.073365 0.672706 0.489222
0.074716 0.674057 0.607533
0.076087 0.675428 0.727594
0.077474 0.676815 0.849121
0.078519 0.677860 0.940624
0.082237 0.801111 0.082237
0.083180 0.802054 0.164799
0.084421 0.803295 0.273537
0.085714 0.804588 0.386762
0.087040 0.805913 0.502896
0.088390 0.807264 0.621207
0.089761 0.808635 0.741268
0.091148 0.810022 0.862795
0.092193 0.811067 0.954298
0.096063 0.935800 0.096063
0.097006 0.936743 0.178625
0.098247 0.937984 0.287364
0.099540 0.939277 0.400589
0.100866 0.940602 0.516722
0.102217 0.941953 0.635034
0.103587 0.943324 0.755094
0.104975 0.944711 0.876621
0.106019 0.945756 0.968125
0.000000 0.000000 0.000000
0.000943 0.000943 0.082562
0.002184 0.002184 0.191300
0.003477 0.003477 0.304525
0.004803 0.004803 0.420659
0.006153 0.006153 0.538970
0.007524 0.007524 0.659031
0.008911 0.008911 0.780558
0.009956 0.009956 0.872061
0.004236 0.041263 0.004236
0.005178 0.042206 0.086797
0.006420 0.043447 0.195536
0.007712 0.044740 0.308761
0.009038 0.046065 0.424895
0.010389 0.047416 0.543206
0.011760 0.048787 0.663267
0.013147 0.050174 0.784794
0.014192 0.051219 0.876297
0.016169 0.157509 0.016169
0.017112 0.158452 0.098730
0.018353 0.159693 0.207469
0.019646 0.160986 0.320694
0.020971 0.162312 0.436828
0.022322 0.163663 0.555139
0.023693 0.165033 0.675200
0.025080 0.166421 0.796727
0.026125 0.167465 0.888230
0.028784 0.280403 0.028784
0.029727 0.281346 0.111346
0.030968 0.282587 0.220085
0.032261 0.283880 0.333310
0.033587 0.285206 0.449443
0.034938 0.286557 0.567755
0.036308 0.287927 0.687815
0.037696 0.289315 0.809342
0.038740 0.290359 0.900846
0.041788 0.407072 0.041788
0.042730 0.408015 0.124349
0.043972 0.409256 0.233088
0.045264 0.410549 0.346313
0.046590 0.411875 0.462446
0.047941 0.413226 0.580758
0.049311 0.414596 0.700819
0.050699 0.415984 0.822345
0.051744 0.417028 0.913849
0.055067 0.536434 0.055067
0.056010 0.537377 0.137629
0.057251 0.538618 0.246367
0.058544 0.539911 0.359592
0.059869 0.541237 0.475726
0.061220 0.542587 0.594037
0.062591 0.543958 0.714098
0.063978 0.545345 0.835625
0.065023 0.546390 0.927128
0.068563 0.667904 0.068563
0.069505 0.668846 0.151124
0.070747 0.670088 0.259863
0.072039 0.671380 0.373088
0.073365 0.672706 0.489222
0.074716 0.674057 0.607533
0.076087 0.675428 0.727594
0.077474 0.676815 0.849121
0.078519 0.677860 0.940624
0.082237 0.801111 0.082237
0.083180 0.802054 0.164799
0.084421 0.803295 0.273537
0.085714 0.804588 0.386762
0.087040 0.805913 0.502896
0.088390 0.807264 0.621207
0.089761 0.808635 0.741268
0.091148 0.810022 0.862795
0.092193 0.811067 0.954298
0.096063 0.935800 0.096063
0.097006 0.936743 0.178625
0.098247 0.937984 0.287364
0.099540 0.939277 0.400589
0.100866 0.940602 0.516722
0.102217 0.941953 0.635034
0.103587 0.943324 0.755094
0.104975 0.944711 0.876621
0.106019 0.945756 0.968125
0.097841 0.003218 0.003218
0.098784 0.004160 0.085779
0.100025 0.005402 0.194518
0.101318 0.006694 0.307743
0.102644 0.008020 0.423877
0.103994 0.009371 0.542188
0.105365 0.010742 0.662249
0.106752 0.012129 0.783775
0.107797 0.013174 0.875279
0.102077 0.044481 0.007454
0.103019 0.045423 0.090015
0.104261 0.046665 0.198754
0.105554 0.047957 0.311979
0.106879 0.049283 0.428112
0.108230 0.050634 0.546424
0.109601 0.052005 0.666485
0.110988 0.053392 0.788011
0.112033 0.054437 0.879515
0.114010 0.160727 0.019387
0.114953 0.161670 0.101948
0.116194 0.162911 0.210687
0.117487 0.164204 0.323912
0.118813 0.165530 0.440046
0.120163 0.166880 0.558357
0.121534 0.168251 0.678418
0.122921 0.169638 0.799944
0.123966 0.170683 0.891448
0.126626 0.283621 0.032002
0.127568 0.284564 0.114564
0.128810 0.285805 0.223302
0.130102 0.287098 0.336527
0.131428 0.288424 0.452661
0.132779 0.289774 0.570973
0.134149 0.291145 0.691033
0.135537 0.292532 0.812560
0.136582 0.293577 0.904063
0.139629 0.410290 0.045005
0.140571 0.411233 0.127567
0.141813 0.412474 0.236305
0.143105 0.413767 0.349530
0.144431 0.415093 0.465664
0.145782 0.416443 0.583976
0.147153 0.417814 0.704036
0.148540 0.419201 0.825563
0.149585 0.420246 0.917066
0.152908 0.539652 0.058285
0.153851 0.540594 0.140846
0.155092 0.541836 0.249585
0.156385 0.543129 0.362810
0.157711 0.544454 0.478944
0.159061 0.545805 0.597255
0.160432 0.547176 0.717316
0.161819 0.548563 0.838842
0.162864 0.549608 0.930346
0.166404 0.671121 0.071781
0.167346 0.672064 0.154342
0.168588 0.673305 0.263081
0.169881 0.674598 0.376306
0.171206 0.675924 0.492439
0.172557 0.677275 0.610751
0.173928 0.678645 0.730812
0.175315 0.680033 0.852338
0.176360 0.681077 0.943842
0.180078 0.804329 0.085455
0.181021 0.805271 0.168016
0.182262 0.806513 0.276755
0.183555 0.807805 0.389980
0.184881 0.809131 0.506114
0.186231 0.810482 0.624425
0.187602 0.811853 0.744486
0.188989 0.813240 0.866013
0.190034 0.814285 0.957516
0.193904 0.939018 0.099281
0.194847 0.939960 0.181843
0.196088 0.941202 0.290581
0.197381 0.942494 0.403806
0.198707 0.943820 0.519940
0.200058 0.945171 0.638251
0.201428 0.946542 0.758312
0.202816 0.947929 0.879839
0.203860 0.948974 0.971342
0.209722 0.006897 0.006897
0.210664 0.007840 0.089459
0.211906 0.009081 0.198197
0.213198 0.010374 0.311422
0.214524 0.011700 0.427556
0.215875 0.013050 0.545867
0.217245 0.014421 0.665928
0.218633 0.015809 0.787455
0.219678 0.016853 0.878958
0.213957 0.048160 0.011133
0.214900 0.049103 0.093695
0.216141 0.050344 0.202433
0.217434 0.051637 0.315658
0.218760 0.052963 0.431792
0.220111 0.054313 0.550103
0.221481 0.055684 0.670164
0.222869 0.057071 0.791691
0.223913 0.058116 0.883194
0.225890 0.164407 0.023066
0.226833 0.165349 0.105628
0.228074 0.166591 0.214366
0.229367 0.167883 0.327591
0.230693 0.169209 0.443725
0.232044 0.170560 0.562036
0.233414 0.171931 0.682097
0.234802 0.173318 0.803624
0.235846 0.174363 0.895127
0.238506 0.287300 0.035682
0.239449 0.288243 0.118243
0.240690 0.289484 0.226982
0.241983 0.290777 0.340207
0.243308 0.292103 0.456341
0.244659 0.293454 0.574652
0.246030 0.294824 0.694713
0.247417 0.296212 0.816239
0.248462 0.297256 0.907743
0.251509 0.413969 0.048685
0.252452 0.414912 0.131246
0.253693 0.416153 0.239985
0.254986 0.417446 0.353210
0.256312 0.418772 0.469344
0.257662 0.420123 0.587655
0.259033 0.421493 0.707716
0.260420 0.422881 0.829242
0.261465 0.423925 0.920746
0.264789 0.543331 0.061964
0.265731 0.544274 0.144526
0.266973 0.545515 0.253264
0.268265 0.546808 0.366489
0.269591 0.548134 0.482623
0.270942 0.549485 0.600934
0.272312 0.550855 0.720995
0.273700 0.552243 0.842522
0.274745 0.553287 0.934025
0.278284 0.674801 0.075460
0.279227 0.675743 0.158022
0.280468 0.676985 0.266760
0.281761 0.678277 0.379985
0.283087 0.679603 0.496119
0.284438 0.680954 0.614430
0.285808 0.682325 0.734491
0.287196 0.683712 0.856018
0.288240 0.684757 0.947521
0.291959 0.808008 0.089134
0.292901 0.808951 0.171696
0.294143 0.810192 0.280434
0.295435 0.811485 0.393659
0.296761 0.812811 0.509793
0.298112 0.814161 0.628105
0.299483 0.815532 0.748165
0.300870 0.816919 0.869692
0.301915 0.817964 0.961195
0.305785 0.942697 0.102961
0.306728 0.943640 0.185522
0.307969 0.944881 0.294261
0.309262 0.946174 0.407486
0.310587 0.947500 0.523619
0.311938 0.948850 0.641931
0.313309 0.950221 0.761992
0.314696 0.951608 0.883518
0.315741 0.952653 0.975022
0.325889 0.010718 0.010718
0.326832 0.011660 0.093279
0.328073 0.012902 0.202018
0.329366 0.014194 0.315243
0.330692 0.015520 0.431376
0.332042 0.016871 0.549688
0.333413 0.018242 0.669749
0.334801 0.019629 0.791275
0.335845 0.020674 0.882779
0.330125 0.051981 0.014953
0.331068 0.052923 0.097515
0.332309 0.054165 0.206254
0.333602 0.055457 0.319479
0.334927 0.056783 0.435612
0.336278 0.058134 0.553924
0.337649 0.059505 0.673984
0.339036 0.060892 0.795511
0.340081 0.061937 0.887015
0.342058 0.168227 0.026887
0.343001 0.169170 0.109448
0.344242 0.170411 0.218187
0.345535 0.171704 0.331412
0.346861 0.173030 0.447545
0.348211 0.174380 0.565857
0.349582 0.175751 0.685918
0.350969 0.177138 0.807444
0.352014 0.178183 0.898948
0.354674 0.291121 0.039502
0.355616 0.292063 0.122064
0.356858 0.293305 0.230802
0.358150 0.294598 0.344027
0.359476 0.295923 0.460161
0.360827 0.297274 0.578472
0.362198 0.298645 0.698533
0.363585 0.300032 0.820060
0.364630 0.301077 0.911563
0.367677 0.417790 0.052505
0.368619 0.418732 0.135067
0.369861 0.419974 0.243805
0.371153 0.421267 0.357030
0.372479 0.422592 0.473164
0.373830 0.423943 0.591475
0.375201 0.425314 0.711536
0.376588 0.426701 0.833063
0.377633 0.427746 0.924566
0.380956 0.547152 0.065785
0.381899 0.548094 0.148346
0.383140 0.549336 0.257085
0.384433 0.550628 0.370310
0.385759 0.551954 0.486443
0.387109 0.553305 0.604755
0.388480 0.554676 0.724816
0.389868 0.556063 0.846342
0.390912 0.557108 0.937846
0.394452 0.678621 0.079280
0.395395 0.679564 0.161842
0.396636 0.680805 0.270581
0.397929 0.682098 0.383806
0.399255 0.683424 0.499939
0.400605 0.684774 0.618251
0.401976 0.686145 0.738311
0.403363 0.687533 0.859838
0.404408 0.688577 0.951342
0.408126 0.811829 0.092955
0.409069 0.812771 0.175516
0.410310 0.814013 0.284255
0.411603 0.815305 0.397480
0.412929 0.816631 0.513614
0.414279 0.817982 0.631925
0.415650 0.819352 0.751986
0.417038 0.820740 0.873512
0.418082 0.821785 0.965016
0.421953 0.946518 0.106781
0.422895 0.947460 0.189343
0.424137 0.948702 0.298081
0.425429 0.949994 0.411306
0.426755 0.951320 0.527440
0.428106 0.952671 0.645751
0.429476 0.954041 0.765812
0.430864 0.955429 0.887339
0.431909 0.956474 0.978842
0.444909 0.014632 0.014632
0.445852 0.015574 0.097193
0.447093 0.016816 0.205932
0.448386 0.018109 0.319157
0.449712 0.019434 0.435291
0.451063 0.020785 0.553602
0.452433 0.022156 0.673663
0.453821 0.023543 0.795190
0.454865 0.024588 0.886693
0.449145 0.055895 0.018868
0.450088 0.056837 0.101429
0.451329 0.058079 0.210168
0.452622 0.059371 0.323393
0.453948 0.060697 0.439527
0.455298 0.062048 0.557838
0.456669 0.063419 0.677899
0.458057 0.064806 0.799425
0.459101 0.065851 0.890929
0.461078 0.172141 0.030801
0.462021 0.173084 0.113362
0.463262 0.174325 0.222101
0.464555 0.175618 0.335326
0.465881 0.176944 0.451460
0.467232 0.178295 0.569771
0.468602 0.179665 0.689832
0.469990 0.181053 0.811359
0.471034 0.182097 0.902862
0.473694 0.295035 0.043416
0.474636 0.295978 0.125978
0.475878 0.297219 0.234717
0.477171 0.298512 0.347941
0.478496 0.299838 0.464075
0.479847 0.301188 0.582387
0.481218 0.302559 0.702447
0.482605 0.303947 0.823974
0.483650 0.304991 0.915478
0.486697 0.421704 0.056419
0.487640 0.422647 0.138981
0.488881 0.423888 0.247720
0.490174 0.425181 0.360945
0.491499 0.426507 0.477078
0.492850 0.427857 0.595390
0.494221 0.429228 0.715450
0.495608 0.430615 0.836977
0.496653 0.431660 0.928481
0.499976 0.551066 0.069699
0.500919 0.552009 0.152260
0.502160 0.553250 0.260999
0.503453 0.554543 0.374224
0.504779 0.555869 0.490358
0.506130 0.557219 0.608669
0.507500 0.558590 0.728730
0.508888 0.559977 0.850257
0.509932 0.561022 0.941760
0.513472 0.682536 0.083195
0.514415 0.683478 0.165756
0.515656 0.684720 0.274495
0.516949 0.686012 0.387720
0.518275 0.687338 0.503854
0.519626 0.688689 0.622165
0.520996 0.690059 0.742226
0.522384 0.691447 0.863752
0.523428 0.692492 0.955256
0.527147 0.815743 0.096869
0.528089 0.816685 0.179430
0.529331 0.817927 0.288169
0.530623 0.819219 0.401394
0.531949 0.820545 0.517528
0.533300 0.821896 0.635839
0.534670 0.823267 0.755900
0.536058 0.824654 0.877427
0.537103 0.825699 0.968930
0.540973 0.950432 0.110695
0.541915 0.951374 0.193257
0.543157 0.952616 0.301995
0.544449 0.953908 0.415220
0.545775 0.955234 0.531354
0.547126 0.956585 0.649666
0.548497 0.957956 0.769726
0.549884 0.959343 0.891253
0.550929 0.960388 0.982757
0.566089 0.018617 0.018617
0.567032 0.019560 0.101179
0.568273 0.020801 0.209917
0.569566 0.022094 0.323142
0.570892 0.023420 0.439276
0.572243 0.024770 0.557587
0.573613 0.026141 0.677648
0.575001 0.027528 0.799175
0.576045 0.028573 0.890678
0.570325 0.059880 0.022853
0.571268 0.060823 0.105414
0.572509 0.062064 0.214153
0.573802 0.063357 0.327378
0.575128 0.064683 0.443512
0.576478 0.066033 0.561823
0.577849 0.067404 0.681884
0.579237 0.068791 0.803411
0.580281 0.069836 0.894914
0.582258 0.176127 0.034786
0.583201 0.177069 0.117348
0.584442 0.178311 0.226086
0.585735 0.179603 0.339311
0.587061 0.180929 0.455445
0.588412 0.182280 0.573756
0.589782 0.183650 0.693817
0.591170 0.185038 0.815344
0.592214 0.186083 0.906847
0.594874 0.299020 0.047402
0.595816 0.299963 0.129963
0.597058 0.301204 0.238702
0.598351 0.302497 0.351927
0.599676 0.303823 0.468060
0.601027 0.305174 0.586372
0.602398 0.306544 0.706433
0.603785 0.307932 0.827959
0.604830 0.308976 0.919463
0.607877 0.425689 0.060405
0.608820 0.426632 0.142966
0.610061 0.427873 0.251705
0.611354 0.429166 0.364930
0.612679 0.430492 0.481064
0.614030 0.431843 0.599375
0.615401 0.433213 0.719436
0.616788 0.434601 0.840962
0.617833 0.435645 0.932466
0.621156 0.555051 0.073684
0.622099 0.555994 0.156246
0.623340 0.557235 0.264984
0.624633 0.558528 0.378209
0.625959 0.559854 0.494343
0.627310 0.561205 0.612654
0.628680 0.562575 0.732715
0.630068 0.563963 0.854242
0.631112 0.565007 0.945745
0.634652 0.686521 0.087180
0.635595 0.687463 0.169742
0.636836 0.688705 0.278480
0.638129 0.689997 0.391705
0.639455 0.691323 0.507839
0.640806 0.692674 0.626150
0.642176 0.694045 0.746211
0.643564 0.695432 0.867738
0.644608 0.696477 0.959241
0.648327 0.819728 0.100854
0.649269 0.820671 0.183416
0.650511 0.821912 0.292154
0.651803 0.823205 0.405379
0.653129 0.824531 0.521513
0.654480 0.825881 0.639825
0.655850 0.827252 0.759885
0.657238 0.828639 0.881412
0.658283 0.829684 0.972915
0.662153 0.954417 0.114681
0.663095 0.955360 0.197242
0.664337 0.956601 0.305981
0.665629 0.957894 0.419206
0.666955 0.959220 0.535339
0.668306 0.960570 0.653651
0.669677 0.961941 0.773712
0.671064 0.963328 0.895238
0.672109 0.964373 0.986742
0.689015 0.022660 0.022660
0.689958 0.023602 0.105221
0.691199 0.024844 0.213960
0.692492 0.026136 0.327185
0.693818 0.027462 0.443319
0.695169 0.028813 0.561630
0.696539 0.030184 0.681691
0.697927 0.031571 0.803218
0.698971 0.032616 0.894721
0.693251 0.063923 0.026896
0.694194 0.064865 0.109457
0.695435 0.066107 0.218196
0.696728 0.067399 0.331421
0.698054 0.068725 0.447555
0.699404 0.070076 0.565866
0.700775 0.071447 0.685927
0.702163 0.072834 0.807453
0.703207 0.073879 0.898957
0.705184 0.180169 0.038829
0.706127 0.181112 0.121390
0.707368 0.182353 0.230129
0.708661 0.183646 0.343354
0.709987 0.184972 0.459488
0.711338 0.186322 0.577799
0.712708 0.187693 0.697860
0.714096 0.189081 0.819387
0.715140 0.190125 0.910890
0.717800 0.303063 0.051444
0.718742 0.304006 0.134006
0.719984 0.305247 0.242745
0.721276 0.306540 0.355969
0.722602 0.307866 0.472103
0.723953 0.309216 0.590415
0.725324 0.310587 0.710475
0.726711 0.311974 0.832002
0.727756 0.313019 0.923506
0.730803 0.429732 0.064447
0.731745 0.430675 0.147009
0.732987 0.431916 0.255748
0.734280 0.433209 0.368973
0.735605 0.434535 0.485106
0.736956 0.435885 0.603418
0.738327 0.437256 0.723478
0.739714 0.438643 0.845005
0.740759 0.439688 0.936509
0.744082 0.559094 0.077727
0.745025 0.560037 0.160288
0.746266 0.561278 0.269027
0.747559 0.562571 0.382252
0.748885 0.563896 0.498386
0.750236 0.565247 0.616697
0.751606 0.566618 0.736758
0.752994 0.568005 0.858285
0.754038 0.569050 0.949788
0.757578 0.690564 0.091223
0.758521 0.691506 0.173784
0.759762 0.692748 0.282523
0.761055 0.694040 0.395748
0.762381 0.695366 0.511882
0.763731 0.696717 0.630193
0.765102 0.698087 0.750254
0.766490 0.699475 0.871780
0.767534 0.700520 0.963284
0.771252 0.823771 0.104897
0.772195 0.824713 0.187458
0.773436 0.825955 0.296197
0.774729 0.827247 0.409422
0.776055 0.828573 0.525556
0.777406 0.829924 0.643867
0.778776 0.831295 0.763928
0.780164 0.832682 0.885455
0.781208 0.833727 0.976958
0.785079 0.958460 0.118723
0.786021 0.959402 0.201285
0.787263 0.960644 0.310023
0.788555 0.961936 0.423248
0.789881 0.963262 0.539382
0.791232 0.964613 0.657694
0.792603 0.965984 0.777754
0.793990 0.967371 0.899281
0.795035 0.968416 0.990784
0.813411 0.026751 0.026751
0.814353 0.027693 0.109312
0.815595 0.028935 0.218051
0.816887 0.030227 0.331276
0.818213 0.031553 0.447410
0.819564 0.032904 0.565721
0.820934 0.034275 0.685782
0.822322 0.035662 0.807309
0.823367 0.036707 0.898812
0.817646 0.068014 0.030987
0.818589 0.068956 0.113548
0.819830 0.070198 0.222287
0.821123 0.071490 0.335512
0.822449 0.072816 0.451646
0.823800 0.074167 0.569957
0.825170 0.075538 0.690018
0.826558 0.076925 0.811544
0.827602 0.077970 0.903048
0.829579 0.184260 0.042920
0.830522 0.185203 0.125481
0.831763 0.186444 0.234220
0.833056 0.187737 0.347445
0.834382 0.189063 0.463579
0.835733 0.190414 0.581890
0.837103 0.191784 0.701951
0.838491 0.193172 0.823478
0.839535 0.194216 0.914981
0.842195 0.307154 0.055535
0.843138 0.308097 0.138097
0.844379 0.309338 0.246836
0.845672 0.310631 0.360060
0.846998 0.311957 0.476194
0.848348 0.313307 0.594506
0.849719 0.314678 0.714566
0.851106 0.316066 0.836093
0.852151 0.317110 0.927597
0.855198 0.433823 0.068538
0.856141 0.434766 0.151100
0.857382 0.436007 0.259839
0.858675 0.437300 0.373064
0.860001 0.438626 0.489197
0.861351 0.439976 0.607509
0.862722 0.441347 0.727569
0.864109 0.442734 0.849096
0.865154 0.443779 0.940600
0.868478 0.563185 0.081818
0.869420 0.564128 0.164379
0.870662 0.565369 0.273118
0.871954 0.566662 0.386343
0.873280 0.567988 0.502477
0.874631 0.569338 0.620788
0.876001 0.570709 0.740849
0.877389 0.572096 0.862376
0.878434 0.573141 0.953879
0.881973 0.694655 0.095314
0.882916 0.695597 0.177875
0.884157 0.696839 0.286614
0.885450 0.698131 0.399839
0.886776 0.699457 0.515973
0.888127 0.700808 0.634284
0.889497 0.702178 0.754345
0.890885 0.703566 0.875871
0.891929 0.704611 0.967375
0.895648 0.827862 0.108988
0.896590 0.828804 0.191549
0.897832 0.830046 0.300288
0.899124 0.831338 0.413513
0.900450 0.832664 0.529647
0.901801 0.834015 0.647958
0.903172 0.835386 0.768019
0.904559 0.836773 0.889546
0.905604 0.837818 0.981049
0.909474 0.962551 0.122814
0.910417 0.963493 0.205376
0.911658 0.964735 0.314114
0.912951 0.966027 0.427339
0.914276 0.967353 0.543473
0.915627 0.968704 0.661785
0.916998 0.970075 0.781845
0.918385 0.971462 0.903372
0.919430 0.972507 0.994876
