skills/promo-director/assets/grade/luts/night_blue_v12.cube
TITLE "night_blue_v12"
LUT_3D_SIZE 17
DOMAIN_MIN 0.0 0.0 0.0
DOMAIN_MAX 1.0 1.0 1.0
0.000000 0.000000 0.000000
0.000357 0.000357 0.031278
0.000943 0.000943 0.082562
0.001555 0.001555 0.136198
0.002184 0.002184 0.191300
0.002825 0.002825 0.247483
0.003477 0.003477 0.304525
0.004136 0.004136 0.362284
0.004803 0.004803 0.420659
0.005475 0.005475 0.479574
0.006153 0.006153 0.538970
0.006836 0.006836 0.598802
0.007524 0.007524 0.659031
0.008216 0.008216 0.719625
0.008911 0.008911 0.780558
0.009611 0.009611 0.841806
0.009956 0.009956 0.872061
0.000000 0.000000 0.000000
0.000357 0.000357 0.031278
0.000943 0.000943 0.082562
0.001555 0.001555 0.136198
0.002184 0.002184 0.191300
0.002825 0.002825 0.247483
0.003477 0.003477 0.304525
0.004136 0.004136 0.362284
0.004803 0.004803 0.420659
0.005475 0.005475 0.479574
0.006153 0.006153 0.538970
0.006836 0.006836 0.598802
0.007524 0.007524 0.659031
0.008216 0.008216 0.719625
0.008911 0.008911 0.780558
0.009611 0.009611 0.841806
0.009956 0.009956 0.872061
0.004236 0.041263 0.004236
0.004593 0.041620 0.035514
0.005178 0.042206 0.086797
0.005791 0.042818 0.140434
0.006420 0.043447 0.195536
0.007061 0.044088 0.251719
0.007712 0.044740 0.308761
0.008372 0.045399 0.366520
0.009038 0.046065 0.424895
0.009711 0.046738 0.483809
0.010389 0.047416 0.543206
0.011072 0.048099 0.603038
0.011760 0.048787 0.663267
0.012451 0.049479 0.723861
0.013147 0.050174 0.784794
0.013846 0.050874 0.846041
0.014192 0.051219 0.876297
0.010079 0.098184 0.010079
0.010436 0.098541 0.041357
0.011022 0.099127 0.092641
0.011634 0.099739 0.146277
0.012263 0.100368 0.201379
0.012904 0.101010 0.257562
0.013556 0.101661 0.314604
0.014215 0.102320 0.372363
0.014881 0.102987 0.430738
0.015554 0.103659 0.489653
0.016232 0.104338 0.549049
0.016915 0.105021 0.608881
0.017603 0.105708 0.669110
0.018295 0.106400 0.729704
0.018990 0.107096 0.790637
0.019690 0.107795 0.851885
0.020035 0.108140 0.882140
0.016169 0.157509 0.016169
0.016526 0.157867 0.047447
0.017112 0.158452 0.098730
0.017724 0.159064 0.152367
0.018353 0.159693 0.207469
0.018994 0.160335 0.263652
0.019646 0.160986 0.320694
0.020305 0.161645 0.378453
0.020971 0.162312 0.436828
0.021644 0.162985 0.495743
0.022322 0.163663 0.555139
0.023005 0.164346 0.614971
0.023693 0.165033 0.675200
0.024385 0.165725 0.735794
0.025080 0.166421 0.796727
0.025780 0.167120 0.857975
0.026125 0.167465 0.888230
0.022418 0.218380 0.022418
0.022775 0.218737 0.053696
0.023360 0.219322 0.104979
0.023972 0.219935 0.158615
0.024602 0.220564 0.213718
0.025243 0.221205 0.269900
0.025894 0.221857 0.326943
0.026554 0.222516 0.384702
0.027220 0.223182 0.443076
0.027893 0.223855 0.501991
0.028571 0.224533 0.561388
0.029254 0.225216 0.621220
0.029941 0.225904 0.681449
0.030633 0.226596 0.742043
0.031329 0.227291 0.802975
0.032028 0.227990 0.864223
0.032374 0.228336 0.894479
0.028784 0.280403 0.028784
0.029142 0.280760 0.060062
0.029727 0.281346 0.111346
0.030339 0.281958 0.164982
0.030968 0.282587 0.220085
0.031610 0.283229 0.276267
0.032261 0.283880 0.333310
0.032921 0.284539 0.391069
0.033587 0.285206 0.449443
0.034260 0.285878 0.508358
0.034938 0.286557 0.567755
0.035621 0.287240 0.627587
0.036308 0.287927 0.687815
0.037000 0.288619 0.748410
0.037696 0.289315 0.809342
0.038395 0.290014 0.870590
0.038740 0.290359 0.900846
0.035246 0.343351 0.035246
0.035603 0.343708 0.066524
0.036189 0.344294 0.117808
0.036801 0.344906 0.171444
0.037430 0.345535 0.226546
0.038072 0.346176 0.282729
0.038723 0.346828 0.339771
0.039382 0.347487 0.397531
0.040049 0.348154 0.455905
0.040721 0.348826 0.514820
0.041400 0.349504 0.574217
0.042083 0.350187 0.634048
0.042770 0.350875 0.694277
0.043462 0.351567 0.754871
0.044158 0.352262 0.815804
0.044857 0.352962 0.877052
0.045202 0.353307 0.907308
0.041788 0.407072 0.041788
0.042145 0.407429 0.073066
0.042730 0.408015 0.124349
0.043342 0.408627 0.177985
0.043972 0.409256 0.233088
0.044613 0.409898 0.289270
0.045264 0.410549 0.346313
0.045924 0.411208 0.404072
0.046590 0.411875 0.462446
0.047263 0.412547 0.521361
0.047941 0.413226 0.580758
0.048624 0.413909 0.640590
0.049311 0.414596 0.700819
0.050003 0.415288 0.761413
0.050699 0.415984 0.822345
0.051398 0.416683 0.883593
0.051744 0.417028 0.913849
0.048397 0.471460 0.048397
0.048754 0.471817 0.079675
0.049340 0.472403 0.130959
0.049952 0.473015 0.184595
0.050581 0.473644 0.239697
0.051223 0.474286 0.295880
0.051874 0.474937 0.352922
0.052533 0.475596 0.410681
0.053200 0.476263 0.469056
0.053872 0.476935 0.527971
0.054550 0.477613 0.587367
0.055233 0.478296 0.647199
0.055921 0.478984 0.707428
0.056613 0.479676 0.768022
0.057308 0.480371 0.828955
0.058008 0.481071 0.890203
0.058353 0.481416 0.920458
0.055067 0.536434 0.055067
0.055424 0.536791 0.086345
0.056010 0.537377 0.137629
0.056622 0.537989 0.191265
0.057251 0.538618 0.246367
0.057892 0.539260 0.302550
0.058544 0.539911 0.359592
0.059203 0.540570 0.417351
0.059869 0.541237 0.475726
0.060542 0.541909 0.534641
0.061220 0.542587 0.594037
0.061903 0.543270 0.653869
0.062591 0.543958 0.714098
0.063283 0.544650 0.774692
0.063978 0.545345 0.835625
0.064678 0.546045 0.896873
0.065023 0.546390 0.927128
0.061791 0.601932 0.061791
0.062148 0.602289 0.093069
0.062733 0.602875 0.144352
0.063346 0.603487 0.197988
0.063975 0.604116 0.253091
0.064616 0.604757 0.309273
0.065267 0.605409 0.366316
0.065927 0.606068 0.424075
0.066593 0.606735 0.482449
0.067266 0.607407 0.541364
0.067944 0.608085 0.600761
0.068627 0.608768 0.660593
0.069315 0.609456 0.720822
0.070006 0.610148 0.781416
0.070702 0.610843 0.842348
0.071401 0.611543 0.903596
0.071747 0.611888 0.933852
0.068563 0.667904 0.068563
0.068920 0.668261 0.099841
0.069505 0.668846 0.151124
0.070118 0.669459 0.204761
0.070747 0.670088 0.259863
0.071388 0.670729 0.316046
0.072039 0.671380 0.373088
0.072699 0.672040 0.430847
0.073365 0.672706 0.489222
0.074038 0.673379 0.548137
0.074716 0.674057 0.607533
0.075399 0.674740 0.667365
0.076087 0.675428 0.727594
0.076779 0.676119 0.788188
0.077474 0.676815 0.849121
0.078173 0.677514 0.910368
0.078519 0.677860 0.940624
0.075379 0.734308 0.075379
0.075737 0.734665 0.106658
0.076322 0.735251 0.157941
0.076934 0.735863 0.211577
0.077564 0.736492 0.266680
0.078205 0.737133 0.322862
0.078856 0.737785 0.379905
0.079516 0.738444 0.437664
0.080182 0.739111 0.496038
0.080855 0.739783 0.554953
0.081533 0.740461 0.614350
0.082216 0.741144 0.674182
0.082903 0.741832 0.734411
0.083595 0.742524 0.795005
0.084291 0.743219 0.855937
0.084990 0.743919 0.917185
0.085335 0.744264 0.947441
0.082237 0.801111 0.082237
0.082594 0.801468 0.113515
0.083180 0.802054 0.164799
0.083792 0.802666 0.218435
0.084421 0.803295 0.273537
0.085062 0.803936 0.329720
0.085714 0.804588 0.386762
0.086373 0.805247 0.444521
0.087040 0.805913 0.502896
0.087712 0.806586 0.561811
0.088390 0.807264 0.621207
0.089073 0.807947 0.681039
0.089761 0.808635 0.741268
0.090453 0.809327 0.801862
0.091148 0.810022 0.862795
0.091848 0.810722 0.924043
0.092193 0.811067 0.954298
0.089133 0.868283 0.089133
0.089490 0.868640 0.120411
0.090075 0.869226 0.171694
0.090687 0.869838 0.225330
0.091317 0.870467 0.280433
0.091958 0.871109 0.336615
0.092609 0.871760 0.393658
0.093269 0.872419 0.451417
0.093935 0.873086 0.509791
0.094608 0.873758 0.568706
0.095286 0.874436 0.628103
0.095969 0.875120 0.687935
0.096656 0.875807 0.748164
0.097348 0.876499 0.808758
0.098044 0.877195 0.869690
0.098743 0.877894 0.930938
0.099089 0.878239 0.961194
0.096063 0.935800 0.096063
0.096420 0.936157 0.127341
0.097006 0.936743 0.178625
0.097618 0.937355 0.232261
0.098247 0.937984 0.287364
0.098889 0.938625 0.343546
0.099540 0.939277 0.400589
0.100199 0.939936 0.458348
0.100866 0.940602 0.516722
0.101539 0.941275 0.575637
0.102217 0.941953 0.635034
0.102900 0.942636 0.694866
0.103587 0.943324 0.755094
0.104279 0.944016 0.815689
0.104975 0.944711 0.876621
0.105674 0.945411 0.937869
0.106019 0.945756 0.968125
0.000000 0.000000 0.000000
0.000357 0.000357 0.031278
0.000943 0.000943 0.082562
0.001555 0.001555 0.136198
0.002184 0.002184 0.191300
0.002825 0.002825 0.247483
0.003477 0.003477 0.304525
0.004136 0.004136 0.362284
0.004803 0.004803 0.420659
0.005475 0.005475 0.479574
0.006153 0.006153 0.538970
0.006836 0.006836 0.598802
0.007524 0.007524 0.659031
0.008216 0.008216 0.719625
0.008911 0.008911 0.780558
0.009611 0.009611 0.841806
0.009956 0.009956 0.872061
0.000000 0.000000 0.000000
0.000357 0.000357 0.031278
0.000943 0.000943 0.082562
0.001555 0.001555 0.136198
0.002184 0.002184 0.191300
0.002825 0.002825 0.247483
0.003477 0.003477 0.304525
0.004136 0.004136 0.362284
0.004803 0.004803 0.420659
0.005475 0.005475 0.479574
0.006153 0.006153 0.538970
0.006836 0.006836 0.598802
0.007524 0.007524 0.659031
0.008216 0.008216 0.719625
0.008911 0.008911 0.780558
0.009611 0.009611 0.841806
0.009956 0.009956 0.872061
0.004236 0.041263 0.004236
0.004593 0.041620 0.035514
0.005178 0.042206 0.086797
0.005791 0.042818 0.140434
0.006420 0.043447 0.195536
0.007061 0.044088 0.251719
0.007712 0.044740 0.308761
0.008372 0.045399 0.366520
0.009038 0.046065 0.424895
0.009711 0.046738 0.483809
0.010389 0.047416 0.543206
0.011072 0.048099 0.603038
0.011760 0.048787 0.663267
0.012451 0.049479 0.723861
0.013147 0.050174 0.784794
0.013846 0.050874 0.846041
0.014192 0.051219 0.876297
0.010079 0.098184 0.010079
0.010436 0.098541 0.041357
0.011022 0.099127 0.092641
0.011634 0.099739 0.146277
0.012263 0.100368 0.201379
0.012904 0.101010 0.257562
0.013556 0.101661 0.314604
0.014215 0.102320 0.372363
0.014881 0.102987 0.430738
0.015554 0.103659 0.489653
0.016232 0.104338 0.549049
0.016915 0.105021 0.608881
0.017603 0.105708 0.669110
0.018295 0.106400 0.729704
0.018990 0.107096 0.790637
0.019690 0.107795 0.851885
0.020035 0.108140 0.882140
0.016169 0.157509 0.016169
0.016526 0.157867 0.047447
0.017112 0.158452 0.098730
0.017724 0.159064 0.152367
0.018353 0.159693 0.207469
0.018994 0.160335 0.263652
0.019646 0.160986 0.320694
0.020305 0.161645 0.378453
0.020971 0.162312 0.436828
0.021644 0.162985 0.495743
0.022322 0.163663 0.555139
0.023005 0.164346 0.614971
0.023693 0.165033 0.675200
0.024385 0.165725 0.735794
0.025080 0.166421 0.796727
0.025780 0.167120 0.857975
0.026125 0.167465 0.888230
0.022418 0.218380 0.022418
0.022775 0.218737 0.053696
0.023360 0.219322 0.104979
0.023972 0.219935 0.158615
0.024602 0.220564 0.213718
0.025243 0.221205 0.269900
0.025894 0.221857 0.326943
0.026554 0.222516 0.384702
0.027220 0.223182 0.443076
0.027893 0.223855 0.501991
0.028571 0.224533 0.561388
0.029254 0.225216 0.621220
0.029941 0.225904 0.681449
0.030633 0.226596 0.742043
0.031329 0.227291 0.802975
0.032028 0.227990 0.864223
0.032374 0.228336 0.894479
0.028784 0.280403 0.028784
0.029142 0.280760 0.060062
0.029727 0.281346 0.111346
0.030339 0.281958 0.164982
0.030968 0.282587 0.220085
0.031610 0.283229 0.276267
0.032261 0.283880 0.333310
0.032921 0.284539 0.391069
0.033587 0.285206 0.449443
0.034260 0.285878 0.508358
0.034938 0.286557 0.567755
0.035621 0.287240 0.627587
0.036308 0.287927 0.687815
0.037000 0.288619 0.748410
0.037696 0.289315 0.809342
0.038395 0.290014 0.870590
0.038740 0.290359 0.900846
0.035246 0.343351 0.035246
0.035603 0.343708 0.066524
0.036189 0.344294 0.117808
0.036801 0.344906 0.171444
0.037430 0.345535 0.226546
0.038072 0.346176 0.282729
0.038723 0.346828 0.339771
0.039382 0.347487 0.397531
0.040049 0.348154 0.455905
0.040721 0.348826 0.514820
0.041400 0.349504 0.574217
0.042083 0.350187 0.634048
0.042770 0.350875 0.694277
0.043462 0.351567 0.754871
0.044158 0.352262 0.815804
0.044857 0.352962 0.877052
0.045202 0.353307 0.907308
0.041788 0.407072 0.041788
0.042145 0.407429 0.073066
0.042730 0.408015 0.124349
0.043342 0.408627 0.177985
0.043972 0.409256 0.233088
0.044613 0.409898 0.289270
0.045264 0.410549 0.346313
0.045924 0.411208 0.404072
0.046590 0.411875 0.462446
0.047263 0.412547 0.521361
0.047941 0.413226 0.580758
0.048624 0.413909 0.640590
0.049311 0.414596 0.700819
0.050003 0.415288 0.761413
0.050699 0.415984 0.822345
0.051398 0.416683 0.883593
0.051744 0.417028 0.913849
0.048397 0.471460 0.048397
0.048754 0.471817 0.079675
0.049340 0.472403 0.130959
0.049952 0.473015 0.184595
0.050581 0.473644 0.239697
0.051223 0.474286 0.295880
0.051874 0.474937 0.352922
0.052533 0.475596 0.410681
0.053200 0.476263 0.469056
0.053872 0.476935 0.527971
0.054550 0.477613 0.587367
0.055233 0.478296 0.647199
0.055921 0.478984 0.707428
0.056613 0.479676 0.768022
0.057308 0.480371 0.828955
0.058008 0.481071 0.890203
0.058353 0.481416 0.920458
0.055067 0.536434 0.055067
0.055424 0.536791 0.086345
0.056010 0.537377 0.137629
0.056622 0.537989 0.191265
0.057251 0.538618 0.246367
0.057892 0.539260 0.302550
0.058544 0.539911 0.359592
0.059203 0.540570 0.417351
0.059869 0.541237 0.475726
0.060542 0.541909 0.534641
0.061220 0.542587 0.594037
0.061903 0.543270 0.653869
0.062591 0.543958 0.714098
0.063283 0.544650 0.774692
0.063978 0.545345 0.835625
0.064678 0.546045 0.896873
0.065023 0.546390 0.927128
0.061791 0.601932 0.061791
0.062148 0.602289 0.093069
0.062733 0.602875 0.144352
0.063346 0.603487 0.197988
0.063975 0.604116 0.253091
0.064616 0.604757 0.309273
0.065267 0.605409 0.366316
0.065927 0.606068 0.424075
0.066593 0.606735 0.482449
0.067266 0.607407 0.541364
0.067944 0.608085 0.600761
0.068627 0.608768 0.660593
0.069315 0.609456 0.720822
0.070006 0.610148 0.781416
0.070702 0.610843 0.842348
0.071401 0.611543 0.903596
0.071747 0.611888 0.933852
0.068563 0.667904 0.068563
0.068920 0.668261 0.099841
0.069505 0.668846 0.151124
0.070118 0.669459 0.204761
0.070747 0.670088 0.259863
0.071388 0.670729 0.316046
0.072039 0.671380 0.373088
0.072699 0.672040 0.430847
0.073365 0.672706 0.489222
0.074038 0.673379 0.548137
0.074716 0.674057 0.607533
0.075399 0.674740 0.667365
0.076087 0.675428 0.727594
0.076779 0.676119 0.788188
0.077474 0.676815 0.849121
0.078173 0.677514 0.910368
0.078519 0.677860 0.940624
0.075379 0.734308 0.075379
0.075737 0.734665 0.106658
0.076322 0.735251 0.157941
0.076934 0.735863 0.211577
0.077564 0.736492 0.266680
0.078205 0.737133 0.322862
0.078856 0.737785 0.379905
0.079516 0.738444 0.437664
0.080182 0.739111 0.496038
0.080855 0.739783 0.554953
0.081533 0.740461 0.614350
0.082216 0.741144 0.674182
0.082903 0.741832 0.734411
0.083595 0.742524 0.795005
0.084291 0.743219 0.855937
0.084990 0.743919 0.917185
0.085335 0.744264 0.947441
0.082237 0.801111 0.082237
0.082594 0.801468 0.113515
0.083180 0.802054 0.164799
0.083792 0.802666 0.218435
0.084421 0.803295 0.273537
0.085062 0.803936 0.329720
0.085714 0.804588 0.386762
0.086373 0.805247 0.444521
0.087040 0.805913 0.502896
0.087712 0.806586 0.561811
0.088390 0.807264 0.621207
0.089073 0.807947 0.681039
0.089761 0.808635 0.741268
0.090453 0.809327 0.801862
0.091148 0.810022 0.862795
0.091848 0.810722 0.924043
0.092193 0.811067 0.954298
0.089133 0.868283 0.089133
0.089490 0.868640 0.120411
0.090075 0.869226 0.171694
0.090687 0.869838 0.225330
0.091317 0.870467 0.280433
0.091958 0.871109 0.336615
0.092609 0.871760 0.393658
0.093269 0.872419 0.451417
0.093935 0.873086 0.509791
0.094608 0.873758 0.568706
0.095286 0.874436 0.628103
0.095969 0.875120 0.687935
0.096656 0.875807 0.748164
0.097348 0.876499 0.808758
0.098044 0.877195 0.869690
0.098743 0.877894 0.930938
0.099089 0.878239 0.961194
0.096063 0.935800 0.096063
0.096420 0.936157 0.127341
0.097006 0.936743 0.178625
0.097618 0.937355 0.232261
0.098247 0.937984 0.287364
0.098889 0.938625 0.343546
0.099540 0.939277 0.400589
0.100199 0.939936 0.458348
0.100866 0.940602 0.516722
0.101539 0.941275 0.575637
0.102217 0.941953 0.635034
0.102900 0.942636 0.694866
0.103587 0.943324 0.755094
0.104279 0.944016 0.815689
0.104975 0.944711 0.876621
0.105674 0.945411 0.937869
0.106019 0.945756 0.968125
0.000000 0.000000 0.000000
0.000357 0.000357 0.031278
0.000943 0.000943 0.082562
0.001555 0.001555 0.136198
0.002184 0.002184 0.191300
0.002825 0.002825 0.247483
0.003477 0.003477 0.304525
0.004136 0.004136 0.362284
0.004803 0.004803 0.420659
0.005475 0.005475 0.479574
0.006153 0.006153 0.538970
0.006836 0.006836 0.598802
0.007524 0.007524 0.659031
0.008216 0.008216 0.719625
0.008911 0.008911 0.780558
0.009611 0.009611 0.841806
0.009956 0.009956 0.872061
0.000000 0.000000 0.000000
0.000357 0.000357 0.031278
0.000943 0.000943 0.082562
0.001555 0.001555 0.136198
0.002184 0.002184 0.191300
0.002825 0.002825 0.247483
0.003477 0.003477 0.304525
0.004136 0.004136 0.362284
0.004803 0.004803 0.420659
0.005475 0.005475 0.479574
0.006153 0.006153 0.538970
0.006836 0.006836 0.598802
0.007524 0.007524 0.659031
0.008216 0.008216 0.719625
0.008911 0.008911 0.780558
0.009611 0.009611 0.841806
0.009956 0.009956 0.872061
0.004236 0.041263 0.004236
0.004593 0.041620 0.035514
0.005178 0.042206 0.086797
0.005791 0.042818 0.140434
0.006420 0.043447 0.195536
0.007061 0.044088 0.251719
0.007712 0.044740 0.308761
0.008372 0.045399 0.366520
0.009038 0.046065 0.424895
0.009711 0.046738 0.483809
0.010389 0.047416 0.543206
0.011072 0.048099 0.603038
0.011760 0.048787 0.663267
0.012451 0.049479 0.723861
0.013147 0.050174 0.784794
0.013846 0.050874 0.846041
0.014192 0.051219 0.876297
0.010079 0.098184 0.010079
0.010436 0.098541 0.041357
0.011022 0.099127 0.092641
0.011634 0.099739 0.146277
0.012263 0.100368 0.201379
0.012904 0.101010 0.257562
0.013556 0.101661 0.314604
0.014215 0.102320 0.372363
0.014881 0.102987 0.430738
0.015554 0.103659 0.489653
0.016232 0.104338 0.549049
0.016915 0.105021 0.608881
0.017603 0.105708 0.669110
0.018295 0.106400 0.729704
0.018990 0.107096 0.790637
0.019690 0.107795 0.851885
0.020035 0.108140 0.882140
0.016169 0.157509 0.016169
0.016526 0.157867 0.047447
0.017112 0.158452 0.098730
0.017724 0.159064 0.152367
0.018353 0.159693 0.207469
0.018994 0.160335 0.263652
0.019646 0.160986 0.320694
0.020305 0.161645 0.378453
0.020971 0.162312 0.436828
0.021644 0.162985 0.495743
0.022322 0.163663 0.555139
0.023005 0.164346 0.614971
0.023693 0.165033 0.675200
0.024385 0.165725 0.735794
0.025080 0.166421 0.796727
0.025780 0.167120 0.857975
0.026125 0.167465 0.888230
0.022418 0.218380 0.022418
0.022775 0.218737 0.053696
0.023360 0.219322 0.104979
0.023972 0.219935 0.158615
0.024602 0.220564 0.213718
0.025243 0.221205 0.269900
0.025894 0.221857 0.326943
0.026554 0.222516 0.384702
0.027220 0.223182 0.443076
0.027893 0.223855 0.501991
0.028571 0.224533 0.561388
0.029254 0.225216 0.621220
0.029941 0.225904 0.681449
0.030633 0.226596 0.742043
0.031329 0.227291 0.802975
0.032028 0.227990 0.864223
0.032374 0.228336 0.894479
0.028784 0.280403 0.028784
0.029142 0.280760 0.060062
0.029727 0.281346 0.111346
0.030339 0.281958 0.164982
0.030968 0.282587 0.220085
0.031610 0.283229 0.276267
0.032261 0.283880 0.333310
0.032921 0.284539 0.391069
0.033587 0.285206 0.449443
0.034260 0.285878 0.508358
0.034938 0.286557 0.567755
0.035621 0.287240 0.627587
0.036308 0.287927 0.687815
0.037000 0.288619 0.748410
0.037696 0.289315 0.809342
0.038395 0.290014 0.870590
0.038740 0.290359 0.900846
0.035246 0.343351 0.035246
0.035603 0.343708 0.066524
0.036189 0.344294 0.117808
0.036801 0.344906 0.171444
0.037430 0.345535 0.226546
0.038072 0.346176 0.282729
0.038723 0.346828 0.339771
0.039382 0.347487 0.397531
0.040049 0.348154 0.455905
0.040721 0.348826 0.514820
0.041400 0.349504 0.574217
0.042083 0.350187 0.634048
0.042770 0.350875 0.694277
0.043462 0.351567 0.754871
0.044158 0.352262 0.815804
0.044857 0.352962 0.877052
0.045202 0.353307 0.907308
0.041788 0.407072 0.041788
0.042145 0.407429 0.073066
0.042730 0.408015 0.124349
0.043342 0.408627 0.177985
0.043972 0.409256 0.233088
0.044613 0.409898 0.289270
0.045264 0.410549 0.346313
0.045924 0.411208 0.404072
0.046590 0.411875 0.462446
0.047263 0.412547 0.521361
0.047941 0.413226 0.580758
0.048624 0.413909 0.640590
0.049311 0.414596 0.700819
0.050003 0.415288 0.761413
0.050699 0.415984 0.822345
0.051398 0.416683 0.883593
0.051744 0.417028 0.913849
0.048397 0.471460 0.048397
0.048754 0.471817 0.079675
0.049340 0.472403 0.130959
0.049952 0.473015 0.184595
0.050581 0.473644 0.239697
0.051223 0.474286 0.295880
0.051874 0.474937 0.352922
0.052533 0.475596 0.410681
0.053200 0.476263 0.469056
0.053872 0.476935 0.527971
0.054550 0.477613 0.587367
0.055233 0.478296 0.647199
0.055921 0.478984 0.707428
0.056613 0.479676 0.768022
0.057308 0.480371 0.828955
0.058008 0.481071 0.890203
0.058353 0.481416 0.920458
0.055067 0.536434 0.055067
0.055424 0.536791 0.086345
0.056010 0.537377 0.137629
0.056622 0.537989 0.191265
0.057251 0.538618 0.246367
0.057892 0.539260 0.302550
0.058544 0.539911 0.359592
0.059203 0.540570 0.417351
0.059869 0.541237 0.475726
0.060542 0.541909 0.534641
0.061220 0.542587 0.594037
0.061903 0.543270 0.653869
0.062591 0.543958 0.714098
0.063283 0.544650 0.774692
0.063978 0.545345 0.835625
0.064678 0.546045 0.896873
0.065023 0.546390 0.927128
0.061791 0.601932 0.061791
0.062148 0.602289 0.093069
0.062733 0.602875 0.144352
0.063346 0.603487 0.197988
0.063975 0.604116 0.253091
0.064616 0.604757 0.309273
0.065267 0.605409 0.366316
0.065927 0.606068 0.424075
0.066593 0.606735 0.482449
0.067266 0.607407 0.541364
0.067944 0.608085 0.600761
0.068627 0.608768 0.660593
0.069315 0.609456 0.720822
0.070006 0.610148 0.781416
0.070702 0.610843 0.842348
0.071401 0.611543 0.903596
0.071747 0.611888 0.933852
0.068563 0.667904 0.068563
0.068920 0.668261 0.099841
0.069505 0.668846 0.151124
0.070118 0.669459 0.204761
0.070747 0.670088 0.259863
0.071388 0.670729 0.316046
0.072039 0.671380 0.373088
0.072699 0.672040 0.430847
0.073365 0.672706 0.489222
0.074038 0.673379 0.548137
0.074716 0.674057 0.607533
0.075399 0.674740 0.667365
0.076087 0.675428 0.727594
0.076779 0.676119 0.788188
0.077474 0.676815 0.849121
0.078173 0.677514 0.910368
0.078519 0.677860 0.940624
0.075379 0.734308 0.075379
0.075737 0.734665 0.106658
0.076322 0.735251 0.157941
0.076934 0.735863 0.211577
0.077564 0.736492 0.266680
0.078205 0.737133 0.322862
0.078856 0.737785 0.379905
0.079516 0.738444 0.437664
0.080182 0.739111 0.496038
0.080855 0.739783 0.554953
0.081533 0.740461 0.614350
0.082216 0.741144 0.674182
0.082903 0.741832 0.734411
0.083595 0.742524 0.795005
0.084291 0.743219 0.855937
0.084990 0.743919 0.917185
0.085335 0.744264 0.947441
0.082237 0.801111 0.082237
0.082594 0.801468 0.113515
0.083180 0.802054 0.164799
0.083792 0.802666 0.218435
0.084421 0.803295 0.273537
0.085062 0.803936 0.329720
0.085714 0.804588 0.386762
0.086373 0.805247 0.444521
0.087040 0.805913 0.502896
0.087712 0.806586 0.561811
0.088390 0.807264 0.621207
0.089073 0.807947 0.681039
0.089761 0.808635 0.741268
0.090453 0.809327 0.801862
0.091148 0.810022 0.862795
0.091848 0.810722 0.924043
0.092193 0.811067 0.954298
0.089133 0.868283 0.089133
0.089490 0.868640 0.120411
0.090075 0.869226 0.171694
0.090687 0.869838 0.225330
0.091317 0.870467 0.280433
0.091958 0.871109 0.336615
0.092609 0.871760 0.393658
0.093269 0.872419 0.451417
0.093935 0.873086 0.509791
0.094608 0.873758 0.568706
0.095286 0.874436 0.628103
0.095969 0.875120 0.687935
0.096656 0.875807 0.748164
0.097348 0.876499 0.808758
0.098044 0.877195 0.869690
0.098743 0.877894 0.930938
0.099089 0.878239 0.961194
0.096063 0.935800 0.096063
0.096420 0.936157 0.127341
0.097006 0.936743 0.178625
0.097618 0.937355 0.232261
0.098247 0.937984 0.287364
0.098889 0.938625 0.343546
0.099540 0.939277 0.400589
0.100199 0.939936 0.458348
0.100866 0.940602 0.516722
0.101539 0.941275 0.575637
0.102217 0.941953 0.635034
0.102900 0.942636 0.694866
0.103587 0.943324 0.755094
0.104279 0.944016 0.815689
0.104975 0.944711 0.876621
0.105674 0.945411 0.937869
0.106019 0.945756 0.968125
0.044670 0.001469 0.001469
0.045027 0.001826 0.032747
0.045612 0.002412 0.084031
0.046225 0.003024 0.137667
0.046854 0.003653 0.192769
0.047495 0.004294 0.248952
0.048147 0.004946 0.305994
0.048806 0.005605 0.363753
0.049472 0.006272 0.422128
0.050145 0.006944 0.481043
0.050823 0.007622 0.540439
0.051506 0.008305 0.600271
0.052194 0.008993 0.660500
0.052886 0.009685 0.721094
0.053581 0.010380 0.782027
0.054280 0.011080 0.843275
0.054626 0.011425 0.873530
0.044670 0.001469 0.001469
