skills/promo-director/assets/grade/luts/soft_pastel_v17.cube
TITLE "soft_pastel_v17"
LUT_3D_SIZE 17
DOMAIN_MIN 0.0 0.0 0.0
DOMAIN_MAX 1.0 1.0 1.0
0.080816 0.073729 0.066594
0.081646 0.074559 0.119434
0.082453 0.075366 0.170763
0.083244 0.076157 0.221146
0.084025 0.076938 0.270840
0.084797 0.077710 0.319994
0.085563 0.078476 0.368703
0.086322 0.079235 0.417036
0.087076 0.079989 0.465043
0.087826 0.080739 0.512762
0.088572 0.081485 0.560224
0.089314 0.082227 0.607453
0.090052 0.082965 0.654470
0.090788 0.083701 0.701292
0.091521 0.084434 0.747934
0.092251 0.085164 0.794409
0.092979 0.085892 0.840727
0.088999 0.133663 0.074777
0.089829 0.134493 0.127617
0.090635 0.135299 0.178946
0.091427 0.136091 0.229329
0.092208 0.136872 0.279023
0.092980 0.137644 0.328176
0.093745 0.138409 0.376886
0.094505 0.139169 0.425219
0.095259 0.139923 0.473226
0.096009 0.140673 0.520945
0.096754 0.141418 0.568406
0.097496 0.142160 0.615635
0.098235 0.142899 0.662652
0.098971 0.143635 0.709475
0.099703 0.144368 0.756117
0.100434 0.145098 0.802592
0.101161 0.145825 0.848910
0.096964 0.192003 0.082742
0.097794 0.192833 0.135582
0.098600 0.193640 0.186911
0.099392 0.194431 0.237294
0.100173 0.195212 0.286988
0.100945 0.195984 0.336141
0.101710 0.196750 0.384851
0.102470 0.197509 0.433184
0.103224 0.198263 0.481191
0.103974 0.199013 0.528910
0.104719 0.199759 0.576372
0.105461 0.200501 0.623601
0.106200 0.201239 0.670618
0.106936 0.201975 0.717440
0.107669 0.202708 0.764082
0.108399 0.203438 0.810557
0.109126 0.204166 0.856875
0.104789 0.249316 0.090567
0.105619 0.250147 0.143407
0.106425 0.250953 0.194736
0.107217 0.251745 0.245119
0.107998 0.252525 0.294813
0.108770 0.253298 0.343966
0.109535 0.254063 0.392676
0.110295 0.254822 0.441009
0.111049 0.255576 0.489016
0.111799 0.256326 0.536735
0.112544 0.257072 0.584196
0.113286 0.257814 0.631425
0.114025 0.258553 0.678442
0.114761 0.259288 0.725265
0.115493 0.260021 0.771907
0.116224 0.260751 0.818382
0.116951 0.261479 0.864700
0.112510 0.305872 0.098289
0.113340 0.306703 0.151129
0.114147 0.307509 0.202457
0.114939 0.308301 0.252840
0.115719 0.309081 0.302534
0.116492 0.309854 0.351688
0.117257 0.310619 0.400397
0.118016 0.311378 0.448731
0.118770 0.312133 0.496737
0.119520 0.312882 0.544456
0.120266 0.313628 0.591918
0.121008 0.314370 0.639147
0.121747 0.315109 0.686164
0.122482 0.315844 0.732986
0.123215 0.316577 0.779628
0.123945 0.317307 0.826103
0.124673 0.318035 0.872422
0.120150 0.361830 0.105929
0.120980 0.362660 0.158768
0.121787 0.363467 0.210097
0.122578 0.364258 0.260480
0.123359 0.365039 0.310174
0.124131 0.365811 0.359328
0.124897 0.366577 0.408037
0.125656 0.367336 0.456370
0.126410 0.368090 0.504377
0.127160 0.368840 0.552096
0.127906 0.369586 0.599558
0.128648 0.370328 0.646787
0.129386 0.371066 0.693804
0.130122 0.371802 0.740626
0.130855 0.372535 0.787268
0.131585 0.373265 0.833743
0.132313 0.373993 0.880061
0.127722 0.417293 0.113501
0.128553 0.418124 0.166341
0.129359 0.418930 0.217670
0.130151 0.419722 0.268052
0.130931 0.420502 0.317746
0.131704 0.421275 0.366900
0.132469 0.422040 0.415610
0.133228 0.422799 0.463943
0.133983 0.423553 0.511950
0.134732 0.424303 0.559669
0.135478 0.425049 0.607130
0.136220 0.425791 0.654359
0.136959 0.426530 0.701376
0.137694 0.427265 0.748198
0.138427 0.427998 0.794841
0.139157 0.428728 0.841315
0.139885 0.429456 0.887634
0.135237 0.472336 0.121016
0.136068 0.473166 0.173856
0.136874 0.473973 0.225185
0.137666 0.474764 0.275567
0.138446 0.475545 0.325261
0.139219 0.476318 0.374415
0.139984 0.477083 0.423124
0.140743 0.477842 0.471458
0.141498 0.478596 0.519465
0.142247 0.479346 0.567183
0.142993 0.480092 0.614645
0.143735 0.480834 0.661874
0.144474 0.481573 0.708891
0.145209 0.482308 0.755713
0.145942 0.483041 0.802356
0.146672 0.483771 0.848830
0.147400 0.484499 0.895149
0.142702 0.527014 0.128481
0.143533 0.527844 0.181321
0.144339 0.528650 0.232650
0.145131 0.529442 0.283032
0.145911 0.530223 0.332726
0.146684 0.530995 0.381880
0.147449 0.531760 0.430590
0.148208 0.532520 0.478923
0.148963 0.533274 0.526930
0.149712 0.534024 0.574649
0.150458 0.534769 0.622110
0.151200 0.535511 0.669339
0.151939 0.536250 0.716356
0.152674 0.536986 0.763178
0.153407 0.537718 0.809821
0.154137 0.538449 0.856295
0.154865 0.539176 0.902614
0.150123 0.581368 0.135902
0.150954 0.582198 0.188742
0.151760 0.583005 0.240071
0.152552 0.583796 0.290453
0.153332 0.584577 0.340147
0.154105 0.585349 0.389301
0.154870 0.586115 0.438010
0.155629 0.586874 0.486344
0.156384 0.587628 0.534351
0.157133 0.588378 0.582069
0.157879 0.589124 0.629531
0.158621 0.589866 0.676760
0.159360 0.590604 0.723777
0.160095 0.591340 0.770599
0.160828 0.592073 0.817242
0.161558 0.592803 0.863716
0.162286 0.593531 0.910035
0.157505 0.635433 0.143283
0.158335 0.636264 0.196123
0.159141 0.637070 0.247452
0.159933 0.637862 0.297835
0.160714 0.638642 0.347529
0.161486 0.639415 0.396682
0.162251 0.640180 0.445392
0.163011 0.640939 0.493725
0.163765 0.641694 0.541732
0.164515 0.642443 0.589451
0.165260 0.643189 0.636913
0.166002 0.643931 0.684142
0.166741 0.644670 0.731159
0.167477 0.645405 0.777981
0.168210 0.646138 0.824623
0.168940 0.646868 0.871098
0.169667 0.647596 0.917416
0.164851 0.689237 0.150629
0.165681 0.690067 0.203469
0.166487 0.690874 0.254798
0.167279 0.691665 0.305180
0.168060 0.692446 0.354874
0.168832 0.693218 0.404028
0.169597 0.693983 0.452738
0.170356 0.694743 0.501071
0.171111 0.695497 0.549078
0.171860 0.696247 0.596797
0.172606 0.696992 0.644258
0.173348 0.697734 0.691487
0.174087 0.698473 0.738504
0.174822 0.699209 0.785327
0.175555 0.699942 0.831969
0.176285 0.700672 0.878443
0.177013 0.701399 0.924762
0.172164 0.742802 0.157942
0.172994 0.743632 0.210782
0.173800 0.744438 0.262111
0.174592 0.745230 0.312494
0.175373 0.746011 0.362188
0.176145 0.746783 0.411341
0.176910 0.747548 0.460051
0.177670 0.748307 0.508384
0.178424 0.749062 0.556391
0.179174 0.749811 0.604110
0.179919 0.750557 0.651571
0.180661 0.751299 0.698800
0.181400 0.752038 0.745817
0.182136 0.752773 0.792640
0.182868 0.753506 0.839282
0.183599 0.754236 0.885757
0.184326 0.754964 0.932075
0.179447 0.796147 0.165225
0.180277 0.796977 0.218065
0.181083 0.797783 0.269394
0.181875 0.798575 0.319777
0.182656 0.799356 0.369471
0.183428 0.800128 0.418624
0.184193 0.800893 0.467334
0.184953 0.801653 0.515667
0.185707 0.802407 0.563674
0.186457 0.803156 0.611393
0.187202 0.803902 0.658855
0.187944 0.804644 0.706084
0.188683 0.805383 0.753101
0.189419 0.806119 0.799923
0.190152 0.806851 0.846565
0.190882 0.807581 0.893040
0.191609 0.808309 0.939358
0.186702 0.849289 0.172481
0.187532 0.850119 0.225320
0.188339 0.850925 0.276649
0.189130 0.851717 0.327032
0.189911 0.852497 0.376726
0.190683 0.853270 0.425880
0.191449 0.854035 0.474589
0.192208 0.854794 0.522923
0.192962 0.855549 0.570929
0.193712 0.856298 0.618648
0.194458 0.857044 0.666110
0.195200 0.857786 0.713339
0.195938 0.858525 0.760356
0.196674 0.859260 0.807178
0.197407 0.859993 0.853820
0.198137 0.860723 0.900295
0.198865 0.861451 0.946614
0.193932 0.902241 0.179710
0.194762 0.903072 0.232550
0.195568 0.903878 0.283879
0.196360 0.904670 0.334262
0.197141 0.905450 0.383956
0.197913 0.906223 0.433109
0.198678 0.906988 0.481819
0.199438 0.907747 0.530152
0.200192 0.908501 0.578159
0.200942 0.909251 0.625878
0.201687 0.909997 0.673340
0.202429 0.910739 0.720569
0.203168 0.911478 0.767586
0.203904 0.912213 0.814408
0.204636 0.912946 0.861050
0.205367 0.913676 0.907525
0.206094 0.914404 0.953843
0.200786 0.952446 0.186565
0.201616 0.953276 0.239404
0.202423 0.954082 0.290733
0.203214 0.954874 0.341116
0.203995 0.955655 0.390810
0.204767 0.956427 0.439964
0.205533 0.957192 0.488673
0.206292 0.957952 0.537006
0.207046 0.958706 0.585013
0.207796 0.959456 0.632732
0.208542 0.960201 0.680194
0.209284 0.960943 0.727423
0.210022 0.961682 0.774440
0.210758 0.962418 0.821262
0.211491 0.963151 0.867904
0.212221 0.963881 0.914379
0.212949 0.964608 0.960698
0.134754 0.076151 0.069016
0.135584 0.076981 0.121856
0.136390 0.077787 0.173185
0.137182 0.078579 0.223567
0.137963 0.079359 0.273261
0.138735 0.080132 0.322415
0.139500 0.080897 0.371124
0.140260 0.081656 0.419458
0.141014 0.082411 0.467465
0.141764 0.083160 0.515183
0.142509 0.083906 0.562645
0.143251 0.084648 0.609874
0.143990 0.085387 0.656891
0.144726 0.086122 0.703713
0.145458 0.086855 0.750356
0.146189 0.087585 0.796830
0.146916 0.088313 0.843149
0.142936 0.136084 0.077198
0.143767 0.136914 0.130038
0.144573 0.137721 0.181367
0.145365 0.138512 0.231750
0.146145 0.139293 0.281444
0.146918 0.140065 0.330598
0.147683 0.140831 0.379307
0.148442 0.141590 0.427640
0.149197 0.142344 0.475647
0.149946 0.143094 0.523366
0.150692 0.143840 0.570828
0.151434 0.144582 0.618057
0.152173 0.145320 0.665074
0.152908 0.146056 0.711896
0.153641 0.146789 0.758538
0.154371 0.147519 0.805013
0.155099 0.148247 0.851331
0.150902 0.194424 0.085164
0.151732 0.195255 0.138003
0.152538 0.196061 0.189332
0.153330 0.196853 0.239715
0.154110 0.197633 0.289409
0.154883 0.198406 0.338563
0.155648 0.199171 0.387272
0.156407 0.199930 0.435606
0.157162 0.200685 0.483612
0.157911 0.201434 0.531331
0.158657 0.202180 0.578793
0.159399 0.202922 0.626022
0.160138 0.203661 0.673039
0.160873 0.204396 0.719861
0.161606 0.205129 0.766503
0.162336 0.205859 0.812978
0.163064 0.206587 0.859297
0.158726 0.251738 0.092989
0.159557 0.252568 0.145828
0.160363 0.253374 0.197157
0.161155 0.254166 0.247540
0.161935 0.254947 0.297234
0.162708 0.255719 0.346388
0.163473 0.256484 0.395097
0.164232 0.257244 0.443430
0.164987 0.257998 0.491437
0.165736 0.258748 0.539156
0.166482 0.259493 0.586618
0.167224 0.260235 0.633847
0.167963 0.260974 0.680864
0.168698 0.261710 0.727686
0.169431 0.262442 0.774328
0.170161 0.263173 0.820803
0.170889 0.263900 0.867121
0.166448 0.308294 0.100710
0.167278 0.309124 0.153550
0.168085 0.309930 0.204879
0.168876 0.310722 0.255261
0.169657 0.311503 0.304955
0.170429 0.312275 0.354109
0.171194 0.313040 0.402819
0.171954 0.313800 0.451152
0.172708 0.314554 0.499159
0.173458 0.315304 0.546878
0.174204 0.316049 0.594339
0.174946 0.316791 0.641568
0.175684 0.317530 0.688585
0.176420 0.318266 0.735408
0.177153 0.318998 0.782050
0.177883 0.319729 0.828525
0.178611 0.320456 0.874843
0.174088 0.364251 0.108350
0.174918 0.365082 0.161190
0.175724 0.365888 0.212519
0.176516 0.366680 0.262901
0.177297 0.367460 0.312595
0.178069 0.368233 0.361749
0.178834 0.368998 0.410459
0.179594 0.369757 0.458792
0.180348 0.370511 0.506799
0.181098 0.371261 0.554518
0.181843 0.372007 0.601979
0.182585 0.372749 0.649208
0.183324 0.373488 0.696225
0.184060 0.374223 0.743047
0.184792 0.374956 0.789690
0.185523 0.375686 0.836164
0.186250 0.376414 0.882483
0.181660 0.419715 0.115922
0.182490 0.420545 0.168762
0.183297 0.421351 0.220091
0.184088 0.422143 0.270474
0.184869 0.422924 0.320168
0.185641 0.423696 0.369321
0.186407 0.424461 0.418031
0.187166 0.425221 0.466364
0.187920 0.425975 0.514371
0.188670 0.426725 0.562090
0.189416 0.427470 0.609551
0.190158 0.428212 0.656781
0.190896 0.428951 0.703798
0.191632 0.429687 0.750620
0.192365 0.430419 0.797262
0.193095 0.431150 0.843737
0.193823 0.431877 0.890055
0.189175 0.474758 0.123437
0.190005 0.475588 0.176277
0.190812 0.476394 0.227606
0.191603 0.477186 0.277989
0.192384 0.477967 0.327683
0.193156 0.478739 0.376836
0.193922 0.479504 0.425546
0.194681 0.480264 0.473879
0.195435 0.481018 0.521886
0.196185 0.481767 0.569605
0.196931 0.482513 0.617066
0.197673 0.483255 0.664295
0.198411 0.483994 0.711312
0.199147 0.484729 0.758135
0.199880 0.485462 0.804777
0.200610 0.486192 0.851252
0.201338 0.486920 0.897570
0.196640 0.529435 0.130902
0.197470 0.530265 0.183742
0.198277 0.531072 0.235071
0.199068 0.531863 0.285454
0.199849 0.532644 0.335148
0.200621 0.533416 0.384301
0.201387 0.534182 0.433011
0.202146 0.534941 0.481344
0.202900 0.535695 0.529351
0.203650 0.536445 0.577070
0.204396 0.537191 0.624531
0.205138 0.537933 0.671761
0.205876 0.538671 0.718778
0.206612 0.539407 0.765600
0.207345 0.540140 0.812242
0.208075 0.540870 0.858717
0.208803 0.541598 0.905035
0.204061 0.583790 0.138323
0.204891 0.584620 0.191163
0.205698 0.585426 0.242492
0.206489 0.586218 0.292875
0.207270 0.586998 0.342569
0.208042 0.587771 0.391722
0.208808 0.588536 0.440432
0.209567 0.589295 0.488765
0.210321 0.590050 0.536772
0.211071 0.590799 0.584491
0.211817 0.591545 0.631952
0.212559 0.592287 0.679181
0.213297 0.593026 0.726198
0.214033 0.593761 0.773021
0.214766 0.594494 0.819663
0.215496 0.595224 0.866138
0.216224 0.595952 0.912456
0.211443 0.637855 0.145705
0.212273 0.638685 0.198544
0.213079 0.639491 0.249873
0.213871 0.640283 0.300256
0.214651 0.641064 0.349950
0.215424 0.641836 0.399104
0.216189 0.642601 0.447813
0.216948 0.643361 0.496146
0.217703 0.644115 0.544153
0.218452 0.644865 0.591872
0.219198 0.645610 0.639334
0.219940 0.646352 0.686563
0.220679 0.647091 0.733580
0.221414 0.647827 0.780402
0.222147 0.648559 0.827044
0.222877 0.649290 0.873519
0.223605 0.650017 0.919838
0.218788 0.691658 0.153050
0.219618 0.692488 0.205890
0.220425 0.693295 0.257219
0.221216 0.694086 0.307602
0.221997 0.694867 0.357296
0.222769 0.695639 0.406449
0.223535 0.696405 0.455159
0.224294 0.697164 0.503492
0.225048 0.697918 0.551499
0.225798 0.698668 0.599218
0.226544 0.699414 0.646680
0.227286 0.700156 0.693909
0.228024 0.700895 0.740926
0.228760 0.701630 0.787748
0.229493 0.702363 0.834390
0.230223 0.703093 0.880865
0.230951 0.703821 0.927183
0.226101 0.745223 0.160363
0.226932 0.746053 0.213203
0.227738 0.746860 0.264532
0.228530 0.747651 0.314915
0.229310 0.748432 0.364609
0.230083 0.749204 0.413763
0.230848 0.749969 0.462472
0.231607 0.750729 0.510805
0.232362 0.751483 0.558812
0.233111 0.752233 0.606531
0.233857 0.752978 0.653993
0.234599 0.753720 0.701222
0.235338 0.754459 0.748239
0.236073 0.755195 0.795061
0.236806 0.755928 0.841703
0.237536 0.756658 0.888178
0.238264 0.757386 0.934496
0.233385 0.798568 0.167647
0.234215 0.799398 0.220486
0.235021 0.800205 0.271815
0.235813 0.800996 0.322198
0.236593 0.801777 0.371892
0.237366 0.802549 0.421046
0.238131 0.803314 0.469755
0.238890 0.804074 0.518088
0.239645 0.804828 0.566095
0.240394 0.805578 0.613814
0.241140 0.806324 0.661276
0.241882 0.807066 0.708505
0.242621 0.807804 0.755522
0.243356 0.808540 0.802344
0.244089 0.809273 0.848986
0.244819 0.810003 0.895461
0.245547 0.810731 0.941780
0.240640 0.851710 0.174902
0.241470 0.852540 0.227742
0.242277 0.853346 0.279071
0.243068 0.854138 0.329453
0.243849 0.854919 0.379147
0.244621 0.855691 0.428301
0.245386 0.856456 0.477011
0.246146 0.857216 0.525344
0.246900 0.857970 0.573351
0.247650 0.858720 0.621070
0.248395 0.859465 0.668531
0.249137 0.860207 0.715760
0.249876 0.860946 0.762777
0.250612 0.861682 0.809600
0.251345 0.862415 0.856242
0.252075 0.863145 0.902716
0.252802 0.863872 0.949035
0.247870 0.904663 0.182132
0.248700 0.905493 0.234971
0.249506 0.906299 0.286300
0.250298 0.907091 0.336683
0.251078 0.907872 0.386377
0.251851 0.908644 0.435531
0.252616 0.909409 0.484240
0.253375 0.910169 0.532573
0.254130 0.910923 0.580580
0.254879 0.911673 0.628299
0.255625 0.912418 0.675761
0.256367 0.913160 0.722990
0.257106 0.913899 0.770007
0.257841 0.914635 0.816829
0.258574 0.915367 0.863471
0.259304 0.916098 0.909946
0.260032 0.916825 0.956265
0.254724 0.954867 0.188986
0.255554 0.955697 0.241826
0.256360 0.956504 0.293155
0.257152 0.957295 0.343537
0.257933 0.958076 0.393231
0.258705 0.958848 0.442385
0.259470 0.959614 0.491095
0.260230 0.960373 0.539428
0.260984 0.961127 0.587435
0.261734 0.961877 0.635154
0.262479 0.962623 0.682615
0.263221 0.963365 0.729844
0.263960 0.964103 0.776861
0.264696 0.964839 0.823683
0.265429 0.965572 0.870326
0.266159 0.966302 0.916800
0.266886 0.967030 0.963119
0.187351 0.078512 0.071377
0.188181 0.079342 0.124217
0.188987 0.080148 0.175546
0.189779 0.080940 0.225928
0.190560 0.081721 0.275622
0.191332 0.082493 0.324776
0.192097 0.083258 0.373486
0.192857 0.084018 0.421819
0.193611 0.084772 0.469826
0.194361 0.085521 0.517545
0.195106 0.086267 0.565006
0.195848 0.087009 0.612235
0.196587 0.087748 0.659252
0.197323 0.088484 0.706075
0.198055 0.089216 0.752717
0.198786 0.089946 0.799191
0.199513 0.090674 0.845510
0.195533 0.138445 0.079560
0.196364 0.139276 0.132399
0.197170 0.140082 0.183728
0.197962 0.140874 0.234111
0.198742 0.141654 0.283805
0.199515 0.142427 0.332959
0.200280 0.143192 0.381668
0.201039 0.143951 0.430002
0.201794 0.144705 0.478008
0.202543 0.145455 0.525727
0.203289 0.146201 0.573189
0.204031 0.146943 0.620418
0.204770 0.147682 0.667435
0.205505 0.148417 0.714257
0.206238 0.149150 0.760899
0.206968 0.149880 0.807374
0.207696 0.150608 0.853693
0.203499 0.196786 0.087525
0.204329 0.197616 0.140365
0.205135 0.198422 0.191694
0.205927 0.199214 0.242076
0.206708 0.199995 0.291770
0.207480 0.200767 0.340924
0.208245 0.201532 0.389633
0.209004 0.202291 0.437967
0.209759 0.203046 0.485973
0.210508 0.203795 0.533692
0.211254 0.204541 0.581154
0.211996 0.205283 0.628383
0.212735 0.206022 0.675400
0.213470 0.206757 0.722222
0.214203 0.207490 0.768864
0.214933 0.208220 0.815339
0.215661 0.208948 0.861658
0.211324 0.254099 0.095350
0.212154 0.254929 0.148189
0.212960 0.255735 0.199518
0.213752 0.256527 0.249901
0.214532 0.257308 0.299595
0.215305 0.258080 0.348749
0.216070 0.258845 0.397458
0.216829 0.259605 0.445792
0.217584 0.260359 0.493798
0.218333 0.261109 0.541517
0.219079 0.261854 0.588979
0.219821 0.262596 0.636208
0.220560 0.263335 0.683225
0.221295 0.264071 0.730047
0.222028 0.264804 0.776689
0.222758 0.265534 0.823164
0.223486 0.266261 0.869483
0.219045 0.310655 0.103071
0.219875 0.311485 0.155911
0.220682 0.312292 0.207240
0.221473 0.313083 0.257623
0.222254 0.313864 0.307317
0.223026 0.314636 0.356470
0.223792 0.315401 0.405180
0.224551 0.316161 0.453513
0.225305 0.316915 0.501520
0.226055 0.317665 0.549239
0.226801 0.318410 0.596700
0.227543 0.319153 0.643930
0.228281 0.319891 0.690947
0.229017 0.320627 0.737769
0.229750 0.321360 0.784411
0.230480 0.322090 0.830886
0.231208 0.322818 0.877204
0.226685 0.366613 0.110711
0.227515 0.367443 0.163551
0.228321 0.368249 0.214880
0.229113 0.369041 0.265262
0.229894 0.369822 0.314956
0.230666 0.370594 0.364110
0.231431 0.371359 0.412820
0.232191 0.372118 0.461153
0.232945 0.372873 0.509160
0.233695 0.373622 0.556879
0.234440 0.374368 0.604340
0.235182 0.375110 0.651569
0.235921 0.375849 0.698586
0.236657 0.376584 0.745409
0.237390 0.377317 0.792051
0.238120 0.378047 0.838526
0.238847 0.378775 0.884844
0.234257 0.422076 0.118283
0.235087 0.422906 0.171123
0.235894 0.423713 0.222452
0.236685 0.424504 0.272835
0.237466 0.425285 0.322529
0.238238 0.426057 0.371682
0.239004 0.426822 0.420392
0.239763 0.427582 0.468725
0.240517 0.428336 0.516732
0.241267 0.429086 0.564451
0.242013 0.429831 0.611913
0.242755 0.430573 0.659142
0.243493 0.431312 0.706159
0.244229 0.432048 0.752981
0.244962 0.432781 0.799623
0.245692 0.433511 0.846098
0.246420 0.434238 0.892416
0.241772 0.477119 0.125798
0.242602 0.477949 0.178638
0.243409 0.478755 0.229967
0.244200 0.479547 0.280350
0.244981 0.480328 0.330044
0.245753 0.481100 0.379197
0.246519 0.481865 0.427907
0.247278 0.482625 0.476240
0.248032 0.483379 0.524247
0.248782 0.484129 0.571966
0.249528 0.484874 0.619428
0.250270 0.485616 0.666657
0.251008 0.486355 0.713674
0.251744 0.487091 0.760496
0.252477 0.487823 0.807138
0.253207 0.488554 0.853613
0.253935 0.489281 0.899931
0.249237 0.531796 0.133263
0.250067 0.532626 0.186103
0.250874 0.533433 0.237432
0.251665 0.534224 0.287815
0.252446 0.535005 0.337509
0.253218 0.535777 0.386662
0.253984 0.536543 0.435372
0.254743 0.537302 0.483705
0.255497 0.538056 0.531712
0.256247 0.538806 0.579431
0.256993 0.539552 0.626893
0.257735 0.540294 0.674122
0.258473 0.541032 0.721139
0.259209 0.541768 0.767961
0.259942 0.542501 0.814603
0.260672 0.543231 0.861078
0.261400 0.543959 0.907396
0.256658 0.586151 0.140684
0.257488 0.586981 0.193524
0.258295 0.587787 0.244853
0.259086 0.588579 0.295236
0.259867 0.589360 0.344930
0.260639 0.590132 0.394083
0.261405 0.590897 0.442793
0.262164 0.591657 0.491126
0.262918 0.592411 0.539133
0.263668 0.593161 0.586852
0.264414 0.593906 0.634314
0.265156 0.594648 0.681543
0.265894 0.595387 0.728560
0.266630 0.596123 0.775382
0.267363 0.596855 0.822024
0.268093 0.597586 0.868499
0.268821 0.598313 0.914817
0.264040 0.640216 0.148066
0.264870 0.641046 0.200906
0.265676 0.641853 0.252235
0.266468 0.642644 0.302617
0.267249 0.643425 0.352311
0.268021 0.644197 0.401465
0.268786 0.644962 0.450174
0.269545 0.645722 0.498508
0.270300 0.646476 0.546514
0.271049 0.647226 0.594233
0.271795 0.647971 0.641695
0.272537 0.648713 0.688924
0.273276 0.649452 0.735941
0.274011 0.650188 0.782763
0.274744 0.650921 0.829405
0.275474 0.651651 0.875880
0.276202 0.652378 0.922199
0.271385 0.694019 0.155412
0.272216 0.694850 0.208251
0.273022 0.695656 0.259580
0.273814 0.696448 0.309963
0.274594 0.697228 0.359657
0.275367 0.698001 0.408811
0.276132 0.698766 0.457520
0.276891 0.699525 0.505853
0.277645 0.700280 0.553860
0.278395 0.701029 0.601579
0.279141 0.701775 0.649041
0.279883 0.702517 0.696270
0.280622 0.703256 0.743287
0.281357 0.703991 0.790109
0.282090 0.704724 0.836751
0.282820 0.705454 0.883226
0.283548 0.706182 0.929544
0.278698 0.747584 0.162725
0.279529 0.748414 0.215564
0.280335 0.749221 0.266893
0.281127 0.750012 0.317276
0.281907 0.750793 0.366970
0.282680 0.751565 0.416124
0.283445 0.752331 0.464833
0.284204 0.753090 0.513167
0.284959 0.753844 0.561173
0.285708 0.754594 0.608892
0.286454 0.755340 0.656354
0.287196 0.756082 0.703583
0.287935 0.756820 0.750600
0.288670 0.757556 0.797422
0.289403 0.758289 0.844064
0.290133 0.759019 0.890539
0.290861 0.759747 0.936858
0.285982 0.800929 0.170008
0.286812 0.801759 0.222848
0.287618 0.802566 0.274176
0.288410 0.803357 0.324559
0.289191 0.804138 0.374253
0.289963 0.804910 0.423407
0.290728 0.805676 0.472116
0.291487 0.806435 0.520450
0.292242 0.807189 0.568456
0.292991 0.807939 0.616175
0.293737 0.808685 0.663637
0.294479 0.809427 0.710866
0.295218 0.810165 0.757883
0.295953 0.810901 0.804705
0.296686 0.811634 0.851347
0.297416 0.812364 0.897822
0.298144 0.813092 0.944141
0.293237 0.854071 0.177263
0.294067 0.854901 0.230103
0.294874 0.855708 0.281432
0.295665 0.856499 0.331815
0.296446 0.857280 0.381509
0.297218 0.858052 0.430662
0.297983 0.858818 0.479372
0.298743 0.859577 0.527705
0.299497 0.860331 0.575712
0.300247 0.861081 0.623431
0.300992 0.861827 0.670892
0.301734 0.862569 0.718121
0.302473 0.863307 0.765138
0.303209 0.864043 0.811961
0.303942 0.864776 0.858603
0.304672 0.865506 0.905078
0.305400 0.866234 0.951396
0.300467 0.907024 0.184493
0.301297 0.907854 0.237333
0.302103 0.908661 0.288661
0.302895 0.909452 0.339044
0.303676 0.910233 0.388738
0.304448 0.911005 0.437892
0.305213 0.911770 0.486601
0.305972 0.912530 0.534935
0.306727 0.913284 0.582941
0.307476 0.914034 0.630660
0.308222 0.914779 0.678122
0.308964 0.915521 0.725351
0.309703 0.916260 0.772368
0.310438 0.916996 0.819190
0.311171 0.917729 0.865832
0.311901 0.918459 0.912307
0.312629 0.919186 0.958626
0.307321 0.957228 0.191347
0.308151 0.958059 0.244187
0.308958 0.958865 0.295516
0.309749 0.959657 0.345898
0.310530 0.960437 0.395593
0.311302 0.961210 0.444746
0.312067 0.961975 0.493456
0.312827 0.962734 0.541789
0.313581 0.963488 0.589796
0.314331 0.964238 0.637515
0.315076 0.964984 0.684976
0.315818 0.965726 0.732205
0.316557 0.966465 0.779222
0.317293 0.967200 0.826045
0.318026 0.967933 0.872687
0.318756 0.968663 0.919162
0.319483 0.969391 0.965480
0.239062 0.080833 0.073698
0.239892 0.081663 0.126538
0.240698 0.082470 0.177867
0.241490 0.083261 0.228250
0.242271 0.084042 0.277944
0.243043 0.084814 0.327097
0.243808 0.085580 0.375807
0.244568 0.086339 0.424140
0.245322 0.087093 0.472147
0.246072 0.087843 0.519866
0.246817 0.088589 0.567328
0.247559 0.089331 0.614557
0.248298 0.090069 0.661574
0.249034 0.090805 0.708396
0.249766 0.091538 0.755038
0.250497 0.092268 0.801513
0.251224 0.092996 0.847831
0.247244 0.140767 0.081881
