skills/promo-director/assets/grade/luts/soft_pastel_v17.cube
TITLE "soft_pastel_v17"
LUT_3D_SIZE 5
DOMAIN_MIN 0.0 0.0 0.0
DOMAIN_MAX 1.0 1.0 1.0
0.080816 0.073729 0.066594
0.084025 0.076938 0.270840
0.087076 0.079989 0.465043
0.090052 0.082965 0.654470
0.092979 0.085892 0.840727
0.112510 0.305872 0.098289
0.115719 0.309081 0.302534
0.118770 0.312133 0.496737
0.121747 0.315109 0.686164
0.124673 0.318035 0.872422
0.142702 0.527014 0.128481
0.145911 0.530223 0.332726
0.148963 0.533274 0.526930
0.151939 0.536250 0.716356
0.154865 0.539176 0.902614
0.172164 0.742802 0.157942
0.175373 0.746011 0.362188
0.178424 0.749062 0.556391
0.181400 0.752038 0.745817
0.184326 0.754964 0.932075
0.200786 0.952446 0.186565
0.203995 0.955655 0.390810
0.207046 0.958706 0.585013
0.210022 0.961682 0.774440
0.212949 0.964608 0.960698
0.290112 0.083125 0.075990
0.293321 0.086334 0.280236
0.296372 0.089385 0.474439
0.299348 0.092361 0.663865
0.302274 0.095287 0.850123
0.321806 0.315268 0.107684
0.325015 0.318477 0.311930
0.328066 0.321528 0.506133
0.331042 0.324504 0.695560
0.333969 0.327431 0.881817
0.351998 0.536409 0.137876
0.355207 0.539618 0.342122
0.358258 0.542669 0.536325
0.361234 0.545646 0.725752
0.364161 0.548572 0.912009
0.381459 0.752197 0.167338
0.384668 0.755406 0.371583
0.387720 0.758457 0.565786
0.390696 0.761433 0.755213
0.393622 0.764360 0.941471
0.410082 0.961841 0.195960
0.413291 0.965050 0.400206
0.416342 0.968102 0.594409
0.419318 0.971078 0.783836
0.422244 0.974004 0.970093
0.489828 0.092090 0.084956
0.493037 0.095299 0.289201
0.496088 0.098350 0.483404
0.499064 0.101327 0.672831
0.501990 0.104253 0.859089
0.521522 0.324234 0.116650
0.524731 0.327443 0.320895
0.527782 0.330494 0.515099
0.530758 0.333470 0.704525
0.533685 0.336396 0.890783
0.551714 0.545375 0.146842
0.554923 0.548584 0.351087
0.557974 0.551635 0.545291
0.560950 0.554611 0.734717
0.563877 0.557537 0.920975
0.581175 0.761163 0.176303
0.584384 0.764372 0.380549
0.587435 0.767423 0.574752
0.590412 0.770399 0.764179
0.593338 0.773325 0.950436
0.609798 0.970807 0.204926
0.613007 0.974016 0.409171
0.616058 0.977067 0.603374
0.619034 0.980043 0.792801
0.621960 0.982970 0.979059
0.684784 0.100842 0.093708
0.687993 0.104051 0.297953
0.691044 0.107102 0.492156
0.694020 0.110078 0.681583
0.696947 0.113005 0.867840
0.716478 0.332986 0.125402
0.719687 0.336194 0.329647
0.722738 0.339246 0.523850
0.725714 0.342222 0.713277
0.728641 0.345148 0.899535
0.746670 0.554127 0.155594
0.749879 0.557336 0.359839
0.752930 0.560387 0.554043
0.755907 0.563363 0.743469
0.758833 0.566289 0.929727
0.776132 0.769915 0.185055
0.779341 0.773124 0.389301
0.782392 0.776175 0.583504
0.785368 0.779151 0.772931
0.788294 0.782077 0.959188
0.804754 0.979559 0.213678
0.807963 0.982768 0.417923
0.811014 0.985819 0.612126
0.813990 0.988795 0.801553
0.816917 0.991721 0.987811
0.867805 0.109058 0.101924
0.871014 0.112267 0.306169
0.874065 0.115318 0.500372
0.877041 0.118295 0.689799
0.879967 0.121221 0.876057
0.899499 0.341202 0.133618
0.902708 0.344411 0.337863
0.905759 0.347462 0.532067
0.908735 0.350438 0.721493
0.911662 0.353364 0.907751
0.929691 0.562343 0.163810
0.932900 0.565552 0.368055
0.935951 0.568603 0.562259
0.938928 0.571579 0.751685
0.941854 0.574505 0.937943
0.959153 0.778131 0.193271
0.962361 0.781340 0.397517
0.965413 0.784391 0.591720
0.968389 0.787367 0.781147
0.971315 0.790293 0.967404
0.987775 0.987775 0.221894
0.990984 0.990984 0.426139
0.994035 0.994035 0.620342
0.997011 0.997011 0.809769
0.999938 0.999938 0.996027
