skills/promo-director/assets/grade/luts/soft_pastel_v17.cube
TITLE "soft_pastel_v17"
LUT_3D_SIZE 9
DOMAIN_MIN 0.0 0.0 0.0
DOMAIN_MAX 1.0 1.0 1.0
0.080816 0.073729 0.066594
0.082453 0.075366 0.170763
0.084025 0.076938 0.270840
0.085563 0.078476 0.368703
0.087076 0.079989 0.465043
0.088572 0.081485 0.560224
0.090052 0.082965 0.654470
0.091521 0.084434 0.747934
0.092979 0.085892 0.840727
0.096964 0.192003 0.082742
0.098600 0.193640 0.186911
0.100173 0.195212 0.286988
0.101710 0.196750 0.384851
0.103224 0.198263 0.481191
0.104719 0.199759 0.576372
0.106200 0.201239 0.670618
0.107669 0.202708 0.764082
0.109126 0.204166 0.856875
0.112510 0.305872 0.098289
0.114147 0.307509 0.202457
0.115719 0.309081 0.302534
0.117257 0.310619 0.400397
0.118770 0.312133 0.496737
0.120266 0.313628 0.591918
0.121747 0.315109 0.686164
0.123215 0.316577 0.779628
0.124673 0.318035 0.872422
0.127722 0.417293 0.113501
0.129359 0.418930 0.217670
0.130931 0.420502 0.317746
0.132469 0.422040 0.415610
0.133983 0.423553 0.511950
0.135478 0.425049 0.607130
0.136959 0.426530 0.701376
0.138427 0.427998 0.794841
0.139885 0.429456 0.887634
0.142702 0.527014 0.128481
0.144339 0.528650 0.232650
0.145911 0.530223 0.332726
0.147449 0.531760 0.430590
0.148963 0.533274 0.526930
0.150458 0.534769 0.622110
0.151939 0.536250 0.716356
0.153407 0.537718 0.809821
0.154865 0.539176 0.902614
0.157505 0.635433 0.143283
0.159141 0.637070 0.247452
0.160714 0.638642 0.347529
0.162251 0.640180 0.445392
0.163765 0.641694 0.541732
0.165260 0.643189 0.636913
0.166741 0.644670 0.731159
0.168210 0.646138 0.824623
0.169667 0.647596 0.917416
0.172164 0.742802 0.157942
0.173800 0.744438 0.262111
0.175373 0.746011 0.362188
0.176910 0.747548 0.460051
0.178424 0.749062 0.556391
0.179919 0.750557 0.651571
0.181400 0.752038 0.745817
0.182868 0.753506 0.839282
0.184326 0.754964 0.932075
0.186702 0.849289 0.172481
0.188339 0.850925 0.276649
0.189911 0.852497 0.376726
0.191449 0.854035 0.474589
0.192962 0.855549 0.570929
0.194458 0.857044 0.666110
0.195938 0.858525 0.760356
0.197407 0.859993 0.853820
0.198865 0.861451 0.946614
0.200786 0.952446 0.186565
0.202423 0.954082 0.290733
0.203995 0.955655 0.390810
0.205533 0.957192 0.488673
0.207046 0.958706 0.585013
0.208542 0.960201 0.680194
0.210022 0.961682 0.774440
0.211491 0.963151 0.867904
0.212949 0.964608 0.960698
0.187351 0.078512 0.071377
0.188987 0.080148 0.175546
0.190560 0.081721 0.275622
0.192097 0.083258 0.373486
0.193611 0.084772 0.469826
0.195106 0.086267 0.565006
0.196587 0.087748 0.659252
0.198055 0.089216 0.752717
0.199513 0.090674 0.845510
0.203499 0.196786 0.087525
0.205135 0.198422 0.191694
0.206708 0.199995 0.291770
0.208245 0.201532 0.389633
0.209759 0.203046 0.485973
0.211254 0.204541 0.581154
0.212735 0.206022 0.675400
0.214203 0.207490 0.768864
0.215661 0.208948 0.861658
0.219045 0.310655 0.103071
0.220682 0.312292 0.207240
0.222254 0.313864 0.307317
0.223792 0.315401 0.405180
0.225305 0.316915 0.501520
0.226801 0.318410 0.596700
0.228281 0.319891 0.690947
0.229750 0.321360 0.784411
0.231208 0.322818 0.877204
0.234257 0.422076 0.118283
0.235894 0.423713 0.222452
0.237466 0.425285 0.322529
0.239004 0.426822 0.420392
0.240517 0.428336 0.516732
0.242013 0.429831 0.611913
0.243493 0.431312 0.706159
0.244962 0.432781 0.799623
0.246420 0.434238 0.892416
0.249237 0.531796 0.133263
0.250874 0.533433 0.237432
0.252446 0.535005 0.337509
0.253984 0.536543 0.435372
0.255497 0.538056 0.531712
0.256993 0.539552 0.626893
0.258473 0.541032 0.721139
0.259942 0.542501 0.814603
0.261400 0.543959 0.907396
0.264040 0.640216 0.148066
0.265676 0.641853 0.252235
0.267249 0.643425 0.352311
0.268786 0.644962 0.450174
0.270300 0.646476 0.546514
0.271795 0.647971 0.641695
0.273276 0.649452 0.735941
0.274744 0.650921 0.829405
0.276202 0.652378 0.922199
0.278698 0.747584 0.162725
0.280335 0.749221 0.266893
0.281907 0.750793 0.366970
0.283445 0.752331 0.464833
0.284959 0.753844 0.561173
0.286454 0.755340 0.656354
0.287935 0.756820 0.750600
0.289403 0.758289 0.844064
0.290861 0.759747 0.936858
0.293237 0.854071 0.177263
0.294874 0.855708 0.281432
0.296446 0.857280 0.381509
0.297983 0.858818 0.479372
0.299497 0.860331 0.575712
0.300992 0.861827 0.670892
0.302473 0.863307 0.765138
0.303942 0.864776 0.858603
0.305400 0.866234 0.951396
0.307321 0.957228 0.191347
0.308958 0.958865 0.295516
0.310530 0.960437 0.395593
0.312067 0.961975 0.493456
0.313581 0.963488 0.589796
0.315076 0.964984 0.684976
0.316557 0.966465 0.779222
0.318026 0.967933 0.872687
0.319483 0.969391 0.965480
0.290112 0.083125 0.075990
0.291748 0.084761 0.180159
0.293321 0.086334 0.280236
0.294858 0.087871 0.378099
0.296372 0.089385 0.474439
0.297867 0.090880 0.569619
0.299348 0.092361 0.663865
0.300816 0.093829 0.757330
0.302274 0.095287 0.850123
0.306260 0.201399 0.092138
0.307896 0.203035 0.196307
0.309469 0.204608 0.296383
0.311006 0.206145 0.394247
0.312520 0.207659 0.490587
0.314015 0.209154 0.585767
0.315496 0.210635 0.680013
0.316964 0.212103 0.773478
0.318422 0.213561 0.866271
0.321806 0.315268 0.107684
0.323443 0.316905 0.211853
0.325015 0.318477 0.311930
0.326553 0.320015 0.409793
0.328066 0.321528 0.506133
0.329562 0.323024 0.601314
0.331042 0.324504 0.695560
0.332511 0.325973 0.789024
0.333969 0.327431 0.881817
0.337018 0.426689 0.122896
0.338655 0.428326 0.227065
0.340227 0.429898 0.327142
0.341765 0.431435 0.425005
0.343278 0.432949 0.521345
0.344774 0.434444 0.616526
0.346254 0.435925 0.710772
0.347723 0.437394 0.804236
0.349181 0.438852 0.897029
0.351998 0.536409 0.137876
0.353635 0.538046 0.242045
0.355207 0.539618 0.342122
0.356745 0.541156 0.439985
0.358258 0.542669 0.536325
0.359754 0.544165 0.631506
0.361234 0.545646 0.725752
0.362703 0.547114 0.819216
0.364161 0.548572 0.912009
0.366801 0.644829 0.152679
0.368437 0.646466 0.256848
0.370010 0.648038 0.356924
0.371547 0.649576 0.454788
0.373061 0.651089 0.551128
0.374556 0.652585 0.646308
0.376037 0.654065 0.740554
0.377505 0.655534 0.834019
0.378963 0.656992 0.926812
0.381459 0.752197 0.167338
0.383096 0.753834 0.271506
0.384668 0.755406 0.371583
0.386206 0.756944 0.469446
0.387720 0.758457 0.565786
0.389215 0.759953 0.660967
0.390696 0.761433 0.755213
0.392164 0.762902 0.848677
0.393622 0.764360 0.941471
0.395998 0.858684 0.181876
0.397635 0.860321 0.286045
0.399207 0.861893 0.386122
0.400744 0.863431 0.483985
0.402258 0.864944 0.580325
0.403753 0.866440 0.675506
0.405234 0.867920 0.769752
0.406703 0.869389 0.863216
0.408161 0.870847 0.956009
0.410082 0.961841 0.195960
0.411719 0.963478 0.300129
0.413291 0.965050 0.400206
0.414828 0.966588 0.498069
0.416342 0.968102 0.594409
0.417837 0.969597 0.689589
0.419318 0.971078 0.783836
0.420787 0.972546 0.877300
0.422244 0.974004 0.970093
0.390723 0.087641 0.080507
0.392360 0.089278 0.184675
0.393932 0.090850 0.284752
0.395469 0.092388 0.382615
0.396983 0.093901 0.478955
0.398478 0.095397 0.574136
0.399959 0.096878 0.668382
0.401428 0.098346 0.761846
0.402885 0.099804 0.854640
0.406871 0.205915 0.096654
0.408507 0.207552 0.200823
0.410080 0.209124 0.300900
0.411617 0.210662 0.398763
0.413131 0.212175 0.495103
0.414626 0.213671 0.590284
0.416107 0.215152 0.684530
0.417575 0.216620 0.777994
0.419033 0.218078 0.870787
0.422417 0.319785 0.112201
0.424054 0.321421 0.216370
0.425626 0.322994 0.316446
0.427164 0.324531 0.414310
0.428677 0.326045 0.510650
0.430173 0.327540 0.605830
0.431653 0.329021 0.700076
0.433122 0.330489 0.793541
0.434580 0.331947 0.886334
0.437629 0.431206 0.127413
0.439266 0.432842 0.231582
0.440838 0.434415 0.331659
0.442376 0.435952 0.429522
0.443889 0.437466 0.525862
0.445385 0.438961 0.621042
0.446866 0.440442 0.715288
0.448334 0.441910 0.808753
0.449792 0.443368 0.901546
0.452609 0.540926 0.142393
0.454246 0.542563 0.246562
0.455818 0.544135 0.346638
0.457356 0.545672 0.444502
0.458869 0.547186 0.540842
0.460365 0.548681 0.636022
0.461846 0.550162 0.730268
0.463314 0.551631 0.823733
0.464772 0.553088 0.916526
0.467412 0.649346 0.157195
0.469048 0.650982 0.261364
0.470621 0.652555 0.361441
0.472158 0.654092 0.459304
0.473672 0.655606 0.555644
0.475167 0.657101 0.650825
0.476648 0.658582 0.745071
0.478116 0.660050 0.838535
0.479574 0.661508 0.931328
0.482071 0.756714 0.171854
0.483707 0.758350 0.276023
0.485280 0.759923 0.376100
0.486817 0.761460 0.473963
0.488331 0.762974 0.570303
0.489826 0.764469 0.665484
0.491307 0.765950 0.759730
0.492775 0.767418 0.853194
0.494233 0.768876 0.945987
0.496609 0.863201 0.186393
0.498246 0.864837 0.290562
0.499818 0.866410 0.390638
0.501356 0.867947 0.488502
0.502869 0.869461 0.584842
0.504365 0.870956 0.680022
0.505845 0.872437 0.774268
0.507314 0.873905 0.867733
0.508772 0.875363 0.960526
0.510693 0.966358 0.200477
0.512330 0.967995 0.304646
0.513902 0.969567 0.404722
0.515440 0.971105 0.502585
0.516953 0.972618 0.598926
0.518449 0.974114 0.694106
0.519929 0.975594 0.788352
0.521398 0.977063 0.881816
0.522856 0.978521 0.974610
0.489828 0.092090 0.084956
0.491464 0.093727 0.189124
0.493037 0.095299 0.289201
0.494574 0.096837 0.387064
0.496088 0.098350 0.483404
0.497583 0.099846 0.578585
0.499064 0.101327 0.672831
0.500532 0.102795 0.766295
0.501990 0.104253 0.859089
0.505976 0.210364 0.101103
0.507612 0.212001 0.205272
0.509184 0.213573 0.305349
0.510722 0.215111 0.403212
0.512236 0.216624 0.499552
0.513731 0.218120 0.594733
0.515212 0.219601 0.688979
0.516680 0.221069 0.782443
0.518138 0.222527 0.875236
0.521522 0.324234 0.116650
0.523159 0.325870 0.220819
0.524731 0.327443 0.320895
0.526268 0.328980 0.418759
0.527782 0.330494 0.515099
0.529277 0.331989 0.610279
0.530758 0.333470 0.704525
0.532227 0.334938 0.797990
0.533685 0.336396 0.890783
0.536734 0.435655 0.131862
0.538371 0.437291 0.236031
0.539943 0.438864 0.336107
0.541481 0.440401 0.433971
0.542994 0.441915 0.530311
0.544490 0.443410 0.625491
0.545970 0.444891 0.719737
0.547439 0.446359 0.813202
0.548897 0.447817 0.905995
0.551714 0.545375 0.146842
0.553351 0.547012 0.251011
0.554923 0.548584 0.351087
0.556461 0.550121 0.448951
0.557974 0.551635 0.545291
0.559470 0.553130 0.640471
0.560950 0.554611 0.734717
0.562419 0.556080 0.828182
0.563877 0.557537 0.920975
0.566517 0.653795 0.161644
0.568153 0.655431 0.265813
0.569725 0.657004 0.365890
0.571263 0.658541 0.463753
0.572777 0.660055 0.560093
0.574272 0.661550 0.655274
0.575753 0.663031 0.749520
0.577221 0.664499 0.842984
0.578679 0.665957 0.935777
0.581175 0.761163 0.176303
0.582812 0.762799 0.280472
0.584384 0.764372 0.380549
0.585922 0.765909 0.478412
0.587435 0.767423 0.574752
0.588931 0.768918 0.669933
0.590412 0.770399 0.764179
0.591880 0.771867 0.857643
0.593338 0.773325 0.950436
0.595714 0.867650 0.190842
0.597351 0.869286 0.295011
0.598923 0.870859 0.395087
0.600460 0.872396 0.492951
0.601974 0.873910 0.589291
0.603469 0.875405 0.684471
0.604950 0.876886 0.778717
0.606419 0.878354 0.872182
0.607876 0.879812 0.964975
0.609798 0.970807 0.204926
0.611434 0.972444 0.309095
0.613007 0.974016 0.409171
0.614544 0.975554 0.507034
0.616058 0.977067 0.603374
0.617553 0.978563 0.698555
0.619034 0.980043 0.792801
0.620503 0.981512 0.886265
0.621960 0.982970 0.979059
0.587775 0.096487 0.089353
0.589412 0.098124 0.193521
0.590984 0.099696 0.293598
0.592522 0.101234 0.391461
0.594035 0.102747 0.487801
0.595531 0.104243 0.582982
0.597011 0.105724 0.677228
0.598480 0.107192 0.770692
0.599938 0.108650 0.863486
0.603923 0.214761 0.105500
0.605559 0.216398 0.209669
0.607132 0.217970 0.309746
0.608669 0.219508 0.407609
0.610183 0.221021 0.503949
0.611678 0.222517 0.599130
0.613159 0.223998 0.693376
0.614628 0.225466 0.786840
0.616085 0.226924 0.879633
0.619469 0.328631 0.121047
0.621106 0.330267 0.225216
0.622678 0.331840 0.325292
0.624216 0.333377 0.423156
0.625729 0.334891 0.519496
0.627225 0.336386 0.614676
0.628706 0.337867 0.708922
0.630174 0.339335 0.802387
0.631632 0.340793 0.895180
0.634681 0.440052 0.136259
0.636318 0.441688 0.240428
0.637890 0.443261 0.340504
0.639428 0.444798 0.438368
0.640942 0.446312 0.534708
0.642437 0.447807 0.629888
0.643918 0.449288 0.724134
0.645386 0.450756 0.817599
0.646844 0.452214 0.910392
0.649661 0.549772 0.151239
0.651298 0.551409 0.255408
0.652870 0.552981 0.355484
0.654408 0.554518 0.453348
0.655922 0.556032 0.549688
0.657417 0.557527 0.644868
0.658898 0.559008 0.739114
0.660366 0.560477 0.832579
0.661824 0.561934 0.925372
0.664464 0.658192 0.166041
0.666100 0.659828 0.270210
0.667673 0.661401 0.370287
0.669210 0.662938 0.468150
0.670724 0.664452 0.564490
0.672219 0.665947 0.659671
0.673700 0.667428 0.753917
0.675169 0.668896 0.847381
0.676626 0.670354 0.940174
0.679123 0.765560 0.180700
0.680759 0.767196 0.284869
0.682332 0.768769 0.384946
0.683869 0.770306 0.482809
0.685383 0.771820 0.579149
0.686878 0.773315 0.674330
0.688359 0.774796 0.768576
0.689827 0.776264 0.862040
0.691285 0.777722 0.954833
0.693661 0.872047 0.195239
0.695298 0.873683 0.299408
0.696870 0.875256 0.399484
0.698408 0.876793 0.497348
0.699921 0.878307 0.593688
0.701417 0.879802 0.688868
0.702897 0.881283 0.783114
0.704366 0.882751 0.876579
0.705824 0.884209 0.969372
0.707745 0.975204 0.209323
0.709382 0.976841 0.313492
0.710954 0.978413 0.413568
0.712492 0.979951 0.511431
0.714005 0.981464 0.607771
0.715501 0.982960 0.702952
0.716981 0.984440 0.797198
0.718450 0.985909 0.890662
0.719908 0.987367 0.983456
0.684784 0.100842 0.093708
0.686421 0.102479 0.197876
0.687993 0.104051 0.297953
0.689530 0.105589 0.395816
0.691044 0.107102 0.492156
0.692539 0.108598 0.587337
0.694020 0.110078 0.681583
0.695489 0.111547 0.775047
0.696947 0.113005 0.867840
0.700932 0.219116 0.109855
0.702568 0.220753 0.214024
0.704141 0.222325 0.314101
0.705678 0.223863 0.411964
0.707192 0.225376 0.508304
0.708687 0.226872 0.603485
0.710168 0.228352 0.697731
0.711636 0.229821 0.791195
0.713094 0.231279 0.883988
0.716478 0.332986 0.125402
0.718115 0.334622 0.229571
0.719687 0.336194 0.329647
0.721225 0.337732 0.427510
0.722738 0.339246 0.523850
0.724234 0.340741 0.619031
0.725714 0.342222 0.713277
0.727183 0.343690 0.806741
0.728641 0.345148 0.899535
0.731690 0.444406 0.140614
0.733327 0.446043 0.244783
0.734899 0.447615 0.344859
0.736437 0.449153 0.442723
0.737950 0.450667 0.539063
0.739446 0.452162 0.634243
0.740927 0.453643 0.728489
0.742395 0.455111 0.821954
0.743853 0.456569 0.914747
0.746670 0.554127 0.155594
0.748307 0.555763 0.259763
0.749879 0.557336 0.359839
0.751417 0.558873 0.457703
0.752930 0.560387 0.554043
0.754426 0.561882 0.649223
0.755907 0.563363 0.743469
0.757375 0.564831 0.836934
0.758833 0.566289 0.929727
0.761473 0.662546 0.170396
0.763109 0.664183 0.274565
0.764682 0.665755 0.374642
0.766219 0.667293 0.472505
0.767733 0.668807 0.568845
0.769228 0.670302 0.664026
0.770709 0.671783 0.758272
0.772177 0.673251 0.851736
0.773635 0.674709 0.944529
0.776132 0.769915 0.185055
0.777768 0.771551 0.289224
0.779341 0.773124 0.389301
0.780878 0.774661 0.487164
0.782392 0.776175 0.583504
0.783887 0.777670 0.678684
0.785368 0.779151 0.772931
0.786836 0.780619 0.866395
0.788294 0.782077 0.959188
0.790670 0.876402 0.199594
0.792307 0.878038 0.303762
0.793879 0.879611 0.403839
0.795417 0.881148 0.501702
0.796930 0.882662 0.598042
0.798426 0.884157 0.693223
0.799906 0.885638 0.787469
0.801375 0.887106 0.880933
0.802833 0.888564 0.973727
0.804754 0.979559 0.213678
0.806391 0.981196 0.317846
0.807963 0.982768 0.417923
0.809501 0.984305 0.515786
0.811014 0.985819 0.612126
0.812510 0.987314 0.707307
0.813990 0.988795 0.801553
0.815459 0.990264 0.895017
0.816917 0.991721 0.987811
0.781005 0.105162 0.098027
0.782641 0.106798 0.202196
0.784214 0.108371 0.302272
0.785751 0.109908 0.400136
0.787265 0.111422 0.496476
0.788760 0.112917 0.591656
0.790241 0.114398 0.685902
0.791709 0.115866 0.779367
0.793167 0.117324 0.872160
0.797153 0.223436 0.114175
0.798789 0.225072 0.218344
0.800362 0.226645 0.318420
0.801899 0.228182 0.416284
0.803413 0.229696 0.512624
0.804908 0.231191 0.607804
0.806389 0.232672 0.702050
0.807857 0.234140 0.795515
0.809315 0.235598 0.888308
0.812699 0.337305 0.129721
0.814336 0.338942 0.233890
0.815908 0.340514 0.333967
0.817446 0.342052 0.431830
0.818959 0.343565 0.528170
0.820455 0.345061 0.623351
0.821935 0.346541 0.717597
0.823404 0.348010 0.811061
0.824862 0.349468 0.903854
0.827911 0.448726 0.144933
0.829548 0.450363 0.249102
0.831120 0.451935 0.349179
0.832658 0.453472 0.447042
0.834171 0.454986 0.543382
0.835667 0.456481 0.638563
0.837147 0.457962 0.732809
0.838616 0.459431 0.826273
0.840074 0.460888 0.919066
0.842891 0.558446 0.159913
0.844528 0.560083 0.264082
0.846100 0.561655 0.364159
0.847638 0.563193 0.462022
0.849151 0.564706 0.558362
0.850647 0.566202 0.653543
0.852127 0.567683 0.747789
0.853596 0.569151 0.841253
0.855054 0.570609 0.934046
0.857694 0.666866 0.174716
0.859330 0.668503 0.278885
0.860903 0.670075 0.378961
0.862440 0.671612 0.476825
0.863954 0.673126 0.573165
0.865449 0.674621 0.668345
0.866930 0.676102 0.762591
0.868398 0.677571 0.856056
0.869856 0.679029 0.948849
0.872352 0.774234 0.189375
0.873989 0.775871 0.293543
0.875561 0.777443 0.393620
0.877099 0.778981 0.491483
0.878613 0.780494 0.587823
0.880108 0.781990 0.683004
0.881589 0.783470 0.777250
0.883057 0.784939 0.870714
0.884515 0.786397 0.963508
0.886891 0.880721 0.203913
0.888528 0.882358 0.308082
0.890100 0.883930 0.408159
0.891637 0.885468 0.506022
0.893151 0.886981 0.602362
0.894646 0.888477 0.697542
0.896127 0.889957 0.791789
0.897596 0.891426 0.885253
0.899054 0.892884 0.978046
0.900975 0.983878 0.217997
0.902612 0.985515 0.322166
0.904184 0.987087 0.422243
0.905721 0.988625 0.520106
0.907235 0.990139 0.616446
0.908730 0.991634 0.711626
0.910211 0.993115 0.805872
0.911680 0.994583 0.899337
0.913137 0.996041 0.992130
0.867805 0.109058 0.101924
0.869442 0.110695 0.206092
0.871014 0.112267 0.306169
0.872551 0.113805 0.404032
0.874065 0.115318 0.500372
0.875560 0.116814 0.595553
0.877041 0.118295 0.689799
0.878510 0.119763 0.783263
0.879967 0.121221 0.876057
0.883953 0.227332 0.118071
0.885589 0.228969 0.222240
0.887162 0.230541 0.322317
0.888699 0.232079 0.420180
0.890213 0.233592 0.516520
0.891708 0.235088 0.611701
0.893189 0.236569 0.705947
0.894657 0.238037 0.799411
0.896115 0.239495 0.892204
0.899499 0.341202 0.133618
0.901136 0.342838 0.237787
0.902708 0.344411 0.337863
0.904246 0.345948 0.435727
0.905759 0.347462 0.532067
0.907255 0.348957 0.627247
0.908735 0.350438 0.721493
0.910204 0.351906 0.814958
0.911662 0.353364 0.907751
0.914711 0.452623 0.148830
0.916348 0.454259 0.252999
0.917920 0.455831 0.353075
0.919458 0.457369 0.450939
0.920971 0.458883 0.547279
0.922467 0.460378 0.642459
0.923948 0.461859 0.736705
0.925416 0.463327 0.830170
0.926874 0.464785 0.922963
0.929691 0.562343 0.163810
0.931328 0.563980 0.267979
0.932900 0.565552 0.368055
0.934438 0.567089 0.465919
0.935951 0.568603 0.562259
0.937447 0.570098 0.657439
0.938928 0.571579 0.751685
0.940396 0.573048 0.845150
0.941854 0.574505 0.937943
0.944494 0.670763 0.178612
0.946130 0.672399 0.282781
0.947703 0.673972 0.382858
0.949240 0.675509 0.480721
0.950754 0.677023 0.577061
0.952249 0.678518 0.672242
0.953730 0.679999 0.766488
0.955198 0.681467 0.859952
0.956656 0.682925 0.952745
0.959153 0.778131 0.193271
0.960789 0.779767 0.297440
0.962361 0.781340 0.397517
0.963899 0.782877 0.495380
0.965413 0.784391 0.591720
0.966908 0.785886 0.686901
0.968389 0.787367 0.781147
0.969857 0.788835 0.874611
0.971315 0.790293 0.967404
0.973691 0.884618 0.207810
0.975328 0.886254 0.311979
0.976900 0.887827 0.412055
0.978438 0.889364 0.509918
0.979951 0.890878 0.606259
0.981447 0.892373 0.701439
0.982927 0.893854 0.795685
0.984396 0.895322 0.889150
0.985854 0.896780 0.981943
0.987775 0.987775 0.221894
0.989412 0.989412 0.326062
0.990984 0.990984 0.426139
0.992522 0.992522 0.524002
0.994035 0.994035 0.620342
0.995531 0.995531 0.715523
0.997011 0.997011 0.809769
0.998480 0.998480 0.903233
0.999938 0.999938 0.996027
