skills/promo-director/assets/grade/luts/trailer_punch_v19.cube
TITLE "trailer_punch_v19"
LUT_3D_SIZE 5
DOMAIN_MIN 0.0 0.0 0.0
DOMAIN_MAX 1.0 1.0 1.0
0.000000 0.000000 0.000000
0.000000 0.000000 0.211312
0.000000 0.000000 0.548726
0.000000 0.000000 0.902758
0.000000 0.000000 1.000000
0.000000 0.185508 0.000000
0.000000 0.182611 0.182611
0.000000 0.177985 0.520025
0.000000 0.173130 0.874058
0.000000 0.168864 1.000000
0.000000 0.481721 0.000000
0.000000 0.478823 0.136783
0.000000 0.474197 0.474197
0.000000 0.469343 0.828229
0.000000 0.465077 1.000000
0.000000 0.792522 0.000000
0.000000 0.789624 0.088697
0.000000 0.784998 0.426111
0.000000 0.780144 0.780144
0.000000 0.775878 1.000000
0.000000 1.000000 0.000000
0.000000 1.000000 0.046440
0.000000 1.000000 0.383854
0.000000 1.000000 0.737886
0.000000 1.000000 1.000000
0.205678 0.000000 0.000000
0.202780 0.000000 0.202780
0.198154 0.000000 0.540194
0.193300 0.000000 0.894227
0.189034 0.000000 1.000000
0.176977 0.176977 0.000000
0.174079 0.174079 0.174079
0.169453 0.169453 0.511494
0.164599 0.164599 0.865526
0.160333 0.160333 1.000000
0.131148 0.473189 0.000000
0.128251 0.470292 0.128251
0.123625 0.465665 0.465665
0.118770 0.460811 0.819697
0.114504 0.456545 1.000000
0.083063 0.783990 0.000000
0.080165 0.781093 0.080165
0.075539 0.776466 0.417580
0.070685 0.771612 0.771612
0.066419 0.767346 1.000000
0.040805 1.000000 0.000000
0.037908 1.000000 0.037908
0.033281 1.000000 0.375322
0.028427 1.000000 0.729354
0.024161 1.000000 1.000000
0.534095 0.000000 0.000000
0.531198 0.000000 0.189157
0.526572 0.000000 0.526572
0.521717 0.000000 0.880604
0.517451 0.000000 1.000000
0.505394 0.163354 0.000000
0.502497 0.160456 0.160456
0.497871 0.155830 0.497871
0.493016 0.150976 0.851903
0.488750 0.146710 1.000000
0.459566 0.459566 0.000000
0.456669 0.456669 0.114628
0.452042 0.452042 0.452042
0.447188 0.447188 0.806075
0.442922 0.442922 1.000000
0.411481 0.770367 0.000000
0.408583 0.767470 0.066543
0.403957 0.762843 0.403957
0.399102 0.757989 0.757989
0.394837 0.753723 1.000000
0.369223 1.000000 0.000000
0.366326 1.000000 0.024285
0.361699 1.000000 0.361699
0.356845 1.000000 0.715731
0.352579 1.000000 1.000000
0.878688 0.000000 0.000000
0.875791 0.000000 0.174864
0.871164 0.000000 0.512278
0.866310 0.000000 0.866310
0.862044 0.000000 1.000000
0.849987 0.149060 0.000000
0.847090 0.146163 0.146163
0.842463 0.141536 0.483577
0.837609 0.136682 0.837609
0.833343 0.132416 1.000000
0.804159 0.445272 0.000000
0.801261 0.442375 0.100334
0.796635 0.437748 0.437748
0.791781 0.432894 0.791781
0.787515 0.428628 1.000000
0.756073 0.756073 0.000000
0.753176 0.753176 0.052249
0.748549 0.748549 0.389663
0.743695 0.743695 0.743695
0.739429 0.739429 1.000000
0.713816 1.000000 0.000000
0.710918 1.000000 0.009991
0.706292 1.000000 0.347405
0.701438 1.000000 0.701438
0.697172 1.000000 1.000000
1.000000 0.000000 0.000000
1.000000 0.000000 0.162302
1.000000 0.000000 0.499716
1.000000 0.000000 0.853749
1.000000 0.000000 1.000000
1.000000 0.136499 0.000000
1.000000 0.133601 0.133601
1.000000 0.128975 0.471015
1.000000 0.124120 0.825048
1.000000 0.119855 1.000000
1.000000 0.432711 0.000000
1.000000 0.429813 0.087773
1.000000 0.425187 0.425187
1.000000 0.420333 0.779219
1.000000 0.416067 1.000000
1.000000 0.743512 0.000000
1.000000 0.740614 0.039687
1.000000 0.735988 0.377101
1.000000 0.731134 0.731134
1.000000 0.726868 1.000000
1.000000 1.000000 0.000000
1.000000 1.000000 0.000000
1.000000 1.000000 0.334844
1.000000 1.000000 0.688876
1.000000 1.000000 1.000000
