skills/promo-director/assets/grade/luts/trailer_punch_v19.cube
TITLE "trailer_punch_v19"
LUT_3D_SIZE 17
DOMAIN_MIN 0.0 0.0 0.0
DOMAIN_MAX 1.0 1.0 1.0
0.000000 0.000000 0.000000
0.000000 0.000000 0.000000
0.000000 0.000000 0.055118
0.000000 0.000000 0.131460
0.000000 0.000000 0.211312
0.000000 0.000000 0.293429
0.000000 0.000000 0.377241
0.000000 0.000000 0.462413
0.000000 0.000000 0.548726
0.000000 0.000000 0.636022
0.000000 0.000000 0.724184
0.000000 0.000000 0.813121
0.000000 0.000000 0.902758
0.000000 0.000000 0.993036
0.000000 0.000000 1.000000
0.000000 0.000000 1.000000
0.000000 0.000000 1.000000
0.000000 0.000000 0.000000
0.000000 0.000000 0.000000
0.000000 0.000000 0.055118
0.000000 0.000000 0.131460
0.000000 0.000000 0.211312
0.000000 0.000000 0.293429
0.000000 0.000000 0.377241
0.000000 0.000000 0.462413
0.000000 0.000000 0.548726
0.000000 0.000000 0.636022
0.000000 0.000000 0.724184
0.000000 0.000000 0.813121
0.000000 0.000000 0.902758
0.000000 0.000000 0.993036
0.000000 0.000000 1.000000
0.000000 0.000000 1.000000
0.000000 0.000000 1.000000
0.000000 0.048388 0.000000
0.000000 0.048388 0.000000
0.000000 0.047632 0.047632
0.000000 0.046585 0.123974
0.000000 0.045490 0.203826
0.000000 0.044364 0.285943
0.000000 0.043215 0.369755
0.000000 0.042047 0.454927
0.000000 0.040864 0.541240
0.000000 0.039667 0.628536
0.000000 0.038458 0.716698
0.000000 0.037239 0.805635
0.000000 0.036010 0.895272
0.000000 0.034772 0.985550
0.000000 0.033526 1.000000
0.000000 0.032273 1.000000
0.000000 0.031744 1.000000
0.000000 0.115407 0.000000
0.000000 0.115407 0.000000
0.000000 0.114652 0.037263
0.000000 0.113605 0.113605
0.000000 0.112510 0.193457
0.000000 0.111384 0.275574
0.000000 0.110235 0.359386
0.000000 0.109067 0.444558
0.000000 0.107884 0.530871
0.000000 0.106687 0.618167
0.000000 0.105478 0.706329
0.000000 0.104258 0.795266
0.000000 0.103029 0.884903
0.000000 0.101791 0.975181
0.000000 0.100546 1.000000
0.000000 0.099292 1.000000
0.000000 0.098763 1.000000
0.000000 0.185508 0.000000
0.000000 0.185508 0.000000
0.000000 0.184753 0.026417
0.000000 0.183706 0.102759
0.000000 0.182611 0.182611
0.000000 0.181485 0.264728
0.000000 0.180336 0.348540
0.000000 0.179168 0.433713
0.000000 0.177985 0.520025
0.000000 0.176788 0.607321
0.000000 0.175579 0.695484
0.000000 0.174359 0.784420
0.000000 0.173130 0.874058
0.000000 0.171893 0.964336
0.000000 0.170647 1.000000
0.000000 0.169393 1.000000
0.000000 0.168864 1.000000
0.000000 0.257598 0.000000
0.000000 0.257598 0.000000
0.000000 0.256843 0.015264
0.000000 0.255796 0.091606
0.000000 0.254701 0.171458
0.000000 0.253575 0.253575
0.000000 0.252426 0.337387
0.000000 0.251258 0.422559
0.000000 0.250075 0.508872
0.000000 0.248878 0.596168
0.000000 0.247669 0.684330
0.000000 0.246449 0.773267
0.000000 0.245220 0.862904
0.000000 0.243982 0.953182
0.000000 0.242737 1.000000
0.000000 0.241483 1.000000
0.000000 0.240954 1.000000
0.000000 0.331176 0.000000
0.000000 0.331176 0.000000
0.000000 0.330420 0.003881
0.000000 0.329373 0.080222
0.000000 0.328278 0.160074
0.000000 0.327152 0.242192
0.000000 0.326003 0.326003
0.000000 0.324835 0.411176
0.000000 0.323652 0.497488
0.000000 0.322455 0.584785
0.000000 0.321246 0.672947
0.000000 0.320027 0.761883
0.000000 0.318798 0.851521
0.000000 0.317560 0.941799
0.000000 0.316314 1.000000
0.000000 0.315061 1.000000
0.000000 0.314532 1.000000
0.000000 0.405948 0.000000
0.000000 0.405948 0.000000
0.000000 0.405192 0.000000
0.000000 0.404145 0.068654
0.000000 0.403050 0.148506
0.000000 0.401924 0.230623
0.000000 0.400775 0.314435
0.000000 0.399607 0.399607
0.000000 0.398424 0.485920
0.000000 0.397227 0.573216
0.000000 0.396018 0.661378
0.000000 0.394799 0.750315
0.000000 0.393570 0.839952
0.000000 0.392332 0.930230
0.000000 0.391086 1.000000
0.000000 0.389832 1.000000
0.000000 0.389304 1.000000
0.000000 0.481721 0.000000
0.000000 0.481721 0.000000
0.000000 0.480965 0.000000
0.000000 0.479918 0.056931
0.000000 0.478823 0.136783
0.000000 0.477697 0.218900
0.000000 0.476548 0.302712
0.000000 0.475380 0.387884
0.000000 0.474197 0.474197
0.000000 0.473000 0.561493
0.000000 0.471791 0.649655
0.000000 0.470572 0.738592
0.000000 0.469343 0.828229
0.000000 0.468105 0.918507
0.000000 0.466859 1.000000
0.000000 0.465605 1.000000
0.000000 0.465077 1.000000
0.000000 0.558357 0.000000
0.000000 0.558357 0.000000
0.000000 0.557601 0.000000
0.000000 0.556554 0.045074
0.000000 0.555460 0.124926
0.000000 0.554334 0.207043
0.000000 0.553184 0.290855
0.000000 0.552017 0.376027
0.000000 0.550833 0.462340
0.000000 0.549636 0.549636
0.000000 0.548427 0.637798
0.000000 0.547208 0.726735
0.000000 0.545979 0.816372
0.000000 0.544741 0.906650
0.000000 0.543495 0.997519
0.000000 0.542242 1.000000
0.000000 0.541713 1.000000
0.000000 0.635754 0.000000
0.000000 0.635754 0.000000
0.000000 0.634998 0.000000
0.000000 0.633951 0.033100
0.000000 0.632856 0.112951
0.000000 0.631730 0.195069
0.000000 0.630581 0.278881
0.000000 0.629413 0.364053
0.000000 0.628230 0.450366
0.000000 0.627033 0.537662
0.000000 0.625824 0.625824
0.000000 0.624605 0.714761
0.000000 0.623376 0.804398
0.000000 0.622138 0.894676
0.000000 0.620892 0.985544
0.000000 0.619638 1.000000
0.000000 0.619110 1.000000
0.000000 0.713830 0.000000
0.000000 0.713830 0.000000
0.000000 0.713074 0.000000
0.000000 0.712027 0.021020
0.000000 0.710933 0.100872
0.000000 0.709807 0.182989
0.000000 0.708657 0.266801
0.000000 0.707490 0.351973
0.000000 0.706306 0.438286
0.000000 0.705109 0.525582
0.000000 0.703900 0.613744
0.000000 0.702681 0.702681
0.000000 0.701452 0.792318
0.000000 0.700214 0.882596
0.000000 0.698968 0.973465
0.000000 0.697715 1.000000
0.000000 0.697186 1.000000
0.000000 0.792522 0.000000
0.000000 0.792522 0.000000
0.000000 0.791766 0.000000
0.000000 0.790719 0.008845
0.000000 0.789624 0.088697
0.000000 0.788498 0.170815
0.000000 0.787349 0.254626
0.000000 0.786181 0.339799
0.000000 0.784998 0.426111
0.000000 0.783801 0.513407
0.000000 0.782592 0.601570
0.000000 0.781373 0.690506
0.000000 0.780144 0.780144
0.000000 0.778906 0.870422
0.000000 0.777660 0.961290
0.000000 0.776406 1.000000
0.000000 0.775878 1.000000
0.000000 0.871776 0.000000
0.000000 0.871776 0.000000
0.000000 0.871020 0.000000
0.000000 0.869973 0.000000
0.000000 0.868878 0.076435
0.000000 0.867752 0.158553
0.000000 0.866603 0.242364
0.000000 0.865435 0.327537
0.000000 0.864252 0.413849
0.000000 0.863055 0.501146
0.000000 0.861846 0.589308
0.000000 0.860627 0.678244
0.000000 0.859398 0.767882
0.000000 0.858160 0.858160
0.000000 0.856914 0.949028
0.000000 0.855660 1.000000
0.000000 0.855132 1.000000
0.000000 0.951548 0.000000
0.000000 0.951548 0.000000
0.000000 0.950792 0.000000
0.000000 0.949745 0.000000
0.000000 0.948651 0.064093
0.000000 0.947525 0.146211
0.000000 0.946375 0.230023
0.000000 0.945208 0.315195
0.000000 0.944024 0.401508
0.000000 0.942827 0.488804
0.000000 0.941618 0.576966
0.000000 0.940399 0.665902
0.000000 0.939170 0.755540
0.000000 0.937932 0.845818
0.000000 0.936686 0.936686
0.000000 0.935433 1.000000
0.000000 0.934904 1.000000
0.000000 1.000000 0.000000
0.000000 1.000000 0.000000
0.000000 1.000000 0.000000
0.000000 1.000000 0.000000
0.000000 1.000000 0.051677
0.000000 1.000000 0.133795
0.000000 1.000000 0.217606
0.000000 1.000000 0.302779
0.000000 1.000000 0.389091
0.000000 1.000000 0.476387
0.000000 1.000000 0.564550
0.000000 1.000000 0.653486
0.000000 1.000000 0.743124
0.000000 1.000000 0.833402
0.000000 1.000000 0.924270
0.000000 1.000000 1.000000
0.000000 1.000000 1.000000
0.000000 1.000000 0.000000
0.000000 1.000000 0.000000
0.000000 1.000000 0.000000
0.000000 1.000000 0.000000
0.000000 1.000000 0.046440
0.000000 1.000000 0.128557
0.000000 1.000000 0.212369
0.000000 1.000000 0.297541
0.000000 1.000000 0.383854
0.000000 1.000000 0.471150
0.000000 1.000000 0.559312
0.000000 1.000000 0.648249
0.000000 1.000000 0.737886
0.000000 1.000000 0.828164
0.000000 1.000000 0.919032
0.000000 1.000000 1.000000
0.000000 1.000000 1.000000
0.000000 0.000000 0.000000
0.000000 0.000000 0.000000
0.000000 0.000000 0.055118
0.000000 0.000000 0.131460
0.000000 0.000000 0.211312
0.000000 0.000000 0.293429
0.000000 0.000000 0.377241
0.000000 0.000000 0.462413
0.000000 0.000000 0.548726
0.000000 0.000000 0.636022
0.000000 0.000000 0.724184
0.000000 0.000000 0.813121
0.000000 0.000000 0.902758
0.000000 0.000000 0.993036
0.000000 0.000000 1.000000
0.000000 0.000000 1.000000
0.000000 0.000000 1.000000
0.000000 0.000000 0.000000
0.000000 0.000000 0.000000
0.000000 0.000000 0.055118
0.000000 0.000000 0.131460
0.000000 0.000000 0.211312
0.000000 0.000000 0.293429
0.000000 0.000000 0.377241
0.000000 0.000000 0.462413
0.000000 0.000000 0.548726
0.000000 0.000000 0.636022
0.000000 0.000000 0.724184
0.000000 0.000000 0.813121
0.000000 0.000000 0.902758
0.000000 0.000000 0.993036
0.000000 0.000000 1.000000
0.000000 0.000000 1.000000
0.000000 0.000000 1.000000
0.000000 0.048388 0.000000
0.000000 0.048388 0.000000
0.000000 0.047632 0.047632
0.000000 0.046585 0.123974
0.000000 0.045490 0.203826
0.000000 0.044364 0.285943
0.000000 0.043215 0.369755
0.000000 0.042047 0.454927
0.000000 0.040864 0.541240
0.000000 0.039667 0.628536
0.000000 0.038458 0.716698
0.000000 0.037239 0.805635
0.000000 0.036010 0.895272
0.000000 0.034772 0.985550
0.000000 0.033526 1.000000
0.000000 0.032273 1.000000
0.000000 0.031744 1.000000
0.000000 0.115407 0.000000
0.000000 0.115407 0.000000
0.000000 0.114652 0.037263
0.000000 0.113605 0.113605
0.000000 0.112510 0.193457
0.000000 0.111384 0.275574
0.000000 0.110235 0.359386
0.000000 0.109067 0.444558
0.000000 0.107884 0.530871
0.000000 0.106687 0.618167
0.000000 0.105478 0.706329
0.000000 0.104258 0.795266
0.000000 0.103029 0.884903
0.000000 0.101791 0.975181
0.000000 0.100546 1.000000
0.000000 0.099292 1.000000
0.000000 0.098763 1.000000
0.000000 0.185508 0.000000
0.000000 0.185508 0.000000
0.000000 0.184753 0.026417
0.000000 0.183706 0.102759
0.000000 0.182611 0.182611
0.000000 0.181485 0.264728
0.000000 0.180336 0.348540
0.000000 0.179168 0.433713
0.000000 0.177985 0.520025
0.000000 0.176788 0.607321
0.000000 0.175579 0.695484
0.000000 0.174359 0.784420
0.000000 0.173130 0.874058
0.000000 0.171893 0.964336
0.000000 0.170647 1.000000
0.000000 0.169393 1.000000
0.000000 0.168864 1.000000
0.000000 0.257598 0.000000
0.000000 0.257598 0.000000
0.000000 0.256843 0.015264
0.000000 0.255796 0.091606
0.000000 0.254701 0.171458
0.000000 0.253575 0.253575
0.000000 0.252426 0.337387
0.000000 0.251258 0.422559
0.000000 0.250075 0.508872
0.000000 0.248878 0.596168
0.000000 0.247669 0.684330
0.000000 0.246449 0.773267
0.000000 0.245220 0.862904
0.000000 0.243982 0.953182
0.000000 0.242737 1.000000
0.000000 0.241483 1.000000
0.000000 0.240954 1.000000
0.000000 0.331176 0.000000
0.000000 0.331176 0.000000
0.000000 0.330420 0.003881
0.000000 0.329373 0.080222
0.000000 0.328278 0.160074
0.000000 0.327152 0.242192
0.000000 0.326003 0.326003
0.000000 0.324835 0.411176
0.000000 0.323652 0.497488
0.000000 0.322455 0.584785
0.000000 0.321246 0.672947
0.000000 0.320027 0.761883
0.000000 0.318798 0.851521
0.000000 0.317560 0.941799
0.000000 0.316314 1.000000
0.000000 0.315061 1.000000
0.000000 0.314532 1.000000
0.000000 0.405948 0.000000
0.000000 0.405948 0.000000
0.000000 0.405192 0.000000
0.000000 0.404145 0.068654
0.000000 0.403050 0.148506
0.000000 0.401924 0.230623
0.000000 0.400775 0.314435
0.000000 0.399607 0.399607
0.000000 0.398424 0.485920
0.000000 0.397227 0.573216
0.000000 0.396018 0.661378
0.000000 0.394799 0.750315
0.000000 0.393570 0.839952
0.000000 0.392332 0.930230
0.000000 0.391086 1.000000
0.000000 0.389832 1.000000
0.000000 0.389304 1.000000
0.000000 0.481721 0.000000
0.000000 0.481721 0.000000
0.000000 0.480965 0.000000
0.000000 0.479918 0.056931
0.000000 0.478823 0.136783
0.000000 0.477697 0.218900
0.000000 0.476548 0.302712
0.000000 0.475380 0.387884
0.000000 0.474197 0.474197
0.000000 0.473000 0.561493
0.000000 0.471791 0.649655
0.000000 0.470572 0.738592
0.000000 0.469343 0.828229
0.000000 0.468105 0.918507
0.000000 0.466859 1.000000
0.000000 0.465605 1.000000
0.000000 0.465077 1.000000
0.000000 0.558357 0.000000
0.000000 0.558357 0.000000
0.000000 0.557601 0.000000
0.000000 0.556554 0.045074
0.000000 0.555460 0.124926
0.000000 0.554334 0.207043
0.000000 0.553184 0.290855
0.000000 0.552017 0.376027
0.000000 0.550833 0.462340
0.000000 0.549636 0.549636
0.000000 0.548427 0.637798
0.000000 0.547208 0.726735
0.000000 0.545979 0.816372
0.000000 0.544741 0.906650
0.000000 0.543495 0.997519
0.000000 0.542242 1.000000
0.000000 0.541713 1.000000
0.000000 0.635754 0.000000
0.000000 0.635754 0.000000
0.000000 0.634998 0.000000
0.000000 0.633951 0.033100
0.000000 0.632856 0.112951
0.000000 0.631730 0.195069
0.000000 0.630581 0.278881
0.000000 0.629413 0.364053
0.000000 0.628230 0.450366
0.000000 0.627033 0.537662
0.000000 0.625824 0.625824
0.000000 0.624605 0.714761
0.000000 0.623376 0.804398
0.000000 0.622138 0.894676
0.000000 0.620892 0.985544
0.000000 0.619638 1.000000
0.000000 0.619110 1.000000
0.000000 0.713830 0.000000
0.000000 0.713830 0.000000
0.000000 0.713074 0.000000
0.000000 0.712027 0.021020
0.000000 0.710933 0.100872
0.000000 0.709807 0.182989
0.000000 0.708657 0.266801
0.000000 0.707490 0.351973
0.000000 0.706306 0.438286
0.000000 0.705109 0.525582
0.000000 0.703900 0.613744
0.000000 0.702681 0.702681
0.000000 0.701452 0.792318
0.000000 0.700214 0.882596
0.000000 0.698968 0.973465
0.000000 0.697715 1.000000
0.000000 0.697186 1.000000
0.000000 0.792522 0.000000
0.000000 0.792522 0.000000
0.000000 0.791766 0.000000
0.000000 0.790719 0.008845
0.000000 0.789624 0.088697
0.000000 0.788498 0.170815
0.000000 0.787349 0.254626
0.000000 0.786181 0.339799
0.000000 0.784998 0.426111
0.000000 0.783801 0.513407
0.000000 0.782592 0.601570
0.000000 0.781373 0.690506
0.000000 0.780144 0.780144
0.000000 0.778906 0.870422
0.000000 0.777660 0.961290
0.000000 0.776406 1.000000
0.000000 0.775878 1.000000
0.000000 0.871776 0.000000
0.000000 0.871776 0.000000
0.000000 0.871020 0.000000
0.000000 0.869973 0.000000
0.000000 0.868878 0.076435
0.000000 0.867752 0.158553
0.000000 0.866603 0.242364
0.000000 0.865435 0.327537
0.000000 0.864252 0.413849
0.000000 0.863055 0.501146
0.000000 0.861846 0.589308
0.000000 0.860627 0.678244
0.000000 0.859398 0.767882
0.000000 0.858160 0.858160
0.000000 0.856914 0.949028
0.000000 0.855660 1.000000
0.000000 0.855132 1.000000
0.000000 0.951548 0.000000
0.000000 0.951548 0.000000
0.000000 0.950792 0.000000
0.000000 0.949745 0.000000
0.000000 0.948651 0.064093
0.000000 0.947525 0.146211
0.000000 0.946375 0.230023
0.000000 0.945208 0.315195
0.000000 0.944024 0.401508
0.000000 0.942827 0.488804
0.000000 0.941618 0.576966
0.000000 0.940399 0.665902
0.000000 0.939170 0.755540
0.000000 0.937932 0.845818
0.000000 0.936686 0.936686
0.000000 0.935433 1.000000
0.000000 0.934904 1.000000
0.000000 1.000000 0.000000
0.000000 1.000000 0.000000
0.000000 1.000000 0.000000
0.000000 1.000000 0.000000
0.000000 1.000000 0.051677
0.000000 1.000000 0.133795
0.000000 1.000000 0.217606
0.000000 1.000000 0.302779
0.000000 1.000000 0.389091
0.000000 1.000000 0.476387
0.000000 1.000000 0.564550
0.000000 1.000000 0.653486
0.000000 1.000000 0.743124
0.000000 1.000000 0.833402
0.000000 1.000000 0.924270
0.000000 1.000000 1.000000
0.000000 1.000000 1.000000
0.000000 1.000000 0.000000
0.000000 1.000000 0.000000
0.000000 1.000000 0.000000
0.000000 1.000000 0.000000
0.000000 1.000000 0.046440
0.000000 1.000000 0.128557
0.000000 1.000000 0.212369
0.000000 1.000000 0.297541
0.000000 1.000000 0.383854
0.000000 1.000000 0.471150
0.000000 1.000000 0.559312
0.000000 1.000000 0.648249
0.000000 1.000000 0.737886
0.000000 1.000000 0.828164
0.000000 1.000000 0.919032
0.000000 1.000000 1.000000
0.000000 1.000000 1.000000
0.053649 0.000000 0.000000
0.053649 0.000000 0.000000
0.052893 0.000000 0.052893
0.051846 0.000000 0.129235
0.050751 0.000000 0.209087
0.049625 0.000000 0.291204
0.048476 0.000000 0.375016
0.047308 0.000000 0.460188
0.046125 0.000000 0.546501
0.044928 0.000000 0.633797
0.043719 0.000000 0.721959
0.042500 0.000000 0.810896
0.041271 0.000000 0.900533
0.040033 0.000000 0.990811
0.038787 0.000000 1.000000
0.037533 0.000000 1.000000
0.037005 0.000000 1.000000
0.053649 0.000000 0.000000
0.053649 0.000000 0.000000
0.052893 0.000000 0.052893
0.051846 0.000000 0.129235
0.050751 0.000000 0.209087
0.049625 0.000000 0.291204
0.048476 0.000000 0.375016
0.047308 0.000000 0.460188
0.046125 0.000000 0.546501
0.044928 0.000000 0.633797
0.043719 0.000000 0.721959
0.042500 0.000000 0.810896
0.041271 0.000000 0.900533
0.040033 0.000000 0.990811
0.038787 0.000000 1.000000
0.037533 0.000000 1.000000
0.037005 0.000000 1.000000
0.046162 0.046162 0.000000
0.046162 0.046162 0.000000
0.045407 0.045407 0.045407
0.044360 0.044360 0.121748
0.043265 0.043265 0.201600
0.042139 0.042139 0.283718
0.040990 0.040990 0.367529
0.039822 0.039822 0.452702
0.038639 0.038639 0.539014
0.037442 0.037442 0.626311
0.036233 0.036233 0.714473
0.035013 0.035013 0.803409
0.033784 0.033784 0.893047
0.032547 0.032547 0.983325
0.031301 0.031301 1.000000
0.030047 0.030047 1.000000
0.029518 0.029518 1.000000
0.035794 0.113182 0.000000
0.035794 0.113182 0.000000
0.035038 0.112426 0.035038
0.033991 0.111380 0.111380
0.032896 0.110285 0.191231
0.031770 0.109159 0.273349
0.030621 0.108010 0.357160
0.029453 0.106842 0.442333
0.028270 0.105658 0.528645
0.027073 0.104461 0.615942
0.025864 0.103252 0.704104
0.024645 0.102033 0.793040
0.023415 0.100804 0.882678
0.022178 0.099566 0.972956
0.020932 0.098320 1.000000
0.019678 0.097067 1.000000
0.019150 0.096538 1.000000
0.024948 0.183283 0.000000
0.024948 0.183283 0.000000
0.024192 0.182527 0.024192
0.023145 0.181481 0.100534
0.022050 0.180386 0.180386
0.020925 0.179260 0.262503
0.019775 0.178111 0.346315
0.018608 0.176943 0.431487
0.017424 0.175759 0.517800
0.016227 0.174562 0.605096
0.015018 0.173353 0.693258
0.013799 0.172134 0.782195
0.012570 0.170905 0.871832
0.011332 0.169667 0.962110
0.010086 0.168421 1.000000
0.008833 0.167168 1.000000
0.008304 0.166639 1.000000
0.013794 0.255373 0.000000
0.013794 0.255373 0.000000
0.013039 0.254617 0.013039
0.011992 0.253571 0.089380
0.010897 0.252476 0.169232
0.009771 0.251350 0.251350
0.008622 0.250201 0.335161
0.007454 0.249033 0.420334
0.006271 0.247849 0.506646
0.005074 0.246652 0.593943
0.003865 0.245443 0.682105
0.002645 0.244224 0.771041
0.001416 0.242995 0.860679
0.000179 0.241757 0.950957
0.000000 0.240511 1.000000
0.000000 0.239258 1.000000
0.000000 0.238729 1.000000
0.002411 0.328950 0.000000
0.002411 0.328950 0.000000
0.001655 0.328195 0.001655
0.000608 0.327148 0.077997
0.000000 0.326053 0.157849
0.000000 0.324927 0.239966
0.000000 0.323778 0.323778
0.000000 0.322610 0.408950
0.000000 0.321427 0.495263
0.000000 0.320230 0.582559
0.000000 0.319021 0.670721
0.000000 0.317801 0.759658
0.000000 0.316572 0.849295
0.000000 0.315335 0.939573
0.000000 0.314089 1.000000
0.000000 0.312835 1.000000
0.000000 0.312306 1.000000
0.000000 0.403722 0.000000
0.000000 0.403722 0.000000
0.000000 0.402966 0.000000
0.000000 0.401920 0.066429
0.000000 0.400825 0.146280
0.000000 0.399699 0.228398
0.000000 0.398550 0.312210
0.000000 0.397382 0.397382
0.000000 0.396198 0.483695
0.000000 0.395002 0.570991
0.000000 0.393793 0.659153
0.000000 0.392573 0.748090
0.000000 0.391344 0.837727
0.000000 0.390106 0.928005
0.000000 0.388860 1.000000
0.000000 0.387607 1.000000
0.000000 0.387078 1.000000
0.000000 0.479495 0.000000
0.000000 0.479495 0.000000
0.000000 0.478739 0.000000
0.000000 0.477693 0.054705
0.000000 0.476598 0.134557
0.000000 0.475472 0.216675
0.000000 0.474323 0.300486
0.000000 0.473155 0.385659
0.000000 0.471971 0.471971
0.000000 0.470774 0.559268
0.000000 0.469566 0.647430
0.000000 0.468346 0.736366
0.000000 0.467117 0.826004
0.000000 0.465879 0.916282
0.000000 0.464633 1.000000
0.000000 0.463380 1.000000
0.000000 0.462851 1.000000
0.000000 0.556132 0.000000
0.000000 0.556132 0.000000
0.000000 0.555376 0.000000
0.000000 0.554329 0.042849
0.000000 0.553234 0.122700
0.000000 0.552108 0.204818
0.000000 0.550959 0.288630
0.000000 0.549791 0.373802
0.000000 0.548608 0.460115
0.000000 0.547411 0.547411
0.000000 0.546202 0.635573
0.000000 0.544983 0.724510
0.000000 0.543754 0.814147
0.000000 0.542516 0.904425
0.000000 0.541270 0.995293
0.000000 0.540016 1.000000
0.000000 0.539488 1.000000
0.000000 0.633528 0.000000
0.000000 0.633528 0.000000
0.000000 0.632772 0.000000
0.000000 0.631726 0.030874
0.000000 0.630631 0.110726
0.000000 0.629505 0.192844
0.000000 0.628356 0.276655
0.000000 0.627188 0.361828
0.000000 0.626004 0.448140
0.000000 0.624807 0.535436
0.000000 0.623599 0.623599
0.000000 0.622379 0.712535
0.000000 0.621150 0.802173
0.000000 0.619912 0.892451
0.000000 0.618666 0.983319
0.000000 0.617413 1.000000
0.000000 0.616884 1.000000
0.000000 0.711605 0.000000
0.000000 0.711605 0.000000
0.000000 0.710849 0.000000
0.000000 0.709802 0.018795
0.000000 0.708707 0.098646
0.000000 0.707581 0.180764
0.000000 0.706432 0.264576
0.000000 0.705264 0.349748
0.000000 0.704081 0.436061
0.000000 0.702884 0.523357
0.000000 0.701675 0.611519
0.000000 0.700456 0.700456
0.000000 0.699227 0.790093
0.000000 0.697989 0.880371
0.000000 0.696743 0.971239
0.000000 0.695489 1.000000
0.000000 0.694961 1.000000
0.000000 0.790296 0.000000
0.000000 0.790296 0.000000
0.000000 0.789541 0.000000
0.000000 0.788494 0.006620
0.000000 0.787399 0.086472
0.000000 0.786273 0.168589
0.000000 0.785124 0.252401
0.000000 0.783956 0.337573
0.000000 0.782772 0.423886
0.000000 0.781576 0.511182
0.000000 0.780367 0.599344
0.000000 0.779147 0.688281
0.000000 0.777918 0.777918
0.000000 0.776680 0.868196
0.000000 0.775434 0.959064
0.000000 0.774181 1.000000
0.000000 0.773652 1.000000
0.000000 0.869550 0.000000
0.000000 0.869550 0.000000
0.000000 0.868795 0.000000
0.000000 0.867748 0.000000
0.000000 0.866653 0.074210
0.000000 0.865527 0.156327
0.000000 0.864378 0.240139
0.000000 0.863210 0.325311
0.000000 0.862027 0.411624
0.000000 0.860830 0.498920
0.000000 0.859621 0.587083
0.000000 0.858401 0.676019
0.000000 0.857172 0.765656
0.000000 0.855934 0.855934
0.000000 0.854689 0.946803
0.000000 0.853435 1.000000
0.000000 0.852906 1.000000
0.000000 0.949323 0.000000
0.000000 0.949323 0.000000
0.000000 0.948567 0.000000
0.000000 0.947520 0.000000
0.000000 0.946425 0.061868
0.000000 0.945299 0.143985
0.000000 0.944150 0.227797
0.000000 0.942982 0.312969
0.000000 0.941799 0.399282
0.000000 0.940602 0.486578
0.000000 0.939393 0.574741
0.000000 0.938174 0.663677
0.000000 0.936944 0.753314
0.000000 0.935707 0.843592
0.000000 0.934461 0.934461
0.000000 0.933207 1.000000
0.000000 0.932679 1.000000
0.000000 1.000000 0.000000
0.000000 1.000000 0.000000
0.000000 1.000000 0.000000
0.000000 1.000000 0.000000
0.000000 1.000000 0.049452
0.000000 1.000000 0.131569
0.000000 1.000000 0.215381
0.000000 1.000000 0.300553
0.000000 1.000000 0.386866
0.000000 1.000000 0.474162
0.000000 1.000000 0.562324
0.000000 1.000000 0.651261
0.000000 1.000000 0.740898
0.000000 1.000000 0.831176
0.000000 1.000000 0.922044
0.000000 1.000000 1.000000
0.000000 1.000000 1.000000
0.000000 1.000000 0.000000
0.000000 1.000000 0.000000
0.000000 1.000000 0.000000
0.000000 1.000000 0.000000
0.000000 1.000000 0.044214
0.000000 1.000000 0.126332
0.000000 1.000000 0.210143
0.000000 1.000000 0.295316
0.000000 1.000000 0.381628
0.000000 1.000000 0.468925
0.000000 1.000000 0.557087
0.000000 1.000000 0.646023
0.000000 1.000000 0.735661
0.000000 1.000000 0.825939
0.000000 1.000000 0.916807
0.000000 1.000000 1.000000
0.000000 1.000000 1.000000
0.127955 0.000000 0.000000
0.127955 0.000000 0.000000
0.127199 0.000000 0.049811
0.126152 0.000000 0.126152
0.125058 0.000000 0.206004
0.123932 0.000000 0.288122
0.122782 0.000000 0.371933
0.121615 0.000000 0.457106
0.120431 0.000000 0.543418
0.119234 0.000000 0.630715
0.118025 0.000000 0.718877
0.116806 0.000000 0.807813
0.115577 0.000000 0.897451
0.114339 0.000000 0.987729
0.113093 0.000000 1.000000
0.111840 0.000000 1.000000
0.111311 0.000000 1.000000
0.127955 0.000000 0.000000
