skills/promo-director/assets/grade/luts/trailer_punch_v19.cube
TITLE "trailer_punch_v19"
LUT_3D_SIZE 9
DOMAIN_MIN 0.0 0.0 0.0
DOMAIN_MAX 1.0 1.0 1.0
0.000000 0.000000 0.000000
0.000000 0.000000 0.055118
0.000000 0.000000 0.211312
0.000000 0.000000 0.377241
0.000000 0.000000 0.548726
0.000000 0.000000 0.724184
0.000000 0.000000 0.902758
0.000000 0.000000 1.000000
0.000000 0.000000 1.000000
0.000000 0.048388 0.000000
0.000000 0.047632 0.047632
0.000000 0.045490 0.203826
0.000000 0.043215 0.369755
0.000000 0.040864 0.541240
0.000000 0.038458 0.716698
0.000000 0.036010 0.895272
0.000000 0.033526 1.000000
0.000000 0.031744 1.000000
0.000000 0.185508 0.000000
0.000000 0.184753 0.026417
0.000000 0.182611 0.182611
0.000000 0.180336 0.348540
0.000000 0.177985 0.520025
0.000000 0.175579 0.695484
0.000000 0.173130 0.874058
0.000000 0.170647 1.000000
0.000000 0.168864 1.000000
0.000000 0.331176 0.000000
0.000000 0.330420 0.003881
0.000000 0.328278 0.160074
0.000000 0.326003 0.326003
0.000000 0.323652 0.497488
0.000000 0.321246 0.672947
0.000000 0.318798 0.851521
0.000000 0.316314 1.000000
0.000000 0.314532 1.000000
0.000000 0.481721 0.000000
0.000000 0.480965 0.000000
0.000000 0.478823 0.136783
0.000000 0.476548 0.302712
0.000000 0.474197 0.474197
0.000000 0.471791 0.649655
0.000000 0.469343 0.828229
0.000000 0.466859 1.000000
0.000000 0.465077 1.000000
0.000000 0.635754 0.000000
0.000000 0.634998 0.000000
0.000000 0.632856 0.112951
0.000000 0.630581 0.278881
0.000000 0.628230 0.450366
0.000000 0.625824 0.625824
0.000000 0.623376 0.804398
0.000000 0.620892 0.985544
0.000000 0.619110 1.000000
0.000000 0.792522 0.000000
0.000000 0.791766 0.000000
0.000000 0.789624 0.088697
0.000000 0.787349 0.254626
0.000000 0.784998 0.426111
0.000000 0.782592 0.601570
0.000000 0.780144 0.780144
0.000000 0.777660 0.961290
0.000000 0.775878 1.000000
0.000000 0.951548 0.000000
0.000000 0.950792 0.000000
0.000000 0.948651 0.064093
0.000000 0.946375 0.230023
0.000000 0.944024 0.401508
0.000000 0.941618 0.576966
0.000000 0.939170 0.755540
0.000000 0.936686 0.936686
0.000000 0.934904 1.000000
0.000000 1.000000 0.000000
0.000000 1.000000 0.000000
0.000000 1.000000 0.046440
0.000000 1.000000 0.212369
0.000000 1.000000 0.383854
0.000000 1.000000 0.559312
0.000000 1.000000 0.737886
0.000000 1.000000 0.919032
0.000000 1.000000 1.000000
0.053649 0.000000 0.000000
0.052893 0.000000 0.052893
0.050751 0.000000 0.209087
0.048476 0.000000 0.375016
0.046125 0.000000 0.546501
0.043719 0.000000 0.721959
0.041271 0.000000 0.900533
0.038787 0.000000 1.000000
0.037005 0.000000 1.000000
0.046162 0.046162 0.000000
0.045407 0.045407 0.045407
0.043265 0.043265 0.201600
0.040990 0.040990 0.367529
0.038639 0.038639 0.539014
0.036233 0.036233 0.714473
0.033784 0.033784 0.893047
0.031301 0.031301 1.000000
0.029518 0.029518 1.000000
0.024948 0.183283 0.000000
0.024192 0.182527 0.024192
0.022050 0.180386 0.180386
0.019775 0.178111 0.346315
0.017424 0.175759 0.517800
0.015018 0.173353 0.693258
0.012570 0.170905 0.871832
0.010086 0.168421 1.000000
0.008304 0.166639 1.000000
0.002411 0.328950 0.000000
0.001655 0.328195 0.001655
0.000000 0.326053 0.157849
0.000000 0.323778 0.323778
0.000000 0.321427 0.495263
0.000000 0.319021 0.670721
0.000000 0.316572 0.849295
0.000000 0.314089 1.000000
0.000000 0.312306 1.000000
0.000000 0.479495 0.000000
0.000000 0.478739 0.000000
0.000000 0.476598 0.134557
0.000000 0.474323 0.300486
0.000000 0.471971 0.471971
0.000000 0.469566 0.647430
0.000000 0.467117 0.826004
0.000000 0.464633 1.000000
0.000000 0.462851 1.000000
0.000000 0.633528 0.000000
0.000000 0.632772 0.000000
0.000000 0.630631 0.110726
0.000000 0.628356 0.276655
0.000000 0.626004 0.448140
0.000000 0.623599 0.623599
0.000000 0.621150 0.802173
0.000000 0.618666 0.983319
0.000000 0.616884 1.000000
0.000000 0.790296 0.000000
0.000000 0.789541 0.000000
0.000000 0.787399 0.086472
0.000000 0.785124 0.252401
0.000000 0.782772 0.423886
0.000000 0.780367 0.599344
0.000000 0.777918 0.777918
0.000000 0.775434 0.959064
0.000000 0.773652 1.000000
0.000000 0.949323 0.000000
0.000000 0.948567 0.000000
0.000000 0.946425 0.061868
0.000000 0.944150 0.227797
0.000000 0.941799 0.399282
0.000000 0.939393 0.574741
0.000000 0.936944 0.753314
0.000000 0.934461 0.934461
0.000000 0.932679 1.000000
0.000000 1.000000 0.000000
0.000000 1.000000 0.000000
0.000000 1.000000 0.044214
0.000000 1.000000 0.210143
0.000000 1.000000 0.381628
0.000000 1.000000 0.557087
0.000000 1.000000 0.735661
0.000000 1.000000 0.916807
0.000000 1.000000 1.000000
0.205678 0.000000 0.000000
0.204922 0.000000 0.046587
0.202780 0.000000 0.202780
0.200505 0.000000 0.368709
0.198154 0.000000 0.540194
0.195748 0.000000 0.715653
0.193300 0.000000 0.894227
0.190816 0.000000 1.000000
0.189034 0.000000 1.000000
0.198191 0.039856 0.000000
0.197436 0.039100 0.039100
0.195294 0.036959 0.195294
0.193019 0.034684 0.361223
0.190668 0.032332 0.532708
0.188262 0.029927 0.708167
0.185813 0.027478 0.886740
0.183330 0.024994 1.000000
0.181547 0.023212 1.000000
0.176977 0.176977 0.000000
0.176221 0.176221 0.017886
0.174079 0.174079 0.174079
0.171804 0.171804 0.340009
0.169453 0.169453 0.511494
0.167047 0.167047 0.686952
0.164599 0.164599 0.865526
0.162115 0.162115 1.000000
0.160333 0.160333 1.000000
0.154440 0.322644 0.000000
0.153684 0.321888 0.000000
0.151543 0.319747 0.151543
0.149267 0.317472 0.317472
0.146916 0.315120 0.488957
0.144510 0.312715 0.664415
0.142062 0.310266 0.842989
0.139578 0.307782 1.000000
0.137796 0.306000 1.000000
0.131148 0.473189 0.000000
0.130393 0.472433 0.000000
0.128251 0.470292 0.128251
0.125976 0.468016 0.294180
0.123625 0.465665 0.465665
0.121219 0.463259 0.641124
0.118770 0.460811 0.819697
0.116287 0.458327 1.000000
0.114504 0.456545 1.000000
0.107317 0.627222 0.000000
0.106561 0.626466 0.000000
0.104420 0.624325 0.104420
0.102145 0.622049 0.270349
0.099793 0.619698 0.441834
0.097388 0.617292 0.617292
0.094939 0.614844 0.795866
0.092455 0.612360 0.977013
0.090673 0.610578 1.000000
0.083063 0.783990 0.000000
0.082307 0.783234 0.000000
0.080165 0.781093 0.080165
0.077890 0.778818 0.246095
0.075539 0.776466 0.417580
0.073133 0.774060 0.593038
0.070685 0.771612 0.771612
0.068201 0.769128 0.952758
0.066419 0.767346 1.000000
0.058459 0.943016 0.000000
0.057703 0.942261 0.000000
0.055562 0.940119 0.055562
0.053287 0.937844 0.221491
0.050935 0.935493 0.392976
0.048530 0.933087 0.568434
0.046081 0.930638 0.747008
0.043597 0.928154 0.928154
0.041815 0.926372 1.000000
0.040805 1.000000 0.000000
0.040050 1.000000 0.000000
0.037908 1.000000 0.037908
0.035633 1.000000 0.203837
0.033281 1.000000 0.375322
0.030876 1.000000 0.550780
0.028427 1.000000 0.729354
0.025943 1.000000 0.910501
0.024161 1.000000 1.000000
0.367183 0.000000 0.000000
0.366427 0.000000 0.039887
0.364285 0.000000 0.196081
0.362010 0.000000 0.362010
0.359659 0.000000 0.533495
0.357253 0.000000 0.708954
0.354805 0.000000 0.887527
0.352321 0.000000 1.000000
0.350539 0.000000 1.000000
0.359696 0.033157 0.000000
0.358941 0.032401 0.032401
0.356799 0.030260 0.188595
0.354524 0.027984 0.354524
0.352173 0.025633 0.526009
0.349767 0.023227 0.701467
0.347318 0.020779 0.880041
0.344835 0.018295 1.000000
0.343052 0.016513 1.000000
0.338482 0.170277 0.000000
0.337726 0.169522 0.011187
0.335584 0.167380 0.167380
0.333309 0.165105 0.333309
0.330958 0.162754 0.504794
0.328552 0.160348 0.680253
0.326104 0.157899 0.858827
0.323620 0.155416 1.000000
0.321838 0.153633 1.000000
0.315945 0.315945 0.000000
0.315189 0.315189 0.000000
0.313047 0.313047 0.144843
0.310772 0.310772 0.310772
0.308421 0.308421 0.482257
0.306015 0.306015 0.657716
0.303567 0.303567 0.836290
0.301083 0.301083 1.000000
0.299301 0.299301 1.000000
0.292653 0.466490 0.000000
0.291898 0.465734 0.000000
0.289756 0.463592 0.121552
0.287481 0.461317 0.287481
0.285130 0.458966 0.458966
0.282724 0.456560 0.634424
0.280275 0.454112 0.812998
0.277792 0.451628 0.994144
0.276009 0.449846 1.000000
0.268822 0.620523 0.000000
0.268066 0.619767 0.000000
0.265925 0.617625 0.097721
0.263650 0.615350 0.263650
0.261298 0.612999 0.435135
0.258893 0.610593 0.610593
0.256444 0.608145 0.789167
0.253960 0.605661 0.970313
0.252178 0.603879 1.000000
0.244568 0.777291 0.000000
0.243812 0.776535 0.000000
0.241670 0.774393 0.073466
0.239395 0.772118 0.239395
0.237044 0.769767 0.410880
0.234638 0.767361 0.586339
0.232190 0.764913 0.764913
0.229706 0.762429 0.946059
0.227924 0.760647 1.000000
0.219964 0.936317 0.000000
0.219208 0.935561 0.000000
0.217067 0.933420 0.048862
0.214792 0.931145 0.214792
0.212440 0.928793 0.386277
0.210035 0.926387 0.561735
0.207586 0.923939 0.740309
0.205102 0.921455 0.921455
0.203320 0.919673 1.000000
0.202310 1.000000 0.000000
0.201554 1.000000 0.000000
0.199413 1.000000 0.031209
0.197138 1.000000 0.197138
0.194786 1.000000 0.368623
0.192381 1.000000 0.544081
0.189932 1.000000 0.722655
0.187448 1.000000 0.903801
0.185666 1.000000 1.000000
0.534095 0.000000 0.000000
0.533340 0.000000 0.032964
0.531198 0.000000 0.189157
0.528923 0.000000 0.355087
0.526572 0.000000 0.526572
0.524166 0.000000 0.702030
0.521717 0.000000 0.880604
0.519233 0.000000 1.000000
0.517451 0.000000 1.000000
0.526609 0.026233 0.000000
0.525853 0.025478 0.025478
0.523712 0.023336 0.181671
0.521437 0.021061 0.347600
0.519085 0.018709 0.519085
0.516679 0.016304 0.694544
0.514231 0.013855 0.873118
0.511747 0.011371 1.000000
0.509965 0.009589 1.000000
0.505394 0.163354 0.000000
0.504639 0.162598 0.004263
0.502497 0.160456 0.160456
0.500222 0.158181 0.326386
0.497871 0.155830 0.497871
0.495465 0.153424 0.673329
0.493016 0.150976 0.851903
0.490533 0.148492 1.000000
0.488750 0.146710 1.000000
0.482858 0.309021 0.000000
0.482102 0.308265 0.000000
0.479960 0.306124 0.137920
0.477685 0.303849 0.303849
0.475334 0.301497 0.475334
0.472928 0.299092 0.650792
0.470479 0.296643 0.829366
0.467996 0.294159 1.000000
0.466214 0.292377 1.000000
0.459566 0.459566 0.000000
0.458810 0.458810 0.000000
0.456669 0.456669 0.114628
0.454394 0.454394 0.280557
0.452042 0.452042 0.452042
0.449636 0.449636 0.627501
0.447188 0.447188 0.806075
0.444704 0.444704 0.987221
0.442922 0.442922 1.000000
0.435735 0.613599 0.000000
0.434979 0.612843 0.000000
0.432837 0.610702 0.090797
0.430562 0.608427 0.256726
0.428211 0.606075 0.428211
0.425805 0.603669 0.603669
0.423357 0.601221 0.782243
0.420873 0.598737 0.963390
0.419091 0.596955 1.000000
0.411481 0.770367 0.000000
0.410725 0.769611 0.000000
0.408583 0.767470 0.066543
0.406308 0.765195 0.232472
0.403957 0.762843 0.403957
0.401551 0.760438 0.579415
0.399102 0.757989 0.757989
0.396619 0.755505 0.939135
0.394837 0.753723 1.000000
0.386877 0.929393 0.000000
0.386121 0.928638 0.000000
0.383979 0.926496 0.041939
0.381704 0.924221 0.207868
0.379353 0.921870 0.379353
0.376947 0.919464 0.554811
0.374499 0.917015 0.733385
0.372015 0.914532 0.914532
0.370233 0.912749 1.000000
0.369223 1.000000 0.000000
0.368467 1.000000 0.000000
0.366326 1.000000 0.024285
0.364050 1.000000 0.190214
0.361699 1.000000 0.361699
0.359293 1.000000 0.537158
0.356845 1.000000 0.715731
0.354361 1.000000 0.896878
0.352579 1.000000 1.000000
0.704875 0.000000 0.000000
0.704120 0.000000 0.025880
0.701978 0.000000 0.182073
0.699703 0.000000 0.348002
0.697352 0.000000 0.519487
0.694946 0.000000 0.694946
0.692497 0.000000 0.873520
0.690014 0.000000 1.000000
0.688231 0.000000 1.000000
0.697389 0.019149 0.000000
0.696633 0.018393 0.018393
0.694492 0.016252 0.174587
0.692217 0.013977 0.340516
0.689865 0.011625 0.512001
0.687460 0.009220 0.687460
0.685011 0.006771 0.866033
0.682527 0.004287 1.000000
0.680745 0.002505 1.000000
0.676175 0.156270 0.000000
0.675419 0.155514 0.000000
0.673277 0.153372 0.153372
0.671002 0.151097 0.319302
0.668651 0.148746 0.490787
0.666245 0.146340 0.666245
0.663797 0.143892 0.844819
0.661313 0.141408 1.000000
0.659531 0.139626 1.000000
0.653638 0.301937 0.000000
0.652882 0.301181 0.000000
0.650740 0.299040 0.130836
0.648465 0.296765 0.296765
0.646114 0.294413 0.468250
0.643708 0.292008 0.643708
0.641260 0.289559 0.822282
0.638776 0.287075 1.000000
0.636994 0.285293 1.000000
0.630346 0.452482 0.000000
0.629590 0.451726 0.000000
0.627449 0.449585 0.107544
0.625174 0.447309 0.273473
0.622822 0.444958 0.444958
0.620417 0.442552 0.620417
0.617968 0.440104 0.798991
0.615484 0.437620 0.980137
0.613702 0.435838 1.000000
0.606515 0.606515 0.000000
0.605759 0.605759 0.000000
0.603618 0.603618 0.083713
0.601342 0.601342 0.249642
0.598991 0.598991 0.421127
0.596585 0.596585 0.596585
0.594137 0.594137 0.775159
0.591653 0.591653 0.956306
0.589871 0.589871 1.000000
0.582261 0.763283 0.000000
0.581505 0.762527 0.000000
0.579363 0.760386 0.059459
0.577088 0.758111 0.225388
0.574737 0.755759 0.396873
0.572331 0.753353 0.572331
0.569883 0.750905 0.750905
0.567399 0.748421 0.932051
0.565617 0.746639 1.000000
0.557657 0.922309 0.000000
0.556901 0.921554 0.000000
0.554760 0.919412 0.034855
0.552484 0.917137 0.200784
0.550133 0.914786 0.372269
0.547727 0.912380 0.547727
0.545279 0.909931 0.726301
0.542795 0.907448 0.907448
0.541013 0.905665 1.000000
0.540003 1.000000 0.000000
0.539247 1.000000 0.000000
0.537106 1.000000 0.017201
0.534831 1.000000 0.183130
0.532479 1.000000 0.354615
0.530073 1.000000 0.530073
0.527625 1.000000 0.708647
0.525141 1.000000 0.889794
0.523359 1.000000 1.000000
0.878688 0.000000 0.000000
0.877932 0.000000 0.018670
0.875791 0.000000 0.174864
0.873516 0.000000 0.340793
0.871164 0.000000 0.512278
0.868758 0.000000 0.687736
0.866310 0.000000 0.866310
0.863826 0.000000 1.000000
0.862044 0.000000 1.000000
0.871202 0.011939 0.000000
0.870446 0.011184 0.011184
0.868304 0.009042 0.167377
0.866029 0.006767 0.333306
0.863678 0.004416 0.504791
0.861272 0.002010 0.680250
0.858824 0.000000 0.858824
0.856340 0.000000 1.000000
0.854558 0.000000 1.000000
0.849987 0.149060 0.000000
0.849231 0.148304 0.000000
0.847090 0.146163 0.146163
0.844815 0.143887 0.312092
0.842463 0.141536 0.483577
0.840058 0.139130 0.659035
0.837609 0.136682 0.837609
0.835125 0.134198 1.000000
0.833343 0.132416 1.000000
0.827450 0.294727 0.000000
0.826694 0.293972 0.000000
0.824553 0.291830 0.123626
0.822278 0.289555 0.289555
0.819926 0.287204 0.461040
0.817521 0.284798 0.636498
0.815072 0.282349 0.815072
0.812588 0.279866 0.996218
0.810806 0.278083 1.000000
0.804159 0.445272 0.000000
0.803403 0.444516 0.000000
0.801261 0.442375 0.100334
0.798986 0.440100 0.266263
0.796635 0.437748 0.437748
0.794229 0.435343 0.613207
0.791781 0.432894 0.791781
0.789297 0.430410 0.972927
0.787515 0.428628 1.000000
0.780328 0.599305 0.000000
0.779572 0.598549 0.000000
0.777430 0.596408 0.076503
0.775155 0.594133 0.242432
0.772804 0.591781 0.413917
0.770398 0.589376 0.589376
0.767949 0.586927 0.767949
0.765466 0.584443 0.949096
0.763684 0.582661 1.000000
0.756073 0.756073 0.000000
0.755317 0.755317 0.000000
0.753176 0.753176 0.052249
0.750901 0.750901 0.218178
0.748549 0.748549 0.389663
0.746144 0.746144 0.565121
0.743695 0.743695 0.743695
0.741211 0.741211 0.924841
0.739429 0.739429 1.000000
0.731469 0.915100 0.000000
0.730714 0.914344 0.000000
0.728572 0.912202 0.027645
0.726297 0.909927 0.193574
0.723946 0.907576 0.365059
0.721540 0.905170 0.540518
0.719091 0.902721 0.719091
0.716608 0.900238 0.900238
0.714825 0.898456 1.000000
0.713816 1.000000 0.000000
0.713060 1.000000 0.000000
0.710918 1.000000 0.009991
0.708643 1.000000 0.175920
0.706292 1.000000 0.347405
0.703886 1.000000 0.522864
0.701438 1.000000 0.701438
0.698954 1.000000 0.882584
0.697172 1.000000 1.000000
1.000000 0.000000 0.000000
1.000000 0.000000 0.011356
1.000000 0.000000 0.167550
1.000000 0.000000 0.333479
1.000000 0.000000 0.504964
1.000000 0.000000 0.680422
1.000000 0.000000 0.858996
1.000000 0.000000 1.000000
1.000000 0.000000 1.000000
1.000000 0.004626 0.000000
1.000000 0.003870 0.003870
1.000000 0.001728 0.160064
1.000000 0.000000 0.325993
1.000000 0.000000 0.497478
1.000000 0.000000 0.672936
1.000000 0.000000 0.851510
1.000000 0.000000 1.000000
1.000000 0.000000 1.000000
1.000000 0.141746 0.000000
1.000000 0.140991 0.000000
1.000000 0.138849 0.138849
1.000000 0.136574 0.304778
1.000000 0.134223 0.476263
1.000000 0.131817 0.651721
1.000000 0.129368 0.830295
1.000000 0.126884 1.000000
1.000000 0.125102 1.000000
1.000000 0.287414 0.000000
1.000000 0.286658 0.000000
1.000000 0.284516 0.116312
0.998594 0.282241 0.282241
0.996243 0.279890 0.453726
0.993837 0.277484 0.629185
0.991389 0.275036 0.807758
0.988905 0.272552 0.988905
0.987123 0.270770 1.000000
0.980475 0.437958 0.000000
0.979719 0.437203 0.000000
0.977578 0.435061 0.093021
0.975303 0.432786 0.258950
0.972951 0.430435 0.430435
0.970545 0.428029 0.605893
0.968097 0.425580 0.784467
0.965613 0.423097 0.965613
0.963831 0.421314 1.000000
0.956644 0.591991 0.000000
0.955888 0.591236 0.000000
0.953746 0.589094 0.069189
0.951471 0.586819 0.235118
0.949120 0.584468 0.406603
0.946714 0.582062 0.582062
0.944266 0.579613 0.760636
0.941782 0.577130 0.941782
0.940000 0.575347 1.000000
0.932390 0.748760 0.000000
0.931634 0.748004 0.000000
0.929492 0.745862 0.044935
0.927217 0.743587 0.210864
0.924866 0.741236 0.382349
0.922460 0.738830 0.557808
0.920011 0.736381 0.736381
0.917528 0.733898 0.917528
0.915746 0.732116 1.000000
0.907786 0.907786 0.000000
0.907030 0.907030 0.000000
0.904888 0.904888 0.020331
0.902613 0.902613 0.186260
0.900262 0.900262 0.357745
0.897856 0.897856 0.533204
0.895408 0.895408 0.711778
0.892924 0.892924 0.892924
0.891142 0.891142 1.000000
0.890132 1.000000 0.000000
0.889376 1.000000 0.000000
0.887235 1.000000 0.002677
0.884959 1.000000 0.168607
0.882608 1.000000 0.340092
0.880202 1.000000 0.515550
0.877754 1.000000 0.694124
0.875270 1.000000 0.875270
0.873488 1.000000 1.000000
1.000000 0.000000 0.000000
1.000000 0.000000 0.006108
1.000000 0.000000 0.162302
1.000000 0.000000 0.328231
1.000000 0.000000 0.499716
1.000000 0.000000 0.675175
1.000000 0.000000 0.853749
1.000000 0.000000 1.000000
1.000000 0.000000 1.000000
1.000000 0.000000 0.000000
1.000000 0.000000 0.000000
1.000000 0.000000 0.154816
1.000000 0.000000 0.320745
1.000000 0.000000 0.492230
1.000000 0.000000 0.667688
1.000000 0.000000 0.846262
1.000000 0.000000 1.000000
1.000000 0.000000 1.000000
1.000000 0.136499 0.000000
1.000000 0.135743 0.000000
1.000000 0.133601 0.133601
1.000000 0.131326 0.299530
1.000000 0.128975 0.471015
1.000000 0.126569 0.646474
1.000000 0.124120 0.825048
1.000000 0.121637 1.000000
1.000000 0.119855 1.000000
1.000000 0.282166 0.000000
1.000000 0.281410 0.000000
1.000000 0.279269 0.111064
1.000000 0.276993 0.276993
1.000000 0.274642 0.448478
1.000000 0.272236 0.623937
1.000000 0.269788 0.802511
1.000000 0.267304 0.983657
1.000000 0.265522 1.000000
1.000000 0.432711 0.000000
1.000000 0.431955 0.000000
1.000000 0.429813 0.087773
1.000000 0.427538 0.253702
1.000000 0.425187 0.425187
1.000000 0.422781 0.600645
1.000000 0.420333 0.779219
1.000000 0.417849 0.960365
1.000000 0.416067 1.000000
1.000000 0.586744 0.000000
1.000000 0.585988 0.000000
1.000000 0.583846 0.063942
1.000000 0.581571 0.229871
1.000000 0.579220 0.401356
1.000000 0.576814 0.576814
1.000000 0.574366 0.755388
1.000000 0.571882 0.936534
1.000000 0.570100 1.000000
1.000000 0.743512 0.000000
1.000000 0.742756 0.000000
1.000000 0.740614 0.039687
1.000000 0.738339 0.205616
1.000000 0.735988 0.377101
1.000000 0.733582 0.552560
1.000000 0.731134 0.731134
1.000000 0.728650 0.912280
1.000000 0.726868 1.000000
1.000000 0.902538 0.000000
1.000000 0.901782 0.000000
1.000000 0.899641 0.015083
1.000000 0.897366 0.181013
1.000000 0.895014 0.352498
1.000000 0.892608 0.527956
1.000000 0.890160 0.706530
1.000000 0.887676 0.887676
1.000000 0.885894 1.000000
1.000000 1.000000 0.000000
1.000000 1.000000 0.000000
1.000000 1.000000 0.000000
1.000000 1.000000 0.163359
1.000000 1.000000 0.334844
1.000000 1.000000 0.510302
1.000000 1.000000 0.688876
1.000000 1.000000 0.870022
1.000000 1.000000 1.000000
