skills/promo-director/assets/grade/luts/vintage_fade_v18.cube
TITLE "vintage_fade_v18"
LUT_3D_SIZE 5
DOMAIN_MIN 0.0 0.0 0.0
DOMAIN_MAX 1.0 1.0 1.0
0.162006 0.162006 0.162006
0.166135 0.166135 0.315519
0.170131 0.170131 0.464069
0.174060 0.174060 0.610156
0.177945 0.177945 0.754586
0.202907 0.352290 0.202907
0.207036 0.356419 0.356419
0.211031 0.360415 0.504969
0.214960 0.364344 0.651057
0.218845 0.368228 0.795486
0.242485 0.536423 0.242485
0.246614 0.540552 0.395998
0.250610 0.544548 0.544548
0.254539 0.548477 0.690635
0.258424 0.552362 0.835065
0.281407 0.717504 0.281407
0.285536 0.721633 0.434920
0.289532 0.725628 0.583470
0.293461 0.729557 0.729557
0.297346 0.733442 0.873987
0.319888 0.896529 0.319888
0.324017 0.900658 0.473400
0.328013 0.904654 0.621951
0.331942 0.908583 0.768038
0.335826 0.912468 0.912468
0.323548 0.174164 0.174164
0.327677 0.178293 0.327677
0.331672 0.182289 0.476227
0.335601 0.186218 0.622314
0.339486 0.190103 0.766744
0.364448 0.364448 0.215065
0.368577 0.368577 0.368577
0.372573 0.372573 0.517127
0.376502 0.376502 0.663215
0.380386 0.380386 0.807644
0.404027 0.548581 0.254643
0.408156 0.552710 0.408156
0.412151 0.556706 0.556706
0.416080 0.560635 0.702793
0.419965 0.564520 0.847223
0.442949 0.729662 0.293566
0.447078 0.733791 0.447078
0.451073 0.737786 0.595628
0.455003 0.741715 0.741715
0.458887 0.745600 0.886145
0.481429 0.908687 0.332046
0.485558 0.912816 0.485558
0.489554 0.916812 0.634109
0.493483 0.920741 0.780196
0.497368 0.924626 0.924626
0.479868 0.185929 0.185929
0.483996 0.190058 0.339442
0.487992 0.194054 0.487992
0.491921 0.197983 0.634079
0.495806 0.201868 0.778509
0.520768 0.376213 0.226830
0.524897 0.380342 0.380342
0.528892 0.384338 0.528892
0.532822 0.388267 0.674980
0.536706 0.392152 0.819409
0.560346 0.560346 0.266408
0.564475 0.564475 0.419921
0.568471 0.568471 0.568471
0.572400 0.572400 0.714558
0.576285 0.576285 0.858988
0.599269 0.741427 0.305331
0.603398 0.745556 0.458843
0.607393 0.749551 0.607393
0.611322 0.753480 0.753480
0.615207 0.757365 0.897910
0.637749 0.920452 0.343811
0.641878 0.924581 0.497324
0.645874 0.928577 0.645874
0.649803 0.932506 0.791961
0.653688 0.936391 0.936391
0.633596 0.197499 0.197499
0.637724 0.201628 0.351012
0.641720 0.205624 0.499562
0.645649 0.209553 0.645649
0.649534 0.213438 0.790079
0.674496 0.387783 0.238400
0.678625 0.391912 0.391912
0.682620 0.395908 0.540462
0.686550 0.399837 0.686550
0.690434 0.403722 0.830979
0.714074 0.571916 0.277978
0.718203 0.576045 0.431491
0.722199 0.580041 0.580041
0.726128 0.583970 0.726128
0.730013 0.587855 0.870558
0.752997 0.752997 0.316901
0.757126 0.757126 0.470413
0.761121 0.761121 0.618963
0.765050 0.765050 0.765050
0.768935 0.768935 0.909480
0.791477 0.932022 0.355381
0.795606 0.936151 0.508894
0.799602 0.940147 0.657444
0.803531 0.944076 0.803531
0.807416 0.947961 0.947961
0.785579 0.208938 0.208938
0.789708 0.213067 0.362450
0.793704 0.217063 0.511001
0.797633 0.220992 0.657088
0.801518 0.224876 0.801518
0.826480 0.399222 0.249839
0.830609 0.403351 0.403351
0.834604 0.407346 0.551901
0.838533 0.411276 0.697988
0.842418 0.415160 0.842418
0.866058 0.583355 0.289417
0.870187 0.587484 0.442929
0.874183 0.591480 0.591480
0.878112 0.595409 0.737567
0.881997 0.599294 0.881997
0.904981 0.764435 0.328339
0.909109 0.768564 0.481852
0.913105 0.772560 0.630402
0.917034 0.776489 0.776489
0.920919 0.780374 0.920919
0.943461 0.943461 0.366820
0.947590 0.947590 0.520332
0.951586 0.951586 0.668882
0.955515 0.955515 0.814970
0.959399 0.959399 0.959399
