skills/promo-director/assets/grade/luts/vintage_fade_v07.cube
TITLE "vintage_fade_v07"
LUT_3D_SIZE 5
DOMAIN_MIN 0.0 0.0 0.0
DOMAIN_MAX 1.0 1.0 1.0
0.071140 0.071140 0.071140
0.073643 0.073643 0.270908
0.076094 0.076094 0.466498
0.078521 0.078521 0.660227
0.080933 0.080933 0.852729
0.095934 0.293199 0.095934
0.098437 0.295702 0.295702
0.100888 0.298153 0.491292
0.103316 0.300580 0.685021
0.105727 0.302992 0.877524
0.120210 0.510614 0.120210
0.122713 0.513117 0.319978
0.125164 0.515568 0.515568
0.127591 0.517995 0.709297
0.130003 0.520407 0.901800
0.144255 0.725961 0.144255
0.146758 0.728464 0.344023
0.149209 0.730915 0.539613
0.151636 0.733342 0.733342
0.154048 0.735754 0.925845
0.168148 0.939944 0.168148
0.170651 0.942447 0.367916
0.173102 0.944898 0.563505
0.175529 0.947325 0.757235
0.177941 0.949737 0.949737
0.275775 0.078510 0.078510
0.278278 0.081013 0.278278
0.280729 0.083464 0.473868
0.283156 0.085891 0.667597
0.285568 0.088303 0.860100
0.300570 0.300570 0.103305
0.303073 0.303073 0.303073
0.305523 0.305523 0.498662
0.307951 0.307951 0.692392
0.310363 0.310363 0.884894
0.324845 0.517985 0.127581
0.327348 0.520488 0.327348
0.329799 0.522938 0.522938
0.332226 0.525366 0.716667
0.334638 0.527778 0.909170
0.348890 0.733331 0.151626
0.351393 0.735834 0.351393
0.353844 0.738285 0.546983
0.356271 0.740712 0.740712
0.358683 0.743124 0.933215
0.372783 0.947315 0.175518
0.375286 0.949818 0.375286
0.377737 0.952268 0.570876
0.380164 0.954696 0.764605
0.382576 0.957108 0.957108
0.476130 0.085727 0.085727
0.478633 0.088230 0.285494
0.481084 0.090680 0.481084
0.483512 0.093108 0.674813
0.485924 0.095520 0.867316
0.500925 0.307786 0.110521
0.503428 0.310289 0.310289
0.505879 0.312739 0.505879
0.508306 0.315167 0.699608
0.510718 0.317579 0.892111
0.525201 0.525201 0.134797
0.527704 0.527704 0.334565
0.530154 0.530154 0.530154
0.532582 0.532582 0.723884
0.534994 0.534994 0.916386
0.549246 0.740548 0.158842
0.551749 0.743051 0.358610
0.554199 0.745501 0.554199
0.556627 0.747929 0.747929
0.559039 0.750341 0.940431
0.573138 0.954531 0.182735
0.575641 0.957034 0.382502
0.578092 0.959485 0.578092
0.580519 0.961912 0.771821
0.582931 0.964324 0.964324
0.674580 0.092874 0.092874
0.677083 0.095377 0.292642
0.679534 0.097828 0.488232
0.681961 0.100255 0.681961
0.684373 0.102667 0.874464
0.699374 0.314933 0.117669
0.701877 0.317436 0.317436
0.704328 0.319887 0.513026
0.706755 0.322314 0.706755
0.709167 0.324726 0.899258
0.723650 0.532348 0.141945
0.726153 0.534851 0.341712
0.728604 0.537302 0.537302
0.731031 0.539729 0.731031
0.733443 0.542141 0.923534
0.747695 0.747695 0.165989
0.750198 0.750198 0.365757
0.752649 0.752649 0.561347
0.755076 0.755076 0.755076
0.757488 0.757488 0.947579
0.771588 0.961679 0.189882
0.774091 0.964182 0.389650
0.776542 0.966632 0.585240
0.778969 0.969060 0.778969
0.781381 0.971472 0.971472
0.871773 0.099977 0.099977
0.874276 0.102480 0.299744
0.876727 0.104930 0.495334
0.879154 0.107358 0.689063
0.881566 0.109770 0.881566
0.896567 0.322036 0.124771
0.899070 0.324539 0.324539
0.901521 0.326989 0.520128
0.903948 0.329417 0.713858
0.906360 0.331829 0.906360
0.920843 0.539451 0.149047
0.923346 0.541954 0.348815
0.925797 0.544404 0.544404
0.928224 0.546832 0.738134
0.930636 0.549244 0.930636
0.944888 0.754797 0.173092
0.947391 0.757301 0.372860
0.949842 0.759751 0.568449
0.952269 0.762179 0.762179
0.954681 0.764591 0.954681
0.968781 0.968781 0.196985
0.971284 0.971284 0.396752
0.973735 0.973735 0.592342
0.976162 0.976162 0.786071
0.978574 0.978574 0.978574
