skills/promo-director/assets/grade/luts/vintage_fade_v07.cube
TITLE "vintage_fade_v07"
LUT_3D_SIZE 9
DOMAIN_MIN 0.0 0.0 0.0
DOMAIN_MAX 1.0 1.0 1.0
0.071140 0.071140 0.071140
0.072403 0.072403 0.171928
0.073643 0.073643 0.270908
0.074872 0.074872 0.369001
0.076094 0.076094 0.466498
0.077310 0.077310 0.563543
0.078521 0.078521 0.660227
0.079729 0.079729 0.756608
0.080933 0.080933 0.852729
0.083649 0.183174 0.083649
0.084912 0.184437 0.184437
0.086152 0.185677 0.283417
0.087382 0.186906 0.381511
0.088603 0.188128 0.479007
0.089819 0.189344 0.576053
0.091030 0.190555 0.672736
0.092238 0.191763 0.769117
0.093442 0.192967 0.865239
0.095934 0.293199 0.095934
0.097197 0.294462 0.196722
0.098437 0.295702 0.295702
0.099667 0.296931 0.393796
0.100888 0.298153 0.491292
0.102104 0.299369 0.588338
0.103316 0.300580 0.685021
0.104523 0.301788 0.781402
0.105727 0.302992 0.877524
0.108109 0.402239 0.108109
0.109372 0.403501 0.208897
0.110612 0.404742 0.307877
0.111842 0.405971 0.405971
0.113063 0.407192 0.503467
0.114279 0.408408 0.600513
0.115490 0.409620 0.697196
0.116698 0.410827 0.793577
0.117902 0.412032 0.889699
0.120210 0.510614 0.120210
0.121473 0.511877 0.220998
0.122713 0.513117 0.319978
0.123942 0.514346 0.418071
0.125164 0.515568 0.515568
0.126380 0.516784 0.612613
0.127591 0.517995 0.709297
0.128799 0.519203 0.805678
0.130003 0.520407 0.901800
0.132255 0.618489 0.132255
0.133518 0.619752 0.233043
0.134758 0.620992 0.332023
0.135987 0.622221 0.430116
0.137209 0.623442 0.527613
0.138425 0.624658 0.624658
0.139636 0.625870 0.721342
0.140844 0.627077 0.817723
0.142048 0.628282 0.913845
0.144255 0.725961 0.144255
0.145518 0.727224 0.245043
0.146758 0.728464 0.344023
0.147987 0.729693 0.442116
0.149209 0.730915 0.539613
0.150425 0.732131 0.636658
0.151636 0.733342 0.733342
0.152844 0.734550 0.829723
0.154048 0.735754 0.925845
0.156218 0.833097 0.156218
0.157481 0.834360 0.257005
0.158721 0.835600 0.355985
0.159950 0.836829 0.454079
0.161171 0.838051 0.551575
0.162387 0.839267 0.648621
0.163599 0.840478 0.745304
0.164806 0.841686 0.841686
0.166011 0.842890 0.937807
0.168148 0.939944 0.168148
0.169411 0.941207 0.268936
0.170651 0.942447 0.367916
0.171880 0.943676 0.466009
0.173102 0.944898 0.563505
0.174318 0.946114 0.660551
0.175529 0.947325 0.757235
0.176737 0.948533 0.853616
0.177941 0.949737 0.949737
0.174383 0.074859 0.074859
0.175646 0.076121 0.175646
0.176886 0.077362 0.274626
0.178115 0.078591 0.372720
0.179337 0.079812 0.470216
0.180553 0.081028 0.567262
0.181764 0.082240 0.663945
0.182972 0.083447 0.760326
0.184176 0.084652 0.856448
0.186893 0.186893 0.087368
0.188156 0.188156 0.188156
0.189396 0.189396 0.287136
0.190625 0.190625 0.385229
0.191846 0.191846 0.482725
0.193062 0.193062 0.579771
0.194274 0.194274 0.676455
0.195481 0.195481 0.772836
0.196686 0.196686 0.868957
0.199178 0.296918 0.099653
0.200441 0.298181 0.200441
0.201681 0.299421 0.299421
0.202910 0.300650 0.397514
0.204131 0.301871 0.495010
0.205347 0.303087 0.592056
0.206559 0.304299 0.688740
0.207766 0.305506 0.785121
0.208971 0.306711 0.881242
0.211353 0.405957 0.111828
0.212616 0.407220 0.212616
0.213856 0.408460 0.311596
0.215085 0.409689 0.409689
0.216306 0.410911 0.507185
0.217522 0.412127 0.604231
0.218734 0.413338 0.700915
0.219941 0.414546 0.797296
0.221146 0.415750 0.893417
0.223454 0.514333 0.123929
0.224716 0.515596 0.224716
0.225957 0.516836 0.323697
0.227186 0.518065 0.421790
0.228407 0.519286 0.519286
0.229623 0.520502 0.616332
0.230835 0.521714 0.713016
0.232042 0.522921 0.809397
0.233247 0.524126 0.905518
0.235499 0.622207 0.135974
0.236761 0.623470 0.236761
0.238002 0.624710 0.335742
0.239231 0.625939 0.433835
0.240452 0.627161 0.531331
0.241668 0.628377 0.628377
0.242880 0.629588 0.725061
0.244087 0.630796 0.821442
0.245292 0.632000 0.917563
0.247499 0.729679 0.147974
0.248761 0.730942 0.248761
0.250002 0.732183 0.347742
0.251231 0.733412 0.445835
0.252452 0.734633 0.543331
0.253668 0.735849 0.640377
0.254880 0.737061 0.737061
0.256087 0.738268 0.833442
0.257292 0.739473 0.929563
0.259461 0.836816 0.159936
0.260724 0.838078 0.260724
0.261964 0.839319 0.359704
0.263193 0.840548 0.457797
0.264415 0.841769 0.555294
0.265631 0.842985 0.652339
0.266842 0.844197 0.749023
0.268050 0.845404 0.845404
0.269254 0.846609 0.941526
0.271391 0.943663 0.171867
0.272654 0.944926 0.272654
0.273894 0.946166 0.371634
0.275123 0.947395 0.469728
0.276345 0.948617 0.567224
0.277561 0.949833 0.664270
0.278772 0.951044 0.760953
0.279980 0.952252 0.857334
0.281184 0.953456 0.953456
0.275775 0.078510 0.078510
0.277038 0.079773 0.179298
0.278278 0.081013 0.278278
0.279507 0.082243 0.376372
0.280729 0.083464 0.473868
0.281945 0.084680 0.570914
0.283156 0.085891 0.667597
0.284364 0.087099 0.763978
0.285568 0.088303 0.860100
0.288285 0.190545 0.091020
0.289547 0.191807 0.191807
0.290788 0.193048 0.290788
0.292017 0.194277 0.388881
0.293238 0.195498 0.486377
0.294454 0.196714 0.583423
0.295666 0.197926 0.680107
0.296873 0.199133 0.776488
0.298078 0.200338 0.872609
0.300570 0.300570 0.103305
0.301832 0.301832 0.204092
0.303073 0.303073 0.303073
0.304302 0.304302 0.401166
0.305523 0.305523 0.498662
0.306739 0.306739 0.595708
0.307951 0.307951 0.692392
0.309158 0.309158 0.788773
0.310363 0.310363 0.884894
0.312745 0.409609 0.115480
0.314007 0.410872 0.216267
0.315248 0.412112 0.315248
0.316477 0.413341 0.413341
0.317698 0.414563 0.510837
0.318914 0.415779 0.607883
0.320126 0.416990 0.704567
0.321333 0.418198 0.800948
0.322538 0.419402 0.897069
0.324845 0.517985 0.127581
0.326108 0.519247 0.228368
0.327348 0.520488 0.327348
0.328578 0.521717 0.425442
0.329799 0.522938 0.522938
0.331015 0.524154 0.619984
0.332226 0.525366 0.716667
0.333434 0.526573 0.813049
0.334638 0.527778 0.909170
0.336890 0.625859 0.139626
0.338153 0.627122 0.240413
0.339393 0.628362 0.339393
0.340622 0.629591 0.437487
0.341844 0.630813 0.534983
0.343060 0.632029 0.632029
0.344271 0.633240 0.728712
0.345479 0.634448 0.825094
0.346683 0.635652 0.921215
0.348890 0.733331 0.151626
0.350153 0.734594 0.252413
0.351393 0.735834 0.351393
0.352622 0.737063 0.449487
0.353844 0.738285 0.546983
0.355060 0.739501 0.644029
0.356271 0.740712 0.740712
0.357479 0.741920 0.837094
0.358683 0.743124 0.933215
0.360853 0.840467 0.163588
0.362116 0.841730 0.264376
0.363356 0.842970 0.363356
0.364585 0.844199 0.461449
0.365807 0.845421 0.558946
0.367022 0.846637 0.655991
0.368234 0.847848 0.752675
0.369441 0.849056 0.849056
0.370646 0.850260 0.945178
0.372783 0.947315 0.175518
0.374046 0.948578 0.276306
0.375286 0.949818 0.375286
0.376515 0.951047 0.473380
0.377737 0.952268 0.570876
0.378953 0.953484 0.667921
0.380164 0.954696 0.764605
0.381372 0.955903 0.860986
0.382576 0.957108 0.957108
0.376259 0.082130 0.082130
0.377521 0.083392 0.182917
0.378762 0.084633 0.281897
0.379991 0.085862 0.379991
0.381212 0.087083 0.477487
0.382428 0.088299 0.574533
0.383640 0.089511 0.671216
0.384847 0.090718 0.767597
0.386052 0.091923 0.863719
0.388768 0.194164 0.094639
0.390031 0.195426 0.195426
0.391271 0.196667 0.294407
0.392500 0.197896 0.392500
0.393722 0.199117 0.489996
0.394938 0.200333 0.587042
0.396149 0.201545 0.683726
0.397357 0.202752 0.780107
0.398561 0.203957 0.876228
0.401053 0.304189 0.106924
0.402316 0.305452 0.207712
0.403556 0.306692 0.306692
0.404785 0.307921 0.404785
0.406007 0.309142 0.502281
0.407223 0.310358 0.599327
0.408434 0.311570 0.696011
0.409642 0.312777 0.792392
0.410846 0.313982 0.888513
0.413228 0.413228 0.119099
0.414491 0.414491 0.219887
0.415731 0.415731 0.318867
0.416960 0.416960 0.416960
0.418182 0.418182 0.514456
0.419398 0.419398 0.611502
0.420609 0.420609 0.708186
0.421817 0.421817 0.804567
0.423021 0.423021 0.900688
0.425329 0.521604 0.131200
0.426592 0.522866 0.231987
0.427832 0.524107 0.330968
0.429061 0.525336 0.429061
0.430283 0.526557 0.526557
0.431499 0.527773 0.623603
0.432710 0.528985 0.720287
0.433918 0.530192 0.816668
0.435122 0.531397 0.912789
0.437374 0.629478 0.143245
0.438637 0.630741 0.244032
0.439877 0.631981 0.343013
0.441106 0.633210 0.441106
0.442328 0.634432 0.538602
0.443543 0.635648 0.635648
0.444755 0.636859 0.732332
0.445962 0.638067 0.828713
0.447167 0.639271 0.924834
0.449374 0.736950 0.155245
0.450637 0.738213 0.256032
0.451877 0.739453 0.355013
0.453106 0.740683 0.453106
0.454328 0.741904 0.550602
0.455543 0.743120 0.647648
0.456755 0.744332 0.744332
0.457962 0.745539 0.840713
0.459167 0.746743 0.936834
0.461336 0.844086 0.167207
0.462599 0.845349 0.267995
0.463839 0.846590 0.366975
0.465068 0.847819 0.465068
0.466290 0.849040 0.562565
0.467506 0.850256 0.659610
0.468717 0.851468 0.756294
0.469925 0.852675 0.852675
0.471129 0.853880 0.948797
0.473267 0.950934 0.179137
0.474529 0.952197 0.279925
0.475770 0.953437 0.378905
0.476999 0.954666 0.476999
0.478220 0.955888 0.574495
0.479436 0.957104 0.671541
0.480648 0.958315 0.768224
0.481855 0.959523 0.864605
0.483060 0.960727 0.960727
0.476130 0.085727 0.085727
0.477393 0.086989 0.186514
0.478633 0.088230 0.285494
0.479863 0.089459 0.383588
0.481084 0.090680 0.481084
0.482300 0.091896 0.578130
0.483512 0.093108 0.674813
0.484719 0.094315 0.771195
0.485924 0.095520 0.867316
0.488640 0.197761 0.098236
0.489903 0.199024 0.199024
0.491143 0.200264 0.298004
0.492372 0.201493 0.396097
0.493594 0.202714 0.493594
0.494809 0.203930 0.590639
0.496021 0.205142 0.687323
0.497229 0.206349 0.783704
0.498433 0.207554 0.879825
0.500925 0.307786 0.110521
0.502188 0.309049 0.211309
0.503428 0.310289 0.310289
0.504657 0.311518 0.408382
0.505879 0.312739 0.505879
0.507095 0.313955 0.602924
0.508306 0.315167 0.699608
0.509514 0.316374 0.795989
0.510718 0.317579 0.892111
0.513100 0.416825 0.122696
0.514363 0.418088 0.223484
0.515603 0.419328 0.322464
0.516832 0.420557 0.420557
0.518054 0.421779 0.518054
0.519270 0.422995 0.615099
0.520481 0.424206 0.711783
0.521689 0.425414 0.808164
0.522893 0.426618 0.904286
0.525201 0.525201 0.134797
0.526464 0.526464 0.235585
0.527704 0.527704 0.334565
0.528933 0.528933 0.432658
0.530154 0.530154 0.530154
0.531370 0.531370 0.627200
0.532582 0.532582 0.723884
0.533789 0.533789 0.820265
0.534994 0.534994 0.916386
0.537246 0.633075 0.146842
0.538509 0.634338 0.247629
0.539749 0.635578 0.346610
0.540978 0.636807 0.444703
0.542199 0.638029 0.542199
0.543415 0.639245 0.639245
0.544627 0.640456 0.735929
0.545834 0.641664 0.832310
0.547039 0.642868 0.928431
0.549246 0.740548 0.158842
0.550509 0.741810 0.259629
0.551749 0.743051 0.358610
0.552978 0.744280 0.456703
0.554199 0.745501 0.554199
0.555415 0.746717 0.651245
0.556627 0.747929 0.747929
0.557834 0.749136 0.844310
0.559039 0.750341 0.940431
0.561208 0.847684 0.170804
0.562471 0.848946 0.271592
0.563711 0.850187 0.370572
0.564940 0.851416 0.468665
0.566162 0.852637 0.566162
0.567378 0.853853 0.663207
0.568589 0.855065 0.759891
0.569797 0.856272 0.856272
0.571001 0.857477 0.952394
0.573138 0.954531 0.182735
0.574401 0.955794 0.283522
0.575641 0.957034 0.382502
0.576870 0.958263 0.480596
0.578092 0.959485 0.578092
0.579308 0.960701 0.675138
0.580519 0.961912 0.771821
0.581727 0.963120 0.868202
0.582931 0.964324 0.964324
0.575541 0.089307 0.089307
0.576803 0.090570 0.190095
0.578044 0.091810 0.289075
0.579273 0.093039 0.387168
0.580494 0.094261 0.484665
0.581710 0.095477 0.581710
0.582922 0.096688 0.678394
0.584129 0.097896 0.774775
0.585334 0.099100 0.870897
0.588050 0.201341 0.101817
0.589313 0.202604 0.202604
0.590553 0.203844 0.301584
0.591782 0.205073 0.399678
0.593004 0.206295 0.497174
0.594220 0.207511 0.594220
0.595431 0.208722 0.690903
0.596639 0.209930 0.787284
0.597843 0.211134 0.883406
0.600335 0.311366 0.114102
0.601598 0.312629 0.214889
0.602838 0.313869 0.313869
0.604067 0.315098 0.411963
0.605289 0.316320 0.509459
0.606505 0.317536 0.606505
0.607716 0.318747 0.703188
0.608924 0.319955 0.799569
0.610128 0.321159 0.895691
0.612510 0.420406 0.126277
0.613773 0.421668 0.227064
0.615013 0.422909 0.326044
0.616242 0.424138 0.424138
0.617464 0.425359 0.521634
0.618680 0.426575 0.618680
0.619891 0.427787 0.715363
0.621099 0.428994 0.811744
0.622303 0.430199 0.907866
0.624611 0.528781 0.138377
0.625874 0.530044 0.239165
0.627114 0.531284 0.338145
0.628343 0.532513 0.436239
0.629565 0.533735 0.533735
0.630781 0.534951 0.630781
0.631992 0.536162 0.727464
0.633200 0.537370 0.823845
0.634404 0.538574 0.919967
0.636656 0.636656 0.150422
0.637919 0.637919 0.251210
0.639159 0.639159 0.350190
0.640388 0.640388 0.448283
0.641610 0.641610 0.545780
0.642825 0.642825 0.642825
0.644037 0.644037 0.739509
0.645245 0.645245 0.835890
0.646449 0.646449 0.932012
0.648656 0.744128 0.162422
0.649919 0.745391 0.263210
0.651159 0.746631 0.362190
0.652388 0.747860 0.460283
0.653610 0.749082 0.557780
0.654825 0.750298 0.654825
0.656037 0.751509 0.751509
0.657245 0.752717 0.847890
0.658449 0.753921 0.944012
0.660618 0.851264 0.174385
0.661881 0.852527 0.275172
0.663121 0.853767 0.374153
0.664350 0.854996 0.472246
0.665572 0.856218 0.569742
0.666788 0.857434 0.666788
0.667999 0.858645 0.763472
0.669207 0.859853 0.859853
0.670411 0.861057 0.955974
0.672549 0.958111 0.186315
0.673811 0.959374 0.287103
0.675052 0.960614 0.386083
0.676281 0.961844 0.484176
0.677502 0.963065 0.581673
0.678718 0.964281 0.678718
0.679930 0.965493 0.775402
0.681137 0.966700 0.871783
0.682342 0.967905 0.967905
0.674580 0.092874 0.092874
0.675843 0.094137 0.193662
0.677083 0.095377 0.292642
0.678312 0.096606 0.390735
0.679534 0.097828 0.488232
0.680750 0.099044 0.585277
0.681961 0.100255 0.681961
0.683169 0.101463 0.778342
0.684373 0.102667 0.874464
0.687089 0.204908 0.105384
0.688352 0.206171 0.206171
0.689592 0.207411 0.305151
0.690821 0.208640 0.403245
0.692043 0.209862 0.500741
0.693259 0.211078 0.597787
0.694470 0.212289 0.694470
0.695678 0.213497 0.790852
0.696882 0.214701 0.886973
0.699374 0.314933 0.117669
0.700637 0.316196 0.218456
0.701877 0.317436 0.317436
0.703106 0.318665 0.415530
0.704328 0.319887 0.513026
0.705544 0.321103 0.610072
0.706755 0.322314 0.706755
0.707963 0.323522 0.803137
0.709167 0.324726 0.899258
0.711549 0.423973 0.129844
0.712812 0.425236 0.230631
0.714052 0.426476 0.329611
0.715281 0.427705 0.427705
0.716503 0.428926 0.525201
0.717719 0.430142 0.622247
0.718930 0.431354 0.718930
0.720138 0.432561 0.815312
0.721342 0.433766 0.911433
0.723650 0.532348 0.141945
0.724913 0.533611 0.242732
0.726153 0.534851 0.341712
0.727382 0.536080 0.439806
0.728604 0.537302 0.537302
0.729820 0.538518 0.634348
0.731031 0.539729 0.731031
0.732239 0.540937 0.827412
0.733443 0.542141 0.923534
0.735695 0.640223 0.153989
0.736958 0.641486 0.254777
0.738198 0.642726 0.353757
0.739427 0.643955 0.451851
0.740649 0.645177 0.549347
0.741865 0.646393 0.646393
0.743076 0.647604 0.743076
0.744284 0.648812 0.839457
0.745488 0.650016 0.935579
0.747695 0.747695 0.165989
0.748958 0.748958 0.266777
0.750198 0.750198 0.365757
0.751427 0.751427 0.463851
0.752649 0.752649 0.561347
0.753865 0.753865 0.658393
0.755076 0.755076 0.755076
0.756284 0.756284 0.851457
0.757488 0.757488 0.947579
0.759658 0.854831 0.177952
0.760920 0.856094 0.278739
0.762161 0.857334 0.377720
0.763390 0.858563 0.475813
0.764611 0.859785 0.573309
0.765827 0.861001 0.670355
0.767039 0.862212 0.767039
0.768246 0.863420 0.863420
0.769451 0.864624 0.959541
0.771588 0.961679 0.189882
0.772851 0.962941 0.290670
0.774091 0.964182 0.389650
0.775320 0.965411 0.487743
0.776542 0.966632 0.585240
0.777758 0.967848 0.682285
0.778969 0.969060 0.778969
0.780177 0.970267 0.875350
0.781381 0.971472 0.971472
0.773309 0.096430 0.096430
0.774572 0.097693 0.197218
0.775812 0.098933 0.296198
0.777042 0.100162 0.394291
0.778263 0.101384 0.491788
0.779479 0.102600 0.588833
0.780690 0.103811 0.685517
0.781898 0.105019 0.781898
0.783102 0.106223 0.878020
0.785819 0.208464 0.108940
0.787082 0.209727 0.209727
0.788322 0.210967 0.308707
0.789551 0.212196 0.406801
0.790772 0.213418 0.504297
0.791988 0.214634 0.601343
0.793200 0.215845 0.698026
0.794407 0.217053 0.794407
0.795612 0.218257 0.890529
0.798104 0.318489 0.121225
0.799367 0.319752 0.222012
0.800607 0.320992 0.320992
0.801836 0.322221 0.419086
0.803058 0.323443 0.516582
0.804273 0.324659 0.613628
0.805485 0.325870 0.710311
0.806693 0.327078 0.806693
0.807897 0.328282 0.902814
0.810279 0.427529 0.133400
0.811542 0.428791 0.234187
0.812782 0.430032 0.333167
0.814011 0.431261 0.431261
0.815233 0.432482 0.528757
0.816448 0.433698 0.625803
0.817660 0.434910 0.722486
0.818868 0.436117 0.818868
0.820072 0.437322 0.914989
0.822380 0.535904 0.145500
0.823643 0.537167 0.246288
0.824883 0.538407 0.345268
0.826112 0.539636 0.443362
0.827333 0.540858 0.540858
0.828549 0.542074 0.637904
0.829761 0.543285 0.734587
0.830968 0.544493 0.830968
0.832173 0.545697 0.927090
0.834425 0.643779 0.157545
0.835687 0.645042 0.258333
0.836928 0.646282 0.357313
0.838157 0.647511 0.455407
0.839378 0.648733 0.552903
0.840594 0.649949 0.649949
0.841806 0.651160 0.746632
0.843013 0.652368 0.843013
0.844218 0.653572 0.939135
0.846425 0.751251 0.169545
0.847687 0.752514 0.270333
0.848928 0.753754 0.369313
0.850157 0.754983 0.467407
0.851378 0.756205 0.564903
0.852594 0.757421 0.661949
0.853806 0.758632 0.758632
0.855013 0.759840 0.855013
0.856218 0.761044 0.951135
0.858387 0.858387 0.181508
0.859650 0.859650 0.282295
0.860890 0.860890 0.381276
0.862119 0.862119 0.479369
0.863341 0.863341 0.576865
0.864557 0.864557 0.673911
0.865768 0.865768 0.770595
0.866976 0.866976 0.866976
0.868180 0.868180 0.963097
0.870317 0.965235 0.193438
0.871580 0.966497 0.294226
0.872820 0.967738 0.393206
0.874049 0.968967 0.491299
0.875271 0.970188 0.588796
0.876487 0.971404 0.685841
0.877698 0.972616 0.782525
0.878906 0.973823 0.878906
0.880110 0.975028 0.975028
0.871773 0.099977 0.099977
0.873036 0.101239 0.200764
0.874276 0.102480 0.299744
0.875505 0.103709 0.397838
0.876727 0.104930 0.495334
0.877943 0.106146 0.592380
0.879154 0.107358 0.689063
0.880362 0.108565 0.785444
0.881566 0.109770 0.881566
0.884282 0.212011 0.112486
0.885545 0.213274 0.213274
0.886785 0.214514 0.312254
0.888014 0.215743 0.410347
0.889236 0.216964 0.507843
0.890452 0.218180 0.604889
0.891663 0.219392 0.701573
0.892871 0.220599 0.797954
0.894075 0.221804 0.894075
0.896567 0.322036 0.124771
0.897830 0.323299 0.225559
0.899070 0.324539 0.324539
0.900300 0.325768 0.422632
0.901521 0.326989 0.520128
0.902737 0.328205 0.617174
0.903948 0.329417 0.713858
0.905156 0.330624 0.810239
0.906360 0.331829 0.906360
0.908742 0.431075 0.136946
0.910005 0.432338 0.237734
0.911245 0.433578 0.336714
0.912474 0.434807 0.434807
0.913696 0.436029 0.532303
0.914912 0.437245 0.629349
0.916123 0.438456 0.726033
0.917331 0.439664 0.822414
0.918535 0.440868 0.918535
0.920843 0.539451 0.149047
0.922106 0.540714 0.249834
0.923346 0.541954 0.348815
0.924575 0.543183 0.446908
0.925797 0.544404 0.544404
0.927013 0.545620 0.641450
0.928224 0.546832 0.738134
0.929432 0.548039 0.834515
0.930636 0.549244 0.930636
0.932888 0.647325 0.161092
0.934151 0.648588 0.261879
0.935391 0.649828 0.360860
0.936620 0.651057 0.458953
0.937842 0.652279 0.556449
0.939058 0.653495 0.653495
0.940269 0.654706 0.750179
0.941477 0.655914 0.846560
0.942681 0.657118 0.942681
0.944888 0.754797 0.173092
0.946151 0.756060 0.273879
0.947391 0.757301 0.372860
0.948620 0.758530 0.470953
0.949842 0.759751 0.568449
0.951058 0.760967 0.665495
0.952269 0.762179 0.762179
0.953477 0.763386 0.858560
0.954681 0.764591 0.954681
0.956851 0.861934 0.185054
0.958114 0.863196 0.285842
0.959354 0.864437 0.384822
0.960583 0.865666 0.482915
0.961804 0.866887 0.580412
0.963020 0.868103 0.677457
0.964232 0.869315 0.774141
0.965439 0.870522 0.870522
0.966644 0.871727 0.966644
0.968781 0.968781 0.196985
0.970044 0.970044 0.297772
0.971284 0.971284 0.396752
0.972513 0.972513 0.494846
0.973735 0.973735 0.592342
0.974951 0.974951 0.689388
0.976162 0.976162 0.786071
0.977370 0.977370 0.882452
0.978574 0.978574 0.978574
