skills/promo-director/assets/grade/luts/vintage_fade_v18.cube
TITLE "vintage_fade_v18"
LUT_3D_SIZE 9
DOMAIN_MIN 0.0 0.0 0.0
DOMAIN_MAX 1.0 1.0 1.0
0.162006 0.162006 0.162006
0.164097 0.164097 0.239743
0.166135 0.166135 0.315519
0.168143 0.168143 0.390183
0.170131 0.170131 0.464069
0.172102 0.172102 0.537356
0.174060 0.174060 0.610156
0.176007 0.176007 0.682547
0.177945 0.177945 0.754586
0.182718 0.258364 0.182718
0.184809 0.260455 0.260455
0.186847 0.262493 0.336230
0.188855 0.264501 0.410895
0.190842 0.266488 0.484780
0.192813 0.268460 0.558067
0.194772 0.270418 0.630868
0.196719 0.272365 0.703259
0.198656 0.274302 0.775297
0.202907 0.352290 0.202907
0.204998 0.354381 0.280644
0.207036 0.356419 0.356419
0.209044 0.358427 0.431083
0.211031 0.360415 0.504969
0.213002 0.362386 0.578256
0.214960 0.364344 0.651057
0.216908 0.366291 0.723448
0.218845 0.368228 0.795486
0.222800 0.444839 0.222800
0.224891 0.446930 0.300537
0.226929 0.448968 0.376312
0.228937 0.450976 0.450976
0.230924 0.452964 0.524862
0.232895 0.454935 0.598149
0.234853 0.456893 0.670949
0.236800 0.458840 0.743341
0.238738 0.460778 0.815379
0.242485 0.536423 0.242485
0.244576 0.538514 0.320222
0.246614 0.540552 0.395998
0.248622 0.542560 0.470662
0.250610 0.544548 0.544548
0.252581 0.546519 0.617835
0.254539 0.548477 0.690635
0.256486 0.550424 0.763026
0.258424 0.552362 0.835065
0.262011 0.627265 0.262011
0.264102 0.629356 0.339748
0.266140 0.631394 0.415523
0.268148 0.633402 0.490188
0.270136 0.635389 0.564074
0.272107 0.637360 0.637360
0.274065 0.639319 0.710161
0.276012 0.641266 0.782552
0.277949 0.643203 0.854591
0.281407 0.717504 0.281407
0.283498 0.719594 0.359144
0.285536 0.721633 0.434920
0.287545 0.723641 0.509584
0.289532 0.725628 0.583470
0.291503 0.727599 0.656757
0.293461 0.729557 0.729557
0.295408 0.731504 0.801948
0.297346 0.733442 0.873987
0.300695 0.807235 0.300695
0.302786 0.809326 0.378432
0.304824 0.811364 0.454207
0.306832 0.813372 0.528871
0.308819 0.815360 0.602757
0.310790 0.817331 0.676044
0.312748 0.819289 0.748845
0.314696 0.821236 0.821236
0.316633 0.823173 0.893274
0.319888 0.896529 0.319888
0.321979 0.898620 0.397625
0.324017 0.900658 0.473400
0.326025 0.902666 0.548065
0.328013 0.904654 0.621951
0.329984 0.906625 0.695237
0.331942 0.908583 0.768038
0.333889 0.910530 0.840429
0.335826 0.912468 0.912468
0.243809 0.168163 0.168163
0.245900 0.170254 0.245900
0.247938 0.172292 0.321675
0.249946 0.174300 0.396340
0.251933 0.176287 0.470226
0.253905 0.178259 0.543512
0.255863 0.180217 0.616313
0.257810 0.182164 0.688704
0.259747 0.184101 0.760742
0.264521 0.264521 0.188875
0.266611 0.266611 0.266611
0.268650 0.268650 0.342387
0.270658 0.270658 0.417051
0.272645 0.272645 0.490937
0.274616 0.274616 0.564224
0.276574 0.276574 0.637024
0.278521 0.278521 0.709416
0.280459 0.280459 0.781454
0.284710 0.358447 0.209064
0.286800 0.360538 0.286800
0.288839 0.362576 0.362576
0.290847 0.364584 0.437240
0.292834 0.366571 0.511126
0.294805 0.368542 0.584413
0.296763 0.370500 0.657213
0.298710 0.372448 0.729604
0.300648 0.374385 0.801643
0.304603 0.450996 0.228956
0.306693 0.453087 0.306693
0.308731 0.455125 0.382469
0.310740 0.457133 0.457133
0.312727 0.459120 0.531019
0.314698 0.461092 0.604306
0.316656 0.463050 0.677106
0.318603 0.464997 0.749497
0.320541 0.466934 0.821536
0.324288 0.542580 0.248642
0.326379 0.544671 0.326379
0.328417 0.546709 0.402154
0.330425 0.548717 0.476819
0.332412 0.550704 0.550704
0.334384 0.552676 0.623991
0.336342 0.554634 0.696792
0.338289 0.556581 0.769183
0.340226 0.558518 0.841221
0.343814 0.633422 0.268168
0.345905 0.635512 0.345905
0.347943 0.637551 0.421680
0.349951 0.639559 0.496345
0.351938 0.641546 0.570230
0.353910 0.643517 0.643517
0.355868 0.645475 0.716318
0.357815 0.647422 0.788709
0.359752 0.649360 0.860747
0.363210 0.723660 0.287564
0.365301 0.725751 0.365301
0.367339 0.727789 0.441076
0.369347 0.729797 0.515741
0.371335 0.731785 0.589627
0.373306 0.733756 0.662914
0.375264 0.735714 0.735714
0.377211 0.737661 0.808105
0.379149 0.739599 0.880144
0.382498 0.813392 0.306852
0.384588 0.815483 0.384588
0.386627 0.817521 0.460364
0.388635 0.819529 0.535028
0.390622 0.821516 0.608914
0.392593 0.823487 0.682201
0.394551 0.825445 0.755001
0.396498 0.827393 0.827393
0.398436 0.829330 0.899431
0.401691 0.902686 0.326045
0.403782 0.904777 0.403782
0.405820 0.906815 0.479557
0.407828 0.908823 0.554221
0.409815 0.910810 0.628107
0.411786 0.912782 0.701394
0.413745 0.914740 0.774195
0.415692 0.916687 0.846586
0.417629 0.918624 0.918624
0.323548 0.174164 0.174164
0.325639 0.176255 0.251901
0.327677 0.178293 0.327677
0.329685 0.180302 0.402341
0.331672 0.182289 0.476227
0.333643 0.184260 0.549514
0.335601 0.186218 0.622314
0.337548 0.188165 0.694705
0.339486 0.190103 0.766744
0.344259 0.270522 0.194876
0.346350 0.272613 0.272613
0.348388 0.274651 0.348388
0.350396 0.276659 0.423053
0.352384 0.278646 0.496938
0.354355 0.280618 0.570225
0.356313 0.282576 0.643026
0.358260 0.284523 0.715417
0.360198 0.286460 0.787455
0.364448 0.364448 0.215065
0.366539 0.366539 0.292802
0.368577 0.368577 0.368577
0.370585 0.370585 0.443242
0.372573 0.372573 0.517127
0.374544 0.374544 0.590414
0.376502 0.376502 0.663215
0.378449 0.378449 0.735606
0.380386 0.380386 0.807644
0.384341 0.456997 0.234958
0.386432 0.459088 0.312695
0.388470 0.461126 0.388470
0.390478 0.463134 0.463134
0.392466 0.465122 0.537020
0.394437 0.467093 0.610307
0.396395 0.469051 0.683108
0.398342 0.470998 0.755499
0.400279 0.472936 0.827537
0.404027 0.548581 0.254643
0.406117 0.550672 0.332380
0.408156 0.552710 0.408156
0.410164 0.554719 0.482820
0.412151 0.556706 0.556706
0.414122 0.558677 0.629993
0.416080 0.560635 0.702793
0.418027 0.562582 0.775184
0.419965 0.564520 0.847223
0.423553 0.639423 0.274169
0.425643 0.641514 0.351906
0.427681 0.643552 0.427681
0.429690 0.645560 0.502346
0.431677 0.647547 0.576232
0.433648 0.649519 0.649519
0.435606 0.651477 0.722319
0.437553 0.653424 0.794710
0.439491 0.655361 0.866749
0.442949 0.729662 0.293566
0.445040 0.731752 0.371302
0.447078 0.733791 0.447078
0.449086 0.735799 0.521742
0.451073 0.737786 0.595628
0.453044 0.739757 0.668915
0.455003 0.741715 0.741715
0.456950 0.743662 0.814107
0.458887 0.745600 0.886145
0.462236 0.819393 0.312853
0.464327 0.821484 0.390590
0.466365 0.823522 0.466365
0.468373 0.825530 0.541030
0.470361 0.827518 0.614915
0.472332 0.829489 0.688202
0.474290 0.831447 0.761003
0.476237 0.833394 0.833394
0.478174 0.835331 0.905432
0.481429 0.908687 0.332046
0.483520 0.910778 0.409783
0.485558 0.912816 0.485558
0.487567 0.914824 0.560223
0.489554 0.916812 0.634109
0.491525 0.918783 0.707395
0.493483 0.920741 0.780196
0.495430 0.922688 0.852587
0.497368 0.924626 0.924626
0.402117 0.180078 0.180078
0.404208 0.182169 0.257815
0.406246 0.184207 0.333590
0.408254 0.186215 0.408254
0.410242 0.188202 0.482140
0.412213 0.190173 0.555427
0.414171 0.192131 0.628227
0.416118 0.194078 0.700619
0.418056 0.196016 0.772657
0.422829 0.276435 0.200789
0.424920 0.278526 0.278526
0.426958 0.280564 0.354302
0.428966 0.282573 0.428966
0.430953 0.284560 0.502852
0.432924 0.286531 0.576139
0.434882 0.288489 0.648939
0.436830 0.290436 0.721330
0.438767 0.292374 0.793369
0.443018 0.370362 0.220978
0.445109 0.372452 0.298715
0.447147 0.374490 0.374490
0.449155 0.376499 0.449155
0.451142 0.378486 0.523041
0.453113 0.380457 0.596328
0.455071 0.382415 0.669128
0.457018 0.384362 0.741519
0.458956 0.386300 0.813558
0.462911 0.462911 0.240871
0.465002 0.465002 0.318608
0.467040 0.467040 0.394383
0.469048 0.469048 0.469048
0.471035 0.471035 0.542934
0.473006 0.473006 0.616220
0.474964 0.474964 0.689021
0.476911 0.476911 0.761412
0.478849 0.478849 0.833451
0.482596 0.554495 0.260557
0.484687 0.556586 0.338294
0.486725 0.558624 0.414069
0.488733 0.560632 0.488733
0.490721 0.562619 0.562619
0.492692 0.564590 0.635906
0.494650 0.566548 0.708706
0.496597 0.568495 0.781098
0.498534 0.570433 0.853136
0.502122 0.645336 0.280083
0.504213 0.647427 0.357820
0.506251 0.649465 0.433595
0.508259 0.651473 0.508259
0.510247 0.653461 0.582145
0.512218 0.655432 0.655432
0.514176 0.657390 0.728232
0.516123 0.659337 0.800624
0.518060 0.661275 0.872662
0.521518 0.735575 0.299479
0.523609 0.737666 0.377216
0.525647 0.739704 0.452991
0.527656 0.741712 0.527656
0.529643 0.743699 0.601541
0.531614 0.745671 0.674828
0.533572 0.747629 0.747629
0.535519 0.749576 0.820020
0.537457 0.751513 0.892058
0.540806 0.825307 0.318766
0.542897 0.827397 0.396503
0.544935 0.829435 0.472278
0.546943 0.831444 0.546943
0.548930 0.833431 0.620829
0.550901 0.835402 0.694116
0.552859 0.837360 0.766916
0.554806 0.839307 0.839307
0.556744 0.841245 0.911346
0.559999 0.914601 0.337960
0.562090 0.916692 0.415696
0.564128 0.918730 0.491472
0.566136 0.920738 0.566136
0.568123 0.922725 0.640022
0.570095 0.924696 0.713309
0.572053 0.926654 0.786109
0.574000 0.928601 0.858501
0.575937 0.930539 0.930539
0.479868 0.185929 0.185929
0.481958 0.188020 0.263666
0.483996 0.190058 0.339442
0.486005 0.192067 0.414106
0.487992 0.194054 0.487992
0.489963 0.196025 0.561279
0.491921 0.197983 0.634079
0.493868 0.199930 0.706470
0.495806 0.201868 0.778509
0.500579 0.282287 0.206641
0.502670 0.284378 0.284378
0.504708 0.286416 0.360153
0.506716 0.288424 0.434818
0.508703 0.290411 0.508703
0.510675 0.292383 0.581990
0.512633 0.294341 0.654791
0.514580 0.296288 0.727182
0.516517 0.298225 0.799220
0.520768 0.376213 0.226830
0.522859 0.378304 0.304567
0.524897 0.380342 0.380342
0.526905 0.382350 0.455007
0.528892 0.384338 0.528892
0.530864 0.386309 0.602179
0.532822 0.388267 0.674980
0.534769 0.390214 0.747371
0.536706 0.392152 0.819409
0.540661 0.468762 0.246723
0.542752 0.470853 0.324460
0.544790 0.472891 0.400235
0.546798 0.474900 0.474900
0.548785 0.476887 0.548785
0.550757 0.478858 0.622072
0.552715 0.480816 0.694873
0.554662 0.482763 0.767264
0.556599 0.484701 0.839302
0.560346 0.560346 0.266408
0.562437 0.562437 0.344145
0.564475 0.564475 0.419921
0.566484 0.566484 0.494585
0.568471 0.568471 0.568471
0.570442 0.570442 0.641758
0.572400 0.572400 0.714558
0.574347 0.574347 0.786949
0.576285 0.576285 0.858988
0.579872 0.651188 0.285934
0.581963 0.653279 0.363671
0.584001 0.655317 0.439447
0.586010 0.657325 0.514111
0.587997 0.659312 0.587997
0.589968 0.661284 0.661284
0.591926 0.663242 0.734084
0.593873 0.665189 0.806475
0.595811 0.667126 0.878514
0.599269 0.741427 0.305331
0.601360 0.743518 0.383068
0.603398 0.745556 0.458843
0.605406 0.747564 0.533507
0.607393 0.749551 0.607393
0.609364 0.751522 0.680680
0.611322 0.753480 0.753480
0.613269 0.755427 0.825872
0.615207 0.757365 0.897910
0.618556 0.831158 0.324618
0.620647 0.833249 0.402355
0.622685 0.835287 0.478130
0.624693 0.837295 0.552795
0.626680 0.839283 0.626680
0.628652 0.841254 0.699967
0.630610 0.843212 0.772768
0.632557 0.845159 0.845159
0.634494 0.847097 0.917197
0.637749 0.920452 0.343811
0.639840 0.922543 0.421548
0.641878 0.924581 0.497324
0.643886 0.926590 0.571988
0.645874 0.928577 0.645874
0.647845 0.930548 0.719161
0.649803 0.932506 0.791961
0.651750 0.934453 0.864352
0.653688 0.936391 0.936391
0.556987 0.191734 0.191734
0.559078 0.193825 0.269471
0.561116 0.195863 0.345246
0.563125 0.197871 0.419910
0.565112 0.199858 0.493796
0.567083 0.201829 0.567083
0.569041 0.203787 0.639883
0.570988 0.205734 0.712275
0.572926 0.207672 0.784313
0.577699 0.288091 0.212445
0.579790 0.290182 0.290182
0.581828 0.292220 0.365958
0.583836 0.294228 0.440622
0.585823 0.296216 0.514508
0.587795 0.298187 0.587795
0.589753 0.300145 0.660595
0.591700 0.302092 0.732986
0.593637 0.304030 0.805025
0.597888 0.382018 0.232634
0.599979 0.384108 0.310371
0.602017 0.386146 0.386146
0.604025 0.388155 0.460811
0.606012 0.390142 0.534697
0.607984 0.392113 0.607984
0.609942 0.394071 0.680784
0.611889 0.396018 0.753175
0.613826 0.397956 0.825214
0.617781 0.474567 0.252527
0.619872 0.476657 0.330264
0.621910 0.478696 0.406039
0.623918 0.480704 0.480704
0.625905 0.482691 0.554590
0.627876 0.484662 0.627876
0.629835 0.486620 0.700677
0.631782 0.488567 0.773068
0.633719 0.490505 0.845107
0.637466 0.566151 0.272213
0.639557 0.568242 0.349950
0.641595 0.570280 0.425725
0.643604 0.572288 0.500389
0.645591 0.574275 0.574275
0.647562 0.576246 0.647562
0.649520 0.578204 0.720362
0.651467 0.580151 0.792754
0.653405 0.582089 0.864792
0.656992 0.656992 0.291739
0.659083 0.659083 0.369475
0.661121 0.661121 0.445251
0.663129 0.663129 0.519915
0.665117 0.665117 0.593801
0.667088 0.667088 0.667088
0.669046 0.669046 0.739888
0.670993 0.670993 0.812280
0.672931 0.672931 0.884318
0.676389 0.747231 0.311135
0.678479 0.749322 0.388872
0.680518 0.751360 0.464647
0.682526 0.753368 0.539312
0.684513 0.755355 0.613197
0.686484 0.757327 0.686484
0.688442 0.759285 0.759285
0.690389 0.761232 0.831676
0.692327 0.763169 0.903714
0.695676 0.836962 0.330422
0.697767 0.839053 0.408159
0.699805 0.841091 0.483934
0.701813 0.843100 0.558599
0.703800 0.845087 0.632485
0.705772 0.847058 0.705772
0.707730 0.849016 0.778572
0.709677 0.850963 0.850963
0.711614 0.852901 0.923002
0.714869 0.926257 0.349616
0.716960 0.928348 0.427352
0.718998 0.930386 0.503128
0.721006 0.932394 0.577792
0.722994 0.934381 0.651678
0.724965 0.936352 0.724965
0.726923 0.938310 0.797765
0.728870 0.940257 0.870157
0.730808 0.942195 0.942195
0.633596 0.197499 0.197499
0.635686 0.199590 0.275236
0.637724 0.201628 0.351012
0.639733 0.203637 0.425676
0.641720 0.205624 0.499562
0.643691 0.207595 0.572849
0.645649 0.209553 0.645649
0.647596 0.211500 0.718040
0.649534 0.213438 0.790079
0.654307 0.293857 0.218211
0.656398 0.295948 0.295948
0.658436 0.297986 0.371723
0.660444 0.299994 0.446388
0.662431 0.301981 0.520274
0.664403 0.303953 0.593560
0.666361 0.305911 0.666361
0.668308 0.307858 0.738752
0.670245 0.309795 0.810790
0.674496 0.387783 0.238400
0.676587 0.389874 0.316137
0.678625 0.391912 0.391912
0.680633 0.393920 0.466577
0.682620 0.395908 0.540462
0.684592 0.397879 0.613749
0.686550 0.399837 0.686550
0.688497 0.401784 0.758941
0.690434 0.403722 0.830979
0.694389 0.480332 0.258293
0.696480 0.482423 0.336030
0.698518 0.484461 0.411805
0.700526 0.486470 0.486470
0.702513 0.488457 0.560355
0.704485 0.490428 0.633642
0.706443 0.492386 0.706443
0.708390 0.494333 0.778834
0.710327 0.496271 0.850872
0.714074 0.571916 0.277978
0.716165 0.574007 0.355715
0.718203 0.576045 0.431491
0.720212 0.578054 0.506155
0.722199 0.580041 0.580041
0.724170 0.582012 0.653328
0.726128 0.583970 0.726128
0.728075 0.585917 0.798519
0.730013 0.587855 0.870558
0.733600 0.662758 0.297504
0.735691 0.664849 0.375241
0.737729 0.666887 0.451017
0.739738 0.668895 0.525681
0.741725 0.670882 0.599567
0.743696 0.672854 0.672854
0.745654 0.674812 0.745654
0.747601 0.676759 0.818045
0.749539 0.678696 0.890084
0.752997 0.752997 0.316901
0.755088 0.755088 0.394638
0.757126 0.757126 0.470413
0.759134 0.759134 0.545077
0.761121 0.761121 0.618963
0.763092 0.763092 0.692250
0.765050 0.765050 0.765050
0.766997 0.766997 0.837442
0.768935 0.768935 0.909480
0.772284 0.842728 0.336188
0.774375 0.844819 0.413925
0.776413 0.846857 0.489700
0.778421 0.848865 0.564365
0.780408 0.850853 0.638250
0.782380 0.852824 0.711537
0.784338 0.854782 0.784338
0.786285 0.856729 0.856729
0.788222 0.858667 0.928767
0.791477 0.932022 0.355381
0.793568 0.934113 0.433118
0.795606 0.936151 0.508894
0.797614 0.938160 0.583558
0.799602 0.940147 0.657444
0.801573 0.942118 0.730731
0.803531 0.944076 0.803531
0.805478 0.946023 0.875922
0.807416 0.947961 0.947961
0.709773 0.203233 0.203233
0.711864 0.205324 0.280970
0.713902 0.207362 0.356745
0.715910 0.209370 0.431409
0.717897 0.211357 0.505295
0.719869 0.213328 0.578582
0.721827 0.215286 0.651382
0.723774 0.217233 0.723774
0.725711 0.219171 0.795812
0.730485 0.299590 0.223944
0.732575 0.301681 0.301681
0.734614 0.303719 0.377457
0.736622 0.305728 0.452121
0.738609 0.307715 0.526007
0.740580 0.309686 0.599294
0.742538 0.311644 0.672094
0.744485 0.313591 0.744485
0.746423 0.315529 0.816524
0.750674 0.393517 0.244133
0.752764 0.395607 0.321870
0.754802 0.397646 0.397646
0.756811 0.399654 0.472310
0.758798 0.401641 0.546196
0.760769 0.403612 0.619483
0.762727 0.405570 0.692283
0.764674 0.407517 0.764674
0.766612 0.409455 0.836713
0.770566 0.486066 0.264026
0.772657 0.488157 0.341763
0.774695 0.490195 0.417538
0.776704 0.492203 0.492203
0.778691 0.494190 0.566089
0.780662 0.496161 0.639376
0.782620 0.498119 0.712176
0.784567 0.500066 0.784567
0.786505 0.502004 0.856606
0.790252 0.577650 0.283712
0.792343 0.579741 0.361449
0.794381 0.581779 0.437224
0.796389 0.583787 0.511888
0.798376 0.585774 0.585774
0.800348 0.587745 0.659061
0.802306 0.589703 0.731861
0.804253 0.591651 0.804253
0.806190 0.593588 0.876291
0.809778 0.668491 0.303238
0.811869 0.670582 0.380975
0.813907 0.672620 0.456750
0.815915 0.674629 0.531414
0.817902 0.676616 0.605300
0.819874 0.678587 0.678587
0.821832 0.680545 0.751387
0.823779 0.682492 0.823779
0.825716 0.684430 0.895817
0.829174 0.758730 0.322634
0.831265 0.760821 0.400371
0.833303 0.762859 0.476146
0.835311 0.764867 0.550811
0.837299 0.766854 0.624696
0.839270 0.768826 0.697983
0.841228 0.770784 0.770784
0.843175 0.772731 0.843175
0.845113 0.774668 0.915213
0.848462 0.848462 0.341921
0.850552 0.850552 0.419658
0.852591 0.852591 0.495434
0.854599 0.854599 0.570098
0.856586 0.856586 0.643984
0.858557 0.858557 0.717271
0.860515 0.860515 0.790071
0.862462 0.862462 0.862462
0.864400 0.864400 0.934501
0.867655 0.937756 0.361115
0.869746 0.939847 0.438852
0.871784 0.941885 0.514627
0.873792 0.943893 0.589291
0.875779 0.945880 0.663177
0.877750 0.947851 0.736464
0.879709 0.949809 0.809264
0.881656 0.951756 0.881656
0.883593 0.953694 0.953694
0.785579 0.208938 0.208938
0.787670 0.211029 0.286675
0.789708 0.213067 0.362450
0.791716 0.215075 0.437115
0.793704 0.217063 0.511001
0.795675 0.219034 0.584287
0.797633 0.220992 0.657088
0.799580 0.222939 0.729479
0.801518 0.224876 0.801518
0.806291 0.305296 0.229650
0.808382 0.307387 0.307387
0.810420 0.309425 0.383162
0.812428 0.311433 0.457826
0.814415 0.313420 0.531712
0.816386 0.315391 0.604999
0.818345 0.317349 0.677799
0.820292 0.319297 0.750191
0.822229 0.321234 0.822229
0.826480 0.399222 0.249839
0.828571 0.401313 0.327576
0.830609 0.403351 0.403351
0.832617 0.405359 0.478015
0.834604 0.407346 0.551901
0.836575 0.409318 0.625188
0.838533 0.411276 0.697988
0.840481 0.413223 0.770380
0.842418 0.415160 0.842418
0.846373 0.491771 0.269732
0.848464 0.493862 0.347469
0.850502 0.495900 0.423244
0.852510 0.497908 0.497908
0.854497 0.499896 0.571794
0.856468 0.501867 0.645081
0.858426 0.503825 0.717881
0.860373 0.505772 0.790273
0.862311 0.507709 0.862311
0.866058 0.583355 0.289417
0.868149 0.585446 0.367154
0.870187 0.587484 0.442929
0.872195 0.589492 0.517594
0.874183 0.591480 0.591480
0.876154 0.593451 0.664766
0.878112 0.595409 0.737567
0.880059 0.597356 0.809958
0.881997 0.599294 0.881997
0.885584 0.674197 0.308943
0.887675 0.676288 0.386680
0.889713 0.678326 0.462455
0.891721 0.680334 0.537120
0.893709 0.682321 0.611006
0.895680 0.684292 0.684292
0.897638 0.686250 0.757093
0.899585 0.688198 0.829484
0.901522 0.690135 0.901522
0.904981 0.764435 0.328339
0.907071 0.766526 0.406076
0.909109 0.768564 0.481852
0.911118 0.770573 0.556516
0.913105 0.772560 0.630402
0.915076 0.774531 0.703689
0.917034 0.776489 0.776489
0.918981 0.778436 0.848880
0.920919 0.780374 0.920919
0.924268 0.854167 0.347627
0.926359 0.856258 0.425364
0.928397 0.858296 0.501139
0.930405 0.860304 0.575803
0.932392 0.862291 0.649689
0.934363 0.864263 0.722976
0.936321 0.866221 0.795776
0.938269 0.868168 0.868168
0.940206 0.870105 0.940206
0.943461 0.943461 0.366820
0.945552 0.945552 0.444557
0.947590 0.947590 0.520332
0.949598 0.949598 0.594997
0.951586 0.951586 0.668882
0.953557 0.953557 0.742169
0.955515 0.955515 0.814970
0.957462 0.957462 0.887361
0.959399 0.959399 0.959399
