skills/promo-director/assets/grade/luts/vintage_fade_v18.cube
TITLE "vintage_fade_v18"
LUT_3D_SIZE 17
DOMAIN_MIN 0.0 0.0 0.0
DOMAIN_MAX 1.0 1.0 1.0
0.162006 0.162006 0.162006
0.163061 0.163061 0.201225
0.164097 0.164097 0.239743
0.165121 0.165121 0.277802
0.166135 0.166135 0.315519
0.167142 0.167142 0.352964
0.168143 0.168143 0.390183
0.169139 0.169139 0.427210
0.170131 0.170131 0.464069
0.171118 0.171118 0.500779
0.172102 0.172102 0.537356
0.173082 0.173082 0.573811
0.174060 0.174060 0.610156
0.175035 0.175035 0.646399
0.176007 0.176007 0.682547
0.176977 0.176977 0.718608
0.177945 0.177945 0.754586
0.172455 0.210620 0.172455
0.173510 0.211675 0.211675
0.174546 0.212711 0.250192
0.175570 0.213734 0.288251
0.176584 0.214749 0.325968
0.177592 0.215756 0.363413
0.178593 0.216757 0.400632
0.179589 0.217753 0.437659
0.180580 0.218744 0.474518
0.181567 0.219731 0.511228
0.182551 0.220715 0.547805
0.183532 0.221696 0.584260
0.184509 0.222673 0.620605
0.185484 0.223648 0.656848
0.186456 0.224620 0.692996
0.187426 0.225590 0.729057
0.188394 0.226558 0.765035
0.182718 0.258364 0.182718
0.183773 0.259419 0.221937
0.184809 0.260455 0.260455
0.185832 0.261478 0.298513
0.186847 0.262493 0.336230
0.187854 0.263500 0.373675
0.188855 0.264501 0.410895
0.189851 0.265497 0.447921
0.190842 0.266488 0.484780
0.191830 0.267476 0.521491
0.192813 0.268460 0.558067
0.193794 0.269440 0.594523
0.194772 0.270418 0.630868
0.195746 0.271392 0.667110
0.196719 0.272365 0.703259
0.197688 0.273335 0.739319
0.198656 0.274302 0.775297
0.192858 0.305539 0.192858
0.193913 0.306594 0.232077
0.194949 0.307630 0.270595
0.195972 0.308653 0.308653
0.196987 0.309668 0.346370
0.197994 0.310675 0.383815
0.198995 0.311676 0.421034
0.199991 0.312672 0.458061
0.200982 0.313663 0.494920
0.201970 0.314651 0.531631
0.202953 0.315634 0.568207
0.203934 0.316615 0.604663
0.204911 0.317592 0.641008
0.205886 0.318567 0.677250
0.206859 0.319540 0.713399
0.207828 0.320509 0.749459
0.208796 0.321477 0.785437
0.202907 0.352290 0.202907
0.203962 0.353345 0.242126
0.204998 0.354381 0.280644
0.206021 0.355405 0.318702
0.207036 0.356419 0.356419
0.208043 0.357426 0.393864
0.209044 0.358427 0.431083
0.210040 0.359423 0.468110
0.211031 0.360415 0.504969
0.212019 0.361402 0.541679
0.213002 0.362386 0.578256
0.213983 0.363366 0.614712
0.214960 0.364344 0.651057
0.215935 0.365319 0.687299
0.216908 0.366291 0.723448
0.217877 0.367261 0.759508
0.218845 0.368228 0.795486
0.212883 0.398704 0.212883
0.213938 0.399759 0.252102
0.214974 0.400795 0.290620
0.215998 0.401819 0.328679
0.217012 0.402833 0.366396
0.218019 0.403841 0.403841
0.219020 0.404842 0.441060
0.220016 0.405837 0.478087
0.221008 0.406829 0.514946
0.221995 0.407816 0.551656
0.222979 0.408800 0.588233
0.223959 0.409781 0.624688
0.224937 0.410758 0.661033
0.225912 0.411733 0.697276
0.226884 0.412705 0.733424
0.227854 0.413675 0.769485
0.228822 0.414643 0.805463
0.222800 0.444839 0.222800
0.223855 0.445894 0.262019
0.224891 0.446930 0.300537
0.225914 0.447954 0.338595
0.226929 0.448968 0.376312
0.227936 0.449975 0.413757
0.228937 0.450976 0.450976
0.229933 0.451972 0.488003
0.230924 0.452964 0.524862
0.231912 0.453951 0.561572
0.232895 0.454935 0.598149
0.233876 0.455915 0.634605
0.234853 0.456893 0.670949
0.235828 0.457868 0.707192
0.236800 0.458840 0.743341
0.237770 0.459810 0.779401
0.238738 0.460778 0.815379
0.232665 0.490735 0.232665
0.233720 0.491790 0.271884
0.234756 0.492826 0.310402
0.235779 0.493850 0.348460
0.236794 0.494864 0.386177
0.237801 0.495871 0.423622
0.238802 0.496873 0.460842
0.239798 0.497868 0.497868
0.240789 0.498860 0.534727
0.241777 0.499847 0.571438
0.242760 0.500831 0.608014
0.243741 0.501811 0.644470
0.244719 0.502789 0.680815
0.245693 0.503764 0.717057
0.246666 0.504736 0.753206
0.247635 0.505706 0.789266
0.248603 0.506674 0.825244
0.242485 0.536423 0.242485
0.243540 0.537478 0.281704
0.244576 0.538514 0.320222
0.245600 0.539538 0.358281
0.246614 0.540552 0.395998
0.247621 0.541559 0.433442
0.248622 0.542560 0.470662
0.249618 0.543556 0.507689
0.250610 0.544548 0.544548
0.251597 0.545535 0.581258
0.252581 0.546519 0.617835
0.253561 0.547499 0.654290
0.254539 0.548477 0.690635
0.255514 0.549452 0.726878
0.256486 0.550424 0.763026
0.257456 0.551394 0.799087
0.258424 0.552362 0.835065
0.252266 0.581927 0.252266
0.253321 0.582982 0.291485
0.254357 0.584018 0.330003
0.255380 0.585041 0.368061
0.256395 0.586056 0.405778
0.257402 0.587063 0.443223
0.258403 0.588064 0.480443
0.259399 0.589060 0.517470
0.260390 0.590051 0.554329
0.261378 0.591039 0.591039
0.262362 0.592022 0.627615
0.263342 0.593003 0.664071
0.264320 0.593981 0.700416
0.265294 0.594955 0.736659
0.266267 0.595928 0.772807
0.267237 0.596898 0.808867
0.268204 0.597865 0.844845
0.262011 0.627265 0.262011
0.263066 0.628320 0.301230
0.264102 0.629356 0.339748
0.265126 0.630379 0.377807
0.266140 0.631394 0.415523
0.267147 0.632401 0.452968
0.268148 0.633402 0.490188
0.269144 0.634398 0.527215
0.270136 0.635389 0.564074
0.271123 0.636377 0.600784
0.272107 0.637360 0.637360
0.273087 0.638341 0.673816
0.274065 0.639319 0.710161
0.275040 0.640293 0.746404
0.276012 0.641266 0.782552
0.276982 0.642236 0.818613
0.277949 0.643203 0.854591
0.271724 0.672453 0.271724
0.272779 0.673508 0.310943
0.273815 0.674544 0.349461
0.274839 0.675567 0.387520
0.275853 0.676582 0.425236
0.276860 0.677589 0.462681
0.277861 0.678590 0.499901
0.278857 0.679586 0.536928
0.279848 0.680577 0.573787
0.280836 0.681565 0.610497
0.281820 0.682548 0.647073
0.282800 0.683529 0.683529
0.283778 0.684507 0.719874
0.284753 0.685481 0.756117
0.285725 0.686454 0.792265
0.286695 0.687423 0.828325
0.287662 0.688391 0.864304
0.281407 0.717504 0.281407
0.282462 0.718558 0.320627
0.283498 0.719594 0.359144
0.284522 0.720618 0.397203
0.285536 0.721633 0.434920
0.286544 0.722640 0.472365
0.287545 0.723641 0.509584
0.288541 0.724637 0.546611
0.289532 0.725628 0.583470
0.290519 0.726615 0.620180
0.291503 0.727599 0.656757
0.292484 0.728580 0.693212
0.293461 0.729557 0.729557
0.294436 0.730532 0.765800
0.295408 0.731504 0.801948
0.296378 0.732474 0.838009
0.297346 0.733442 0.873987
0.291064 0.762428 0.291064
0.292119 0.763483 0.330283
0.293155 0.764519 0.368801
0.294178 0.765542 0.406859
0.295193 0.766557 0.444576
0.296200 0.767564 0.482021
0.297201 0.768565 0.519240
0.298197 0.769561 0.556267
0.299188 0.770552 0.593126
0.300176 0.771540 0.629836
0.301159 0.772523 0.666413
0.302140 0.773504 0.702869
0.303117 0.774482 0.739213
0.304092 0.775456 0.775456
0.305064 0.776429 0.811605
0.306034 0.777398 0.847665
0.307002 0.778366 0.883643
0.300695 0.807235 0.300695
0.301750 0.808290 0.339914
0.302786 0.809326 0.378432
0.303809 0.810350 0.416490
0.304824 0.811364 0.454207
0.305831 0.812371 0.491652
0.306832 0.813372 0.528871
0.307828 0.814368 0.565898
0.308819 0.815360 0.602757
0.309807 0.816347 0.639467
0.310790 0.817331 0.676044
0.311771 0.818311 0.712500
0.312748 0.819289 0.748845
0.313723 0.820264 0.785087
0.314696 0.821236 0.821236
0.315665 0.822206 0.857296
0.316633 0.823173 0.893274
0.310302 0.851933 0.310302
0.311357 0.852988 0.349522
0.312393 0.854024 0.388039
0.313417 0.855048 0.426098
0.314431 0.856062 0.463815
0.315439 0.857069 0.501260
0.316440 0.858070 0.538479
0.317435 0.859066 0.575506
0.318427 0.860058 0.612365
0.319414 0.861045 0.649075
0.320398 0.862029 0.685652
0.321379 0.863009 0.722107
0.322356 0.863987 0.758452
0.323331 0.864962 0.794695
0.324303 0.865934 0.830843
0.325273 0.866904 0.866904
0.326241 0.867872 0.902882
0.319888 0.896529 0.319888
0.320943 0.897584 0.359107
0.321979 0.898620 0.397625
0.323003 0.899644 0.435684
0.324017 0.900658 0.473400
0.325024 0.901665 0.510845
0.326025 0.902666 0.548065
0.327021 0.903662 0.585092
0.328013 0.904654 0.621951
0.329000 0.905641 0.658661
0.329984 0.906625 0.695237
0.330964 0.907605 0.731693
0.331942 0.908583 0.768038
0.332917 0.909558 0.804281
0.333889 0.910530 0.840429
0.334859 0.911500 0.876490
0.335826 0.912468 0.912468
0.203277 0.165112 0.165112
0.204331 0.166167 0.204331
0.205367 0.167203 0.242849
0.206391 0.168227 0.280908
0.207406 0.169241 0.318625
0.208413 0.170248 0.356070
0.209414 0.171250 0.393289
0.210410 0.172245 0.430316
0.211401 0.173237 0.467175
0.212388 0.174224 0.503885
0.213372 0.175208 0.540462
0.214353 0.176189 0.576917
0.215330 0.177166 0.613262
0.216305 0.178141 0.649505
0.217277 0.179113 0.685653
0.218247 0.180083 0.721714
0.219215 0.181051 0.757692
0.213726 0.213726 0.175562
0.214781 0.214781 0.214781
0.215817 0.215817 0.253299
0.216840 0.216840 0.291357
0.217855 0.217855 0.329074
0.218862 0.218862 0.366519
0.219863 0.219863 0.403738
0.220859 0.220859 0.440765
0.221850 0.221850 0.477624
0.222838 0.222838 0.514334
0.223821 0.223821 0.550911
0.224802 0.224802 0.587366
0.225779 0.225779 0.623711
0.226754 0.226754 0.659954
0.227727 0.227727 0.696103
0.228696 0.228696 0.732163
0.229664 0.229664 0.768141
0.223988 0.261470 0.185824
0.225043 0.262525 0.225043
0.226079 0.263561 0.263561
0.227103 0.264585 0.301619
0.228117 0.265599 0.339336
0.229124 0.266606 0.376781
0.230125 0.267607 0.414001
0.231121 0.268603 0.451028
0.232113 0.269594 0.487886
0.233100 0.270582 0.524597
0.234084 0.271566 0.561173
0.235064 0.272546 0.597629
0.236042 0.273524 0.633974
0.237017 0.274499 0.670217
0.237989 0.275471 0.706365
0.238959 0.276441 0.742425
0.239926 0.277408 0.778403
0.234128 0.308645 0.195964
0.235183 0.309700 0.235183
0.236219 0.310736 0.273701
0.237243 0.311759 0.311759
0.238257 0.312774 0.349476
0.239264 0.313781 0.386921
0.240265 0.314782 0.424141
0.241261 0.315778 0.461168
0.242253 0.316769 0.498026
0.243240 0.317757 0.534737
0.244224 0.318740 0.571313
0.245204 0.319721 0.607769
0.246182 0.320699 0.644114
0.247157 0.321673 0.680357
0.248129 0.322646 0.716505
0.249099 0.323616 0.752565
0.250066 0.324583 0.788543
0.244177 0.355396 0.206013
0.245232 0.356451 0.245232
0.246268 0.357487 0.283750
0.247292 0.358511 0.321808
0.248306 0.359525 0.359525
0.249313 0.360532 0.396970
0.250314 0.361533 0.434190
0.251310 0.362529 0.471216
0.252302 0.363521 0.508075
0.253289 0.364508 0.544786
0.254273 0.365492 0.581362
0.255253 0.366472 0.617818
0.256231 0.367450 0.654163
0.257206 0.368425 0.690406
0.258178 0.369397 0.726554
0.259148 0.370367 0.762614
0.260115 0.371335 0.798592
0.254154 0.401811 0.215989
0.255208 0.402865 0.255208
0.256244 0.403901 0.293726
0.257268 0.404925 0.331785
0.258283 0.405940 0.369502
0.259290 0.406947 0.406947
0.260291 0.407948 0.444166
0.261287 0.408944 0.481193
0.262278 0.409935 0.518052
0.263265 0.410922 0.554762
0.264249 0.411906 0.591339
0.265230 0.412887 0.627794
0.266207 0.413864 0.664139
0.267182 0.414839 0.700382
0.268154 0.415811 0.736530
0.269124 0.416781 0.772591
0.270092 0.417749 0.808569
0.264070 0.447945 0.225906
0.265125 0.449000 0.265125
0.266161 0.450036 0.303643
0.267185 0.451060 0.341701
0.268199 0.452074 0.379418
0.269206 0.453081 0.416863
0.270207 0.454083 0.454083
0.271203 0.455078 0.491109
0.272194 0.456070 0.527968
0.273182 0.457057 0.564679
0.274166 0.458041 0.601255
0.275146 0.459021 0.637711
0.276124 0.459999 0.674056
0.277099 0.460974 0.710298
0.278071 0.461946 0.746447
0.279041 0.462916 0.782507
0.280008 0.463884 0.818485
0.273935 0.493841 0.235771
0.274990 0.494896 0.274990
0.276026 0.495932 0.313508
0.277050 0.496956 0.351566
0.278064 0.497970 0.389283
0.279071 0.498978 0.426728
0.280072 0.499979 0.463948
0.281068 0.500975 0.500975
0.282060 0.501966 0.537833
0.283047 0.502953 0.574544
0.284031 0.503937 0.611120
0.285011 0.504918 0.647576
0.285989 0.505895 0.683921
0.286964 0.506870 0.720164
0.287936 0.507842 0.756312
0.288906 0.508812 0.792372
0.289873 0.509780 0.828350
0.283756 0.539529 0.245591
0.284810 0.540584 0.284810
0.285846 0.541620 0.323328
0.286870 0.542644 0.361387
0.287885 0.543658 0.399104
0.288892 0.544666 0.436549
0.289893 0.545667 0.473768
0.290889 0.546663 0.510795
0.291880 0.547654 0.547654
0.292867 0.548641 0.584364
0.293851 0.549625 0.620941
0.294832 0.550606 0.657396
0.295809 0.551583 0.693741
0.296784 0.552558 0.729984
0.297756 0.553530 0.766132
0.298726 0.554500 0.802193
0.299694 0.555468 0.838171
0.293536 0.585033 0.255372
0.294591 0.586088 0.294591
0.295627 0.587124 0.333109
0.296651 0.588148 0.371168
0.297665 0.589162 0.408884
0.298672 0.590169 0.446329
0.299673 0.591170 0.483549
0.300669 0.592166 0.520576
0.301661 0.593157 0.557435
0.302648 0.594145 0.594145
0.303632 0.595129 0.630721
0.304612 0.596109 0.667177
0.305590 0.597087 0.703522
0.306565 0.598061 0.739765
0.307537 0.599034 0.775913
0.308507 0.600004 0.811974
0.309475 0.600971 0.847952
0.303282 0.630371 0.265117
0.304336 0.631426 0.304336
0.305372 0.632462 0.342854
0.306396 0.633486 0.380913
0.307410 0.634500 0.418630
0.308418 0.635507 0.456075
0.309419 0.636508 0.493294
0.310415 0.637504 0.530321
0.311406 0.638495 0.567180
0.312393 0.639483 0.603890
0.313377 0.640467 0.640467
0.314358 0.641447 0.676922
0.315335 0.642425 0.713267
0.316310 0.643399 0.749510
0.317282 0.644372 0.785658
0.318252 0.645342 0.821719
0.319220 0.646309 0.857697
0.312994 0.675559 0.274830
0.314049 0.676614 0.314049
0.315085 0.677650 0.352567
0.316109 0.678673 0.390626
0.317123 0.679688 0.428342
0.318130 0.680695 0.465787
0.319132 0.681696 0.503007
0.320127 0.682692 0.540034
0.321119 0.683683 0.576893
0.322106 0.684671 0.613603
0.323090 0.685655 0.650180
0.324071 0.686635 0.686635
0.325048 0.687613 0.722980
0.326023 0.688587 0.759223
0.326995 0.689560 0.795371
0.327965 0.690530 0.831432
0.328933 0.691497 0.867410
0.322678 0.720610 0.284514
0.323733 0.721665 0.323733
0.324769 0.722701 0.362251
0.325792 0.723724 0.400309
0.326807 0.724739 0.438026
0.327814 0.725746 0.475471
0.328815 0.726747 0.512690
0.329811 0.727743 0.549717
0.330802 0.728734 0.586576
0.331790 0.729721 0.623286
0.332773 0.730705 0.659863
0.333754 0.731686 0.696318
0.334731 0.732663 0.732663
0.335706 0.733638 0.768906
0.336679 0.734610 0.805055
0.337648 0.735580 0.841115
0.338616 0.736548 0.877093
0.332334 0.765534 0.294170
0.333389 0.766589 0.333389
0.334425 0.767625 0.371907
0.335449 0.768648 0.409965
0.336463 0.769663 0.447682
0.337470 0.770670 0.485127
0.338471 0.771671 0.522347
0.339467 0.772667 0.559373
0.340458 0.773658 0.596232
0.341446 0.774646 0.632943
0.342430 0.775630 0.669519
0.343410 0.776610 0.705975
0.344388 0.777588 0.742320
0.345363 0.778562 0.778562
0.346335 0.779535 0.814711
0.347305 0.780505 0.850771
0.348272 0.781472 0.886749
0.341965 0.810341 0.303801
0.343020 0.811396 0.343020
0.344056 0.812432 0.381538
0.345080 0.813456 0.419596
0.346094 0.814470 0.457313
0.347101 0.815477 0.494758
0.348102 0.816478 0.531978
0.349098 0.817474 0.569004
0.350090 0.818466 0.605863
0.351077 0.819453 0.642574
0.352061 0.820437 0.679150
0.353041 0.821417 0.715606
0.354019 0.822395 0.751951
0.354994 0.823370 0.788194
0.355966 0.824342 0.824342
0.356936 0.825312 0.860402
0.357903 0.826280 0.896380
0.351573 0.855039 0.313409
0.352628 0.856094 0.352628
0.353664 0.857130 0.391145
0.354687 0.858154 0.429204
0.355702 0.859168 0.466921
0.356709 0.860175 0.504366
0.357710 0.861176 0.541585
0.358706 0.862172 0.578612
0.359697 0.863164 0.615471
0.360685 0.864151 0.652181
0.361668 0.865135 0.688758
0.362649 0.866115 0.725213
0.363626 0.867093 0.761558
0.364601 0.868068 0.797801
0.365573 0.869040 0.833950
0.366543 0.870010 0.870010
0.367511 0.870978 0.905988
0.361158 0.899635 0.322994
0.362213 0.900690 0.362213
0.363249 0.901726 0.400731
0.364273 0.902750 0.438790
0.365287 0.903764 0.476506
0.366295 0.904771 0.513951
0.367296 0.905773 0.551171
0.368291 0.906768 0.588198
0.369283 0.907760 0.625057
0.370270 0.908747 0.661767
0.371254 0.909731 0.698344
0.372235 0.910711 0.734799
0.373212 0.911689 0.771144
0.374187 0.912664 0.807387
0.375159 0.913636 0.843535
0.376129 0.914606 0.879596
0.377097 0.915574 0.915574
0.243809 0.168163 0.168163
0.244864 0.169218 0.207382
0.245900 0.170254 0.245900
0.246924 0.171277 0.283958
0.247938 0.172292 0.321675
0.248945 0.173299 0.359120
0.249946 0.174300 0.396340
0.250942 0.175296 0.433367
0.251933 0.176287 0.470226
0.252921 0.177275 0.506936
0.253905 0.178259 0.543512
0.254885 0.179239 0.579968
0.255863 0.180217 0.616313
0.256838 0.181191 0.652556
0.257810 0.182164 0.688704
0.258780 0.183134 0.724764
0.259747 0.184101 0.760742
0.254258 0.216776 0.178612
0.255313 0.217831 0.217831
0.256349 0.218867 0.256349
0.257373 0.219891 0.294408
0.258387 0.220905 0.332124
0.259394 0.221912 0.369569
0.260395 0.222914 0.406789
0.261391 0.223909 0.443816
0.262383 0.224901 0.480675
0.263370 0.225888 0.517385
0.264354 0.226872 0.553962
0.265334 0.227853 0.590417
0.266312 0.228830 0.626762
0.267287 0.229805 0.663005
0.268259 0.230777 0.699153
0.269229 0.231747 0.735214
0.270197 0.232715 0.771192
0.264521 0.264521 0.188875
0.265575 0.265575 0.228094
0.266611 0.266611 0.266611
0.267635 0.267635 0.304670
0.268650 0.268650 0.342387
0.269657 0.269657 0.379832
0.270658 0.270658 0.417051
0.271654 0.271654 0.454078
0.272645 0.272645 0.490937
0.273632 0.273632 0.527647
0.274616 0.274616 0.564224
0.275597 0.275597 0.600679
0.276574 0.276574 0.637024
0.277549 0.277549 0.673267
0.278521 0.278521 0.709416
0.279491 0.279491 0.745476
0.280459 0.280459 0.781454
0.274661 0.311696 0.199015
0.275715 0.312750 0.238234
0.276751 0.313786 0.276751
0.277775 0.314810 0.314810
0.278790 0.315824 0.352527
0.279797 0.316832 0.389972
0.280798 0.317833 0.427191
0.281794 0.318829 0.464218
0.282785 0.319820 0.501077
0.283772 0.320807 0.537787
0.284756 0.321791 0.574364
0.285737 0.322772 0.610819
0.286714 0.323749 0.647164
0.287689 0.324724 0.683407
0.288661 0.325696 0.719556
0.289631 0.326666 0.755616
0.290599 0.327634 0.791594
0.284710 0.358447 0.209064
0.285764 0.359502 0.248283
0.286800 0.360538 0.286800
0.287824 0.361561 0.324859
0.288839 0.362576 0.362576
0.289846 0.363583 0.400021
0.290847 0.364584 0.437240
0.291843 0.365580 0.474267
0.292834 0.366571 0.511126
0.293821 0.367559 0.547836
0.294805 0.368542 0.584413
0.295786 0.369523 0.620868
0.296763 0.370500 0.657213
0.297738 0.371475 0.693456
0.298710 0.372448 0.729604
0.299680 0.373417 0.765665
0.300648 0.374385 0.801643
0.294686 0.404861 0.219040
0.295741 0.405916 0.258259
0.296777 0.406952 0.296777
0.297801 0.407976 0.334835
0.298815 0.408990 0.372552
0.299822 0.409997 0.409997
0.300823 0.410998 0.447217
0.301819 0.411994 0.484244
0.302811 0.412986 0.521103
0.303798 0.413973 0.557813
0.304782 0.414957 0.594389
0.305762 0.415937 0.630845
0.306740 0.416915 0.667190
0.307715 0.417890 0.703433
0.308687 0.418862 0.739581
0.309657 0.419832 0.775641
0.310624 0.420799 0.811619
0.304603 0.450996 0.228956
0.305657 0.452051 0.268176
0.306693 0.453087 0.306693
0.307717 0.454110 0.344752
0.308731 0.455125 0.382469
0.309739 0.456132 0.419914
0.310740 0.457133 0.457133
0.311736 0.458129 0.494160
0.312727 0.459120 0.531019
0.313714 0.460108 0.567729
0.314698 0.461092 0.604306
0.315679 0.462072 0.640761
0.316656 0.463050 0.677106
0.317631 0.464024 0.713349
0.318603 0.464997 0.749497
0.319573 0.465967 0.785558
0.320541 0.466934 0.821536
0.314468 0.496892 0.238822
0.315523 0.497947 0.278041
0.316559 0.498983 0.316559
0.317582 0.500007 0.354617
0.318597 0.501021 0.392334
0.319604 0.502028 0.429779
0.320605 0.503029 0.466998
0.321601 0.504025 0.504025
0.322592 0.505016 0.540884
0.323579 0.506004 0.577594
0.324563 0.506988 0.614171
0.325544 0.507968 0.650626
0.326521 0.508946 0.686971
0.327496 0.509921 0.723214
0.328468 0.510893 0.759363
0.329438 0.511863 0.795423
0.330406 0.512830 0.831401
0.324288 0.542580 0.248642
0.325343 0.543635 0.287861
0.326379 0.544671 0.326379
0.327403 0.545695 0.364437
0.328417 0.546709 0.402154
0.329424 0.547716 0.439599
0.330425 0.548717 0.476819
0.331421 0.549713 0.513846
0.332412 0.550704 0.550704
0.333400 0.551692 0.587415
0.334384 0.552676 0.623991
0.335364 0.553656 0.660447
0.336342 0.554634 0.696792
0.337316 0.555609 0.733035
0.338289 0.556581 0.769183
0.339259 0.557551 0.805243
0.340226 0.558518 0.841221
0.334069 0.588084 0.258423
0.335124 0.589138 0.297642
0.336160 0.590174 0.336160
0.337183 0.591198 0.374218
0.338198 0.592213 0.411935
0.339205 0.593220 0.449380
0.340206 0.594221 0.486599
0.341202 0.595217 0.523626
0.342193 0.596208 0.560485
0.343181 0.597195 0.597195
0.344164 0.598179 0.633772
0.345145 0.599160 0.670228
0.346122 0.600137 0.706572
0.347097 0.601112 0.742815
0.348070 0.602084 0.778964
0.349039 0.603054 0.815024
0.350007 0.604022 0.851002
0.343814 0.633422 0.268168
0.344869 0.634476 0.307387
0.345905 0.635512 0.345905
0.346928 0.636536 0.383963
0.347943 0.637551 0.421680
0.348950 0.638558 0.459125
0.349951 0.639559 0.496345
0.350947 0.640555 0.533371
0.351938 0.641546 0.570230
0.352926 0.642533 0.606941
0.353910 0.643517 0.643517
0.354890 0.644498 0.679973
0.355868 0.645475 0.716318
0.356842 0.646450 0.752560
0.357815 0.647422 0.788709
0.358785 0.648392 0.824769
0.359752 0.649360 0.860747
0.353527 0.678610 0.277881
0.354582 0.679664 0.317100
0.355618 0.680700 0.355618
0.356641 0.681724 0.393676
0.357656 0.682739 0.431393
0.358663 0.683746 0.468838
0.359664 0.684747 0.506057
0.360660 0.685743 0.543084
0.361651 0.686734 0.579943
0.362639 0.687721 0.616653
0.363622 0.688705 0.653230
0.364603 0.689686 0.689686
0.365581 0.690663 0.726031
0.366555 0.691638 0.762273
0.367528 0.692610 0.798422
0.368497 0.693580 0.834482
0.369465 0.694548 0.870460
0.363210 0.723660 0.287564
0.364265 0.724715 0.326783
0.365301 0.725751 0.365301
0.366325 0.726775 0.403360
0.367339 0.727789 0.441076
0.368346 0.728796 0.478521
0.369347 0.729797 0.515741
0.370343 0.730793 0.552768
0.371335 0.731785 0.589627
0.372322 0.732772 0.626337
0.373306 0.733756 0.662914
0.374286 0.734736 0.699369
0.375264 0.735714 0.735714
0.376239 0.736689 0.771957
0.377211 0.737661 0.808105
0.378181 0.738631 0.844166
0.379149 0.739599 0.880144
0.372867 0.768585 0.297220
0.373921 0.769639 0.336440
0.374957 0.770675 0.374957
0.375981 0.771699 0.413016
0.376995 0.772714 0.450733
0.378003 0.773721 0.488178
0.379004 0.774722 0.525397
0.380000 0.775718 0.562424
0.380991 0.776709 0.599283
0.381978 0.777696 0.635993
0.382962 0.778680 0.672570
0.383943 0.779661 0.709025
0.384920 0.780638 0.745370
0.385895 0.781613 0.781613
0.386867 0.782585 0.817761
0.387837 0.783555 0.853822
0.388805 0.784523 0.889800
0.382498 0.813392 0.306852
0.383552 0.814447 0.346071
0.384588 0.815483 0.384588
0.385612 0.816506 0.422647
0.386627 0.817521 0.460364
0.387634 0.818528 0.497809
0.388635 0.819529 0.535028
0.389631 0.820525 0.572055
0.390622 0.821516 0.608914
0.391609 0.822504 0.645624
0.392593 0.823487 0.682201
0.393574 0.824468 0.718656
0.394551 0.825445 0.755001
0.395526 0.826420 0.791244
0.396498 0.827393 0.827393
0.397468 0.828362 0.863453
0.398436 0.829330 0.899431
0.392105 0.858090 0.316459
0.393160 0.859145 0.355678
0.394196 0.860181 0.394196
0.395220 0.861204 0.432255
0.396234 0.862219 0.469971
0.397241 0.863226 0.507416
0.398242 0.864227 0.544636
0.399238 0.865223 0.581663
0.400230 0.866214 0.618522
0.401217 0.867202 0.655232
0.402201 0.868185 0.691808
0.403181 0.869166 0.728264
0.404159 0.870144 0.764609
0.405134 0.871118 0.800852
0.406106 0.872091 0.837000
0.407076 0.873061 0.873061
0.408044 0.874028 0.909039
0.401691 0.902686 0.326045
0.402746 0.903741 0.365264
0.403782 0.904777 0.403782
0.404805 0.905800 0.441840
0.405820 0.906815 0.479557
0.406827 0.907822 0.517002
0.407828 0.908823 0.554221
0.408824 0.909819 0.591248
0.409815 0.910810 0.628107
0.410803 0.911798 0.664818
0.411786 0.912782 0.701394
0.412767 0.913762 0.737850
0.413745 0.914740 0.774195
0.414719 0.915714 0.810437
0.415692 0.916687 0.846586
0.416662 0.917657 0.882646
0.417629 0.918624 0.918624
0.283858 0.171177 0.171177
0.284913 0.172232 0.210396
0.285949 0.173268 0.248914
0.286973 0.174292 0.286973
0.287987 0.175306 0.324689
0.288994 0.176313 0.362134
0.289995 0.177314 0.399354
0.290991 0.178310 0.436381
0.291983 0.179302 0.473240
0.292970 0.180289 0.509950
0.293954 0.181273 0.546527
0.294934 0.182253 0.582982
0.295912 0.183231 0.619327
0.296887 0.184206 0.655570
0.297859 0.185178 0.691718
0.298829 0.186148 0.727779
0.299796 0.187116 0.763757
0.294307 0.219791 0.181626
