skills/promo-director/assets/grade/luts/vintage_fade_v07.cube
TITLE "vintage_fade_v07"
LUT_3D_SIZE 17
DOMAIN_MIN 0.0 0.0 0.0
DOMAIN_MAX 1.0 1.0 1.0
0.071140 0.071140 0.071140
0.071776 0.071776 0.121895
0.072403 0.072403 0.171928
0.073025 0.073025 0.221558
0.073643 0.073643 0.270908
0.074259 0.074259 0.320042
0.074872 0.074872 0.369001
0.075484 0.075484 0.417813
0.076094 0.076094 0.466498
0.076702 0.076702 0.515070
0.077310 0.077310 0.563543
0.077916 0.077916 0.611926
0.078521 0.078521 0.660227
0.079125 0.079125 0.708452
0.079729 0.079729 0.756608
0.080331 0.080331 0.804699
0.080933 0.080933 0.852729
0.077440 0.127559 0.077440
0.078076 0.128195 0.128195
0.078702 0.128822 0.178227
0.079324 0.129444 0.227858
0.079943 0.130062 0.277207
0.080558 0.130678 0.326342
0.081172 0.131291 0.375301
0.081783 0.131903 0.424113
0.082393 0.132513 0.472797
0.083002 0.133121 0.521370
0.083609 0.133729 0.569843
0.084215 0.134335 0.618226
0.084821 0.134940 0.666526
0.085425 0.135544 0.714752
0.086028 0.136148 0.762908
0.086631 0.136750 0.810999
0.087233 0.137352 0.859029
0.083649 0.183174 0.083649
0.084285 0.183810 0.134405
0.084912 0.184437 0.184437
0.085534 0.185059 0.234067
0.086152 0.185677 0.283417
0.086768 0.186293 0.332551
0.087382 0.186906 0.381511
0.087993 0.187518 0.430322
0.088603 0.188128 0.479007
0.089212 0.188736 0.527580
0.089819 0.189344 0.576053
0.090425 0.189950 0.624435
0.091030 0.190555 0.672736
0.091635 0.191159 0.720962
0.092238 0.191763 0.769117
0.092841 0.192365 0.817208
0.093442 0.192967 0.865239
0.089809 0.238343 0.089809
0.090445 0.238978 0.140565
0.091072 0.239605 0.190597
0.091694 0.240227 0.240227
0.092312 0.240846 0.289577
0.092928 0.241461 0.338711
0.093541 0.242075 0.387670
0.094153 0.242686 0.436482
0.094763 0.243296 0.485167
0.095372 0.243905 0.533740
0.095979 0.244512 0.582212
0.096585 0.245118 0.630595
0.097190 0.245724 0.678896
0.097795 0.246328 0.727121
0.098398 0.246931 0.775277
0.099001 0.247534 0.823368
0.099602 0.248136 0.871399
0.095934 0.293199 0.095934
0.096570 0.293835 0.146690
0.097197 0.294462 0.196722
0.097819 0.295084 0.246352
0.098437 0.295702 0.295702
0.099053 0.296318 0.344836
0.099667 0.296931 0.393796
0.100278 0.297543 0.442607
0.100888 0.298153 0.491292
0.101497 0.298761 0.539865
0.102104 0.299369 0.588338
0.102710 0.299975 0.636720
0.103316 0.300580 0.685021
0.103920 0.301184 0.733247
0.104523 0.301788 0.781402
0.105126 0.302390 0.829493
0.105727 0.302992 0.877524
0.102033 0.347816 0.102033
0.102669 0.348452 0.152788
0.103296 0.349079 0.202820
0.103918 0.349701 0.252451
0.104536 0.350319 0.301801
0.105151 0.350935 0.350935
0.105765 0.351548 0.399894
0.106377 0.352160 0.448706
0.106987 0.352770 0.497390
0.107595 0.353378 0.545963
0.108202 0.353986 0.594436
0.108809 0.354592 0.642819
0.109414 0.355197 0.691120
0.110018 0.355801 0.739345
0.110621 0.356405 0.787501
0.111224 0.357007 0.835592
0.111826 0.357609 0.883622
0.108109 0.402239 0.108109
0.108745 0.402874 0.158865
0.109372 0.403501 0.208897
0.109994 0.404123 0.258527
0.110612 0.404742 0.307877
0.111228 0.405357 0.357011
0.111842 0.405971 0.405971
0.112453 0.406582 0.454782
0.113063 0.407192 0.503467
0.113672 0.407801 0.552040
0.114279 0.408408 0.600513
0.114885 0.409014 0.648895
0.115490 0.409620 0.697196
0.116095 0.410224 0.745422
0.116698 0.410827 0.793577
0.117301 0.411430 0.841668
0.117902 0.412032 0.889699
0.114168 0.456497 0.114168
0.114804 0.457133 0.164923
0.115431 0.457760 0.214955
0.116052 0.458382 0.264586
0.116671 0.459000 0.313936
0.117286 0.459616 0.363070
0.117900 0.460229 0.412029
0.118511 0.460841 0.460841
0.119121 0.461451 0.509525
0.119730 0.462059 0.558098
0.120337 0.462667 0.606571
0.120944 0.463273 0.654954
0.121549 0.463878 0.703255
0.122153 0.464482 0.751480
0.122756 0.465086 0.799636
0.123359 0.465688 0.847727
0.123961 0.466290 0.895757
0.120210 0.510614 0.120210
0.120846 0.511250 0.170966
0.121473 0.511877 0.220998
0.122095 0.512499 0.270628
0.122713 0.513117 0.319978
0.123329 0.513733 0.369112
0.123942 0.514346 0.418071
0.124554 0.514958 0.466883
0.125164 0.515568 0.515568
0.125773 0.516176 0.564141
0.126380 0.516784 0.612613
0.126986 0.517390 0.660996
0.127591 0.517995 0.709297
0.128196 0.518599 0.757522
0.128799 0.519203 0.805678
0.129402 0.519805 0.853769
0.130003 0.520407 0.901800
0.126239 0.564607 0.126239
0.126875 0.565243 0.176994
0.127502 0.565870 0.227027
0.128124 0.566492 0.276657
0.128742 0.567110 0.326007
0.129358 0.567726 0.375141
0.129971 0.568339 0.424100
0.130583 0.568951 0.472912
0.131193 0.569561 0.521596
0.131801 0.570169 0.570169
0.132409 0.570777 0.618642
0.133015 0.571383 0.667025
0.133620 0.571988 0.715326
0.134224 0.572592 0.763551
0.134828 0.573196 0.811707
0.135430 0.573798 0.859798
0.136032 0.574400 0.907828
0.132255 0.618489 0.132255
0.132891 0.619125 0.183011
0.133518 0.619752 0.233043
0.134140 0.620373 0.282673
0.134758 0.620992 0.332023
0.135374 0.621607 0.381157
0.135987 0.622221 0.430116
0.136599 0.622832 0.478928
0.137209 0.623442 0.527613
0.137818 0.624051 0.576185
0.138425 0.624658 0.624658
0.139031 0.625265 0.673041
0.139636 0.625870 0.721342
0.140241 0.626474 0.769567
0.140844 0.627077 0.817723
0.141446 0.627680 0.865814
0.142048 0.628282 0.913845
0.138260 0.672270 0.138260
0.138896 0.672906 0.189016
0.139523 0.673533 0.239048
0.140145 0.674155 0.288678
0.140763 0.674773 0.338028
0.141379 0.675389 0.387162
0.141992 0.676003 0.436122
0.142604 0.676614 0.484933
0.143214 0.677224 0.533618
0.143823 0.677833 0.582191
0.144430 0.678440 0.630663
0.145036 0.679046 0.679046
0.145641 0.679652 0.727347
0.146246 0.680256 0.775573
0.146849 0.680859 0.823728
0.147452 0.681462 0.871819
0.148053 0.682064 0.919850
0.144255 0.725961 0.144255
0.144891 0.726597 0.195011
0.145518 0.727224 0.245043
0.146140 0.727846 0.294673
0.146758 0.728464 0.344023
0.147374 0.729080 0.393157
0.147987 0.729693 0.442116
0.148599 0.730305 0.490928
0.149209 0.730915 0.539613
0.149818 0.731523 0.588185
0.150425 0.732131 0.636658
0.151031 0.732737 0.685041
0.151636 0.733342 0.733342
0.152241 0.733946 0.781567
0.152844 0.734550 0.829723
0.153446 0.735152 0.877814
0.154048 0.735754 0.925845
0.150241 0.779568 0.150241
0.150877 0.780204 0.200996
0.151504 0.780831 0.251028
0.152126 0.781452 0.300659
0.152744 0.782071 0.350009
0.153359 0.782686 0.399143
0.153973 0.783300 0.448102
0.154585 0.783911 0.496914
0.155195 0.784521 0.545598
0.155803 0.785130 0.594171
0.156410 0.785737 0.642644
0.157017 0.786344 0.691027
0.157622 0.786949 0.739328
0.158226 0.787553 0.787553
0.158829 0.788156 0.835709
0.159432 0.788759 0.883800
0.160034 0.789361 0.931830
0.156218 0.833097 0.156218
0.156854 0.833733 0.206973
0.157481 0.834360 0.257005
0.158102 0.834982 0.306636
0.158721 0.835600 0.355985
0.159336 0.836216 0.405120
0.159950 0.836829 0.454079
0.160561 0.837441 0.502891
0.161171 0.838051 0.551575
0.161780 0.838659 0.600148
0.162387 0.839267 0.648621
0.162994 0.839873 0.697004
0.163599 0.840478 0.745304
0.164203 0.841082 0.793530
0.164806 0.841686 0.841686
0.165409 0.842288 0.889777
0.166011 0.842890 0.937807
0.162187 0.886554 0.162187
0.162823 0.887190 0.212942
0.163449 0.887817 0.262974
0.164071 0.888439 0.312604
0.164690 0.889057 0.361954
0.165305 0.889673 0.411089
0.165919 0.890286 0.460048
0.166530 0.890898 0.508860
0.167140 0.891508 0.557544
0.167749 0.892117 0.606117
0.168356 0.892724 0.654590
0.168962 0.893330 0.702973
0.169568 0.893935 0.751273
0.170172 0.894540 0.799499
0.170775 0.895143 0.847655
0.171378 0.895746 0.895746
0.171980 0.896347 0.943776
0.168148 0.939944 0.168148
0.168784 0.940580 0.218903
0.169411 0.941207 0.268936
0.170033 0.941829 0.318566
0.170651 0.942447 0.367916
0.171267 0.943063 0.417050
0.171880 0.943676 0.466009
0.172492 0.944288 0.514821
0.173102 0.944898 0.563505
0.173710 0.945507 0.612078
0.174318 0.946114 0.660551
0.174924 0.946720 0.708934
0.175529 0.947325 0.757235
0.176133 0.947930 0.805460
0.176737 0.948533 0.853616
0.177339 0.949136 0.901707
0.177941 0.949737 0.949737
0.123132 0.073013 0.073013
0.123768 0.073649 0.123768
0.124395 0.074275 0.173800
0.125017 0.074897 0.223431
0.125635 0.075516 0.272780
0.126251 0.076131 0.321915
0.126864 0.076745 0.370874
0.127476 0.077356 0.419686
0.128086 0.077966 0.468370
0.128694 0.078575 0.516943
0.129302 0.079182 0.565416
0.129908 0.079789 0.613799
0.130513 0.080394 0.662099
0.131117 0.080998 0.710325
0.131721 0.081601 0.758481
0.132323 0.082204 0.806572
0.132925 0.082806 0.854602
0.129432 0.129432 0.079312
0.130068 0.130068 0.130068
0.130695 0.130695 0.180100
0.131316 0.131316 0.229730
0.131935 0.131935 0.279080
0.132550 0.132550 0.328214
0.133164 0.133164 0.377173
0.133775 0.133775 0.425985
0.134385 0.134385 0.474670
0.134994 0.134994 0.523242
0.135601 0.135601 0.571715
0.136208 0.136208 0.620098
0.136813 0.136813 0.668399
0.137417 0.137417 0.716624
0.138020 0.138020 0.764780
0.138623 0.138623 0.812871
0.139225 0.139225 0.860902
0.135642 0.185047 0.085522
0.136277 0.185683 0.136277
0.136904 0.186310 0.186310
0.137526 0.186931 0.235940
0.138145 0.187550 0.285290
0.138760 0.188165 0.334424
0.139374 0.188779 0.383383
0.139985 0.189390 0.432195
0.140595 0.190000 0.480880
0.141204 0.190609 0.529452
0.141811 0.191216 0.577925
0.142417 0.191823 0.626308
0.143023 0.192428 0.674609
0.143627 0.193032 0.722834
0.144230 0.193635 0.770990
0.144833 0.194238 0.819081
0.145435 0.194840 0.867111
0.141801 0.240215 0.091682
0.142437 0.240851 0.142437
0.143064 0.241478 0.192470
0.143686 0.242100 0.242100
0.144304 0.242718 0.291450
0.144920 0.243334 0.340584
0.145534 0.243947 0.389543
0.146145 0.244559 0.438355
0.146755 0.245169 0.487039
0.147364 0.245777 0.535612
0.147971 0.246385 0.584085
0.148577 0.246991 0.632468
0.149182 0.247596 0.680769
0.149787 0.248200 0.728994
0.150390 0.248804 0.777150
0.150993 0.249406 0.825241
0.151594 0.250008 0.873271
0.147927 0.295072 0.097807
0.148563 0.295708 0.148563
0.149189 0.296335 0.198595
0.149811 0.296956 0.248225
0.150430 0.297575 0.297575
0.151045 0.298190 0.346709
0.151659 0.298804 0.395668
0.152270 0.299415 0.444480
0.152880 0.300025 0.493165
0.153489 0.300634 0.541737
0.154096 0.301241 0.590210
0.154702 0.301848 0.638593
0.155308 0.302453 0.686894
0.155912 0.303057 0.735119
0.156515 0.303660 0.783275
0.157118 0.304263 0.831366
0.157720 0.304865 0.879397
0.154025 0.349689 0.103905
0.154661 0.350325 0.154661
0.155288 0.350952 0.204693
0.155910 0.351573 0.254323
0.156528 0.352192 0.303673
0.157144 0.352807 0.352807
0.157757 0.353421 0.401767
0.158369 0.354032 0.450578
0.158979 0.354642 0.499263
0.159587 0.355251 0.547836
0.160195 0.355858 0.596309
0.160801 0.356465 0.644691
0.161406 0.357070 0.692992
0.162010 0.357674 0.741218
0.162614 0.358277 0.789373
0.163216 0.358880 0.837464
0.163818 0.359482 0.885495
0.160102 0.404111 0.109982
0.160738 0.404747 0.160738
0.161364 0.405374 0.210770
0.161986 0.405996 0.260400
0.162605 0.406614 0.309750
0.163220 0.407230 0.358884
0.163834 0.407843 0.407843
0.164445 0.408455 0.456655
0.165055 0.409065 0.505340
0.165664 0.409673 0.553912
0.166271 0.410281 0.602385
0.166877 0.410887 0.650768
0.167483 0.411492 0.699069
0.168087 0.412096 0.747294
0.168690 0.412700 0.795450
0.169293 0.413302 0.843541
0.169895 0.413904 0.891572
0.166160 0.458370 0.116040
0.166796 0.459006 0.166796
0.167423 0.459632 0.216828
0.168045 0.460254 0.266458
0.168663 0.460873 0.315808
0.169279 0.461488 0.364942
0.169892 0.462102 0.413902
0.170504 0.462713 0.462713
0.171114 0.463323 0.511398
0.171722 0.463932 0.559971
0.172330 0.464539 0.608444
0.172936 0.465145 0.656826
0.173541 0.465751 0.705127
0.174145 0.466355 0.753353
0.174749 0.466958 0.801508
0.175351 0.467561 0.849599
0.175953 0.468163 0.897630
0.172202 0.512487 0.122083
0.172838 0.513123 0.172838
0.173465 0.513750 0.222871
0.174087 0.514371 0.272501
0.174705 0.514990 0.321851
0.175321 0.515605 0.370985
0.175935 0.516219 0.419944
0.176546 0.516830 0.468756
0.177156 0.517440 0.517440
0.177765 0.518049 0.566013
0.178372 0.518656 0.614486
0.178978 0.519263 0.662869
0.179583 0.519868 0.711170
0.180188 0.520472 0.759395
0.180791 0.521075 0.807551
0.181394 0.521678 0.855642
0.181995 0.522280 0.903672
0.178231 0.566480 0.128112
0.178867 0.567115 0.178867
0.179494 0.567742 0.228899
0.180116 0.568364 0.278529
0.180734 0.568983 0.327879
0.181350 0.569598 0.377014
0.181963 0.570212 0.425973
0.182575 0.570823 0.474785
0.183185 0.571433 0.523469
0.183793 0.572042 0.572042
0.184401 0.572649 0.620515
0.185007 0.573255 0.668898
0.185612 0.573861 0.717198
0.186216 0.574465 0.765424
0.186820 0.575068 0.813580
0.187422 0.575671 0.861671
0.188024 0.576273 0.909701
0.184247 0.620361 0.134128
0.184883 0.620997 0.184883
0.185510 0.621624 0.234915
0.186132 0.622246 0.284546
0.186750 0.622864 0.333896
0.187366 0.623480 0.383030
0.187979 0.624093 0.431989
0.188591 0.624705 0.480801
0.189201 0.625315 0.529485
0.189810 0.625924 0.578058
0.190417 0.626531 0.626531
0.191023 0.627137 0.674914
0.191628 0.627742 0.723215
0.192233 0.628347 0.771440
0.192836 0.628950 0.819596
0.193439 0.629553 0.867687
0.194040 0.630154 0.915717
0.190252 0.674143 0.140133
0.190888 0.674779 0.190888
0.191515 0.675406 0.240921
0.192137 0.676028 0.290551
0.192755 0.676646 0.339901
0.193371 0.677262 0.389035
0.193985 0.677875 0.437994
0.194596 0.678487 0.486806
0.195206 0.679097 0.535490
0.195815 0.679705 0.584063
0.196422 0.680313 0.632536
0.197028 0.680919 0.680919
0.197634 0.681524 0.729220
0.198238 0.682128 0.777445
0.198841 0.682732 0.825601
0.199444 0.683334 0.873692
0.200045 0.683936 0.921722
0.196247 0.727834 0.146128
0.196883 0.728470 0.196883
0.197510 0.729096 0.246915
0.198132 0.729718 0.296546
0.198750 0.730337 0.345896
0.199366 0.730952 0.395030
0.199979 0.731566 0.443989
0.200591 0.732177 0.492801
0.201201 0.732787 0.541485
0.201810 0.733396 0.590058
0.202417 0.734003 0.638531
0.203023 0.734609 0.686914
0.203628 0.735215 0.735215
0.204233 0.735819 0.783440
0.204836 0.736422 0.831596
0.205439 0.737025 0.879687
0.206040 0.737627 0.927717
0.202233 0.781440 0.152113
0.202869 0.782076 0.202869
0.203496 0.782703 0.252901
0.204118 0.783325 0.302531
0.204736 0.783943 0.351881
0.205352 0.784559 0.401015
0.205965 0.785172 0.449975
0.206577 0.785784 0.498786
0.207187 0.786394 0.547471
0.207795 0.787003 0.596044
0.208403 0.787610 0.644517
0.209009 0.788216 0.692899
0.209614 0.788821 0.741200
0.210218 0.789426 0.789426
0.210822 0.790029 0.837581
0.211424 0.790632 0.885672
0.212026 0.791233 0.933703
0.208210 0.834970 0.158090
0.208846 0.835606 0.208846
0.209473 0.836232 0.258878
0.210095 0.836854 0.308508
0.210713 0.837473 0.357858
0.211328 0.838088 0.406992
0.211942 0.838702 0.455951
0.212554 0.839313 0.504763
0.213164 0.839923 0.553448
0.213772 0.840532 0.602021
0.214379 0.841139 0.650493
0.214986 0.841745 0.698876
0.215591 0.842351 0.747177
0.216195 0.842955 0.795402
0.216799 0.843558 0.843558
0.217401 0.844161 0.891649
0.218003 0.844763 0.939680
0.214179 0.888427 0.164059
0.214815 0.889063 0.214815
0.215442 0.889690 0.264847
0.216063 0.890312 0.314477
0.216682 0.890930 0.363827
0.217297 0.891546 0.412961
0.217911 0.892159 0.461920
0.218522 0.892771 0.510732
0.219132 0.893381 0.559417
0.219741 0.893989 0.607989
0.220348 0.894597 0.656462
0.220955 0.895203 0.704845
0.221560 0.895808 0.753146
0.222164 0.896412 0.801371
0.222767 0.897016 0.849527
0.223370 0.897618 0.897618
0.223972 0.898220 0.945649
0.220140 0.941817 0.170021
0.220776 0.942453 0.220776
0.221403 0.943080 0.270808
0.222025 0.943702 0.320438
0.222643 0.944320 0.369788
0.223259 0.944936 0.418923
0.223872 0.945549 0.467882
0.224484 0.946161 0.516694
0.225094 0.946771 0.565378
0.225702 0.947379 0.613951
0.226310 0.947987 0.662424
0.226916 0.948593 0.710807
0.227521 0.949198 0.759107
0.228125 0.949802 0.807333
0.228729 0.950406 0.855488
0.229331 0.951008 0.903580
0.229933 0.951610 0.951610
0.174383 0.074859 0.074859
0.175019 0.075495 0.125614
0.175646 0.076121 0.175646
0.176268 0.076743 0.225276
0.176886 0.077362 0.274626
0.177502 0.077977 0.323761
0.178115 0.078591 0.372720
0.178727 0.079202 0.421532
0.179337 0.079812 0.470216
0.179946 0.080421 0.518789
0.180553 0.081028 0.567262
0.181159 0.081634 0.615645
0.181764 0.082240 0.663945
0.182369 0.082844 0.712171
0.182972 0.083447 0.760326
0.183575 0.084050 0.808417
0.184176 0.084652 0.856448
0.180683 0.131278 0.081158
0.181319 0.131914 0.131914
0.181946 0.132540 0.181946
0.182568 0.133162 0.231576
0.183186 0.133781 0.280926
0.183802 0.134396 0.330060
0.184415 0.135010 0.379019
0.185027 0.135621 0.427831
0.185637 0.136231 0.476516
0.186245 0.136840 0.525088
0.186853 0.137447 0.573561
0.187459 0.138053 0.621944
0.188064 0.138659 0.670245
0.188668 0.139263 0.718470
0.189272 0.139866 0.766626
0.189874 0.140469 0.814717
0.190476 0.141071 0.862748
0.186893 0.186893 0.087368
0.187529 0.187529 0.138123
0.188156 0.188156 0.188156
0.188777 0.188777 0.237786
0.189396 0.189396 0.287136
0.190011 0.190011 0.336270
0.190625 0.190625 0.385229
0.191236 0.191236 0.434041
0.191846 0.191846 0.482725
0.192455 0.192455 0.531298
0.193062 0.193062 0.579771
0.193669 0.193669 0.628154
0.194274 0.194274 0.676455
0.194878 0.194878 0.724680
0.195481 0.195481 0.772836
0.196084 0.196084 0.820927
0.196686 0.196686 0.868957
0.193053 0.242061 0.093528
0.193689 0.242697 0.144283
0.194315 0.243324 0.194315
0.194937 0.243946 0.243946
0.195556 0.244564 0.293296
0.196171 0.245180 0.342430
0.196785 0.245793 0.391389
0.197396 0.246405 0.440201
0.198006 0.247015 0.488885
0.198615 0.247623 0.537458
0.199222 0.248231 0.585931
0.199828 0.248837 0.634314
0.200434 0.249442 0.682615
0.201038 0.250046 0.730840
0.201641 0.250650 0.778996
0.202244 0.251252 0.827087
0.202846 0.251854 0.875117
0.199178 0.296918 0.099653
0.199814 0.297554 0.150408
0.200441 0.298181 0.200441
0.201062 0.298802 0.250071
0.201681 0.299421 0.299421
0.202296 0.300036 0.348555
0.202910 0.300650 0.397514
0.203521 0.301261 0.446326
0.204131 0.301871 0.495010
0.204740 0.302480 0.543583
0.205347 0.303087 0.592056
0.205954 0.303694 0.640439
0.206559 0.304299 0.688740
0.207163 0.304903 0.736965
0.207766 0.305506 0.785121
0.208369 0.306109 0.833212
0.208971 0.306711 0.881242
0.205276 0.351535 0.105751
0.205912 0.352171 0.156507
0.206539 0.352798 0.206539
0.207161 0.353419 0.256169
0.207779 0.354038 0.305519
0.208395 0.354653 0.354653
0.209008 0.355267 0.403613
0.209620 0.355878 0.452424
0.210230 0.356488 0.501109
0.210838 0.357097 0.549682
0.211446 0.357704 0.598154
0.212052 0.358311 0.646537
0.212657 0.358916 0.694838
0.213261 0.359520 0.743064
0.213865 0.360123 0.791219
0.214467 0.360726 0.839310
0.215069 0.361328 0.887341
0.211353 0.405957 0.111828
0.211989 0.406593 0.162583
0.212616 0.407220 0.212616
0.213237 0.407842 0.262246
0.213856 0.408460 0.311596
0.214471 0.409076 0.360730
0.215085 0.409689 0.409689
0.215696 0.410301 0.458501
0.216306 0.410911 0.507185
0.216915 0.411519 0.555758
0.217522 0.412127 0.604231
0.218129 0.412733 0.652614
0.218734 0.413338 0.700915
0.219338 0.413942 0.749140
0.219941 0.414546 0.797296
0.220544 0.415148 0.845387
0.221146 0.415750 0.893417
0.217411 0.460216 0.117886
0.218047 0.460852 0.168642
0.218674 0.461478 0.218674
0.219296 0.462100 0.268304
0.219914 0.462719 0.317654
0.220530 0.463334 0.366788
0.221143 0.463948 0.415747
0.221755 0.464559 0.464559
0.222365 0.465169 0.513244
0.222973 0.465778 0.561817
0.223581 0.466385 0.610289
0.224187 0.466991 0.658672
0.224792 0.467597 0.706973
0.225396 0.468201 0.755198
0.226000 0.468804 0.803354
0.226602 0.469407 0.851445
0.227204 0.470009 0.899476
0.223454 0.514333 0.123929
0.224090 0.514969 0.174684
0.224716 0.515596 0.224716
0.225338 0.516217 0.274347
0.225957 0.516836 0.323697
0.226572 0.517451 0.372831
0.227186 0.518065 0.421790
0.227797 0.518676 0.470602
0.228407 0.519286 0.519286
0.229016 0.519895 0.567859
0.229623 0.520502 0.616332
0.230229 0.521109 0.664715
0.230835 0.521714 0.713016
0.231439 0.522318 0.761241
0.232042 0.522921 0.809397
0.232645 0.523524 0.857488
0.233247 0.524126 0.905518
0.229482 0.568325 0.129958
0.230118 0.568961 0.180713
0.230745 0.569588 0.230745
0.231367 0.570210 0.280375
0.231985 0.570828 0.329725
0.232601 0.571444 0.378860
0.233214 0.572058 0.427819
0.233826 0.572669 0.476630
0.234436 0.573279 0.525315
0.235045 0.573888 0.573888
0.235652 0.574495 0.622361
0.236258 0.575101 0.670743
0.236863 0.575706 0.719044
0.237468 0.576311 0.767270
0.238071 0.576914 0.815425
0.238673 0.577517 0.863516
0.239275 0.578118 0.911547
0.235499 0.622207 0.135974
0.236134 0.622843 0.186729
0.236761 0.623470 0.236761
0.237383 0.624092 0.286392
0.238002 0.624710 0.335742
0.238617 0.625326 0.384876
0.239231 0.625939 0.433835
0.239842 0.626551 0.482647
0.240452 0.627161 0.531331
0.241061 0.627770 0.579904
0.241668 0.628377 0.628377
0.242274 0.628983 0.676760
0.242880 0.629588 0.725061
0.243484 0.630193 0.773286
0.244087 0.630796 0.821442
0.244690 0.631399 0.869533
0.245292 0.632000 0.917563
0.241504 0.675989 0.141979
0.242140 0.676625 0.192734
0.242766 0.677252 0.242766
0.243388 0.677874 0.292397
0.244007 0.678492 0.341747
0.244622 0.679108 0.390881
0.245236 0.679721 0.439840
0.245847 0.680333 0.488652
0.246457 0.680943 0.537336
0.247066 0.681551 0.585909
0.247673 0.682159 0.634382
0.248279 0.682765 0.682765
0.248885 0.683370 0.731066
0.249489 0.683974 0.779291
0.250092 0.684578 0.827447
0.250695 0.685180 0.875538
0.251297 0.685782 0.923568
0.247499 0.729679 0.147974
0.248134 0.730315 0.198729
0.248761 0.730942 0.248761
0.249383 0.731564 0.298392
0.250002 0.732183 0.347742
0.250617 0.732798 0.396876
0.251231 0.733412 0.445835
0.251842 0.734023 0.494647
0.252452 0.734633 0.543331
0.253061 0.735242 0.591904
0.253668 0.735849 0.640377
0.254274 0.736455 0.688760
0.254880 0.737061 0.737061
0.255484 0.737665 0.785286
0.256087 0.738268 0.833442
0.256690 0.738871 0.881533
0.257292 0.739473 0.929563
0.253484 0.783286 0.153959
0.254120 0.783922 0.204715
0.254747 0.784549 0.254747
0.255369 0.785171 0.304377
0.255987 0.785789 0.353727
0.256603 0.786405 0.402861
0.257216 0.787018 0.451821
0.257828 0.787630 0.500632
0.258438 0.788240 0.549317
0.259046 0.788848 0.597890
0.259654 0.789456 0.646362
0.260260 0.790062 0.694745
0.260865 0.790667 0.743046
0.261469 0.791272 0.791272
0.262073 0.791875 0.839427
0.262675 0.792477 0.887518
0.263277 0.793079 0.935549
0.259461 0.836816 0.159936
0.260097 0.837451 0.210692
0.260724 0.838078 0.260724
0.261346 0.838700 0.310354
0.261964 0.839319 0.359704
0.262580 0.839934 0.408838
0.263193 0.840548 0.457797
0.263805 0.841159 0.506609
0.264415 0.841769 0.555294
0.265023 0.842378 0.603866
0.265631 0.842985 0.652339
0.266237 0.843591 0.700722
0.266842 0.844197 0.749023
0.267446 0.844801 0.797248
0.268050 0.845404 0.845404
0.268652 0.846007 0.893495
0.269254 0.846609 0.941526
0.265430 0.890273 0.165905
0.266066 0.890909 0.216661
0.266693 0.891536 0.266693
0.267315 0.892158 0.316323
0.267933 0.892776 0.365673
0.268549 0.893391 0.414807
0.269162 0.894005 0.463766
0.269774 0.894617 0.512578
0.270384 0.895227 0.561263
0.270992 0.895835 0.609835
0.271600 0.896442 0.658308
0.272206 0.897049 0.706691
0.272811 0.897654 0.754992
0.273415 0.898258 0.803217
0.274019 0.898861 0.851373
0.274621 0.899464 0.899464
0.275223 0.900066 0.947495
0.271391 0.943663 0.171867
0.272027 0.944299 0.222622
0.272654 0.944926 0.272654
0.273276 0.945548 0.322284
0.273894 0.946166 0.371634
0.274510 0.946782 0.420769
0.275123 0.947395 0.469728
0.275735 0.948007 0.518539
0.276345 0.948617 0.567224
0.276954 0.949225 0.615797
0.277561 0.949833 0.664270
0.278167 0.950439 0.712652
0.278772 0.951044 0.760953
0.279377 0.951648 0.809179
0.279980 0.952252 0.857334
0.280582 0.952854 0.905425
0.281184 0.953456 0.953456
0.225223 0.076690 0.076690
0.225859 0.077326 0.127445
0.226486 0.077953 0.177477
0.227108 0.078574 0.227108
0.227726 0.079193 0.276457
0.228342 0.079808 0.325592
0.228955 0.080422 0.374551
0.229567 0.081033 0.423363
0.230177 0.081643 0.472047
0.230785 0.082252 0.520620
0.231393 0.082859 0.569093
0.231999 0.083466 0.617476
0.232604 0.084071 0.665776
0.233208 0.084675 0.714002
0.233812 0.085278 0.762158
0.234414 0.085881 0.810249
0.235016 0.086483 0.858279
0.231522 0.133109 0.082989
