skills/promo-director/assets/grade/luts/warm_skin_v11.cube
TITLE "warm_skin_v11"
LUT_3D_SIZE 9
DOMAIN_MIN 0.0 0.0 0.0
DOMAIN_MAX 1.0 1.0 1.0
0.035210 0.000000 0.000000
0.035064 0.000000 0.092982
0.034856 0.000000 0.226360
0.034651 0.000000 0.357551
0.034447 0.000000 0.487450
0.034246 0.000000 0.616428
0.034045 0.000000 0.744691
0.033845 0.000000 0.872368
0.033647 0.000000 0.999551
0.033166 0.129946 0.000000
0.033020 0.129800 0.090937
0.032812 0.129592 0.224316
0.032606 0.129387 0.355507
0.032403 0.129183 0.485406
0.032202 0.128982 0.614384
0.032001 0.128781 0.742647
0.031801 0.128581 0.870324
0.031602 0.128383 0.997507
0.031112 0.260681 0.000000
0.030966 0.260535 0.088883
0.030758 0.260327 0.222262
0.030553 0.260121 0.353453
0.030349 0.259918 0.483352
0.030148 0.259716 0.612330
0.029947 0.259516 0.740593
0.029747 0.259316 0.868270
0.029549 0.259117 0.995453
0.029086 0.389622 0.000000
0.028941 0.389477 0.086858
0.028732 0.389268 0.220236
0.028527 0.389063 0.351427
0.028324 0.388860 0.481326
0.028122 0.388658 0.610304
0.027921 0.388458 0.738567
0.027722 0.388258 0.866244
0.027523 0.388059 0.993427
0.027078 0.517423 0.000000
0.026933 0.517277 0.084850
0.026724 0.517069 0.218228
0.026519 0.516863 0.349419
0.026316 0.516660 0.479318
0.026114 0.516459 0.608297
0.025913 0.516258 0.736559
0.025714 0.516058 0.864236
0.025515 0.515859 0.991419
0.025084 0.644384 0.000000
0.024938 0.644239 0.082855
0.024729 0.644030 0.216233
0.024524 0.643825 0.347425
0.024321 0.643622 0.477324
0.024119 0.643420 0.606302
0.023919 0.643220 0.734564
0.023719 0.643020 0.862242
0.023520 0.642821 0.989425
0.023099 0.770683 0.000000
0.022954 0.770537 0.080871
0.022745 0.770329 0.214249
0.022540 0.770124 0.345440
0.022337 0.769920 0.475340
0.022135 0.769719 0.604318
0.021935 0.769518 0.732580
0.021735 0.769318 0.860258
0.021536 0.769120 0.987441
0.021124 0.896434 0.000000
0.020978 0.896288 0.078895
0.020770 0.896079 0.212274
0.020564 0.895874 0.343465
0.020361 0.895671 0.473364
0.020160 0.895469 0.602342
0.019959 0.895269 0.730605
0.019759 0.895069 0.858282
0.019560 0.894870 0.985465
0.019400 1.000000 0.000000
0.019255 1.000000 0.077172
0.019046 1.000000 0.210550
0.018841 1.000000 0.341741
0.018638 1.000000 0.471640
0.018436 1.000000 0.600619
0.018235 1.000000 0.728881
0.018036 1.000000 0.856558
0.017837 1.000000 0.983741
0.169926 0.000000 0.000000
0.169780 0.000000 0.092359
0.169572 0.000000 0.225737
0.169367 0.000000 0.356929
0.169164 0.000000 0.486828
0.168962 0.000000 0.615806
0.168761 0.000000 0.744068
0.168562 0.000000 0.871746
0.168363 0.000000 0.998929
0.167882 0.129324 0.000000
0.167736 0.129178 0.090315
0.167528 0.128970 0.223693
0.167323 0.128764 0.354885
0.167119 0.128561 0.484784
0.166918 0.128359 0.613762
0.166717 0.128159 0.742024
0.166517 0.127959 0.869702
0.166319 0.127760 0.996885
0.165828 0.260058 0.000000
0.165682 0.259913 0.088261
0.165474 0.259704 0.221639
0.165269 0.259499 0.352831
0.165065 0.259296 0.482730
0.164864 0.259094 0.611708
0.164663 0.258894 0.739970
0.164463 0.258694 0.867648
0.164265 0.258495 0.994831
0.163802 0.389000 0.000000
0.163657 0.388854 0.086235
0.163448 0.388646 0.219614
0.163243 0.388441 0.350805
0.163040 0.388238 0.480704
0.162838 0.388036 0.609682
0.162637 0.387835 0.737945
0.162438 0.387636 0.865622
0.162239 0.387437 0.992805
0.161794 0.516801 0.000000
0.161649 0.516655 0.084228
0.161440 0.516446 0.217606
0.161235 0.516241 0.348797
0.161032 0.516038 0.478696
0.160830 0.515836 0.607674
0.160630 0.515636 0.735937
0.160430 0.515436 0.863614
0.160231 0.515237 0.990797
0.159800 0.643762 0.000000
0.159654 0.643617 0.082233
0.159446 0.643408 0.215611
0.159240 0.643203 0.346802
0.159037 0.643000 0.476701
0.158835 0.642798 0.605680
0.158635 0.642597 0.733942
0.158435 0.642398 0.861620
0.158236 0.642199 0.988802
0.157816 0.770061 0.000000
0.157670 0.769915 0.080249
0.157461 0.769707 0.213627
0.157256 0.769501 0.344818
0.157053 0.769298 0.474717
0.156851 0.769096 0.603695
0.156651 0.768896 0.731958
0.156451 0.768696 0.859635
0.156252 0.768497 0.986818
0.155840 0.895811 0.000000
0.155694 0.895666 0.078273
0.155486 0.895457 0.211651
0.155280 0.895252 0.342842
0.155077 0.895049 0.472742
0.154876 0.894847 0.601720
0.154675 0.894646 0.729982
0.154475 0.894447 0.857660
0.154276 0.894248 0.984843
0.154116 1.000000 0.000000
0.153971 1.000000 0.076550
0.153762 1.000000 0.209928
0.153557 1.000000 0.341119
0.153354 1.000000 0.471018
0.153152 1.000000 0.599996
0.152952 1.000000 0.728259
0.152752 1.000000 0.855936
0.152553 1.000000 0.983119
0.301469 0.000000 0.000000
0.301323 0.000000 0.091752
0.301115 0.000000 0.225130
0.300910 0.000000 0.356321
0.300706 0.000000 0.486220
0.300505 0.000000 0.615198
0.300304 0.000000 0.743461
0.300104 0.000000 0.871138
0.299906 0.000000 0.998321
0.299425 0.128716 0.000000
0.299279 0.128571 0.089708
0.299071 0.128362 0.223086
0.298865 0.128157 0.354277
0.298662 0.127954 0.484176
0.298461 0.127752 0.613154
0.298260 0.127551 0.741417
0.298060 0.127352 0.869094
0.297861 0.127153 0.996277
0.297371 0.259451 0.000000
0.297225 0.259305 0.087654
0.297017 0.259097 0.221032
0.296811 0.258891 0.352223
0.296608 0.258688 0.482122
0.296407 0.258487 0.611100
0.296206 0.258286 0.739363
0.296006 0.258086 0.867040
0.295807 0.257887 0.994223
0.295345 0.388393 0.000000
0.295199 0.388247 0.085628
0.294991 0.388038 0.219006
0.294786 0.387833 0.350197
0.294583 0.387630 0.480096
0.294381 0.387428 0.609075
0.294180 0.387228 0.737337
0.293981 0.387028 0.865014
0.293782 0.386829 0.992197
0.293337 0.516193 0.000000
0.293192 0.516047 0.083620
0.292983 0.515839 0.216998
0.292778 0.515634 0.348189
0.292575 0.515430 0.478089
0.292373 0.515229 0.607067
0.292172 0.515028 0.735329
0.291973 0.514828 0.863007
0.291774 0.514629 0.990190
0.291343 0.643155 0.000000
0.291197 0.643009 0.081625
0.290988 0.642800 0.215004
0.290783 0.642595 0.346195
0.290580 0.642392 0.476094
0.290378 0.642190 0.605072
0.290178 0.641990 0.733335
0.289978 0.641790 0.861012
0.289779 0.641591 0.988195
0.289358 0.769453 0.000000
0.289213 0.769307 0.079641
0.289004 0.769099 0.213019
0.288799 0.768894 0.344210
0.288596 0.768691 0.474110
0.288394 0.768489 0.603088
0.288194 0.768288 0.731350
0.287994 0.768089 0.859028
0.287795 0.767890 0.986211
0.287383 0.895204 0.000000
0.287237 0.895058 0.077665
0.287028 0.894849 0.211044
0.286823 0.894644 0.342235
0.286620 0.894441 0.472134
0.286418 0.894239 0.601112
0.286218 0.894039 0.729375
0.286018 0.893839 0.857052
0.285819 0.893640 0.984235
0.285659 1.000000 0.000000
0.285514 1.000000 0.075942
0.285305 1.000000 0.209320
0.285100 1.000000 0.340511
0.284897 1.000000 0.470411
0.284695 1.000000 0.599389
0.284494 1.000000 0.727651
0.284295 1.000000 0.855329
0.284096 1.000000 0.982512
0.431457 0.000000 0.000000
0.431311 0.000000 0.091151
0.431103 0.000000 0.224529
0.430898 0.000000 0.355721
0.430695 0.000000 0.485620
0.430493 0.000000 0.614598
0.430292 0.000000 0.742860
0.430093 0.000000 0.870538
0.429894 0.000000 0.997721
0.429413 0.128116 0.000000
0.429267 0.127970 0.089107
0.429059 0.127761 0.222485
0.428854 0.127556 0.353676
0.428650 0.127353 0.483576
0.428449 0.127151 0.612554
0.428248 0.126951 0.740816
0.428048 0.126751 0.868494
0.427850 0.126552 0.995677
0.427359 0.258850 0.000000
0.427213 0.258705 0.087053
0.427005 0.258496 0.220431
0.426800 0.258291 0.351623
0.426597 0.258088 0.481522
0.426395 0.257886 0.610500
0.426194 0.257686 0.738762
0.425995 0.257486 0.866440
0.425796 0.257287 0.993623
0.425333 0.387792 0.000000
0.425188 0.387646 0.085027
0.424979 0.387438 0.218406
0.424774 0.387233 0.349597
0.424571 0.387029 0.479496
0.424369 0.386828 0.608474
0.424168 0.386627 0.736737
0.423969 0.386428 0.864414
0.423770 0.386229 0.991597
0.423325 0.515593 0.000000
0.423180 0.515447 0.083020
0.422971 0.515238 0.216398
0.422766 0.515033 0.347589
0.422563 0.514830 0.477488
0.422361 0.514628 0.606466
0.422161 0.514428 0.734729
0.421961 0.514228 0.862406
0.421762 0.514029 0.989589
0.421331 0.642554 0.000000
0.421185 0.642408 0.081025
0.420977 0.642200 0.214403
0.420771 0.641995 0.345594
0.420568 0.641792 0.475493
0.420367 0.641590 0.604472
0.420166 0.641389 0.732734
0.419966 0.641190 0.860411
0.419767 0.640991 0.987594
0.419347 0.768853 0.000000
0.419201 0.768707 0.079041
0.418992 0.768498 0.212419
0.418787 0.768293 0.343610
0.418584 0.768090 0.473509
0.418382 0.767888 0.602487
0.418182 0.767688 0.730750
0.417982 0.767488 0.858427
0.417783 0.767289 0.985610
0.417371 0.894603 0.000000
0.417225 0.894458 0.077065
0.417017 0.894249 0.210443
0.416811 0.894044 0.341634
0.416608 0.893841 0.471534
0.416407 0.893639 0.600512
0.416206 0.893438 0.728774
0.416006 0.893239 0.856452
0.415807 0.893040 0.983635
0.415647 1.000000 0.000000
0.415502 1.000000 0.075341
0.415293 1.000000 0.208720
0.415088 1.000000 0.339911
0.414885 1.000000 0.469810
0.414683 1.000000 0.598788
0.414483 1.000000 0.727051
0.414283 1.000000 0.854728
0.414084 1.000000 0.981911
0.560400 0.000000 0.000000
0.560255 0.000000 0.090556
0.560046 0.000000 0.223934
0.559841 0.000000 0.355125
0.559638 0.000000 0.485024
0.559436 0.000000 0.614002
0.559235 0.000000 0.742265
0.559036 0.000000 0.869942
0.558837 0.000000 0.997125
0.558356 0.127520 0.000000
0.558210 0.127374 0.088511
0.558002 0.127166 0.221890
0.557797 0.126961 0.353081
0.557594 0.126758 0.482980
0.557392 0.126556 0.611958
0.557191 0.126355 0.740221
0.556992 0.126156 0.867898
0.556793 0.125957 0.995081
0.556302 0.258255 0.000000
0.556157 0.258109 0.086458
0.555948 0.257901 0.219836
0.555743 0.257695 0.351027
0.555540 0.257492 0.480926
0.555338 0.257291 0.609904
0.555137 0.257090 0.738167
0.554938 0.256890 0.865844
0.554739 0.256691 0.993027
0.554276 0.387196 0.000000
0.554131 0.387051 0.084432
0.553922 0.386842 0.217810
0.553717 0.386637 0.349001
0.553514 0.386434 0.478900
0.553312 0.386232 0.607878
0.553112 0.386032 0.736141
0.552912 0.385832 0.863818
0.552713 0.385633 0.991001
0.552269 0.514997 0.000000
0.552123 0.514851 0.082424
0.551914 0.514643 0.215802
0.551709 0.514437 0.346993
0.551506 0.514234 0.476892
0.551304 0.514033 0.605871
0.551104 0.513832 0.734133
0.550904 0.513632 0.861811
0.550705 0.513433 0.988993
0.550274 0.641959 0.000000
0.550128 0.641813 0.080429
0.549920 0.641604 0.213807
0.549714 0.641399 0.344999
0.549511 0.641196 0.474898
0.549310 0.640994 0.603876
0.549109 0.640794 0.732138
0.548909 0.640594 0.859816
0.548710 0.640395 0.986999
0.548290 0.768257 0.000000
0.548144 0.768111 0.078445
0.547935 0.767903 0.211823
0.547730 0.767698 0.343014
0.547527 0.767495 0.472914
0.547325 0.767293 0.601892
0.547125 0.767092 0.730154
0.546925 0.766893 0.857832
0.546726 0.766694 0.985015
0.546314 0.894008 0.000000
0.546168 0.893862 0.076469
0.545960 0.893653 0.209848
0.545755 0.893448 0.341039
0.545551 0.893245 0.470938
0.545350 0.893043 0.599916
0.545149 0.892843 0.728179
0.544949 0.892643 0.855856
0.544751 0.892444 0.983039
0.544591 1.000000 0.000000
0.544445 1.000000 0.074746
0.544236 1.000000 0.208124
0.544031 1.000000 0.339315
0.543828 1.000000 0.469214
0.543626 1.000000 0.598193
0.543426 1.000000 0.726455
0.543226 1.000000 0.854133
0.543027 1.000000 0.981315
0.688555 0.000000 0.000000
0.688410 0.000000 0.089964
0.688201 0.000000 0.223342
0.687996 0.000000 0.354533
0.687793 0.000000 0.484432
0.687591 0.000000 0.613410
0.687391 0.000000 0.741673
0.687191 0.000000 0.869350
0.686992 0.000000 0.996533
0.686511 0.126928 0.000000
0.686366 0.126782 0.087919
0.686157 0.126574 0.221298
0.685952 0.126369 0.352489
0.685749 0.126166 0.482388
0.685547 0.125964 0.611366
0.685346 0.125763 0.739629
0.685147 0.125564 0.867306
0.684948 0.125365 0.994489
0.684457 0.257663 0.000000
0.684312 0.257517 0.085866
0.684103 0.257309 0.219244
0.683898 0.257103 0.350435
0.683695 0.256900 0.480334
0.683493 0.256699 0.609312
0.683293 0.256498 0.737575
0.683093 0.256298 0.865252
0.682894 0.256099 0.992435
0.682432 0.386604 0.000000
0.682286 0.386459 0.083840
0.682077 0.386250 0.217218
0.681872 0.386045 0.348409
0.681669 0.385842 0.478308
0.681467 0.385640 0.607287
0.681267 0.385440 0.735549
0.681067 0.385240 0.863226
0.680868 0.385041 0.990409
0.680424 0.514405 0.000000
0.680278 0.514259 0.081832
0.680070 0.514051 0.215210
0.679864 0.513845 0.346401
0.679661 0.513642 0.476301
0.679460 0.513441 0.605279
0.679259 0.513240 0.733541
0.679059 0.513040 0.861219
0.678860 0.512841 0.988402
0.678429 0.641367 0.000000
0.678283 0.641221 0.079837
0.678075 0.641012 0.213215
0.677870 0.640807 0.344407
0.677667 0.640604 0.474306
0.677465 0.640402 0.603284
0.677264 0.640202 0.731546
0.677065 0.640002 0.859224
0.676866 0.639803 0.986407
0.676445 0.767665 0.000000
0.676299 0.767519 0.077853
0.676091 0.767311 0.211231
0.675885 0.767106 0.342422
0.675682 0.766903 0.472322
0.675481 0.766701 0.601300
0.675280 0.766500 0.729562
0.675080 0.766301 0.857240
0.674881 0.766102 0.984423
0.674469 0.893416 0.000000
0.674324 0.893270 0.075877
0.674115 0.893061 0.209256
0.673910 0.892856 0.340447
0.673707 0.892653 0.470346
0.673505 0.892451 0.599324
0.673304 0.892251 0.727587
0.673105 0.892051 0.855264
0.672906 0.891852 0.982447
0.672746 1.000000 0.000000
0.672600 1.000000 0.074154
0.672392 1.000000 0.207532
0.672186 1.000000 0.338723
0.671983 1.000000 0.468623
0.671781 1.000000 0.597601
0.671581 1.000000 0.725863
0.671381 1.000000 0.853541
0.671182 1.000000 0.980723
0.816079 0.000000 0.000000
0.815933 0.000000 0.089375
0.815724 0.000000 0.222753
0.815519 0.000000 0.353944
0.815316 0.000000 0.483843
0.815114 0.000000 0.612821
0.814914 0.000000 0.741084
0.814714 0.000000 0.868761
0.814515 0.000000 0.995944
0.814034 0.126339 0.000000
0.813889 0.126193 0.087330
0.813680 0.125985 0.220709
0.813475 0.125780 0.351900
0.813272 0.125577 0.481799
0.813070 0.125375 0.610777
0.812870 0.125174 0.739040
0.812670 0.124975 0.866717
0.812471 0.124776 0.993900
0.811981 0.257074 0.000000
0.811835 0.256928 0.085276
0.811626 0.256720 0.218655
0.811421 0.256514 0.349846
0.811218 0.256311 0.479745
0.811016 0.256109 0.608723
0.810816 0.255909 0.736986
0.810616 0.255709 0.864663
0.810417 0.255510 0.991846
0.809955 0.386015 0.000000
0.809809 0.385870 0.083251
0.809600 0.385661 0.216629
0.809395 0.385456 0.347820
0.809192 0.385253 0.477719
0.808990 0.385051 0.606697
0.808790 0.384851 0.734960
0.808590 0.384651 0.862637
0.808391 0.384452 0.989820
0.807947 0.513816 0.000000
0.807801 0.513670 0.081243
0.807593 0.513462 0.214621
0.807387 0.513256 0.345812
0.807184 0.513053 0.475711
0.806983 0.512852 0.604690
0.806782 0.512651 0.732952
0.806582 0.512451 0.860630
0.806383 0.512252 0.987812
0.805952 0.640778 0.000000
0.805807 0.640632 0.079248
0.805598 0.640423 0.212626
0.805393 0.640218 0.343818
0.805190 0.640015 0.473717
0.804988 0.639813 0.602695
0.804787 0.639613 0.730957
0.804588 0.639413 0.858635
0.804389 0.639214 0.985818
0.803968 0.767076 0.000000
0.803822 0.766930 0.077264
0.803614 0.766722 0.210642
0.803409 0.766517 0.341833
0.803205 0.766313 0.471733
0.803004 0.766112 0.600711
0.802803 0.765911 0.728973
0.802603 0.765712 0.856651
0.802405 0.765513 0.983834
0.801992 0.892827 0.000000
0.801847 0.892681 0.075288
0.801638 0.892472 0.208667
0.801433 0.892267 0.339858
0.801230 0.892064 0.469757
0.801028 0.891862 0.598735
0.800827 0.891662 0.726998
0.800628 0.891462 0.854675
0.800429 0.891263 0.981858
0.800269 1.000000 0.000000
0.800123 1.000000 0.073565
0.799915 1.000000 0.206943
0.799709 1.000000 0.338134
0.799506 1.000000 0.468033
0.799305 1.000000 0.597012
0.799104 1.000000 0.725274
0.798904 1.000000 0.852952
0.798705 1.000000 0.980134
0.943074 0.000000 0.000000
0.942928 0.000000 0.088788
0.942720 0.000000 0.222166
0.942515 0.000000 0.353357
0.942312 0.000000 0.483257
0.942110 0.000000 0.612235
0.941909 0.000000 0.740497
0.941710 0.000000 0.868175
0.941511 0.000000 0.995358
0.941030 0.125752 0.000000
0.940884 0.125607 0.086744
0.940676 0.125398 0.220122
0.940471 0.125193 0.351313
0.940267 0.124990 0.481212
0.940066 0.124788 0.610191
0.939865 0.124588 0.738453
0.939665 0.124388 0.866130
0.939467 0.124189 0.993313
0.938976 0.256487 0.000000
0.938830 0.256342 0.084690
0.938622 0.256133 0.218068
0.938417 0.255928 0.349259
0.938213 0.255725 0.479158
0.938012 0.255523 0.608137
0.937811 0.255322 0.736399
0.937611 0.255123 0.864077
0.937413 0.254924 0.991259
0.936950 0.385429 0.000000
0.936805 0.385283 0.082664
0.936596 0.385075 0.216042
0.936391 0.384869 0.347234
0.936188 0.384666 0.477133
0.935986 0.384465 0.606111
0.935785 0.384264 0.734373
0.935586 0.384064 0.862051
0.935387 0.383865 0.989234
0.934942 0.513229 0.000000
0.934797 0.513084 0.080656
0.934588 0.512875 0.214034
0.934383 0.512670 0.345226
0.934180 0.512467 0.475125
0.933978 0.512265 0.604103
0.933778 0.512064 0.732365
0.933578 0.511865 0.860043
0.933379 0.511666 0.987226
0.932948 0.640191 0.000000
0.932802 0.640045 0.078662
0.932594 0.639837 0.212040
0.932388 0.639631 0.343231
0.932185 0.639428 0.473130
0.931983 0.639227 0.602108
0.931783 0.639026 0.730371
0.931583 0.638826 0.858048
0.931384 0.638627 0.985231
0.930964 0.766489 0.000000
0.930818 0.766344 0.076677
0.930609 0.766135 0.210056
0.930404 0.765930 0.341247
0.930201 0.765727 0.471146
0.929999 0.765525 0.600124
0.929799 0.765325 0.728387
0.929599 0.765125 0.856064
0.929400 0.764926 0.983247
0.928988 0.892240 0.000000
0.928842 0.892094 0.074702
0.928634 0.891886 0.208080
0.928428 0.891681 0.339271
0.928225 0.891477 0.469170
0.928024 0.891276 0.598148
0.927823 0.891075 0.726411
0.927623 0.890875 0.854088
0.927424 0.890677 0.981271
0.927264 1.000000 0.000000
0.927119 1.000000 0.072978
0.926910 1.000000 0.206356
0.926705 1.000000 0.337548
0.926502 1.000000 0.467447
0.926300 1.000000 0.596425
0.926100 1.000000 0.724687
0.925900 1.000000 0.852365
0.925701 1.000000 0.979548
1.000000 0.000000 0.000000
1.000000 0.000000 0.088445
1.000000 0.000000 0.221823
1.000000 0.000000 0.353014
1.000000 0.000000 0.482913
1.000000 0.000000 0.611891
1.000000 0.000000 0.740154
1.000000 0.000000 0.867831
1.000000 0.000000 0.995014
1.000000 0.125409 0.000000
1.000000 0.125263 0.086400
1.000000 0.125055 0.219779
1.000000 0.124850 0.350970
1.000000 0.124647 0.480869
1.000000 0.124445 0.609847
1.000000 0.124244 0.738110
1.000000 0.124045 0.865787
1.000000 0.123846 0.992970
1.000000 0.256144 0.000000
1.000000 0.255998 0.084347
1.000000 0.255790 0.217725
1.000000 0.255584 0.348916
1.000000 0.255381 0.478815
1.000000 0.255180 0.607793
1.000000 0.254979 0.736056
1.000000 0.254779 0.863733
1.000000 0.254580 0.990916
1.000000 0.385085 0.000000
1.000000 0.384940 0.082321
1.000000 0.384731 0.215699
1.000000 0.384526 0.346890
1.000000 0.384323 0.476789
1.000000 0.384121 0.605768
1.000000 0.383921 0.734030
1.000000 0.383721 0.861707
1.000000 0.383522 0.988890
1.000000 0.512886 0.000000
1.000000 0.512740 0.080313
1.000000 0.512532 0.213691
1.000000 0.512326 0.344882
1.000000 0.512123 0.474782
1.000000 0.511922 0.603760
1.000000 0.511721 0.732022
1.000000 0.511521 0.859700
1.000000 0.511322 0.986882
1.000000 0.639848 0.000000
1.000000 0.639702 0.078318
1.000000 0.639493 0.211696
1.000000 0.639288 0.342888
1.000000 0.639085 0.472787
1.000000 0.638883 0.601765
1.000000 0.638683 0.730027
1.000000 0.638483 0.857705
1.000000 0.638284 0.984888
1.000000 0.766146 0.000000
1.000000 0.766000 0.076334
1.000000 0.765792 0.209712
1.000000 0.765587 0.340903
1.000000 0.765384 0.470803
1.000000 0.765182 0.599781
1.000000 0.764981 0.728043
1.000000 0.764782 0.855721
1.000000 0.764583 0.982904
1.000000 0.891897 0.000000
1.000000 0.891751 0.074358
1.000000 0.891542 0.207737
1.000000 0.891337 0.338928
1.000000 0.891134 0.468827
1.000000 0.890932 0.597805
1.000000 0.890732 0.726068
1.000000 0.890532 0.853745
1.000000 0.890333 0.980928
1.000000 1.000000 0.000000
1.000000 1.000000 0.072635
1.000000 1.000000 0.206013
1.000000 1.000000 0.337204
1.000000 1.000000 0.467103
1.000000 1.000000 0.596082
1.000000 1.000000 0.724344
1.000000 1.000000 0.852022
1.000000 1.000000 0.979204
