skills/promo-director/assets/grade/luts/warm_skin_v11.cube
TITLE "warm_skin_v11"
LUT_3D_SIZE 5
DOMAIN_MIN 0.0 0.0 0.0
DOMAIN_MAX 1.0 1.0 1.0
0.035210 0.000000 0.000000
0.034856 0.000000 0.226360
0.034447 0.000000 0.487450
0.034045 0.000000 0.744691
0.033647 0.000000 0.999551
0.031112 0.260681 0.000000
0.030758 0.260327 0.222262
0.030349 0.259918 0.483352
0.029947 0.259516 0.740593
0.029549 0.259117 0.995453
0.027078 0.517423 0.000000
0.026724 0.517069 0.218228
0.026316 0.516660 0.479318
0.025913 0.516258 0.736559
0.025515 0.515859 0.991419
0.023099 0.770683 0.000000
0.022745 0.770329 0.214249
0.022337 0.769920 0.475340
0.021935 0.769518 0.732580
0.021536 0.769120 0.987441
0.019400 1.000000 0.000000
0.019046 1.000000 0.210550
0.018638 1.000000 0.471640
0.018235 1.000000 0.728881
0.017837 1.000000 0.983741
0.301469 0.000000 0.000000
0.301115 0.000000 0.225130
0.300706 0.000000 0.486220
0.300304 0.000000 0.743461
0.299906 0.000000 0.998321
0.297371 0.259451 0.000000
0.297017 0.259097 0.221032
0.296608 0.258688 0.482122
0.296206 0.258286 0.739363
0.295807 0.257887 0.994223
0.293337 0.516193 0.000000
0.292983 0.515839 0.216998
0.292575 0.515430 0.478089
0.292172 0.515028 0.735329
0.291774 0.514629 0.990190
0.289358 0.769453 0.000000
0.289004 0.769099 0.213019
0.288596 0.768691 0.474110
0.288194 0.768288 0.731350
0.287795 0.767890 0.986211
0.285659 1.000000 0.000000
0.285305 1.000000 0.209320
0.284897 1.000000 0.470411
0.284494 1.000000 0.727651
0.284096 1.000000 0.982512
0.560400 0.000000 0.000000
0.560046 0.000000 0.223934
0.559638 0.000000 0.485024
0.559235 0.000000 0.742265
0.558837 0.000000 0.997125
0.556302 0.258255 0.000000
0.555948 0.257901 0.219836
0.555540 0.257492 0.480926
0.555137 0.257090 0.738167
0.554739 0.256691 0.993027
0.552269 0.514997 0.000000
0.551914 0.514643 0.215802
0.551506 0.514234 0.476892
0.551104 0.513832 0.734133
0.550705 0.513433 0.988993
0.548290 0.768257 0.000000
0.547935 0.767903 0.211823
0.547527 0.767495 0.472914
0.547125 0.767092 0.730154
0.546726 0.766694 0.985015
0.544591 1.000000 0.000000
0.544236 1.000000 0.208124
0.543828 1.000000 0.469214
0.543426 1.000000 0.726455
0.543027 1.000000 0.981315
0.816079 0.000000 0.000000
0.815724 0.000000 0.222753
0.815316 0.000000 0.483843
0.814914 0.000000 0.741084
0.814515 0.000000 0.995944
0.811981 0.257074 0.000000
0.811626 0.256720 0.218655
0.811218 0.256311 0.479745
0.810816 0.255909 0.736986
0.810417 0.255510 0.991846
0.807947 0.513816 0.000000
0.807593 0.513462 0.214621
0.807184 0.513053 0.475711
0.806782 0.512651 0.732952
0.806383 0.512252 0.987812
0.803968 0.767076 0.000000
0.803614 0.766722 0.210642
0.803205 0.766313 0.471733
0.802803 0.765911 0.728973
0.802405 0.765513 0.983834
0.800269 1.000000 0.000000
0.799915 1.000000 0.206943
0.799506 1.000000 0.468033
0.799104 1.000000 0.725274
0.798705 1.000000 0.980134
1.000000 0.000000 0.000000
1.000000 0.000000 0.221823
1.000000 0.000000 0.482913
1.000000 0.000000 0.740154
1.000000 0.000000 0.995014
1.000000 0.256144 0.000000
1.000000 0.255790 0.217725
1.000000 0.255381 0.478815
1.000000 0.254979 0.736056
1.000000 0.254580 0.990916
1.000000 0.512886 0.000000
1.000000 0.512532 0.213691
1.000000 0.512123 0.474782
1.000000 0.511721 0.732022
1.000000 0.511322 0.986882
1.000000 0.766146 0.000000
1.000000 0.765792 0.209712
1.000000 0.765384 0.470803
1.000000 0.764981 0.728043
1.000000 0.764583 0.982904
1.000000 1.000000 0.000000
1.000000 1.000000 0.206013
1.000000 1.000000 0.467103
1.000000 1.000000 0.724344
1.000000 1.000000 0.979204
