skills/promo-director/assets/grade/luts/warm_skin_v11.cube
TITLE "warm_skin_v11"
LUT_3D_SIZE 17
DOMAIN_MIN 0.0 0.0 0.0
DOMAIN_MAX 1.0 1.0 1.0
0.035210 0.000000 0.000000
0.035172 0.000000 0.024448
0.035064 0.000000 0.092982
0.034959 0.000000 0.160050
0.034856 0.000000 0.226360
0.034753 0.000000 0.292152
0.034651 0.000000 0.357551
0.034549 0.000000 0.422633
0.034447 0.000000 0.487450
0.034346 0.000000 0.552039
0.034246 0.000000 0.616428
0.034145 0.000000 0.680640
0.034045 0.000000 0.744691
0.033945 0.000000 0.808596
0.033845 0.000000 0.872368
0.033746 0.000000 0.936017
0.033647 0.000000 0.999551
0.034212 0.063349 0.000000
0.034174 0.063311 0.023450
0.034067 0.063204 0.091984
0.033962 0.063099 0.159052
0.033858 0.062995 0.225362
0.033755 0.062892 0.291154
0.033653 0.062790 0.356553
0.033551 0.062688 0.421635
0.033450 0.062587 0.486452
0.033349 0.062486 0.551041
0.033248 0.062385 0.615430
0.033147 0.062285 0.679642
0.033047 0.062185 0.743693
0.032947 0.062085 0.807598
0.032848 0.061985 0.871370
0.032748 0.061885 0.935019
0.032649 0.061786 0.998553
0.033166 0.129946 0.000000
0.033127 0.129908 0.022404
0.033020 0.129800 0.090937
0.032915 0.129696 0.158006
0.032812 0.129592 0.224316
0.032709 0.129489 0.290108
0.032606 0.129387 0.355507
0.032505 0.129285 0.420589
0.032403 0.129183 0.485406
0.032302 0.129082 0.549995
0.032202 0.128982 0.614384
0.032101 0.128881 0.678595
0.032001 0.128781 0.742647
0.031901 0.128681 0.806552
0.031801 0.128581 0.870324
0.031702 0.128482 0.933973
0.031602 0.128383 0.997507
0.032134 0.195608 0.000000
0.032096 0.195570 0.021373
0.031989 0.195462 0.089906
0.031884 0.195358 0.156974
0.031780 0.195254 0.223284
0.031677 0.195151 0.289076
0.031575 0.195049 0.354475
0.031473 0.194947 0.419557
0.031372 0.194846 0.484374
0.031271 0.194745 0.548963
0.031170 0.194644 0.613353
0.031070 0.194543 0.677564
0.030969 0.194443 0.741615
0.030869 0.194343 0.805521
0.030770 0.194244 0.869292
0.030670 0.194144 0.932941
0.030571 0.194045 0.996475
0.031112 0.260681 0.000000
0.031073 0.260642 0.020350
0.030966 0.260535 0.088883
0.030861 0.260430 0.155952
0.030758 0.260327 0.222262
0.030655 0.260224 0.288054
0.030553 0.260121 0.353453
0.030451 0.260020 0.418535
0.030349 0.259918 0.483352
0.030248 0.259817 0.547941
0.030148 0.259716 0.612330
0.030047 0.259616 0.676542
0.029947 0.259516 0.740593
0.029847 0.259416 0.804498
0.029747 0.259316 0.868270
0.029648 0.259217 0.931919
0.029549 0.259117 0.995453
0.030096 0.325322 0.000000
0.030058 0.325283 0.019335
0.029951 0.325176 0.087868
0.029846 0.325071 0.154936
0.029742 0.324968 0.221246
0.029639 0.324865 0.287038
0.029537 0.324762 0.352437
0.029435 0.324661 0.417520
0.029334 0.324559 0.482336
0.029233 0.324458 0.546926
0.029132 0.324357 0.611315
0.029032 0.324257 0.675526
0.028932 0.324157 0.739577
0.028832 0.324057 0.803483
0.028732 0.323957 0.867255
0.028632 0.323858 0.930903
0.028533 0.323758 0.994437
0.029086 0.389622 0.000000
0.029048 0.389584 0.018324
0.028941 0.389477 0.086858
0.028836 0.389372 0.153926
0.028732 0.389268 0.220236
0.028629 0.389165 0.286028
0.028527 0.389063 0.351427
0.028425 0.388961 0.416509
0.028324 0.388860 0.481326
0.028223 0.388759 0.545915
0.028122 0.388658 0.610304
0.028021 0.388558 0.674516
0.027921 0.388458 0.738567
0.027821 0.388358 0.802472
0.027722 0.388258 0.866244
0.027622 0.388158 0.929893
0.027523 0.388059 0.993427
0.028080 0.453642 0.000000
0.028042 0.453604 0.017319
0.027935 0.453496 0.085852
0.027830 0.453392 0.152920
0.027726 0.453288 0.219230
0.027623 0.453185 0.285022
0.027521 0.453083 0.350421
0.027419 0.452981 0.415504
0.027318 0.452880 0.480320
0.027217 0.452779 0.544909
0.027116 0.452678 0.609299
0.027016 0.452577 0.673510
0.026916 0.452477 0.737561
0.026816 0.452377 0.801467
0.026716 0.452278 0.865239
0.026616 0.452178 0.928887
0.026517 0.452079 0.992421
0.027078 0.517423 0.000000
0.027040 0.517384 0.016317
0.026933 0.517277 0.084850
0.026828 0.517172 0.151918
0.026724 0.517069 0.218228
0.026621 0.516966 0.284020
0.026519 0.516863 0.349419
0.026417 0.516762 0.414501
0.026316 0.516660 0.479318
0.026215 0.516559 0.543907
0.026114 0.516459 0.608297
0.026014 0.516358 0.672508
0.025913 0.516258 0.736559
0.025814 0.516158 0.800465
0.025714 0.516058 0.864236
0.025614 0.515959 0.927885
0.025515 0.515859 0.991419
0.026080 0.580996 0.000000
0.026041 0.580957 0.015318
0.025934 0.580850 0.083851
0.025829 0.580745 0.150920
0.025725 0.580641 0.217229
0.025622 0.580538 0.283021
0.025520 0.580436 0.348420
0.025418 0.580334 0.413503
0.025317 0.580233 0.478320
0.025216 0.580132 0.542909
0.025115 0.580031 0.607298
0.025015 0.579931 0.671509
0.024915 0.579831 0.735560
0.024815 0.579731 0.799466
0.024715 0.579631 0.863238
0.024615 0.579532 0.926886
0.024516 0.579432 0.990421
0.025084 0.644384 0.000000
0.025045 0.644346 0.014322
0.024938 0.644239 0.082855
0.024833 0.644134 0.149924
0.024729 0.644030 0.216233
0.024627 0.643927 0.282026
0.024524 0.643825 0.347425
0.024422 0.643723 0.412507
0.024321 0.643622 0.477324
0.024220 0.643521 0.541913
0.024119 0.643420 0.606302
0.024019 0.643320 0.670513
0.023919 0.643220 0.734564
0.023819 0.643120 0.798470
0.023719 0.643020 0.862242
0.023620 0.642920 0.925891
0.023520 0.642821 0.989425
0.024090 0.707608 0.000000
0.024052 0.707570 0.013329
0.023945 0.707463 0.081862
0.023840 0.707358 0.148930
0.023736 0.707254 0.215240
0.023633 0.707151 0.281032
0.023531 0.707049 0.346431
0.023429 0.706947 0.411513
0.023328 0.706846 0.476330
0.023227 0.706745 0.540919
0.023126 0.706644 0.605309
0.023026 0.706544 0.669520
0.022926 0.706444 0.733571
0.022826 0.706344 0.797477
0.022726 0.706244 0.861249
0.022626 0.706144 0.924897
0.022527 0.706045 0.988431
0.023099 0.770683 0.000000
0.023061 0.770645 0.012338
0.022954 0.770537 0.080871
0.022849 0.770432 0.147939
0.022745 0.770329 0.214249
0.022642 0.770226 0.280041
0.022540 0.770124 0.345440
0.022438 0.770022 0.410523
0.022337 0.769920 0.475340
0.022236 0.769819 0.539929
0.022135 0.769719 0.604318
0.022035 0.769618 0.668529
0.021935 0.769518 0.732580
0.021835 0.769418 0.796486
0.021735 0.769318 0.860258
0.021635 0.769219 0.923906
0.021536 0.769120 0.987441
0.022111 0.833621 0.000000
0.022072 0.833583 0.011349
0.021965 0.833475 0.079882
0.021860 0.833371 0.146951
0.021756 0.833267 0.213260
0.021653 0.833164 0.279053
0.021551 0.833062 0.344452
0.021449 0.832960 0.409534
0.021348 0.832859 0.474351
0.021247 0.832758 0.538940
0.021146 0.832657 0.603329
0.021046 0.832556 0.667540
0.020946 0.832456 0.731591
0.020846 0.832356 0.795497
0.020746 0.832257 0.859269
0.020647 0.832157 0.922917
0.020547 0.832058 0.986452
0.021124 0.896434 0.000000
0.021085 0.896395 0.010362
0.020978 0.896288 0.078895
0.020873 0.896183 0.145964
0.020770 0.896079 0.212274
0.020667 0.895976 0.278066
0.020564 0.895874 0.343465
0.020463 0.895772 0.408547
0.020361 0.895671 0.473364
0.020260 0.895570 0.537953
0.020160 0.895469 0.602342
0.020059 0.895369 0.666553
0.019959 0.895269 0.730605
0.019859 0.895169 0.794510
0.019759 0.895069 0.858282
0.019660 0.894970 0.921931
0.019560 0.894870 0.985465
0.020139 0.959130 0.000000
0.020100 0.959091 0.009377
0.019993 0.958984 0.077910
0.019888 0.958879 0.144979
0.019785 0.958775 0.211289
0.019682 0.958673 0.277081
0.019579 0.958570 0.342480
0.019478 0.958469 0.407562
0.019376 0.958367 0.472379
0.019275 0.958266 0.536968
0.019175 0.958165 0.601357
0.019074 0.958065 0.665568
0.018974 0.957965 0.729620
0.018874 0.957865 0.793525
0.018774 0.957765 0.857297
0.018675 0.957666 0.920946
0.018575 0.957566 0.984480
0.019400 1.000000 0.000000
0.019362 1.000000 0.008639
0.019255 1.000000 0.077172
0.019150 1.000000 0.144240
0.019046 1.000000 0.210550
0.018943 1.000000 0.276342
0.018841 1.000000 0.341741
0.018739 1.000000 0.406823
0.018638 1.000000 0.471640
0.018537 1.000000 0.536229
0.018436 1.000000 0.600619
0.018336 1.000000 0.664830
0.018235 1.000000 0.728881
0.018136 1.000000 0.792787
0.018036 1.000000 0.856558
0.017936 1.000000 0.920207
0.017837 1.000000 0.983741
0.103203 0.000000 0.000000
0.103164 0.000000 0.024134
0.103057 0.000000 0.092667
0.102952 0.000000 0.159736
0.102849 0.000000 0.226046
0.102746 0.000000 0.291838
0.102644 0.000000 0.357237
0.102542 0.000000 0.422319
0.102440 0.000000 0.487136
0.102339 0.000000 0.551725
0.102239 0.000000 0.616114
0.102138 0.000000 0.680326
0.102038 0.000000 0.744377
0.101938 0.000000 0.808282
0.101838 0.000000 0.872054
0.101739 0.000000 0.935703
0.101640 0.000000 0.999237
0.102205 0.063035 0.000000
0.102167 0.062997 0.023136
0.102059 0.062890 0.091670
0.101955 0.062785 0.158738
0.101851 0.062681 0.225048
0.101748 0.062578 0.290840
0.101646 0.062476 0.356239
0.101544 0.062374 0.421321
0.101443 0.062273 0.486138
0.101342 0.062172 0.550727
0.101241 0.062071 0.615116
0.101140 0.061971 0.679328
0.101040 0.061870 0.743379
0.100940 0.061771 0.807284
0.100841 0.061671 0.871056
0.100741 0.061571 0.934705
0.100642 0.061472 0.998239
0.101159 0.129632 0.000000
0.101120 0.129594 0.022090
0.101013 0.129486 0.090623
0.100908 0.129381 0.157692
0.100805 0.129278 0.224002
0.100702 0.129175 0.289794
0.100599 0.129073 0.355193
0.100498 0.128971 0.420275
0.100396 0.128869 0.485092
0.100295 0.128768 0.549681
0.100195 0.128668 0.614070
0.100094 0.128567 0.678281
0.099994 0.128467 0.742333
0.099894 0.128367 0.806238
0.099794 0.128267 0.870010
0.099695 0.128168 0.933659
0.099595 0.128069 0.997193
0.100127 0.195294 0.000000
0.100089 0.195256 0.021059
0.099982 0.195148 0.089592
0.099877 0.195044 0.156660
0.099773 0.194940 0.222970
0.099670 0.194837 0.288762
0.099568 0.194735 0.354161
0.099466 0.194633 0.419243
0.099365 0.194532 0.484060
0.099264 0.194430 0.548649
0.099163 0.194330 0.613038
0.099063 0.194229 0.677250
0.098962 0.194129 0.741301
0.098862 0.194029 0.805206
0.098763 0.193930 0.868978
0.098663 0.193830 0.932627
0.098564 0.193731 0.996161
0.099105 0.260367 0.000000
0.099066 0.260328 0.020036
0.098959 0.260221 0.088569
0.098854 0.260116 0.155638
0.098751 0.260012 0.221948
0.098648 0.259910 0.287740
0.098545 0.259807 0.353139
0.098444 0.259705 0.418221
0.098342 0.259604 0.483038
0.098241 0.259503 0.547627
0.098141 0.259402 0.612016
0.098040 0.259302 0.676227
0.097940 0.259202 0.740279
0.097840 0.259102 0.804184
0.097740 0.259002 0.867956
0.097641 0.258903 0.931605
0.097541 0.258803 0.995139
0.098089 0.325008 0.000000
0.098051 0.324969 0.019021
0.097944 0.324862 0.087554
0.097839 0.324757 0.154622
0.097735 0.324653 0.220932
0.097632 0.324551 0.286724
0.097530 0.324448 0.352123
0.097428 0.324346 0.417205
0.097327 0.324245 0.482022
0.097226 0.324144 0.546611
0.097125 0.324043 0.611001
0.097025 0.323943 0.675212
0.096924 0.323843 0.739263
0.096825 0.323743 0.803169
0.096725 0.323643 0.866940
0.096625 0.323544 0.930589
0.096526 0.323444 0.994123
0.097079 0.389308 0.000000
0.097041 0.389270 0.018010
0.096933 0.389163 0.086544
0.096829 0.389058 0.153612
0.096725 0.388954 0.219922
0.096622 0.388851 0.285714
0.096520 0.388749 0.351113
0.096418 0.388647 0.416195
0.096317 0.388546 0.481012
0.096216 0.388445 0.545601
0.096115 0.388344 0.609990
0.096014 0.388244 0.674202
0.095914 0.388143 0.738253
0.095814 0.388044 0.802158
0.095715 0.387944 0.865930
0.095615 0.387844 0.929579
0.095516 0.387745 0.993113
0.096073 0.453328 0.000000
0.096035 0.453290 0.017005
0.095928 0.453182 0.085538
0.095823 0.453078 0.152606
0.095719 0.452974 0.218916
0.095616 0.452871 0.284708
0.095514 0.452769 0.350107
0.095412 0.452667 0.415189
0.095311 0.452565 0.480006
0.095210 0.452464 0.544595
0.095109 0.452364 0.608985
0.095009 0.452263 0.673196
0.094908 0.452163 0.737247
0.094809 0.452063 0.801153
0.094709 0.451963 0.864924
0.094609 0.451864 0.928573
0.094510 0.451765 0.992107
0.095071 0.517109 0.000000
0.095033 0.517070 0.016003
0.094926 0.516963 0.084536
0.094821 0.516858 0.151604
0.094717 0.516755 0.217914
0.094614 0.516652 0.283706
0.094512 0.516549 0.349105
0.094410 0.516448 0.414187
0.094309 0.516346 0.479004
0.094208 0.516245 0.543593
0.094107 0.516144 0.607983
0.094007 0.516044 0.672194
0.093906 0.515944 0.736245
0.093806 0.515844 0.800150
0.093707 0.515744 0.863922
0.093607 0.515645 0.927571
0.093508 0.515545 0.991105
0.094073 0.580682 0.000000
0.094034 0.580643 0.015004
0.093927 0.580536 0.083537
0.093822 0.580431 0.150605
0.093718 0.580327 0.216915
0.093615 0.580224 0.282707
0.093513 0.580122 0.348106
0.093411 0.580020 0.413189
0.093310 0.579919 0.478006
0.093209 0.579818 0.542595
0.093108 0.579717 0.606984
0.093008 0.579617 0.671195
0.092908 0.579517 0.735246
0.092808 0.579417 0.799152
0.092708 0.579317 0.862924
0.092608 0.579217 0.926572
0.092509 0.579118 0.990107
0.093077 0.644070 0.000000
0.093038 0.644032 0.014008
0.092931 0.643925 0.082541
0.092826 0.643820 0.149610
0.092722 0.643716 0.215919
0.092619 0.643613 0.281711
0.092517 0.643511 0.347111
0.092415 0.643409 0.412193
0.092314 0.643308 0.477010
0.092213 0.643207 0.541599
0.092112 0.643106 0.605988
0.092012 0.643006 0.670199
0.091912 0.642906 0.734250
0.091812 0.642806 0.798156
0.091712 0.642706 0.861928
0.091613 0.642606 0.925576
0.091513 0.642507 0.989111
0.092083 0.707294 0.000000
0.092045 0.707256 0.013015
0.091938 0.707149 0.081548
0.091833 0.707044 0.148616
0.091729 0.706940 0.214926
0.091626 0.706837 0.280718
0.091524 0.706735 0.346117
0.091422 0.706633 0.411199
0.091321 0.706532 0.476016
0.091220 0.706431 0.540605
0.091119 0.706330 0.604995
0.091019 0.706230 0.669206
0.090918 0.706129 0.733257
0.090819 0.706030 0.797163
0.090719 0.705930 0.860934
0.090619 0.705830 0.924583
0.090520 0.705731 0.988117
0.091092 0.770369 0.000000
0.091054 0.770330 0.012024
0.090947 0.770223 0.080557
0.090842 0.770118 0.147625
0.090738 0.770015 0.213935
0.090635 0.769912 0.279727
0.090533 0.769810 0.345126
0.090431 0.769708 0.410208
0.090330 0.769606 0.475025
0.090229 0.769505 0.539614
0.090128 0.769405 0.604004
0.090028 0.769304 0.668215
0.089928 0.769204 0.732266
0.089828 0.769104 0.796172
0.089728 0.769004 0.859944
0.089628 0.768905 0.923592
0.089529 0.768806 0.987126
0.090104 0.833307 0.000000
0.090065 0.833269 0.011035
0.089958 0.833161 0.079568
0.089853 0.833057 0.146636
0.089749 0.832953 0.212946
0.089646 0.832850 0.278738
0.089544 0.832748 0.344137
0.089442 0.832646 0.409220
0.089341 0.832545 0.474037
0.089240 0.832443 0.538626
0.089139 0.832343 0.603015
0.089039 0.832242 0.667226
0.088939 0.832142 0.731277
0.088839 0.832042 0.795183
0.088739 0.831943 0.858955
0.088639 0.831843 0.922603
0.088540 0.831744 0.986138
0.089117 0.896120 0.000000
0.089078 0.896081 0.010048
0.088971 0.895974 0.078581
0.088866 0.895869 0.145650
0.088762 0.895765 0.211959
0.088660 0.895662 0.277752
0.088557 0.895560 0.343151
0.088456 0.895458 0.408233
0.088354 0.895357 0.473050
0.088253 0.895256 0.537639
0.088152 0.895155 0.602028
0.088052 0.895055 0.666239
0.087952 0.894955 0.730290
0.087852 0.894855 0.794196
0.087752 0.894755 0.857968
0.087653 0.894655 0.921617
0.087553 0.894556 0.985151
0.088132 0.958816 0.000000
0.088093 0.958777 0.009063
0.087986 0.958670 0.077596
0.087881 0.958565 0.144665
0.087777 0.958461 0.210974
0.087675 0.958359 0.276767
0.087572 0.958256 0.342166
0.087471 0.958154 0.407248
0.087369 0.958053 0.472065
0.087268 0.957952 0.536654
0.087167 0.957851 0.601043
0.087067 0.957751 0.665254
0.086967 0.957651 0.729305
0.086867 0.957551 0.793211
0.086767 0.957451 0.856983
0.086668 0.957352 0.920632
0.086568 0.957252 0.984166
0.087393 1.000000 0.000000
0.087355 1.000000 0.008325
0.087248 1.000000 0.076858
0.087143 1.000000 0.143926
0.087039 1.000000 0.210236
0.086936 1.000000 0.276028
0.086834 1.000000 0.341427
0.086732 1.000000 0.406509
0.086631 1.000000 0.471326
0.086530 1.000000 0.535915
0.086429 1.000000 0.600305
0.086329 1.000000 0.664516
0.086228 1.000000 0.728567
0.086128 1.000000 0.792472
0.086029 1.000000 0.856244
0.085929 1.000000 0.919893
0.085830 1.000000 0.983427
0.169926 0.000000 0.000000
0.169888 0.000000 0.023826
0.169780 0.000000 0.092359
0.169676 0.000000 0.159428
0.169572 0.000000 0.225737
0.169469 0.000000 0.291530
0.169367 0.000000 0.356929
0.169265 0.000000 0.422011
0.169164 0.000000 0.486828
0.169062 0.000000 0.551417
0.168962 0.000000 0.615806
0.168861 0.000000 0.680017
0.168761 0.000000 0.744068
0.168661 0.000000 0.807974
0.168562 0.000000 0.871746
0.168462 0.000000 0.935395
0.168363 0.000000 0.998929
0.168928 0.062727 0.000000
0.168890 0.062689 0.022828
0.168783 0.062581 0.091361
0.168678 0.062477 0.158430
0.168574 0.062373 0.224740
0.168471 0.062270 0.290532
0.168369 0.062168 0.355931
0.168267 0.062066 0.421013
0.168166 0.061965 0.485830
0.168065 0.061864 0.550419
0.167964 0.061763 0.614808
0.167864 0.061662 0.679019
0.167763 0.061562 0.743071
0.167663 0.061462 0.806976
0.167564 0.061363 0.870748
0.167464 0.061263 0.934397
0.167365 0.061164 0.997931
0.167882 0.129324 0.000000
0.167844 0.129285 0.021782
0.167736 0.129178 0.090315
0.167631 0.129073 0.157384
0.167528 0.128970 0.223693
0.167425 0.128867 0.289486
0.167323 0.128764 0.354885
0.167221 0.128663 0.419967
0.167119 0.128561 0.484784
0.167018 0.128460 0.549373
0.166918 0.128359 0.613762
0.166817 0.128259 0.677973
0.166717 0.128159 0.742024
0.166617 0.128059 0.805930
0.166517 0.127959 0.869702
0.166418 0.127860 0.933350
0.166319 0.127760 0.996885
0.166850 0.194986 0.000000
0.166812 0.194947 0.020750
0.166705 0.194840 0.089284
0.166600 0.194735 0.156352
0.166496 0.194632 0.222662
0.166393 0.194529 0.288454
0.166291 0.194426 0.353853
0.166189 0.194325 0.418935
0.166088 0.194223 0.483752
0.165987 0.194122 0.548341
0.165886 0.194022 0.612730
0.165786 0.193921 0.676942
0.165685 0.193821 0.740993
0.165586 0.193721 0.804898
0.165486 0.193621 0.868670
0.165386 0.193522 0.932319
0.165287 0.193422 0.995853
0.165828 0.260058 0.000000
0.165790 0.260020 0.019728
0.165682 0.259913 0.088261
0.165577 0.259808 0.155330
0.165474 0.259704 0.221639
0.165371 0.259601 0.287432
0.165269 0.259499 0.352831
0.165167 0.259397 0.417913
0.165065 0.259296 0.482730
0.164964 0.259195 0.547319
0.164864 0.259094 0.611708
0.164763 0.258994 0.675919
0.164663 0.258894 0.739970
0.164563 0.258794 0.803876
0.164463 0.258694 0.867648
0.164364 0.258594 0.931297
0.164265 0.258495 0.994831
0.164812 0.324700 0.000000
0.164774 0.324661 0.018712
0.164667 0.324554 0.087246
0.164562 0.324449 0.154314
0.164458 0.324345 0.220624
0.164355 0.324242 0.286416
0.164253 0.324140 0.351815
0.164151 0.324038 0.416897
0.164050 0.323937 0.481714
0.163949 0.323836 0.546303
0.163848 0.323735 0.610692
0.163748 0.323635 0.674904
0.163648 0.323535 0.738955
0.163548 0.323435 0.802860
0.163448 0.323335 0.866632
0.163348 0.323235 0.930281
0.163249 0.323136 0.993815
0.163802 0.389000 0.000000
0.163764 0.388962 0.017702
0.163657 0.388854 0.086235
0.163552 0.388750 0.153304
0.163448 0.388646 0.219614
0.163345 0.388543 0.285406
0.163243 0.388441 0.350805
0.163141 0.388339 0.415887
0.163040 0.388238 0.480704
0.162939 0.388137 0.545293
0.162838 0.388036 0.609682
0.162738 0.387935 0.673893
0.162637 0.387835 0.737945
0.162537 0.387735 0.801850
0.162438 0.387636 0.865622
0.162338 0.387536 0.929271
0.162239 0.387437 0.992805
0.162796 0.453020 0.000000
0.162758 0.452981 0.016696
0.162651 0.452874 0.085230
0.162546 0.452769 0.152298
0.162442 0.452666 0.218608
0.162339 0.452563 0.284400
0.162237 0.452460 0.349799
0.162135 0.452359 0.414881
0.162034 0.452257 0.479698
0.161933 0.452156 0.544287
0.161832 0.452056 0.608676
0.161732 0.451955 0.672888
0.161632 0.451855 0.736939
0.161532 0.451755 0.800844
0.161432 0.451655 0.864616
0.161332 0.451556 0.928265
0.161233 0.451456 0.991799
0.161794 0.516801 0.000000
0.161756 0.516762 0.015694
0.161649 0.516655 0.084228
0.161544 0.516550 0.151296
0.161440 0.516446 0.217606
0.161337 0.516343 0.283398
0.161235 0.516241 0.348797
0.161133 0.516139 0.413879
0.161032 0.516038 0.478696
0.160931 0.515937 0.543285
0.160830 0.515836 0.607674
0.160730 0.515736 0.671886
0.160630 0.515636 0.735937
0.160530 0.515536 0.799842
0.160430 0.515436 0.863614
0.160330 0.515336 0.927263
0.160231 0.515237 0.990797
0.160796 0.580373 0.000000
0.160757 0.580335 0.014696
0.160650 0.580228 0.083229
0.160545 0.580123 0.150297
0.160441 0.580019 0.216607
0.160338 0.579916 0.282399
0.160236 0.579814 0.347798
0.160134 0.579712 0.412880
0.160033 0.579611 0.477697
0.159932 0.579510 0.542286
0.159831 0.579409 0.606676
0.159731 0.579309 0.670887
0.159631 0.579208 0.734938
0.159531 0.579109 0.798843
0.159431 0.579009 0.862615
0.159332 0.578909 0.926264
0.159232 0.578810 0.989798
0.159800 0.643762 0.000000
0.159761 0.643724 0.013700
0.159654 0.643617 0.082233
0.159549 0.643512 0.149301
0.159446 0.643408 0.215611
0.159343 0.643305 0.281403
0.159240 0.643203 0.346802
0.159139 0.643101 0.411885
0.159037 0.643000 0.476701
0.158936 0.642899 0.541291
0.158835 0.642798 0.605680
0.158735 0.642697 0.669891
0.158635 0.642597 0.733942
0.158535 0.642497 0.797848
0.158435 0.642398 0.861620
0.158336 0.642298 0.925268
0.158236 0.642199 0.988802
0.158806 0.706986 0.000000
0.158768 0.706948 0.012706
0.158661 0.706840 0.081240
0.158556 0.706736 0.148308
0.158452 0.706632 0.214618
0.158349 0.706529 0.280410
0.158247 0.706427 0.345809
0.158145 0.706325 0.410891
0.158044 0.706224 0.475708
0.157943 0.706123 0.540297
0.157842 0.706022 0.604686
0.157742 0.705921 0.668898
0.157642 0.705821 0.732949
0.157542 0.705721 0.796854
0.157442 0.705622 0.860626
0.157342 0.705522 0.924275
0.157243 0.705423 0.987809
0.157816 0.770061 0.000000
0.157777 0.770022 0.011715
0.157670 0.769915 0.080249
0.157565 0.769810 0.147317
0.157461 0.769707 0.213627
0.157358 0.769604 0.279419
0.157256 0.769501 0.344818
0.157154 0.769400 0.409900
0.157053 0.769298 0.474717
0.156952 0.769197 0.539306
0.156851 0.769096 0.603695
0.156751 0.768996 0.667907
0.156651 0.768896 0.731958
0.156551 0.768796 0.795863
0.156451 0.768696 0.859635
0.156351 0.768597 0.923284
0.156252 0.768497 0.986818
0.156827 0.832999 0.000000
0.156788 0.832960 0.010727
0.156681 0.832853 0.079260
0.156576 0.832748 0.146328
0.156472 0.832645 0.212638
0.156370 0.832542 0.278430
0.156267 0.832439 0.343829
0.156165 0.832338 0.408911
0.156064 0.832236 0.473728
0.155963 0.832135 0.538317
0.155862 0.832035 0.602707
0.155762 0.831934 0.666918
0.155662 0.831834 0.730969
0.155562 0.831734 0.794875
0.155462 0.831634 0.858646
0.155363 0.831535 0.922295
0.155263 0.831435 0.985829
0.155840 0.895811 0.000000
0.155801 0.895773 0.009740
0.155694 0.895666 0.078273
0.155589 0.895561 0.145341
0.155486 0.895457 0.211651
0.155383 0.895354 0.277443
0.155280 0.895252 0.342842
0.155179 0.895150 0.407925
0.155077 0.895049 0.472742
0.154976 0.894948 0.537331
0.154876 0.894847 0.601720
0.154775 0.894747 0.665931
0.154675 0.894646 0.729982
0.154575 0.894547 0.793888
0.154475 0.894447 0.857660
0.154376 0.894347 0.921308
0.154276 0.894248 0.984843
0.154855 0.958507 0.000000
0.154816 0.958469 0.008755
0.154709 0.958362 0.077288
0.154604 0.958257 0.144356
0.154501 0.958153 0.210666
0.154398 0.958050 0.276458
0.154295 0.957948 0.341857
0.154194 0.957846 0.406940
0.154092 0.957745 0.471757
0.153991 0.957644 0.536346
0.153891 0.957543 0.600735
0.153790 0.957443 0.664946
0.153690 0.957343 0.728997
0.153590 0.957243 0.792903
0.153490 0.957143 0.856675
0.153391 0.957043 0.920323
0.153291 0.956944 0.983858
0.154116 1.000000 0.000000
0.154078 1.000000 0.008016
0.153971 1.000000 0.076550
0.153866 1.000000 0.143618
0.153762 1.000000 0.209928
0.153659 1.000000 0.275720
0.153557 1.000000 0.341119
0.153455 1.000000 0.406201
0.153354 1.000000 0.471018
0.153253 1.000000 0.535607
0.153152 1.000000 0.599996
0.153052 1.000000 0.664208
0.152952 1.000000 0.728259
0.152852 1.000000 0.792164
0.152752 1.000000 0.855936
0.152652 1.000000 0.919585
0.152553 1.000000 0.983119
0.235944 0.000000 0.000000
0.235905 0.000000 0.023521
0.235798 0.000000 0.092054
0.235693 0.000000 0.159123
0.235589 0.000000 0.225433
0.235486 0.000000 0.291225
0.235384 0.000000 0.356624
0.235282 0.000000 0.421706
0.235181 0.000000 0.486523
0.235080 0.000000 0.551112
0.234979 0.000000 0.615501
0.234879 0.000000 0.679712
0.234779 0.000000 0.743764
0.234679 0.000000 0.807669
0.234579 0.000000 0.871441
0.234479 0.000000 0.935090
0.234380 0.000000 0.998624
0.234946 0.062422 0.000000
