skills/creativeops-producer/assets/grade/luts/ad_warm_v14.cube
TITLE "ad_warm_v14"
LUT_3D_SIZE 17
DOMAIN_MIN 0.0 0.0 0.0
DOMAIN_MAX 1.0 1.0 1.0
0.037716 0.000000 0.000000
0.037578 0.000000 0.022735
0.037142 0.000000 0.096660
0.036717 0.000000 0.168635
0.036299 0.000000 0.239628
0.035884 0.000000 0.309956
0.035472 0.000000 0.379782
0.035062 0.000000 0.449205
0.034654 0.000000 0.518290
0.034249 0.000000 0.587086
0.033844 0.000000 0.655629
0.033441 0.000000 0.723947
0.033039 0.000000 0.792062
0.032638 0.000000 0.859993
0.032239 0.000000 0.927756
0.031840 0.000000 0.995363
0.031442 0.000000 1.000000
0.033745 0.063715 0.000000
0.033607 0.063577 0.018763
0.033171 0.063141 0.092689
0.032746 0.062717 0.164664
0.032327 0.062298 0.235657
0.031912 0.061883 0.305985
0.031500 0.061471 0.375811
0.031091 0.061061 0.445234
0.030683 0.060654 0.514319
0.030277 0.060248 0.583115
0.029873 0.059843 0.651658
0.029470 0.059440 0.719975
0.029068 0.059038 0.788091
0.028667 0.058638 0.856022
0.028267 0.058238 0.923784
0.027869 0.057839 0.991391
0.027471 0.057441 1.000000
0.029505 0.132457 0.000000
0.029367 0.132319 0.014523
0.028931 0.131883 0.088449
0.028506 0.131458 0.160424
0.028087 0.131039 0.231417
0.027672 0.130625 0.301745
0.027260 0.130213 0.371571
0.026851 0.129803 0.440993
0.026443 0.129395 0.510079
0.026037 0.128989 0.578875
0.025633 0.128585 0.647417
0.025230 0.128182 0.715735
0.024828 0.127780 0.783850
0.024427 0.127379 0.851781
0.024027 0.126980 0.919544
0.023628 0.126581 0.987151
0.023230 0.126183 1.000000
0.025336 0.200043 0.000000
0.025198 0.199905 0.010354
0.024761 0.199469 0.084279
0.024337 0.199044 0.156255
0.023918 0.198625 0.227247
0.023503 0.198211 0.297576
0.023091 0.197799 0.367402
0.022681 0.197389 0.436824
0.022274 0.196981 0.505909
0.021868 0.196575 0.574705
0.021464 0.196171 0.643248
0.021060 0.195768 0.711566
0.020659 0.195366 0.779681
0.020258 0.194965 0.847612
0.019858 0.194566 0.915375
0.019459 0.194167 0.982982
0.019061 0.193769 1.000000
0.021211 0.266906 0.000000
0.021073 0.266768 0.006230
0.020637 0.266331 0.080155
0.020212 0.265907 0.152130
0.019793 0.265488 0.223123
0.019379 0.265073 0.293451
0.018967 0.264661 0.363277
0.018557 0.264251 0.432700
0.018149 0.263844 0.501785
0.017744 0.263438 0.570581
0.017339 0.263034 0.639124
0.016936 0.262630 0.707442
0.016534 0.262229 0.775557
0.016133 0.261828 0.843488
0.015734 0.261428 0.911250
0.015335 0.261029 0.978857
0.014937 0.260631 1.000000
0.017119 0.333240 0.000000
0.016981 0.333102 0.002138
0.016545 0.332666 0.076063
0.016120 0.332242 0.148038
0.015702 0.331823 0.219031
0.015287 0.331408 0.289359
0.014875 0.330996 0.359185
0.014465 0.330586 0.428608
0.014058 0.330179 0.497693
0.013652 0.329773 0.566489
0.013247 0.329368 0.635032
0.012844 0.328965 0.703350
0.012442 0.328563 0.771465
0.012041 0.328163 0.839396
0.011642 0.327763 0.907159
0.011243 0.327364 0.974766
0.010845 0.326966 1.000000
0.013053 0.399160 0.000000
0.012915 0.399022 0.000000
0.012479 0.398586 0.071997
0.012054 0.398161 0.143972
0.011635 0.397742 0.214965
0.011220 0.397327 0.285293
0.010808 0.396915 0.355119
0.010399 0.396506 0.424542
0.009991 0.396098 0.493627
0.009585 0.395692 0.562423
0.009181 0.395288 0.630966
0.008778 0.394885 0.699283
0.008376 0.394483 0.767399
0.007975 0.394082 0.835330
0.007575 0.393682 0.903092
0.007177 0.393283 0.970699
0.006778 0.392885 1.000000
0.009008 0.464737 0.000000
0.008870 0.464599 0.000000
0.008434 0.464163 0.067952
0.008009 0.463739 0.139927
0.007590 0.463320 0.210920
0.007175 0.462905 0.281248
0.006763 0.462493 0.351074
0.006354 0.462083 0.420496
0.005946 0.461676 0.489582
0.005540 0.461270 0.558378
0.005136 0.460865 0.626921
0.004733 0.460462 0.695238
0.004331 0.460060 0.763353
0.003930 0.459660 0.831285
0.003530 0.459260 0.899047
0.003131 0.458861 0.966654
0.002733 0.458463 1.000000
0.004981 0.530024 0.000000
0.004843 0.529886 0.000000
0.004406 0.529450 0.063924
0.003982 0.529025 0.135900
0.003563 0.528606 0.206892
0.003148 0.528192 0.277221
0.002736 0.527780 0.347047
0.002326 0.527370 0.416469
0.001919 0.526962 0.485554
0.001513 0.526556 0.554350
0.001109 0.526152 0.622893
0.000705 0.525749 0.691211
0.000304 0.525347 0.759326
0.000000 0.524946 0.827257
0.000000 0.524547 0.895020
0.000000 0.524148 0.962627
0.000000 0.523750 1.000000
0.000969 0.595058 0.000000
0.000831 0.594920 0.000000
0.000395 0.594484 0.059913
0.000000 0.594060 0.131888
0.000000 0.593641 0.202881
0.000000 0.593226 0.273209
0.000000 0.592814 0.343035
0.000000 0.592404 0.412457
0.000000 0.591997 0.481543
0.000000 0.591591 0.550339
0.000000 0.591186 0.618882
0.000000 0.590783 0.687199
0.000000 0.590381 0.755315
0.000000 0.589981 0.823246
0.000000 0.589581 0.891008
0.000000 0.589182 0.958615
0.000000 0.588784 1.000000
0.000000 0.659869 0.000000
0.000000 0.659731 0.000000
0.000000 0.659295 0.055915
0.000000 0.658870 0.127890
0.000000 0.658452 0.198883
0.000000 0.658037 0.269211
0.000000 0.657625 0.339037
0.000000 0.657215 0.408460
0.000000 0.656807 0.477545
0.000000 0.656402 0.546341
0.000000 0.655997 0.614884
0.000000 0.655594 0.683201
0.000000 0.655192 0.751317
0.000000 0.654791 0.819248
0.000000 0.654392 0.887010
0.000000 0.653993 0.954617
0.000000 0.653595 1.000000
0.000000 0.724480 0.000000
0.000000 0.724342 0.000000
0.000000 0.723906 0.051929
0.000000 0.723481 0.123905
0.000000 0.723063 0.194897
0.000000 0.722648 0.265226
0.000000 0.722236 0.335052
0.000000 0.721826 0.404474
0.000000 0.721418 0.473559
0.000000 0.721013 0.542355
0.000000 0.720608 0.610898
0.000000 0.720205 0.679216
0.000000 0.719803 0.747331
0.000000 0.719402 0.815262
0.000000 0.719003 0.883025
0.000000 0.718604 0.950632
0.000000 0.718206 1.000000
0.000000 0.788910 0.000000
0.000000 0.788772 0.000000
0.000000 0.788336 0.047955
0.000000 0.787911 0.119930
0.000000 0.787493 0.190923
0.000000 0.787078 0.261251
0.000000 0.786666 0.331077
0.000000 0.786256 0.400500
0.000000 0.785848 0.469585
0.000000 0.785443 0.538381
0.000000 0.785038 0.606924
0.000000 0.784635 0.675242
0.000000 0.784233 0.743357
0.000000 0.783832 0.811288
0.000000 0.783433 0.879050
0.000000 0.783034 0.946657
0.000000 0.782636 1.000000
0.000000 0.853175 0.000000
0.000000 0.853037 0.000000
0.000000 0.852601 0.043991
0.000000 0.852176 0.115966
0.000000 0.851757 0.186959
0.000000 0.851342 0.257287
0.000000 0.850930 0.327113
0.000000 0.850521 0.396535
0.000000 0.850113 0.465621
0.000000 0.849707 0.534417
0.000000 0.849303 0.602960
0.000000 0.848900 0.671277
0.000000 0.848498 0.739393
0.000000 0.848097 0.807324
0.000000 0.847697 0.875086
0.000000 0.847298 0.942693
0.000000 0.846900 1.000000
0.000000 0.917287 0.000000
0.000000 0.917149 0.000000
0.000000 0.916713 0.040036
0.000000 0.916289 0.112011
0.000000 0.915870 0.183004
0.000000 0.915455 0.253332
0.000000 0.915043 0.323158
0.000000 0.914633 0.392581
0.000000 0.914226 0.461666
0.000000 0.913820 0.530462
0.000000 0.913415 0.599005
0.000000 0.913012 0.667323
0.000000 0.912610 0.735438
0.000000 0.912210 0.803369
0.000000 0.911810 0.871131
0.000000 0.911411 0.938738
0.000000 0.911013 1.000000
0.000000 0.981259 0.000000
0.000000 0.981121 0.000000
0.000000 0.980685 0.036090
0.000000 0.980260 0.108065
0.000000 0.979842 0.179058
0.000000 0.979427 0.249386
0.000000 0.979015 0.319212
0.000000 0.978605 0.388635
0.000000 0.978197 0.457720
0.000000 0.977792 0.526516
0.000000 0.977387 0.595059
0.000000 0.976984 0.663376
0.000000 0.976582 0.731492
0.000000 0.976181 0.799423
0.000000 0.975782 0.867185
0.000000 0.975383 0.934792
0.000000 0.974985 1.000000
0.000000 1.000000 0.000000
0.000000 1.000000 0.000000
0.000000 1.000000 0.033421
0.000000 1.000000 0.105397
0.000000 1.000000 0.176389
0.000000 1.000000 0.246718
0.000000 1.000000 0.316544
0.000000 1.000000 0.385966
0.000000 1.000000 0.455051
0.000000 1.000000 0.523847
0.000000 1.000000 0.592390
0.000000 1.000000 0.660708
0.000000 1.000000 0.728823
0.000000 1.000000 0.796754
0.000000 1.000000 0.864517
0.000000 1.000000 0.932124
0.000000 1.000000 0.999587
0.110239 0.000000 0.000000
0.110101 0.000000 0.021460
0.109665 0.000000 0.095385
0.109240 0.000000 0.167361
0.108821 0.000000 0.238354
0.108407 0.000000 0.308682
0.107995 0.000000 0.378508
0.107585 0.000000 0.447930
0.107177 0.000000 0.517015
0.106771 0.000000 0.585812
0.106367 0.000000 0.654354
0.105964 0.000000 0.722672
0.105562 0.000000 0.790787
0.105161 0.000000 0.858718
0.104762 0.000000 0.926481
0.104363 0.000000 0.994088
0.103965 0.000000 1.000000
0.106268 0.062441 0.000000
0.106130 0.062303 0.017489
0.105694 0.061867 0.091414
0.105269 0.061442 0.163389
0.104850 0.061023 0.234382
0.104435 0.060608 0.304711
0.104023 0.060196 0.374537
0.103614 0.059787 0.443959
0.103206 0.059379 0.513044
0.102800 0.058973 0.581840
0.102396 0.058569 0.650383
0.101993 0.058166 0.718701
0.101591 0.057764 0.786816
0.101190 0.057363 0.854747
0.100790 0.056963 0.922510
0.100391 0.056564 0.990117
0.099993 0.056166 1.000000
0.102028 0.131183 0.000000
0.101890 0.131045 0.013249
0.101453 0.130608 0.087174
0.101029 0.130184 0.159149
0.100610 0.129765 0.230142
0.100195 0.129350 0.300470
0.099783 0.128938 0.370296
0.099373 0.128528 0.439719
0.098966 0.128121 0.508804
0.098560 0.127715 0.577600
0.098156 0.127310 0.646143
0.097752 0.126907 0.714460
0.097351 0.126506 0.782576
0.096950 0.126105 0.850507
0.096550 0.125705 0.918269
0.096151 0.125306 0.985876
0.095753 0.124908 1.000000
0.097859 0.198769 0.000000
0.097721 0.198631 0.009079
0.097284 0.198194 0.083005
0.096860 0.197770 0.154980
0.096441 0.197351 0.225973
0.096026 0.196936 0.296301
0.095614 0.196524 0.366127
0.095204 0.196114 0.435550
0.094797 0.195707 0.504635
0.094391 0.195301 0.573431
0.093986 0.194897 0.641974
0.093583 0.194493 0.710291
0.093182 0.194092 0.778407
0.092781 0.193691 0.846338
0.092381 0.193291 0.914100
0.091982 0.192892 0.981707
0.091584 0.192494 1.000000
0.093734 0.265631 0.000000
0.093596 0.265493 0.004955
0.093160 0.265057 0.078880
0.092735 0.264632 0.150856
0.092316 0.264213 0.221848
0.091901 0.263798 0.292177
0.091490 0.263386 0.362003
0.091080 0.262977 0.431425
0.090672 0.262569 0.500510
0.090266 0.262163 0.569306
0.089862 0.261759 0.637849
0.089459 0.261356 0.706167
0.089057 0.260954 0.774282
0.088656 0.260553 0.842213
0.088256 0.260153 0.909976
0.087858 0.259755 0.977583
0.087460 0.259357 1.000000
0.089642 0.331966 0.000000
0.089504 0.331828 0.000863
0.089068 0.331392 0.074789
0.088643 0.330967 0.146764
0.088225 0.330548 0.217757
0.087810 0.330133 0.288085
0.087398 0.329721 0.357911
0.086988 0.329312 0.427333
0.086580 0.328904 0.496419
0.086175 0.328498 0.565215
0.085770 0.328094 0.633757
0.085367 0.327691 0.702075
0.084965 0.327289 0.770190
0.084564 0.326888 0.838121
0.084165 0.326488 0.905884
0.083766 0.326089 0.973491
0.083368 0.325691 1.000000
0.085576 0.397885 0.000000
0.085438 0.397747 0.000000
0.085002 0.397311 0.070722
0.084577 0.396887 0.142697
0.084158 0.396468 0.213690
0.083743 0.396053 0.284019
0.083331 0.395641 0.353845
0.082922 0.395231 0.423267
0.082514 0.394824 0.492352
0.082108 0.394418 0.561148
0.081704 0.394013 0.629691
0.081301 0.393610 0.698009
0.080899 0.393208 0.766124
0.080498 0.392808 0.834055
0.080098 0.392408 0.901818
0.079699 0.392009 0.969425
0.079301 0.391611 1.000000
0.081531 0.463463 0.000000
0.081393 0.463325 0.000000
0.080957 0.462889 0.066677
0.080532 0.462464 0.138652
0.080113 0.462045 0.209645
0.079698 0.461630 0.279973
0.079286 0.461218 0.349799
0.078877 0.460809 0.419222
0.078469 0.460401 0.488307
0.078063 0.459995 0.557103
0.077659 0.459591 0.625646
0.077256 0.459188 0.693964
0.076854 0.458786 0.762079
0.076453 0.458385 0.830010
0.076053 0.457985 0.897773
0.075654 0.457586 0.965380
0.075256 0.457188 1.000000
0.077504 0.528750 0.000000
0.077366 0.528612 0.000000
0.076929 0.528175 0.062650
0.076505 0.527751 0.134625
0.076086 0.527332 0.205618
0.075671 0.526917 0.275946
0.075259 0.526505 0.345772
0.074849 0.526095 0.415195
0.074442 0.525688 0.484280
0.074036 0.525282 0.553076
0.073631 0.524877 0.621619
0.073228 0.524474 0.689936
0.072827 0.524073 0.758052
0.072426 0.523672 0.825983
0.072026 0.523272 0.893745
0.071627 0.522873 0.961352
0.071229 0.522475 1.000000
0.073492 0.593784 0.000000
0.073354 0.593646 0.000000
0.072918 0.593210 0.058638
0.072493 0.592785 0.130613
0.072074 0.592366 0.201606
0.071659 0.591951 0.271935
0.071247 0.591539 0.341761
0.070838 0.591130 0.411183
0.070430 0.590722 0.480268
0.070024 0.590316 0.549064
0.069620 0.589912 0.617607
0.069217 0.589509 0.685925
0.068815 0.589107 0.754040
0.068414 0.588706 0.821971
0.068014 0.588306 0.889734
0.067615 0.587907 0.957341
0.067217 0.587509 1.000000
0.069494 0.658595 0.000000
0.069356 0.658457 0.000000
0.068920 0.658021 0.054640
0.068495 0.657596 0.126616
0.068076 0.657177 0.197608
0.067661 0.656762 0.267937
0.067249 0.656350 0.337763
0.066840 0.655941 0.407185
0.066432 0.655533 0.476270
0.066026 0.655127 0.545066
0.065622 0.654723 0.613609
0.065219 0.654320 0.681927
0.064817 0.653918 0.750042
0.064416 0.653517 0.817973
0.064016 0.653117 0.885736
0.063618 0.652718 0.953343
0.063219 0.652320 1.000000
0.065508 0.723206 0.000000
0.065370 0.723068 0.000000
0.064934 0.722632 0.050655
0.064510 0.722207 0.122630
0.064091 0.721788 0.193623
0.063676 0.721373 0.263951
0.063264 0.720961 0.333777
0.062854 0.720552 0.403199
0.062447 0.720144 0.472285
0.062041 0.719738 0.541081
0.061636 0.719334 0.609624
0.061233 0.718931 0.677941
0.060831 0.718529 0.746057
0.060431 0.718128 0.813988
0.060031 0.717728 0.881750
0.059632 0.717329 0.949357
0.059234 0.716931 1.000000
0.061534 0.787636 0.000000
0.061396 0.787498 0.000000
0.060960 0.787061 0.046680
0.060535 0.786637 0.118656
0.060116 0.786218 0.189648
0.059701 0.785803 0.259977
0.059289 0.785391 0.329803
0.058880 0.784981 0.399225
0.058472 0.784574 0.468310
0.058066 0.784168 0.537106
0.057662 0.783764 0.605649
0.057259 0.783361 0.673967
0.056857 0.782959 0.742082
0.056456 0.782558 0.810013
0.056056 0.782158 0.877776
0.055658 0.781759 0.945383
0.055260 0.781361 1.000000
0.057570 0.851900 0.000000
0.057432 0.851762 0.000000
0.056996 0.851326 0.042716
0.056571 0.850902 0.114691
0.056152 0.850483 0.185684
0.055737 0.850068 0.256013
0.055325 0.849656 0.325839
0.054916 0.849246 0.395261
0.054508 0.848839 0.464346
0.054102 0.848433 0.533142
0.053698 0.848028 0.601685
0.053295 0.847625 0.670003
0.052893 0.847223 0.738118
0.052492 0.846823 0.806049
0.052092 0.846423 0.873812
0.051693 0.846024 0.941419
0.051295 0.845626 1.000000
0.053615 0.916013 0.000000
0.053477 0.915875 0.000000
0.053041 0.915439 0.038761
0.052616 0.915014 0.110737
0.052197 0.914595 0.181729
0.051782 0.914180 0.252058
0.051370 0.913768 0.321884
0.050961 0.913359 0.391306
0.050553 0.912951 0.460391
0.050147 0.912545 0.529187
0.049743 0.912141 0.597730
0.049340 0.911738 0.666048
0.048938 0.911336 0.734163
0.048537 0.910935 0.802094
0.048137 0.910535 0.869857
0.047739 0.910136 0.937464
0.047341 0.909738 1.000000
0.049669 0.979985 0.000000
0.049531 0.979847 0.000000
0.049095 0.979410 0.034815
0.048670 0.978986 0.106790
0.048251 0.978567 0.177783
0.047836 0.978152 0.248112
0.047424 0.977740 0.317938
0.047015 0.977330 0.387360
0.046607 0.976923 0.456445
0.046201 0.976517 0.525241
0.045797 0.976113 0.593784
0.045394 0.975710 0.662102
0.044992 0.975308 0.730217
0.044591 0.974907 0.798148
0.044191 0.974507 0.865911
0.043792 0.974108 0.933518
0.043394 0.973710 1.000000
0.047000 1.000000 0.000000
0.046862 1.000000 0.000000
0.046426 1.000000 0.032147
0.046002 1.000000 0.104122
0.045583 1.000000 0.175115
0.045168 1.000000 0.245443
0.044756 1.000000 0.315269
0.044346 1.000000 0.384691
0.043939 1.000000 0.453777
0.043533 1.000000 0.522573
0.043128 1.000000 0.591116
0.042725 1.000000 0.659433
0.042323 1.000000 0.727548
0.041923 1.000000 0.795480
0.041523 1.000000 0.863242
0.041124 1.000000 0.930849
0.040726 1.000000 0.998312
0.181159 0.000000 0.000000
0.181021 0.000000 0.020214
0.180585 0.000000 0.094139
0.180160 0.000000 0.166114
0.179741 0.000000 0.237107
0.179326 0.000000 0.307435
0.178914 0.000000 0.377261
0.178505 0.000000 0.446684
0.178097 0.000000 0.515769
0.177691 0.000000 0.584565
0.177287 0.000000 0.653108
0.176884 0.000000 0.721426
0.176482 0.000000 0.789541
0.176081 0.000000 0.857472
0.175681 0.000000 0.925235
0.175282 0.000000 0.992842
0.174884 0.000000 1.000000
0.177188 0.061194 0.000000
0.177050 0.061056 0.016242
0.176614 0.060620 0.090168
0.176189 0.060196 0.162143
0.175770 0.059777 0.233136
0.175355 0.059362 0.303464
0.174943 0.058950 0.373290
0.174534 0.058540 0.442713
0.174126 0.058133 0.511798
0.173720 0.057727 0.580594
0.173316 0.057322 0.649137
0.172913 0.056919 0.717454
0.172511 0.056517 0.785570
0.172110 0.056117 0.853501
0.171710 0.055717 0.921263
0.171311 0.055318 0.988870
0.170913 0.054920 1.000000
0.172947 0.129936 0.000000
0.172809 0.129798 0.012002
0.172373 0.129362 0.085928
0.171949 0.128937 0.157903
0.171530 0.128518 0.228896
0.171115 0.128104 0.299224
0.170703 0.127692 0.369050
0.170293 0.127282 0.438472
0.169886 0.126874 0.507558
0.169480 0.126468 0.576354
0.169075 0.126064 0.644896
0.168672 0.125661 0.713214
0.168270 0.125259 0.781329
0.167870 0.124858 0.849260
0.167470 0.124459 0.917023
0.167071 0.124060 0.984630
0.166673 0.123662 1.000000
0.168778 0.197522 0.000000
0.168640 0.197384 0.007833
0.168204 0.196948 0.081758
0.167779 0.196523 0.153734
0.167361 0.196105 0.224726
0.166946 0.195690 0.295055
0.166534 0.195278 0.364881
0.166124 0.194868 0.434303
0.165716 0.194460 0.503388
0.165311 0.194055 0.572185
0.164906 0.193650 0.640727
0.164503 0.193247 0.709045
0.164101 0.192845 0.777160
0.163700 0.192444 0.845091
0.163301 0.192045 0.912854
0.162902 0.191646 0.980461
0.162504 0.191248 1.000000
0.164654 0.264385 0.000000
0.164516 0.264247 0.003709
0.164080 0.263811 0.077634
0.163655 0.263386 0.149609
0.163236 0.262967 0.220602
0.162821 0.262552 0.290930
0.162409 0.262140 0.360756
0.162000 0.261731 0.430179
0.161592 0.261323 0.499264
0.161186 0.260917 0.568060
0.160782 0.260513 0.636603
0.160379 0.260110 0.704921
0.159977 0.259708 0.773036
0.159576 0.259307 0.840967
0.159176 0.258907 0.908729
0.158777 0.258508 0.976337
0.158379 0.258110 1.000000
0.160562 0.330719 0.000000
0.160424 0.330581 0.000000
0.159988 0.330145 0.073542
0.159563 0.329721 0.145517
0.159144 0.329302 0.216510
0.158729 0.328887 0.286838
0.158317 0.328475 0.356664
0.157908 0.328065 0.426087
0.157500 0.327658 0.495172
0.157094 0.327252 0.563968
0.156690 0.326847 0.632511
0.156287 0.326444 0.700829
0.155885 0.326042 0.768944
0.155484 0.325642 0.836875
0.155084 0.325242 0.904638
0.154685 0.324843 0.972245
0.154287 0.324445 1.000000
0.156496 0.396639 0.000000
0.156358 0.396501 0.000000
0.155922 0.396065 0.069476
0.155497 0.395640 0.141451
0.155078 0.395221 0.212444
0.154663 0.394806 0.282772
0.154251 0.394394 0.352598
0.153841 0.393985 0.422021
0.153434 0.393577 0.491106
0.153028 0.393171 0.559902
0.152624 0.392767 0.628445
0.152221 0.392364 0.696762
0.151819 0.391962 0.764878
0.151418 0.391561 0.832809
0.151018 0.391161 0.900571
0.150619 0.390762 0.968178
0.150221 0.390364 1.000000
0.152451 0.462216 0.000000
0.152312 0.462078 0.000000
0.151876 0.461642 0.065431
0.151452 0.461218 0.137406
0.151033 0.460799 0.208399
0.150618 0.460384 0.278727
0.150206 0.459972 0.348553
0.149796 0.459562 0.417975
0.149389 0.459155 0.487061
0.148983 0.458749 0.555857
0.148578 0.458344 0.624400
0.148175 0.457941 0.692717
0.147773 0.457539 0.760832
0.147373 0.457139 0.828764
0.146973 0.456739 0.896526
0.146574 0.456340 0.964133
0.146176 0.455942 1.000000
0.148423 0.527503 0.000000
0.148285 0.527365 0.000000
0.147849 0.526929 0.061403
0.147424 0.526504 0.133379
0.147006 0.526085 0.204371
0.146591 0.525671 0.274700
0.146179 0.525259 0.344526
0.145769 0.524849 0.413948
0.145361 0.524441 0.483033
0.144956 0.524035 0.551830
0.144551 0.523631 0.620372
0.144148 0.523228 0.688690
0.143746 0.522826 0.756805
0.143345 0.522425 0.824736
0.142946 0.522026 0.892499
0.142547 0.521627 0.960106
0.142149 0.521229 1.000000
0.144412 0.592537 0.000000
0.144274 0.592399 0.000000
0.143837 0.591963 0.057392
0.143413 0.591539 0.129367
0.142994 0.591120 0.200360
0.142579 0.590705 0.270688
0.142167 0.590293 0.340514
0.141757 0.589883 0.409937
0.141350 0.589476 0.479022
0.140944 0.589070 0.547818
0.140540 0.588665 0.616361
0.140136 0.588262 0.684678
0.139735 0.587860 0.752794
0.139334 0.587460 0.820725
0.138934 0.587060 0.888487
0.138535 0.586661 0.956094
0.138137 0.586263 1.000000
0.140414 0.657348 0.000000
0.140276 0.657210 0.000000
0.139840 0.656774 0.053394
0.139415 0.656349 0.125369
0.138996 0.655931 0.196362
0.138581 0.655516 0.266690
0.138169 0.655104 0.336516
0.137760 0.654694 0.405939
0.137352 0.654287 0.475024
0.136946 0.653881 0.543820
0.136542 0.653476 0.612363
0.136139 0.653073 0.680680
0.135737 0.652671 0.748796
0.135336 0.652270 0.816727
0.134936 0.651871 0.884489
0.134537 0.651472 0.952096
0.134139 0.651074 1.000000
0.136428 0.721959 0.000000
0.136290 0.721821 0.000000
0.135854 0.721385 0.049408
0.135429 0.720960 0.121384
0.135010 0.720542 0.192376
0.134596 0.720127 0.262705
0.134184 0.719715 0.332531
0.133774 0.719305 0.401953
0.133366 0.718898 0.471038
0.132961 0.718492 0.539834
0.132556 0.718087 0.608377
0.132153 0.717684 0.676695
0.131751 0.717282 0.744810
0.131350 0.716881 0.812741
0.130951 0.716482 0.880504
0.130552 0.716083 0.948111
0.130154 0.715685 1.000000
0.132454 0.786389 0.000000
0.132316 0.786251 0.000000
0.131880 0.785815 0.045434
0.131455 0.785390 0.117409
0.131036 0.784972 0.188402
0.130621 0.784557 0.258730
0.130209 0.784145 0.328556
0.129800 0.783735 0.397979
0.129392 0.783327 0.467064
0.128986 0.782922 0.535860
0.128582 0.782517 0.604403
0.128179 0.782114 0.672721
0.127777 0.781712 0.740836
0.127376 0.781311 0.808767
0.126976 0.780912 0.876529
0.126577 0.780513 0.944136
0.126179 0.780115 1.000000
0.128490 0.850654 0.000000
0.128352 0.850516 0.000000
0.127915 0.850080 0.041470
0.127491 0.849655 0.113445
0.127072 0.849236 0.184438
0.126657 0.848821 0.254766
0.126245 0.848409 0.324592
0.125835 0.848000 0.394015
0.125428 0.847592 0.463100
0.125022 0.847186 0.531896
0.124618 0.846782 0.600439
0.124214 0.846379 0.668756
0.123813 0.845977 0.736872
0.123412 0.845576 0.804803
0.123012 0.845176 0.872565
0.122613 0.844777 0.940172
0.122215 0.844379 1.000000
0.124535 0.914767 0.000000
0.124397 0.914628 0.000000
0.123961 0.914192 0.037515
0.123536 0.913768 0.109490
0.123117 0.913349 0.180483
0.122702 0.912934 0.250811
0.122290 0.912522 0.320637
0.121881 0.912112 0.390060
0.121473 0.911705 0.459145
0.121067 0.911299 0.527941
0.120663 0.910894 0.596484
0.120260 0.910491 0.664802
0.119858 0.910089 0.732917
0.119457 0.909689 0.800848
0.119057 0.909289 0.868610
0.118658 0.908890 0.936217
0.118260 0.908492 1.000000
0.120589 0.978738 0.000000
0.120451 0.978600 0.000000
0.120015 0.978164 0.033569
0.119590 0.977739 0.105544
0.119171 0.977321 0.176537
0.118756 0.976906 0.246865
0.118344 0.976494 0.316691
0.117934 0.976084 0.386114
0.117527 0.975676 0.455199
0.117121 0.975271 0.523995
0.116717 0.974866 0.592538
0.116314 0.974463 0.660855
0.115912 0.974061 0.728971
0.115511 0.973660 0.796902
0.115111 0.973261 0.864664
0.114712 0.972862 0.932271
0.114314 0.972464 0.999734
0.117920 1.000000 0.000000
0.117782 1.000000 0.000000
0.117346 1.000000 0.030900
0.116921 1.000000 0.102876
0.116502 1.000000 0.173868
0.116088 1.000000 0.244197
0.115676 1.000000 0.314023
0.115266 1.000000 0.383445
0.114858 1.000000 0.452530
0.114452 1.000000 0.521326
0.114048 1.000000 0.589869
0.113645 1.000000 0.658187
0.113243 1.000000 0.726302
0.112842 1.000000 0.794233
0.112443 1.000000 0.861996
0.112044 1.000000 0.929603
0.111646 1.000000 0.997066
0.251191 0.000000 0.000000
0.251053 0.000000 0.018983
0.250617 0.000000 0.092908
0.250192 0.000000 0.164884
0.249773 0.000000 0.235876
0.249358 0.000000 0.306205
0.248946 0.000000 0.376031
0.248537 0.000000 0.445453
0.248129 0.000000 0.514538
0.247723 0.000000 0.583334
0.247319 0.000000 0.651877
0.246916 0.000000 0.720195
0.246514 0.000000 0.788310
0.246113 0.000000 0.856241
0.245713 0.000000 0.924004
0.245314 0.000000 0.991611
0.244916 0.000000 1.000000
0.247220 0.059964 0.000000
