skills/creativeops-producer/assets/grade/luts/ad_warm_v13.cube
TITLE "ad_warm_v13"
LUT_3D_SIZE 17
DOMAIN_MIN 0.0 0.0 0.0
DOMAIN_MAX 1.0 1.0 1.0
0.035377 0.000000 0.000000
0.035231 0.000000 0.025608
0.034823 0.000000 0.098695
0.034426 0.000000 0.170026
0.034033 0.000000 0.240451
0.033644 0.000000 0.310258
0.033258 0.000000 0.379597
0.032873 0.000000 0.448559
0.032491 0.000000 0.517205
0.032109 0.000000 0.585581
0.031730 0.000000 0.653719
0.031351 0.000000 0.721645
0.030974 0.000000 0.789382
0.030597 0.000000 0.856945
0.030221 0.000000 0.924350
0.029846 0.000000 0.991609
0.029472 0.000000 1.000000
0.031636 0.063804 0.000000
0.031490 0.063658 0.021867
0.031082 0.063251 0.094954
0.030685 0.062853 0.166285
0.030292 0.062461 0.236710
0.029903 0.062072 0.306517
0.029517 0.061685 0.375856
0.029132 0.061301 0.444818
0.028750 0.060918 0.513464
0.028368 0.060537 0.581840
0.027989 0.060157 0.649978
0.027610 0.059779 0.717904
0.027232 0.059401 0.785641
0.026856 0.059024 0.853204
0.026480 0.058649 0.920609
0.026105 0.058274 0.987868
0.025731 0.057900 1.000000
0.027665 0.132146 0.000000
0.027519 0.132000 0.017897
0.027112 0.131593 0.090984
0.026714 0.131195 0.162315
0.026322 0.130802 0.232739
0.025933 0.130413 0.302547
0.025546 0.130027 0.371886
0.025162 0.129642 0.440847
0.024779 0.129260 0.509494
0.024398 0.128879 0.577869
0.024018 0.128499 0.646007
0.023639 0.128120 0.713934
0.023262 0.127743 0.781670
0.022885 0.127366 0.849233
0.022510 0.126990 0.916638
0.022135 0.126615 0.983897
0.021761 0.126241 1.000000
0.023758 0.199402 0.000000
0.023612 0.199256 0.013989
0.023204 0.198849 0.087076
0.022807 0.198451 0.158407
0.022414 0.198059 0.228832
0.022025 0.197670 0.298639
0.021639 0.197283 0.367978
0.021254 0.196899 0.436940
0.020872 0.196516 0.505586
0.020490 0.196135 0.573962
0.020111 0.195755 0.642100
0.019732 0.195377 0.710026
0.019354 0.194999 0.777762
0.018978 0.194623 0.845326
0.018602 0.194247 0.912731
0.018227 0.193872 0.979990
0.017853 0.193498 1.000000
0.019890 0.265978 0.000000
0.019744 0.265832 0.010121
0.019336 0.265424 0.083208
0.018939 0.265027 0.154539
0.018546 0.264634 0.224964
0.018157 0.264245 0.294771
0.017771 0.263859 0.364110
0.017386 0.263474 0.433072
0.017004 0.263092 0.501718
0.016622 0.262711 0.570094
0.016243 0.262331 0.638232
0.015864 0.261952 0.706158
0.015486 0.261575 0.773895
0.015110 0.261198 0.841458
0.014734 0.260822 0.908863
0.014359 0.260447 0.976122
0.013985 0.260073 1.000000
0.016051 0.332056 0.000000
0.015905 0.331910 0.006282
0.015497 0.331502 0.079369
0.015100 0.331105 0.150700
0.014707 0.330712 0.221125
0.014318 0.330323 0.290932
0.013932 0.329937 0.360271
0.013547 0.329552 0.429233
0.013165 0.329170 0.497879
0.012783 0.328788 0.566255
0.012404 0.328409 0.634393
0.012025 0.328030 0.702319
0.011647 0.327653 0.770056
0.011271 0.327276 0.837619
0.010895 0.326900 0.905024
0.010520 0.326525 0.972283
0.010146 0.326151 1.000000
0.012234 0.397742 0.000000
0.012088 0.397596 0.002466
0.011681 0.397189 0.075553
0.011283 0.396791 0.146884
0.010891 0.396399 0.217308
0.010502 0.396009 0.287116
0.010115 0.395623 0.356455
0.009731 0.395239 0.425417
0.009348 0.394856 0.494063
0.008967 0.394475 0.562438
0.008587 0.394095 0.630576
0.008209 0.393716 0.698503
0.007831 0.393339 0.766239
0.007455 0.392962 0.833803
0.007079 0.392586 0.901208
0.006704 0.392212 0.968466
0.006330 0.391837 1.000000
0.008437 0.463105 0.000000
0.008291 0.462959 0.000000
0.007884 0.462552 0.071755
0.007486 0.462154 0.143086
0.007093 0.461762 0.213511
0.006704 0.461373 0.283318
0.006318 0.460986 0.352657
0.005933 0.460602 0.421619
0.005551 0.460219 0.490266
0.005170 0.459838 0.558641
0.004790 0.459458 0.626779
0.004411 0.459080 0.694705
0.004034 0.458702 0.762442
0.003657 0.458326 0.830005
0.003281 0.457950 0.897410
0.002906 0.457575 0.964669
0.002532 0.457201 1.000000
0.004655 0.528194 0.000000
0.004509 0.528048 0.000000
0.004102 0.527641 0.067974
0.003704 0.527243 0.139305
0.003312 0.526851 0.209729
0.002923 0.526462 0.279537
0.002536 0.526075 0.348876
0.002152 0.525691 0.417838
0.001769 0.525308 0.486484
0.001388 0.524927 0.554859
0.001008 0.524547 0.622997
0.000630 0.524169 0.690924
0.000252 0.523791 0.758660
0.000000 0.523415 0.826224
0.000000 0.523039 0.893629
0.000000 0.522664 0.960887
0.000000 0.522290 1.000000
0.000888 0.593045 0.000000
0.000742 0.592899 0.000000
0.000334 0.592491 0.064206
0.000000 0.592094 0.135537
0.000000 0.591701 0.205962
0.000000 0.591312 0.275769
0.000000 0.590926 0.345108
0.000000 0.590541 0.414070
0.000000 0.590159 0.482716
0.000000 0.589778 0.551092
0.000000 0.589398 0.619230
0.000000 0.589019 0.687156
0.000000 0.588642 0.754892
0.000000 0.588265 0.822456
0.000000 0.587889 0.889861
0.000000 0.587514 0.957120
0.000000 0.587140 1.000000
0.000000 0.657684 0.000000
0.000000 0.657538 0.000000
0.000000 0.657131 0.060451
0.000000 0.656733 0.131782
0.000000 0.656341 0.202206
0.000000 0.655952 0.272014
0.000000 0.655565 0.341353
0.000000 0.655181 0.410314
0.000000 0.654798 0.478961
0.000000 0.654417 0.547336
0.000000 0.654037 0.615474
0.000000 0.653659 0.683401
0.000000 0.653281 0.751137
0.000000 0.652904 0.818700
0.000000 0.652529 0.886105
0.000000 0.652154 0.953364
0.000000 0.651780 1.000000
0.000000 0.722135 0.000000
0.000000 0.721989 0.000000
0.000000 0.721581 0.056706
0.000000 0.721184 0.128037
0.000000 0.720791 0.198462
0.000000 0.720402 0.268269
0.000000 0.720016 0.337608
0.000000 0.719631 0.406570
0.000000 0.719249 0.475216
0.000000 0.718867 0.543592
0.000000 0.718488 0.611730
0.000000 0.718109 0.679656
0.000000 0.717731 0.747393
0.000000 0.717355 0.814956
0.000000 0.716979 0.882361
0.000000 0.716604 0.949620
0.000000 0.716230 1.000000
0.000000 0.786414 0.000000
0.000000 0.786268 0.000000
0.000000 0.785861 0.052972
0.000000 0.785463 0.124303
0.000000 0.785071 0.194727
0.000000 0.784681 0.264535
0.000000 0.784295 0.333874
0.000000 0.783911 0.402835
0.000000 0.783528 0.471482
0.000000 0.783147 0.539857
0.000000 0.782767 0.607995
0.000000 0.782388 0.675922
0.000000 0.782011 0.743658
0.000000 0.781634 0.811221
0.000000 0.781259 0.878626
0.000000 0.780884 0.945885
0.000000 0.780509 1.000000
0.000000 0.850537 0.000000
0.000000 0.850391 0.000000
0.000000 0.849984 0.049246
0.000000 0.849586 0.120577
0.000000 0.849194 0.191002
0.000000 0.848804 0.260809
0.000000 0.848418 0.330148
0.000000 0.848034 0.399110
0.000000 0.847651 0.467756
0.000000 0.847270 0.536132
0.000000 0.846890 0.604270
0.000000 0.846511 0.672196
0.000000 0.846134 0.739933
0.000000 0.845757 0.807496
0.000000 0.845382 0.874901
0.000000 0.845007 0.942160
0.000000 0.844633 1.000000
0.000000 0.914516 0.000000
0.000000 0.914370 0.000000
0.000000 0.913963 0.045529
0.000000 0.913565 0.116860
0.000000 0.913173 0.187285
0.000000 0.912784 0.257092
0.000000 0.912397 0.326431
0.000000 0.912013 0.395393
0.000000 0.911630 0.464039
0.000000 0.911249 0.532415
0.000000 0.910869 0.600552
0.000000 0.910491 0.668479
0.000000 0.910113 0.736215
0.000000 0.909736 0.803779
0.000000 0.909361 0.871184
0.000000 0.908986 0.938443
0.000000 0.908612 1.000000
0.000000 0.978362 0.000000
0.000000 0.978216 0.000000
0.000000 0.977809 0.041820
0.000000 0.977411 0.113151
0.000000 0.977019 0.183575
0.000000 0.976630 0.253383
0.000000 0.976243 0.322722
0.000000 0.975859 0.391684
0.000000 0.975476 0.460330
0.000000 0.975095 0.528705
0.000000 0.974715 0.596843
0.000000 0.974337 0.664770
0.000000 0.973959 0.732506
0.000000 0.973583 0.800069
0.000000 0.973207 0.867474
0.000000 0.972832 0.934733
0.000000 0.972458 1.000000
0.000000 1.000000 0.000000
0.000000 1.000000 0.000000
0.000000 1.000000 0.039221
0.000000 1.000000 0.110552
0.000000 1.000000 0.180976
0.000000 1.000000 0.250784
0.000000 1.000000 0.320123
0.000000 1.000000 0.389085
0.000000 1.000000 0.457731
0.000000 1.000000 0.526106
0.000000 1.000000 0.594244
0.000000 1.000000 0.662171
0.000000 1.000000 0.729907
0.000000 1.000000 0.797471
0.000000 1.000000 0.864875
0.000000 1.000000 0.932134
0.000000 1.000000 0.999257
0.107335 0.000000 0.000000
0.107189 0.000000 0.024414
0.106782 0.000000 0.097501
0.106384 0.000000 0.168832
0.105992 0.000000 0.239257
0.105603 0.000000 0.309064
0.105216 0.000000 0.378403
0.104832 0.000000 0.447365
0.104449 0.000000 0.516011
0.104068 0.000000 0.584387
0.103688 0.000000 0.652525
0.103309 0.000000 0.720451
0.102932 0.000000 0.788188
0.102555 0.000000 0.855751
0.102180 0.000000 0.923156
0.101805 0.000000 0.990415
0.101431 0.000000 1.000000
0.103594 0.062610 0.000000
0.103448 0.062464 0.020673
0.103041 0.062057 0.093760
0.102643 0.061659 0.165091
0.102251 0.061267 0.235516
0.101861 0.060878 0.305323
0.101475 0.060491 0.374662
0.101091 0.060107 0.443624
0.100708 0.059724 0.512270
0.100327 0.059343 0.580646
0.099947 0.058963 0.648784
0.099568 0.058585 0.716710
0.099191 0.058207 0.784447
0.098814 0.057830 0.852010
0.098439 0.057455 0.919415
0.098064 0.057080 0.986674
0.097690 0.056706 1.000000
0.099624 0.130952 0.000000
0.099478 0.130806 0.016703
0.099070 0.130399 0.089790
0.098673 0.130001 0.161121
0.098280 0.129608 0.231545
0.097891 0.129219 0.301353
0.097504 0.128833 0.370692
0.097120 0.128448 0.439653
0.096737 0.128066 0.508300
0.096356 0.127685 0.576675
0.095976 0.127305 0.644813
0.095598 0.126926 0.712740
0.095220 0.126549 0.780476
0.094844 0.126172 0.848039
0.094468 0.125796 0.915444
0.094093 0.125421 0.982703
0.093719 0.125047 1.000000
0.095716 0.198208 0.000000
0.095570 0.198062 0.012795
0.095163 0.197655 0.085882
0.094765 0.197257 0.157213
0.094373 0.196865 0.227638
0.093983 0.196476 0.297445
0.093597 0.196089 0.366784
0.093213 0.195705 0.435746
0.092830 0.195322 0.504392
0.092449 0.194941 0.572768
0.092069 0.194561 0.640906
0.091690 0.194183 0.708832
0.091313 0.193805 0.776568
0.090936 0.193429 0.844132
0.090560 0.193053 0.911537
0.090186 0.192678 0.978796
0.089811 0.192304 1.000000
0.091848 0.264784 0.000000
0.091702 0.264638 0.008927
0.091295 0.264230 0.082014
0.090897 0.263833 0.153345
0.090505 0.263440 0.223770
0.090115 0.263051 0.293577
0.089729 0.262665 0.362916
0.089345 0.262280 0.431878
0.088962 0.261898 0.500524
0.088581 0.261517 0.568900
0.088201 0.261137 0.637038
0.087822 0.260758 0.704964
0.087445 0.260381 0.772701
0.087068 0.260004 0.840264
0.086693 0.259628 0.907669
0.086318 0.259253 0.974928
0.085944 0.258879 1.000000
0.088009 0.330862 0.000000
0.087863 0.330716 0.005088
0.087456 0.330308 0.078175
0.087058 0.329911 0.149506
0.086666 0.329518 0.219931
0.086276 0.329129 0.289738
0.085890 0.328743 0.359077
0.085506 0.328358 0.428039
0.085123 0.327976 0.496685
0.084742 0.327594 0.565061
0.084362 0.327215 0.633199
0.083983 0.326836 0.701125
0.083606 0.326459 0.768862
0.083229 0.326082 0.836425
0.082854 0.325706 0.903830
0.082479 0.325331 0.971089
0.082104 0.324957 1.000000
0.084193 0.396548 0.000000
0.084047 0.396402 0.001272
0.083639 0.395995 0.074359
0.083242 0.395597 0.145690
0.082849 0.395205 0.216114
0.082460 0.394815 0.285922
0.082074 0.394429 0.355261
0.081689 0.394045 0.424223
0.081307 0.393662 0.492869
0.080926 0.393281 0.561244
0.080546 0.392901 0.629382
0.080167 0.392522 0.697309
0.079790 0.392145 0.765045
0.079413 0.391768 0.832609
0.079037 0.391392 0.900014
0.078662 0.391018 0.967272
0.078288 0.390643 1.000000
0.080395 0.461911 0.000000
0.080249 0.461765 0.000000
0.079842 0.461358 0.070561
0.079444 0.460960 0.141892
0.079052 0.460568 0.212317
0.078663 0.460179 0.282124
0.078276 0.459792 0.351463
0.077892 0.459408 0.420425
0.077509 0.459025 0.489072
0.077128 0.458644 0.557447
0.076748 0.458264 0.625585
0.076370 0.457886 0.693511
0.075992 0.457508 0.761248
0.075615 0.457132 0.828811
0.075240 0.456756 0.896216
0.074865 0.456381 0.963475
0.074491 0.456007 1.000000
0.076614 0.527000 0.000000
0.076468 0.526854 0.000000
0.076060 0.526447 0.066780
0.075663 0.526049 0.138111
0.075270 0.525657 0.208535
0.074881 0.525268 0.278343
0.074495 0.524881 0.347682
0.074110 0.524497 0.416644
0.073728 0.524114 0.485290
0.073346 0.523733 0.553665
0.072967 0.523353 0.621803
0.072588 0.522975 0.689730
0.072210 0.522597 0.757466
0.071834 0.522221 0.825030
0.071458 0.521845 0.892435
0.071083 0.521470 0.959693
0.070709 0.521096 1.000000
0.072846 0.591851 0.000000
0.072700 0.591705 0.000000
0.072293 0.591297 0.063012
0.071895 0.590900 0.134343
0.071502 0.590507 0.204768
0.071113 0.590118 0.274575
0.070727 0.589732 0.343914
0.070342 0.589347 0.412876
0.069960 0.588965 0.481522
0.069579 0.588584 0.549898
0.069199 0.588204 0.618036
0.068820 0.587825 0.685962
0.068443 0.587448 0.753698
0.068066 0.587071 0.821262
0.067690 0.586695 0.888667
0.067316 0.586320 0.955926
0.066941 0.585946 1.000000
0.069091 0.656490 0.000000
0.068945 0.656344 0.000000
0.068537 0.655937 0.059257
0.068140 0.655539 0.130588
0.067747 0.655147 0.201012
0.067358 0.654758 0.270820
0.066971 0.654371 0.340159
0.066587 0.653987 0.409120
0.066204 0.653604 0.477767
0.065823 0.653223 0.546142
0.065443 0.652843 0.614280
0.065065 0.652465 0.682207
0.064687 0.652087 0.749943
0.064311 0.651710 0.817506
0.063935 0.651335 0.884911
0.063560 0.650960 0.952170
0.063186 0.650586 1.000000
0.065346 0.720941 0.000000
0.065200 0.720795 0.000000
0.064793 0.720387 0.055512
0.064395 0.719990 0.126843
0.064003 0.719597 0.197268
0.063613 0.719208 0.267075
0.063227 0.718822 0.336414
0.062843 0.718437 0.405376
0.062460 0.718055 0.474022
0.062079 0.717673 0.542398
0.061699 0.717294 0.610536
0.061320 0.716915 0.678462
0.060943 0.716537 0.746199
0.060566 0.716161 0.813762
0.060190 0.715785 0.881167
0.059816 0.715410 0.948426
0.059441 0.715036 1.000000
0.061612 0.785220 0.000000
0.061465 0.785074 0.000000
0.061058 0.784667 0.051778
0.060661 0.784269 0.123109
0.060268 0.783877 0.193533
0.059879 0.783487 0.263341
0.059492 0.783101 0.332680
0.059108 0.782717 0.401641
0.058725 0.782334 0.470288
0.058344 0.781953 0.538663
0.057964 0.781573 0.606801
0.057586 0.781194 0.674728
0.057208 0.780817 0.742464
0.056832 0.780440 0.810027
0.056456 0.780065 0.877432
0.056081 0.779690 0.944691
0.055707 0.779315 1.000000
0.057886 0.849343 0.000000
0.057740 0.849197 0.000000
0.057333 0.848790 0.048052
0.056935 0.848392 0.119383
0.056543 0.848000 0.189808
0.056153 0.847610 0.259615
0.055767 0.847224 0.328954
0.055383 0.846840 0.397916
0.055000 0.846457 0.466562
0.054619 0.846076 0.534938
0.054239 0.845696 0.603076
0.053860 0.845317 0.671002
0.053483 0.844940 0.738739
0.053106 0.844563 0.806302
0.052731 0.844188 0.873707
0.052356 0.843813 0.940966
0.051981 0.843439 1.000000
0.054169 0.913322 0.000000
0.054023 0.913176 0.000000
0.053616 0.912769 0.044335
0.053218 0.912371 0.115666
0.052825 0.911979 0.186091
0.052436 0.911590 0.255898
0.052050 0.911203 0.325237
0.051665 0.910819 0.394199
0.051283 0.910436 0.462845
0.050902 0.910055 0.531221
0.050522 0.909675 0.599358
0.050143 0.909297 0.667285
0.049766 0.908919 0.735021
0.049389 0.908542 0.802585
0.049013 0.908167 0.869990
0.048639 0.907792 0.937249
0.048264 0.907418 1.000000
0.050460 0.977168 0.000000
0.050314 0.977022 0.000000
0.049906 0.976615 0.040626
0.049509 0.976217 0.111957
0.049116 0.975825 0.182381
0.048727 0.975436 0.252189
0.048340 0.975049 0.321528
0.047956 0.974665 0.390490
0.047573 0.974282 0.459136
0.047192 0.973901 0.527511
0.046813 0.973521 0.595649
0.046434 0.973143 0.663576
0.046056 0.972765 0.731312
0.045680 0.972389 0.798875
0.045304 0.972013 0.866280
0.044929 0.971638 0.933539
0.044555 0.971264 1.000000
0.047861 1.000000 0.000000
0.047715 1.000000 0.000000
0.047307 1.000000 0.038027
0.046910 1.000000 0.109358
0.046517 1.000000 0.179782
0.046128 1.000000 0.249590
0.045741 1.000000 0.318929
0.045357 1.000000 0.387891
0.044974 1.000000 0.456537
0.044593 1.000000 0.524912
0.044214 1.000000 0.593050
0.043835 1.000000 0.660977
0.043457 1.000000 0.728713
0.043081 1.000000 0.796277
0.042705 1.000000 0.863681
0.042330 1.000000 0.930940
0.041956 1.000000 0.998063
0.177752 0.000000 0.000000
0.177606 0.000000 0.023246
0.177198 0.000000 0.096333
0.176801 0.000000 0.167664
0.176408 0.000000 0.238088
0.176019 0.000000 0.307896
0.175633 0.000000 0.377235
0.175248 0.000000 0.446197
0.174866 0.000000 0.514843
0.174484 0.000000 0.583218
0.174105 0.000000 0.651356
0.173726 0.000000 0.719283
0.173349 0.000000 0.787019
0.172972 0.000000 0.854583
0.172596 0.000000 0.921988
0.172221 0.000000 0.989246
0.171847 0.000000 1.000000
0.174011 0.061442 0.000000
0.173865 0.061296 0.019505
0.173457 0.060888 0.092592
0.173060 0.060491 0.163923
0.172667 0.060098 0.234347
0.172278 0.059709 0.304155
0.171892 0.059323 0.373494
0.171507 0.058938 0.442456
0.171125 0.058556 0.511102
0.170743 0.058175 0.579477
0.170364 0.057795 0.647615
0.169985 0.057416 0.715542
0.169607 0.057039 0.783278
0.169231 0.056662 0.850842
0.168855 0.056286 0.918247
0.168480 0.055911 0.985505
0.168106 0.055537 1.000000
0.170040 0.129784 0.000000
0.169894 0.129638 0.015534
0.169487 0.129230 0.088621
0.169089 0.128833 0.159952
0.168697 0.128440 0.230377
0.168308 0.128051 0.300184
0.167921 0.127664 0.369523
0.167537 0.127280 0.438485
0.167154 0.126897 0.507131
0.166773 0.126516 0.575507
0.166393 0.126136 0.643645
0.166014 0.125758 0.711571
0.165637 0.125380 0.779308
0.165260 0.125004 0.846871
0.164885 0.124628 0.914276
0.164510 0.124253 0.981535
0.164136 0.123879 1.000000
0.166133 0.197040 0.000000
0.165987 0.196894 0.011627
0.165579 0.196487 0.084714
0.165182 0.196089 0.156045
0.164789 0.195696 0.226469
0.164400 0.195307 0.296277
0.164014 0.194921 0.365616
0.163629 0.194536 0.434578
0.163247 0.194154 0.503224
0.162865 0.193773 0.571599
0.162486 0.193393 0.639737
0.162107 0.193014 0.707664
0.161729 0.192637 0.775400
0.161353 0.192260 0.842964
0.160977 0.191884 0.910368
0.160602 0.191510 0.977627
0.160228 0.191135 1.000000
0.162265 0.263615 0.000000
0.162119 0.263469 0.007759
0.161711 0.263062 0.080846
0.161314 0.262664 0.152177
0.160921 0.262272 0.222601
0.160532 0.261883 0.292409
0.160146 0.261496 0.361748
0.159761 0.261112 0.430710
0.159379 0.260729 0.499356
0.158997 0.260348 0.567731
0.158618 0.259968 0.635869
0.158239 0.259590 0.703796
0.157861 0.259212 0.771532
0.157485 0.258836 0.839096
0.157109 0.258460 0.906501
0.156734 0.258085 0.973759
0.156360 0.257711 1.000000
0.158426 0.329693 0.000000
0.158280 0.329547 0.003920
0.157872 0.329140 0.077007
0.157475 0.328742 0.148338
0.157082 0.328350 0.218762
0.156693 0.327961 0.288570
0.156307 0.327574 0.357909
0.155922 0.327190 0.426871
0.155540 0.326807 0.495517
0.155158 0.326426 0.563892
0.154779 0.326046 0.632030
0.154400 0.325668 0.699957
0.154022 0.325290 0.767693
0.153646 0.324913 0.835257
0.153270 0.324538 0.902662
0.152895 0.324163 0.969920
0.152521 0.323789 1.000000
0.154609 0.395380 0.000000
0.154463 0.395234 0.000104
0.154056 0.394826 0.073191
0.153658 0.394429 0.144521
0.153266 0.394036 0.214946
0.152877 0.393647 0.284753
0.152490 0.393260 0.354092
0.152106 0.392876 0.423054
0.151723 0.392493 0.491701
0.151342 0.392112 0.560076
0.150962 0.391733 0.628214
0.150584 0.391354 0.696140
0.150206 0.390976 0.763877
0.149830 0.390600 0.831440
0.149454 0.390224 0.898845
0.149079 0.389849 0.966104
0.148705 0.389475 1.000000
0.150812 0.460743 0.000000
0.150666 0.460597 0.000000
0.150258 0.460190 0.069393
0.149861 0.459792 0.140724
0.149468 0.459400 0.211149
0.149079 0.459010 0.280956
0.148693 0.458624 0.350295
0.148308 0.458240 0.419257
0.147926 0.457857 0.487903
0.147545 0.457476 0.556279
0.147165 0.457096 0.624416
0.146786 0.456717 0.692343
0.146409 0.456340 0.760079
0.146032 0.455963 0.827643
0.145656 0.455588 0.895048
0.145281 0.455213 0.962306
0.144907 0.454838 1.000000
0.147030 0.525832 0.000000
0.146884 0.525686 0.000000
0.146477 0.525279 0.065611
0.146079 0.524881 0.136942
0.145687 0.524489 0.207367
0.145298 0.524099 0.277174
0.144911 0.523713 0.346513
0.144527 0.523329 0.415475
0.144144 0.522946 0.484122
0.143763 0.522565 0.552497
0.143383 0.522185 0.620635
0.143005 0.521806 0.688561
0.142627 0.521429 0.756298
0.142250 0.521052 0.823861
0.141875 0.520676 0.891266
0.141500 0.520302 0.958525
0.141126 0.519927 1.000000
0.143263 0.590682 0.000000
0.143117 0.590536 0.000000
0.142709 0.590129 0.061844
0.142312 0.589731 0.133175
0.141919 0.589339 0.203599
0.141530 0.588950 0.273407
0.141143 0.588563 0.342746
0.140759 0.588179 0.411708
0.140376 0.587796 0.480354
0.139995 0.587415 0.548729
0.139616 0.587035 0.616867
0.139237 0.586657 0.684794
0.138859 0.586279 0.752530
0.138483 0.585903 0.820093
0.138107 0.585527 0.887498
0.137732 0.585152 0.954757
0.137358 0.584778 1.000000
0.139507 0.655322 0.000000
0.139361 0.655176 0.000000
0.138954 0.654768 0.058088
0.138556 0.654371 0.129419
0.138164 0.653978 0.199844
0.137775 0.653589 0.269651
0.137388 0.653203 0.338990
0.137004 0.652818 0.407952
0.136621 0.652436 0.476598
0.136240 0.652055 0.544974
0.135860 0.651675 0.613112
0.135481 0.651296 0.681038
0.135104 0.650919 0.748775
0.134727 0.650542 0.816338
0.134352 0.650166 0.883743
0.133977 0.649791 0.951002
0.133603 0.649417 1.000000
0.135763 0.719772 0.000000
0.135617 0.719626 0.000000
0.135209 0.719219 0.054344
0.134812 0.718821 0.125675
0.134419 0.718429 0.196099
0.134030 0.718040 0.265907
0.133644 0.717653 0.335246
0.133259 0.717269 0.404208
0.132877 0.716886 0.472854
0.132495 0.716505 0.541229
0.132116 0.716125 0.609367
0.131737 0.715747 0.677294
0.131359 0.715369 0.745030
0.130983 0.714992 0.812594
0.130607 0.714617 0.879998
0.130232 0.714242 0.947257
0.129858 0.713868 1.000000
0.132028 0.784052 0.000000
0.131882 0.783906 0.000000
0.131475 0.783498 0.050609
0.131077 0.783101 0.121940
0.130685 0.782708 0.192365
0.130295 0.782319 0.262172
0.129909 0.781933 0.331511
0.129525 0.781548 0.400473
0.129142 0.781166 0.469119
0.128761 0.780784 0.537495
0.128381 0.780405 0.605633
0.128002 0.780026 0.673559
0.127625 0.779648 0.741296
0.127248 0.779272 0.808859
0.126873 0.778896 0.876264
0.126498 0.778521 0.943523
0.126124 0.778147 1.000000
0.128303 0.848175 0.000000
0.128157 0.848029 0.000000
0.127749 0.847621 0.046884
0.127352 0.847224 0.118215
0.126959 0.846831 0.188639
0.126570 0.846442 0.258447
0.126184 0.846056 0.327786
0.125799 0.845671 0.396748
0.125417 0.845289 0.465394
0.125035 0.844907 0.533769
0.124656 0.844528 0.601907
0.124277 0.844149 0.669834
0.123899 0.843771 0.737570
0.123523 0.843395 0.805134
0.123147 0.843019 0.872539
0.122772 0.842644 0.939797
0.122398 0.842270 1.000000
0.124586 0.912154 0.000000
0.124440 0.912008 0.000000
0.124032 0.911601 0.043167
0.123635 0.911203 0.114498
0.123242 0.910810 0.184922
0.122853 0.910421 0.254730
0.122466 0.910035 0.324069
0.122082 0.909650 0.393030
0.121699 0.909268 0.461677
0.121318 0.908887 0.530052
0.120938 0.908507 0.598190
0.120560 0.908128 0.666117
0.120182 0.907751 0.733853
0.119806 0.907374 0.801416
0.119430 0.906998 0.868821
0.119055 0.906623 0.936080
0.118681 0.906249 1.000000
0.120876 0.976000 0.000000
0.120730 0.975854 0.000000
0.120323 0.975447 0.039457
0.119925 0.975049 0.110788
0.119533 0.974656 0.181213
0.119144 0.974267 0.251020
0.118757 0.973881 0.320359
0.118373 0.973496 0.389321
0.117990 0.973114 0.457968
0.117609 0.972733 0.526343
0.117229 0.972353 0.594481
0.116851 0.971974 0.662407
0.116473 0.971597 0.730144
0.116096 0.971220 0.797707
0.115721 0.970844 0.865112
0.115346 0.970469 0.932371
0.114972 0.970095 0.999494
0.118277 1.000000 0.000000
0.118131 1.000000 0.000000
0.117724 1.000000 0.036858
0.117326 1.000000 0.108189
0.116934 1.000000 0.178614
0.116545 1.000000 0.248421
0.116158 1.000000 0.317760
0.115774 1.000000 0.386722
0.115391 1.000000 0.455369
0.115010 1.000000 0.523744
0.114630 1.000000 0.591882
0.114252 1.000000 0.659808
0.113874 1.000000 0.727545
0.113497 1.000000 0.795108
0.113122 1.000000 0.862513
0.112747 1.000000 0.929772
0.112373 1.000000 0.996895
0.247323 0.000000 0.000000
0.247177 0.000000 0.022092
0.246770 0.000000 0.095179
0.246372 0.000000 0.166509
0.245979 0.000000 0.236934
0.245590 0.000000 0.306741
0.245204 0.000000 0.376080
0.244819 0.000000 0.445042
0.244437 0.000000 0.513689
0.244056 0.000000 0.582064
0.243676 0.000000 0.650202
0.243297 0.000000 0.718128
0.242920 0.000000 0.785865
0.242543 0.000000 0.853428
0.242167 0.000000 0.920833
0.241793 0.000000 0.988092
0.241418 0.000000 1.000000
0.243582 0.060287 0.000000
