skills/creativeops-producer/assets/grade/luts/ad_warm_v13.cube
TITLE "ad_warm_v13"
LUT_3D_SIZE 5
DOMAIN_MIN 0.0 0.0 0.0
DOMAIN_MAX 1.0 1.0 1.0
0.035377 0.000000 0.000000
0.034033 0.000000 0.240451
0.032491 0.000000 0.517205
0.030974 0.000000 0.789382
0.029472 0.000000 1.000000
0.019890 0.265978 0.000000
0.018546 0.264634 0.224964
0.017004 0.263092 0.501718
0.015486 0.261575 0.773895
0.013985 0.260073 1.000000
0.004655 0.528194 0.000000
0.003312 0.526851 0.209729
0.001769 0.525308 0.486484
0.000252 0.523791 0.758660
0.000000 0.522290 1.000000
0.000000 0.786414 0.000000
0.000000 0.785071 0.194727
0.000000 0.783528 0.471482
0.000000 0.782011 0.743658
0.000000 0.780509 1.000000
0.000000 1.000000 0.000000
0.000000 1.000000 0.180976
0.000000 1.000000 0.457731
0.000000 1.000000 0.729907
0.000000 1.000000 0.999257
0.316308 0.000000 0.000000
0.314964 0.000000 0.235789
0.313421 0.000000 0.512544
0.311904 0.000000 0.784720
0.310403 0.000000 1.000000
0.300821 0.261316 0.000000
0.299477 0.259973 0.220302
0.297934 0.258430 0.497057
0.296417 0.256913 0.769233
0.294916 0.255412 1.000000
0.285586 0.523533 0.000000
0.284243 0.522189 0.205068
0.282700 0.520647 0.481823
0.281183 0.519130 0.753999
0.279682 0.517628 1.000000
0.270584 0.781753 0.000000
0.269240 0.780409 0.190066
0.267698 0.778866 0.466820
0.266181 0.777349 0.738997
0.264679 0.775848 1.000000
0.256833 1.000000 0.000000
0.255490 1.000000 0.176315
0.253947 1.000000 0.453070
0.252430 1.000000 0.725246
0.250928 1.000000 0.994596
0.588482 0.000000 0.000000
0.587139 0.000000 0.231273
0.585596 0.000000 0.508028
0.584079 0.000000 0.780204
0.582578 0.000000 1.000000
0.572995 0.256800 0.000000
0.571652 0.255457 0.215786
0.570109 0.253914 0.492541
0.568592 0.252397 0.764717
0.567091 0.250896 1.000000
0.557761 0.519017 0.000000
0.556417 0.517673 0.200552
0.554875 0.516131 0.477306
0.553358 0.514614 0.749483
0.551856 0.513112 1.000000
0.542759 0.777236 0.000000
0.541415 0.775893 0.185550
0.539873 0.774350 0.462304
0.538355 0.772833 0.734480
0.536854 0.771332 1.000000
0.529008 1.000000 0.000000
0.527664 1.000000 0.171799
0.526122 1.000000 0.448553
0.524605 1.000000 0.720729
0.523103 1.000000 0.990080
0.856808 0.000000 0.000000
0.855465 0.000000 0.226821
0.853922 0.000000 0.503576
0.852405 0.000000 0.775752
0.850903 0.000000 1.000000
0.841321 0.252348 0.000000
0.839978 0.251004 0.211334
0.838435 0.249462 0.488089
0.836918 0.247945 0.760265
0.835416 0.246443 1.000000
0.826087 0.514565 0.000000
0.824743 0.513221 0.196099
0.823200 0.511678 0.472854
0.821683 0.510161 0.745030
0.820182 0.508660 1.000000
0.811084 0.772784 0.000000
0.809741 0.771441 0.181097
0.808198 0.769898 0.457852
0.806681 0.768381 0.730028
0.805180 0.766880 0.999378
0.797334 1.000000 0.000000
0.795990 1.000000 0.167346
0.794447 1.000000 0.444101
0.792930 1.000000 0.716277
0.791429 1.000000 0.985627
1.000000 0.000000 0.000000
1.000000 0.000000 0.223358
1.000000 0.000000 0.500113
1.000000 0.000000 0.772289
1.000000 0.000000 1.000000
1.000000 0.248885 0.000000
1.000000 0.247542 0.207871
1.000000 0.245999 0.484626
1.000000 0.244482 0.756802
1.000000 0.242981 1.000000
1.000000 0.511102 0.000000
1.000000 0.509759 0.192637
1.000000 0.508216 0.469392
1.000000 0.506699 0.741568
1.000000 0.505198 1.000000
1.000000 0.769322 0.000000
1.000000 0.767978 0.177635
1.000000 0.766436 0.454389
1.000000 0.764918 0.726566
1.000000 0.763417 0.995916
1.000000 1.000000 0.000000
1.000000 1.000000 0.163884
1.000000 1.000000 0.440639
1.000000 1.000000 0.712815
1.000000 1.000000 0.982165
