skills/creativeops-producer/assets/grade/luts/ad_warm_v14.cube
TITLE "ad_warm_v14"
LUT_3D_SIZE 9
DOMAIN_MIN 0.0 0.0 0.0
DOMAIN_MAX 1.0 1.0 1.0
0.037716 0.000000 0.000000
0.037142 0.000000 0.096660
0.036299 0.000000 0.239628
0.035472 0.000000 0.379782
0.034654 0.000000 0.518290
0.033844 0.000000 0.655629
0.033039 0.000000 0.792062
0.032239 0.000000 0.927756
0.031442 0.000000 1.000000
0.029505 0.132457 0.000000
0.028931 0.131883 0.088449
0.028087 0.131039 0.231417
0.027260 0.130213 0.371571
0.026443 0.129395 0.510079
0.025633 0.128585 0.647417
0.024828 0.127780 0.783850
0.024027 0.126980 0.919544
0.023230 0.126183 1.000000
0.021211 0.266906 0.000000
0.020637 0.266331 0.080155
0.019793 0.265488 0.223123
0.018967 0.264661 0.363277
0.018149 0.263844 0.501785
0.017339 0.263034 0.639124
0.016534 0.262229 0.775557
0.015734 0.261428 0.911250
0.014937 0.260631 1.000000
0.013053 0.399160 0.000000
0.012479 0.398586 0.071997
0.011635 0.397742 0.214965
0.010808 0.396915 0.355119
0.009991 0.396098 0.493627
0.009181 0.395288 0.630966
0.008376 0.394483 0.767399
0.007575 0.393682 0.903092
0.006778 0.392885 1.000000
0.004981 0.530024 0.000000
0.004406 0.529450 0.063924
0.003563 0.528606 0.206892
0.002736 0.527780 0.347047
0.001919 0.526962 0.485554
0.001109 0.526152 0.622893
0.000304 0.525347 0.759326
0.000000 0.524547 0.895020
0.000000 0.523750 1.000000
0.000000 0.659869 0.000000
0.000000 0.659295 0.055915
0.000000 0.658452 0.198883
0.000000 0.657625 0.339037
0.000000 0.656807 0.477545
0.000000 0.655997 0.614884
0.000000 0.655192 0.751317
0.000000 0.654392 0.887010
0.000000 0.653595 1.000000
0.000000 0.788910 0.000000
0.000000 0.788336 0.047955
0.000000 0.787493 0.190923
0.000000 0.786666 0.331077
0.000000 0.785848 0.469585
0.000000 0.785038 0.606924
0.000000 0.784233 0.743357
0.000000 0.783433 0.879050
0.000000 0.782636 1.000000
0.000000 0.917287 0.000000
0.000000 0.916713 0.040036
0.000000 0.915870 0.183004
0.000000 0.915043 0.323158
0.000000 0.914226 0.461666
0.000000 0.913415 0.599005
0.000000 0.912610 0.735438
0.000000 0.911810 0.871131
0.000000 0.911013 1.000000
0.000000 1.000000 0.000000
0.000000 1.000000 0.033421
0.000000 1.000000 0.176389
0.000000 1.000000 0.316544
0.000000 1.000000 0.455051
0.000000 1.000000 0.592390
0.000000 1.000000 0.728823
0.000000 1.000000 0.864517
0.000000 1.000000 0.999587
0.181159 0.000000 0.000000
0.180585 0.000000 0.094139
0.179741 0.000000 0.237107
0.178914 0.000000 0.377261
0.178097 0.000000 0.515769
0.177287 0.000000 0.653108
0.176482 0.000000 0.789541
0.175681 0.000000 0.925235
0.174884 0.000000 1.000000
0.172947 0.129936 0.000000
0.172373 0.129362 0.085928
0.171530 0.128518 0.228896
0.170703 0.127692 0.369050
0.169886 0.126874 0.507558
0.169075 0.126064 0.644896
0.168270 0.125259 0.781329
0.167470 0.124459 0.917023
0.166673 0.123662 1.000000
0.164654 0.264385 0.000000
0.164080 0.263811 0.077634
0.163236 0.262967 0.220602
0.162409 0.262140 0.360756
0.161592 0.261323 0.499264
0.160782 0.260513 0.636603
0.159977 0.259708 0.773036
0.159176 0.258907 0.908729
0.158379 0.258110 1.000000
0.156496 0.396639 0.000000
0.155922 0.396065 0.069476
0.155078 0.395221 0.212444
0.154251 0.394394 0.352598
0.153434 0.393577 0.491106
0.152624 0.392767 0.628445
0.151819 0.391962 0.764878
0.151018 0.391161 0.900571
0.150221 0.390364 1.000000
0.148423 0.527503 0.000000
0.147849 0.526929 0.061403
0.147006 0.526085 0.204371
0.146179 0.525259 0.344526
0.145361 0.524441 0.483033
0.144551 0.523631 0.620372
0.143746 0.522826 0.756805
0.142946 0.522026 0.892499
0.142149 0.521229 1.000000
0.140414 0.657348 0.000000
0.139840 0.656774 0.053394
0.138996 0.655931 0.196362
0.138169 0.655104 0.336516
0.137352 0.654287 0.475024
0.136542 0.653476 0.612363
0.135737 0.652671 0.748796
0.134936 0.651871 0.884489
0.134139 0.651074 1.000000
0.132454 0.786389 0.000000
0.131880 0.785815 0.045434
0.131036 0.784972 0.188402
0.130209 0.784145 0.328556
0.129392 0.783327 0.467064
0.128582 0.782517 0.604403
0.127777 0.781712 0.740836
0.126976 0.780912 0.876529
0.126179 0.780115 1.000000
0.124535 0.914767 0.000000
0.123961 0.914192 0.037515
0.123117 0.913349 0.180483
0.122290 0.912522 0.320637
0.121473 0.911705 0.459145
0.120663 0.910894 0.596484
0.119858 0.910089 0.732917
0.119057 0.909289 0.868610
0.118260 0.908492 1.000000
0.117920 1.000000 0.000000
0.117346 1.000000 0.030900
0.116502 1.000000 0.173868
0.115676 1.000000 0.314023
0.114858 1.000000 0.452530
0.114048 1.000000 0.589869
0.113243 1.000000 0.726302
0.112443 1.000000 0.861996
0.111646 1.000000 0.997066
0.320605 0.000000 0.000000
0.320031 0.000000 0.091688
0.319188 0.000000 0.234656
0.318361 0.000000 0.374811
0.317543 0.000000 0.513318
0.316733 0.000000 0.650657
0.315928 0.000000 0.787090
0.315128 0.000000 0.922784
0.314331 0.000000 1.000000
0.312394 0.127485 0.000000
0.311819 0.126911 0.083477
0.310976 0.126068 0.226445
0.310149 0.125241 0.366599
0.309332 0.124424 0.505107
0.308522 0.123613 0.642446
0.307717 0.122808 0.778879
0.306916 0.122008 0.914572
0.306119 0.121211 1.000000
0.304100 0.261934 0.000000
0.303526 0.261360 0.075183
0.302682 0.260516 0.218151
0.301856 0.259689 0.358306
0.301038 0.258872 0.496813
0.300228 0.258062 0.634152
0.299423 0.257257 0.770585
0.298623 0.256456 0.906279
0.297826 0.255659 1.000000
0.295942 0.394188 0.000000
0.295368 0.393614 0.067025
0.294524 0.392771 0.209993
0.293697 0.391944 0.350147
0.292880 0.391126 0.488655
0.292070 0.390316 0.625994
0.291265 0.389511 0.762427
0.290464 0.388711 0.898121
0.289667 0.387914 1.000000
0.287870 0.525052 0.000000
0.287295 0.524478 0.058953
0.286452 0.523635 0.201921
0.285625 0.522808 0.342075
0.284808 0.521991 0.480583
0.283997 0.521180 0.617922
0.283193 0.520375 0.754354
0.282392 0.519575 0.890048
0.281595 0.518778 1.000000
0.279860 0.654898 0.000000
0.279286 0.654323 0.050943
0.278442 0.653480 0.193911
0.277615 0.652653 0.334066
0.276798 0.651836 0.472573
0.275988 0.651026 0.609912
0.275183 0.650221 0.746345
0.274382 0.649420 0.882039
0.273586 0.648623 1.000000
0.271900 0.783939 0.000000
0.271326 0.783364 0.042983
0.270482 0.782521 0.185951
0.269656 0.781694 0.326106
0.268838 0.780877 0.464613
0.268028 0.780066 0.601952
0.267223 0.779262 0.738385
0.266422 0.778461 0.874079
0.265626 0.777664 1.000000
0.263981 0.912316 0.000000
0.263407 0.911742 0.035064
0.262563 0.910898 0.178032
0.261737 0.910071 0.318187
0.260919 0.909254 0.456694
0.260109 0.908444 0.594033
0.259304 0.907639 0.730466
0.258503 0.906838 0.866160
0.257707 0.906041 1.000000
0.257366 1.000000 0.000000
0.256792 1.000000 0.028450
0.255949 1.000000 0.171418
0.255122 1.000000 0.311572
0.254305 1.000000 0.450080
0.253494 1.000000 0.587418
0.252689 1.000000 0.723851
0.251889 1.000000 0.859545
0.251092 1.000000 0.994615
0.458102 0.000000 0.000000
0.457528 0.000000 0.089272
0.456684 0.000000 0.232240
0.455857 0.000000 0.372394
0.455040 0.000000 0.510902
0.454230 0.000000 0.648241
0.453425 0.000000 0.784674
0.452624 0.000000 0.920367
0.451827 0.000000 1.000000
0.449890 0.125069 0.000000
0.449316 0.124495 0.081060
0.448473 0.123651 0.224028
0.447646 0.122824 0.364183
0.446828 0.122007 0.502690
0.446018 0.121197 0.640029
0.445213 0.120392 0.776462
0.444413 0.119591 0.912156
0.443616 0.118794 1.000000
0.441597 0.259518 0.000000
0.441023 0.258943 0.072767
0.440179 0.258100 0.215735
0.439352 0.257273 0.355889
0.438535 0.256456 0.494397
0.437725 0.255645 0.631736
0.436920 0.254840 0.768169
0.436119 0.254040 0.903862
0.435322 0.253243 1.000000
0.433439 0.391772 0.000000
0.432864 0.391198 0.064609
0.432021 0.390354 0.207577
0.431194 0.389527 0.347731
0.430377 0.388710 0.486239
0.429566 0.387900 0.623578
0.428761 0.387095 0.760010
0.427961 0.386294 0.895704
0.427164 0.385497 1.000000
0.425366 0.522636 0.000000
0.424792 0.522062 0.056536
0.423948 0.521218 0.199504
0.423122 0.520391 0.339659
0.422304 0.519574 0.478166
0.421494 0.518764 0.615505
0.420689 0.517959 0.751938
0.419888 0.517158 0.887632
0.419092 0.516361 1.000000
0.417357 0.652481 0.000000
0.416782 0.651907 0.048527
0.415939 0.651063 0.191495
0.415112 0.650237 0.331649
0.414295 0.649419 0.470157
0.413484 0.648609 0.607496
0.412680 0.647804 0.743928
0.411879 0.647003 0.879622
0.411082 0.646207 1.000000
0.409397 0.781522 0.000000
0.408822 0.780948 0.040567
0.407979 0.780104 0.183535
0.407152 0.779277 0.323689
0.406335 0.778460 0.462197
0.405525 0.777650 0.599536
0.404720 0.776845 0.735969
0.403919 0.776044 0.871662
0.403122 0.775248 1.000000
0.401478 0.909899 0.000000
0.400903 0.909325 0.032648
0.400060 0.908482 0.175616
0.399233 0.907655 0.315770
0.398416 0.906838 0.454278
0.397606 0.906027 0.591617
0.396801 0.905222 0.728050
0.396000 0.904422 0.863743
0.395203 0.903625 0.998813
0.394863 1.000000 0.000000
0.394289 1.000000 0.026033
0.393445 1.000000 0.169001
0.392618 1.000000 0.309155
0.391801 1.000000 0.447663
0.390991 1.000000 0.585002
0.390186 1.000000 0.721435
0.389385 1.000000 0.857129
0.388588 1.000000 0.992198
0.594290 0.000000 0.000000
0.593716 0.000000 0.086878
0.592873 0.000000 0.229846
0.592046 0.000000 0.370001
0.591229 0.000000 0.508508
0.590418 0.000000 0.645847
0.589613 0.000000 0.782280
0.588813 0.000000 0.917974
0.588016 0.000000 1.000000
0.586079 0.122676 0.000000
0.585505 0.122101 0.078667
0.584661 0.121258 0.221635
0.583834 0.120431 0.361789
0.583017 0.119614 0.500297
0.582207 0.118803 0.637636
0.581402 0.117998 0.774069
0.580601 0.117198 0.909762
0.579804 0.116401 1.000000
0.577785 0.257124 0.000000
0.577211 0.256550 0.070373
0.576368 0.255706 0.213341
0.575541 0.254879 0.353496
0.574724 0.254062 0.492003
0.573913 0.253252 0.629342
0.573108 0.252447 0.765775
0.572308 0.251646 0.901469
0.571511 0.250849 1.000000
0.569627 0.389378 0.000000
0.569053 0.388804 0.062215
0.568209 0.387961 0.205183
0.567383 0.387134 0.345338
0.566565 0.386316 0.483845
0.565755 0.385506 0.621184
0.564950 0.384701 0.757617
0.564150 0.383901 0.893311
0.563353 0.383104 1.000000
0.561555 0.520243 0.000000
0.560981 0.519668 0.054143
0.560137 0.518825 0.197111
0.559310 0.517998 0.337265
0.558493 0.517181 0.475773
0.557683 0.516370 0.613112
0.556878 0.515565 0.749545
0.556077 0.514765 0.885238
0.555280 0.513968 1.000000
0.553545 0.650088 0.000000
0.552971 0.649513 0.046133
0.552128 0.648670 0.189101
0.551301 0.647843 0.329256
0.550483 0.647026 0.467763
0.549673 0.646216 0.605102
0.548868 0.645411 0.741535
0.548068 0.644610 0.877229
0.547271 0.643813 1.000000
0.545585 0.779129 0.000000
0.545011 0.778554 0.038173
0.544168 0.777711 0.181141
0.543341 0.776884 0.321296
0.542523 0.776067 0.459803
0.541713 0.775257 0.597142
0.540908 0.774452 0.733575
0.540108 0.773651 0.869269
0.539311 0.772854 1.000000
0.537666 0.907506 0.000000
0.537092 0.906932 0.030254
0.536249 0.906088 0.173222
0.535422 0.905261 0.313377
0.534604 0.904444 0.451884
0.533794 0.903634 0.589223
0.532989 0.902829 0.725656
0.532189 0.902028 0.861350
0.531392 0.901231 0.996420
0.531052 1.000000 0.000000
0.530477 1.000000 0.023640
0.529634 1.000000 0.166608
0.528807 1.000000 0.306762
0.527990 1.000000 0.445270
0.527180 1.000000 0.582609
0.526375 1.000000 0.719041
0.525574 1.000000 0.854735
0.524777 1.000000 0.989805
0.729494 0.000000 0.000000
0.728920 0.000000 0.084502
0.728077 0.000000 0.227470
0.727250 0.000000 0.367625
0.726433 0.000000 0.506132
0.725622 0.000000 0.643471
0.724817 0.000000 0.779904
0.724017 0.000000 0.915598
0.723220 0.000000 1.000000
0.721283 0.120299 0.000000
0.720709 0.119725 0.076291
0.719865 0.118882 0.219259
0.719038 0.118055 0.359413
0.718221 0.117238 0.497921
0.717411 0.116427 0.635260
0.716606 0.115622 0.771692
0.715805 0.114822 0.907386
0.715008 0.114025 1.000000
0.712989 0.254748 0.000000
0.712415 0.254174 0.067997
0.711572 0.253330 0.210965
0.710745 0.252503 0.351119
0.709927 0.251686 0.489627
0.709117 0.250876 0.626966
0.708312 0.250071 0.763399
0.707512 0.249270 0.899093
0.706715 0.248473 1.000000
0.704831 0.387002 0.000000
0.704257 0.386428 0.059839
0.703413 0.385584 0.202807
0.702586 0.384758 0.342961
0.701769 0.383940 0.481469
0.700959 0.383130 0.618808
0.700154 0.382325 0.755241
0.699353 0.381524 0.890934
0.698557 0.380728 1.000000
0.696759 0.517866 0.000000
0.696184 0.517292 0.051767
0.695341 0.516449 0.194735
0.694514 0.515622 0.334889
0.693697 0.514805 0.473397
0.692887 0.513994 0.610735
0.692082 0.513189 0.747168
0.691281 0.512389 0.882862
0.690484 0.511592 1.000000
0.688749 0.647712 0.000000
0.688175 0.647137 0.043757
0.687331 0.646294 0.186725
0.686505 0.645467 0.326879
0.685687 0.644650 0.465387
0.684877 0.643839 0.602726
0.684072 0.643034 0.739159
0.683272 0.642234 0.874853
0.682475 0.641437 1.000000
0.680789 0.776752 0.000000
0.680215 0.776178 0.035797
0.679372 0.775335 0.178765
0.678545 0.774508 0.318919
0.677727 0.773691 0.457427
0.676917 0.772880 0.594766
0.676112 0.772075 0.731199
0.675312 0.771275 0.866893
0.674515 0.770478 1.000000
0.672870 0.905130 0.000000
0.672296 0.904555 0.027878
0.671453 0.903712 0.170846
0.670626 0.902885 0.311000
0.669808 0.902068 0.449508
0.668998 0.901258 0.586847
0.668193 0.900453 0.723280
0.667393 0.899652 0.858974
0.666596 0.898855 0.994043
0.666256 1.000000 0.000000
0.665681 1.000000 0.021264
0.664838 1.000000 0.164232
0.664011 1.000000 0.304386
0.663194 1.000000 0.442894
0.662383 1.000000 0.580232
0.661579 1.000000 0.716665
0.660778 1.000000 0.852359
0.659981 1.000000 0.987429
0.863909 0.000000 0.000000
0.863335 0.000000 0.082140
0.862491 0.000000 0.225108
0.861664 0.000000 0.365262
0.860847 0.000000 0.503770
0.860037 0.000000 0.641109
0.859232 0.000000 0.777542
0.858431 0.000000 0.913235
0.857635 0.000000 1.000000
0.855698 0.117937 0.000000
0.855123 0.117363 0.073928
0.854280 0.116519 0.216896
0.853453 0.115692 0.357051
0.852636 0.114875 0.495558
0.851825 0.114065 0.632897
0.851020 0.113260 0.769330
0.850220 0.112459 0.905024
0.849423 0.111663 1.000000
0.847404 0.252386 0.000000
0.846830 0.251811 0.065635
0.845986 0.250968 0.208603
0.845159 0.250141 0.348757
0.844342 0.249324 0.487265
0.843532 0.248513 0.624604
0.842727 0.247709 0.761037
0.841926 0.246908 0.896730
0.841129 0.246111 1.000000
0.839246 0.384640 0.000000
0.838672 0.384066 0.057477
0.837828 0.383222 0.200445
0.837001 0.382395 0.340599
0.836184 0.381578 0.479107
0.835374 0.380768 0.616446
0.834569 0.379963 0.752878
0.833768 0.379162 0.888572
0.832971 0.378365 1.000000
0.831173 0.515504 0.000000
0.830599 0.514930 0.049404
0.829756 0.514086 0.192372
0.828929 0.513259 0.332527
0.828112 0.512442 0.471034
0.827301 0.511632 0.608373
0.826496 0.510827 0.744806
0.825696 0.510026 0.880500
0.824899 0.509230 1.000000
0.823164 0.645349 0.000000
0.822590 0.644775 0.041395
0.821746 0.643931 0.184363
0.820919 0.643105 0.324517
0.820102 0.642287 0.463025
0.819292 0.641477 0.600364
0.818487 0.640672 0.736797
0.817686 0.639872 0.872490
0.816889 0.639075 1.000000
0.815204 0.774390 0.000000
0.814630 0.773816 0.033435
0.813786 0.772972 0.176403
0.812959 0.772146 0.316557
0.812142 0.771328 0.455065
0.811332 0.770518 0.592404
0.810527 0.769713 0.728837
0.809726 0.768913 0.864530
0.808929 0.768116 0.999600
0.807285 0.902767 0.000000
0.806711 0.902193 0.025516
0.805867 0.901350 0.168484
0.805040 0.900523 0.308638
0.804223 0.899706 0.447146
0.803413 0.898895 0.584485
0.802608 0.898090 0.720918
0.801807 0.897290 0.856611
0.801010 0.896493 0.991681
0.800670 1.000000 0.000000
0.800096 1.000000 0.018901
0.799253 1.000000 0.161869
0.798426 1.000000 0.302024
0.797609 1.000000 0.440531
0.796798 1.000000 0.577870
0.795993 1.000000 0.714303
0.795193 1.000000 0.849997
0.794396 1.000000 0.985066
0.997666 0.000000 0.000000
0.997092 0.000000 0.079789
0.996248 0.000000 0.222757
0.995421 0.000000 0.362912
0.994604 0.000000 0.501419
0.993794 0.000000 0.638758
0.992989 0.000000 0.775191
0.992188 0.000000 0.910885
0.991391 0.000000 1.000000
0.989454 0.115586 0.000000
0.988880 0.115012 0.071578
0.988036 0.114169 0.214546
0.987210 0.113342 0.354700
0.986392 0.112525 0.493208
0.985582 0.111714 0.630547
0.984777 0.110909 0.766979
0.983977 0.110109 0.902673
0.983180 0.109312 1.000000
0.981161 0.250035 0.000000
0.980587 0.249461 0.063284
0.979743 0.248617 0.206252
0.978916 0.247790 0.346406
0.978099 0.246973 0.484914
0.977289 0.246163 0.622253
0.976484 0.245358 0.758686
0.975683 0.244557 0.894380
0.974886 0.243760 1.000000
0.973003 0.382289 0.000000
0.972428 0.381715 0.055126
0.971585 0.380871 0.198094
0.970758 0.380044 0.338248
0.969941 0.379227 0.476756
0.969130 0.378417 0.614095
0.968325 0.377612 0.750528
0.967525 0.376811 0.886221
0.966728 0.376015 1.000000
0.964930 0.513153 0.000000
0.964356 0.512579 0.047054
0.963512 0.511736 0.190022
0.962686 0.510909 0.330176
0.961868 0.510092 0.468684
0.961058 0.509281 0.606022
0.960253 0.508476 0.742455
0.959452 0.507676 0.878149
0.958656 0.506879 1.000000
0.956921 0.642998 0.000000
0.956346 0.642424 0.039044
0.955503 0.641581 0.182012
0.954676 0.640754 0.322166
0.953859 0.639937 0.460674
0.953048 0.639126 0.598013
0.952244 0.638321 0.734446
0.951443 0.637521 0.870140
0.950646 0.636724 1.000000
0.948961 0.772039 0.000000
0.948386 0.771465 0.031084
0.947543 0.770622 0.174052
0.946716 0.769795 0.314206
0.945899 0.768978 0.452714
0.945089 0.768167 0.590053
0.944284 0.767362 0.726486
0.943483 0.766562 0.862180
0.942686 0.765765 0.997249
0.941042 0.900417 0.000000
0.940467 0.899842 0.023165
0.939624 0.898999 0.166133
0.938797 0.898172 0.306287
0.937980 0.897355 0.444795
0.937170 0.896545 0.582134
0.936365 0.895740 0.718567
0.935564 0.894939 0.854261
0.934767 0.894142 0.989330
0.934427 1.000000 0.000000
0.933853 1.000000 0.016550
0.933009 1.000000 0.159518
0.932182 1.000000 0.299673
0.931365 1.000000 0.438180
0.930555 1.000000 0.575519
0.929750 1.000000 0.711952
0.928949 1.000000 0.847646
0.928152 1.000000 0.982716
1.000000 0.000000 0.000000
1.000000 0.000000 0.078525
1.000000 0.000000 0.221493
1.000000 0.000000 0.361647
1.000000 0.000000 0.500155
1.000000 0.000000 0.637493
1.000000 0.000000 0.773926
1.000000 0.000000 0.909620
1.000000 0.000000 1.000000
1.000000 0.114322 0.000000
1.000000 0.113748 0.070313
1.000000 0.112904 0.213281
1.000000 0.112077 0.353435
1.000000 0.111260 0.491943
1.000000 0.110450 0.629282
1.000000 0.109645 0.765715
1.000000 0.108844 0.901408
1.000000 0.108047 1.000000
1.000000 0.248770 0.000000
1.000000 0.248196 0.062020
1.000000 0.247353 0.204988
1.000000 0.246526 0.345142
1.000000 0.245708 0.483650
1.000000 0.244898 0.620988
1.000000 0.244093 0.757421
1.000000 0.243293 0.893115
1.000000 0.242496 1.000000
1.000000 0.381024 0.000000
1.000000 0.380450 0.053861
1.000000 0.379607 0.196829
1.000000 0.378780 0.336984
1.000000 0.377963 0.475491
1.000000 0.377152 0.612830
1.000000 0.376347 0.749263
1.000000 0.375547 0.884957
1.000000 0.374750 1.000000
1.000000 0.511889 0.000000
1.000000 0.511315 0.045789
1.000000 0.510471 0.188757
1.000000 0.509644 0.328911
1.000000 0.508827 0.467419
1.000000 0.508017 0.604758
1.000000 0.507212 0.741191
1.000000 0.506411 0.876884
1.000000 0.505614 1.000000
1.000000 0.641734 0.000000
1.000000 0.641160 0.037779
1.000000 0.640316 0.180747
1.000000 0.639489 0.320902
1.000000 0.638672 0.459409
1.000000 0.637862 0.596748
1.000000 0.637057 0.733181
1.000000 0.636256 0.868875
1.000000 0.635459 1.000000
1.000000 0.770775 0.000000
1.000000 0.770201 0.029820
1.000000 0.769357 0.172788
1.000000 0.768530 0.312942
1.000000 0.767713 0.451450
1.000000 0.766903 0.588788
1.000000 0.766098 0.725221
1.000000 0.765297 0.860915
1.000000 0.764500 0.995985
1.000000 0.899152 0.000000
1.000000 0.898578 0.021901
1.000000 0.897734 0.164869
1.000000 0.896907 0.305023
1.000000 0.896090 0.443531
1.000000 0.895280 0.580869
1.000000 0.894475 0.717302
1.000000 0.893674 0.852996
1.000000 0.892877 0.988066
1.000000 1.000000 0.000000
1.000000 1.000000 0.015286
1.000000 1.000000 0.158254
1.000000 1.000000 0.298408
1.000000 1.000000 0.436916
1.000000 1.000000 0.574255
1.000000 1.000000 0.710688
1.000000 1.000000 0.846381
1.000000 1.000000 0.981451
