skills/creativeops-producer/assets/grade/luts/ad_warm_v14.cube
TITLE "ad_warm_v14"
LUT_3D_SIZE 5
DOMAIN_MIN 0.0 0.0 0.0
DOMAIN_MAX 1.0 1.0 1.0
0.037716 0.000000 0.000000
0.036299 0.000000 0.239628
0.034654 0.000000 0.518290
0.033039 0.000000 0.792062
0.031442 0.000000 1.000000
0.021211 0.266906 0.000000
0.019793 0.265488 0.223123
0.018149 0.263844 0.501785
0.016534 0.262229 0.775557
0.014937 0.260631 1.000000
0.004981 0.530024 0.000000
0.003563 0.528606 0.206892
0.001919 0.526962 0.485554
0.000304 0.525347 0.759326
0.000000 0.523750 1.000000
0.000000 0.788910 0.000000
0.000000 0.787493 0.190923
0.000000 0.785848 0.469585
0.000000 0.784233 0.743357
0.000000 0.782636 1.000000
0.000000 1.000000 0.000000
0.000000 1.000000 0.176389
0.000000 1.000000 0.455051
0.000000 1.000000 0.728823
0.000000 1.000000 0.999587
0.320605 0.000000 0.000000
0.319188 0.000000 0.234656
0.317543 0.000000 0.513318
0.315928 0.000000 0.787090
0.314331 0.000000 1.000000
0.304100 0.261934 0.000000
0.302682 0.260516 0.218151
0.301038 0.258872 0.496813
0.299423 0.257257 0.770585
0.297826 0.255659 1.000000
0.287870 0.525052 0.000000
0.286452 0.523635 0.201921
0.284808 0.521991 0.480583
0.283193 0.520375 0.754354
0.281595 0.518778 1.000000
0.271900 0.783939 0.000000
0.270482 0.782521 0.185951
0.268838 0.780877 0.464613
0.267223 0.779262 0.738385
0.265626 0.777664 1.000000
0.257366 1.000000 0.000000
0.255949 1.000000 0.171418
0.254305 1.000000 0.450080
0.252689 1.000000 0.723851
0.251092 1.000000 0.994615
0.594290 0.000000 0.000000
0.592873 0.000000 0.229846
0.591229 0.000000 0.508508
0.589613 0.000000 0.782280
0.588016 0.000000 1.000000
0.577785 0.257124 0.000000
0.576368 0.255706 0.213341
0.574724 0.254062 0.492003
0.573108 0.252447 0.765775
0.571511 0.250849 1.000000
0.561555 0.520243 0.000000
0.560137 0.518825 0.197111
0.558493 0.517181 0.475773
0.556878 0.515565 0.749545
0.555280 0.513968 1.000000
0.545585 0.779129 0.000000
0.544168 0.777711 0.181141
0.542523 0.776067 0.459803
0.540908 0.774452 0.733575
0.539311 0.772854 1.000000
0.531052 1.000000 0.000000
0.529634 1.000000 0.166608
0.527990 1.000000 0.445270
0.526375 1.000000 0.719041
0.524777 1.000000 0.989805
0.863909 0.000000 0.000000
0.862491 0.000000 0.225108
0.860847 0.000000 0.503770
0.859232 0.000000 0.777542
0.857635 0.000000 1.000000
0.847404 0.252386 0.000000
0.845986 0.250968 0.208603
0.844342 0.249324 0.487265
0.842727 0.247709 0.761037
0.841129 0.246111 1.000000
0.831173 0.515504 0.000000
0.829756 0.514086 0.192372
0.828112 0.512442 0.471034
0.826496 0.510827 0.744806
0.824899 0.509230 1.000000
0.815204 0.774390 0.000000
0.813786 0.772972 0.176403
0.812142 0.771328 0.455065
0.810527 0.769713 0.728837
0.808929 0.768116 0.999600
0.800670 1.000000 0.000000
0.799253 1.000000 0.161869
0.797609 1.000000 0.440531
0.795993 1.000000 0.714303
0.794396 1.000000 0.985066
1.000000 0.000000 0.000000
1.000000 0.000000 0.221493
1.000000 0.000000 0.500155
1.000000 0.000000 0.773926
1.000000 0.000000 1.000000
1.000000 0.248770 0.000000
1.000000 0.247353 0.204988
1.000000 0.245708 0.483650
1.000000 0.244093 0.757421
1.000000 0.242496 1.000000
1.000000 0.511889 0.000000
1.000000 0.510471 0.188757
1.000000 0.508827 0.467419
1.000000 0.507212 0.741191
1.000000 0.505614 1.000000
1.000000 0.770775 0.000000
1.000000 0.769357 0.172788
1.000000 0.767713 0.451450
1.000000 0.766098 0.725221
1.000000 0.764500 0.995985
1.000000 1.000000 0.000000
1.000000 1.000000 0.158254
1.000000 1.000000 0.436916
1.000000 1.000000 0.710688
1.000000 1.000000 0.981451
