skills/creativeops-producer/assets/grade/luts/ad_warm_v13.cube
TITLE "ad_warm_v13"
LUT_3D_SIZE 9
DOMAIN_MIN 0.0 0.0 0.0
DOMAIN_MAX 1.0 1.0 1.0
0.035377 0.000000 0.000000
0.034823 0.000000 0.098695
0.034033 0.000000 0.240451
0.033258 0.000000 0.379597
0.032491 0.000000 0.517205
0.031730 0.000000 0.653719
0.030974 0.000000 0.789382
0.030221 0.000000 0.924350
0.029472 0.000000 1.000000
0.027665 0.132146 0.000000
0.027112 0.131593 0.090984
0.026322 0.130802 0.232739
0.025546 0.130027 0.371886
0.024779 0.129260 0.509494
0.024018 0.128499 0.646007
0.023262 0.127743 0.781670
0.022510 0.126990 0.916638
0.021761 0.126241 1.000000
0.019890 0.265978 0.000000
0.019336 0.265424 0.083208
0.018546 0.264634 0.224964
0.017771 0.263859 0.364110
0.017004 0.263092 0.501718
0.016243 0.262331 0.638232
0.015486 0.261575 0.773895
0.014734 0.260822 0.908863
0.013985 0.260073 1.000000
0.012234 0.397742 0.000000
0.011681 0.397189 0.075553
0.010891 0.396399 0.217308
0.010115 0.395623 0.356455
0.009348 0.394856 0.494063
0.008587 0.394095 0.630576
0.007831 0.393339 0.766239
0.007079 0.392586 0.901208
0.006330 0.391837 1.000000
0.004655 0.528194 0.000000
0.004102 0.527641 0.067974
0.003312 0.526851 0.209729
0.002536 0.526075 0.348876
0.001769 0.525308 0.486484
0.001008 0.524547 0.622997
0.000252 0.523791 0.758660
0.000000 0.523039 0.893629
0.000000 0.522290 1.000000
0.000000 0.657684 0.000000
0.000000 0.657131 0.060451
0.000000 0.656341 0.202206
0.000000 0.655565 0.341353
0.000000 0.654798 0.478961
0.000000 0.654037 0.615474
0.000000 0.653281 0.751137
0.000000 0.652529 0.886105
0.000000 0.651780 1.000000
0.000000 0.786414 0.000000
0.000000 0.785861 0.052972
0.000000 0.785071 0.194727
0.000000 0.784295 0.333874
0.000000 0.783528 0.471482
0.000000 0.782767 0.607995
0.000000 0.782011 0.743658
0.000000 0.781259 0.878626
0.000000 0.780509 1.000000
0.000000 0.914516 0.000000
0.000000 0.913963 0.045529
0.000000 0.913173 0.187285
0.000000 0.912397 0.326431
0.000000 0.911630 0.464039
0.000000 0.910869 0.600552
0.000000 0.910113 0.736215
0.000000 0.909361 0.871184
0.000000 0.908612 1.000000
0.000000 1.000000 0.000000
0.000000 1.000000 0.039221
0.000000 1.000000 0.180976
0.000000 1.000000 0.320123
0.000000 1.000000 0.457731
0.000000 1.000000 0.594244
0.000000 1.000000 0.729907
0.000000 1.000000 0.864875
0.000000 1.000000 0.999257
0.177752 0.000000 0.000000
0.177198 0.000000 0.096333
0.176408 0.000000 0.238088
0.175633 0.000000 0.377235
0.174866 0.000000 0.514843
0.174105 0.000000 0.651356
0.173349 0.000000 0.787019
0.172596 0.000000 0.921988
0.171847 0.000000 1.000000
0.170040 0.129784 0.000000
0.169487 0.129230 0.088621
0.168697 0.128440 0.230377
0.167921 0.127664 0.369523
0.167154 0.126897 0.507131
0.166393 0.126136 0.643645
0.165637 0.125380 0.779308
0.164885 0.124628 0.914276
0.164136 0.123879 1.000000
0.162265 0.263615 0.000000
0.161711 0.263062 0.080846
0.160921 0.262272 0.222601
0.160146 0.261496 0.361748
0.159379 0.260729 0.499356
0.158618 0.259968 0.635869
0.157861 0.259212 0.771532
0.157109 0.258460 0.906501
0.156360 0.257711 1.000000
0.154609 0.395380 0.000000
0.154056 0.394826 0.073191
0.153266 0.394036 0.214946
0.152490 0.393260 0.354092
0.151723 0.392493 0.491701
0.150962 0.391733 0.628214
0.150206 0.390976 0.763877
0.149454 0.390224 0.898845
0.148705 0.389475 1.000000
0.147030 0.525832 0.000000
0.146477 0.525279 0.065611
0.145687 0.524489 0.207367
0.144911 0.523713 0.346513
0.144144 0.522946 0.484122
0.143383 0.522185 0.620635
0.142627 0.521429 0.756298
0.141875 0.520676 0.891266
0.141126 0.519927 1.000000
0.139507 0.655322 0.000000
0.138954 0.654768 0.058088
0.138164 0.653978 0.199844
0.137388 0.653203 0.338990
0.136621 0.652436 0.476598
0.135860 0.651675 0.613112
0.135104 0.650919 0.748775
0.134352 0.650166 0.883743
0.133603 0.649417 1.000000
0.132028 0.784052 0.000000
0.131475 0.783498 0.050609
0.130685 0.782708 0.192365
0.129909 0.781933 0.331511
0.129142 0.781166 0.469119
0.128381 0.780405 0.605633
0.127625 0.779648 0.741296
0.126873 0.778896 0.876264
0.126124 0.778147 1.000000
0.124586 0.912154 0.000000
0.124032 0.911601 0.043167
0.123242 0.910810 0.184922
0.122466 0.910035 0.324069
0.121699 0.909268 0.461677
0.120938 0.908507 0.598190
0.120182 0.907751 0.733853
0.119430 0.906998 0.868821
0.118681 0.906249 1.000000
0.118277 1.000000 0.000000
0.117724 1.000000 0.036858
0.116934 1.000000 0.178614
0.116158 1.000000 0.317760
0.115391 1.000000 0.455369
0.114630 1.000000 0.591882
0.113874 1.000000 0.727545
0.113122 1.000000 0.862513
0.112373 1.000000 0.996895
0.316308 0.000000 0.000000
0.315754 0.000000 0.094034
0.314964 0.000000 0.235789
0.314188 0.000000 0.374936
0.313421 0.000000 0.512544
0.312661 0.000000 0.649057
0.311904 0.000000 0.784720
0.311152 0.000000 0.919689
0.310403 0.000000 1.000000
0.308596 0.127484 0.000000
0.308043 0.126931 0.086322
0.307252 0.126141 0.228078
0.306477 0.125365 0.367224
0.305710 0.124598 0.504832
0.304949 0.123837 0.641346
0.304193 0.123081 0.777009
0.303440 0.122329 0.911977
0.302691 0.121580 1.000000
0.300821 0.261316 0.000000
0.300267 0.260763 0.078547
0.299477 0.259973 0.220302
0.298701 0.259197 0.359449
0.297934 0.258430 0.497057
0.297174 0.257669 0.633570
0.296417 0.256913 0.769233
0.295665 0.256161 0.904202
0.294916 0.255412 1.000000
0.293165 0.393081 0.000000
0.292612 0.392527 0.070892
0.291822 0.391737 0.212647
0.291046 0.390961 0.351793
0.290279 0.390194 0.489402
0.289518 0.389434 0.625915
0.288762 0.388677 0.761578
0.288010 0.387925 0.896546
0.287261 0.387176 1.000000
0.285586 0.523533 0.000000
0.285033 0.522980 0.063312
0.284243 0.522189 0.205068
0.283467 0.521414 0.344214
0.282700 0.520647 0.481823
0.281939 0.519886 0.618336
0.281183 0.519130 0.753999
0.280431 0.518377 0.888967
0.279682 0.517628 1.000000
0.278063 0.653023 0.000000
0.277510 0.652469 0.055789
0.276719 0.651679 0.197545
0.275944 0.650904 0.336691
0.275177 0.650137 0.474299
0.274416 0.649376 0.610813
0.273660 0.648620 0.746476
0.272907 0.647867 0.881444
0.272158 0.647118 1.000000
0.270584 0.781753 0.000000
0.270031 0.781199 0.048310
0.269240 0.780409 0.190066
0.268465 0.779634 0.329212
0.267698 0.778866 0.466820
0.266937 0.778106 0.603334
0.266181 0.777349 0.738997
0.265428 0.776597 0.873965
0.264679 0.775848 1.000000
0.263141 0.909855 0.000000
0.262588 0.909301 0.040868
0.261798 0.908511 0.182623
0.261022 0.907736 0.321770
0.260255 0.906969 0.459378
0.259494 0.906208 0.595891
0.258738 0.905452 0.731554
0.257986 0.904699 0.866522
0.257237 0.903950 1.000000
0.256833 1.000000 0.000000
0.256280 1.000000 0.034559
0.255490 1.000000 0.176315
0.254714 1.000000 0.315461
0.253947 1.000000 0.453070
0.253186 1.000000 0.589583
0.252430 1.000000 0.725246
0.251678 1.000000 0.860214
0.250928 1.000000 0.994596
0.453014 0.000000 0.000000
0.452461 0.000000 0.091766
0.451671 0.000000 0.233521
0.450895 0.000000 0.372667
0.450128 0.000000 0.510276
0.449367 0.000000 0.646789
0.448611 0.000000 0.782452
0.447859 0.000000 0.917420
0.447110 0.000000 1.000000
0.445303 0.125216 0.000000
0.444749 0.124663 0.084054
0.443959 0.123873 0.225809
0.443184 0.123097 0.364956
0.442417 0.122330 0.502564
0.441656 0.121569 0.639077
0.440899 0.120813 0.774740
0.440147 0.120061 0.909709
0.439398 0.119312 1.000000
0.437527 0.259048 0.000000
0.436974 0.258495 0.076278
0.436184 0.257704 0.218034
0.435408 0.256929 0.357180
0.434641 0.256162 0.494789
0.433880 0.255401 0.631302
0.433124 0.254645 0.766965
0.432372 0.253892 0.901933
0.431623 0.253143 1.000000
0.429872 0.390812 0.000000
0.429319 0.390259 0.068623
0.428528 0.389469 0.210379
0.427753 0.388693 0.349525
0.426986 0.387926 0.487133
0.426225 0.387165 0.623647
0.425469 0.386409 0.759309
0.424716 0.385657 0.894278
0.423967 0.384908 1.000000
0.422293 0.521265 0.000000
0.421739 0.520711 0.061044
0.420949 0.519921 0.202800
0.420174 0.519146 0.341946
0.419407 0.518378 0.479554
0.418646 0.517618 0.616067
0.417890 0.516861 0.751730
0.417137 0.516109 0.886699
0.416388 0.515360 1.000000
0.414770 0.650754 0.000000
0.414216 0.650201 0.053521
0.413426 0.649411 0.195276
0.412651 0.648635 0.334423
0.411883 0.647868 0.472031
0.411123 0.647107 0.608544
0.410366 0.646351 0.744207
0.409614 0.645599 0.879176
0.408865 0.644850 1.000000
0.407291 0.779484 0.000000
0.406737 0.778931 0.046042
0.405947 0.778141 0.187797
0.405171 0.777365 0.326944
0.404404 0.776598 0.464552
0.403644 0.775837 0.601065
0.402887 0.775081 0.736728
0.402135 0.774329 0.871697
0.401386 0.773580 1.000000
0.399848 0.907587 0.000000
0.399295 0.907033 0.038599
0.398505 0.906243 0.180355
0.397729 0.905467 0.319501
0.396962 0.904700 0.457109
0.396201 0.903939 0.593623
0.395445 0.903183 0.729286
0.394693 0.902431 0.864254
0.393943 0.901682 0.998636
0.393540 1.000000 0.000000
0.392986 1.000000 0.032291
0.392196 1.000000 0.174046
0.391421 1.000000 0.313193
0.390654 1.000000 0.450801
0.389893 1.000000 0.587314
0.389136 1.000000 0.722977
0.388384 1.000000 0.857946
0.387635 1.000000 0.992327
0.588482 0.000000 0.000000
0.587929 0.000000 0.089518
0.587139 0.000000 0.231273
0.586363 0.000000 0.370420
0.585596 0.000000 0.508028
0.584835 0.000000 0.644541
0.584079 0.000000 0.780204
0.583327 0.000000 0.915172
0.582578 0.000000 1.000000
0.580771 0.122968 0.000000
0.580217 0.122415 0.081806
0.579427 0.121625 0.223562
0.578652 0.120849 0.362708
0.577885 0.120082 0.500316
0.577124 0.119321 0.636829
0.576367 0.118565 0.772492
0.575615 0.117813 0.907461
0.574866 0.117064 1.000000
0.572995 0.256800 0.000000
0.572442 0.256247 0.074031
0.571652 0.255457 0.215786
0.570876 0.254681 0.354933
0.570109 0.253914 0.492541
0.569348 0.253153 0.629054
0.568592 0.252397 0.764717
0.567840 0.251645 0.899685
0.567091 0.250896 1.000000
0.565340 0.388564 0.000000
0.564787 0.388011 0.066375
0.563996 0.387221 0.208131
0.563221 0.386445 0.347277
0.562454 0.385678 0.484886
0.561693 0.384917 0.621399
0.560937 0.384161 0.757062
0.560184 0.383409 0.892030
0.559435 0.382660 1.000000
0.557761 0.519017 0.000000
0.557207 0.518463 0.058796
0.556417 0.517673 0.200552
0.555642 0.516898 0.339698
0.554875 0.516131 0.477306
0.554114 0.515370 0.613820
0.553358 0.514614 0.749483
0.552605 0.513861 0.884451
0.551856 0.513112 1.000000
0.550238 0.648507 0.000000
0.549684 0.647953 0.051273
0.548894 0.647163 0.193029
0.548119 0.646388 0.332175
0.547352 0.645621 0.469783
0.546591 0.644860 0.606296
0.545834 0.644103 0.741959
0.545082 0.643351 0.876928
0.544333 0.642602 1.000000
0.542759 0.777236 0.000000
0.542205 0.776683 0.043794
0.541415 0.775893 0.185550
0.540640 0.775117 0.324696
0.539873 0.774350 0.462304
0.539112 0.773589 0.598817
0.538355 0.772833 0.734480
0.537603 0.772081 0.869449
0.536854 0.771332 1.000000
0.535316 0.905339 0.000000
0.534763 0.904785 0.036352
0.533973 0.903995 0.178107
0.533197 0.903220 0.317253
0.532430 0.902453 0.454862
0.531669 0.901692 0.591375
0.530913 0.900935 0.727038
0.530161 0.900183 0.862006
0.529412 0.899434 0.996388
0.529008 1.000000 0.000000
0.528454 1.000000 0.030043
0.527664 1.000000 0.171799
0.526889 1.000000 0.310945
0.526122 1.000000 0.448553
0.525361 1.000000 0.585067
0.524605 1.000000 0.720729
0.523852 1.000000 0.855698
0.523103 1.000000 0.990080
0.723019 0.000000 0.000000
0.722465 0.000000 0.087285
0.721675 0.000000 0.229041
0.720899 0.000000 0.368187
0.720132 0.000000 0.505796
0.719371 0.000000 0.642309
0.718615 0.000000 0.777972
0.717863 0.000000 0.912940
0.717114 0.000000 1.000000
0.715307 0.120736 0.000000
0.714754 0.120183 0.079574
0.713963 0.119392 0.221329
0.713188 0.118617 0.360476
0.712421 0.117850 0.498084
0.711660 0.117089 0.634597
0.710904 0.116333 0.770260
0.710151 0.115580 0.905228
0.709402 0.114831 1.000000
0.707531 0.254568 0.000000
0.706978 0.254014 0.071798
0.706188 0.253224 0.213554
0.705412 0.252449 0.352700
0.704645 0.251682 0.490308
0.703884 0.250921 0.626822
0.703128 0.250165 0.762485
0.702376 0.249412 0.897453
0.701627 0.248663 1.000000
0.699876 0.386332 0.000000
0.699323 0.385779 0.064143
0.698533 0.384989 0.205899
0.697757 0.384213 0.345045
0.696990 0.383446 0.482653
0.696229 0.382685 0.619166
0.695473 0.381929 0.754829
0.694721 0.381177 0.889798
0.693972 0.380427 1.000000
0.692297 0.516784 0.000000
0.691744 0.516231 0.056564
0.690954 0.515441 0.198319
0.690178 0.514665 0.337466
0.689411 0.513898 0.475074
0.688650 0.513137 0.611587
0.687894 0.512381 0.747250
0.687142 0.511629 0.882219
0.686392 0.510880 1.000000
0.684774 0.646274 0.000000
0.684221 0.645721 0.049041
0.683430 0.644931 0.190796
0.682655 0.644155 0.329943
0.681888 0.643388 0.467551
0.681127 0.642627 0.604064
0.680371 0.641871 0.739727
0.679618 0.641119 0.874695
0.678869 0.640370 1.000000
0.677295 0.775004 0.000000
0.676741 0.774451 0.041562
0.675951 0.773661 0.183317
0.675176 0.772885 0.322464
0.674409 0.772118 0.460072
0.673648 0.771357 0.596585
0.672892 0.770601 0.732248
0.672139 0.769849 0.867216
0.671390 0.769100 1.000000
0.669852 0.903106 0.000000
0.669299 0.902553 0.034119
0.668509 0.901763 0.175875
0.667733 0.900987 0.315021
0.666966 0.900220 0.452629
0.666205 0.899459 0.589143
0.665449 0.898703 0.724805
0.664697 0.897951 0.859774
0.663948 0.897202 0.994156
0.663544 1.000000 0.000000
0.662991 1.000000 0.027811
0.662200 1.000000 0.169566
0.661425 1.000000 0.308713
0.660658 1.000000 0.446321
0.659897 1.000000 0.582834
0.659141 1.000000 0.718497
0.658388 1.000000 0.853466
0.657639 1.000000 0.987847
0.856808 0.000000 0.000000
0.856255 0.000000 0.085065
0.855465 0.000000 0.226821
0.854689 0.000000 0.365967
0.853922 0.000000 0.503576
0.853161 0.000000 0.640089
0.852405 0.000000 0.775752
0.851653 0.000000 0.910720
0.850903 0.000000 1.000000
0.849096 0.118516 0.000000
0.848543 0.117963 0.077354
0.847753 0.117172 0.219109
0.846977 0.116397 0.358256
0.846210 0.115630 0.495864
0.845449 0.114869 0.632377
0.844693 0.114113 0.768040
0.843941 0.113360 0.903008
0.843192 0.112611 1.000000
0.841321 0.252348 0.000000
0.840768 0.251794 0.069578
0.839978 0.251004 0.211334
0.839202 0.250229 0.350480
0.838435 0.249462 0.488089
0.837674 0.248701 0.624602
0.836918 0.247945 0.760265
0.836165 0.247192 0.895233
0.835416 0.246443 1.000000
0.833666 0.384112 0.000000
0.833112 0.383559 0.061923
0.832322 0.382769 0.203679
0.831547 0.381993 0.342825
0.830780 0.381226 0.480433
0.830019 0.380465 0.616946
0.829262 0.379709 0.752609
0.828510 0.378957 0.887578
0.827761 0.378208 1.000000
0.826087 0.514565 0.000000
0.825533 0.514011 0.054344
0.824743 0.513221 0.196099
0.823967 0.512445 0.335246
0.823200 0.511678 0.472854
0.822440 0.510917 0.609367
0.821683 0.510161 0.745030
0.820931 0.509409 0.879999
0.820182 0.508660 1.000000
0.818563 0.644054 0.000000
0.818010 0.643501 0.046821
0.817220 0.642711 0.188576
0.816444 0.641935 0.327723
0.815677 0.641168 0.465331
0.814916 0.640407 0.601844
0.814160 0.639651 0.737507
0.813408 0.638899 0.872475
0.812659 0.638150 1.000000
0.811084 0.772784 0.000000
0.810531 0.772231 0.039342
0.809741 0.771441 0.181097
0.808965 0.770665 0.320244
0.808198 0.769898 0.457852
0.807437 0.769137 0.594365
0.806681 0.768381 0.730028
0.805929 0.767629 0.864996
0.805180 0.766880 0.999378
0.803642 0.900886 0.000000
0.803088 0.900333 0.031899
0.802298 0.899543 0.173655
0.801523 0.898767 0.312801
0.800756 0.898000 0.450409
0.799995 0.897239 0.586923
0.799239 0.896483 0.722585
0.798486 0.895731 0.857554
0.797737 0.894982 0.991936
0.797334 1.000000 0.000000
0.796780 1.000000 0.025591
0.795990 1.000000 0.167346
0.795214 1.000000 0.306493
0.794447 1.000000 0.444101
0.793686 1.000000 0.580614
0.792930 1.000000 0.716277
0.792178 1.000000 0.851246
0.791429 1.000000 0.985627
0.989975 0.000000 0.000000
0.989422 0.000000 0.082856
0.988632 0.000000 0.224611
0.987856 0.000000 0.363758
0.987089 0.000000 0.501366
0.986328 0.000000 0.637879
0.985572 0.000000 0.773542
0.984820 0.000000 0.908510
0.984071 0.000000 1.000000
0.982263 0.116306 0.000000
0.981710 0.115753 0.075144
0.980920 0.114963 0.216900
0.980144 0.114187 0.356046
0.979377 0.113420 0.493654
0.978616 0.112659 0.630168
0.977860 0.111903 0.765830
0.977108 0.111151 0.900799
0.976359 0.110402 1.000000
0.974488 0.250138 0.000000
0.973935 0.249585 0.067369
0.973145 0.248795 0.209124
0.972369 0.248019 0.348271
0.971602 0.247252 0.485879
0.970841 0.246491 0.622392
0.970085 0.245735 0.758055
0.969333 0.244983 0.893023
0.968583 0.244234 1.000000
0.966833 0.381902 0.000000
0.966279 0.381349 0.059713
0.965489 0.380559 0.201469
0.964714 0.379783 0.340615
0.963947 0.379016 0.478224
0.963186 0.378255 0.614737
0.962430 0.377499 0.750400
0.961677 0.376747 0.885368
0.960928 0.375998 1.000000
0.959254 0.512355 0.000000
0.958700 0.511802 0.052134
0.957910 0.511011 0.193890
0.957135 0.510236 0.333036
0.956368 0.509469 0.470644
0.955607 0.508708 0.607158
0.954850 0.507952 0.742821
0.954098 0.507199 0.877789
0.953349 0.506450 1.000000
0.951730 0.641845 0.000000
0.951177 0.641291 0.044611
0.950387 0.640501 0.186367
0.949611 0.639726 0.325513
0.948844 0.638959 0.463121
0.948083 0.638198 0.599635
0.947327 0.637441 0.735297
0.946575 0.636689 0.870266
0.945826 0.635940 1.000000
0.944251 0.770575 0.000000
0.943698 0.770021 0.037132
0.942908 0.769231 0.178888
0.942132 0.768455 0.318034
0.941365 0.767688 0.455642
0.940604 0.766927 0.592155
0.939848 0.766171 0.727818
0.939096 0.765419 0.862787
0.938347 0.764670 0.997168
0.936809 0.898677 0.000000
0.936256 0.898123 0.029690
0.935465 0.897333 0.171445
0.934690 0.896558 0.310591
0.933923 0.895791 0.448200
0.933162 0.895030 0.584713
0.932406 0.894274 0.720376
0.931653 0.893521 0.855344
0.930904 0.892772 0.989726
0.930501 1.000000 0.000000
0.929947 1.000000 0.023381
0.929157 1.000000 0.165137
0.928381 1.000000 0.304283
0.927614 1.000000 0.441891
0.926853 1.000000 0.578405
0.926097 1.000000 0.714068
0.925345 1.000000 0.849036
0.924596 1.000000 0.983418
1.000000 0.000000 0.000000
1.000000 0.000000 0.081603
1.000000 0.000000 0.223358
1.000000 0.000000 0.362505
1.000000 0.000000 0.500113
1.000000 0.000000 0.636626
1.000000 0.000000 0.772289
1.000000 0.000000 0.907258
1.000000 0.000000 1.000000
1.000000 0.115054 0.000000
1.000000 0.114500 0.073891
1.000000 0.113710 0.215647
1.000000 0.112934 0.354793
1.000000 0.112167 0.492402
1.000000 0.111407 0.628915
1.000000 0.110650 0.764578
1.000000 0.109898 0.899546
1.000000 0.109149 1.000000
1.000000 0.248885 0.000000
1.000000 0.248332 0.066116
1.000000 0.247542 0.207871
1.000000 0.246766 0.347018
1.000000 0.245999 0.484626
1.000000 0.245238 0.621139
1.000000 0.244482 0.756802
1.000000 0.243730 0.891771
1.000000 0.242981 1.000000
1.000000 0.380650 0.000000
1.000000 0.380096 0.058461
1.000000 0.379306 0.200216
1.000000 0.378531 0.339362
1.000000 0.377764 0.476971
1.000000 0.377003 0.613484
1.000000 0.376246 0.749147
1.000000 0.375494 0.884115
1.000000 0.374745 1.000000
1.000000 0.511102 0.000000
1.000000 0.510549 0.050882
1.000000 0.509759 0.192637
1.000000 0.508983 0.331783
1.000000 0.508216 0.469392
1.000000 0.507455 0.605905
1.000000 0.506699 0.741568
1.000000 0.505947 0.876536
1.000000 0.505198 1.000000
1.000000 0.640592 0.000000
1.000000 0.640039 0.043358
1.000000 0.639248 0.185114
1.000000 0.638473 0.324260
1.000000 0.637706 0.461869
1.000000 0.636945 0.598382
1.000000 0.636189 0.734045
1.000000 0.635436 0.869013
1.000000 0.634687 1.000000
1.000000 0.769322 0.000000
1.000000 0.768768 0.035879
1.000000 0.767978 0.177635
1.000000 0.767203 0.316781
1.000000 0.766436 0.454389
1.000000 0.765675 0.590903
1.000000 0.764918 0.726566
1.000000 0.764166 0.861534
1.000000 0.763417 0.995916
1.000000 0.897424 0.000000
1.000000 0.896871 0.028437
1.000000 0.896080 0.170192
1.000000 0.895305 0.309339
1.000000 0.894538 0.446947
1.000000 0.893777 0.583460
1.000000 0.893021 0.719123
1.000000 0.892268 0.854091
1.000000 0.891519 0.988473
1.000000 1.000000 0.000000
1.000000 1.000000 0.022128
1.000000 1.000000 0.163884
1.000000 1.000000 0.303030
1.000000 1.000000 0.440639
1.000000 1.000000 0.577152
1.000000 1.000000 0.712815
1.000000 1.000000 0.847783
1.000000 1.000000 0.982165
