skills/creativeops-producer/assets/grade/luts/clean_bright_v20.cube
TITLE "clean_bright_v20"
LUT_3D_SIZE 9
DOMAIN_MIN 0.0 0.0 0.0
DOMAIN_MAX 1.0 1.0 1.0
0.047775 0.047775 0.047775
0.047255 0.047255 0.198335
0.046767 0.046767 0.339833
0.046294 0.046294 0.476921
0.045831 0.045831 0.611074
0.045376 0.045376 0.743036
0.044927 0.044927 0.873252
0.044483 0.044483 1.000000
0.044337 0.044337 1.000000
0.042629 0.193709 0.042629
0.042110 0.193190 0.193190
0.041622 0.192701 0.334688
0.041149 0.192228 0.471775
0.040686 0.191766 0.605929
0.040231 0.191310 0.737891
0.039782 0.190861 0.868107
0.039337 0.190417 0.996875
0.039192 0.190271 1.000000
0.037794 0.330860 0.037794
0.037274 0.330340 0.188354
0.036786 0.329852 0.329852
0.036313 0.329379 0.466940
0.035850 0.328916 0.601093
0.035395 0.328461 0.733055
0.034946 0.328012 0.863271
0.034502 0.327568 0.992040
0.034356 0.327422 1.000000
0.033109 0.463735 0.033109
0.032589 0.463216 0.183669
0.032101 0.462728 0.325167
0.031628 0.462255 0.462255
0.031166 0.461792 0.596409
0.030710 0.461337 0.728370
0.030261 0.460887 0.858586
0.029817 0.460443 0.987355
0.029671 0.460298 1.000000
0.028524 0.593767 0.028524
0.028005 0.593248 0.179084
0.027517 0.592760 0.320583
0.027044 0.592287 0.457670
0.026581 0.591824 0.591824
0.026126 0.591369 0.723786
0.025676 0.590919 0.854002
0.025232 0.590475 0.982770
0.025087 0.590330 1.000000
0.024014 0.721674 0.024014
0.023495 0.721155 0.174575
0.023007 0.720667 0.316073
0.022534 0.720194 0.453160
0.022071 0.719731 0.587314
0.021616 0.719276 0.719276
0.021167 0.718827 0.849492
0.020722 0.718382 0.978260
0.020577 0.718237 1.000000
0.019564 0.847890 0.019564
0.019045 0.847370 0.170125
0.018557 0.846882 0.311623
0.018084 0.846409 0.448710
0.017621 0.845946 0.582864
0.017166 0.845491 0.714826
0.016717 0.845042 0.845042
0.016272 0.844597 0.973810
0.016127 0.844452 1.000000
0.015164 0.972702 0.015164
0.014644 0.972182 0.165724
0.014156 0.971694 0.307222
0.013683 0.971221 0.444310
0.013220 0.970758 0.578463
0.012765 0.970303 0.710425
0.012316 0.969854 0.840641
0.011872 0.969410 0.969410
0.011726 0.969264 1.000000
0.013723 1.000000 0.013723
0.013204 1.000000 0.164283
0.012716 1.000000 0.305782
0.012243 1.000000 0.442869
0.011780 1.000000 0.577023
0.011325 1.000000 0.708985
0.010875 1.000000 0.839201
0.010431 1.000000 0.967969
0.010286 1.000000 1.000000
0.197325 0.046245 0.046245
0.196805 0.045726 0.196805
0.196317 0.045238 0.338304
0.195844 0.044765 0.475391
0.195381 0.044302 0.609545
0.194926 0.043847 0.741507
0.194477 0.043397 0.871723
0.194033 0.042953 1.000000
0.193887 0.042808 1.000000
0.192180 0.192180 0.041100
0.191660 0.191660 0.191660
0.191172 0.191172 0.333158
0.190699 0.190699 0.470246
0.190236 0.190236 0.604400
0.189781 0.189781 0.736361
0.189332 0.189332 0.866577
0.188887 0.188887 0.995346
0.188742 0.188742 1.000000
0.187344 0.329330 0.036264
0.186824 0.328811 0.186824
0.186336 0.328323 0.328323
0.185863 0.327850 0.465410
0.185400 0.327387 0.599564
0.184945 0.326932 0.731526
0.184496 0.326482 0.861742
0.184052 0.326038 0.990510
0.183906 0.325893 1.000000
0.182659 0.462206 0.031579
0.182140 0.461686 0.182140
0.181651 0.461198 0.323638
0.181178 0.460725 0.460725
0.180716 0.460262 0.594879
0.180260 0.459807 0.726841
0.179811 0.459358 0.857057
0.179367 0.458914 0.985825
0.179221 0.458768 1.000000
0.178074 0.592238 0.026995
0.177555 0.591718 0.177555
0.177067 0.591230 0.319053
0.176594 0.590757 0.456141
0.176131 0.590294 0.590294
0.175676 0.589839 0.722256
0.175226 0.589390 0.852472
0.174782 0.588946 0.981241
0.174637 0.588800 1.000000
0.173565 0.720145 0.022485
0.173045 0.719625 0.173045
0.172557 0.719137 0.314543
0.172084 0.718664 0.451631
0.171621 0.718202 0.585785
0.171166 0.717746 0.717746
0.170717 0.717297 0.847962
0.170272 0.716853 0.976731
0.170127 0.716707 1.000000
0.169114 0.846360 0.018035
0.168595 0.845841 0.168595
0.168107 0.845352 0.310093
0.167634 0.844880 0.447181
0.167171 0.844417 0.581335
0.166716 0.843961 0.713296
0.166267 0.843512 0.843512
0.165822 0.843068 0.972281
0.165677 0.842923 1.000000
0.164714 0.971172 0.013634
0.164194 0.970653 0.164194
0.163706 0.970165 0.305693
0.163233 0.969692 0.442780
0.162770 0.969229 0.576934
0.162315 0.968774 0.708896
0.161866 0.968324 0.839112
0.161422 0.967880 0.967880
0.161276 0.967735 1.000000
0.163273 1.000000 0.012194
0.162754 1.000000 0.162754
0.162266 1.000000 0.304252
0.161793 1.000000 0.441340
0.161330 1.000000 0.575493
0.160875 1.000000 0.707455
0.160425 1.000000 0.837671
0.159981 1.000000 0.966440
0.159836 1.000000 1.000000
0.337874 0.044808 0.044808
0.337354 0.044288 0.195368
0.336866 0.043800 0.336866
0.336393 0.043327 0.473954
0.335930 0.042864 0.608107
0.335475 0.042409 0.740069
0.335026 0.041960 0.870285
0.334582 0.041516 0.999054
0.334436 0.041370 1.000000
0.332729 0.190742 0.039663
0.332209 0.190223 0.190223
0.331721 0.189734 0.331721
0.331248 0.189262 0.468808
0.330785 0.188799 0.602962
0.330330 0.188343 0.734924
0.329881 0.187894 0.865140
0.329436 0.187450 0.993908
0.329291 0.187305 1.000000
0.327893 0.327893 0.034827
0.327373 0.327373 0.185387
0.326885 0.326885 0.326885
0.326412 0.326412 0.463973
0.325950 0.325950 0.598127
0.325494 0.325494 0.730088
0.325045 0.325045 0.860304
0.324601 0.324601 0.989073
0.324455 0.324455 1.000000
0.323208 0.460768 0.030142
0.322689 0.460249 0.180702
0.322200 0.459761 0.322200
0.321727 0.459288 0.459288
0.321265 0.458825 0.593442
0.320809 0.458370 0.725403
0.320360 0.457920 0.855619
0.319916 0.457476 0.984388
0.319770 0.457331 1.000000
0.318623 0.590800 0.025557
0.318104 0.590281 0.176117
0.317616 0.589793 0.317616
0.317143 0.589320 0.454703
0.316680 0.588857 0.588857
0.316225 0.588402 0.720819
0.315775 0.587952 0.851035
0.315331 0.587508 0.979803
0.315186 0.587363 1.000000
0.314114 0.718707 0.021048
0.313594 0.718188 0.171608
0.313106 0.717700 0.313106
0.312633 0.717227 0.450193
0.312170 0.716764 0.584347
0.311715 0.716309 0.716309
0.311266 0.715860 0.846525
0.310821 0.715415 0.975293
0.310676 0.715270 1.000000
0.309663 0.844923 0.016597
0.309144 0.844403 0.167158
0.308656 0.843915 0.308656
0.308183 0.843442 0.445743
0.307720 0.842979 0.579897
0.307265 0.842524 0.711859
0.306816 0.842075 0.842075
0.306371 0.841631 0.970843
0.306226 0.841485 1.000000
0.305263 0.969735 0.012197
0.304743 0.969215 0.162757
0.304255 0.968727 0.304255
0.303782 0.968254 0.441343
0.303319 0.967791 0.575496
0.302864 0.967336 0.707458
0.302415 0.966887 0.837674
0.301971 0.966443 0.966443
0.301825 0.966297 1.000000
0.303822 1.000000 0.010756
0.303303 1.000000 0.161316
0.302815 1.000000 0.302815
0.302342 1.000000 0.439902
0.301879 1.000000 0.574056
0.301424 1.000000 0.706018
0.300974 1.000000 0.836234
0.300530 1.000000 0.965002
0.300385 1.000000 1.000000
0.474042 0.043415 0.043415
0.473522 0.042896 0.193975
0.473034 0.042408 0.335474
0.472561 0.041935 0.472561
0.472098 0.041472 0.606715
0.471643 0.041017 0.738677
0.471194 0.040567 0.868893
0.470750 0.040123 0.997661
0.470604 0.039978 1.000000
0.468896 0.189349 0.038270
0.468377 0.188830 0.188830
0.467889 0.188342 0.330328
0.467416 0.187869 0.467416
0.466953 0.187406 0.601570
0.466498 0.186951 0.733531
0.466048 0.186502 0.863747
0.465604 0.186057 0.992516
0.465459 0.185912 1.000000
0.464061 0.326500 0.033434
0.463541 0.325981 0.183994
0.463053 0.325493 0.325493
0.462580 0.325020 0.462580
0.462117 0.324557 0.596734
0.461662 0.324102 0.728696
0.461213 0.323652 0.858912
0.460769 0.323208 0.987680
0.460623 0.323063 1.000000
0.459376 0.459376 0.028749
0.458856 0.458856 0.179309
0.458368 0.458368 0.320808
0.457895 0.457895 0.457895
0.457432 0.457432 0.592049
0.456977 0.456977 0.724011
0.456528 0.456528 0.854227
0.456084 0.456084 0.982995
0.455938 0.455938 1.000000
0.454791 0.589408 0.024165
0.454272 0.588888 0.174725
0.453783 0.588400 0.316223
0.453311 0.587927 0.453311
0.452848 0.587464 0.587464
0.452392 0.587009 0.719426
0.451943 0.586560 0.849642
0.451499 0.586116 0.978410
0.451354 0.585970 1.000000
0.450281 0.717315 0.019655
0.449762 0.716795 0.170215
0.449274 0.716307 0.311713
0.448801 0.715834 0.448801
0.448338 0.715371 0.582955
0.447883 0.714916 0.714916
0.447433 0.714467 0.845132
0.446989 0.714023 0.973901
0.446844 0.713877 1.000000
0.445831 0.843530 0.015205
0.445312 0.843011 0.165765
0.444824 0.842522 0.307263
0.444351 0.842049 0.444351
0.443888 0.841587 0.578504
0.443433 0.841131 0.710466
0.442983 0.840682 0.840682
0.442539 0.840238 0.969451
0.442394 0.840092 1.000000
0.441431 0.968342 0.010804
0.440911 0.967823 0.161364
0.440423 0.967335 0.302863
0.439950 0.966862 0.439950
0.439487 0.966399 0.574104
0.439032 0.965943 0.706065
0.438583 0.965494 0.836282
0.438139 0.965050 0.965050
0.437993 0.964905 1.000000
0.439990 1.000000 0.009364
0.439471 1.000000 0.159924
0.438982 1.000000 0.301422
0.438510 1.000000 0.438510
0.438047 1.000000 0.572663
0.437591 1.000000 0.704625
0.437142 1.000000 0.834841
0.436698 1.000000 0.963609
0.436553 1.000000 1.000000
0.607295 0.042052 0.042052
0.606776 0.041533 0.192613
0.606288 0.041045 0.334111
0.605815 0.040572 0.471198
0.605352 0.040109 0.605352
0.604897 0.039654 0.737314
0.604448 0.039205 0.867530
0.604003 0.038760 0.996298
0.603858 0.038615 1.000000
0.602150 0.187987 0.036907
0.601631 0.187467 0.187467
0.601142 0.186979 0.328965
0.600670 0.186506 0.466053
0.600207 0.186043 0.600207
0.599751 0.185588 0.732168
0.599302 0.185139 0.862384
0.598858 0.184694 0.991153
0.598713 0.184549 1.000000
0.597314 0.325137 0.032071
0.596795 0.324618 0.182632
0.596307 0.324130 0.324130
0.595834 0.323657 0.461217
0.595371 0.323194 0.595371
0.594916 0.322739 0.727333
0.594467 0.322290 0.857549
0.594022 0.321845 0.986317
0.593877 0.321700 1.000000
0.592629 0.458013 0.027386
0.592110 0.457493 0.177947
0.591622 0.457005 0.319445
0.591149 0.456532 0.456532
0.590686 0.456070 0.590686
0.590231 0.455614 0.722648
0.589782 0.455165 0.852864
0.589337 0.454721 0.981632
0.589192 0.454575 1.000000
0.588045 0.588045 0.022802
0.587525 0.587525 0.173362
0.587037 0.587037 0.314860
0.586564 0.586564 0.451948
0.586101 0.586101 0.586101
0.585646 0.585646 0.718063
0.585197 0.585197 0.848279
0.584753 0.584753 0.977048
0.584607 0.584607 1.000000
0.583535 0.715952 0.018292
0.583016 0.715433 0.168852
0.582527 0.714944 0.310350
0.582055 0.714471 0.447438
0.581592 0.714009 0.581592
0.581136 0.713553 0.713553
0.580687 0.713104 0.843769
0.580243 0.712660 0.972538
0.580098 0.712514 1.000000
0.579085 0.842167 0.013842
0.578566 0.841648 0.164402
0.578077 0.841160 0.305900
0.577604 0.840687 0.442988
0.577142 0.840224 0.577142
0.576686 0.839769 0.709103
0.576237 0.839319 0.839319
0.575793 0.838875 0.968088
0.575647 0.838730 1.000000
0.574684 0.966979 0.009441
0.574165 0.966460 0.160002
0.573677 0.965972 0.301500
0.573204 0.965499 0.438587
0.572741 0.965036 0.572741
0.572286 0.964581 0.704703
0.571837 0.964131 0.834919
0.571392 0.963687 0.963687
0.571247 0.963542 1.000000
0.573244 1.000000 0.008001
0.572724 1.000000 0.158561
0.572236 1.000000 0.300059
0.571763 1.000000 0.437147
0.571300 1.000000 0.571300
0.570845 1.000000 0.703262
0.570396 1.000000 0.833478
0.569952 1.000000 0.962247
0.569806 1.000000 1.000000
0.738372 0.040712 0.040712
0.737852 0.040192 0.191272
0.737364 0.039704 0.332770
0.736891 0.039231 0.469858
0.736428 0.038768 0.604011
0.735973 0.038313 0.735973
0.735524 0.037864 0.866189
0.735080 0.037420 0.994958
0.734934 0.037274 1.000000
0.733226 0.186646 0.035566
0.732707 0.186127 0.186127
0.732219 0.185638 0.327625
0.731746 0.185165 0.464712
0.731283 0.184703 0.598866
0.730828 0.184247 0.730828
0.730379 0.183798 0.861044
0.729934 0.183354 0.989812
0.729789 0.183208 1.000000
0.728391 0.323797 0.030731
0.727871 0.323277 0.181291
0.727383 0.322789 0.322789
0.726910 0.322316 0.459877
0.726447 0.321853 0.594030
0.725992 0.321398 0.725992
0.725543 0.320949 0.856208
0.725099 0.320505 0.984977
0.724953 0.320359 1.000000
0.723706 0.456672 0.026046
0.723186 0.456153 0.176606
0.722698 0.455665 0.318104
0.722225 0.455192 0.455192
0.721762 0.454729 0.589346
0.721307 0.454274 0.721307
0.720858 0.453824 0.851523
0.720414 0.453380 0.980292
0.720268 0.453235 1.000000
0.719121 0.586704 0.021461
0.718602 0.586185 0.172021
0.718114 0.585697 0.313520
0.717641 0.585224 0.450607
0.717178 0.584761 0.584761
0.716723 0.584306 0.716723
0.716273 0.583856 0.846939
0.715829 0.583412 0.975707
0.715684 0.583267 1.000000
0.714611 0.714611 0.016952
0.714092 0.714092 0.167512
0.713604 0.713604 0.309010
0.713131 0.713131 0.446097
0.712668 0.712668 0.580251
0.712213 0.712213 0.712213
0.711764 0.711764 0.842429
0.711319 0.711319 0.971197
0.711174 0.711174 1.000000
0.710161 0.840827 0.012501
0.709642 0.840307 0.163062
0.709154 0.839819 0.304560
0.708681 0.839346 0.441647
0.708218 0.838883 0.575801
0.707763 0.838428 0.707763
0.707313 0.837979 0.837979
0.706869 0.837534 0.966747
0.706724 0.837389 1.000000
0.705761 0.965639 0.008101
0.705241 0.965119 0.158661
0.704753 0.964631 0.300159
0.704280 0.964158 0.437247
0.703817 0.963695 0.571400
0.703362 0.963240 0.703362
0.702913 0.962791 0.833578
0.702469 0.962347 0.962347
0.702323 0.962201 1.000000
0.704320 1.000000 0.006660
0.703801 1.000000 0.157220
0.703313 1.000000 0.298719
0.702840 1.000000 0.435806
0.702377 1.000000 0.569960
0.701922 1.000000 0.701922
0.701472 1.000000 0.832138
0.701028 1.000000 0.960906
0.700883 1.000000 1.000000
0.867714 0.039389 0.039389
0.867195 0.038870 0.189949
0.866707 0.038381 0.331447
0.866234 0.037908 0.468535
0.865771 0.037446 0.602689
0.865316 0.036990 0.734650
0.864866 0.036541 0.864866
0.864422 0.036097 0.993635
0.864277 0.035951 1.000000
0.862569 0.185323 0.034244
0.862049 0.184804 0.184804
0.861561 0.184316 0.326302
0.861088 0.183843 0.463390
0.860625 0.183380 0.597543
0.860170 0.182925 0.729505
0.859721 0.182475 0.859721
0.859277 0.182031 0.988489
0.859131 0.181886 1.000000
0.857733 0.322474 0.029408
0.857214 0.321955 0.179968
0.856726 0.321466 0.321466
0.856253 0.320993 0.458554
0.855790 0.320531 0.592708
0.855335 0.320075 0.724669
0.854885 0.319626 0.854885
0.854441 0.319182 0.983654
0.854296 0.319036 1.000000
0.853048 0.455349 0.024723
0.852529 0.454830 0.175283
0.852041 0.454342 0.316782
0.851568 0.453869 0.453869
0.851105 0.453406 0.588023
0.850650 0.452951 0.719984
0.850200 0.452502 0.850200
0.849756 0.452057 0.978969
0.849611 0.451912 1.000000
0.848464 0.585381 0.020138
0.847944 0.584862 0.170699
0.847456 0.584374 0.312197
0.846983 0.583901 0.449284
0.846520 0.583438 0.583438
0.846065 0.582983 0.715400
0.845616 0.582534 0.845616
0.845171 0.582089 0.974384
0.845026 0.581944 1.000000
0.843954 0.713289 0.015629
0.843434 0.712769 0.166189
0.842946 0.712281 0.307687
0.842473 0.711808 0.444775
0.842010 0.711345 0.578928
0.841555 0.710890 0.710890
0.841106 0.710441 0.841106
0.840662 0.709996 0.969874
0.840516 0.709851 1.000000
0.839504 0.839504 0.011179
0.838984 0.838984 0.161739
0.838496 0.838496 0.303237
0.838023 0.838023 0.440324
0.837560 0.837560 0.574478
0.837105 0.837105 0.706440
0.836656 0.836656 0.836656
0.836212 0.836212 0.965424
0.836066 0.836066 1.000000
0.835103 0.964316 0.006778
0.834584 0.963796 0.157338
0.834096 0.963308 0.298836
0.833623 0.962835 0.435924
0.833160 0.962373 0.570078
0.832705 0.961917 0.702039
0.832255 0.961468 0.832255
0.831811 0.961024 0.961024
0.831666 0.960878 1.000000
0.833663 1.000000 0.005337
0.833143 1.000000 0.155898
0.832655 1.000000 0.297396
0.832182 1.000000 0.434483
0.831719 1.000000 0.568637
0.831264 1.000000 0.700599
0.830815 1.000000 0.830815
0.830370 1.000000 0.959583
0.830225 1.000000 1.000000
0.995619 0.038081 0.038081
0.995099 0.037561 0.188641
0.994611 0.037073 0.330139
0.994138 0.036600 0.467227
0.993675 0.036137 0.601381
0.993220 0.035682 0.733342
0.992771 0.035233 0.863558
0.992327 0.034789 0.992327
0.992181 0.034643 1.000000
0.990473 0.184015 0.032936
0.989954 0.183496 0.183496
0.989466 0.183007 0.324994
0.988993 0.182535 0.462081
0.988530 0.182072 0.596235
0.988075 0.181616 0.728197
0.987626 0.181167 0.858413
0.987181 0.180723 0.987181
0.987036 0.180578 1.000000
0.985638 0.321166 0.028100
0.985118 0.320646 0.178660
0.984630 0.320158 0.320158
0.984157 0.319685 0.457246
0.983694 0.319223 0.591400
0.983239 0.318767 0.723361
0.982790 0.318318 0.853577
0.982346 0.317874 0.982346
0.982200 0.317728 1.000000
0.980953 0.454041 0.023415
0.980433 0.453522 0.173975
0.979945 0.453034 0.315473
0.979472 0.452561 0.452561
0.979009 0.452098 0.586715
0.978554 0.451643 0.718676
0.978105 0.451194 0.848892
0.977661 0.450749 0.977661
0.977515 0.450604 1.000000
0.976368 0.584073 0.018830
0.975849 0.583554 0.169390
0.975361 0.583066 0.310889
0.974888 0.582593 0.447976
0.974425 0.582130 0.582130
0.973970 0.581675 0.714092
0.973520 0.581225 0.844308
0.973076 0.580781 0.973076
0.972931 0.580636 1.000000
0.971858 0.711980 0.014321
0.971339 0.711461 0.164881
0.970851 0.710973 0.306379
0.970378 0.710500 0.443466
0.969915 0.710037 0.577620
0.969460 0.709582 0.709582
0.969011 0.709133 0.839798
0.968566 0.708688 0.968566
0.968421 0.708543 1.000000
0.967408 0.838196 0.009870
0.966889 0.837676 0.160431
0.966401 0.837188 0.301929
0.965928 0.836715 0.439016
0.965465 0.836252 0.573170
0.965010 0.835797 0.705132
0.964561 0.835348 0.835348
0.964116 0.834904 0.964116
0.963971 0.834758 1.000000
0.963008 0.963008 0.005470
0.962488 0.962488 0.156030
0.962000 0.962000 0.297528
0.961527 0.961527 0.434616
0.961064 0.961064 0.568770
0.960609 0.960609 0.700731
0.960160 0.960160 0.830947
0.959716 0.959716 0.959716
0.959570 0.959570 1.000000
0.961567 1.000000 0.004029
0.961048 1.000000 0.154589
0.960560 1.000000 0.296088
0.960087 1.000000 0.433175
0.959624 1.000000 0.567329
0.959169 1.000000 0.699291
0.958719 1.000000 0.829507
0.958275 1.000000 0.958275
0.958130 1.000000 1.000000
1.000000 0.037653 0.037653
1.000000 0.037133 0.188213
1.000000 0.036645 0.329711
1.000000 0.036172 0.466799
1.000000 0.035709 0.600952
1.000000 0.035254 0.732914
1.000000 0.034805 0.863130
1.000000 0.034361 0.991898
1.000000 0.034215 1.000000
1.000000 0.183587 0.032507
1.000000 0.183067 0.183067
1.000000 0.182579 0.324566
1.000000 0.182106 0.461653
1.000000 0.181643 0.595807
1.000000 0.181188 0.727769
1.000000 0.180739 0.857985
1.000000 0.180295 0.986753
1.000000 0.180149 1.000000
1.000000 0.320738 0.027672
1.000000 0.320218 0.178232
1.000000 0.319730 0.319730
1.000000 0.319257 0.456818
1.000000 0.318794 0.590971
1.000000 0.318339 0.722933
1.000000 0.317890 0.853149
1.000000 0.317446 0.981917
1.000000 0.317300 1.000000
1.000000 0.453613 0.022987
1.000000 0.453094 0.173547
1.000000 0.452606 0.315045
1.000000 0.452133 0.452133
1.000000 0.451670 0.586286
1.000000 0.451215 0.718248
1.000000 0.450765 0.848464
1.000000 0.450321 0.977233
1.000000 0.450176 1.000000
1.000000 0.583645 0.018402
1.000000 0.583126 0.168962
1.000000 0.582637 0.310460
1.000000 0.582165 0.447548
1.000000 0.581702 0.581702
1.000000 0.581246 0.713663
1.000000 0.580797 0.843879
1.000000 0.580353 0.972648
1.000000 0.580208 1.000000
1.000000 0.711552 0.013892
1.000000 0.711033 0.164452
1.000000 0.710545 0.305951
1.000000 0.710072 0.443038
1.000000 0.709609 0.577192
1.000000 0.709154 0.709154
1.000000 0.708704 0.839370
1.000000 0.708260 0.968138
1.000000 0.708115 1.000000
1.000000 0.837767 0.009442
1.000000 0.837248 0.160002
1.000000 0.836760 0.301501
1.000000 0.836287 0.438588
1.000000 0.835824 0.572742
1.000000 0.835369 0.704704
1.000000 0.834920 0.834920
1.000000 0.834475 0.963688
1.000000 0.834330 1.000000
1.000000 0.962580 0.005042
1.000000 0.962060 0.155602
1.000000 0.961572 0.297100
1.000000 0.961099 0.434188
1.000000 0.960636 0.568341
1.000000 0.960181 0.700303
1.000000 0.959732 0.830519
1.000000 0.959287 0.959287
1.000000 0.959142 1.000000
1.000000 1.000000 0.003601
1.000000 1.000000 0.154161
1.000000 1.000000 0.295659
1.000000 1.000000 0.432747
1.000000 1.000000 0.566901
1.000000 1.000000 0.698862
1.000000 1.000000 0.829078
1.000000 1.000000 0.957847
1.000000 1.000000 1.000000
