skills/creativeops-producer/assets/grade/luts/clean_bright_v08.cube
TITLE "clean_bright_v08"
LUT_3D_SIZE 5
DOMAIN_MIN 0.0 0.0 0.0
DOMAIN_MAX 1.0 1.0 1.0
0.022946 0.022946 0.022946
0.022594 0.022594 0.292852
0.022256 0.022256 0.550919
0.021925 0.021925 0.804053
0.021647 0.021647 1.000000
0.019450 0.289709 0.019450
0.019097 0.289356 0.289356
0.018760 0.289018 0.547423
0.018429 0.288687 0.800557
0.018151 0.288409 1.000000
0.016107 0.544771 0.016107
0.015755 0.544418 0.286013
0.015417 0.544080 0.544080
0.015086 0.543749 0.797214
0.014808 0.543471 1.000000
0.012829 0.794957 0.012829
0.012476 0.794604 0.282734
0.012138 0.794266 0.540801
0.011807 0.793935 0.793935
0.011529 0.793657 1.000000
0.010074 1.000000 0.010074
0.009721 1.000000 0.279980
0.009384 1.000000 0.538047
0.009053 1.000000 0.791181
0.008775 1.000000 1.000000
0.292166 0.021907 0.021907
0.291813 0.021554 0.291813
0.291475 0.021217 0.549880
0.291144 0.020886 0.803014
0.290866 0.020608 1.000000
0.288670 0.288670 0.018411
0.288317 0.288317 0.288317
0.287979 0.287979 0.546384
0.287648 0.287648 0.799518
0.287370 0.287370 1.000000
0.285327 0.543731 0.015068
0.284974 0.543378 0.284974
0.284636 0.543041 0.543041
0.284305 0.542710 0.796175
0.284027 0.542432 1.000000
0.282048 0.793917 0.011789
0.281695 0.793564 0.281695
0.281357 0.793227 0.539762
0.281026 0.792896 0.792896
0.280748 0.792618 1.000000
0.279293 1.000000 0.009035
0.278940 1.000000 0.278940
0.278603 1.000000 0.537007
0.278272 1.000000 0.790141
0.277994 1.000000 1.000000
0.549577 0.020914 0.020914
0.549224 0.020561 0.290819
0.548886 0.020223 0.548886
0.548555 0.019892 0.802020
0.548277 0.019614 1.000000
0.546080 0.287676 0.017417
0.545727 0.287323 0.287323
0.545390 0.286985 0.545390
0.545059 0.286654 0.798524
0.544781 0.286376 1.000000
0.542738 0.542738 0.014075
0.542385 0.542385 0.283980
0.542047 0.542047 0.542047
0.541716 0.541716 0.795181
0.541438 0.541438 1.000000
0.539459 0.792924 0.010796
0.539106 0.792571 0.280701
0.538768 0.792233 0.538768
0.538437 0.791902 0.791902
0.538159 0.791624 1.000000
0.536704 1.000000 0.008041
0.536351 1.000000 0.277947
0.536014 1.000000 0.536014
0.535683 1.000000 0.789148
0.535405 1.000000 1.000000
0.802067 0.019939 0.019939
0.801714 0.019586 0.289844
0.801377 0.019248 0.547911
0.801046 0.018917 0.801046
0.800767 0.018639 1.000000
0.798571 0.286701 0.016443
0.798218 0.286348 0.286348
0.797880 0.286011 0.544415
0.797549 0.285680 0.797549
0.797271 0.285402 1.000000
0.795228 0.541763 0.013100
0.794875 0.541410 0.283005
0.794538 0.541072 0.541072
0.794206 0.540741 0.794206
0.793928 0.540463 1.000000
0.791949 0.791949 0.009821
0.791596 0.791596 0.279726
0.791259 0.791259 0.537794
0.790928 0.790928 0.790928
0.790649 0.790649 1.000000
0.789195 1.000000 0.007066
0.788842 1.000000 0.276972
0.788504 1.000000 0.535039
0.788173 1.000000 0.788173
0.787895 1.000000 1.000000
1.000000 0.019120 0.019120
1.000000 0.018767 0.289026
1.000000 0.018430 0.547093
1.000000 0.018099 0.800227
1.000000 0.017821 1.000000
1.000000 0.285882 0.015624
1.000000 0.285529 0.285529
1.000000 0.285192 0.543596
1.000000 0.284861 0.796731
1.000000 0.284583 1.000000
1.000000 0.540944 0.012281
1.000000 0.540591 0.282187
1.000000 0.540254 0.540254
1.000000 0.539923 0.793388
1.000000 0.539645 1.000000
1.000000 0.791130 0.009002
1.000000 0.790777 0.278908
1.000000 0.790440 0.536975
1.000000 0.790109 0.790109
1.000000 0.789831 1.000000
1.000000 1.000000 0.006248
1.000000 1.000000 0.276153
1.000000 1.000000 0.534220
1.000000 1.000000 0.787354
1.000000 1.000000 1.000000
