skills/creativeops-producer/assets/grade/luts/clean_bright_v15.cube
TITLE "clean_bright_v15"
LUT_3D_SIZE 5
DOMAIN_MIN 0.0 0.0 0.0
DOMAIN_MAX 1.0 1.0 1.0
0.036786 0.036786 0.036786
0.036058 0.036058 0.319846
0.035374 0.035374 0.585759
0.034709 0.034709 0.844331
0.034224 0.034224 1.000000
0.029574 0.313362 0.029574
0.028846 0.312634 0.312634
0.028162 0.311950 0.578547
0.027497 0.311285 0.837119
0.027012 0.310800 1.000000
0.022799 0.573184 0.022799
0.022071 0.572456 0.305859
0.021387 0.571772 0.571772
0.020722 0.571107 0.830344
0.020237 0.570622 1.000000
0.016211 0.825833 0.016211
0.015483 0.825105 0.299271
0.014799 0.824421 0.565184
0.014134 0.823756 0.823756
0.013649 0.823271 1.000000
0.011406 1.000000 0.011406
0.010678 1.000000 0.294466
0.009994 1.000000 0.560379
0.009329 1.000000 0.818951
0.008844 1.000000 1.000000
0.318430 0.034642 0.034642
0.317702 0.033914 0.317702
0.317018 0.033230 0.583615
0.316353 0.032565 0.842187
0.315868 0.032080 1.000000
0.311218 0.311218 0.027430
0.310490 0.310490 0.310490
0.309806 0.309806 0.576403
0.309141 0.309141 0.834975
0.308656 0.308656 1.000000
0.304443 0.571040 0.020655
0.303715 0.570312 0.303715
0.303031 0.569628 0.569628
0.302366 0.568963 0.828200
0.301881 0.568478 1.000000
0.297855 0.823689 0.014067
0.297127 0.822961 0.297127
0.296443 0.822277 0.563040
0.295778 0.821612 0.821612
0.295293 0.821127 1.000000
0.293050 1.000000 0.009262
0.292322 1.000000 0.292322
0.291638 1.000000 0.558235
0.290973 1.000000 0.816807
0.290488 1.000000 1.000000
0.583013 0.032628 0.032628
0.582285 0.031900 0.315688
0.581601 0.031216 0.581601
0.580936 0.030551 0.840173
0.580451 0.030066 1.000000
0.575801 0.309204 0.025416
0.575073 0.308476 0.308476
0.574389 0.307792 0.574389
0.573724 0.307127 0.832961
0.573239 0.306642 1.000000
0.569026 0.569026 0.018641
0.568298 0.568298 0.301701
0.567614 0.567614 0.567614
0.566949 0.566949 0.826186
0.566464 0.566464 1.000000
0.562438 0.821675 0.012053
0.561710 0.820947 0.295113
0.561026 0.820263 0.561026
0.560361 0.819598 0.819598
0.559876 0.819113 1.000000
0.557633 1.000000 0.007248
0.556905 1.000000 0.290308
0.556221 1.000000 0.556221
0.555556 1.000000 0.814793
0.555071 1.000000 1.000000
0.840292 0.030670 0.030670
0.839564 0.029942 0.313730
0.838880 0.029258 0.579643
0.838215 0.028593 0.838215
0.837730 0.028108 1.000000
0.833080 0.307246 0.023458
0.832352 0.306518 0.306518
0.831668 0.305834 0.572431
0.831003 0.305169 0.831003
0.830518 0.304684 1.000000
0.826305 0.567068 0.016683
0.825577 0.566340 0.299743
0.824893 0.565656 0.565656
0.824228 0.564991 0.824228
0.823743 0.564505 1.000000
0.819717 0.819717 0.010095
0.818989 0.818989 0.293155
0.818305 0.818305 0.559068
0.817640 0.817640 0.817640
0.817155 0.817155 1.000000
0.814912 1.000000 0.005290
0.814184 1.000000 0.288350
0.813500 1.000000 0.554262
0.812835 1.000000 0.812835
0.812349 1.000000 1.000000
1.000000 0.029242 0.029242
1.000000 0.028514 0.312301
1.000000 0.027830 0.578214
1.000000 0.027165 0.836786
1.000000 0.026680 1.000000
1.000000 0.305817 0.022030
1.000000 0.305089 0.305089
1.000000 0.304405 0.571002
1.000000 0.303740 0.829574
1.000000 0.303255 1.000000
1.000000 0.565639 0.015255
1.000000 0.564911 0.298314
1.000000 0.564227 0.564227
1.000000 0.563562 0.822799
1.000000 0.563077 1.000000
1.000000 0.818288 0.008667
1.000000 0.817560 0.291726
1.000000 0.816876 0.557639
1.000000 0.816211 0.816211
1.000000 0.815726 1.000000
1.000000 1.000000 0.003861
1.000000 1.000000 0.286921
1.000000 1.000000 0.552834
1.000000 1.000000 0.811406
1.000000 1.000000 1.000000
