skills/creativeops-producer/assets/grade/luts/clean_bright_v08.cube
TITLE "clean_bright_v08"
LUT_3D_SIZE 17
DOMAIN_MIN 0.0 0.0 0.0
DOMAIN_MAX 1.0 1.0 1.0
0.022946 0.022946 0.022946
0.022855 0.022855 0.092912
0.022767 0.022767 0.160589
0.022680 0.022680 0.227110
0.022594 0.022594 0.292852
0.022508 0.022508 0.358005
0.022424 0.022424 0.422685
0.022340 0.022340 0.486971
0.022256 0.022256 0.550919
0.022173 0.022173 0.614571
0.022090 0.022090 0.677961
0.022007 0.022007 0.741114
0.021925 0.021925 0.804053
0.021843 0.021843 0.866796
0.021761 0.021761 0.929357
0.021680 0.021680 0.991751
0.021647 0.021647 1.000000
0.022040 0.092098 0.022040
0.021949 0.092006 0.092006
0.021860 0.091918 0.159682
0.021773 0.091831 0.226204
0.021687 0.091745 0.291946
0.021602 0.091659 0.357099
0.021517 0.091575 0.421779
0.021433 0.091491 0.486065
0.021350 0.091407 0.550013
0.021267 0.091324 0.613665
0.021184 0.091241 0.677055
0.021101 0.091158 0.740208
0.021019 0.091076 0.803147
0.020937 0.090994 0.865889
0.020855 0.090912 0.928451
0.020773 0.090831 0.990845
0.020741 0.090798 1.000000
0.021164 0.158986 0.021164
0.021072 0.158894 0.091129
0.020984 0.158806 0.158806
0.020897 0.158719 0.225327
0.020811 0.158633 0.291069
0.020725 0.158548 0.356222
0.020641 0.158463 0.420902
0.020557 0.158379 0.485188
0.020473 0.158295 0.549136
0.020390 0.158212 0.612788
0.020307 0.158129 0.676178
0.020224 0.158047 0.739331
0.020142 0.157964 0.802270
0.020060 0.157882 0.865013
0.019978 0.157800 0.927574
0.019897 0.157719 0.989968
0.019864 0.157686 1.000000
0.020302 0.224733 0.020302
0.020210 0.224641 0.090268
0.020122 0.224553 0.157944
0.020035 0.224466 0.224466
0.019949 0.224380 0.290207
0.019864 0.224295 0.355360
0.019779 0.224210 0.420041
0.019695 0.224126 0.484327
0.019611 0.224042 0.548275
0.019528 0.223959 0.611927
0.019445 0.223876 0.675316
0.019363 0.223794 0.738470
0.019280 0.223711 0.801409
0.019198 0.223629 0.864151
0.019117 0.223547 0.926713
0.019035 0.223466 0.989106
0.019002 0.223433 1.000000
0.019450 0.289709 0.019450
0.019359 0.289617 0.089416
0.019270 0.289529 0.157092
0.019183 0.289442 0.223614
0.019097 0.289356 0.289356
0.019012 0.289271 0.354509
0.018928 0.289186 0.419189
0.018844 0.289102 0.483475
0.018760 0.289018 0.547423
0.018677 0.288935 0.611075
0.018594 0.288852 0.674465
0.018511 0.288770 0.737618
0.018429 0.288687 0.800557
0.018347 0.288605 0.863300
0.018265 0.288524 0.925861
0.018183 0.288442 0.988255
0.018151 0.288409 1.000000
0.018606 0.354103 0.018606
0.018515 0.354011 0.088572
0.018426 0.353923 0.156248
0.018339 0.353836 0.222770
0.018253 0.353750 0.288512
0.018168 0.353665 0.353665
0.018084 0.353580 0.418345
0.018000 0.353496 0.482631
0.017916 0.353413 0.546579
0.017833 0.353329 0.610231
0.017750 0.353246 0.673621
0.017667 0.353164 0.736774
0.017585 0.353082 0.799713
0.017503 0.352999 0.862456
0.017421 0.352918 0.925017
0.017340 0.352836 0.987411
0.017307 0.352803 1.000000
0.017769 0.418030 0.017769
0.017677 0.417939 0.087734
0.017589 0.417850 0.155411
0.017502 0.417763 0.221932
0.017416 0.417677 0.287674
0.017330 0.417592 0.352827
0.017246 0.417507 0.417507
0.017162 0.417423 0.481793
0.017078 0.417340 0.545741
0.016995 0.417256 0.609393
0.016912 0.417173 0.672783
0.016829 0.417091 0.735936
0.016747 0.417009 0.798875
0.016665 0.416927 0.861618
0.016583 0.416845 0.924179
0.016502 0.416763 0.986573
0.016469 0.416731 1.000000
0.016936 0.481567 0.016936
0.016844 0.481476 0.086902
0.016756 0.481387 0.154578
0.016669 0.481300 0.221100
0.016583 0.481214 0.286841
0.016498 0.481129 0.351994
0.016413 0.481045 0.416675
0.016329 0.480961 0.480961
0.016245 0.480877 0.544908
0.016162 0.480794 0.608561
0.016079 0.480711 0.671950
0.015997 0.480628 0.735104
0.015914 0.480546 0.798042
0.015832 0.480464 0.860785
0.015751 0.480382 0.923347
0.015669 0.480300 0.985740
0.015636 0.480268 1.000000
0.016107 0.544771 0.016107
0.016016 0.544679 0.086073
0.015927 0.544591 0.153750
0.015841 0.544504 0.220271
0.015755 0.544418 0.286013
0.015669 0.544332 0.351166
0.015585 0.544248 0.415846
0.015501 0.544164 0.480132
0.015417 0.544080 0.544080
0.015334 0.543997 0.607732
0.015251 0.543914 0.671122
0.015168 0.543831 0.734275
0.015086 0.543749 0.797214
0.015004 0.543667 0.859957
0.014922 0.543585 0.922518
0.014841 0.543504 0.984912
0.014808 0.543471 1.000000
0.015283 0.607681 0.015283
0.015191 0.607590 0.085249
0.015103 0.607501 0.152925
0.015016 0.607414 0.219447
0.014930 0.607328 0.285189
0.014845 0.607243 0.350341
0.014760 0.607159 0.415022
0.014676 0.607075 0.479308
0.014593 0.606991 0.543256
0.014509 0.606908 0.606908
0.014426 0.606825 0.670297
0.014344 0.606742 0.733451
0.014262 0.606660 0.796390
0.014180 0.606578 0.859132
0.014098 0.606496 0.921694
0.014016 0.606415 0.984087
0.013983 0.606382 1.000000
0.014462 0.670333 0.014462
0.014370 0.670241 0.084428
0.014282 0.670153 0.152104
0.014195 0.670066 0.218626
0.014109 0.669980 0.284367
0.014024 0.669895 0.349520
0.013939 0.669810 0.414201
0.013855 0.669726 0.478487
0.013771 0.669642 0.542434
0.013688 0.669559 0.606087
0.013605 0.669476 0.669476
0.013523 0.669394 0.732630
0.013440 0.669311 0.795569
0.013358 0.669229 0.858311
0.013277 0.669147 0.920873
0.013195 0.669066 0.983266
0.013162 0.669033 1.000000
0.013644 0.732751 0.013644
0.013552 0.732659 0.083610
0.013464 0.732571 0.151286
0.013377 0.732484 0.217808
0.013291 0.732398 0.283549
0.013206 0.732313 0.348702
0.013121 0.732228 0.413383
0.013037 0.732144 0.477669
0.012953 0.732060 0.541616
0.012870 0.731977 0.605269
0.012787 0.731894 0.668658
0.012705 0.731812 0.731812
0.012622 0.731729 0.794750
0.012540 0.731647 0.857493
0.012459 0.731565 0.920055
0.012377 0.731484 0.982448
0.012344 0.731451 1.000000
0.012829 0.794957 0.012829
0.012737 0.794865 0.082794
0.012649 0.794777 0.150471
0.012562 0.794690 0.216992
0.012476 0.794604 0.282734
0.012390 0.794518 0.347887
0.012306 0.794434 0.412567
0.012222 0.794350 0.476853
0.012138 0.794266 0.540801
0.012055 0.794183 0.604453
0.011972 0.794100 0.667843
0.011889 0.794018 0.730996
0.011807 0.793935 0.793935
0.011725 0.793853 0.856678
0.011643 0.793771 0.919239
0.011562 0.793690 0.981633
0.011529 0.793657 1.000000
0.012016 0.856969 0.012016
0.011924 0.856877 0.081982
0.011836 0.856789 0.149658
0.011749 0.856702 0.216180
0.011663 0.856616 0.281921
0.011578 0.856530 0.347074
0.011493 0.856446 0.411755
0.011409 0.856362 0.476041
0.011325 0.856278 0.539988
0.011242 0.856195 0.603641
0.011159 0.856112 0.667030
0.011077 0.856029 0.730184
0.010994 0.855947 0.793122
0.010912 0.855865 0.855865
0.010831 0.855783 0.918427
0.010749 0.855702 0.980820
0.010716 0.855669 1.000000
0.011205 0.918801 0.011205
0.011114 0.918710 0.081171
0.011025 0.918622 0.148848
0.010938 0.918535 0.215369
0.010852 0.918449 0.281111
0.010767 0.918363 0.346264
0.010683 0.918279 0.410944
0.010599 0.918195 0.475230
0.010515 0.918111 0.539178
0.010432 0.918028 0.602830
0.010349 0.917945 0.666220
0.010266 0.917862 0.729373
0.010184 0.917780 0.792312
0.010102 0.917698 0.855055
0.010020 0.917616 0.917616
0.009939 0.917535 0.980010
0.009906 0.917502 1.000000
0.010397 0.980469 0.010397
0.010306 0.980377 0.080363
0.010217 0.980289 0.148039
0.010130 0.980202 0.214561
0.010044 0.980116 0.280303
0.009959 0.980030 0.345456
0.009875 0.979946 0.410136
0.009790 0.979862 0.474422
0.009707 0.979778 0.538370
0.009624 0.979695 0.602022
0.009541 0.979612 0.665412
0.009458 0.979529 0.728565
0.009376 0.979447 0.791504
0.009294 0.979365 0.854246
0.009212 0.979283 0.916808
0.009130 0.979202 0.979202
0.009098 0.979169 1.000000
0.010074 1.000000 0.010074
0.009983 1.000000 0.080040
0.009894 1.000000 0.147716
0.009807 1.000000 0.214238
0.009721 1.000000 0.279980
0.009636 1.000000 0.345133
0.009551 1.000000 0.409813
0.009467 1.000000 0.474099
0.009384 1.000000 0.538047
0.009300 1.000000 0.601699
0.009218 1.000000 0.665088
0.009135 1.000000 0.728242
0.009053 1.000000 0.791181
0.008971 1.000000 0.853923
0.008889 1.000000 0.916485
0.008807 1.000000 0.978879
0.008775 1.000000 1.000000
0.092734 0.022677 0.022677
0.092643 0.022586 0.092643
0.092554 0.022497 0.160319
0.092467 0.022410 0.226841
0.092381 0.022324 0.292583
0.092296 0.022239 0.357736
0.092212 0.022154 0.422416
0.092128 0.022070 0.486702
0.092044 0.021987 0.550650
0.091961 0.021903 0.614302
0.091878 0.021821 0.677691
0.091795 0.021738 0.740845
0.091713 0.021656 0.803784
0.091631 0.021574 0.866526
0.091549 0.021492 0.929088
0.091468 0.021410 0.991482
0.091435 0.021378 1.000000
0.091828 0.091828 0.021771
0.091737 0.091737 0.091737
0.091648 0.091648 0.159413
0.091561 0.091561 0.225935
0.091475 0.091475 0.291676
0.091390 0.091390 0.356829
0.091305 0.091305 0.421510
0.091221 0.091221 0.485796
0.091138 0.091138 0.549743
0.091054 0.091054 0.613396
0.090972 0.090972 0.676785
0.090889 0.090889 0.739939
0.090807 0.090807 0.802877
0.090725 0.090725 0.865620
0.090643 0.090643 0.928182
0.090561 0.090561 0.990575
0.090529 0.090529 1.000000
0.090951 0.158716 0.020894
0.090860 0.158625 0.090860
0.090772 0.158536 0.158536
0.090685 0.158449 0.225058
0.090599 0.158363 0.290800
0.090513 0.158278 0.355953
0.090429 0.158194 0.420633
0.090345 0.158109 0.484919
0.090261 0.158026 0.548867
0.090178 0.157943 0.612519
0.090095 0.157860 0.675909
0.090012 0.157777 0.739062
0.089930 0.157695 0.802001
0.089848 0.157613 0.864743
0.089766 0.157531 0.927305
0.089685 0.157449 0.989699
0.089652 0.157417 1.000000
0.090090 0.224463 0.020032
0.089998 0.224372 0.089998
0.089910 0.224283 0.157675
0.089823 0.224196 0.224196
0.089737 0.224110 0.289938
0.089652 0.224025 0.355091
0.089567 0.223941 0.419771
0.089483 0.223856 0.484057
0.089399 0.223773 0.548005
0.089316 0.223690 0.611657
0.089233 0.223607 0.675047
0.089151 0.223524 0.738200
0.089068 0.223442 0.801139
0.088986 0.223360 0.863882
0.088905 0.223278 0.926443
0.088823 0.223196 0.988837
0.088790 0.223164 1.000000
0.089238 0.289439 0.019181
0.089147 0.289348 0.089147
0.089058 0.289259 0.156823
0.088971 0.289172 0.223345
0.088885 0.289086 0.289086
0.088800 0.289001 0.354239
0.088716 0.288917 0.418920
0.088631 0.288833 0.483206
0.088548 0.288749 0.547154
0.088465 0.288666 0.610806
0.088382 0.288583 0.674195
0.088299 0.288500 0.737349
0.088217 0.288418 0.800288
0.088135 0.288336 0.863030
0.088053 0.288254 0.925592
0.087971 0.288173 0.987985
0.087939 0.288140 1.000000
0.088394 0.353834 0.018337
0.088303 0.353742 0.088303
0.088214 0.353654 0.155979
0.088127 0.353567 0.222501
0.088041 0.353481 0.288243
0.087956 0.353395 0.353395
0.087872 0.353311 0.418076
0.087788 0.353227 0.482362
0.087704 0.353143 0.546310
0.087621 0.353060 0.609962
0.087538 0.352977 0.673351
0.087455 0.352894 0.736505
0.087373 0.352812 0.799444
0.087291 0.352730 0.862186
0.087209 0.352648 0.924748
0.087127 0.352567 0.987141
0.087095 0.352534 1.000000
0.087556 0.417761 0.017499
0.087465 0.417669 0.087465
0.087376 0.417581 0.155141
0.087289 0.417494 0.221663
0.087204 0.417408 0.287405
0.087118 0.417322 0.352558
0.087034 0.417238 0.417238
0.086950 0.417154 0.481524
0.086866 0.417070 0.545472
0.086783 0.416987 0.609124
0.086700 0.416904 0.672514
0.086617 0.416821 0.735667
0.086535 0.416739 0.798606
0.086453 0.416657 0.861348
0.086371 0.416575 0.923910
0.086290 0.416494 0.986304
0.086257 0.416461 1.000000
0.086724 0.481298 0.016666
0.086632 0.481206 0.086632
0.086544 0.481118 0.154309
0.086457 0.481031 0.220830
0.086371 0.480945 0.286572
0.086286 0.480860 0.351725
0.086201 0.480775 0.416405
0.086117 0.480691 0.480691
0.086033 0.480608 0.544639
0.085950 0.480524 0.608291
0.085867 0.480441 0.671681
0.085785 0.480359 0.734834
0.085702 0.480276 0.797773
0.085620 0.480194 0.860516
0.085538 0.480113 0.923077
0.085457 0.480031 0.985471
0.085424 0.479998 1.000000
0.085895 0.544501 0.015838
0.085804 0.544410 0.085804
0.085715 0.544321 0.153480
0.085628 0.544234 0.220002
0.085542 0.544148 0.285744
0.085457 0.544063 0.350897
0.085373 0.543978 0.415577
0.085289 0.543894 0.479863
0.085205 0.543811 0.543811
0.085122 0.543727 0.607463
0.085039 0.543645 0.670852
0.084956 0.543562 0.734006
0.084874 0.543480 0.796945
0.084792 0.543398 0.859687
0.084710 0.543316 0.922249
0.084629 0.543234 0.984643
0.084596 0.543202 1.000000
0.085071 0.607412 0.015014
0.084979 0.607321 0.084979
0.084891 0.607232 0.152656
0.084804 0.607145 0.219177
0.084718 0.607059 0.284919
0.084633 0.606974 0.350072
0.084548 0.606889 0.414752
0.084464 0.606805 0.479038
0.084380 0.606722 0.542986
0.084297 0.606638 0.606638
0.084214 0.606555 0.670028
0.084132 0.606473 0.733181
0.084049 0.606391 0.796120
0.083967 0.606309 0.858863
0.083886 0.606227 0.921424
0.083804 0.606145 0.983818
0.083771 0.606113 1.000000
0.084250 0.670063 0.014192
0.084158 0.669972 0.084158
0.084070 0.669883 0.151835
0.083983 0.669796 0.218356
0.083897 0.669710 0.284098
0.083812 0.669625 0.349251
0.083727 0.669541 0.413931
0.083643 0.669457 0.478217
0.083559 0.669373 0.542165
0.083476 0.669290 0.605817
0.083393 0.669207 0.669207
0.083311 0.669124 0.732360
0.083228 0.669042 0.795299
0.083146 0.668960 0.858042
0.083065 0.668878 0.920603
0.082983 0.668796 0.982997
0.082950 0.668764 1.000000
0.083432 0.732481 0.013374
0.083340 0.732390 0.083340
0.083252 0.732301 0.151016
0.083165 0.732214 0.217538
0.083079 0.732128 0.283280
0.082994 0.732043 0.348433
0.082909 0.731959 0.413113
0.082825 0.731874 0.477399
0.082741 0.731791 0.541347
0.082658 0.731708 0.604999
0.082575 0.731625 0.668389
0.082493 0.731542 0.731542
0.082410 0.731460 0.794481
0.082328 0.731378 0.857224
0.082246 0.731296 0.919785
0.082165 0.731214 0.982179
0.082132 0.731182 1.000000
0.082616 0.794687 0.012559
0.082525 0.794596 0.082525
0.082436 0.794507 0.150201
0.082349 0.794420 0.216723
0.082264 0.794334 0.282465
0.082178 0.794249 0.347618
0.082094 0.794165 0.412298
0.082010 0.794080 0.476584
0.081926 0.793997 0.540532
0.081843 0.793914 0.604184
0.081760 0.793831 0.667574
0.081677 0.793748 0.730727
0.081595 0.793666 0.793666
0.081513 0.793584 0.856408
0.081431 0.793502 0.918970
0.081350 0.793420 0.981364
0.081317 0.793388 1.000000
0.081804 0.856699 0.011746
0.081712 0.856608 0.081712
0.081624 0.856519 0.149389
0.081537 0.856432 0.215910
0.081451 0.856346 0.281652
0.081366 0.856261 0.346805
0.081281 0.856176 0.411485
0.081197 0.856092 0.475771
0.081113 0.856009 0.539719
0.081030 0.855925 0.603371
0.080947 0.855843 0.666761
0.080865 0.855760 0.729914
0.080782 0.855678 0.792853
0.080700 0.855596 0.855596
0.080618 0.855514 0.918157
0.080537 0.855432 0.980551
0.080504 0.855400 1.000000
0.080993 0.918532 0.010936
0.080902 0.918441 0.080902
0.080813 0.918352 0.148578
0.080726 0.918265 0.215100
0.080640 0.918179 0.280842
0.080555 0.918094 0.345994
0.080471 0.918009 0.410675
0.080387 0.917925 0.474961
0.080303 0.917842 0.538909
0.080220 0.917758 0.602561
0.080137 0.917676 0.665950
0.080054 0.917593 0.729104
0.079972 0.917511 0.792043
0.079890 0.917429 0.854785
0.079808 0.917347 0.917347
0.079727 0.917265 0.979740
0.079694 0.917233 1.000000
0.080185 0.980199 0.010128
0.080094 0.980108 0.080094
0.080005 0.980019 0.147770
0.079918 0.979932 0.214292
0.079832 0.979846 0.280033
0.079747 0.979761 0.345186
0.079662 0.979676 0.409867
0.079578 0.979592 0.474153
0.079495 0.979509 0.538100
0.079412 0.979425 0.601753
0.079329 0.979343 0.665142
0.079246 0.979260 0.728296
0.079164 0.979178 0.791234
0.079082 0.979096 0.853977
0.079000 0.979014 0.916539
0.078918 0.978932 0.978932
0.078886 0.978900 1.000000
0.079862 1.000000 0.009805
0.079771 1.000000 0.079771
0.079682 1.000000 0.147447
0.079595 1.000000 0.213968
0.079509 1.000000 0.279710
0.079424 1.000000 0.344863
0.079339 1.000000 0.409543
0.079255 1.000000 0.473829
0.079172 1.000000 0.537777
0.079088 1.000000 0.601429
0.079005 1.000000 0.664819
0.078923 1.000000 0.727972
0.078841 1.000000 0.790911
0.078759 1.000000 0.853654
0.078677 1.000000 0.916215
0.078595 1.000000 0.978609
0.078563 1.000000 1.000000
0.160239 0.022416 0.022416
0.160147 0.022325 0.092382
0.160059 0.022237 0.160059
0.159972 0.022150 0.226580
0.159886 0.022064 0.292322
0.159800 0.021978 0.357475
0.159716 0.021894 0.422155
0.159632 0.021810 0.486441
0.159548 0.021726 0.550389
0.159465 0.021643 0.614041
0.159382 0.021560 0.677431
0.159299 0.021477 0.740584
0.159217 0.021395 0.803523
0.159135 0.021313 0.866266
0.159053 0.021231 0.928827
0.158972 0.021150 0.991221
0.158939 0.021117 1.000000
0.159332 0.091568 0.021510
0.159241 0.091476 0.091476
0.159152 0.091388 0.159152
0.159065 0.091301 0.225674
0.158979 0.091215 0.291416
0.158894 0.091129 0.356569
0.158810 0.091045 0.421249
0.158726 0.090961 0.485535
0.158642 0.090877 0.549483
0.158559 0.090794 0.613135
0.158476 0.090711 0.676525
0.158393 0.090628 0.739678
0.158311 0.090546 0.802617
0.158229 0.090464 0.865359
0.158147 0.090382 0.927921
0.158065 0.090301 0.990315
0.158033 0.090268 1.000000
0.158456 0.158456 0.020634
0.158364 0.158364 0.090599
0.158276 0.158276 0.158276
0.158189 0.158189 0.224797
0.158103 0.158103 0.290539
0.158018 0.158018 0.355692
0.157933 0.157933 0.420372
0.157849 0.157849 0.484658
0.157765 0.157765 0.548606
0.157682 0.157682 0.612258
0.157599 0.157599 0.675648
0.157517 0.157517 0.738801
0.157434 0.157434 0.801740
0.157352 0.157352 0.864483
0.157270 0.157270 0.927044
0.157189 0.157189 0.989438
0.157156 0.157156 1.000000
0.157594 0.224203 0.019772
0.157502 0.224111 0.089738
0.157414 0.224023 0.157414
0.157327 0.223936 0.223936
0.157241 0.223850 0.289677
0.157156 0.223765 0.354830
0.157071 0.223680 0.419511
0.156987 0.223596 0.483797
0.156904 0.223512 0.547745
0.156820 0.223429 0.611397
0.156737 0.223346 0.674786
0.156655 0.223264 0.737940
0.156573 0.223181 0.800879
0.156491 0.223099 0.863621
0.156409 0.223017 0.926183
0.156327 0.222936 0.988576
0.156294 0.222903 1.000000
0.156742 0.289179 0.018920
0.156651 0.289087 0.088886
0.156562 0.288999 0.156562
0.156475 0.288912 0.223084
0.156389 0.288826 0.288826
0.156304 0.288741 0.353979
0.156220 0.288656 0.418659
0.156136 0.288572 0.482945
0.156052 0.288488 0.546893
0.155969 0.288405 0.610545
0.155886 0.288322 0.673935
0.155803 0.288240 0.737088
0.155721 0.288157 0.800027
0.155639 0.288075 0.862770
0.155557 0.287994 0.925331
0.155476 0.287912 0.987725
0.155443 0.287879 1.000000
0.155898 0.353573 0.018076
0.155807 0.353481 0.088042
0.155718 0.353393 0.155718
0.155631 0.353306 0.222240
0.155546 0.353220 0.287982
0.155460 0.353135 0.353135
0.155376 0.353050 0.417815
0.155292 0.352966 0.482101
0.155208 0.352883 0.546049
0.155125 0.352799 0.609701
0.155042 0.352716 0.673091
0.154959 0.352634 0.736244
0.154877 0.352552 0.799183
0.154795 0.352469 0.861926
0.154713 0.352388 0.924487
0.154632 0.352306 0.986881
0.154599 0.352273 1.000000
0.155061 0.417500 0.017239
0.154969 0.417409 0.087204
0.154881 0.417320 0.154881
0.154794 0.417233 0.221402
0.154708 0.417147 0.287144
0.154622 0.417062 0.352297
0.154538 0.416977 0.416977
0.154454 0.416893 0.481263
0.154370 0.416810 0.545211
0.154287 0.416726 0.608863
0.154204 0.416643 0.672253
0.154122 0.416561 0.735406
0.154039 0.416479 0.798345
0.153957 0.416397 0.861088
0.153875 0.416315 0.923649
0.153794 0.416233 0.986043
0.153761 0.416201 1.000000
0.154228 0.481037 0.016406
0.154136 0.480946 0.086372
0.154048 0.480857 0.154048
0.153961 0.480770 0.220570
0.153875 0.480684 0.286311
0.153790 0.480599 0.351464
0.153705 0.480515 0.416145
0.153621 0.480431 0.480431
0.153537 0.480347 0.544378
0.153454 0.480264 0.608031
0.153371 0.480181 0.671420
0.153289 0.480098 0.734574
0.153206 0.480016 0.797512
0.153124 0.479934 0.860255
0.153043 0.479852 0.922817
0.152961 0.479770 0.985210
0.152928 0.479738 1.000000
0.153400 0.544241 0.015577
0.153308 0.544149 0.085543
0.153220 0.544061 0.153220
0.153133 0.543974 0.219741
0.153047 0.543888 0.285483
0.152961 0.543802 0.350636
0.152877 0.543718 0.415316
0.152793 0.543634 0.479602
0.152709 0.543550 0.543550
0.152626 0.543467 0.607202
0.152543 0.543384 0.670592
0.152460 0.543301 0.733745
0.152378 0.543219 0.796684
0.152296 0.543137 0.859427
0.152214 0.543055 0.921988
0.152133 0.542974 0.984382
0.152100 0.542941 1.000000
0.152575 0.607151 0.014753
0.152484 0.607060 0.084719
0.152395 0.606971 0.152395
0.152308 0.606884 0.218917
0.152222 0.606798 0.284659
0.152137 0.606713 0.349811
0.152052 0.606629 0.414492
0.151968 0.606545 0.478778
0.151885 0.606461 0.542726
0.151801 0.606378 0.606378
0.151719 0.606295 0.669767
0.151636 0.606212 0.732921
0.151554 0.606130 0.795860
0.151472 0.606048 0.858602
0.151390 0.605966 0.921164
0.151308 0.605885 0.983557
0.151276 0.605852 1.000000
0.151754 0.669803 0.013932
0.151662 0.669711 0.083898
0.151574 0.669623 0.151574
0.151487 0.669536 0.218096
0.151401 0.669450 0.283837
0.151316 0.669365 0.348990
0.151231 0.669280 0.413671
0.151147 0.669196 0.477957
0.151064 0.669112 0.541904
0.150980 0.669029 0.605557
0.150897 0.668946 0.668946
0.150815 0.668864 0.732100
0.150733 0.668781 0.795039
0.150650 0.668699 0.857781
0.150569 0.668618 0.920343
0.150487 0.668536 0.982736
0.150454 0.668503 1.000000
0.150936 0.732221 0.013114
0.150844 0.732129 0.083080
0.150756 0.732041 0.150756
0.150669 0.731954 0.217278
0.150583 0.731868 0.283019
0.150498 0.731783 0.348172
0.150413 0.731698 0.412853
0.150329 0.731614 0.477139
0.150245 0.731530 0.541086
0.150162 0.731447 0.604739
0.150079 0.731364 0.668128
0.149997 0.731282 0.731282
0.149914 0.731199 0.794220
0.149832 0.731117 0.856963
0.149751 0.731035 0.919525
0.149669 0.730954 0.981918
0.149636 0.730921 1.000000
0.150121 0.794427 0.012299
0.150029 0.794335 0.082264
0.149941 0.794247 0.149941
0.149854 0.794160 0.216462
0.149768 0.794074 0.282204
0.149682 0.793989 0.347357
0.149598 0.793904 0.412037
0.149514 0.793820 0.476323
0.149430 0.793736 0.540271
0.149347 0.793653 0.603923
0.149264 0.793570 0.667313
0.149182 0.793488 0.730466
0.149099 0.793405 0.793405
0.149017 0.793323 0.856148
0.148935 0.793241 0.918709
0.148854 0.793160 0.981103
0.148821 0.793127 1.000000
0.149308 0.856439 0.011486
0.149216 0.856347 0.081452
0.149128 0.856259 0.149128
0.149041 0.856172 0.215650
0.148955 0.856086 0.281391
0.148870 0.856000 0.346544
0.148785 0.855916 0.411225
0.148701 0.855832 0.475511
0.148617 0.855748 0.539458
0.148534 0.855665 0.603111
0.148451 0.855582 0.666500
0.148369 0.855499 0.729654
0.148286 0.855417 0.792592
0.148204 0.855335 0.855335
0.148123 0.855253 0.917897
0.148041 0.855172 0.980290
0.148008 0.855139 1.000000
0.148498 0.918271 0.010675
0.148406 0.918180 0.080641
0.148318 0.918092 0.148318
0.148231 0.918005 0.214839
0.148145 0.917919 0.280581
0.148059 0.917833 0.345734
0.147975 0.917749 0.410414
0.147891 0.917665 0.474700
0.147807 0.917581 0.538648
0.147724 0.917498 0.602300
0.147641 0.917415 0.665690
0.147558 0.917332 0.728843
0.147476 0.917250 0.791782
0.147394 0.917168 0.854525
0.147312 0.917086 0.917086
0.147231 0.917005 0.979480
0.147198 0.916972 1.000000
0.147689 0.979939 0.009867
0.147598 0.979847 0.079833
0.147509 0.979759 0.147509
0.147422 0.979672 0.214031
0.147336 0.979586 0.279773
0.147251 0.979500 0.344926
0.147167 0.979416 0.409606
0.147083 0.979332 0.473892
0.146999 0.979248 0.537840
0.146916 0.979165 0.601492
0.146833 0.979082 0.664882
0.146750 0.978999 0.728035
0.146668 0.978917 0.790974
0.146586 0.978835 0.853716
0.146504 0.978753 0.916278
0.146422 0.978672 0.978672
0.146390 0.978639 1.000000
0.147366 1.000000 0.009544
0.147275 1.000000 0.079510
0.147186 1.000000 0.147186
0.147099 1.000000 0.213708
0.147013 1.000000 0.279450
0.146928 1.000000 0.344603
0.146843 1.000000 0.409283
0.146759 1.000000 0.473569
0.146676 1.000000 0.537517
0.146593 1.000000 0.601169
0.146510 1.000000 0.664558
0.146427 1.000000 0.727712
0.146345 1.000000 0.790651
0.146263 1.000000 0.853393
0.146181 1.000000 0.915955
0.146099 1.000000 0.978349
0.146067 1.000000 1.000000
0.226591 0.022160 0.022160
0.226500 0.022069 0.092126
0.226411 0.021980 0.159802
0.226324 0.021893 0.226324
0.226238 0.021807 0.292066
0.226153 0.021722 0.357219
0.226068 0.021638 0.421899
0.225984 0.021554 0.486185
0.225901 0.021470 0.550133
0.225818 0.021387 0.613785
0.225735 0.021304 0.677175
0.225652 0.021221 0.740328
0.225570 0.021139 0.803267
0.225488 0.021057 0.866010
0.225406 0.020975 0.928571
0.225324 0.020893 0.990965
0.225292 0.020861 1.000000
0.225685 0.091311 0.021254
