skills/creativeops-producer/assets/grade/luts/clean_bright_v20.cube
TITLE "clean_bright_v20"
LUT_3D_SIZE 5
DOMAIN_MIN 0.0 0.0 0.0
DOMAIN_MAX 1.0 1.0 1.0
0.047775 0.047775 0.047775
0.046767 0.046767 0.339833
0.045831 0.045831 0.611074
0.044927 0.044927 0.873252
0.044337 0.044337 1.000000
0.037794 0.330860 0.037794
0.036786 0.329852 0.329852
0.035850 0.328916 0.601093
0.034946 0.328012 0.863271
0.034356 0.327422 1.000000
0.028524 0.593767 0.028524
0.027517 0.592760 0.320583
0.026581 0.591824 0.591824
0.025676 0.590919 0.854002
0.025087 0.590330 1.000000
0.019564 0.847890 0.019564
0.018557 0.846882 0.311623
0.017621 0.845946 0.582864
0.016717 0.845042 0.845042
0.016127 0.844452 1.000000
0.013723 1.000000 0.013723
0.012716 1.000000 0.305782
0.011780 1.000000 0.577023
0.010875 1.000000 0.839201
0.010286 1.000000 1.000000
0.337874 0.044808 0.044808
0.336866 0.043800 0.336866
0.335930 0.042864 0.608107
0.335026 0.041960 0.870285
0.334436 0.041370 1.000000
0.327893 0.327893 0.034827
0.326885 0.326885 0.326885
0.325950 0.325950 0.598127
0.325045 0.325045 0.860304
0.324455 0.324455 1.000000
0.318623 0.590800 0.025557
0.317616 0.589793 0.317616
0.316680 0.588857 0.588857
0.315775 0.587952 0.851035
0.315186 0.587363 1.000000
0.309663 0.844923 0.016597
0.308656 0.843915 0.308656
0.307720 0.842979 0.579897
0.306816 0.842075 0.842075
0.306226 0.841485 1.000000
0.303822 1.000000 0.010756
0.302815 1.000000 0.302815
0.301879 1.000000 0.574056
0.300974 1.000000 0.836234
0.300385 1.000000 1.000000
0.607295 0.042052 0.042052
0.606288 0.041045 0.334111
0.605352 0.040109 0.605352
0.604448 0.039205 0.867530
0.603858 0.038615 1.000000
0.597314 0.325137 0.032071
0.596307 0.324130 0.324130
0.595371 0.323194 0.595371
0.594467 0.322290 0.857549
0.593877 0.321700 1.000000
0.588045 0.588045 0.022802
0.587037 0.587037 0.314860
0.586101 0.586101 0.586101
0.585197 0.585197 0.848279
0.584607 0.584607 1.000000
0.579085 0.842167 0.013842
0.578077 0.841160 0.305900
0.577142 0.840224 0.577142
0.576237 0.839319 0.839319
0.575647 0.838730 1.000000
0.573244 1.000000 0.008001
0.572236 1.000000 0.300059
0.571300 1.000000 0.571300
0.570396 1.000000 0.833478
0.569806 1.000000 1.000000
0.867714 0.039389 0.039389
0.866707 0.038381 0.331447
0.865771 0.037446 0.602689
0.864866 0.036541 0.864866
0.864277 0.035951 1.000000
0.857733 0.322474 0.029408
0.856726 0.321466 0.321466
0.855790 0.320531 0.592708
0.854885 0.319626 0.854885
0.854296 0.319036 1.000000
0.848464 0.585381 0.020138
0.847456 0.584374 0.312197
0.846520 0.583438 0.583438
0.845616 0.582534 0.845616
0.845026 0.581944 1.000000
0.839504 0.839504 0.011179
0.838496 0.838496 0.303237
0.837560 0.837560 0.574478
0.836656 0.836656 0.836656
0.836066 0.836066 1.000000
0.833663 1.000000 0.005337
0.832655 1.000000 0.297396
0.831719 1.000000 0.568637
0.830815 1.000000 0.830815
0.830225 1.000000 1.000000
1.000000 0.037653 0.037653
1.000000 0.036645 0.329711
1.000000 0.035709 0.600952
1.000000 0.034805 0.863130
1.000000 0.034215 1.000000
1.000000 0.320738 0.027672
1.000000 0.319730 0.319730
1.000000 0.318794 0.590971
1.000000 0.317890 0.853149
1.000000 0.317300 1.000000
1.000000 0.583645 0.018402
1.000000 0.582637 0.310460
1.000000 0.581702 0.581702
1.000000 0.580797 0.843879
1.000000 0.580208 1.000000
1.000000 0.837767 0.009442
1.000000 0.836760 0.301501
1.000000 0.835824 0.572742
1.000000 0.834920 0.834920
1.000000 0.834330 1.000000
1.000000 1.000000 0.003601
1.000000 1.000000 0.295659
1.000000 1.000000 0.566901
1.000000 1.000000 0.829078
1.000000 1.000000 1.000000
