skills/creativeops-producer/assets/grade/luts/clean_bright_v07.cube
TITLE "clean_bright_v07"
LUT_3D_SIZE 17
DOMAIN_MIN 0.0 0.0 0.0
DOMAIN_MAX 1.0 1.0 1.0
0.021119 0.021119 0.021119
0.021041 0.021041 0.090457
0.020966 0.020966 0.157631
0.020892 0.020892 0.223727
0.020818 0.020818 0.289095
0.020745 0.020745 0.353915
0.020673 0.020673 0.418295
0.020601 0.020601 0.482308
0.020530 0.020530 0.546007
0.020458 0.020458 0.609430
0.020387 0.020387 0.672609
0.020317 0.020317 0.735569
0.020246 0.020246 0.798328
0.020176 0.020176 0.860905
0.020106 0.020106 0.923314
0.020036 0.020036 0.985566
0.020003 0.020003 1.000000
0.020348 0.089763 0.020348
0.020270 0.089685 0.089685
0.020194 0.089610 0.156859
0.020120 0.089535 0.222955
0.020047 0.089462 0.288323
0.019974 0.089389 0.353143
0.019901 0.089317 0.417523
0.019830 0.089245 0.481537
0.019758 0.089173 0.545235
0.019687 0.089102 0.608659
0.019616 0.089031 0.671838
0.019545 0.088960 0.734797
0.019474 0.088890 0.797557
0.019404 0.088819 0.860134
0.019334 0.088749 0.922542
0.019264 0.088679 0.984795
0.019232 0.088647 1.000000
0.019600 0.156265 0.019600
0.019522 0.156187 0.088937
0.019447 0.156112 0.156112
0.019372 0.156038 0.222207
0.019299 0.155964 0.287576
0.019226 0.155891 0.352396
0.019154 0.155819 0.416776
0.019082 0.155747 0.480789
0.019010 0.155675 0.544488
0.018939 0.155604 0.607911
0.018868 0.155533 0.671090
0.018797 0.155462 0.734049
0.018727 0.155392 0.796809
0.018657 0.155322 0.859386
0.018586 0.155252 0.921795
0.018516 0.155182 0.984047
0.018484 0.155149 1.000000
0.018864 0.221699 0.018864
0.018787 0.221621 0.088202
0.018711 0.221546 0.155376
0.018637 0.221472 0.221472
0.018563 0.221398 0.286840
0.018491 0.221325 0.351660
0.018418 0.221253 0.416040
0.018346 0.221181 0.480053
0.018275 0.221110 0.543752
0.018203 0.221038 0.607175
0.018132 0.220967 0.670354
0.018062 0.220897 0.733314
0.017991 0.220826 0.796073
0.017921 0.220756 0.858650
0.017851 0.220686 0.921059
0.017781 0.220616 0.983311
0.017749 0.220583 1.000000
0.018137 0.286414 0.018137
0.018059 0.286336 0.087474
0.017984 0.286260 0.154649
0.017909 0.286186 0.220744
0.017836 0.286113 0.286113
0.017763 0.286040 0.350933
0.017691 0.285967 0.415313
0.017619 0.285895 0.479326
0.017547 0.285824 0.543024
0.017476 0.285753 0.606448
0.017405 0.285682 0.669627
0.017334 0.285611 0.732586
0.017264 0.285540 0.795346
0.017193 0.285470 0.857923
0.017123 0.285400 0.920331
0.017053 0.285330 0.982584
0.017021 0.285298 1.000000
0.017416 0.350585 0.017416
0.017338 0.350507 0.086753
0.017262 0.350432 0.153927
0.017188 0.350357 0.220023
0.017114 0.350284 0.285391
0.017042 0.350211 0.350211
0.016969 0.350139 0.414591
0.016897 0.350067 0.478604
0.016826 0.349995 0.542303
0.016755 0.349924 0.605726
0.016684 0.349853 0.668905
0.016613 0.349782 0.731865
0.016542 0.349712 0.794624
0.016472 0.349641 0.857202
0.016402 0.349571 0.919610
0.016332 0.349501 0.981862
0.016300 0.349469 1.000000
0.016699 0.414321 0.016699
0.016621 0.414243 0.086036
0.016546 0.414168 0.153211
0.016471 0.414093 0.219306
0.016398 0.414020 0.284675
0.016325 0.413947 0.349495
0.016253 0.413875 0.413875
0.016181 0.413803 0.477888
0.016109 0.413731 0.541586
0.016038 0.413660 0.605010
0.015967 0.413589 0.668189
0.015896 0.413518 0.731148
0.015826 0.413448 0.793908
0.015755 0.413377 0.856485
0.015685 0.413307 0.918894
0.015615 0.413237 0.981146
0.015583 0.413205 1.000000
0.015987 0.477694 0.015987
0.015909 0.477616 0.085324
0.015833 0.477540 0.152498
0.015759 0.477466 0.218594
0.015685 0.477392 0.283962
0.015613 0.477320 0.348782
0.015540 0.477247 0.413162
0.015468 0.477175 0.477175
0.015397 0.477104 0.540874
0.015326 0.477033 0.604297
0.015255 0.476962 0.667476
0.015184 0.476891 0.730436
0.015113 0.476820 0.793196
0.015043 0.476750 0.855773
0.014973 0.476680 0.918181
0.014903 0.476610 0.980433
0.014871 0.476578 1.000000
0.015278 0.540755 0.015278
0.015200 0.540677 0.084615
0.015124 0.540601 0.151789
0.015050 0.540527 0.217885
0.014977 0.540454 0.283253
0.014904 0.540381 0.348073
0.014831 0.540309 0.412453
0.014759 0.540237 0.476466
0.014688 0.540165 0.540165
0.014617 0.540094 0.603588
0.014546 0.540023 0.666768
0.014475 0.539952 0.729727
0.014404 0.539882 0.792487
0.014334 0.539811 0.855064
0.014264 0.539741 0.917472
0.014194 0.539671 0.979724
0.014162 0.539639 1.000000
0.014572 0.603544 0.014572
0.014494 0.603466 0.083909
0.014418 0.603390 0.151083
0.014344 0.603316 0.217179
0.014271 0.603243 0.282547
0.014198 0.603170 0.347367
0.014125 0.603097 0.411747
0.014054 0.603025 0.475761
0.013982 0.602954 0.539459
0.013911 0.602883 0.602883
0.013840 0.602812 0.666062
0.013769 0.602741 0.729021
0.013699 0.602670 0.791781
0.013628 0.602600 0.854358
0.013558 0.602530 0.916766
0.013488 0.602460 0.979019
0.013456 0.602428 1.000000
0.013869 0.666090 0.013869
0.013791 0.666013 0.083206
0.013715 0.665937 0.150380
0.013641 0.665863 0.216476
0.013567 0.665789 0.281844
0.013495 0.665717 0.346664
0.013422 0.665644 0.411044
0.013350 0.665572 0.475057
0.013279 0.665501 0.538756
0.013208 0.665429 0.602179
0.013137 0.665359 0.665359
0.013066 0.665288 0.728318
0.012995 0.665217 0.791078
0.012925 0.665147 0.853655
0.012855 0.665077 0.916063
0.012785 0.665007 0.978315
0.012753 0.664975 1.000000
0.013168 0.728420 0.013168
0.013090 0.728342 0.082505
0.013014 0.728266 0.149680
0.012940 0.728192 0.215775
0.012867 0.728119 0.281143
0.012794 0.728046 0.345963
0.012722 0.727974 0.410344
0.012650 0.727902 0.474357
0.012578 0.727830 0.538055
0.012507 0.727759 0.601479
0.012436 0.727688 0.664658
0.012365 0.727617 0.727617
0.012295 0.727547 0.790377
0.012224 0.727476 0.852954
0.012154 0.727406 0.915362
0.012084 0.727336 0.977615
0.012052 0.727304 1.000000
0.012469 0.790552 0.012469
0.012391 0.790474 0.081807
0.012316 0.790398 0.148981
0.012242 0.790324 0.215077
0.012168 0.790250 0.280445
0.012095 0.790178 0.345265
0.012023 0.790105 0.409645
0.011951 0.790033 0.473658
0.011880 0.789962 0.537357
0.011808 0.789891 0.600780
0.011737 0.789820 0.663959
0.011667 0.789749 0.726919
0.011596 0.789678 0.789678
0.011526 0.789608 0.852255
0.011456 0.789538 0.914664
0.011386 0.789468 0.976916
0.011353 0.789436 1.000000
0.011773 0.852502 0.011773
0.011695 0.852425 0.081110
0.011620 0.852349 0.148285
0.011545 0.852275 0.214380
0.011472 0.852201 0.279748
0.011399 0.852129 0.344568
0.011327 0.852056 0.408949
0.011255 0.851984 0.472962
0.011183 0.851913 0.536660
0.011112 0.851841 0.600084
0.011041 0.851770 0.663263
0.010970 0.851700 0.726222
0.010900 0.851629 0.788982
0.010829 0.851559 0.851559
0.010759 0.851489 0.913967
0.010689 0.851419 0.976220
0.010657 0.851387 1.000000
0.011078 0.914287 0.011078
0.011000 0.914209 0.080416
0.010925 0.914133 0.147590
0.010851 0.914059 0.213686
0.010777 0.913985 0.279054
0.010704 0.913913 0.343874
0.010632 0.913840 0.408254
0.010560 0.913768 0.472267
0.010489 0.913697 0.535966
0.010417 0.913626 0.599389
0.010346 0.913555 0.662568
0.010276 0.913484 0.725528
0.010205 0.913413 0.788287
0.010135 0.913343 0.850864
0.010065 0.913273 0.913273
0.009995 0.913203 0.975525
0.009962 0.913171 1.000000
0.010385 0.975916 0.010385
0.010308 0.975838 0.079723
0.010232 0.975763 0.146897
0.010158 0.975688 0.212993
0.010084 0.975615 0.278361
0.010012 0.975542 0.343181
0.009939 0.975470 0.407561
0.009867 0.975398 0.471574
0.009796 0.975326 0.535273
0.009725 0.975255 0.598696
0.009654 0.975184 0.661875
0.009583 0.975113 0.724835
0.009512 0.975043 0.787594
0.009442 0.974972 0.850171
0.009372 0.974902 0.912580
0.009302 0.974832 0.974832
0.009270 0.974800 1.000000
0.010065 1.000000 0.010065
0.009987 1.000000 0.079403
0.009912 1.000000 0.146577
0.009838 1.000000 0.212672
0.009764 1.000000 0.278041
0.009691 1.000000 0.342861
0.009619 1.000000 0.407241
0.009547 1.000000 0.471254
0.009476 1.000000 0.534953
0.009404 1.000000 0.598376
0.009333 1.000000 0.661555
0.009263 1.000000 0.724514
0.009192 1.000000 0.787274
0.009122 1.000000 0.849851
0.009052 1.000000 0.912260
0.008982 1.000000 0.974512
0.008949 1.000000 1.000000
0.090305 0.020890 0.020890
0.090227 0.020812 0.090227
0.090152 0.020737 0.157402
0.090078 0.020662 0.223497
0.090004 0.020589 0.288866
0.089931 0.020516 0.353686
0.089859 0.020444 0.418066
0.089787 0.020372 0.482079
0.089716 0.020300 0.545777
0.089644 0.020229 0.609201
0.089573 0.020158 0.672380
0.089503 0.020087 0.735339
0.089432 0.020017 0.798099
0.089362 0.019946 0.860676
0.089292 0.019876 0.923085
0.089222 0.019806 0.985337
0.089189 0.019774 1.000000
0.089534 0.089534 0.020118
0.089456 0.089456 0.089456
0.089380 0.089380 0.156630
0.089306 0.089306 0.222725
0.089232 0.089232 0.288094
0.089160 0.089160 0.352914
0.089087 0.089087 0.417294
0.089015 0.089015 0.481307
0.088944 0.088944 0.545006
0.088873 0.088873 0.608429
0.088802 0.088802 0.671608
0.088731 0.088731 0.734568
0.088660 0.088660 0.797327
0.088590 0.088590 0.859904
0.088520 0.088520 0.922313
0.088450 0.088450 0.984565
0.088418 0.088418 1.000000
0.088786 0.156036 0.019371
0.088708 0.155958 0.088708
0.088633 0.155882 0.155882
0.088558 0.155808 0.221978
0.088485 0.155735 0.287346
0.088412 0.155662 0.352166
0.088340 0.155590 0.416546
0.088268 0.155518 0.480560
0.088196 0.155446 0.544258
0.088125 0.155375 0.607682
0.088054 0.155304 0.670861
0.087983 0.155233 0.733820
0.087913 0.155163 0.796580
0.087842 0.155092 0.859157
0.087772 0.155022 0.921565
0.087702 0.154952 0.983817
0.087670 0.154920 1.000000
0.088050 0.221470 0.018635
0.087972 0.221392 0.087972
0.087897 0.221317 0.155147
0.087823 0.221242 0.221242
0.087749 0.221169 0.286611
0.087676 0.221096 0.351431
0.087604 0.221024 0.415811
0.087532 0.220952 0.479824
0.087461 0.220880 0.543523
0.087389 0.220809 0.606946
0.087318 0.220738 0.670125
0.087248 0.220667 0.733084
0.087177 0.220597 0.795844
0.087107 0.220526 0.858421
0.087037 0.220456 0.920830
0.086967 0.220386 0.983082
0.086934 0.220354 1.000000
0.087323 0.286184 0.017908
0.087245 0.286106 0.087245
0.087169 0.286031 0.154419
0.087095 0.285957 0.220515
0.087022 0.285883 0.285883
0.086949 0.285810 0.350703
0.086877 0.285738 0.415083
0.086805 0.285666 0.479096
0.086733 0.285594 0.542795
0.086662 0.285523 0.606218
0.086591 0.285452 0.669397
0.086520 0.285381 0.732357
0.086450 0.285311 0.795117
0.086379 0.285241 0.857694
0.086309 0.285171 0.920102
0.086239 0.285101 0.982354
0.086207 0.285068 1.000000
0.086601 0.350356 0.017186
0.086523 0.350278 0.086523
0.086448 0.350202 0.153698
0.086374 0.350128 0.219793
0.086300 0.350055 0.285162
0.086227 0.349982 0.349982
0.086155 0.349909 0.414362
0.086083 0.349837 0.478375
0.086012 0.349766 0.542074
0.085940 0.349695 0.605497
0.085869 0.349624 0.668676
0.085799 0.349553 0.731635
0.085728 0.349482 0.794395
0.085658 0.349412 0.856972
0.085588 0.349342 0.919381
0.085518 0.349272 0.981633
0.085485 0.349240 1.000000
0.085885 0.414092 0.016470
0.085807 0.414014 0.085807
0.085731 0.413938 0.152981
0.085657 0.413864 0.219077
0.085584 0.413790 0.284445
0.085511 0.413718 0.349265
0.085439 0.413645 0.413645
0.085367 0.413573 0.477658
0.085295 0.413502 0.541357
0.085224 0.413431 0.604780
0.085153 0.413360 0.667960
0.085082 0.413289 0.730919
0.085012 0.413218 0.793679
0.084941 0.413148 0.856256
0.084871 0.413078 0.918664
0.084801 0.413008 0.980916
0.084769 0.412976 1.000000
0.085172 0.477464 0.015757
0.085095 0.477386 0.085095
0.085019 0.477311 0.152269
0.084945 0.477237 0.218364
0.084871 0.477163 0.283733
0.084799 0.477090 0.348553
0.084726 0.477018 0.412933
0.084654 0.476946 0.476946
0.084583 0.476874 0.540645
0.084511 0.476803 0.604068
0.084440 0.476732 0.667247
0.084370 0.476661 0.730206
0.084299 0.476591 0.792966
0.084229 0.476521 0.855543
0.084159 0.476451 0.917952
0.084089 0.476381 0.980204
0.084056 0.476348 1.000000
0.084463 0.540525 0.015048
0.084386 0.540447 0.084386
0.084310 0.540372 0.151560
0.084236 0.540298 0.217655
0.084162 0.540224 0.283024
0.084090 0.540151 0.347844
0.084017 0.540079 0.412224
0.083945 0.540007 0.476237
0.083874 0.539936 0.539936
0.083802 0.539864 0.603359
0.083732 0.539793 0.666538
0.083661 0.539723 0.729497
0.083590 0.539652 0.792257
0.083520 0.539582 0.854834
0.083450 0.539512 0.917243
0.083380 0.539442 0.979495
0.083348 0.539409 1.000000
0.083758 0.603314 0.014342
0.083680 0.603236 0.083680
0.083604 0.603161 0.150854
0.083530 0.603087 0.216950
0.083457 0.603013 0.282318
0.083384 0.602940 0.347138
0.083311 0.602868 0.411518
0.083239 0.602796 0.475531
0.083168 0.602724 0.539230
0.083097 0.602653 0.602653
0.083026 0.602582 0.665832
0.082955 0.602512 0.728792
0.082884 0.602441 0.791551
0.082814 0.602371 0.854128
0.082744 0.602301 0.916537
0.082674 0.602231 0.978789
0.082642 0.602198 1.000000
0.083054 0.665861 0.013639
0.082977 0.665783 0.082977
0.082901 0.665708 0.150151
0.082827 0.665633 0.216246
0.082753 0.665560 0.281615
0.082681 0.665487 0.346435
0.082608 0.665415 0.410815
0.082536 0.665343 0.474828
0.082465 0.665271 0.538527
0.082393 0.665200 0.601950
0.082322 0.665129 0.665129
0.082252 0.665058 0.728088
0.082181 0.664988 0.790848
0.082111 0.664918 0.853425
0.082041 0.664847 0.915834
0.081971 0.664778 0.978086
0.081939 0.664745 1.000000
0.082354 0.728190 0.012938
0.082276 0.728113 0.082276
0.082200 0.728037 0.149450
0.082126 0.727963 0.215546
0.082053 0.727889 0.280914
0.081980 0.727817 0.345734
0.081907 0.727744 0.410114
0.081836 0.727672 0.474127
0.081764 0.727601 0.537826
0.081693 0.727529 0.601249
0.081622 0.727458 0.664428
0.081551 0.727388 0.727388
0.081481 0.727317 0.790147
0.081410 0.727247 0.852724
0.081340 0.727177 0.915133
0.081270 0.727107 0.977385
0.081238 0.727074 1.000000
0.081655 0.790322 0.012240
0.081577 0.790244 0.081577
0.081502 0.790169 0.148752
0.081428 0.790095 0.214847
0.081354 0.790021 0.280216
0.081281 0.789948 0.345036
0.081209 0.789876 0.409416
0.081137 0.789804 0.473429
0.081066 0.789732 0.537127
0.080994 0.789661 0.600551
0.080923 0.789590 0.663730
0.080853 0.789519 0.726689
0.080782 0.789449 0.789449
0.080712 0.789379 0.852026
0.080642 0.789309 0.914435
0.080572 0.789239 0.976687
0.080539 0.789206 1.000000
0.080959 0.852273 0.011544
0.080881 0.852195 0.080881
0.080805 0.852120 0.148055
0.080731 0.852045 0.214151
0.080658 0.851972 0.279519
0.080585 0.851899 0.344339
0.080513 0.851827 0.408719
0.080441 0.851755 0.472732
0.080369 0.851683 0.536431
0.080298 0.851612 0.599854
0.080227 0.851541 0.663033
0.080156 0.851470 0.725993
0.080086 0.851400 0.788753
0.080015 0.851330 0.851330
0.079945 0.851259 0.913738
0.079875 0.851189 0.975990
0.079843 0.851157 1.000000
0.080264 0.914057 0.010849
0.080186 0.913979 0.080186
0.080111 0.913904 0.147361
0.080037 0.913829 0.213456
0.079963 0.913756 0.278825
0.079890 0.913683 0.343645
0.079818 0.913611 0.408025
0.079746 0.913539 0.472038
0.079674 0.913467 0.535736
0.079603 0.913396 0.599160
0.079532 0.913325 0.662339
0.079461 0.913254 0.725298
0.079391 0.913184 0.788058
0.079321 0.913114 0.850635
0.079251 0.913043 0.913043
0.079181 0.912974 0.975296
0.079148 0.912941 1.000000
0.079571 0.975687 0.010156
0.079493 0.975609 0.079493
0.079418 0.975533 0.146668
0.079344 0.975459 0.212763
0.079270 0.975385 0.278132
0.079197 0.975313 0.342952
0.079125 0.975240 0.407332
0.079053 0.975168 0.471345
0.078982 0.975097 0.535044
0.078910 0.975026 0.598467
0.078839 0.974955 0.661646
0.078769 0.974884 0.724605
0.078698 0.974813 0.787365
0.078628 0.974743 0.849942
0.078558 0.974673 0.912351
0.078488 0.974603 0.974603
0.078455 0.974571 1.000000
0.079251 1.000000 0.009836
0.079173 1.000000 0.079173
0.079098 1.000000 0.146348
0.079023 1.000000 0.212443
0.078950 1.000000 0.277811
0.078877 1.000000 0.342631
0.078805 1.000000 0.407012
0.078733 1.000000 0.471025
0.078661 1.000000 0.534723
0.078590 1.000000 0.598147
0.078519 1.000000 0.661326
0.078448 1.000000 0.724285
0.078378 1.000000 0.787045
0.078308 1.000000 0.849622
0.078237 1.000000 0.912030
0.078168 1.000000 0.974283
0.078135 1.000000 1.000000
0.157333 0.020668 0.020668
0.157255 0.020590 0.090005
0.157179 0.020514 0.157179
0.157105 0.020440 0.223275
0.157032 0.020367 0.288643
0.156959 0.020294 0.353463
0.156887 0.020222 0.417843
0.156815 0.020150 0.481857
0.156743 0.020078 0.545555
0.156672 0.020007 0.608979
0.156601 0.019936 0.672158
0.156530 0.019865 0.735117
0.156460 0.019795 0.797877
0.156389 0.019724 0.860454
0.156319 0.019654 0.922862
0.156249 0.019584 0.985115
0.156217 0.019552 1.000000
0.156561 0.089311 0.019896
0.156483 0.089233 0.089233
0.156408 0.089158 0.156408
0.156334 0.089084 0.222503
0.156260 0.089010 0.287872
0.156187 0.088937 0.352692
0.156115 0.088865 0.417072
0.156043 0.088793 0.481085
0.155971 0.088722 0.544784
0.155900 0.088650 0.608207
0.155829 0.088579 0.671386
0.155758 0.088509 0.734345
0.155688 0.088438 0.797105
0.155618 0.088368 0.859682
0.155547 0.088298 0.922091
0.155478 0.088228 0.984343
0.155445 0.088195 1.000000
0.155814 0.155814 0.019148
0.155736 0.155736 0.088486
0.155660 0.155660 0.155660
0.155586 0.155586 0.221756
0.155512 0.155512 0.287124
0.155440 0.155440 0.351944
0.155367 0.155367 0.416324
0.155295 0.155295 0.480337
0.155224 0.155224 0.544036
0.155153 0.155153 0.607459
0.155082 0.155082 0.670638
0.155011 0.155011 0.733598
0.154940 0.154940 0.796357
0.154870 0.154870 0.858934
0.154800 0.154800 0.921343
0.154730 0.154730 0.983595
0.154698 0.154698 1.000000
0.155078 0.221248 0.018413
0.155000 0.221170 0.087750
0.154925 0.221094 0.154925
0.154850 0.221020 0.221020
0.154777 0.220947 0.286388
0.154704 0.220874 0.351208
0.154632 0.220801 0.415589
0.154560 0.220729 0.479602
0.154488 0.220658 0.543300
0.154417 0.220587 0.606724
0.154346 0.220516 0.669903
0.154275 0.220445 0.732862
0.154205 0.220374 0.795622
0.154134 0.220304 0.858199
0.154064 0.220234 0.920607
0.153994 0.220164 0.982860
0.153962 0.220132 1.000000
0.154350 0.285962 0.017685
0.154272 0.285884 0.087023
0.154197 0.285809 0.154197
0.154123 0.285734 0.220292
0.154049 0.285661 0.285661
0.153976 0.285588 0.350481
0.153904 0.285516 0.414861
0.153832 0.285444 0.478874
0.153761 0.285372 0.542573
0.153689 0.285301 0.605996
0.153618 0.285230 0.669175
0.153548 0.285159 0.732135
0.153477 0.285089 0.794894
0.153407 0.285018 0.857471
0.153337 0.284948 0.919880
0.153267 0.284878 0.982132
0.153234 0.284846 1.000000
0.153629 0.350133 0.016964
0.153551 0.350055 0.086301
0.153476 0.349980 0.153476
0.153401 0.349906 0.219571
0.153328 0.349832 0.284939
0.153255 0.349759 0.349759
0.153183 0.349687 0.414140
0.153111 0.349615 0.478153
0.153039 0.349544 0.541851
0.152968 0.349472 0.605275
0.152897 0.349401 0.668454
0.152826 0.349331 0.731413
0.152756 0.349260 0.794173
0.152685 0.349190 0.856750
0.152615 0.349120 0.919158
0.152545 0.349050 0.981411
0.152513 0.349017 1.000000
0.152912 0.413869 0.016247
0.152835 0.413791 0.085585
0.152759 0.413716 0.152759
0.152685 0.413642 0.218855
0.152611 0.413568 0.284223
0.152539 0.413495 0.349043
0.152466 0.413423 0.413423
0.152394 0.413351 0.477436
0.152323 0.413280 0.541135
0.152251 0.413208 0.604558
0.152180 0.413137 0.667737
0.152110 0.413067 0.730697
0.152039 0.412996 0.793456
0.151969 0.412926 0.856033
0.151899 0.412856 0.918442
0.151829 0.412786 0.980694
0.151797 0.412753 1.000000
0.152200 0.477242 0.015535
0.152122 0.477164 0.084872
0.152047 0.477089 0.152047
0.151972 0.477014 0.218142
0.151899 0.476941 0.283510
0.151826 0.476868 0.348330
0.151754 0.476796 0.412711
0.151682 0.476724 0.476724
0.151610 0.476652 0.540422
0.151539 0.476581 0.603846
0.151468 0.476510 0.667025
0.151397 0.476439 0.729984
0.151327 0.476369 0.792744
0.151256 0.476298 0.855321
0.151186 0.476228 0.917729
0.151116 0.476158 0.979982
0.151084 0.476126 1.000000
0.151491 0.540303 0.014826
0.151413 0.540225 0.084163
0.151338 0.540150 0.151338
0.151263 0.540076 0.217433
0.151190 0.540002 0.282802
0.151117 0.539929 0.347622
0.151045 0.539857 0.412002
0.150973 0.539785 0.476015
0.150901 0.539713 0.539713
0.150830 0.539642 0.603137
0.150759 0.539571 0.666316
0.150688 0.539500 0.729275
0.150618 0.539430 0.792035
0.150548 0.539360 0.854612
0.150477 0.539290 0.917021
0.150407 0.539220 0.979273
0.150375 0.539187 1.000000
0.150785 0.603092 0.014120
0.150707 0.603014 0.083457
0.150632 0.602939 0.150632
0.150558 0.602864 0.216727
0.150484 0.602791 0.282096
0.150411 0.602718 0.346916
0.150339 0.602646 0.411296
0.150267 0.602574 0.475309
0.150195 0.602502 0.539008
0.150124 0.602431 0.602431
0.150053 0.602360 0.665610
0.149982 0.602289 0.728569
0.149912 0.602219 0.791329
0.149842 0.602148 0.853906
0.149772 0.602078 0.916315
0.149702 0.602008 0.978567
0.149669 0.601976 1.000000
0.150082 0.665639 0.013417
0.150004 0.665561 0.082754
0.149929 0.665485 0.149929
0.149854 0.665411 0.216024
0.149781 0.665338 0.281393
0.149708 0.665265 0.346213
0.149636 0.665193 0.410593
0.149564 0.665121 0.474606
0.149492 0.665049 0.538304
0.149421 0.664978 0.601728
0.149350 0.664907 0.664907
0.149279 0.664836 0.727866
0.149209 0.664766 0.790626
0.149138 0.664695 0.853203
0.149068 0.664625 0.915611
0.148998 0.664555 0.977864
0.148966 0.664523 1.000000
0.149381 0.727968 0.012716
0.149303 0.727890 0.082054
0.149228 0.727815 0.149228
0.149154 0.727741 0.215323
0.149080 0.727667 0.280692
0.149007 0.727594 0.345512
0.148935 0.727522 0.409892
0.148863 0.727450 0.473905
0.148792 0.727378 0.537604
0.148720 0.727307 0.601027
0.148649 0.727236 0.664206
0.148579 0.727165 0.727165
0.148508 0.727095 0.789925
0.148438 0.727025 0.852502
0.148368 0.726955 0.914911
0.148298 0.726885 0.977163
0.148265 0.726852 1.000000
0.148683 0.790100 0.012018
0.148605 0.790022 0.081355
0.148529 0.789947 0.148529
0.148455 0.789872 0.214625
0.148382 0.789799 0.279993
0.148309 0.789726 0.344813
0.148237 0.789654 0.409193
0.148165 0.789582 0.473207
0.148093 0.789510 0.536905
0.148022 0.789439 0.600329
0.147951 0.789368 0.663508
0.147880 0.789297 0.726467
0.147810 0.789227 0.789227
0.147739 0.789156 0.851804
0.147669 0.789086 0.914212
0.147599 0.789016 0.976465
0.147567 0.788984 1.000000
0.147986 0.852051 0.011321
0.147908 0.851973 0.080659
0.147833 0.851897 0.147833
0.147759 0.851823 0.213928
0.147685 0.851750 0.279297
0.147612 0.851677 0.344117
0.147540 0.851605 0.408497
0.147468 0.851533 0.472510
0.147397 0.851461 0.536209
0.147325 0.851390 0.599632
0.147254 0.851319 0.662811
0.147184 0.851248 0.725771
0.147113 0.851178 0.788530
0.147043 0.851107 0.851107
0.146973 0.851037 0.913516
0.146903 0.850967 0.975768
0.146870 0.850935 1.000000
0.147292 0.913835 0.010627
0.147214 0.913757 0.079964
0.147138 0.913682 0.147138
0.147064 0.913607 0.213234
0.146991 0.913534 0.278602
0.146918 0.913461 0.343422
0.146846 0.913389 0.407802
0.146774 0.913317 0.471816
0.146702 0.913245 0.535514
0.146631 0.913174 0.598938
0.146560 0.913103 0.662117
0.146489 0.913032 0.725076
0.146419 0.912962 0.787836
0.146348 0.912891 0.850413
0.146278 0.912821 0.912821
0.146208 0.912751 0.975074
0.146176 0.912719 1.000000
0.146599 0.975464 0.009934
0.146521 0.975386 0.079271
0.146446 0.975311 0.146446
0.146371 0.975237 0.212541
0.146298 0.975163 0.277909
0.146225 0.975090 0.342729
0.146153 0.975018 0.407110
0.146081 0.974946 0.471123
0.146009 0.974875 0.534821
0.145938 0.974803 0.598245
0.145867 0.974732 0.661424
0.145796 0.974662 0.724383
0.145726 0.974591 0.787143
0.145655 0.974521 0.849720
0.145585 0.974451 0.912128
0.145515 0.974381 0.974381
0.145483 0.974348 1.000000
0.146279 1.000000 0.009614
0.146201 1.000000 0.078951
0.146125 1.000000 0.146125
0.146051 1.000000 0.212221
0.145978 1.000000 0.277589
0.145905 1.000000 0.342409
0.145832 1.000000 0.406789
0.145761 1.000000 0.470802
0.145689 1.000000 0.534501
0.145618 1.000000 0.597925
0.145547 1.000000 0.661104
0.145476 1.000000 0.724063
0.145405 1.000000 0.786823
0.145335 1.000000 0.849400
0.145265 1.000000 0.911808
0.145195 1.000000 0.974060
0.145163 1.000000 1.000000
0.223284 0.020449 0.020449
0.223206 0.020371 0.089786
0.223131 0.020296 0.156961
0.223056 0.020221 0.223056
0.222983 0.020148 0.288425
0.222910 0.020075 0.353245
0.222838 0.020003 0.417625
0.222766 0.019931 0.481638
0.222694 0.019859 0.545337
0.222623 0.019788 0.608760
0.222552 0.019717 0.671939
0.222481 0.019646 0.734898
0.222411 0.019576 0.797658
0.222340 0.019506 0.860235
0.222270 0.019435 0.922644
0.222200 0.019365 0.984896
0.222168 0.019333 1.000000
0.222512 0.089093 0.019677
