skills/creativeops-producer/assets/grade/luts/clean_bright_v08.cube
TITLE "clean_bright_v08"
LUT_3D_SIZE 9
DOMAIN_MIN 0.0 0.0 0.0
DOMAIN_MAX 1.0 1.0 1.0
0.022946 0.022946 0.022946
0.022767 0.022767 0.160589
0.022594 0.022594 0.292852
0.022424 0.022424 0.422685
0.022256 0.022256 0.550919
0.022090 0.022090 0.677961
0.021925 0.021925 0.804053
0.021761 0.021761 0.929357
0.021647 0.021647 1.000000
0.021164 0.158986 0.021164
0.020984 0.158806 0.158806
0.020811 0.158633 0.291069
0.020641 0.158463 0.420902
0.020473 0.158295 0.549136
0.020307 0.158129 0.676178
0.020142 0.157964 0.802270
0.019978 0.157800 0.927574
0.019864 0.157686 1.000000
0.019450 0.289709 0.019450
0.019270 0.289529 0.157092
0.019097 0.289356 0.289356
0.018928 0.289186 0.419189
0.018760 0.289018 0.547423
0.018594 0.288852 0.674465
0.018429 0.288687 0.800557
0.018265 0.288524 0.925861
0.018151 0.288409 1.000000
0.017769 0.418030 0.017769
0.017589 0.417850 0.155411
0.017416 0.417677 0.287674
0.017246 0.417507 0.417507
0.017078 0.417340 0.545741
0.016912 0.417173 0.672783
0.016747 0.417009 0.798875
0.016583 0.416845 0.924179
0.016469 0.416731 1.000000
0.016107 0.544771 0.016107
0.015927 0.544591 0.153750
0.015755 0.544418 0.286013
0.015585 0.544248 0.415846
0.015417 0.544080 0.544080
0.015251 0.543914 0.671122
0.015086 0.543749 0.797214
0.014922 0.543585 0.922518
0.014808 0.543471 1.000000
0.014462 0.670333 0.014462
0.014282 0.670153 0.152104
0.014109 0.669980 0.284367
0.013939 0.669810 0.414201
0.013771 0.669642 0.542434
0.013605 0.669476 0.669476
0.013440 0.669311 0.795569
0.013277 0.669147 0.920873
0.013162 0.669033 1.000000
0.012829 0.794957 0.012829
0.012649 0.794777 0.150471
0.012476 0.794604 0.282734
0.012306 0.794434 0.412567
0.012138 0.794266 0.540801
0.011972 0.794100 0.667843
0.011807 0.793935 0.793935
0.011643 0.793771 0.919239
0.011529 0.793657 1.000000
0.011205 0.918801 0.011205
0.011025 0.918622 0.148848
0.010852 0.918449 0.281111
0.010683 0.918279 0.410944
0.010515 0.918111 0.539178
0.010349 0.917945 0.666220
0.010184 0.917780 0.792312
0.010020 0.917616 0.917616
0.009906 0.917502 1.000000
0.010074 1.000000 0.010074
0.009894 1.000000 0.147716
0.009721 1.000000 0.279980
0.009551 1.000000 0.409813
0.009384 1.000000 0.538047
0.009218 1.000000 0.665088
0.009053 1.000000 0.791181
0.008889 1.000000 0.916485
0.008775 1.000000 1.000000
0.160239 0.022416 0.022416
0.160059 0.022237 0.160059
0.159886 0.022064 0.292322
0.159716 0.021894 0.422155
0.159548 0.021726 0.550389
0.159382 0.021560 0.677431
0.159217 0.021395 0.803523
0.159053 0.021231 0.928827
0.158939 0.021117 1.000000
0.158456 0.158456 0.020634
0.158276 0.158276 0.158276
0.158103 0.158103 0.290539
0.157933 0.157933 0.420372
0.157765 0.157765 0.548606
0.157599 0.157599 0.675648
0.157434 0.157434 0.801740
0.157270 0.157270 0.927044
0.157156 0.157156 1.000000
0.156742 0.289179 0.018920
0.156562 0.288999 0.156562
0.156389 0.288826 0.288826
0.156220 0.288656 0.418659
0.156052 0.288488 0.546893
0.155886 0.288322 0.673935
0.155721 0.288157 0.800027
0.155557 0.287994 0.925331
0.155443 0.287879 1.000000
0.155061 0.417500 0.017239
0.154881 0.417320 0.154881
0.154708 0.417147 0.287144
0.154538 0.416977 0.416977
0.154370 0.416810 0.545211
0.154204 0.416643 0.672253
0.154039 0.416479 0.798345
0.153875 0.416315 0.923649
0.153761 0.416201 1.000000
0.153400 0.544241 0.015577
0.153220 0.544061 0.153220
0.153047 0.543888 0.285483
0.152877 0.543718 0.415316
0.152709 0.543550 0.543550
0.152543 0.543384 0.670592
0.152378 0.543219 0.796684
0.152214 0.543055 0.921988
0.152100 0.542941 1.000000
0.151754 0.669803 0.013932
0.151574 0.669623 0.151574
0.151401 0.669450 0.283837
0.151231 0.669280 0.413671
0.151064 0.669112 0.541904
0.150897 0.668946 0.668946
0.150733 0.668781 0.795039
0.150569 0.668618 0.920343
0.150454 0.668503 1.000000
0.150121 0.794427 0.012299
0.149941 0.794247 0.149941
0.149768 0.794074 0.282204
0.149598 0.793904 0.412037
0.149430 0.793736 0.540271
0.149264 0.793570 0.667313
0.149099 0.793405 0.793405
0.148935 0.793241 0.918709
0.148821 0.793127 1.000000
0.148498 0.918271 0.010675
0.148318 0.918092 0.148318
0.148145 0.917919 0.280581
0.147975 0.917749 0.410414
0.147807 0.917581 0.538648
0.147641 0.917415 0.665690
0.147476 0.917250 0.791782
0.147312 0.917086 0.917086
0.147198 0.916972 1.000000
0.147366 1.000000 0.009544
0.147186 1.000000 0.147186
0.147013 1.000000 0.279450
0.146843 1.000000 0.409283
0.146676 1.000000 0.537517
0.146510 1.000000 0.664558
0.146345 1.000000 0.790651
0.146181 1.000000 0.915955
0.146067 1.000000 1.000000
0.292166 0.021907 0.021907
0.291986 0.021727 0.159549
0.291813 0.021554 0.291813
0.291643 0.021384 0.421646
0.291475 0.021217 0.549880
0.291309 0.021051 0.676922
0.291144 0.020886 0.803014
0.290980 0.020722 0.928318
0.290866 0.020608 1.000000
0.290383 0.157946 0.020124
0.290203 0.157766 0.157766
0.290030 0.157593 0.290030
0.289860 0.157424 0.419863
0.289692 0.157256 0.548097
0.289526 0.157090 0.675139
0.289361 0.156925 0.801231
0.289198 0.156761 0.926535
0.289083 0.156647 1.000000
0.288670 0.288670 0.018411
0.288490 0.288490 0.156053
0.288317 0.288317 0.288317
0.288147 0.288147 0.418150
0.287979 0.287979 0.546384
0.287813 0.287813 0.673425
0.287648 0.287648 0.799518
0.287484 0.287484 0.924822
0.287370 0.287370 1.000000
0.286988 0.416991 0.016729
0.286808 0.416811 0.154371
0.286635 0.416638 0.286635
0.286465 0.416468 0.416468
0.286297 0.416300 0.544702
0.286131 0.416134 0.671744
0.285966 0.415969 0.797836
0.285802 0.415805 0.923140
0.285688 0.415691 1.000000
0.285327 0.543731 0.015068
0.285147 0.543551 0.152710
0.284974 0.543378 0.284974
0.284804 0.543209 0.414807
0.284636 0.543041 0.543041
0.284470 0.542875 0.670083
0.284305 0.542710 0.796175
0.284141 0.542546 0.921479
0.284027 0.542432 1.000000
0.283681 0.669293 0.013423
0.283501 0.669114 0.151065
0.283328 0.668941 0.283328
0.283158 0.668771 0.413161
0.282991 0.668603 0.541395
0.282825 0.668437 0.668437
0.282660 0.668272 0.794529
0.282496 0.668108 0.919833
0.282382 0.667994 1.000000
0.282048 0.793917 0.011789
0.281868 0.793737 0.149431
0.281695 0.793564 0.281695
0.281525 0.793395 0.411528
0.281357 0.793227 0.539762
0.281191 0.793061 0.666804
0.281026 0.792896 0.792896
0.280863 0.792732 0.918200
0.280748 0.792618 1.000000
0.280425 0.917762 0.010166
0.280245 0.917582 0.147808
0.280072 0.917409 0.280072
0.279902 0.917239 0.409905
0.279734 0.917072 0.538139
0.279568 0.916906 0.665181
0.279403 0.916741 0.791273
0.279239 0.916577 0.916577
0.279125 0.916463 1.000000
0.279293 1.000000 0.009035
0.279113 1.000000 0.146677
0.278940 1.000000 0.278940
0.278771 1.000000 0.408774
0.278603 1.000000 0.537007
0.278437 1.000000 0.664049
0.278272 1.000000 0.790141
0.278108 1.000000 0.915446
0.277994 1.000000 1.000000
0.421669 0.021407 0.021407
0.421489 0.021227 0.159049
0.421316 0.021054 0.291313
0.421146 0.020885 0.421146
0.420978 0.020717 0.549380
0.420812 0.020551 0.676422
0.420647 0.020386 0.802514
0.420483 0.020222 0.927818
0.420369 0.020108 1.000000
0.419886 0.157446 0.019624
0.419706 0.157266 0.157266
0.419533 0.157094 0.289530
0.419363 0.156924 0.419363
0.419195 0.156756 0.547597
0.419029 0.156590 0.674639
0.418864 0.156425 0.800731
0.418701 0.156261 0.926035
0.418586 0.156147 1.000000
0.418173 0.288170 0.017911
0.417993 0.287990 0.155553
0.417820 0.287817 0.287817
0.417650 0.287647 0.417650
0.417482 0.287479 0.545884
0.417316 0.287313 0.672925
0.417151 0.287148 0.799018
0.416987 0.286984 0.924322
0.416873 0.286870 1.000000
0.416491 0.416491 0.016229
0.416311 0.416311 0.153871
0.416138 0.416138 0.286135
0.415968 0.415968 0.415968
0.415800 0.415800 0.544202
0.415634 0.415634 0.671244
0.415469 0.415469 0.797336
0.415306 0.415306 0.922640
0.415191 0.415191 1.000000
0.414830 0.543231 0.014568
0.414650 0.543051 0.152210
0.414477 0.542878 0.284474
0.414307 0.542709 0.414307
0.414139 0.542541 0.542541
0.413973 0.542375 0.669583
0.413808 0.542210 0.795675
0.413644 0.542046 0.920979
0.413530 0.541932 1.000000
0.413184 0.668794 0.012923
0.413004 0.668614 0.150565
0.412831 0.668441 0.282828
0.412661 0.668271 0.412661
0.412494 0.668103 0.540895
0.412328 0.667937 0.667937
0.412163 0.667772 0.794029
0.411999 0.667608 0.919333
0.411885 0.667494 1.000000
0.411551 0.793417 0.011289
0.411371 0.793237 0.148931
0.411198 0.793064 0.281195
0.411028 0.792895 0.411028
0.410860 0.792727 0.539262
0.410694 0.792561 0.666304
0.410529 0.792396 0.792396
0.410366 0.792232 0.917700
0.410251 0.792118 1.000000
0.409928 0.917262 0.009666
0.409748 0.917082 0.147308
0.409575 0.916909 0.279572
0.409405 0.916740 0.409405
0.409237 0.916572 0.537639
0.409071 0.916406 0.664681
0.408906 0.916241 0.790773
0.408742 0.916077 0.916077
0.408628 0.915963 1.000000
0.408796 1.000000 0.008535
0.408616 1.000000 0.146177
0.408443 1.000000 0.278440
0.408274 1.000000 0.408274
0.408106 1.000000 0.536507
0.407940 1.000000 0.663549
0.407775 1.000000 0.789642
0.407611 1.000000 0.914946
0.407497 1.000000 1.000000
0.549577 0.020914 0.020914
0.549397 0.020734 0.158556
0.549224 0.020561 0.290819
0.549054 0.020391 0.420652
0.548886 0.020223 0.548886
0.548720 0.020057 0.675928
0.548555 0.019892 0.802020
0.548391 0.019728 0.927324
0.548277 0.019614 1.000000
0.547794 0.156953 0.019131
0.547614 0.156773 0.156773
0.547441 0.156600 0.289036
0.547271 0.156430 0.418869
0.547103 0.156262 0.547103
0.546937 0.156096 0.674145
0.546772 0.155931 0.800237
0.546608 0.155767 0.925541
0.546494 0.155653 1.000000
0.546080 0.287676 0.017417
0.545900 0.287496 0.155059
0.545727 0.287323 0.287323
0.545558 0.287153 0.417156
0.545390 0.286985 0.545390
0.545224 0.286819 0.672432
0.545059 0.286654 0.798524
0.544895 0.286491 0.923828
0.544781 0.286376 1.000000
0.544399 0.415997 0.015736
0.544219 0.415817 0.153378
0.544046 0.415644 0.285641
0.543876 0.415474 0.415474
0.543708 0.415307 0.543708
0.543542 0.415141 0.670750
0.543377 0.414976 0.796842
0.543213 0.414812 0.922146
0.543099 0.414698 1.000000
0.542738 0.542738 0.014075
0.542558 0.542558 0.151717
0.542385 0.542385 0.283980
0.542215 0.542215 0.413813
0.542047 0.542047 0.542047
0.541881 0.541881 0.669089
0.541716 0.541716 0.795181
0.541552 0.541552 0.920485
0.541438 0.541438 1.000000
0.541092 0.668300 0.012429
0.540912 0.668120 0.150071
0.540739 0.667947 0.282334
0.540569 0.667777 0.412168
0.540402 0.667609 0.540402
0.540235 0.667443 0.667443
0.540071 0.667278 0.793536
0.539907 0.667115 0.918840
0.539792 0.667000 1.000000
0.539459 0.792924 0.010796
0.539279 0.792744 0.148438
0.539106 0.792571 0.280701
0.538936 0.792401 0.410534
0.538768 0.792233 0.538768
0.538602 0.792067 0.665810
0.538437 0.791902 0.791902
0.538273 0.791738 0.917206
0.538159 0.791624 1.000000
0.537836 0.916769 0.009172
0.537656 0.916589 0.146815
0.537483 0.916416 0.279078
0.537313 0.916246 0.408911
0.537145 0.916078 0.537145
0.536979 0.915912 0.664187
0.536814 0.915747 0.790279
0.536650 0.915583 0.915583
0.536536 0.915469 1.000000
0.536704 1.000000 0.008041
0.536524 1.000000 0.145683
0.536351 1.000000 0.277947
0.536181 1.000000 0.407780
0.536014 1.000000 0.536014
0.535848 1.000000 0.663055
0.535683 1.000000 0.789148
0.535519 1.000000 0.914452
0.535405 1.000000 1.000000
0.676295 0.020424 0.020424
0.676115 0.020244 0.158066
0.675942 0.020071 0.290330
0.675773 0.019902 0.420163
0.675605 0.019734 0.548397
0.675439 0.019568 0.675439
0.675274 0.019403 0.801531
0.675110 0.019239 0.926835
0.674996 0.019125 1.000000
0.674512 0.156464 0.018641
0.674332 0.156284 0.156284
0.674159 0.156111 0.288547
0.673990 0.155941 0.418380
0.673822 0.155773 0.546614
0.673656 0.155607 0.673656
0.673491 0.155442 0.799748
0.673327 0.155278 0.925052
0.673213 0.155164 1.000000
0.672799 0.287187 0.016928
0.672619 0.287007 0.154570
0.672446 0.286834 0.286834
0.672276 0.286664 0.416667
0.672109 0.286496 0.544901
0.671943 0.286330 0.671943
0.671778 0.286165 0.798035
0.671614 0.286001 0.923339
0.671500 0.285887 1.000000
0.671117 0.415508 0.015246
0.670937 0.415328 0.152888
0.670764 0.415155 0.285152
0.670595 0.414985 0.414985
0.670427 0.414817 0.543219
0.670261 0.414651 0.670261
0.670096 0.414486 0.796353
0.669932 0.414323 0.921657
0.669818 0.414208 1.000000
0.669456 0.542248 0.013585
0.669276 0.542068 0.151227
0.669103 0.541895 0.283491
0.668934 0.541726 0.413324
0.668766 0.541558 0.541558
0.668600 0.541392 0.668600
0.668435 0.541227 0.794692
0.668271 0.541063 0.919996
0.668157 0.540949 1.000000
0.667811 0.667811 0.011940
0.667631 0.667631 0.149582
0.667458 0.667458 0.281845
0.667288 0.667288 0.411678
0.667120 0.667120 0.539912
0.666954 0.666954 0.666954
0.666789 0.666789 0.793046
0.666625 0.666625 0.918351
0.666511 0.666511 1.000000
0.666177 0.792434 0.010306
0.665997 0.792255 0.147948
0.665824 0.792082 0.280212
0.665655 0.791912 0.410045
0.665487 0.791744 0.538279
0.665321 0.791578 0.665321
0.665156 0.791413 0.791413
0.664992 0.791249 0.916717
0.664878 0.791135 1.000000
0.664554 0.916279 0.008683
0.664374 0.916099 0.146325
0.664201 0.915926 0.278589
0.664031 0.915757 0.408422
0.663864 0.915589 0.536656
0.663698 0.915423 0.663698
0.663533 0.915258 0.789790
0.663369 0.915094 0.915094
0.663255 0.914980 1.000000
0.663423 1.000000 0.007552
0.663243 1.000000 0.145194
0.663070 1.000000 0.277457
0.662900 1.000000 0.407291
0.662732 1.000000 0.535525
0.662566 1.000000 0.662566
0.662401 1.000000 0.788659
0.662238 1.000000 0.913963
0.662123 1.000000 1.000000
0.802067 0.019939 0.019939
0.801887 0.019759 0.157581
0.801714 0.019586 0.289844
0.801544 0.019416 0.419678
0.801377 0.019248 0.547911
0.801210 0.019082 0.674953
0.801046 0.018917 0.801046
0.800882 0.018754 0.926350
0.800767 0.018639 1.000000
0.800284 0.155978 0.018156
0.800104 0.155798 0.155798
0.799931 0.155625 0.288061
0.799761 0.155455 0.417895
0.799594 0.155288 0.546129
0.799427 0.155121 0.673170
0.799263 0.154957 0.799263
0.799099 0.154793 0.924567
0.798985 0.154679 1.000000
0.798571 0.286701 0.016443
0.798391 0.286521 0.154085
0.798218 0.286348 0.286348
0.798048 0.286178 0.416181
0.797880 0.286011 0.544415
0.797714 0.285845 0.671457
0.797549 0.285680 0.797549
0.797385 0.285516 0.922853
0.797271 0.285402 1.000000
0.796889 0.415022 0.014761
0.796709 0.414842 0.152403
0.796536 0.414669 0.284666
0.796366 0.414500 0.414500
0.796199 0.414332 0.542734
0.796032 0.414166 0.669775
0.795868 0.414001 0.795868
0.795704 0.413837 0.921172
0.795589 0.413723 1.000000
0.795228 0.541763 0.013100
0.795048 0.541583 0.150742
0.794875 0.541410 0.283005
0.794705 0.541240 0.412839
0.794538 0.541072 0.541072
0.794371 0.540906 0.668114
0.794206 0.540741 0.794206
0.794043 0.540578 0.919511
0.793928 0.540463 1.000000
0.793582 0.667325 0.011454
0.793402 0.667145 0.149096
0.793229 0.666972 0.281360
0.793060 0.666802 0.411193
0.792892 0.666635 0.539427
0.792726 0.666469 0.666469
0.792561 0.666304 0.792561
0.792397 0.666140 0.917865
0.792283 0.666026 1.000000
0.791949 0.791949 0.009821
0.791769 0.791769 0.147463
0.791596 0.791596 0.279726
0.791426 0.791426 0.409560
0.791259 0.791259 0.537794
0.791092 0.791092 0.664835
0.790928 0.790928 0.790928
0.790764 0.790764 0.916232
0.790649 0.790649 1.000000
0.790326 0.915794 0.008198
0.790146 0.915614 0.145840
0.789973 0.915441 0.278103
0.789803 0.915271 0.407937
0.789635 0.915103 0.536170
0.789469 0.914937 0.663212
0.789304 0.914772 0.789304
0.789141 0.914609 0.914609
0.789026 0.914494 1.000000
0.789195 1.000000 0.007066
0.789015 1.000000 0.144708
0.788842 1.000000 0.276972
0.788672 1.000000 0.406805
0.788504 1.000000 0.535039
0.788338 1.000000 0.662081
0.788173 1.000000 0.788173
0.788009 1.000000 0.913477
0.787895 1.000000 1.000000
0.927052 0.019456 0.019456
0.926872 0.019276 0.157098
0.926699 0.019103 0.289362
0.926530 0.018934 0.419195
0.926362 0.018766 0.547429
0.926196 0.018600 0.674471
0.926031 0.018435 0.800563
0.925867 0.018271 0.925867
0.925753 0.018157 1.000000
0.925269 0.155496 0.017673
0.925089 0.155316 0.155316
0.924917 0.155143 0.287579
0.924747 0.154973 0.417412
0.924579 0.154805 0.545646
0.924413 0.154639 0.672688
0.924248 0.154474 0.798780
0.924084 0.154310 0.924084
0.923970 0.154196 1.000000
0.923556 0.286219 0.015960
0.923376 0.286039 0.153602
0.923203 0.285866 0.285866
0.923034 0.285696 0.415699
0.922866 0.285528 0.543933
0.922700 0.285362 0.670975
0.922535 0.285197 0.797067
0.922371 0.285033 0.922371
0.922257 0.284919 1.000000
0.921874 0.414540 0.014278
0.921694 0.414360 0.151920
0.921522 0.414187 0.284184
0.921352 0.414017 0.414017
0.921184 0.413849 0.542251
0.921018 0.413683 0.669293
0.920853 0.413518 0.795385
0.920689 0.413355 0.920689
0.920575 0.413240 1.000000
0.920213 0.541280 0.012617
0.920033 0.541100 0.150259
0.919860 0.540927 0.282523
0.919691 0.540758 0.412356
0.919523 0.540590 0.540590
0.919357 0.540424 0.667632
0.919192 0.540259 0.793724
0.919028 0.540095 0.919028
0.918914 0.539981 1.000000
0.918568 0.666843 0.010972
0.918388 0.666663 0.148614
0.918215 0.666490 0.280877
0.918045 0.666320 0.410710
0.917877 0.666152 0.538944
0.917711 0.665986 0.665986
0.917546 0.665821 0.792078
0.917383 0.665657 0.917383
0.917268 0.665543 1.000000
0.916934 0.791466 0.009338
0.916754 0.791287 0.146980
0.916582 0.791114 0.279244
0.916412 0.790944 0.409077
0.916244 0.790776 0.537311
0.916078 0.790610 0.664353
0.915913 0.790445 0.790445
0.915749 0.790281 0.915749
0.915635 0.790167 1.000000
0.915311 0.915311 0.007715
0.915131 0.915131 0.145357
0.914958 0.914958 0.277621
0.914789 0.914789 0.407454
0.914621 0.914621 0.535688
0.914455 0.914455 0.662730
0.914290 0.914290 0.788822
0.914126 0.914126 0.914126
0.914012 0.914012 1.000000
0.914180 1.000000 0.006584
0.914000 1.000000 0.144226
0.913827 1.000000 0.276489
0.913657 1.000000 0.406323
0.913490 1.000000 0.534557
0.913323 1.000000 0.661598
0.913159 1.000000 0.787691
0.912995 1.000000 0.912995
0.912881 1.000000 1.000000
1.000000 0.019120 0.019120
1.000000 0.018940 0.156762
1.000000 0.018767 0.289026
1.000000 0.018597 0.418859
1.000000 0.018430 0.547093
1.000000 0.018264 0.674134
1.000000 0.018099 0.800227
1.000000 0.017935 0.925531
1.000000 0.017821 1.000000
1.000000 0.155159 0.017337
1.000000 0.154979 0.154979
1.000000 0.154806 0.287243
1.000000 0.154636 0.417076
1.000000 0.154469 0.545310
1.000000 0.154303 0.672351
1.000000 0.154138 0.798444
1.000000 0.153974 0.923748
1.000000 0.153860 1.000000
1.000000 0.285882 0.015624
1.000000 0.285702 0.153266
1.000000 0.285529 0.285529
1.000000 0.285360 0.415363
1.000000 0.285192 0.543596
1.000000 0.285026 0.670638
1.000000 0.284861 0.796731
1.000000 0.284697 0.922035
1.000000 0.284583 1.000000
1.000000 0.414204 0.013942
1.000000 0.414024 0.151584
1.000000 0.413851 0.283848
1.000000 0.413681 0.413681
1.000000 0.413513 0.541915
1.000000 0.413347 0.668956
1.000000 0.413182 0.795049
1.000000 0.413018 0.920353
1.000000 0.412904 1.000000
1.000000 0.540944 0.012281
1.000000 0.540764 0.149923
1.000000 0.540591 0.282187
1.000000 0.540421 0.412020
1.000000 0.540254 0.540254
1.000000 0.540088 0.667295
1.000000 0.539923 0.793388
1.000000 0.539759 0.918692
1.000000 0.539645 1.000000
1.000000 0.666506 0.010635
1.000000 0.666326 0.148277
1.000000 0.666153 0.280541
1.000000 0.665984 0.410374
1.000000 0.665816 0.538608
1.000000 0.665650 0.665650
1.000000 0.665485 0.791742
1.000000 0.665321 0.917046
1.000000 0.665207 1.000000
1.000000 0.791130 0.009002
1.000000 0.790950 0.146644
1.000000 0.790777 0.278908
1.000000 0.790607 0.408741
1.000000 0.790440 0.536975
1.000000 0.790274 0.664016
1.000000 0.790109 0.790109
1.000000 0.789945 0.915413
1.000000 0.789831 1.000000
1.000000 0.914975 0.007379
1.000000 0.914795 0.145021
1.000000 0.914622 0.277285
1.000000 0.914452 0.407118
1.000000 0.914285 0.535352
1.000000 0.914119 0.662393
1.000000 0.913954 0.788486
1.000000 0.913790 0.913790
1.000000 0.913676 1.000000
1.000000 1.000000 0.006248
1.000000 1.000000 0.143890
1.000000 1.000000 0.276153
1.000000 1.000000 0.405986
1.000000 1.000000 0.534220
1.000000 1.000000 0.661262
1.000000 1.000000 0.787354
1.000000 1.000000 0.912658
1.000000 1.000000 1.000000
