skills/creativeops-producer/assets/grade/luts/clean_bright_v20.cube
TITLE "clean_bright_v20"
LUT_3D_SIZE 17
DOMAIN_MIN 0.0 0.0 0.0
DOMAIN_MAX 1.0 1.0 1.0
0.047775 0.047775 0.047775
0.047509 0.047509 0.124863
0.047255 0.047255 0.198335
0.047009 0.047009 0.269786
0.046767 0.046767 0.339833
0.046529 0.046529 0.408809
0.046294 0.046294 0.476921
0.046062 0.046062 0.544308
0.045831 0.045831 0.611074
0.045603 0.045603 0.677297
0.045376 0.045376 0.743036
0.045151 0.045151 0.808341
0.044927 0.044927 0.873252
0.044704 0.044704 0.937802
0.044483 0.044483 1.000000
0.044337 0.044337 1.000000
0.044337 0.044337 1.000000
0.045140 0.122495 0.045140
0.044874 0.122229 0.122229
0.044621 0.121975 0.195700
0.044374 0.121729 0.267151
0.044133 0.121487 0.337199
0.043895 0.121249 0.406175
0.043660 0.121014 0.474286
0.043427 0.120782 0.541674
0.043197 0.120551 0.608440
0.042968 0.120323 0.674662
0.042742 0.120096 0.740402
0.042516 0.119871 0.805707
0.042292 0.119647 0.870618
0.042070 0.119424 0.935168
0.041848 0.119203 0.999386
0.041703 0.119057 1.000000
0.041703 0.119057 1.000000
0.042629 0.193709 0.042629
0.042363 0.193443 0.119718
0.042110 0.193190 0.193190
0.041864 0.192943 0.264640
0.041622 0.192701 0.334688
0.041384 0.192463 0.403664
0.041149 0.192228 0.471775
0.040916 0.191996 0.539163
0.040686 0.191766 0.605929
0.040458 0.191537 0.672151
0.040231 0.191310 0.737891
0.040006 0.191085 0.803196
0.039782 0.190861 0.868107
0.039559 0.190638 0.932657
0.039337 0.190417 0.996875
0.039192 0.190271 1.000000
0.039192 0.190271 1.000000
0.040188 0.262964 0.040188
0.039922 0.262698 0.117276
0.039668 0.262445 0.190748
0.039422 0.262198 0.262198
0.039180 0.261957 0.332246
0.038942 0.261719 0.401222
0.038707 0.261484 0.469334
0.038475 0.261251 0.536721
0.038244 0.261021 0.603487
0.038016 0.260793 0.669710
0.037789 0.260566 0.735449
0.037564 0.260340 0.800754
0.037340 0.260116 0.865665
0.037117 0.259894 0.930215
0.036896 0.259672 0.994433
0.036750 0.259527 1.000000
0.036750 0.259527 1.000000
0.037794 0.330860 0.037794
0.037528 0.330594 0.114882
0.037274 0.330340 0.188354
0.037028 0.330094 0.259805
0.036786 0.329852 0.329852
0.036548 0.329614 0.398828
0.036313 0.329379 0.466940
0.036081 0.329147 0.534327
0.035850 0.328916 0.601093
0.035622 0.328688 0.667316
0.035395 0.328461 0.733055
0.035170 0.328236 0.798360
0.034946 0.328012 0.863271
0.034723 0.327789 0.927821
0.034502 0.327568 0.992040
0.034356 0.327422 1.000000
0.034356 0.327422 1.000000
0.035437 0.397717 0.035437
0.035171 0.397451 0.112525
0.034917 0.397197 0.185997
0.034671 0.396951 0.257447
0.034429 0.396709 0.327495
0.034191 0.396471 0.396471
0.033956 0.396236 0.464582
0.033724 0.396004 0.531970
0.033493 0.395773 0.598736
0.033265 0.395545 0.664959
0.033038 0.395318 0.730698
0.032813 0.395093 0.796003
0.032589 0.394869 0.860914
0.032366 0.394646 0.925464
0.032144 0.394425 0.989682
0.031999 0.394279 1.000000
0.031999 0.394279 1.000000
0.033109 0.463735 0.033109
0.032843 0.463469 0.110197
0.032589 0.463216 0.183669
0.032343 0.462969 0.255120
0.032101 0.462728 0.325167
0.031863 0.462490 0.394143
0.031628 0.462255 0.462255
0.031396 0.462022 0.529642
0.031166 0.461792 0.596409
0.030937 0.461563 0.662631
0.030710 0.461337 0.728370
0.030485 0.461111 0.793675
0.030261 0.460887 0.858586
0.030038 0.460665 0.923137
0.029817 0.460443 0.987355
0.029671 0.460298 1.000000
0.029671 0.460298 1.000000
0.030806 0.529052 0.030806
0.030540 0.528786 0.107894
0.030287 0.528533 0.181366
0.030040 0.528286 0.252817
0.029798 0.528045 0.322864
0.029560 0.527807 0.391841
0.029325 0.527572 0.459952
0.029093 0.527339 0.527339
0.028863 0.527109 0.594106
0.028634 0.526881 0.660328
0.028407 0.526654 0.726067
0.028182 0.526428 0.791372
0.027958 0.526205 0.856283
0.027735 0.525982 0.920834
0.027514 0.525760 0.985052
0.027368 0.525615 1.000000
0.027368 0.525615 1.000000
0.028524 0.593767 0.028524
0.028258 0.593501 0.105613
0.028005 0.593248 0.179084
0.027758 0.593001 0.250535
0.027517 0.592760 0.320583
0.027279 0.592522 0.389559
0.027044 0.592287 0.457670
0.026811 0.592054 0.525058
0.026581 0.591824 0.591824
0.026352 0.591595 0.658046
0.026126 0.591369 0.723786
0.025900 0.591143 0.789091
0.025676 0.590919 0.854002
0.025454 0.590697 0.918552
0.025232 0.590475 0.982770
0.025087 0.590330 1.000000
0.025087 0.590330 1.000000
0.026261 0.657955 0.026261
0.025995 0.657689 0.103350
0.025742 0.657436 0.176821
0.025495 0.657189 0.248272
0.025254 0.656947 0.318320
0.025016 0.656709 0.387296
0.024781 0.656474 0.455407
0.024548 0.656242 0.522795
0.024318 0.656012 0.589561
0.024089 0.655783 0.655783
0.023862 0.655556 0.721522
0.023637 0.655331 0.786827
0.023413 0.655107 0.851738
0.023191 0.654884 0.916289
0.022969 0.654663 0.980507
0.022824 0.654517 1.000000
0.022824 0.654517 1.000000
0.024014 0.721674 0.024014
0.023749 0.721408 0.101103
0.023495 0.721155 0.174575
0.023249 0.720908 0.246025
0.023007 0.720667 0.316073
0.022769 0.720429 0.385049
0.022534 0.720194 0.453160
0.022301 0.719961 0.520548
0.022071 0.719731 0.587314
0.021843 0.719503 0.653536
0.021616 0.719276 0.719276
0.021391 0.719050 0.784581
0.021167 0.718827 0.849492
0.020944 0.718604 0.914042
0.020722 0.718382 0.978260
0.020577 0.718237 1.000000
0.020577 0.718237 1.000000
0.021783 0.784973 0.021783
0.021517 0.784707 0.098871
0.021263 0.784454 0.172343
0.021017 0.784207 0.243793
0.020775 0.783965 0.313841
0.020537 0.783727 0.382817
0.020302 0.783492 0.450929
0.020070 0.783260 0.518316
0.019839 0.783030 0.585082
0.019611 0.782801 0.651305
0.019384 0.782574 0.717044
0.019159 0.782349 0.782349
0.018935 0.782125 0.847260
0.018712 0.781902 0.911810
0.018491 0.781681 0.976029
0.018345 0.781535 1.000000
0.018345 0.781535 1.000000
0.019564 0.847890 0.019564
0.019298 0.847624 0.096653
0.019045 0.847370 0.170125
0.018798 0.847124 0.241575
0.018557 0.846882 0.311623
0.018319 0.846644 0.380599
0.018084 0.846409 0.448710
0.017851 0.846177 0.516098
0.017621 0.845946 0.582864
0.017393 0.845718 0.649086
0.017166 0.845491 0.714826
0.016940 0.845266 0.780131
0.016717 0.845042 0.845042
0.016494 0.844819 0.909592
0.016272 0.844597 0.973810
0.016127 0.844452 1.000000
0.016127 0.844452 1.000000
0.017358 0.910457 0.017358
0.017092 0.910191 0.094447
0.016839 0.909937 0.167919
0.016592 0.909691 0.239369
0.016351 0.909449 0.309417
0.016113 0.909211 0.378393
0.015878 0.908976 0.446504
0.015645 0.908744 0.513892
0.015415 0.908513 0.580658
0.015187 0.908285 0.646880
0.014960 0.908058 0.712620
0.014734 0.907833 0.777925
0.014511 0.907609 0.842836
0.014288 0.907386 0.907386
0.014066 0.907165 0.971604
0.013921 0.907019 1.000000
0.013921 0.907019 1.000000
0.015164 0.972702 0.015164
0.014898 0.972436 0.092252
0.014644 0.972182 0.165724
0.014398 0.971936 0.237175
0.014156 0.971694 0.307222
0.013918 0.971456 0.376198
0.013683 0.971221 0.444310
0.013451 0.970989 0.511697
0.013220 0.970758 0.578463
0.012992 0.970530 0.644686
0.012765 0.970303 0.710425
0.012540 0.970078 0.775730
0.012316 0.969854 0.840641
0.012093 0.969631 0.905191
0.011872 0.969410 0.969410
0.011726 0.969264 1.000000
0.011726 0.969264 1.000000
0.013723 1.000000 0.013723
0.013457 1.000000 0.090812
0.013204 1.000000 0.164283
0.012957 1.000000 0.235734
0.012716 1.000000 0.305782
0.012478 1.000000 0.374758
0.012243 1.000000 0.442869
0.012010 1.000000 0.510257
0.011780 1.000000 0.577023
0.011551 1.000000 0.643245
0.011325 1.000000 0.708985
0.011099 1.000000 0.774290
0.010875 1.000000 0.839201
0.010653 1.000000 0.903751
0.010431 1.000000 0.967969
0.010286 1.000000 1.000000
0.010286 1.000000 1.000000
0.013723 1.000000 0.013723
0.013457 1.000000 0.090812
0.013204 1.000000 0.164283
0.012957 1.000000 0.235734
0.012716 1.000000 0.305782
0.012478 1.000000 0.374758
0.012243 1.000000 0.442869
0.012010 1.000000 0.510257
0.011780 1.000000 0.577023
0.011551 1.000000 0.643245
0.011325 1.000000 0.708985
0.011099 1.000000 0.774290
0.010875 1.000000 0.839201
0.010653 1.000000 0.903751
0.010431 1.000000 0.967969
0.010286 1.000000 1.000000
0.010286 1.000000 1.000000
0.124346 0.046992 0.046992
0.124080 0.046726 0.124080
0.123827 0.046472 0.197552
0.123580 0.046226 0.269002
0.123339 0.045984 0.339050
0.123101 0.045746 0.408026
0.122866 0.045511 0.476138
0.122633 0.045279 0.543525
0.122403 0.045048 0.610291
0.122174 0.044820 0.676514
0.121947 0.044593 0.742253
0.121722 0.044368 0.807558
0.121498 0.044144 0.872469
0.121276 0.043921 0.937019
0.121054 0.043700 1.000000
0.120909 0.043554 1.000000
0.120909 0.043554 1.000000
0.121712 0.121712 0.044357
0.121446 0.121446 0.121446
0.121192 0.121192 0.194917
0.120946 0.120946 0.266368
0.120704 0.120704 0.336416
0.120466 0.120466 0.405392
0.120231 0.120231 0.473503
0.119999 0.119999 0.540891
0.119768 0.119768 0.607657
0.119540 0.119540 0.673879
0.119313 0.119313 0.739618
0.119088 0.119088 0.804924
0.118864 0.118864 0.869835
0.118641 0.118641 0.934385
0.118420 0.118420 0.998603
0.118274 0.118274 1.000000
0.118274 0.118274 1.000000
0.119201 0.192926 0.041846
0.118935 0.192660 0.118935
0.118681 0.192406 0.192406
0.118435 0.192160 0.263857
0.118193 0.191918 0.333905
0.117955 0.191680 0.402881
0.117720 0.191445 0.470992
0.117488 0.191213 0.538380
0.117257 0.190983 0.605146
0.117029 0.190754 0.671368
0.116802 0.190527 0.737108
0.116577 0.190302 0.802413
0.116353 0.190078 0.867324
0.116130 0.189855 0.931874
0.115909 0.189634 0.996092
0.115763 0.189488 1.000000
0.115763 0.189488 1.000000
0.116759 0.262181 0.039405
0.116493 0.261915 0.116493
0.116240 0.261662 0.189965
0.115993 0.261415 0.261415
0.115751 0.261174 0.331463
0.115513 0.260936 0.400439
0.115278 0.260701 0.468550
0.115046 0.260468 0.535938
0.114816 0.260238 0.602704
0.114587 0.260009 0.668927
0.114360 0.259783 0.734666
0.114135 0.259557 0.799971
0.113911 0.259333 0.864882
0.113688 0.259111 0.929432
0.113467 0.258889 0.993650
0.113321 0.258744 1.000000
0.113321 0.258744 1.000000
0.114365 0.330077 0.037011
0.114099 0.329811 0.114099
0.113846 0.329557 0.187571
0.113599 0.329311 0.259021
0.113358 0.329069 0.329069
0.113120 0.328831 0.398045
0.112885 0.328596 0.466157
0.112652 0.328364 0.533544
0.112422 0.328133 0.600310
0.112193 0.327905 0.666533
0.111966 0.327678 0.732272
0.111741 0.327453 0.797577
0.111517 0.327229 0.862488
0.111295 0.327006 0.927038
0.111073 0.326785 0.991256
0.110928 0.326639 1.000000
0.110928 0.326639 1.000000
0.112008 0.396934 0.034653
0.111742 0.396668 0.111742
0.111488 0.396414 0.185214
0.111242 0.396168 0.256664
0.111000 0.395926 0.326712
0.110762 0.395688 0.395688
0.110527 0.395453 0.463799
0.110295 0.395221 0.531187
0.110065 0.394990 0.597953
0.109836 0.394762 0.664175
0.109609 0.394535 0.729915
0.109384 0.394310 0.795220
0.109160 0.394086 0.860131
0.108937 0.393863 0.924681
0.108716 0.393641 0.988899
0.108570 0.393496 1.000000
0.108570 0.393496 1.000000
0.109680 0.462952 0.032326
0.109414 0.462686 0.109414
0.109161 0.462433 0.182886
0.108914 0.462186 0.254337
0.108673 0.461945 0.324384
0.108435 0.461707 0.393360
0.108200 0.461472 0.461472
0.107967 0.461239 0.528859
0.107737 0.461009 0.595625
0.107508 0.460780 0.661848
0.107282 0.460554 0.727587
0.107056 0.460328 0.792892
0.106832 0.460104 0.857803
0.106610 0.459882 0.922353
0.106388 0.459660 0.986572
0.106243 0.459515 1.000000
0.106243 0.459515 1.000000
0.107377 0.528269 0.030023
0.107111 0.528003 0.107111
0.106858 0.527750 0.180583
0.106611 0.527503 0.252034
0.106370 0.527262 0.322081
0.106132 0.527024 0.391057
0.105897 0.526789 0.459169
0.105664 0.526556 0.526556
0.105434 0.526326 0.593322
0.105205 0.526097 0.659545
0.104979 0.525871 0.725284
0.104753 0.525645 0.790589
0.104529 0.525421 0.855500
0.104307 0.525199 0.920050
0.104085 0.524977 0.984269
0.103940 0.524832 1.000000
0.103940 0.524832 1.000000
0.105096 0.592984 0.027741
0.104830 0.592718 0.104830
0.104576 0.592465 0.178301
0.104330 0.592218 0.249752
0.104088 0.591977 0.319800
0.103850 0.591739 0.388776
0.103615 0.591504 0.456887
0.103383 0.591271 0.524275
0.103152 0.591041 0.591041
0.102924 0.590812 0.657263
0.102697 0.590585 0.723002
0.102472 0.590360 0.788307
0.102248 0.590136 0.853218
0.102025 0.589914 0.917769
0.101803 0.589692 0.981987
0.101658 0.589547 1.000000
0.101658 0.589547 1.000000
0.102832 0.657172 0.025478
0.102566 0.656906 0.102566
0.102313 0.656652 0.176038
0.102066 0.656406 0.247489
0.101825 0.656164 0.317536
0.101587 0.655926 0.386513
0.101352 0.655691 0.454624
0.101119 0.655459 0.522011
0.100889 0.655228 0.588778
0.100661 0.655000 0.655000
0.100434 0.654773 0.720739
0.100208 0.654548 0.786044
0.099985 0.654324 0.850955
0.099762 0.654101 0.915506
0.099540 0.653880 0.979724
0.099395 0.653734 1.000000
0.099395 0.653734 1.000000
0.100586 0.720891 0.023231
0.100320 0.720625 0.100320
0.100066 0.720372 0.173791
0.099820 0.720125 0.245242
0.099578 0.719884 0.315290
0.099340 0.719646 0.384266
0.099105 0.719411 0.452377
0.098873 0.719178 0.519765
0.098642 0.718948 0.586531
0.098414 0.718719 0.652753
0.098187 0.718493 0.718493
0.097962 0.718267 0.783798
0.097738 0.718043 0.848709
0.097515 0.717821 0.913259
0.097294 0.717599 0.977477
0.097148 0.717454 1.000000
0.097148 0.717454 1.000000
0.098354 0.784190 0.021000
0.098088 0.783924 0.098088
0.097835 0.783670 0.171560
0.097588 0.783424 0.243010
0.097346 0.783182 0.313058
0.097108 0.782944 0.382034
0.096873 0.782709 0.450145
0.096641 0.782477 0.517533
0.096411 0.782247 0.584299
0.096182 0.782018 0.650522
0.095955 0.781791 0.716261
0.095730 0.781566 0.781566
0.095506 0.781342 0.846477
0.095283 0.781119 0.911027
0.095062 0.780898 0.975245
0.094916 0.780752 1.000000
0.094916 0.780752 1.000000
0.096136 0.847106 0.018781
0.095870 0.846841 0.095870
0.095616 0.846587 0.169341
0.095370 0.846341 0.240792
0.095128 0.846099 0.310840
0.094890 0.845861 0.379816
0.094655 0.845626 0.447927
0.094423 0.845393 0.515315
0.094192 0.845163 0.582081
0.093964 0.844935 0.648303
0.093737 0.844708 0.714043
0.093512 0.844483 0.779348
0.093288 0.844259 0.844259
0.093065 0.844036 0.908809
0.092844 0.843814 0.973027
0.092698 0.843669 1.000000
0.092698 0.843669 1.000000
0.093930 0.909674 0.016575
0.093664 0.909408 0.093664
0.093410 0.909154 0.167135
0.093164 0.908908 0.238586
0.092922 0.908666 0.308634
0.092684 0.908428 0.377610
0.092449 0.908193 0.445721
0.092217 0.907960 0.513109
0.091986 0.907730 0.579875
0.091758 0.907502 0.646097
0.091531 0.907275 0.711837
0.091306 0.907050 0.777142
0.091082 0.906826 0.842053
0.090859 0.906603 0.906603
0.090638 0.906381 0.970821
0.090492 0.906236 1.000000
0.090492 0.906236 1.000000
0.091735 0.971919 0.014381
0.091469 0.971653 0.091469
0.091216 0.971399 0.164941
0.090969 0.971153 0.236391
0.090727 0.970911 0.306439
0.090490 0.970673 0.375415
0.090255 0.970438 0.443527
0.090022 0.970206 0.510914
0.089792 0.969975 0.577680
0.089563 0.969747 0.643903
0.089336 0.969520 0.709642
0.089111 0.969295 0.774947
0.088887 0.969071 0.839858
0.088665 0.968848 0.904408
0.088443 0.968626 0.968626
0.088298 0.968481 1.000000
0.088298 0.968481 1.000000
0.090295 1.000000 0.012940
0.090029 1.000000 0.090029
0.089775 1.000000 0.163500
0.089529 1.000000 0.234951
0.089287 1.000000 0.304999
0.089049 1.000000 0.373975
0.088814 1.000000 0.442086
0.088581 1.000000 0.509474
0.088351 1.000000 0.576240
0.088123 1.000000 0.642462
0.087896 1.000000 0.708201
0.087671 1.000000 0.773506
0.087447 1.000000 0.838417
0.087224 1.000000 0.902968
0.087002 1.000000 0.967186
0.086857 1.000000 1.000000
0.086857 1.000000 1.000000
0.090295 1.000000 0.012940
0.090029 1.000000 0.090029
0.089775 1.000000 0.163500
0.089529 1.000000 0.234951
0.089287 1.000000 0.304999
0.089049 1.000000 0.373975
0.088814 1.000000 0.442086
0.088581 1.000000 0.509474
0.088351 1.000000 0.576240
0.088123 1.000000 0.642462
0.087896 1.000000 0.708201
0.087671 1.000000 0.773506
0.087447 1.000000 0.838417
0.087224 1.000000 0.902968
0.087002 1.000000 0.967186
0.086857 1.000000 1.000000
0.086857 1.000000 1.000000
0.197325 0.046245 0.046245
0.197059 0.045979 0.123334
0.196805 0.045726 0.196805
0.196559 0.045479 0.268256
0.196317 0.045238 0.338304
0.196079 0.045000 0.407280
0.195844 0.044765 0.475391
0.195612 0.044532 0.542779
0.195381 0.044302 0.609545
0.195153 0.044073 0.675767
0.194926 0.043847 0.741507
0.194701 0.043621 0.806812
0.194477 0.043397 0.871723
0.194254 0.043175 0.936273
0.194033 0.042953 1.000000
0.193887 0.042808 1.000000
0.193887 0.042808 1.000000
0.194690 0.120965 0.043611
0.194424 0.120699 0.120699
0.194171 0.120446 0.194171
0.193924 0.120199 0.265622
0.193683 0.119958 0.335669
0.193445 0.119720 0.404645
0.193210 0.119485 0.472757
0.192977 0.119252 0.540144
0.192747 0.119022 0.606910
0.192519 0.118793 0.673133
0.192292 0.118567 0.738872
0.192066 0.118341 0.804177
0.191843 0.118117 0.869088
0.191620 0.117895 0.933638
0.191398 0.117673 0.997857
0.191253 0.117528 1.000000
0.191253 0.117528 1.000000
0.192180 0.192180 0.041100
0.191914 0.191914 0.118188
0.191660 0.191660 0.191660
0.191414 0.191414 0.263111
0.191172 0.191172 0.333158
0.190934 0.190934 0.402135
0.190699 0.190699 0.470246
0.190466 0.190466 0.537633
0.190236 0.190236 0.604400
0.190008 0.190008 0.670622
0.189781 0.189781 0.736361
0.189556 0.189556 0.801666
0.189332 0.189332 0.866577
0.189109 0.189109 0.931128
0.188887 0.188887 0.995346
0.188742 0.188742 1.000000
0.188742 0.188742 1.000000
0.189738 0.261435 0.038658
0.189472 0.261169 0.115747
0.189218 0.260915 0.189218
0.188972 0.260669 0.260669
0.188730 0.260427 0.330717
0.188492 0.260189 0.399693
0.188257 0.259954 0.467804
0.188025 0.259722 0.535192
0.187794 0.259491 0.601958
0.187566 0.259263 0.668180
0.187339 0.259036 0.733919
0.187114 0.258811 0.799225
0.186890 0.258587 0.864135
0.186667 0.258364 0.928686
0.186446 0.258143 0.992904
0.186300 0.257997 1.000000
0.186300 0.257997 1.000000
0.187344 0.329330 0.036264
0.187078 0.329064 0.113353
0.186824 0.328811 0.186824
0.186578 0.328564 0.258275
0.186336 0.328323 0.328323
0.186098 0.328085 0.397299
0.185863 0.327850 0.465410
0.185631 0.327617 0.532798
0.185400 0.327387 0.599564
0.185172 0.327158 0.665786
0.184945 0.326932 0.731526
0.184720 0.326706 0.796831
0.184496 0.326482 0.861742
0.184273 0.326260 0.926292
0.184052 0.326038 0.990510
0.183906 0.325893 1.000000
0.183906 0.325893 1.000000
0.184987 0.396187 0.033907
0.184721 0.395921 0.110996
0.184467 0.395668 0.184467
0.184221 0.395421 0.255918
0.183979 0.395180 0.325965
0.183741 0.394942 0.394942
0.183506 0.394707 0.463053
0.183274 0.394474 0.530441
0.183043 0.394244 0.597207
0.182815 0.394015 0.663429
0.182588 0.393789 0.729168
0.182363 0.393563 0.794473
0.182139 0.393339 0.859384
0.181916 0.393117 0.923935
0.181695 0.392895 0.988153
0.181549 0.392750 1.000000
0.181549 0.392750 1.000000
0.182659 0.462206 0.031579
0.182393 0.461940 0.108668
0.182140 0.461686 0.182140
0.181893 0.461440 0.253590
0.181651 0.461198 0.323638
0.181413 0.460960 0.392614
0.181178 0.460725 0.460725
0.180946 0.460493 0.528113
0.180716 0.460262 0.594879
0.180487 0.460034 0.661101
0.180260 0.459807 0.726841
0.180035 0.459582 0.792146
0.179811 0.459358 0.857057
0.179588 0.459135 0.921607
0.179367 0.458914 0.985825
0.179221 0.458768 1.000000
0.179221 0.458768 1.000000
0.180356 0.527523 0.029276
0.180090 0.527257 0.106365
0.179837 0.527003 0.179837
0.179590 0.526757 0.251287
0.179348 0.526515 0.321335
0.179110 0.526277 0.390311
0.178875 0.526042 0.458422
0.178643 0.525810 0.525810
0.178413 0.525580 0.592576
0.178184 0.525351 0.658798
0.177957 0.525124 0.724538
0.177732 0.524899 0.789843
0.177508 0.524675 0.854754
0.177285 0.524452 0.919304
0.177064 0.524231 0.983522
0.176918 0.524085 1.000000
0.176918 0.524085 1.000000
0.178074 0.592238 0.026995
0.177808 0.591972 0.104083
0.177555 0.591718 0.177555
0.177308 0.591472 0.249005
0.177067 0.591230 0.319053
0.176829 0.590992 0.388029
0.176594 0.590757 0.456141
0.176361 0.590525 0.523528
0.176131 0.590294 0.590294
0.175902 0.590066 0.656517
0.175676 0.589839 0.722256
0.175450 0.589614 0.787561
0.175226 0.589390 0.852472
0.175004 0.589167 0.917022
0.174782 0.588946 0.981241
0.174637 0.588800 1.000000
0.174637 0.588800 1.000000
0.175811 0.656425 0.024732
0.175545 0.656159 0.101820
0.175292 0.655906 0.175292
0.175045 0.655660 0.246742
0.174804 0.655418 0.316790
0.174566 0.655180 0.385766
0.174331 0.654945 0.453877
0.174098 0.654712 0.521265
0.173868 0.654482 0.588031
0.173639 0.654254 0.654254
0.173413 0.654027 0.719993
0.173187 0.653802 0.785298
0.172963 0.653578 0.850209
0.172741 0.653355 0.914759
0.172519 0.653133 0.978977
0.172374 0.652988 1.000000
0.172374 0.652988 1.000000
0.173565 0.720145 0.022485
0.173299 0.719879 0.099573
0.173045 0.719625 0.173045
0.172799 0.719379 0.244496
0.172557 0.719137 0.314543
0.172319 0.718899 0.383520
0.172084 0.718664 0.451631
0.171852 0.718432 0.519018
0.171621 0.718202 0.585785
0.171393 0.717973 0.652007
0.171166 0.717746 0.717746
0.170941 0.717521 0.783051
0.170717 0.717297 0.847962
0.170494 0.717074 0.912513
0.170272 0.716853 0.976731
0.170127 0.716707 1.000000
0.170127 0.716707 1.000000
0.171333 0.783443 0.020253
0.171067 0.783178 0.097342
0.170813 0.782924 0.170813
0.170567 0.782678 0.242264
0.170325 0.782436 0.312312
0.170087 0.782198 0.381288
0.169852 0.781963 0.449399
0.169620 0.781730 0.516787
0.169389 0.781500 0.583553
0.169161 0.781272 0.649775
0.168934 0.781045 0.715515
0.168709 0.780820 0.780820
0.168485 0.780596 0.845731
0.168262 0.780373 0.910281
0.168041 0.780151 0.974499
0.167895 0.780006 1.000000
0.167895 0.780006 1.000000
0.169114 0.846360 0.018035
0.168849 0.846094 0.095123
0.168595 0.845841 0.168595
0.168349 0.845594 0.240046
0.168107 0.845352 0.310093
0.167869 0.845115 0.379069
0.167634 0.844880 0.447181
0.167401 0.844647 0.514568
0.167171 0.844417 0.581335
0.166943 0.844188 0.647557
0.166716 0.843961 0.713296
0.166491 0.843736 0.778601
0.166267 0.843512 0.843512
0.166044 0.843290 0.908063
0.165822 0.843068 0.972281
0.165677 0.842923 1.000000
0.165677 0.842923 1.000000
0.166908 0.908927 0.015829
0.166643 0.908661 0.092917
0.166389 0.908408 0.166389
0.166143 0.908161 0.237840
0.165901 0.907920 0.307887
0.165663 0.907682 0.376863
0.165428 0.907447 0.444975
0.165195 0.907214 0.512362
0.164965 0.906984 0.579129
0.164737 0.906755 0.645351
0.164510 0.906529 0.711090
0.164285 0.906303 0.776395
0.164061 0.906079 0.841306
0.163838 0.905857 0.905857
0.163616 0.905635 0.970075
0.163471 0.905490 1.000000
0.163471 0.905490 1.000000
0.164714 0.971172 0.013634
0.164448 0.970906 0.090723
0.164194 0.970653 0.164194
0.163948 0.970406 0.235645
0.163706 0.970165 0.305693
0.163468 0.969927 0.374669
0.163233 0.969692 0.442780
0.163001 0.969459 0.510168
0.162770 0.969229 0.576934
0.162542 0.969000 0.643156
0.162315 0.968774 0.708896
0.162090 0.968548 0.774201
0.161866 0.968324 0.839112
0.161643 0.968102 0.903662
0.161422 0.967880 0.967880
0.161276 0.967735 1.000000
0.161276 0.967735 1.000000
0.163273 1.000000 0.012194
0.163007 1.000000 0.089282
0.162754 1.000000 0.162754
0.162507 1.000000 0.234204
0.162266 1.000000 0.304252
0.162028 1.000000 0.373228
0.161793 1.000000 0.441340
0.161560 1.000000 0.508727
0.161330 1.000000 0.575493
0.161101 1.000000 0.641716
0.160875 1.000000 0.707455
0.160649 1.000000 0.772760
0.160425 1.000000 0.837671
0.160203 1.000000 0.902221
0.159981 1.000000 0.966440
0.159836 1.000000 1.000000
0.159836 1.000000 1.000000
0.163273 1.000000 0.012194
0.163007 1.000000 0.089282
0.162754 1.000000 0.162754
0.162507 1.000000 0.234204
0.162266 1.000000 0.304252
0.162028 1.000000 0.373228
0.161793 1.000000 0.441340
0.161560 1.000000 0.508727
0.161330 1.000000 0.575493
0.161101 1.000000 0.641716
0.160875 1.000000 0.707455
0.160649 1.000000 0.772760
0.160425 1.000000 0.837671
0.160203 1.000000 0.902221
0.159981 1.000000 0.966440
0.159836 1.000000 1.000000
0.159836 1.000000 1.000000
0.268296 0.045519 0.045519
0.268030 0.045253 0.122608
0.267777 0.045000 0.196080
0.267530 0.044754 0.267530
0.267289 0.044512 0.337578
0.267051 0.044274 0.406554
0.266816 0.044039 0.474665
0.266583 0.043806 0.542053
0.266353 0.043576 0.608819
0.266124 0.043348 0.675041
0.265897 0.043121 0.740781
0.265672 0.042896 0.806086
0.265448 0.042672 0.870997
0.265226 0.042449 0.935547
0.265004 0.042227 0.999765
0.264859 0.042082 1.000000
0.264859 0.042082 1.000000
0.265662 0.120239 0.042885
