skills/creativeops-producer/assets/grade/luts/clean_bright_v07.cube
TITLE "clean_bright_v07"
LUT_3D_SIZE 5
DOMAIN_MIN 0.0 0.0 0.0
DOMAIN_MAX 1.0 1.0 1.0
0.021119 0.021119 0.021119
0.020818 0.020818 0.289095
0.020530 0.020530 0.546007
0.020246 0.020246 0.798328
0.020003 0.020003 1.000000
0.018137 0.286414 0.018137
0.017836 0.286113 0.286113
0.017547 0.285824 0.543024
0.017264 0.285540 0.795346
0.017021 0.285298 1.000000
0.015278 0.540755 0.015278
0.014977 0.540454 0.283253
0.014688 0.540165 0.540165
0.014404 0.539882 0.792487
0.014162 0.539639 1.000000
0.012469 0.790552 0.012469
0.012168 0.790250 0.280445
0.011880 0.789962 0.537357
0.011596 0.789678 0.789678
0.011353 0.789436 1.000000
0.010065 1.000000 0.010065
0.009764 1.000000 0.278041
0.009476 1.000000 0.534953
0.009192 1.000000 0.787274
0.008949 1.000000 1.000000
0.288509 0.020233 0.020233
0.288208 0.019932 0.288208
0.287920 0.019643 0.545120
0.287636 0.019360 0.797442
0.287394 0.019117 1.000000
0.285527 0.285527 0.017250
0.285226 0.285226 0.285226
0.284937 0.284937 0.542138
0.284654 0.284654 0.794459
0.284411 0.284411 1.000000
0.282668 0.539868 0.014391
0.282367 0.539567 0.282367
0.282078 0.539278 0.539278
0.281794 0.538995 0.791600
0.281552 0.538752 1.000000
0.279859 0.789665 0.011583
0.279558 0.789364 0.279558
0.279270 0.789075 0.536470
0.278986 0.788792 0.788792
0.278744 0.788549 1.000000
0.277455 1.000000 0.009179
0.277154 1.000000 0.277154
0.276866 1.000000 0.534066
0.276582 1.000000 0.786388
0.276339 1.000000 1.000000
0.544860 0.019383 0.019383
0.544559 0.019082 0.287358
0.544270 0.018793 0.544270
0.543987 0.018510 0.796592
0.543744 0.018267 1.000000
0.541878 0.284677 0.016400
0.541577 0.284376 0.284376
0.541288 0.284087 0.541288
0.541004 0.283804 0.793609
0.540762 0.283561 1.000000
0.539018 0.539018 0.013541
0.538717 0.538717 0.281517
0.538429 0.538429 0.538429
0.538145 0.538145 0.790750
0.537902 0.537902 1.000000
0.536210 0.788815 0.010733
0.535909 0.788514 0.278708
0.535620 0.788225 0.535620
0.535337 0.787942 0.787942
0.535094 0.787699 1.000000
0.533806 1.000000 0.008329
0.533505 1.000000 0.276304
0.533216 1.000000 0.533216
0.532933 1.000000 0.785538
0.532690 1.000000 1.000000
0.796630 0.018548 0.018548
0.796329 0.018247 0.286524
0.796041 0.017958 0.543436
0.795757 0.017675 0.795757
0.795514 0.017432 1.000000
0.793648 0.283842 0.015566
0.793347 0.283541 0.283541
0.793058 0.283253 0.540453
0.792775 0.282969 0.792775
0.792532 0.282726 1.000000
0.790789 0.538183 0.012706
0.790487 0.537882 0.280682
0.790199 0.537594 0.537594
0.789915 0.537310 0.789915
0.789673 0.537068 1.000000
0.787980 0.787980 0.009898
0.787679 0.787679 0.277874
0.787391 0.787391 0.534786
0.787107 0.787107 0.787107
0.786864 0.786864 1.000000
0.785576 1.000000 0.007494
0.785275 1.000000 0.275470
0.784986 1.000000 0.532381
0.784703 1.000000 0.784703
0.784460 1.000000 1.000000
1.000000 0.017833 0.017833
1.000000 0.017532 0.285809
1.000000 0.017244 0.542721
1.000000 0.016960 0.795042
1.000000 0.016718 1.000000
1.000000 0.283128 0.014851
1.000000 0.282827 0.282827
1.000000 0.282538 0.539738
1.000000 0.282254 0.792060
1.000000 0.282012 1.000000
1.000000 0.537469 0.011992
1.000000 0.537168 0.279967
1.000000 0.536879 0.536879
1.000000 0.536596 0.789201
1.000000 0.536353 1.000000
1.000000 0.787266 0.009183
1.000000 0.786965 0.277159
1.000000 0.786676 0.534071
1.000000 0.786392 0.786392
1.000000 0.786150 1.000000
1.000000 1.000000 0.006779
1.000000 1.000000 0.274755
1.000000 1.000000 0.531667
1.000000 1.000000 0.783988
1.000000 1.000000 1.000000
