skills/creativeops-producer/assets/grade/luts/clean_bright_v15.cube
TITLE "clean_bright_v15"
LUT_3D_SIZE 9
DOMAIN_MIN 0.0 0.0 0.0
DOMAIN_MAX 1.0 1.0 1.0
0.036786 0.036786 0.036786
0.036412 0.036412 0.182110
0.036058 0.036058 0.319846
0.035713 0.035713 0.453991
0.035374 0.035374 0.585759
0.035040 0.035040 0.715751
0.034709 0.034709 0.844331
0.034381 0.034381 0.971738
0.034224 0.034224 1.000000
0.033084 0.178781 0.033084
0.032710 0.178407 0.178407
0.032355 0.178053 0.316143
0.032010 0.177708 0.450289
0.031672 0.177369 0.582056
0.031337 0.177034 0.712049
0.031006 0.176704 0.840628
0.030679 0.176376 0.968035
0.030521 0.176219 1.000000
0.029574 0.313362 0.029574
0.029200 0.312988 0.174898
0.028846 0.312634 0.312634
0.028501 0.312289 0.446779
0.028162 0.311950 0.578547
0.027828 0.311616 0.708540
0.027497 0.311285 0.837119
0.027169 0.310957 0.964526
0.027012 0.310800 1.000000
0.026156 0.444434 0.026156
0.025783 0.444061 0.171480
0.025428 0.443706 0.309216
0.025083 0.443361 0.443361
0.024744 0.443022 0.575129
0.024410 0.442688 0.705122
0.024079 0.442357 0.833701
0.023752 0.442030 0.961108
0.023594 0.441872 1.000000
0.022799 0.573184 0.022799
0.022425 0.572810 0.168123
0.022071 0.572456 0.305859
0.021726 0.572111 0.440004
0.021387 0.571772 0.571772
0.021053 0.571437 0.701764
0.020722 0.571107 0.830344
0.020394 0.570779 0.957751
0.020237 0.570622 1.000000
0.019487 0.700199 0.019487
0.019113 0.699825 0.164811
0.018759 0.699471 0.302547
0.018414 0.699126 0.436692
0.018075 0.698787 0.568460
0.017741 0.698452 0.698452
0.017410 0.698122 0.827032
0.017082 0.697794 0.954439
0.016925 0.697637 1.000000
0.016211 0.825833 0.016211
0.015837 0.825459 0.161535
0.015483 0.825105 0.299271
0.015138 0.824760 0.433416
0.014799 0.824421 0.565184
0.014465 0.824086 0.695176
0.014134 0.823756 0.823756
0.013806 0.823428 0.951163
0.013649 0.823271 1.000000
0.012965 0.950321 0.012965
0.012591 0.949947 0.158288
0.012237 0.949593 0.296025
0.011892 0.949248 0.430170
0.011553 0.948909 0.561938
0.011219 0.948575 0.691930
0.010888 0.948244 0.820510
0.010560 0.947916 0.947916
0.010403 0.947759 1.000000
0.011406 1.000000 0.011406
0.011032 1.000000 0.156729
0.010678 1.000000 0.294466
0.010333 1.000000 0.428611
0.009994 1.000000 0.560379
0.009660 1.000000 0.690371
0.009329 1.000000 0.818951
0.009001 1.000000 0.946358
0.008844 1.000000 1.000000
0.181383 0.035686 0.035686
0.181009 0.035312 0.181009
0.180655 0.034957 0.318745
0.180310 0.034612 0.452891
0.179971 0.034274 0.584658
0.179636 0.033939 0.714651
0.179306 0.033608 0.843230
0.178978 0.033281 0.970637
0.178821 0.033123 1.000000
0.177680 0.177680 0.031983
0.177306 0.177306 0.177306
0.176952 0.176952 0.315043
0.176607 0.176607 0.449188
0.176268 0.176268 0.580955
0.175934 0.175934 0.710948
0.175603 0.175603 0.839528
0.175275 0.175275 0.966934
0.175118 0.175118 1.000000
0.174171 0.312261 0.028474
0.173797 0.311888 0.173797
0.173443 0.311533 0.311533
0.173098 0.311188 0.445679
0.172759 0.310849 0.577446
0.172424 0.310515 0.707439
0.172094 0.310184 0.836018
0.171766 0.309857 0.963425
0.171609 0.309699 1.000000
0.170753 0.443334 0.025056
0.170379 0.442960 0.170379
0.170025 0.442606 0.308115
0.169680 0.442261 0.442261
0.169341 0.441922 0.574028
0.169007 0.441587 0.704021
0.168676 0.441257 0.832600
0.168348 0.440929 0.960007
0.168191 0.440772 1.000000
0.167396 0.572083 0.021698
0.167022 0.571709 0.167022
0.166668 0.571355 0.304758
0.166323 0.571010 0.438904
0.165984 0.570671 0.570671
0.165649 0.570337 0.700664
0.165319 0.570006 0.829243
0.164991 0.569678 0.956650
0.164834 0.569521 1.000000
0.164084 0.699098 0.018386
0.163710 0.698724 0.163710
0.163356 0.698370 0.301446
0.163011 0.698025 0.435591
0.162672 0.697686 0.567359
0.162337 0.697352 0.697352
0.162007 0.697021 0.825931
0.161679 0.696693 0.953338
0.161522 0.696536 1.000000
0.160808 0.824732 0.015110
0.160434 0.824358 0.160434
0.160080 0.824004 0.298170
0.159735 0.823659 0.432315
0.159396 0.823320 0.564083
0.159061 0.822986 0.694076
0.158731 0.822655 0.822655
0.158403 0.822327 0.950062
0.158246 0.822170 1.000000
0.157562 0.949221 0.011864
0.157188 0.948847 0.157188
0.156833 0.948493 0.294924
0.156488 0.948148 0.429069
0.156150 0.947809 0.560837
0.155815 0.947474 0.690830
0.155484 0.947144 0.819409
0.155157 0.946816 0.946816
0.154999 0.946658 1.000000
0.156003 1.000000 0.010305
0.155629 1.000000 0.155629
0.155275 1.000000 0.293365
0.154930 1.000000 0.427510
0.154591 1.000000 0.559278
0.154256 1.000000 0.689271
0.153926 1.000000 0.817850
0.153598 1.000000 0.945257
0.153440 1.000000 1.000000
0.318430 0.034642 0.034642
0.318056 0.034269 0.179966
0.317702 0.033914 0.317702
0.317357 0.033569 0.451847
0.317018 0.033230 0.583615
0.316684 0.032896 0.713608
0.316353 0.032565 0.842187
0.316025 0.032238 0.969594
0.315868 0.032080 1.000000
0.314727 0.176637 0.030940
0.314354 0.176263 0.176263
0.313999 0.175909 0.313999
0.313654 0.175564 0.448145
0.313315 0.175225 0.579912
0.312981 0.174891 0.709905
0.312650 0.174560 0.838484
0.312323 0.174232 0.965891
0.312165 0.174075 1.000000
0.311218 0.311218 0.027430
0.310844 0.310844 0.172754
0.310490 0.310490 0.310490
0.310145 0.310145 0.444635
0.309806 0.309806 0.576403
0.309472 0.309472 0.706396
0.309141 0.309141 0.834975
0.308813 0.308813 0.962382
0.308656 0.308656 1.000000
0.307800 0.442291 0.024013
0.307426 0.441917 0.169336
0.307072 0.441563 0.307072
0.306727 0.441218 0.441218
0.306388 0.440879 0.572985
0.306054 0.440544 0.702978
0.305723 0.440214 0.831557
0.305396 0.439886 0.958964
0.305238 0.439729 1.000000
0.304443 0.571040 0.020655
0.304069 0.570666 0.165979
0.303715 0.570312 0.303715
0.303370 0.569967 0.437860
0.303031 0.569628 0.569628
0.302697 0.569294 0.699621
0.302366 0.568963 0.828200
0.302038 0.568635 0.955607
0.301881 0.568478 1.000000
0.301131 0.698055 0.017343
0.300757 0.697681 0.162667
0.300403 0.697327 0.300403
0.300058 0.696982 0.434548
0.299719 0.696643 0.566316
0.299385 0.696309 0.696309
0.299054 0.695978 0.824888
0.298726 0.695650 0.952295
0.298569 0.695493 1.000000
0.297855 0.823689 0.014067
0.297481 0.823315 0.159391
0.297127 0.822961 0.297127
0.296782 0.822616 0.431272
0.296443 0.822277 0.563040
0.296109 0.821943 0.693033
0.295778 0.821612 0.821612
0.295450 0.821284 0.949019
0.295293 0.821127 1.000000
0.294609 0.948177 0.010821
0.294235 0.947804 0.156145
0.293881 0.947449 0.293881
0.293536 0.947104 0.428026
0.293197 0.946765 0.559794
0.292862 0.946431 0.689786
0.292532 0.946100 0.818366
0.292204 0.945773 0.945773
0.292047 0.945615 1.000000
0.293050 1.000000 0.009262
0.292676 1.000000 0.154586
0.292322 1.000000 0.292322
0.291977 1.000000 0.426467
0.291638 1.000000 0.558235
0.291304 1.000000 0.688227
0.290973 1.000000 0.816807
0.290645 1.000000 0.944214
0.290488 1.000000 1.000000
0.451904 0.033626 0.033626
0.451531 0.033253 0.178950
0.451176 0.032898 0.316686
0.450831 0.032553 0.450831
0.450492 0.032214 0.582599
0.450158 0.031880 0.712592
0.449827 0.031549 0.841171
0.449500 0.031222 0.968578
0.449342 0.031064 1.000000
0.448202 0.175621 0.029924
0.447828 0.175247 0.175247
0.447474 0.174893 0.312983
0.447129 0.174548 0.447129
0.446790 0.174209 0.578896
0.446455 0.173875 0.708889
0.446125 0.173544 0.837468
0.445797 0.173216 0.964875
0.445640 0.173059 1.000000
0.444693 0.310202 0.026414
0.444319 0.309828 0.171738
0.443964 0.309474 0.309474
0.443619 0.309129 0.443619
0.443281 0.308790 0.575387
0.442946 0.308456 0.705380
0.442615 0.308125 0.833959
0.442288 0.307797 0.961366
0.442130 0.307640 1.000000
0.441275 0.441275 0.022997
0.440901 0.440901 0.168320
0.440547 0.440547 0.306056
0.440202 0.440202 0.440202
0.439863 0.439863 0.571969
0.439528 0.439528 0.701962
0.439198 0.439198 0.830541
0.438870 0.438870 0.957948
0.438713 0.438713 1.000000
0.437917 0.570024 0.019639
0.437544 0.569650 0.164963
0.437189 0.569296 0.302699
0.436844 0.568951 0.436844
0.436505 0.568612 0.568612
0.436171 0.568278 0.698605
0.435840 0.567947 0.827184
0.435513 0.567619 0.954591
0.435355 0.567462 1.000000
0.434605 0.697039 0.016327
0.434232 0.696665 0.161651
0.433877 0.696311 0.299387
0.433532 0.695966 0.433532
0.433193 0.695627 0.565300
0.432859 0.695293 0.695293
0.432528 0.694962 0.823872
0.432201 0.694634 0.951279
0.432043 0.694477 1.000000
0.431329 0.822673 0.013051
0.430956 0.822299 0.158375
0.430601 0.821945 0.296111
0.430256 0.821600 0.430256
0.429917 0.821261 0.562024
0.429583 0.820927 0.692017
0.429252 0.820596 0.820596
0.428925 0.820268 0.948003
0.428767 0.820111 1.000000
0.428083 0.947161 0.009805
0.427709 0.946788 0.155129
0.427355 0.946433 0.292865
0.427010 0.946088 0.427010
0.426671 0.945749 0.558778
0.426337 0.945415 0.688770
0.426006 0.945084 0.817350
0.425678 0.944757 0.944757
0.425521 0.944599 1.000000
0.426524 1.000000 0.008246
0.426151 1.000000 0.153570
0.425796 1.000000 0.291306
0.425451 1.000000 0.425451
0.425112 1.000000 0.557219
0.424778 1.000000 0.687212
0.424447 1.000000 0.815791
0.424120 1.000000 0.943198
0.423962 1.000000 1.000000
0.583013 0.032628 0.032628
0.582639 0.032255 0.177952
0.582285 0.031900 0.315688
0.581940 0.031555 0.449833
0.581601 0.031216 0.581601
0.581267 0.030882 0.711594
0.580936 0.030551 0.840173
0.580608 0.030224 0.967580
0.580451 0.030066 1.000000
0.579310 0.174623 0.028926
0.578937 0.174249 0.174249
0.578582 0.173895 0.311985
0.578237 0.173550 0.446131
0.577898 0.173211 0.577898
0.577564 0.172877 0.707891
0.577233 0.172546 0.836470
0.576906 0.172218 0.963877
0.576748 0.172061 1.000000
0.575801 0.309204 0.025416
0.575427 0.308830 0.170740
0.575073 0.308476 0.308476
0.574728 0.308131 0.442621
0.574389 0.307792 0.574389
0.574055 0.307458 0.704382
0.573724 0.307127 0.832961
0.573396 0.306799 0.960368
0.573239 0.306642 1.000000
0.572383 0.440277 0.021999
0.572009 0.439903 0.167322
0.571655 0.439549 0.305058
0.571310 0.439204 0.439204
0.570971 0.438865 0.570971
0.570637 0.438530 0.700964
0.570306 0.438200 0.829543
0.569978 0.437872 0.956950
0.569821 0.437715 1.000000
0.569026 0.569026 0.018641
0.568652 0.568652 0.163965
0.568298 0.568298 0.301701
0.567953 0.567953 0.435846
0.567614 0.567614 0.567614
0.567280 0.567280 0.697607
0.566949 0.566949 0.826186
0.566621 0.566621 0.953593
0.566464 0.566464 1.000000
0.565714 0.696041 0.015329
0.565340 0.695667 0.160653
0.564986 0.695313 0.298389
0.564641 0.694968 0.432534
0.564302 0.694629 0.564302
0.563968 0.694295 0.694295
0.563637 0.693964 0.822874
0.563309 0.693636 0.950281
0.563152 0.693479 1.000000
0.562438 0.821675 0.012053
0.562064 0.821301 0.157377
0.561710 0.820947 0.295113
0.561365 0.820602 0.429258
0.561026 0.820263 0.561026
0.560692 0.819929 0.691019
0.560361 0.819598 0.819598
0.560033 0.819270 0.947005
0.559876 0.819113 1.000000
0.559192 0.946163 0.008807
0.558818 0.945790 0.154131
0.558464 0.945435 0.291867
0.558119 0.945090 0.426012
0.557780 0.944751 0.557780
0.557445 0.944417 0.687772
0.557115 0.944086 0.816352
0.556787 0.943759 0.943759
0.556630 0.943601 1.000000
0.557633 1.000000 0.007248
0.557259 1.000000 0.152572
0.556905 1.000000 0.290308
0.556560 1.000000 0.424453
0.556221 1.000000 0.556221
0.555886 1.000000 0.686214
0.555556 1.000000 0.814793
0.555228 1.000000 0.942200
0.555071 1.000000 1.000000
0.712356 0.031644 0.031644
0.711982 0.031270 0.176967
0.711627 0.030916 0.314704
0.711282 0.030571 0.448849
0.710944 0.030232 0.580616
0.710609 0.029898 0.710609
0.710278 0.029567 0.839189
0.709951 0.029239 0.966595
0.709793 0.029082 1.000000
0.708653 0.173638 0.027941
0.708279 0.173265 0.173265
0.707925 0.172910 0.311001
0.707580 0.172565 0.445146
0.707241 0.172226 0.576914
0.706907 0.171892 0.706907
0.706576 0.171561 0.835486
0.706248 0.171234 0.962893
0.706091 0.171076 1.000000
0.705144 0.308220 0.024432
0.704770 0.307846 0.169755
0.704416 0.307492 0.307492
0.704070 0.307147 0.441637
0.703732 0.306808 0.573404
0.703397 0.306473 0.703397
0.703067 0.306143 0.831977
0.702739 0.305815 0.959383
0.702581 0.305657 1.000000
0.701726 0.439292 0.021014
0.701352 0.438918 0.166338
0.700998 0.438564 0.304074
0.700653 0.438219 0.438219
0.700314 0.437880 0.569987
0.699979 0.437546 0.699979
0.699649 0.437215 0.828559
0.699321 0.436887 0.955966
0.699164 0.436730 1.000000
0.698368 0.568041 0.017657
0.697995 0.567668 0.162980
0.697640 0.567313 0.300716
0.697295 0.566968 0.434862
0.696956 0.566629 0.566629
0.696622 0.566295 0.696622
0.696291 0.565964 0.825202
0.695964 0.565637 0.952608
0.695806 0.565479 1.000000
0.695056 0.695056 0.014345
0.694683 0.694683 0.159668
0.694328 0.694328 0.297404
0.693983 0.693983 0.431550
0.693644 0.693644 0.563317
0.693310 0.693310 0.693310
0.692979 0.692979 0.821889
0.692652 0.692652 0.949296
0.692494 0.692494 1.000000
0.691780 0.820691 0.011069
0.691407 0.820317 0.156392
0.691052 0.819962 0.294128
0.690707 0.819617 0.428274
0.690368 0.819279 0.560041
0.690034 0.818944 0.690034
0.689703 0.818613 0.818613
0.689376 0.818286 0.946020
0.689218 0.818128 1.000000
0.688534 0.945179 0.007823
0.688161 0.944805 0.153146
0.687806 0.944451 0.290882
0.687461 0.944106 0.425028
0.687122 0.943767 0.556795
0.686788 0.943433 0.686788
0.686457 0.943102 0.815367
0.686130 0.942774 0.942774
0.685972 0.942617 1.000000
0.686975 1.000000 0.006264
0.686602 1.000000 0.151587
0.686247 1.000000 0.289323
0.685902 1.000000 0.423469
0.685563 1.000000 0.555236
0.685229 1.000000 0.685229
0.684898 1.000000 0.813808
0.684571 1.000000 0.941215
0.684413 1.000000 1.000000
0.840292 0.030670 0.030670
0.839918 0.030296 0.175993
0.839564 0.029942 0.313730
0.839219 0.029597 0.447875
0.838880 0.029258 0.579643
0.838545 0.028924 0.709635
0.838215 0.028593 0.838215
0.837887 0.028265 0.965622
0.837730 0.028108 1.000000
0.836589 0.172665 0.026967
0.836215 0.172291 0.172291
0.835861 0.171937 0.310027
0.835516 0.171592 0.444172
0.835177 0.171253 0.575940
0.834843 0.170918 0.705933
0.834512 0.170588 0.834512
0.834184 0.170260 0.961919
0.834027 0.170102 1.000000
0.833080 0.307246 0.023458
0.832706 0.306872 0.168782
0.832352 0.306518 0.306518
0.832007 0.306173 0.440663
0.831668 0.305834 0.572431
0.831333 0.305499 0.702423
0.831003 0.305169 0.831003
0.830675 0.304841 0.958410
0.830518 0.304684 1.000000
0.829662 0.438318 0.020040
0.829288 0.437945 0.165364
0.828934 0.437590 0.303100
0.828589 0.437245 0.437245
0.828250 0.436906 0.569013
0.827916 0.436572 0.699006
0.827585 0.436241 0.827585
0.827257 0.435914 0.954992
0.827100 0.435756 1.000000
0.826305 0.567068 0.016683
0.825931 0.566694 0.162006
0.825577 0.566340 0.299743
0.825232 0.565995 0.433888
0.824893 0.565656 0.565656
0.824558 0.565321 0.695648
0.824228 0.564991 0.824228
0.823900 0.564663 0.951635
0.823743 0.564505 1.000000
0.822993 0.694083 0.013371
0.822619 0.693709 0.158694
0.822265 0.693355 0.296431
0.821920 0.693010 0.430576
0.821581 0.692671 0.562344
0.821246 0.692336 0.692336
0.820916 0.692006 0.820916
0.820588 0.691678 0.948323
0.820431 0.691520 1.000000
0.819717 0.819717 0.010095
0.819343 0.819343 0.155418
0.818989 0.818989 0.293155
0.818644 0.818644 0.427300
0.818305 0.818305 0.559068
0.817970 0.817970 0.689060
0.817640 0.817640 0.817640
0.817312 0.817312 0.945046
0.817155 0.817155 1.000000
0.816471 0.944205 0.006849
0.816097 0.943831 0.152172
0.815743 0.943477 0.289908
0.815397 0.943132 0.424054
0.815059 0.942793 0.555821
0.814724 0.942459 0.685814
0.814393 0.942128 0.814393
0.814066 0.941800 0.941800
0.813908 0.941643 1.000000
0.814912 1.000000 0.005290
0.814538 1.000000 0.150613
0.814184 1.000000 0.288350
0.813839 1.000000 0.422495
0.813500 1.000000 0.554262
0.813165 1.000000 0.684255
0.812835 1.000000 0.812835
0.812507 1.000000 0.940241
0.812349 1.000000 1.000000
0.967061 0.029705 0.029705
0.966688 0.029331 0.175029
0.966333 0.028977 0.312765
0.965988 0.028632 0.446910
0.965649 0.028293 0.578678
0.965315 0.027959 0.708670
0.964984 0.027628 0.837250
0.964657 0.027300 0.964657
0.964499 0.027143 1.000000
0.963359 0.171700 0.026002
0.962985 0.171326 0.171326
0.962631 0.170972 0.309062
0.962286 0.170627 0.443207
0.961947 0.170288 0.574975
0.961612 0.169953 0.704968
0.961282 0.169623 0.833547
0.960954 0.169295 0.960954
0.960797 0.169138 1.000000
0.959849 0.306281 0.022493
0.959476 0.305907 0.167817
0.959121 0.305553 0.305553
0.958776 0.305208 0.439698
0.958437 0.304869 0.571466
0.958103 0.304534 0.701458
0.957772 0.304204 0.830038
0.957445 0.303876 0.957445
0.957287 0.303719 1.000000
0.956432 0.437353 0.019075
0.956058 0.436980 0.164399
0.955704 0.436625 0.302135
0.955359 0.436280 0.436280
0.955020 0.435941 0.568048
0.954685 0.435607 0.698041
0.954355 0.435276 0.826620
0.954027 0.434949 0.954027
0.953869 0.434791 1.000000
0.953074 0.566103 0.015718
0.952701 0.565729 0.161042
0.952346 0.565375 0.298778
0.952001 0.565030 0.432923
0.951662 0.564691 0.564691
0.951328 0.564356 0.694683
0.950997 0.564026 0.823263
0.950670 0.563698 0.950670
0.950512 0.563540 1.000000
0.949762 0.693118 0.012406
0.949389 0.692744 0.157729
0.949034 0.692390 0.295466
0.948689 0.692045 0.429611
0.948350 0.691706 0.561379
0.948016 0.691371 0.691371
0.947685 0.691041 0.819951
0.947358 0.690713 0.947358
0.947200 0.690556 1.000000
0.946486 0.818752 0.009130
0.946113 0.818378 0.154453
0.945758 0.818024 0.292190
0.945413 0.817679 0.426335
0.945074 0.817340 0.558103
0.944740 0.817005 0.688095
0.944409 0.816675 0.816675
0.944082 0.816347 0.944082
0.943924 0.816190 1.000000
0.943240 0.943240 0.005884
0.942866 0.942866 0.151207
0.942512 0.942512 0.288944
0.942167 0.942167 0.423089
0.941828 0.941828 0.554856
0.941494 0.941494 0.684849
0.941163 0.941163 0.813429
0.940835 0.940835 0.940835
0.940678 0.940678 1.000000
0.941681 1.000000 0.004325
0.941307 1.000000 0.149648
0.940953 1.000000 0.287385
0.940608 1.000000 0.421530
0.940269 1.000000 0.553297
0.939935 1.000000 0.683290
0.939604 1.000000 0.811870
0.939276 1.000000 0.939276
0.939119 1.000000 1.000000
1.000000 0.029242 0.029242
1.000000 0.028868 0.174565
1.000000 0.028514 0.312301
1.000000 0.028169 0.446447
1.000000 0.027830 0.578214
1.000000 0.027495 0.708207
1.000000 0.027165 0.836786
1.000000 0.026837 0.964193
1.000000 0.026680 1.000000
1.000000 0.171236 0.025539
1.000000 0.170862 0.170862
1.000000 0.170508 0.308599
1.000000 0.170163 0.442744
1.000000 0.169824 0.574512
1.000000 0.169490 0.704504
1.000000 0.169159 0.833084
1.000000 0.168832 0.960491
1.000000 0.168674 1.000000
1.000000 0.305817 0.022030
1.000000 0.305444 0.167353
1.000000 0.305089 0.305089
1.000000 0.304744 0.439235
1.000000 0.304405 0.571002
1.000000 0.304071 0.700995
1.000000 0.303740 0.829574
1.000000 0.303413 0.956981
1.000000 0.303255 1.000000
1.000000 0.436890 0.018612
1.000000 0.436516 0.163935
1.000000 0.436162 0.301672
1.000000 0.435817 0.435817
1.000000 0.435478 0.567584
1.000000 0.435144 0.697577
1.000000 0.434813 0.826157
1.000000 0.434485 0.953563
1.000000 0.434328 1.000000
1.000000 0.565639 0.015255
1.000000 0.565265 0.160578
1.000000 0.564911 0.298314
1.000000 0.564566 0.432460
1.000000 0.564227 0.564227
1.000000 0.563893 0.694220
1.000000 0.563562 0.822799
1.000000 0.563234 0.950206
1.000000 0.563077 1.000000
1.000000 0.692654 0.011943
1.000000 0.692280 0.157266
1.000000 0.691926 0.295002
1.000000 0.691581 0.429148
1.000000 0.691242 0.560915
1.000000 0.690908 0.690908
1.000000 0.690577 0.819487
1.000000 0.690250 0.946894
1.000000 0.690092 1.000000
1.000000 0.818288 0.008667
1.000000 0.817915 0.153990
1.000000 0.817560 0.291726
1.000000 0.817215 0.425872
1.000000 0.816876 0.557639
1.000000 0.816542 0.687632
1.000000 0.816211 0.816211
1.000000 0.815884 0.943618
1.000000 0.815726 1.000000
1.000000 0.942777 0.005420
1.000000 0.942403 0.150744
1.000000 0.942049 0.288480
1.000000 0.941704 0.422625
1.000000 0.941365 0.554393
1.000000 0.941030 0.684386
1.000000 0.940700 0.812965
1.000000 0.940372 0.940372
1.000000 0.940215 1.000000
1.000000 1.000000 0.003861
1.000000 1.000000 0.149185
1.000000 1.000000 0.286921
1.000000 1.000000 0.421067
1.000000 1.000000 0.552834
1.000000 1.000000 0.682827
1.000000 1.000000 0.811406
1.000000 1.000000 0.938813
1.000000 1.000000 1.000000
