skills/creativeops-producer/assets/grade/luts/clean_bright_v07.cube
TITLE "clean_bright_v07"
LUT_3D_SIZE 9
DOMAIN_MIN 0.0 0.0 0.0
DOMAIN_MAX 1.0 1.0 1.0
0.021119 0.021119 0.021119
0.020966 0.020966 0.157631
0.020818 0.020818 0.289095
0.020673 0.020673 0.418295
0.020530 0.020530 0.546007
0.020387 0.020387 0.672609
0.020246 0.020246 0.798328
0.020106 0.020106 0.923314
0.020003 0.020003 1.000000
0.019600 0.156265 0.019600
0.019447 0.156112 0.156112
0.019299 0.155964 0.287576
0.019154 0.155819 0.416776
0.019010 0.155675 0.544488
0.018868 0.155533 0.671090
0.018727 0.155392 0.796809
0.018586 0.155252 0.921795
0.018484 0.155149 1.000000
0.018137 0.286414 0.018137
0.017984 0.286260 0.154649
0.017836 0.286113 0.286113
0.017691 0.285967 0.415313
0.017547 0.285824 0.543024
0.017405 0.285682 0.669627
0.017264 0.285540 0.795346
0.017123 0.285400 0.920331
0.017021 0.285298 1.000000
0.016699 0.414321 0.016699
0.016546 0.414168 0.153211
0.016398 0.414020 0.284675
0.016253 0.413875 0.413875
0.016109 0.413731 0.541586
0.015967 0.413589 0.668189
0.015826 0.413448 0.793908
0.015685 0.413307 0.918894
0.015583 0.413205 1.000000
0.015278 0.540755 0.015278
0.015124 0.540601 0.151789
0.014977 0.540454 0.283253
0.014831 0.540309 0.412453
0.014688 0.540165 0.540165
0.014546 0.540023 0.666768
0.014404 0.539882 0.792487
0.014264 0.539741 0.917472
0.014162 0.539639 1.000000
0.013869 0.666090 0.013869
0.013715 0.665937 0.150380
0.013567 0.665789 0.281844
0.013422 0.665644 0.411044
0.013279 0.665501 0.538756
0.013137 0.665359 0.665359
0.012995 0.665217 0.791078
0.012855 0.665077 0.916063
0.012753 0.664975 1.000000
0.012469 0.790552 0.012469
0.012316 0.790398 0.148981
0.012168 0.790250 0.280445
0.012023 0.790105 0.409645
0.011880 0.789962 0.537357
0.011737 0.789820 0.663959
0.011596 0.789678 0.789678
0.011456 0.789538 0.914664
0.011353 0.789436 1.000000
0.011078 0.914287 0.011078
0.010925 0.914133 0.147590
0.010777 0.913985 0.279054
0.010632 0.913840 0.408254
0.010489 0.913697 0.535966
0.010346 0.913555 0.662568
0.010205 0.913413 0.788287
0.010065 0.913273 0.913273
0.009962 0.913171 1.000000
0.010065 1.000000 0.010065
0.009912 1.000000 0.146577
0.009764 1.000000 0.278041
0.009619 1.000000 0.407241
0.009476 1.000000 0.534953
0.009333 1.000000 0.661555
0.009192 1.000000 0.787274
0.009052 1.000000 0.912260
0.008949 1.000000 1.000000
0.157333 0.020668 0.020668
0.157179 0.020514 0.157179
0.157032 0.020367 0.288643
0.156887 0.020222 0.417843
0.156743 0.020078 0.545555
0.156601 0.019936 0.672158
0.156460 0.019795 0.797877
0.156319 0.019654 0.922862
0.156217 0.019552 1.000000
0.155814 0.155814 0.019148
0.155660 0.155660 0.155660
0.155512 0.155512 0.287124
0.155367 0.155367 0.416324
0.155224 0.155224 0.544036
0.155082 0.155082 0.670638
0.154940 0.154940 0.796357
0.154800 0.154800 0.921343
0.154698 0.154698 1.000000
0.154350 0.285962 0.017685
0.154197 0.285809 0.154197
0.154049 0.285661 0.285661
0.153904 0.285516 0.414861
0.153761 0.285372 0.542573
0.153618 0.285230 0.669175
0.153477 0.285089 0.794894
0.153337 0.284948 0.919880
0.153234 0.284846 1.000000
0.152912 0.413869 0.016247
0.152759 0.413716 0.152759
0.152611 0.413568 0.284223
0.152466 0.413423 0.413423
0.152323 0.413280 0.541135
0.152180 0.413137 0.667737
0.152039 0.412996 0.793456
0.151899 0.412856 0.918442
0.151797 0.412753 1.000000
0.151491 0.540303 0.014826
0.151338 0.540150 0.151338
0.151190 0.540002 0.282802
0.151045 0.539857 0.412002
0.150901 0.539713 0.539713
0.150759 0.539571 0.666316
0.150618 0.539430 0.792035
0.150477 0.539290 0.917021
0.150375 0.539187 1.000000
0.150082 0.665639 0.013417
0.149929 0.665485 0.149929
0.149781 0.665338 0.281393
0.149636 0.665193 0.410593
0.149492 0.665049 0.538304
0.149350 0.664907 0.664907
0.149209 0.664766 0.790626
0.149068 0.664625 0.915611
0.148966 0.664523 1.000000
0.148683 0.790100 0.012018
0.148529 0.789947 0.148529
0.148382 0.789799 0.279993
0.148237 0.789654 0.409193
0.148093 0.789510 0.536905
0.147951 0.789368 0.663508
0.147810 0.789227 0.789227
0.147669 0.789086 0.914212
0.147567 0.788984 1.000000
0.147292 0.913835 0.010627
0.147138 0.913682 0.147138
0.146991 0.913534 0.278602
0.146846 0.913389 0.407802
0.146702 0.913245 0.535514
0.146560 0.913103 0.662117
0.146419 0.912962 0.787836
0.146278 0.912821 0.912821
0.146176 0.912719 1.000000
0.146279 1.000000 0.009614
0.146125 1.000000 0.146125
0.145978 1.000000 0.277589
0.145832 1.000000 0.406789
0.145689 1.000000 0.534501
0.145547 1.000000 0.661104
0.145405 1.000000 0.786823
0.145265 1.000000 0.911808
0.145163 1.000000 1.000000
0.288509 0.020233 0.020233
0.288356 0.020079 0.156745
0.288208 0.019932 0.288208
0.288063 0.019787 0.417409
0.287920 0.019643 0.545120
0.287778 0.019501 0.671723
0.287636 0.019360 0.797442
0.287496 0.019219 0.922427
0.287394 0.019117 1.000000
0.286990 0.155379 0.018714
0.286837 0.155225 0.155225
0.286689 0.155078 0.286689
0.286544 0.154932 0.415889
0.286400 0.154789 0.543601
0.286258 0.154647 0.670203
0.286117 0.154505 0.795922
0.285977 0.154365 0.920908
0.285874 0.154263 1.000000
0.285527 0.285527 0.017250
0.285374 0.285374 0.153762
0.285226 0.285226 0.285226
0.285081 0.285081 0.414426
0.284937 0.284937 0.542138
0.284795 0.284795 0.668740
0.284654 0.284654 0.794459
0.284513 0.284513 0.919445
0.284411 0.284411 1.000000
0.284089 0.413434 0.015812
0.283936 0.413281 0.152324
0.283788 0.413133 0.283788
0.283643 0.412988 0.412988
0.283499 0.412845 0.540700
0.283357 0.412702 0.667302
0.283216 0.412561 0.793021
0.283075 0.412421 0.918007
0.282973 0.412318 1.000000
0.282668 0.539868 0.014391
0.282514 0.539715 0.150903
0.282367 0.539567 0.282367
0.282221 0.539422 0.411567
0.282078 0.539278 0.539278
0.281936 0.539136 0.665881
0.281794 0.538995 0.791600
0.281654 0.538855 0.916586
0.281552 0.538752 1.000000
0.281259 0.665204 0.012982
0.281105 0.665051 0.149494
0.280958 0.664903 0.280958
0.280812 0.664758 0.410158
0.280669 0.664614 0.537869
0.280527 0.664472 0.664472
0.280385 0.664331 0.790191
0.280245 0.664190 0.915177
0.280143 0.664088 1.000000
0.279859 0.789665 0.011583
0.279706 0.789512 0.148095
0.279558 0.789364 0.279558
0.279413 0.789219 0.408759
0.279270 0.789075 0.536470
0.279127 0.788933 0.663073
0.278986 0.788792 0.788792
0.278846 0.788651 0.913777
0.278744 0.788549 1.000000
0.278468 0.913400 0.010192
0.278315 0.913247 0.146703
0.278167 0.913099 0.278167
0.278022 0.912954 0.407367
0.277879 0.912810 0.535079
0.277736 0.912668 0.661682
0.277595 0.912527 0.787401
0.277455 0.912386 0.912386
0.277353 0.912284 1.000000
0.277455 1.000000 0.009179
0.277302 1.000000 0.145690
0.277154 1.000000 0.277154
0.277009 1.000000 0.406354
0.276866 1.000000 0.534066
0.276723 1.000000 0.660669
0.276582 1.000000 0.786388
0.276442 1.000000 0.911373
0.276339 1.000000 1.000000
0.417427 0.019805 0.019805
0.417274 0.019652 0.156317
0.417126 0.019504 0.287781
0.416981 0.019359 0.416981
0.416838 0.019216 0.544693
0.416695 0.019073 0.671295
0.416554 0.018932 0.797014
0.416414 0.018792 0.922000
0.416311 0.018689 1.000000
0.415908 0.154951 0.018286
0.415755 0.154798 0.154798
0.415607 0.154650 0.286262
0.415462 0.154505 0.415462
0.415318 0.154361 0.543174
0.415176 0.154219 0.669776
0.415035 0.154078 0.795495
0.414894 0.153937 0.920481
0.414792 0.153835 1.000000
0.414445 0.285100 0.016823
0.414291 0.284946 0.153335
0.414144 0.284799 0.284799
0.413999 0.284653 0.413999
0.413855 0.284510 0.541710
0.413713 0.284368 0.668313
0.413572 0.284226 0.794032
0.413431 0.284086 0.919017
0.413329 0.283984 1.000000
0.413007 0.413007 0.015385
0.412854 0.412854 0.151897
0.412706 0.412706 0.283361
0.412561 0.412561 0.412561
0.412417 0.412417 0.540272
0.412275 0.412275 0.666875
0.412134 0.412134 0.792594
0.411993 0.411993 0.917580
0.411891 0.411891 1.000000
0.411586 0.539441 0.013964
0.411432 0.539287 0.150475
0.411284 0.539140 0.281939
0.411139 0.538995 0.411139
0.410996 0.538851 0.538851
0.410854 0.538709 0.665454
0.410712 0.538568 0.791173
0.410572 0.538427 0.916158
0.410470 0.538325 1.000000
0.410177 0.664776 0.012555
0.410023 0.664623 0.149066
0.409875 0.664475 0.280530
0.409730 0.664330 0.409730
0.409587 0.664187 0.537442
0.409445 0.664045 0.664045
0.409303 0.663903 0.789764
0.409163 0.663763 0.914749
0.409061 0.663661 1.000000
0.408777 0.789238 0.011155
0.408624 0.789084 0.147667
0.408476 0.788936 0.279131
0.408331 0.788791 0.408331
0.408188 0.788648 0.536043
0.408045 0.788506 0.662645
0.407904 0.788364 0.788364
0.407764 0.788224 0.913350
0.407661 0.788122 1.000000
0.407386 0.912973 0.009764
0.407233 0.912819 0.146276
0.407085 0.912671 0.277740
0.406940 0.912526 0.406940
0.406797 0.912383 0.534652
0.406654 0.912241 0.661254
0.406513 0.912099 0.786973
0.406373 0.911959 0.911959
0.406270 0.911857 1.000000
0.406373 1.000000 0.008751
0.406220 1.000000 0.145263
0.406072 1.000000 0.276727
0.405927 1.000000 0.405927
0.405783 1.000000 0.533639
0.405641 1.000000 0.660241
0.405500 1.000000 0.785960
0.405360 1.000000 0.910946
0.405257 1.000000 1.000000
0.544860 0.019383 0.019383
0.544707 0.019229 0.155895
0.544559 0.019082 0.287358
0.544414 0.018937 0.416559
0.544270 0.018793 0.544270
0.544128 0.018651 0.670873
0.543987 0.018510 0.796592
0.543846 0.018369 0.921577
0.543744 0.018267 1.000000
0.543341 0.154529 0.017864
0.543187 0.154375 0.154375
0.543040 0.154228 0.285839
0.542894 0.154082 0.415039
0.542751 0.153939 0.542751
0.542609 0.153797 0.669353
0.542467 0.153655 0.795073
0.542327 0.153515 0.920058
0.542225 0.153413 1.000000
0.541878 0.284677 0.016400
0.541724 0.284524 0.152912
0.541577 0.284376 0.284376
0.541431 0.284231 0.413576
0.541288 0.284087 0.541288
0.541146 0.283945 0.667890
0.541004 0.283804 0.793609
0.540864 0.283663 0.918595
0.540762 0.283561 1.000000
0.540440 0.412584 0.014962
0.540286 0.412431 0.151474
0.540139 0.412283 0.282938
0.539993 0.412138 0.412138
0.539850 0.411995 0.539850
0.539708 0.411852 0.666452
0.539566 0.411711 0.792171
0.539426 0.411571 0.917157
0.539324 0.411468 1.000000
0.539018 0.539018 0.013541
0.538865 0.538865 0.150053
0.538717 0.538717 0.281517
0.538572 0.538572 0.410717
0.538429 0.538429 0.538429
0.538286 0.538286 0.665031
0.538145 0.538145 0.790750
0.538005 0.538005 0.915736
0.537902 0.537902 1.000000
0.537609 0.664354 0.012132
0.537456 0.664201 0.148644
0.537308 0.664053 0.280108
0.537163 0.663908 0.409308
0.537019 0.663764 0.537019
0.536877 0.663622 0.663622
0.536736 0.663481 0.789341
0.536596 0.663340 0.914327
0.536493 0.663238 1.000000
0.536210 0.788815 0.010733
0.536057 0.788662 0.147245
0.535909 0.788514 0.278708
0.535764 0.788369 0.407909
0.535620 0.788225 0.535620
0.535478 0.788083 0.662223
0.535337 0.787942 0.787942
0.535196 0.787801 0.912927
0.535094 0.787699 1.000000
0.534819 0.912550 0.009342
0.534666 0.912397 0.145854
0.534518 0.912249 0.277317
0.534373 0.912104 0.406518
0.534229 0.911960 0.534229
0.534087 0.911818 0.660832
0.533946 0.911677 0.786551
0.533805 0.911536 0.911536
0.533703 0.911434 1.000000
0.533806 1.000000 0.008329
0.533653 1.000000 0.144840
0.533505 1.000000 0.276304
0.533360 1.000000 0.405504
0.533216 1.000000 0.533216
0.533074 1.000000 0.659819
0.532933 1.000000 0.785538
0.532792 1.000000 0.910523
0.532690 1.000000 1.000000
0.671186 0.018964 0.018964
0.671033 0.018811 0.155476
0.670885 0.018663 0.286940
0.670740 0.018518 0.416140
0.670596 0.018374 0.543851
0.670454 0.018232 0.670454
0.670313 0.018091 0.796173
0.670172 0.017950 0.921159
0.670070 0.017848 1.000000
0.669667 0.154110 0.017445
0.669513 0.153956 0.153956
0.669366 0.153809 0.285420
0.669220 0.153664 0.414620
0.669077 0.153520 0.542332
0.668935 0.153378 0.668935
0.668793 0.153237 0.794654
0.668653 0.153096 0.919639
0.668551 0.152994 1.000000
0.668203 0.284258 0.015982
0.668050 0.284105 0.152493
0.667902 0.283957 0.283957
0.667757 0.283812 0.413157
0.667614 0.283668 0.540869
0.667471 0.283526 0.667471
0.667330 0.283385 0.793191
0.667190 0.283245 0.918176
0.667088 0.283142 1.000000
0.666766 0.412166 0.014544
0.666612 0.412012 0.151055
0.666464 0.411864 0.282519
0.666319 0.411719 0.411719
0.666176 0.411576 0.539431
0.666034 0.411434 0.666034
0.665892 0.411292 0.791753
0.665752 0.411152 0.916738
0.665650 0.411050 1.000000
0.665344 0.538599 0.013122
0.665191 0.538446 0.149634
0.665043 0.538298 0.281098
0.664898 0.538153 0.410298
0.664754 0.538010 0.538010
0.664612 0.537867 0.664612
0.664471 0.537726 0.790331
0.664330 0.537586 0.915317
0.664228 0.537483 1.000000
0.663935 0.663935 0.011713
0.663782 0.663782 0.148225
0.663634 0.663634 0.279689
0.663489 0.663489 0.408889
0.663345 0.663345 0.536601
0.663203 0.663203 0.663203
0.663062 0.663062 0.788922
0.662921 0.662921 0.913908
0.662819 0.662819 1.000000
0.662536 0.788396 0.010314
0.662383 0.788243 0.146826
0.662235 0.788095 0.278290
0.662090 0.787950 0.407490
0.661946 0.787806 0.535201
0.661804 0.787664 0.661804
0.661663 0.787523 0.787523
0.661522 0.787383 0.912509
0.661420 0.787280 1.000000
0.661145 0.912131 0.008923
0.660992 0.911978 0.145435
0.660844 0.911830 0.276899
0.660699 0.911685 0.406099
0.660555 0.911541 0.533810
0.660413 0.911399 0.660413
0.660272 0.911258 0.786132
0.660131 0.911117 0.911117
0.660029 0.911015 1.000000
0.660132 1.000000 0.007910
0.659978 1.000000 0.144422
0.659831 1.000000 0.275885
0.659686 1.000000 0.405086
0.659542 1.000000 0.532797
0.659400 1.000000 0.659400
0.659259 1.000000 0.785119
0.659118 1.000000 0.910104
0.659016 1.000000 1.000000
0.796630 0.018548 0.018548
0.796477 0.018395 0.155060
0.796329 0.018247 0.286524
0.796184 0.018102 0.415724
0.796041 0.017958 0.543436
0.795898 0.017816 0.670038
0.795757 0.017675 0.795757
0.795617 0.017534 0.920743
0.795514 0.017432 1.000000
0.795111 0.153694 0.017029
0.794958 0.153540 0.153540
0.794810 0.153393 0.285004
0.794665 0.153248 0.414204
0.794521 0.153104 0.541916
0.794379 0.152962 0.668519
0.794238 0.152821 0.794238
0.794097 0.152680 0.919223
0.793995 0.152578 1.000000
0.793648 0.283842 0.015566
0.793494 0.283689 0.152077
0.793347 0.283541 0.283541
0.793202 0.283396 0.412741
0.793058 0.283253 0.540453
0.792916 0.283110 0.667056
0.792775 0.282969 0.792775
0.792634 0.282829 0.917760
0.792532 0.282726 1.000000
0.792210 0.411750 0.014128
0.792057 0.411596 0.150639
0.791909 0.411449 0.282103
0.791764 0.411303 0.411303
0.791620 0.411160 0.539015
0.791478 0.411018 0.665618
0.791337 0.410876 0.791337
0.791196 0.410736 0.916322
0.791094 0.410634 1.000000
0.790789 0.538183 0.012706
0.790635 0.538030 0.149218
0.790487 0.537882 0.280682
0.790342 0.537737 0.409882
0.790199 0.537594 0.537594
0.790057 0.537452 0.664196
0.789915 0.537310 0.789915
0.789775 0.537170 0.914901
0.789673 0.537068 1.000000
0.789379 0.663519 0.011297
0.789226 0.663366 0.147809
0.789078 0.663218 0.279273
0.788933 0.663073 0.408473
0.788790 0.662929 0.536185
0.788648 0.662787 0.662787
0.788506 0.662646 0.788506
0.788366 0.662506 0.913492
0.788264 0.662403 1.000000
0.787980 0.787980 0.009898
0.787827 0.787827 0.146410
0.787679 0.787679 0.277874
0.787534 0.787534 0.407074
0.787391 0.787391 0.534786
0.787248 0.787248 0.661388
0.787107 0.787107 0.787107
0.786967 0.786967 0.912093
0.786864 0.786864 1.000000
0.786589 0.911715 0.008507
0.786436 0.911562 0.145019
0.786288 0.911414 0.276483
0.786143 0.911269 0.405683
0.786000 0.911125 0.533394
0.785857 0.910983 0.659997
0.785716 0.910842 0.785716
0.785576 0.910702 0.910702
0.785473 0.910599 1.000000
0.785576 1.000000 0.007494
0.785423 1.000000 0.144006
0.785275 1.000000 0.275470
0.785130 1.000000 0.404670
0.784986 1.000000 0.532381
0.784844 1.000000 0.658984
0.784703 1.000000 0.784703
0.784563 1.000000 0.909688
0.784460 1.000000 1.000000
0.921343 0.018135 0.018135
0.921189 0.017981 0.154646
0.921042 0.017834 0.286110
0.920897 0.017688 0.415310
0.920753 0.017545 0.543022
0.920611 0.017403 0.669625
0.920470 0.017261 0.795344
0.920329 0.017121 0.920329
0.920227 0.017019 1.000000
0.919823 0.153280 0.016615
0.919670 0.153127 0.153127
0.919522 0.152979 0.284591
0.919377 0.152834 0.413791
0.919234 0.152691 0.541503
0.919091 0.152548 0.668105
0.918950 0.152407 0.793824
0.918810 0.152267 0.918810
0.918708 0.152164 1.000000
0.918360 0.283429 0.015152
0.918207 0.283275 0.151664
0.918059 0.283128 0.283128
0.917914 0.282983 0.412328
0.917771 0.282839 0.540040
0.917628 0.282697 0.666642
0.917487 0.282556 0.792361
0.917347 0.282415 0.917347
0.917244 0.282313 1.000000
0.916922 0.411336 0.013714
0.916769 0.411183 0.150226
0.916621 0.411035 0.281690
0.916476 0.410890 0.410890
0.916333 0.410746 0.538602
0.916190 0.410604 0.665204
0.916049 0.410463 0.790923
0.915909 0.410322 0.915909
0.915806 0.410220 1.000000
0.915501 0.537770 0.012293
0.915348 0.537617 0.148805
0.915200 0.537469 0.280268
0.915055 0.537324 0.409469
0.914911 0.537180 0.537180
0.914769 0.537038 0.663783
0.914628 0.536897 0.789502
0.914487 0.536756 0.914487
0.914385 0.536654 1.000000
0.914092 0.663106 0.010884
0.913939 0.662952 0.147395
0.913791 0.662805 0.278859
0.913646 0.662659 0.408059
0.913502 0.662516 0.535771
0.913360 0.662374 0.662374
0.913219 0.662232 0.788093
0.913078 0.662092 0.913078
0.912976 0.661990 1.000000
0.912693 0.787567 0.009485
0.912539 0.787413 0.145996
0.912392 0.787266 0.277460
0.912247 0.787121 0.406660
0.912103 0.786977 0.534372
0.911961 0.786835 0.660975
0.911820 0.786694 0.786694
0.911679 0.786553 0.911679
0.911577 0.786451 1.000000
0.911302 0.911302 0.008094
0.911148 0.911148 0.144605
0.911001 0.911001 0.276069
0.910855 0.910855 0.405269
0.910712 0.910712 0.532981
0.910570 0.910570 0.659583
0.910428 0.910428 0.785303
0.910288 0.910288 0.910288
0.910186 0.910186 1.000000
0.910289 1.000000 0.007080
0.910135 1.000000 0.143592
0.909988 1.000000 0.275056
0.909842 1.000000 0.404256
0.909699 1.000000 0.531968
0.909557 1.000000 0.658570
0.909415 1.000000 0.784289
0.909275 1.000000 0.909275
0.909173 1.000000 1.000000
1.000000 0.017833 0.017833
1.000000 0.017680 0.154345
1.000000 0.017532 0.285809
1.000000 0.017387 0.415009
1.000000 0.017244 0.542721
1.000000 0.017101 0.669323
1.000000 0.016960 0.795042
1.000000 0.016820 0.920028
1.000000 0.016718 1.000000
1.000000 0.152979 0.016314
1.000000 0.152826 0.152826
1.000000 0.152678 0.284290
1.000000 0.152533 0.413490
1.000000 0.152389 0.541202
1.000000 0.152247 0.667804
1.000000 0.152106 0.793523
1.000000 0.151966 0.918509
1.000000 0.151863 1.000000
1.000000 0.283128 0.014851
1.000000 0.282974 0.151363
1.000000 0.282827 0.282827
1.000000 0.282681 0.412027
1.000000 0.282538 0.539738
1.000000 0.282396 0.666341
1.000000 0.282254 0.792060
1.000000 0.282114 0.917046
1.000000 0.282012 1.000000
1.000000 0.411035 0.013413
1.000000 0.410882 0.149925
1.000000 0.410734 0.281389
1.000000 0.410589 0.410589
1.000000 0.410445 0.538300
1.000000 0.410303 0.664903
1.000000 0.410162 0.790622
1.000000 0.410021 0.915608
1.000000 0.409919 1.000000
1.000000 0.537469 0.011992
1.000000 0.537315 0.148503
1.000000 0.537168 0.279967
1.000000 0.537023 0.409167
1.000000 0.536879 0.536879
1.000000 0.536737 0.663482
1.000000 0.536596 0.789201
1.000000 0.536455 0.914186
1.000000 0.536353 1.000000
1.000000 0.662805 0.010583
1.000000 0.662651 0.147094
1.000000 0.662503 0.278558
1.000000 0.662358 0.407758
1.000000 0.662215 0.535470
1.000000 0.662073 0.662073
1.000000 0.661931 0.787792
1.000000 0.661791 0.912777
1.000000 0.661689 1.000000
1.000000 0.787266 0.009183
1.000000 0.787112 0.145695
1.000000 0.786965 0.277159
1.000000 0.786819 0.406359
1.000000 0.786676 0.534071
1.000000 0.786534 0.660673
1.000000 0.786392 0.786392
1.000000 0.786252 0.911378
1.000000 0.786150 1.000000
1.000000 0.911001 0.007792
1.000000 0.910847 0.144304
1.000000 0.910699 0.275768
1.000000 0.910554 0.404968
1.000000 0.910411 0.532680
1.000000 0.910269 0.659282
1.000000 0.910127 0.785001
1.000000 0.909987 0.909987
1.000000 0.909885 1.000000
1.000000 1.000000 0.006779
1.000000 1.000000 0.143291
1.000000 1.000000 0.274755
1.000000 1.000000 0.403955
1.000000 1.000000 0.531667
1.000000 1.000000 0.658269
1.000000 1.000000 0.783988
1.000000 1.000000 0.908974
1.000000 1.000000 1.000000
