skills/creativeops-producer/assets/grade/luts/clean_bright_v15.cube
TITLE "clean_bright_v15"
LUT_3D_SIZE 17
DOMAIN_MIN 0.0 0.0 0.0
DOMAIN_MAX 1.0 1.0 1.0
0.036786 0.036786 0.036786
0.036595 0.036595 0.110999
0.036412 0.036412 0.182110
0.036234 0.036234 0.251551
0.036058 0.036058 0.319846
0.035885 0.035885 0.387269
0.035713 0.035713 0.453991
0.035543 0.035543 0.520127
0.035374 0.035374 0.585759
0.035206 0.035206 0.650951
0.035040 0.035040 0.715751
0.034874 0.034874 0.780201
0.034709 0.034709 0.844331
0.034545 0.034545 0.908169
0.034381 0.034381 0.971738
0.034224 0.034224 1.000000
0.034224 0.034224 1.000000
0.034895 0.109299 0.034895
0.034704 0.109108 0.109108
0.034522 0.108925 0.180219
0.034343 0.108747 0.249660
0.034167 0.108571 0.317955
0.033994 0.108398 0.385379
0.033822 0.108226 0.452100
0.033652 0.108056 0.518236
0.033483 0.107887 0.583868
0.033316 0.107719 0.649060
0.033149 0.107553 0.713861
0.032983 0.107387 0.778310
0.032818 0.107222 0.842440
0.032654 0.107058 0.906278
0.032491 0.106894 0.969847
0.032333 0.106737 1.000000
0.032333 0.106737 1.000000
0.033084 0.178781 0.033084
0.032893 0.178590 0.107296
0.032710 0.178407 0.178407
0.032531 0.178228 0.247848
0.032355 0.178053 0.316143
0.032182 0.177879 0.383567
0.032010 0.177708 0.450289
0.031840 0.177538 0.516424
0.031672 0.177369 0.582056
0.031504 0.177201 0.647248
0.031337 0.177034 0.712049
0.031171 0.176869 0.776498
0.031006 0.176704 0.840628
0.030842 0.176540 0.904466
0.030679 0.176376 0.968035
0.030521 0.176219 1.000000
0.030521 0.176219 1.000000
0.031314 0.246631 0.031314
0.031123 0.246441 0.105527
0.030940 0.246258 0.176638
0.030762 0.246079 0.246079
0.030586 0.245903 0.314374
0.030413 0.245730 0.381797
0.030241 0.245558 0.448519
0.030071 0.245388 0.514655
0.029902 0.245219 0.580287
0.029735 0.245052 0.645479
0.029568 0.244885 0.710280
0.029402 0.244719 0.774729
0.029237 0.244554 0.838859
0.029073 0.244390 0.902697
0.028909 0.244227 0.966266
0.028752 0.244069 1.000000
0.028752 0.244069 1.000000
0.029574 0.313362 0.029574
0.029383 0.313171 0.103787
0.029200 0.312988 0.174898
0.029022 0.312810 0.244339
0.028846 0.312634 0.312634
0.028673 0.312460 0.380057
0.028501 0.312289 0.446779
0.028331 0.312119 0.512915
0.028162 0.311950 0.578547
0.027995 0.311782 0.643739
0.027828 0.311616 0.708540
0.027662 0.311450 0.772989
0.027497 0.311285 0.837119
0.027333 0.311121 0.900957
0.027169 0.310957 0.964526
0.027012 0.310800 1.000000
0.027012 0.310800 1.000000
0.027856 0.379241 0.027856
0.027665 0.379050 0.102069
0.027483 0.378867 0.173180
0.027304 0.378689 0.242621
0.027128 0.378513 0.310916
0.026955 0.378340 0.378340
0.026783 0.378168 0.445061
0.026613 0.377998 0.511197
0.026444 0.377829 0.576829
0.026277 0.377661 0.642021
0.026110 0.377495 0.706822
0.025944 0.377329 0.771271
0.025779 0.377164 0.835401
0.025615 0.377000 0.899239
0.025452 0.376836 0.962808
0.025294 0.376679 1.000000
0.025294 0.376679 1.000000
0.026156 0.444434 0.026156
0.025966 0.444244 0.100369
0.025783 0.444061 0.171480
0.025604 0.443882 0.240921
0.025428 0.443706 0.309216
0.025255 0.443533 0.376640
0.025083 0.443361 0.443361
0.024913 0.443191 0.509497
0.024744 0.443022 0.575129
0.024577 0.442855 0.640321
0.024410 0.442688 0.705122
0.024244 0.442522 0.769571
0.024079 0.442357 0.833701
0.023915 0.442193 0.897539
0.023752 0.442030 0.961108
0.023594 0.441872 1.000000
0.023594 0.441872 1.000000
0.024471 0.509055 0.024471
0.024280 0.508864 0.098684
0.024098 0.508681 0.169795
0.023919 0.508503 0.239236
0.023743 0.508327 0.307531
0.023570 0.508153 0.374955
0.023398 0.507982 0.441676
0.023228 0.507812 0.507812
0.023059 0.507643 0.573444
0.022892 0.507475 0.638636
0.022725 0.507309 0.703437
0.022559 0.507143 0.767886
0.022394 0.506978 0.832016
0.022230 0.506814 0.895854
0.022067 0.506650 0.959423
0.021909 0.506493 1.000000
0.021909 0.506493 1.000000
0.022799 0.573184 0.022799
0.022608 0.572993 0.097012
0.022425 0.572810 0.168123
0.022247 0.572631 0.237564
0.022071 0.572456 0.305859
0.021898 0.572282 0.373282
0.021726 0.572111 0.440004
0.021556 0.571941 0.506140
0.021387 0.571772 0.571772
0.021219 0.571604 0.636964
0.021053 0.571437 0.701764
0.020887 0.571272 0.766214
0.020722 0.571107 0.830344
0.020558 0.570942 0.894182
0.020394 0.570779 0.957751
0.020237 0.570622 1.000000
0.020237 0.570622 1.000000
0.021138 0.636882 0.021138
0.020947 0.636691 0.095351
0.020764 0.636509 0.166462
0.020586 0.636330 0.235903
0.020410 0.636154 0.304198
0.020237 0.635981 0.371621
0.020065 0.635809 0.438343
0.019895 0.635639 0.504479
0.019726 0.635470 0.570111
0.019558 0.635303 0.635303
0.019392 0.635136 0.700103
0.019226 0.634970 0.764553
0.019061 0.634805 0.828683
0.018897 0.634641 0.892521
0.018733 0.634478 0.956090
0.018576 0.634320 1.000000
0.018576 0.634320 1.000000
0.019487 0.700199 0.019487
0.019296 0.700008 0.093700
0.019113 0.699825 0.164811
0.018935 0.699646 0.234252
0.018759 0.699471 0.302547
0.018586 0.699297 0.369970
0.018414 0.699126 0.436692
0.018244 0.698956 0.502828
0.018075 0.698787 0.568460
0.017907 0.698619 0.633652
0.017741 0.698452 0.698452
0.017575 0.698287 0.762902
0.017410 0.698122 0.827032
0.017246 0.697958 0.890870
0.017082 0.697794 0.954439
0.016925 0.697637 1.000000
0.016925 0.697637 1.000000
0.017845 0.763172 0.017845
0.017654 0.762981 0.092058
0.017471 0.762798 0.163168
0.017293 0.762619 0.232610
0.017117 0.762444 0.300905
0.016944 0.762270 0.368328
0.016772 0.762099 0.435050
0.016602 0.761929 0.501185
0.016433 0.761760 0.566818
0.016265 0.761592 0.632010
0.016099 0.761425 0.696810
0.015933 0.761260 0.761260
0.015768 0.761095 0.825390
0.015604 0.760930 0.889228
0.015440 0.760767 0.952797
0.015283 0.760610 1.000000
0.015283 0.760610 1.000000
0.016211 0.825833 0.016211
0.016020 0.825642 0.090424
0.015837 0.825459 0.161535
0.015659 0.825280 0.230976
0.015483 0.825105 0.299271
0.015310 0.824931 0.366694
0.015138 0.824760 0.433416
0.014968 0.824590 0.499551
0.014799 0.824421 0.565184
0.014631 0.824253 0.630376
0.014465 0.824086 0.695176
0.014299 0.823921 0.759626
0.014134 0.823756 0.823756
0.013970 0.823592 0.887594
0.013806 0.823428 0.951163
0.013649 0.823271 1.000000
0.013649 0.823271 1.000000
0.014585 0.888209 0.014585
0.014394 0.888018 0.088797
0.014211 0.887835 0.159908
0.014032 0.887656 0.229349
0.013857 0.887481 0.297644
0.013683 0.887307 0.365068
0.013512 0.887135 0.431790
0.013341 0.886965 0.497925
0.013173 0.886797 0.563557
0.013005 0.886629 0.628749
0.012838 0.886462 0.693550
0.012672 0.886296 0.757999
0.012508 0.886131 0.822129
0.012343 0.885967 0.885967
0.012180 0.885804 0.949536
0.012022 0.885646 1.000000
0.012022 0.885646 1.000000
0.012965 0.950321 0.012965
0.012774 0.950130 0.087178
0.012591 0.949947 0.158288
0.012413 0.949769 0.227730
0.012237 0.949593 0.296025
0.012063 0.949420 0.363448
0.011892 0.949248 0.430170
0.011722 0.949078 0.496305
0.011553 0.948909 0.561938
0.011385 0.948742 0.627129
0.011219 0.948575 0.691930
0.011053 0.948409 0.756380
0.010888 0.948244 0.820510
0.010724 0.948080 0.884348
0.010560 0.947916 0.947916
0.010403 0.947759 1.000000
0.010403 0.947759 1.000000
0.011406 1.000000 0.011406
0.011215 1.000000 0.085619
0.011032 1.000000 0.156729
0.010854 1.000000 0.226171
0.010678 1.000000 0.294466
0.010505 1.000000 0.361889
0.010333 1.000000 0.428611
0.010163 1.000000 0.494746
0.009994 1.000000 0.560379
0.009826 1.000000 0.625570
0.009660 1.000000 0.690371
0.009494 1.000000 0.754821
0.009329 1.000000 0.818951
0.009165 1.000000 0.882789
0.009001 1.000000 0.946358
0.008844 1.000000 1.000000
0.008844 1.000000 1.000000
0.011406 1.000000 0.011406
0.011215 1.000000 0.085619
0.011032 1.000000 0.156729
0.010854 1.000000 0.226171
0.010678 1.000000 0.294466
0.010505 1.000000 0.361889
0.010333 1.000000 0.428611
0.010163 1.000000 0.494746
0.009994 1.000000 0.560379
0.009826 1.000000 0.625570
0.009660 1.000000 0.690371
0.009494 1.000000 0.754821
0.009329 1.000000 0.818951
0.009165 1.000000 0.882789
0.009001 1.000000 0.946358
0.008844 1.000000 1.000000
0.008844 1.000000 1.000000
0.110628 0.036224 0.036224
0.110437 0.036033 0.110437
0.110254 0.035850 0.181548
0.110075 0.035672 0.250989
0.109900 0.035496 0.319284
0.109726 0.035323 0.386707
0.109555 0.035151 0.453429
0.109385 0.034981 0.519565
0.109216 0.034812 0.585197
0.109048 0.034644 0.650389
0.108881 0.034478 0.715189
0.108716 0.034312 0.779639
0.108551 0.034147 0.843769
0.108386 0.033983 0.907607
0.108223 0.033819 0.971176
0.108066 0.033662 1.000000
0.108066 0.033662 1.000000
0.108737 0.108737 0.034333
0.108546 0.108546 0.108546
0.108363 0.108363 0.179657
0.108185 0.108185 0.249098
0.108009 0.108009 0.317393
0.107835 0.107835 0.384816
0.107664 0.107664 0.451538
0.107494 0.107494 0.517674
0.107325 0.107325 0.583306
0.107157 0.107157 0.648498
0.106991 0.106991 0.713299
0.106825 0.106825 0.777748
0.106660 0.106660 0.841878
0.106496 0.106496 0.905716
0.106332 0.106332 0.969285
0.106175 0.106175 1.000000
0.106175 0.106175 1.000000
0.106925 0.178219 0.032521
0.106734 0.178028 0.106734
0.106551 0.177845 0.177845
0.106373 0.177666 0.247286
0.106197 0.177491 0.315581
0.106024 0.177317 0.383005
0.105852 0.177146 0.449726
0.105682 0.176976 0.515862
0.105513 0.176807 0.581494
0.105345 0.176639 0.646686
0.105179 0.176472 0.711487
0.105013 0.176307 0.775936
0.104848 0.176142 0.840066
0.104684 0.175977 0.903904
0.104520 0.175814 0.967473
0.104363 0.175657 1.000000
0.104363 0.175657 1.000000
0.105156 0.246069 0.030752
0.104965 0.245878 0.104965
0.104782 0.245696 0.176076
0.104603 0.245517 0.245517
0.104428 0.245341 0.313812
0.104254 0.245168 0.381235
0.104083 0.244996 0.447957
0.103913 0.244826 0.514093
0.103744 0.244657 0.579725
0.103576 0.244490 0.644917
0.103409 0.244323 0.709718
0.103244 0.244157 0.774167
0.103079 0.243992 0.838297
0.102915 0.243828 0.902135
0.102751 0.243665 0.965704
0.102594 0.243507 1.000000
0.102594 0.243507 1.000000
0.103416 0.312800 0.029012
0.103225 0.312609 0.103225
0.103042 0.312426 0.174336
0.102863 0.312247 0.243777
0.102688 0.312072 0.312072
0.102514 0.311898 0.379495
0.102343 0.311727 0.446217
0.102173 0.311557 0.512353
0.102004 0.311388 0.577985
0.101836 0.311220 0.643177
0.101669 0.311054 0.707977
0.101504 0.310888 0.772427
0.101339 0.310723 0.836557
0.101175 0.310559 0.900395
0.101011 0.310395 0.963964
0.100854 0.310238 1.000000
0.100854 0.310238 1.000000
0.101698 0.378679 0.027294
0.101507 0.378488 0.101507
0.101324 0.378305 0.172618
0.101146 0.378127 0.242059
0.100970 0.377951 0.310354
0.100796 0.377777 0.377777
0.100625 0.377606 0.444499
0.100455 0.377436 0.510635
0.100286 0.377267 0.576267
0.100118 0.377099 0.641459
0.099952 0.376933 0.706260
0.099786 0.376767 0.770709
0.099621 0.376602 0.834839
0.099457 0.376438 0.898677
0.099293 0.376274 0.962246
0.099136 0.376117 1.000000
0.099136 0.376117 1.000000
0.099998 0.443872 0.025594
0.099807 0.443682 0.099807
0.099624 0.443499 0.170918
0.099446 0.443320 0.240359
0.099270 0.443144 0.308654
0.099096 0.442971 0.376077
0.098925 0.442799 0.442799
0.098755 0.442629 0.508935
0.098586 0.442460 0.574567
0.098418 0.442293 0.639759
0.098252 0.442126 0.704560
0.098086 0.441960 0.769009
0.097921 0.441795 0.833139
0.097757 0.441631 0.896977
0.097593 0.441468 0.960546
0.097436 0.441310 1.000000
0.097436 0.441310 1.000000
0.098313 0.508493 0.023909
0.098122 0.508302 0.098122
0.097939 0.508119 0.169233
0.097761 0.507940 0.238674
0.097585 0.507765 0.306969
0.097411 0.507591 0.374392
0.097240 0.507420 0.441114
0.097070 0.507250 0.507250
0.096901 0.507081 0.572882
0.096733 0.506913 0.638074
0.096567 0.506747 0.702875
0.096401 0.506581 0.767324
0.096236 0.506416 0.831454
0.096072 0.506252 0.895292
0.095908 0.506088 0.958861
0.095751 0.505931 1.000000
0.095751 0.505931 1.000000
0.096641 0.572622 0.022237
0.096450 0.572431 0.096450
0.096267 0.572248 0.167561
0.096088 0.572069 0.237002
0.095913 0.571894 0.305297
0.095739 0.571720 0.372720
0.095568 0.571549 0.439442
0.095398 0.571378 0.505577
0.095229 0.571210 0.571210
0.095061 0.571042 0.636402
0.094894 0.570875 0.701202
0.094729 0.570710 0.765652
0.094564 0.570545 0.829782
0.094399 0.570380 0.893620
0.094236 0.570217 0.957189
0.094079 0.570060 1.000000
0.094079 0.570060 1.000000
0.094980 0.636320 0.020576
0.094789 0.636129 0.094789
0.094606 0.635946 0.165900
0.094427 0.635768 0.235341
0.094252 0.635592 0.303636
0.094078 0.635419 0.371059
0.093907 0.635247 0.437781
0.093737 0.635077 0.503916
0.093568 0.634908 0.569549
0.093400 0.634741 0.634741
0.093233 0.634574 0.699541
0.093068 0.634408 0.763991
0.092903 0.634243 0.828121
0.092738 0.634079 0.891959
0.092575 0.633915 0.955528
0.092418 0.633758 1.000000
0.092418 0.633758 1.000000
0.093329 0.699637 0.018925
0.093138 0.699446 0.093138
0.092955 0.699263 0.164248
0.092776 0.699084 0.233690
0.092601 0.698909 0.301985
0.092427 0.698735 0.369408
0.092256 0.698564 0.436130
0.092085 0.698394 0.502265
0.091917 0.698225 0.567898
0.091749 0.698057 0.633090
0.091582 0.697890 0.697890
0.091417 0.697725 0.762340
0.091252 0.697560 0.826470
0.091087 0.697395 0.890308
0.090924 0.697232 0.953877
0.090767 0.697075 1.000000
0.090767 0.697075 1.000000
0.091687 0.762610 0.017283
0.091496 0.762419 0.091496
0.091313 0.762236 0.162606
0.091134 0.762057 0.232048
0.090959 0.761882 0.300343
0.090785 0.761708 0.367766
0.090614 0.761537 0.434488
0.090443 0.761366 0.500623
0.090275 0.761198 0.566256
0.090107 0.761030 0.631447
0.089940 0.760863 0.696248
0.089774 0.760698 0.760698
0.089610 0.760533 0.824828
0.089445 0.760368 0.888666
0.089282 0.760205 0.952235
0.089124 0.760048 1.000000
0.089124 0.760048 1.000000
0.090053 0.825271 0.015649
0.089862 0.825080 0.089862
0.089679 0.824897 0.160972
0.089500 0.824718 0.230414
0.089325 0.824543 0.298709
0.089151 0.824369 0.366132
0.088980 0.824198 0.432854
0.088809 0.824028 0.498989
0.088641 0.823859 0.564622
0.088473 0.823691 0.629814
0.088306 0.823524 0.694614
0.088141 0.823359 0.759064
0.087976 0.823194 0.823194
0.087811 0.823030 0.887032
0.087648 0.822866 0.950601
0.087491 0.822709 1.000000
0.087491 0.822709 1.000000
0.088426 0.887646 0.014023
0.088235 0.887456 0.088235
0.088052 0.887273 0.159346
0.087874 0.887094 0.228787
0.087698 0.886918 0.297082
0.087525 0.886745 0.364506
0.087353 0.886573 0.431228
0.087183 0.886403 0.497363
0.087014 0.886234 0.562995
0.086846 0.886067 0.628187
0.086680 0.885900 0.692988
0.086514 0.885734 0.757437
0.086349 0.885569 0.821567
0.086185 0.885405 0.885405
0.086021 0.885242 0.948974
0.085864 0.885084 1.000000
0.085864 0.885084 1.000000
0.086807 0.949759 0.012403
0.086616 0.949568 0.086616
0.086433 0.949385 0.157726
0.086254 0.949207 0.227168
0.086078 0.949031 0.295463
0.085905 0.948858 0.362886
0.085733 0.948686 0.429608
0.085563 0.948516 0.495743
0.085395 0.948347 0.561375
0.085227 0.948180 0.626567
0.085060 0.948013 0.691368
0.084894 0.947847 0.755817
0.084729 0.947682 0.819948
0.084565 0.947518 0.883786
0.084402 0.947354 0.947354
0.084244 0.947197 1.000000
0.084244 0.947197 1.000000
0.085248 1.000000 0.010844
0.085057 1.000000 0.085057
0.084874 1.000000 0.156167
0.084695 1.000000 0.225609
0.084520 1.000000 0.293904
0.084346 1.000000 0.361327
0.084174 1.000000 0.428049
0.084004 1.000000 0.494184
0.083836 1.000000 0.559817
0.083668 1.000000 0.625008
0.083501 1.000000 0.689809
0.083335 1.000000 0.754258
0.083170 1.000000 0.818389
0.083006 1.000000 0.882227
0.082843 1.000000 0.945795
0.082685 1.000000 1.000000
0.082685 1.000000 1.000000
0.085248 1.000000 0.010844
0.085057 1.000000 0.085057
0.084874 1.000000 0.156167
0.084695 1.000000 0.225609
0.084520 1.000000 0.293904
0.084346 1.000000 0.361327
0.084174 1.000000 0.428049
0.084004 1.000000 0.494184
0.083836 1.000000 0.559817
0.083668 1.000000 0.625008
0.083501 1.000000 0.689809
0.083335 1.000000 0.754258
0.083170 1.000000 0.818389
0.083006 1.000000 0.882227
0.082843 1.000000 0.945795
0.082685 1.000000 1.000000
0.082685 1.000000 1.000000
0.181383 0.035686 0.035686
0.181192 0.035495 0.109898
0.181009 0.035312 0.181009
0.180830 0.035133 0.250450
0.180655 0.034957 0.318745
0.180481 0.034784 0.386169
0.180310 0.034612 0.452891
0.180140 0.034442 0.519026
0.179971 0.034274 0.584658
0.179803 0.034106 0.649850
0.179636 0.033939 0.714651
0.179471 0.033773 0.779100
0.179306 0.033608 0.843230
0.179142 0.033444 0.907068
0.178978 0.033281 0.970637
0.178821 0.033123 1.000000
0.178821 0.033123 1.000000
0.179492 0.108198 0.033795
0.179301 0.108007 0.108007
0.179118 0.107825 0.179118
0.178940 0.107646 0.248559
0.178764 0.107470 0.316854
0.178590 0.107297 0.384278
0.178419 0.107125 0.451000
0.178249 0.106955 0.517135
0.178080 0.106786 0.582767
0.177912 0.106619 0.647959
0.177746 0.106452 0.712760
0.177580 0.106286 0.777209
0.177415 0.106121 0.841339
0.177251 0.105957 0.905177
0.177087 0.105794 0.968746
0.176930 0.105636 1.000000
0.176930 0.105636 1.000000
0.177680 0.177680 0.031983
0.177489 0.177489 0.106196
0.177306 0.177306 0.177306
0.177128 0.177128 0.246748
0.176952 0.176952 0.315043
0.176779 0.176779 0.382466
0.176607 0.176607 0.449188
0.176437 0.176437 0.515323
0.176268 0.176268 0.580955
0.176100 0.176100 0.646147
0.175934 0.175934 0.710948
0.175768 0.175768 0.775397
0.175603 0.175603 0.839528
0.175439 0.175439 0.903366
0.175275 0.175275 0.966934
0.175118 0.175118 1.000000
0.175118 0.175118 1.000000
0.175911 0.245531 0.030214
0.175720 0.245340 0.104426
0.175537 0.245157 0.175537
0.175358 0.244978 0.244978
0.175183 0.244803 0.313273
0.175009 0.244629 0.380697
0.174838 0.244458 0.447419
0.174668 0.244288 0.513554
0.174499 0.244119 0.579186
0.174331 0.243951 0.644378
0.174165 0.243784 0.709179
0.173999 0.243619 0.773628
0.173834 0.243454 0.837758
0.173670 0.243289 0.901596
0.173506 0.243126 0.965165
0.173349 0.242969 1.000000
0.173349 0.242969 1.000000
0.174171 0.312261 0.028474
0.173980 0.312070 0.102686
0.173797 0.311888 0.173797
0.173618 0.311709 0.243238
0.173443 0.311533 0.311533
0.173269 0.311360 0.378957
0.173098 0.311188 0.445679
0.172928 0.311018 0.511814
0.172759 0.310849 0.577446
0.172591 0.310682 0.642638
0.172424 0.310515 0.707439
0.172259 0.310349 0.771888
0.172094 0.310184 0.836018
0.171930 0.310020 0.899856
0.171766 0.309857 0.963425
0.171609 0.309699 1.000000
0.171609 0.309699 1.000000
0.172453 0.378140 0.026756
0.172262 0.377949 0.100968
0.172079 0.377767 0.172079
0.171901 0.377588 0.241520
0.171725 0.377412 0.309815
0.171551 0.377239 0.377239
0.171380 0.377067 0.443961
0.171210 0.376897 0.510096
0.171041 0.376728 0.575728
0.170873 0.376561 0.640920
0.170707 0.376394 0.705721
0.170541 0.376228 0.770170
0.170376 0.376063 0.834300
0.170212 0.375899 0.898138
0.170048 0.375736 0.961707
0.169891 0.375578 1.000000
0.169891 0.375578 1.000000
0.170753 0.443334 0.025056
0.170562 0.443143 0.099268
0.170379 0.442960 0.170379
0.170201 0.442781 0.239820
0.170025 0.442606 0.308115
0.169852 0.442432 0.375539
0.169680 0.442261 0.442261
0.169510 0.442091 0.508396
0.169341 0.441922 0.574028
0.169173 0.441754 0.639220
0.169007 0.441587 0.704021
0.168841 0.441422 0.768470
0.168676 0.441257 0.832600
0.168512 0.441093 0.896438
0.168348 0.440929 0.960007
0.168191 0.440772 1.000000
0.168191 0.440772 1.000000
0.169068 0.507954 0.023371
0.168877 0.507763 0.097583
0.168694 0.507581 0.168694
0.168516 0.507402 0.238135
0.168340 0.507226 0.306430
0.168166 0.507053 0.373854
0.167995 0.506881 0.440576
0.167825 0.506711 0.506711
0.167656 0.506542 0.572343
0.167488 0.506375 0.637535
0.167322 0.506208 0.702336
0.167156 0.506042 0.766785
0.166991 0.505877 0.830915
0.166827 0.505713 0.894753
0.166663 0.505550 0.958322
0.166506 0.505392 1.000000
0.166506 0.505392 1.000000
0.167396 0.572083 0.021698
0.167205 0.571892 0.095911
0.167022 0.571709 0.167022
0.166843 0.571531 0.236463
0.166668 0.571355 0.304758
0.166494 0.571182 0.372182
0.166323 0.571010 0.438904
0.166153 0.570840 0.505039
0.165984 0.570671 0.570671
0.165816 0.570503 0.635863
0.165649 0.570337 0.700664
0.165484 0.570171 0.765113
0.165319 0.570006 0.829243
0.165154 0.569842 0.893081
0.164991 0.569678 0.956650
0.164834 0.569521 1.000000
0.164834 0.569521 1.000000
0.165735 0.635782 0.020037
0.165544 0.635591 0.094250
0.165361 0.635408 0.165361
0.165182 0.635229 0.234802
0.165007 0.635054 0.303097
0.164833 0.634880 0.370521
0.164662 0.634709 0.437243
0.164492 0.634538 0.503378
0.164323 0.634370 0.569010
0.164155 0.634202 0.634202
0.163988 0.634035 0.699003
0.163823 0.633870 0.763452
0.163658 0.633705 0.827582
0.163493 0.633540 0.891420
0.163330 0.633377 0.954989
0.163173 0.633220 1.000000
0.163173 0.633220 1.000000
0.164084 0.699098 0.018386
0.163893 0.698907 0.092599
0.163710 0.698724 0.163710
0.163531 0.698546 0.233151
0.163356 0.698370 0.301446
0.163182 0.698197 0.368870
0.163011 0.698025 0.435591
0.162841 0.697855 0.501727
0.162672 0.697686 0.567359
0.162504 0.697518 0.632551
0.162337 0.697352 0.697352
0.162172 0.697186 0.761801
0.162007 0.697021 0.825931
0.161842 0.696857 0.889769
0.161679 0.696693 0.953338
0.161522 0.696536 1.000000
0.161522 0.696536 1.000000
0.162442 0.762071 0.016744
0.162251 0.761880 0.090957
0.162068 0.761697 0.162068
0.161889 0.761519 0.231509
0.161714 0.761343 0.299804
0.161540 0.761170 0.367228
0.161369 0.760998 0.433949
0.161198 0.760828 0.500085
0.161030 0.760659 0.565717
0.160862 0.760491 0.630909
0.160695 0.760325 0.695710
0.160530 0.760159 0.760159
0.160365 0.759994 0.824289
0.160200 0.759830 0.888127
0.160037 0.759666 0.951696
0.159879 0.759509 1.000000
0.159879 0.759509 1.000000
0.160808 0.824732 0.015110
0.160617 0.824541 0.089323
0.160434 0.824358 0.160434
0.160255 0.824180 0.229875
0.160080 0.824004 0.298170
0.159906 0.823831 0.365594
0.159735 0.823659 0.432315
0.159564 0.823489 0.498451
0.159396 0.823320 0.564083
0.159228 0.823153 0.629275
0.159061 0.822986 0.694076
0.158896 0.822820 0.758525
0.158731 0.822655 0.822655
0.158566 0.822491 0.886493
0.158403 0.822327 0.950062
0.158246 0.822170 1.000000
0.158246 0.822170 1.000000
0.159181 0.887108 0.013484
0.158990 0.886917 0.087697
0.158807 0.886734 0.158807
0.158629 0.886556 0.228249
0.158453 0.886380 0.296544
0.158280 0.886206 0.363967
0.158108 0.886035 0.430689
0.157938 0.885865 0.496824
0.157769 0.885696 0.562457
0.157602 0.885528 0.627648
0.157435 0.885362 0.692449
0.157269 0.885196 0.756899
0.157104 0.885031 0.821029
0.156940 0.884867 0.884867
0.156776 0.884703 0.948435
0.156619 0.884546 1.000000
0.156619 0.884546 1.000000
0.157562 0.949221 0.011864
0.157371 0.949030 0.086077
0.157188 0.948847 0.157188
0.157009 0.948668 0.226629
0.156833 0.948493 0.294924
0.156660 0.948319 0.362347
0.156488 0.948148 0.429069
0.156318 0.947977 0.495205
0.156150 0.947809 0.560837
0.155982 0.947641 0.626029
0.155815 0.947474 0.690830
0.155649 0.947308 0.755279
0.155484 0.947144 0.819409
0.155320 0.946979 0.883247
0.155157 0.946816 0.946816
0.154999 0.946658 1.000000
0.154999 0.946658 1.000000
0.156003 1.000000 0.010305
0.155812 1.000000 0.084518
0.155629 1.000000 0.155629
0.155450 1.000000 0.225070
0.155275 1.000000 0.293365
0.155101 1.000000 0.360789
0.154930 1.000000 0.427510
0.154759 1.000000 0.493646
0.154591 1.000000 0.559278
0.154423 1.000000 0.624470
0.154256 1.000000 0.689271
0.154090 1.000000 0.753720
0.153926 1.000000 0.817850
0.153761 1.000000 0.881688
0.153598 1.000000 0.945257
0.153440 1.000000 1.000000
0.153440 1.000000 1.000000
0.156003 1.000000 0.010305
0.155812 1.000000 0.084518
0.155629 1.000000 0.155629
0.155450 1.000000 0.225070
0.155275 1.000000 0.293365
0.155101 1.000000 0.360789
0.154930 1.000000 0.427510
0.154759 1.000000 0.493646
0.154591 1.000000 0.559278
0.154423 1.000000 0.624470
0.154256 1.000000 0.689271
0.154090 1.000000 0.753720
0.153926 1.000000 0.817850
0.153761 1.000000 0.881688
0.153598 1.000000 0.945257
0.153440 1.000000 1.000000
0.153440 1.000000 1.000000
0.250477 0.035160 0.035160
0.250286 0.034969 0.109372
0.250103 0.034786 0.180483
0.249924 0.034607 0.249924
0.249749 0.034432 0.318219
0.249575 0.034258 0.385643
0.249404 0.034087 0.452365
0.249234 0.033916 0.518500
0.249065 0.033748 0.584132
0.248897 0.033580 0.649324
0.248730 0.033413 0.714125
0.248565 0.033247 0.778574
0.248400 0.033083 0.842704
0.248235 0.032918 0.906542
0.248072 0.032755 0.970111
0.247915 0.032597 1.000000
0.247915 0.032597 1.000000
0.248586 0.107672 0.033269
