skills/creativeops-producer/assets/grade/luts/moody_teal_v11.cube
TITLE "moody_teal_v11"
LUT_3D_SIZE 9
DOMAIN_MIN 0.0 0.0 0.0
DOMAIN_MAX 1.0 1.0 1.0
0.000000 0.000000 0.000000
0.000828 0.000828 0.100508
0.001781 0.001781 0.216278
0.002762 0.002762 0.335336
0.003760 0.003760 0.456548
0.004772 0.004772 0.579378
0.005794 0.005794 0.703508
0.006826 0.006826 0.828727
0.007448 0.007448 0.904290
0.005537 0.072850 0.005537
0.006365 0.073678 0.106045
0.007319 0.074631 0.221816
0.008299 0.075612 0.340873
0.009298 0.076610 0.462086
0.010309 0.077622 0.584916
0.011332 0.078644 0.709045
0.012363 0.079676 0.834264
0.012985 0.080298 0.909828
0.014867 0.195591 0.014867
0.015695 0.196419 0.115375
0.016649 0.197372 0.231146
0.017629 0.198353 0.350203
0.018627 0.199351 0.471415
0.019639 0.200363 0.594245
0.020662 0.201385 0.718375
0.021693 0.202417 0.843594
0.022315 0.203039 0.919157
0.024516 0.322533 0.024516
0.025344 0.323361 0.125024
0.026298 0.324314 0.240795
0.027278 0.325295 0.359852
0.028277 0.326293 0.481064
0.029288 0.327305 0.603894
0.030311 0.328327 0.728024
0.031342 0.329358 0.853243
0.031964 0.329981 0.928806
0.034360 0.452040 0.034360
0.035188 0.452867 0.134868
0.036142 0.453821 0.250639
0.037122 0.454801 0.369696
0.038121 0.455800 0.490908
0.039132 0.456811 0.613738
0.040155 0.457834 0.737868
0.041186 0.458865 0.863087
0.041808 0.459488 0.938650
0.044347 0.583417 0.044347
0.045174 0.584245 0.144854
0.046128 0.585198 0.260625
0.047108 0.586179 0.379682
0.048107 0.587177 0.500895
0.049118 0.588189 0.623725
0.050141 0.589211 0.747855
0.051172 0.590243 0.873074
0.051795 0.590865 0.948637
0.054445 0.716274 0.054445
0.055273 0.717102 0.154953
0.056227 0.718055 0.270724
0.057207 0.719036 0.389781
0.058205 0.720034 0.510993
0.059217 0.721046 0.633823
0.060239 0.722068 0.757953
0.061271 0.723099 0.883172
0.061893 0.723722 0.958735
0.064637 0.850357 0.064637
0.065465 0.851185 0.165145
0.066418 0.852138 0.280915
0.067399 0.853119 0.399973
0.068397 0.854117 0.521185
0.069409 0.855129 0.644015
0.070431 0.856151 0.768145
0.071463 0.857183 0.893364
0.072085 0.857805 0.968927
0.073779 0.970621 0.073779
0.074606 0.971448 0.174286
0.075560 0.972402 0.290057
0.076540 0.973383 0.409114
0.077539 0.974381 0.530327
0.078550 0.975393 0.653157
0.079573 0.976415 0.777287
0.080604 0.977446 0.902506
0.081227 0.978069 0.978069
0.036592 0.000873 0.000873
0.037420 0.001701 0.101381
0.038374 0.002655 0.217152
0.039354 0.003635 0.336209
0.040352 0.004634 0.457422
0.041364 0.005645 0.580252
0.042387 0.006668 0.704381
0.043418 0.007699 0.829600
0.044040 0.008321 0.905164
0.042130 0.073723 0.006411
0.042957 0.074551 0.106919
0.043911 0.075505 0.222689
0.044892 0.076485 0.341747
0.045890 0.077484 0.462959
0.046902 0.078495 0.585789
0.047924 0.079518 0.709919
0.048955 0.080549 0.835138
0.049578 0.081171 0.910701
0.051459 0.196464 0.015741
0.052287 0.197292 0.116248
0.053241 0.198246 0.232019
0.054221 0.199226 0.351076
0.055220 0.200225 0.472289
0.056231 0.201236 0.595119
0.057254 0.202259 0.719249
0.058285 0.203290 0.844468
0.058907 0.203912 0.920031
0.061108 0.323406 0.025390
0.061936 0.324234 0.125897
0.062890 0.325188 0.241668
0.063870 0.326168 0.360726
0.064869 0.327166 0.481938
0.065880 0.328178 0.604768
0.066903 0.329200 0.728898
0.067934 0.330232 0.854117
0.068556 0.330854 0.929680
0.070953 0.452913 0.035234
0.071780 0.453741 0.135741
0.072734 0.454694 0.251512
0.073714 0.455675 0.370570
0.074713 0.456673 0.491782
0.075724 0.457685 0.614612
0.076747 0.458707 0.738742
0.077778 0.459739 0.863961
0.078401 0.460361 0.939524
0.080939 0.584290 0.045220
0.081767 0.585118 0.145728
0.082720 0.586072 0.261498
0.083701 0.587052 0.380556
0.084699 0.588051 0.501768
0.085711 0.589062 0.624598
0.086733 0.590085 0.748728
0.087764 0.591116 0.873947
0.088387 0.591738 0.949510
0.091037 0.717147 0.055319
0.091865 0.717975 0.155826
0.092819 0.718929 0.271597
0.093799 0.719909 0.390654
0.094798 0.720907 0.511867
0.095809 0.721919 0.634697
0.096832 0.722942 0.758827
0.097863 0.723973 0.884046
0.098485 0.724595 0.959609
0.101229 0.851230 0.065511
0.102057 0.852058 0.166018
0.103011 0.853012 0.281789
0.103991 0.853992 0.400846
0.104990 0.854991 0.522059
0.106001 0.856002 0.644889
0.107024 0.857025 0.769019
0.108055 0.858056 0.894238
0.108677 0.858678 0.969801
0.110371 0.971494 0.074652
0.111199 0.972322 0.175160
0.112152 0.973275 0.290930
0.113133 0.974256 0.409988
0.114131 0.975254 0.531200
0.115143 0.976266 0.654030
0.116165 0.977288 0.778160
0.117196 0.978320 0.903379
0.117819 0.978942 0.978942
0.150860 0.003601 0.003601
0.151688 0.004429 0.104109
0.152641 0.005382 0.219879
0.153622 0.006363 0.338937
0.154620 0.007361 0.460149
0.155632 0.008373 0.582979
0.156654 0.009395 0.707109
0.157686 0.010427 0.832328
0.158308 0.011049 0.907891
0.156397 0.076451 0.009139
0.157225 0.077279 0.109646
0.158179 0.078232 0.225417
0.159159 0.079213 0.344474
0.160158 0.080211 0.465687
0.161169 0.081223 0.588517
0.162192 0.082245 0.712647
0.163223 0.083277 0.837866
0.163845 0.083899 0.913429
0.165727 0.199192 0.018468
0.166555 0.200020 0.118976
0.167509 0.200973 0.234747
0.168489 0.201954 0.353804
0.169487 0.202952 0.475016
0.170499 0.203964 0.597846
0.171522 0.204986 0.721976
0.172553 0.206018 0.847195
0.173175 0.206640 0.922758
0.175376 0.326134 0.028117
0.176204 0.326962 0.128625
0.177158 0.327915 0.244396
0.178138 0.328896 0.363453
0.179137 0.329894 0.484665
0.180148 0.330906 0.607495
0.181171 0.331928 0.731625
0.182202 0.332959 0.856844
0.182824 0.333582 0.932407
0.185220 0.455641 0.037961
0.186048 0.456468 0.138469
0.187002 0.457422 0.254240
0.187982 0.458403 0.373297
0.188981 0.459401 0.494509
0.189992 0.460413 0.617339
0.191015 0.461435 0.741469
0.192046 0.462466 0.866688
0.192668 0.463089 0.942251
0.195207 0.587018 0.047948
0.196034 0.587846 0.148455
0.196988 0.588799 0.264226
0.197968 0.589780 0.383283
0.198967 0.590778 0.504496
0.199978 0.591790 0.627326
0.201001 0.592812 0.751456
0.202032 0.593844 0.876675
0.202655 0.594466 0.952238
0.205305 0.719875 0.058046
0.206133 0.720703 0.158554
0.207087 0.721656 0.274325
0.208067 0.722637 0.393382
0.209065 0.723635 0.514594
0.210077 0.724647 0.637424
0.211100 0.725669 0.761554
0.212131 0.726700 0.886773
0.212753 0.727323 0.962336
0.215497 0.853958 0.068238
0.216325 0.854786 0.168746
0.217278 0.855739 0.284517
0.218259 0.856720 0.403574
0.219257 0.857718 0.524786
0.220269 0.858730 0.647616
0.221291 0.859752 0.771746
0.222323 0.860784 0.896965
0.222945 0.861406 0.972528
0.224639 0.974222 0.077380
0.225466 0.975050 0.177887
0.226420 0.976003 0.293658
0.227400 0.976984 0.412715
0.228399 0.977982 0.533928
0.229410 0.978994 0.656758
0.230433 0.980016 0.780888
0.231464 0.981047 0.906107
0.232087 0.981670 0.981670
0.270102 0.006447 0.006447
0.270930 0.007275 0.106955
0.271884 0.008229 0.222726
0.272864 0.009209 0.341783
0.273863 0.010208 0.462996
0.274874 0.011219 0.585825
0.275897 0.012242 0.709955
0.276928 0.013273 0.835174
0.277550 0.013895 0.910738
0.275640 0.079297 0.011985
0.276468 0.080125 0.112493
0.277421 0.081079 0.228263
0.278402 0.082059 0.347321
0.279400 0.083058 0.468533
0.280412 0.084069 0.591363
0.281434 0.085092 0.715493
0.282465 0.086123 0.840712
0.283088 0.086745 0.916275
0.284969 0.202038 0.021315
0.285797 0.202866 0.121822
0.286751 0.203820 0.237593
0.287731 0.204800 0.356650
0.288730 0.205799 0.477863
0.289741 0.206810 0.600693
0.290764 0.207833 0.724823
0.291795 0.208864 0.850042
0.292417 0.209486 0.925605
0.294619 0.328980 0.030964
0.295446 0.329808 0.131471
0.296400 0.330761 0.247242
0.297380 0.331742 0.366300
0.298379 0.332740 0.487512
0.299390 0.333752 0.610342
0.300413 0.334774 0.734472
0.301444 0.335806 0.859691
0.302067 0.336428 0.935254
0.304463 0.458487 0.040808
0.305290 0.459315 0.141315
0.306244 0.460268 0.257086
0.307225 0.461249 0.376144
0.308223 0.462247 0.497356
0.309235 0.463259 0.620186
0.310257 0.464281 0.744316
0.311288 0.465313 0.869535
0.311911 0.465935 0.945098
0.314449 0.589864 0.050794
0.315277 0.590692 0.151302
0.316230 0.591646 0.267072
0.317211 0.592626 0.386130
0.318209 0.593625 0.507342
0.319221 0.594636 0.630172
0.320243 0.595659 0.754302
0.321274 0.596690 0.879521
0.321897 0.597312 0.955084
0.324547 0.722721 0.060893
0.325375 0.723549 0.161400
0.326329 0.724502 0.277171
0.327309 0.725483 0.396228
0.328308 0.726481 0.517441
0.329319 0.727493 0.640271
0.330342 0.728515 0.764401
0.331373 0.729547 0.889620
0.331995 0.730169 0.965183
0.334739 0.856804 0.071084
0.335567 0.857632 0.171592
0.336521 0.858586 0.287363
0.337501 0.859566 0.406420
0.338500 0.860565 0.527633
0.339511 0.861576 0.650463
0.340534 0.862599 0.774593
0.341565 0.863630 0.899812
0.342187 0.864252 0.975375
0.343881 0.977068 0.080226
0.344709 0.977896 0.180734
0.345662 0.978849 0.296504
0.346643 0.979830 0.415562
0.347641 0.980828 0.536774
0.348653 0.981840 0.659604
0.349675 0.982862 0.783734
0.350706 0.983894 0.908953
0.351329 0.984516 0.984516
0.392074 0.009359 0.009359
0.392902 0.010187 0.109867
0.393855 0.011140 0.225637
0.394836 0.012121 0.344695
0.395834 0.013119 0.465907
0.396846 0.014131 0.588737
0.397868 0.015153 0.712867
0.398899 0.016185 0.838086
0.399522 0.016807 0.913649
0.397611 0.082209 0.014896
0.398439 0.083037 0.115404
0.399393 0.083990 0.231175
0.400373 0.084971 0.350232
0.401372 0.085969 0.471444
0.402383 0.086981 0.594274
0.403406 0.088003 0.718404
0.404437 0.089034 0.843623
0.405059 0.089657 0.919186
0.406941 0.204950 0.024226
0.407769 0.205778 0.124734
0.408722 0.206731 0.240505
0.409703 0.207712 0.359562
0.410701 0.208710 0.480774
0.411713 0.209722 0.603604
0.412735 0.210744 0.727734
0.413767 0.211776 0.852953
0.414389 0.212398 0.928516
0.416590 0.331892 0.033875
0.417418 0.332719 0.134383
0.418371 0.333673 0.250154
0.419352 0.334654 0.369211
0.420350 0.335652 0.490423
0.421362 0.336664 0.613253
0.422384 0.337686 0.737383
0.423416 0.338717 0.862602
0.424038 0.339340 0.938165
0.426434 0.461398 0.043719
0.427262 0.462226 0.144227
0.428215 0.463180 0.259998
0.429196 0.464160 0.379055
0.430194 0.465159 0.500267
0.431206 0.466170 0.623097
0.432228 0.467193 0.747227
0.433260 0.468224 0.872446
0.433882 0.468846 0.948009
0.436420 0.592776 0.053705
0.437248 0.593604 0.154213
0.438202 0.594557 0.269984
0.439182 0.595538 0.389041
0.440181 0.596536 0.510254
0.441192 0.597548 0.633083
0.442215 0.598570 0.757213
0.443246 0.599602 0.882432
0.443868 0.600224 0.957996
0.446519 0.725633 0.063804
0.447347 0.726460 0.164312
0.448300 0.727414 0.280082
0.449281 0.728395 0.399140
0.450279 0.729393 0.520352
0.451291 0.730405 0.643182
0.452313 0.731427 0.767312
0.453345 0.732458 0.892531
0.453967 0.733081 0.968094
0.456711 0.859716 0.073996
0.457539 0.860544 0.174504
0.458492 0.861497 0.290274
0.459473 0.862478 0.409332
0.460471 0.863476 0.530544
0.461483 0.864488 0.653374
0.462505 0.865510 0.777504
0.463537 0.866542 0.902723
0.464159 0.867164 0.978286
0.465852 0.979980 0.083137
0.466680 0.980807 0.183645
0.467634 0.981761 0.299416
0.468614 0.982741 0.418473
0.469613 0.983740 0.539686
0.470624 0.984751 0.662516
0.471647 0.985774 0.786645
0.472678 0.986805 0.911864
0.473300 0.987428 0.987428
0.515966 0.012316 0.012316
0.516793 0.013144 0.112824
0.517747 0.014098 0.228595
0.518728 0.015078 0.347652
0.519726 0.016077 0.468864
0.520738 0.017088 0.591694
0.521760 0.018111 0.715824
0.522791 0.019142 0.841043
0.523414 0.019764 0.916606
0.521503 0.085166 0.017854
0.522331 0.085994 0.118361
0.523284 0.086948 0.234132
0.524265 0.087928 0.353190
0.525263 0.088926 0.474402
0.526275 0.089938 0.597232
0.527297 0.090960 0.721362
0.528329 0.091992 0.846581
0.528951 0.092614 0.922144
0.530833 0.207907 0.027183
0.531661 0.208735 0.127691
0.532614 0.209689 0.243462
0.533595 0.210669 0.362519
0.534593 0.211668 0.483732
0.535605 0.212679 0.606562
0.536627 0.213702 0.730691
0.537658 0.214733 0.855910
0.538281 0.215355 0.931474
0.540482 0.334849 0.036832
0.541310 0.335677 0.137340
0.542263 0.336630 0.253111
0.543244 0.337611 0.372168
0.544242 0.338609 0.493381
0.545254 0.339621 0.616211
0.546276 0.340643 0.740341
0.547308 0.341675 0.865560
0.547930 0.342297 0.941123
0.550326 0.464356 0.046677
0.551154 0.465184 0.147184
0.552107 0.466137 0.262955
0.553088 0.467118 0.382012
0.554086 0.468116 0.503225
0.555098 0.469128 0.626055
0.556120 0.470150 0.750185
0.557152 0.471181 0.875404
0.557774 0.471804 0.950967
0.560312 0.595733 0.056663
0.561140 0.596561 0.157170
0.562093 0.597515 0.272941
0.563074 0.598495 0.391999
0.564072 0.599493 0.513211
0.565084 0.600505 0.636041
0.566106 0.601528 0.760171
0.567138 0.602559 0.885390
0.567760 0.603181 0.960953
0.570411 0.728590 0.066761
0.571239 0.729418 0.167269
0.572192 0.730371 0.283040
0.573173 0.731352 0.402097
0.574171 0.732350 0.523310
0.575183 0.733362 0.646139
0.576205 0.734384 0.770269
0.577236 0.735416 0.895488
0.577859 0.736038 0.971052
0.580603 0.862673 0.076953
0.581431 0.863501 0.177461
0.582384 0.864455 0.293232
0.583365 0.865435 0.412289
0.584363 0.866433 0.533501
0.585375 0.867445 0.656331
0.586397 0.868468 0.780461
0.587428 0.869499 0.905680
0.588051 0.870121 0.981243
0.589744 0.982937 0.086095
0.590572 0.983765 0.186602
0.591525 0.984718 0.302373
0.592506 0.985699 0.421431
0.593504 0.986697 0.542643
0.594516 0.987709 0.665473
0.595538 0.988731 0.789603
0.596570 0.989763 0.914822
0.597192 0.990385 0.990385
0.641348 0.015309 0.015309
0.642176 0.016137 0.115817
0.643129 0.017090 0.231588
0.644110 0.018071 0.350645
0.645108 0.019069 0.471857
0.646120 0.020081 0.594687
0.647142 0.021103 0.718817
0.648173 0.022135 0.844036
0.648796 0.022757 0.919599
0.646885 0.088159 0.020847
0.647713 0.088987 0.121354
0.648667 0.089940 0.237125
0.649647 0.090921 0.356182
0.650645 0.091919 0.477395
0.651657 0.092931 0.600225
0.652679 0.093953 0.724355
0.653711 0.094985 0.849574
0.654333 0.095607 0.925137
0.656215 0.210900 0.030176
0.657043 0.211728 0.130684
0.657996 0.212681 0.246455
0.658977 0.213662 0.365512
0.659975 0.214660 0.486724
0.660987 0.215672 0.609554
0.662009 0.216694 0.733684
0.663041 0.217726 0.858903
0.663663 0.218348 0.934466
0.665864 0.337842 0.039825
0.666692 0.338670 0.140333
0.667645 0.339623 0.256104
0.668626 0.340604 0.375161
0.669624 0.341602 0.496374
0.670636 0.342614 0.619203
0.671658 0.343636 0.743333
0.672690 0.344668 0.868552
0.673312 0.345290 0.944116
0.675708 0.467349 0.049669
0.676536 0.468176 0.150177
0.677489 0.469130 0.265948
0.678470 0.470111 0.385005
0.679468 0.471109 0.506218
0.680480 0.472121 0.629048
0.681502 0.473143 0.753177
0.682534 0.474174 0.878396
0.683156 0.474797 0.953960
0.685694 0.598726 0.059656
0.686522 0.599554 0.160163
0.687476 0.600507 0.275934
0.688456 0.601488 0.394991
0.689455 0.602486 0.516204
0.690466 0.603498 0.639034
0.691489 0.604520 0.763164
0.692520 0.605552 0.888383
0.693142 0.606174 0.963946
0.695793 0.731583 0.069754
0.696621 0.732411 0.170262
0.697574 0.733364 0.286033
0.698555 0.734345 0.405090
0.699553 0.735343 0.526302
0.700565 0.736355 0.649132
0.701587 0.737377 0.773262
0.702619 0.738409 0.898481
0.703241 0.739031 0.974044
0.705985 0.865666 0.079946
0.706813 0.866494 0.180454
0.707766 0.867447 0.296225
0.708747 0.868428 0.415282
0.709745 0.869426 0.536494
0.710757 0.870438 0.659324
0.711779 0.871460 0.783454
0.712810 0.872492 0.908673
0.713433 0.873114 0.984236
0.715126 0.985930 0.089088
0.715954 0.986758 0.189595
0.716908 0.987711 0.305366
0.717888 0.988692 0.424423
0.718887 0.989690 0.545636
0.719898 0.990702 0.668466
0.720921 0.991724 0.792596
0.721952 0.992755 0.917815
0.722574 0.993378 0.993378
0.767951 0.018331 0.018331
0.768779 0.019159 0.118839
0.769733 0.020113 0.234610
0.770713 0.021093 0.353667
0.771711 0.022091 0.474879
0.772723 0.023103 0.597709
0.773746 0.024126 0.721839
0.774777 0.025157 0.847058
0.775399 0.025779 0.922621
0.773489 0.091181 0.023869
0.774316 0.092009 0.124376
0.775270 0.092962 0.240147
0.776251 0.093943 0.359204
0.777249 0.094941 0.480417
0.778261 0.095953 0.603247
0.779283 0.096975 0.727377
0.780314 0.098007 0.852596
0.780937 0.098629 0.928159
0.782818 0.213922 0.033198
0.783646 0.214750 0.133706
0.784600 0.215704 0.249477
0.785580 0.216684 0.368534
0.786579 0.217682 0.489747
0.787590 0.218694 0.612576
0.788613 0.219717 0.736706
0.789644 0.220748 0.861925
0.790266 0.221370 0.937489
0.792467 0.340864 0.042847
0.793295 0.341692 0.143355
0.794249 0.342645 0.259126
0.795229 0.343626 0.378183
0.796228 0.344624 0.499396
0.797239 0.345636 0.622226
0.798262 0.346658 0.746355
0.799293 0.347690 0.871574
0.799915 0.348312 0.947138
0.802311 0.470371 0.052691
0.803139 0.471199 0.153199
0.804093 0.472152 0.268970
0.805073 0.473133 0.388027
0.806072 0.474131 0.509240
0.807083 0.475143 0.632070
0.808106 0.476165 0.756200
0.809137 0.477196 0.881419
0.809759 0.477819 0.956982
0.812298 0.601748 0.062678
0.813126 0.602576 0.163185
0.814079 0.603530 0.278956
0.815060 0.604510 0.398014
0.816058 0.605508 0.519226
0.817070 0.606520 0.642056
0.818092 0.607542 0.766186
0.819123 0.608574 0.891405
0.819746 0.609196 0.966968
0.822396 0.734605 0.072776
0.823224 0.735433 0.173284
0.824178 0.736386 0.289055
0.825158 0.737367 0.408112
0.826157 0.738365 0.529324
0.827168 0.739377 0.652154
0.828191 0.740399 0.776284
0.829222 0.741431 0.901503
0.829844 0.742053 0.977066
0.832588 0.868688 0.082968
0.833416 0.869516 0.183476
0.834370 0.870470 0.299247
0.835350 0.871450 0.418304
0.836349 0.872448 0.539516
0.837360 0.873460 0.662346
0.838383 0.874482 0.786476
0.839414 0.875514 0.911695
0.840036 0.876136 0.987258
0.841730 0.988952 0.092110
0.842558 0.989780 0.192617
0.843511 0.990733 0.308388
0.844492 0.991714 0.427446
0.845490 0.992712 0.548658
0.846502 0.993724 0.671488
0.847524 0.994746 0.795618
0.848555 0.995777 0.920837
0.849178 0.996400 0.996400
0.895591 0.021378 0.021378
0.896419 0.022206 0.121886
0.897373 0.023159 0.237656
0.898353 0.024140 0.356714
0.899351 0.025138 0.477926
0.900363 0.026150 0.600756
0.901386 0.027172 0.724886
0.902417 0.028204 0.850105
0.903039 0.028826 0.925668
0.901129 0.094228 0.026915
0.901956 0.095056 0.127423
0.902910 0.096009 0.243194
0.903891 0.096990 0.362251
0.904889 0.097988 0.483464
0.905901 0.099000 0.606294
0.906923 0.100022 0.730423
0.907954 0.101054 0.855642
0.908577 0.101676 0.931206
0.910458 0.216969 0.036245
0.911286 0.217797 0.136753
0.912240 0.218750 0.252524
0.913220 0.219731 0.371581
0.914219 0.220729 0.492793
0.915230 0.221741 0.615623
0.916253 0.222763 0.739753
0.917284 0.223795 0.864972
0.917906 0.224417 0.940535
0.920107 0.343911 0.045894
0.920935 0.344739 0.146402
0.921889 0.345692 0.262173
0.922869 0.346673 0.381230
0.923868 0.347671 0.502442
0.924879 0.348683 0.625272
0.925902 0.349705 0.749402
0.926933 0.350736 0.874621
0.927555 0.351359 0.950184
0.929951 0.473418 0.055738
0.930779 0.474245 0.156246
0.931733 0.475199 0.272017
0.932713 0.476179 0.391074
0.933712 0.477178 0.512286
0.934723 0.478189 0.635116
0.935746 0.479212 0.759246
0.936777 0.480243 0.884465
0.937399 0.480866 0.960028
0.939938 0.604795 0.065725
0.940766 0.605623 0.166232
0.941719 0.606576 0.282003
0.942700 0.607557 0.401060
0.943698 0.608555 0.522273
0.944710 0.609567 0.645103
0.945732 0.610589 0.769233
0.946763 0.611621 0.894452
0.947386 0.612243 0.970015
0.950036 0.737652 0.075823
0.950864 0.738480 0.176331
0.951818 0.739433 0.292102
0.952798 0.740414 0.411159
0.953797 0.741412 0.532371
0.954808 0.742424 0.655201
0.955831 0.743446 0.779331
0.956862 0.744477 0.904550
0.957484 0.745100 0.980113
0.960228 0.871735 0.086015
0.961056 0.872563 0.186523
0.962010 0.873516 0.302293
0.962990 0.874497 0.421351
0.963989 0.875495 0.542563
0.965000 0.876507 0.665393
0.966023 0.877529 0.789523
0.967054 0.878561 0.914742
0.967676 0.879183 0.990305
0.969370 0.991999 0.095157
0.970198 0.992826 0.195664
0.971151 0.993780 0.311435
0.972132 0.994761 0.430492
0.973130 0.995759 0.551705
0.974142 0.996771 0.674535
0.975164 0.997793 0.798665
0.976195 0.998824 0.923884
0.976818 0.999447 0.999447
