skills/creativeops-producer/assets/grade/luts/moody_teal_v15.cube
TITLE "moody_teal_v15"
LUT_3D_SIZE 9
DOMAIN_MIN 0.0 0.0 0.0
DOMAIN_MAX 1.0 1.0 1.0
0.000000 0.000000 0.000000
0.001011 0.001011 0.096049
0.002207 0.002207 0.209622
0.003445 0.003445 0.327240
0.004711 0.004711 0.447523
0.005998 0.005998 0.569811
0.007302 0.007302 0.693715
0.008621 0.008621 0.818976
0.009272 0.009272 0.880851
0.005759 0.060404 0.005759
0.006770 0.061415 0.101807
0.007965 0.062610 0.215380
0.009203 0.063849 0.332999
0.010469 0.065115 0.453281
0.011756 0.066402 0.575570
0.013061 0.067706 0.699474
0.014379 0.069025 0.824735
0.015031 0.069676 0.886609
0.017357 0.182071 0.017357
0.018368 0.183082 0.113406
0.019564 0.184277 0.226979
0.020802 0.185515 0.344598
0.022068 0.186782 0.464880
0.023355 0.188069 0.587168
0.024660 0.189373 0.711073
0.025978 0.190691 0.836334
0.026629 0.191343 0.898208
0.029488 0.309314 0.029488
0.030499 0.310325 0.125537
0.031694 0.311520 0.239110
0.032933 0.312758 0.356728
0.034199 0.314024 0.477011
0.035486 0.315312 0.599299
0.036790 0.316616 0.723203
0.038109 0.317934 0.848464
0.038760 0.318586 0.910339
0.041936 0.439889 0.041936
0.042947 0.440900 0.137985
0.044143 0.442096 0.251558
0.045381 0.443334 0.369177
0.046647 0.444600 0.489459
0.047934 0.445887 0.611747
0.049238 0.447191 0.735651
0.050557 0.448510 0.860912
0.051208 0.449161 0.922787
0.054615 0.572880 0.054615
0.055626 0.573891 0.150663
0.056821 0.575086 0.264236
0.058059 0.576324 0.381855
0.059325 0.577591 0.502137
0.060613 0.578878 0.624426
0.061917 0.580182 0.748330
0.063235 0.581501 0.873591
0.063887 0.582152 0.935466
0.067475 0.707776 0.067475
0.068486 0.708787 0.163523
0.069681 0.709983 0.277096
0.070919 0.711221 0.394715
0.072185 0.712487 0.514998
0.073473 0.713774 0.637286
0.074777 0.715078 0.761190
0.076095 0.716397 0.886451
0.076747 0.717048 0.948326
0.080485 0.844251 0.080485
0.081496 0.845262 0.176534
0.082692 0.846457 0.290107
0.083930 0.847695 0.407726
0.085196 0.848961 0.528008
0.086483 0.850249 0.650296
0.087788 0.851553 0.774201
0.089106 0.852871 0.899461
0.089757 0.853523 0.961336
0.091847 0.963426 0.091847
0.092858 0.964437 0.187895
0.094053 0.965632 0.301468
0.095291 0.966870 0.419087
0.096557 0.968136 0.539370
0.097845 0.969424 0.661658
0.099149 0.970728 0.785562
0.100467 0.972046 0.910823
0.101119 0.972698 0.972698
0.016647 0.000506 0.000506
0.017658 0.001517 0.096554
0.018854 0.002712 0.210127
0.020092 0.003950 0.327746
0.021358 0.005216 0.448028
0.022645 0.006504 0.570317
0.023950 0.007808 0.694221
0.025268 0.009126 0.819482
0.025919 0.009778 0.881357
0.022406 0.060910 0.006264
0.023417 0.061921 0.102313
0.024612 0.063116 0.215886
0.025850 0.064354 0.333505
0.027117 0.065620 0.453787
0.028404 0.066907 0.576075
0.029708 0.068212 0.699979
0.031027 0.069530 0.825240
0.031678 0.070182 0.887115
0.034005 0.182576 0.017863
0.035016 0.183587 0.113912
0.036211 0.184783 0.227485
0.037449 0.186021 0.345104
0.038716 0.187287 0.465386
0.040003 0.188574 0.587674
0.041307 0.189879 0.711578
0.042626 0.191197 0.836839
0.043277 0.191848 0.898714
0.046135 0.309819 0.029994
0.047146 0.310830 0.126042
0.048342 0.312026 0.239615
0.049580 0.313264 0.357234
0.050846 0.314530 0.477516
0.052133 0.315817 0.599805
0.053437 0.317122 0.723709
0.054756 0.318440 0.848970
0.055407 0.319091 0.910845
0.058584 0.440395 0.042442
0.059595 0.441406 0.138490
0.060790 0.442601 0.252063
0.062028 0.443839 0.369682
0.063294 0.445105 0.489965
0.064581 0.446393 0.612253
0.065886 0.447697 0.736157
0.067204 0.449015 0.861418
0.067856 0.449667 0.923293
0.071262 0.573385 0.055120
0.072273 0.574397 0.151169
0.073469 0.575592 0.264742
0.074707 0.576830 0.382361
0.075973 0.578096 0.502643
0.077260 0.579383 0.624931
0.078564 0.580688 0.748836
0.079883 0.582006 0.874096
0.080534 0.582657 0.935971
0.084122 0.708282 0.067980
0.085133 0.709293 0.164029
0.086329 0.710488 0.277602
0.087567 0.711726 0.395221
0.088833 0.712992 0.515503
0.090120 0.714280 0.637791
0.091424 0.715584 0.761696
0.092743 0.716902 0.886957
0.093394 0.717554 0.948831
0.097133 0.844756 0.080991
0.098144 0.845767 0.177040
0.099339 0.846963 0.290613
0.100577 0.848201 0.408231
0.101843 0.849467 0.528514
0.103131 0.850754 0.650802
0.104435 0.852058 0.774706
0.105753 0.853377 0.899967
0.106405 0.854028 0.961842
0.108494 0.963931 0.092352
0.109505 0.964942 0.188401
0.110701 0.966138 0.301974
0.111939 0.967376 0.419593
0.113205 0.968642 0.539875
0.114492 0.969929 0.662163
0.115796 0.971234 0.786068
0.117115 0.972552 0.911328
0.117766 0.973203 0.973203
0.126519 0.003843 0.003843
0.127530 0.004854 0.099891
0.128725 0.006049 0.213464
0.129963 0.007287 0.331083
0.131229 0.008554 0.451366
0.132517 0.009841 0.573654
0.133821 0.011145 0.697558
0.135139 0.012464 0.822819
0.135791 0.013115 0.884694
0.132277 0.064247 0.009601
0.133288 0.065258 0.105650
0.134484 0.066453 0.219223
0.135722 0.067691 0.336842
0.136988 0.068957 0.457124
0.138275 0.070245 0.579412
0.139579 0.071549 0.703317
0.140898 0.072867 0.828577
0.141549 0.073519 0.890452
0.143876 0.185914 0.021200
0.144887 0.186925 0.117249
0.146083 0.188120 0.230822
0.147321 0.189358 0.348441
0.148587 0.190624 0.468723
0.149874 0.191912 0.591011
0.151178 0.193216 0.714916
0.152497 0.194534 0.840176
0.153148 0.195186 0.902051
0.156007 0.313157 0.033331
0.157018 0.314168 0.129379
0.158213 0.315363 0.242952
0.159451 0.316601 0.360571
0.160717 0.317867 0.480854
0.162005 0.319155 0.603142
0.163309 0.320459 0.727046
0.164627 0.321777 0.852307
0.165279 0.322429 0.914182
0.168455 0.443732 0.045779
0.169466 0.444743 0.141828
0.170661 0.445938 0.255401
0.171900 0.447176 0.373019
0.173166 0.448443 0.493302
0.174453 0.449730 0.615590
0.175757 0.451034 0.739494
0.177076 0.452353 0.864755
0.177727 0.453004 0.926630
0.181133 0.576723 0.058457
0.182144 0.577734 0.154506
0.183340 0.578929 0.268079
0.184578 0.580167 0.385698
0.185844 0.581433 0.505980
0.187131 0.582721 0.628269
0.188436 0.584025 0.752173
0.189754 0.585343 0.877434
0.190405 0.585995 0.939308
0.193994 0.711619 0.071318
0.195005 0.712630 0.167366
0.196200 0.713825 0.280939
0.197438 0.715064 0.398558
0.198704 0.716330 0.518840
0.199991 0.717617 0.641129
0.201296 0.718921 0.765033
0.202614 0.720240 0.890294
0.203266 0.720891 0.952169
0.207004 0.848093 0.084328
0.208015 0.849104 0.180377
0.209211 0.850300 0.293950
0.210449 0.851538 0.411569
0.211715 0.852804 0.531851
0.213002 0.854091 0.654139
0.214306 0.855396 0.778043
0.215625 0.856714 0.903304
0.216276 0.857365 0.965179
0.218366 0.967269 0.095690
0.219377 0.968280 0.191738
0.220572 0.969475 0.305311
0.221810 0.970713 0.422930
0.223076 0.971979 0.543212
0.224363 0.973266 0.665501
0.225668 0.974571 0.789405
0.226986 0.975889 0.914666
0.227638 0.976541 0.976541
0.243671 0.007401 0.007401
0.244682 0.008412 0.103450
0.245878 0.009608 0.217023
0.247116 0.010846 0.334642
0.248382 0.012112 0.454924
0.249669 0.013399 0.577212
0.250974 0.014703 0.701116
0.252292 0.016022 0.826377
0.252943 0.016673 0.888252
0.249430 0.067805 0.013160
0.250441 0.068816 0.109208
0.251636 0.070012 0.222781
0.252875 0.071250 0.340400
0.254141 0.072516 0.460683
0.255428 0.073803 0.582971
0.256732 0.075107 0.706875
0.258051 0.076426 0.832136
0.258702 0.077077 0.894011
0.261029 0.189472 0.024759
0.262040 0.190483 0.120807
0.263235 0.191679 0.234380
0.264473 0.192917 0.351999
0.265740 0.194183 0.472281
0.267027 0.195470 0.594570
0.268331 0.196774 0.718474
0.269650 0.198093 0.843735
0.270301 0.198744 0.905610
0.273159 0.316715 0.036889
0.274170 0.317726 0.132938
0.275366 0.318921 0.246511
0.276604 0.320160 0.364130
0.277870 0.321426 0.484412
0.279157 0.322713 0.606700
0.280462 0.324017 0.730604
0.281780 0.325336 0.855865
0.282431 0.325987 0.917740
0.285608 0.447290 0.049337
0.286619 0.448301 0.145386
0.287814 0.449497 0.258959
0.289052 0.450735 0.376578
0.290318 0.452001 0.496860
0.291605 0.453288 0.619148
0.292910 0.454592 0.743053
0.294228 0.455911 0.868313
0.294880 0.456562 0.930188
0.298286 0.580281 0.062016
0.299297 0.581292 0.158064
0.300493 0.582488 0.271637
0.301731 0.583726 0.389256
0.302997 0.584992 0.509539
0.304284 0.586279 0.631827
0.305588 0.587583 0.755731
0.306907 0.588902 0.880992
0.307558 0.589553 0.942867
0.311146 0.715177 0.074876
0.312157 0.716188 0.170925
0.313353 0.717384 0.284498
0.314591 0.718622 0.402116
0.315857 0.719888 0.522399
0.317144 0.721175 0.644687
0.318448 0.722479 0.768591
0.319767 0.723798 0.893852
0.320418 0.724449 0.955727
0.324157 0.851652 0.087887
0.325168 0.852663 0.183935
0.326363 0.853858 0.297508
0.327601 0.855096 0.415127
0.328867 0.856363 0.535409
0.330155 0.857650 0.657698
0.331459 0.858954 0.781602
0.332777 0.860273 0.906863
0.333429 0.860924 0.968738
0.335518 0.970827 0.099248
0.336529 0.971838 0.195297
0.337725 0.973033 0.308870
0.338963 0.974271 0.426488
0.340229 0.975538 0.546771
0.341516 0.976825 0.669059
0.342820 0.978129 0.792963
0.344139 0.979448 0.918224
0.344790 0.980099 0.980099
0.364468 0.011070 0.011070
0.365479 0.012081 0.107119
0.366674 0.013277 0.220692
0.367912 0.014515 0.338311
0.369178 0.015781 0.458593
0.370465 0.017068 0.580881
0.371770 0.018372 0.704786
0.373088 0.019691 0.830046
0.373740 0.020342 0.891921
0.370226 0.071474 0.016829
0.371237 0.072485 0.112877
0.372433 0.073681 0.226450
0.373671 0.074919 0.344069
0.374937 0.076185 0.464352
0.376224 0.077472 0.586640
0.377528 0.078776 0.710544
0.378847 0.080095 0.835805
0.379498 0.080746 0.897680
0.381825 0.193141 0.028428
0.382836 0.194152 0.124476
0.384032 0.195348 0.238049
0.385270 0.196586 0.355668
0.386536 0.197852 0.475950
0.387823 0.199139 0.598239
0.389127 0.200443 0.722143
0.390446 0.201762 0.847404
0.391097 0.202413 0.909279
0.393955 0.320384 0.040558
0.394967 0.321395 0.136607
0.396162 0.322590 0.250180
0.397400 0.323829 0.367799
0.398666 0.325095 0.488081
0.399953 0.326382 0.610369
0.401258 0.327686 0.734273
0.402576 0.329005 0.859534
0.403227 0.329656 0.921409
0.406404 0.450959 0.053006
0.407415 0.451970 0.149055
0.408610 0.453166 0.262628
0.409848 0.454404 0.380247
0.411114 0.455670 0.500529
0.412402 0.456957 0.622817
0.413706 0.458261 0.746722
0.415024 0.459580 0.871982
0.415676 0.460231 0.933857
0.419082 0.583950 0.065685
0.420093 0.584961 0.161733
0.421289 0.586157 0.275306
0.422527 0.587395 0.392925
0.423793 0.588661 0.513208
0.425080 0.589948 0.635496
0.426384 0.591252 0.759400
0.427703 0.592571 0.884661
0.428354 0.593222 0.946536
0.431942 0.718846 0.078545
0.432953 0.719857 0.174594
0.434149 0.721053 0.288167
0.435387 0.722291 0.405785
0.436653 0.723557 0.526068
0.437940 0.724844 0.648356
0.439244 0.726148 0.772260
0.440563 0.727467 0.897521
0.441214 0.728118 0.959396
0.444953 0.855321 0.091556
0.445964 0.856332 0.187604
0.447159 0.857527 0.301177
0.448397 0.858765 0.418796
0.449664 0.860032 0.539078
0.450951 0.861319 0.661367
0.452255 0.862623 0.785271
0.453574 0.863942 0.910532
0.454225 0.864593 0.972407
0.456314 0.974496 0.102917
0.457325 0.975507 0.198966
0.458521 0.976702 0.312539
0.459759 0.977940 0.430157
0.461025 0.979207 0.550440
0.462312 0.980494 0.672728
0.463616 0.981798 0.796632
0.464935 0.983117 0.921893
0.465586 0.983768 0.983768
0.487773 0.014815 0.014815
0.488784 0.015826 0.110864
0.489980 0.017022 0.224437
0.491218 0.018260 0.342056
0.492484 0.019526 0.462338
0.493771 0.020813 0.584627
0.495075 0.022118 0.708531
0.496394 0.023436 0.833792
0.497045 0.024087 0.895666
0.493532 0.075219 0.020574
0.494543 0.076230 0.116623
0.495738 0.077426 0.230196
0.496976 0.078664 0.347814
0.498243 0.079930 0.468097
0.499530 0.081217 0.590385
0.500834 0.082522 0.714289
0.502153 0.083840 0.839550
0.502804 0.084491 0.901425
0.505131 0.196886 0.032173
0.506142 0.197897 0.128222
0.507337 0.199093 0.241795
0.508575 0.200331 0.359413
0.509841 0.201597 0.479696
0.511129 0.202884 0.601984
0.512433 0.204188 0.725888
0.513751 0.205507 0.851149
0.514403 0.206158 0.913024
0.517261 0.324129 0.044303
0.518272 0.325140 0.140352
0.519468 0.326336 0.253925
0.520706 0.327574 0.371544
0.521972 0.328840 0.491826
0.523259 0.330127 0.614114
0.524563 0.331431 0.738019
0.525882 0.332750 0.863280
0.526533 0.333401 0.925154
0.529709 0.454705 0.056752
0.530720 0.455716 0.152800
0.531916 0.456911 0.266373
0.533154 0.458149 0.383992
0.534420 0.459415 0.504274
0.535707 0.460702 0.626563
0.537012 0.462007 0.750467
0.538330 0.463325 0.875728
0.538981 0.463977 0.937603
0.542388 0.587695 0.069430
0.543399 0.588706 0.165479
0.544594 0.589902 0.279052
0.545833 0.591140 0.396671
0.547099 0.592406 0.516953
0.548386 0.593693 0.639241
0.549690 0.594997 0.763145
0.551009 0.596316 0.888406
0.551660 0.596967 0.950281
0.555248 0.722592 0.082290
0.556259 0.723603 0.178339
0.557455 0.724798 0.291912
0.558693 0.726036 0.409531
0.559959 0.727302 0.529813
0.561246 0.728589 0.652101
0.562550 0.729894 0.776006
0.563869 0.731212 0.901266
0.564520 0.731864 0.963141
0.568259 0.859066 0.095301
0.569270 0.860077 0.191349
0.570465 0.861273 0.304922
0.571703 0.862511 0.422541
0.572969 0.863777 0.542824
0.574257 0.865064 0.665112
0.575561 0.866368 0.789016
0.576879 0.867687 0.914277
0.577531 0.868338 0.976152
0.579620 0.978241 0.106662
0.580631 0.979252 0.202711
0.581827 0.980448 0.316284
0.583065 0.981686 0.433903
0.584331 0.982952 0.554185
0.585618 0.984239 0.676473
0.586922 0.985543 0.800377
0.588241 0.986862 0.925638
0.588892 0.987513 0.987513
0.613009 0.018619 0.018619
0.614020 0.019630 0.114668
0.615215 0.020826 0.228241
0.616453 0.022064 0.345860
0.617719 0.023330 0.466142
0.619006 0.024617 0.588430
0.620311 0.025921 0.712335
0.621629 0.027240 0.837595
0.622281 0.027891 0.899470
0.618767 0.079023 0.024378
0.619778 0.080034 0.120426
0.620974 0.081230 0.233999
0.622212 0.082468 0.351618
0.623478 0.083734 0.471901
0.624765 0.085021 0.594189
0.626069 0.086325 0.718093
0.627388 0.087644 0.843354
0.628039 0.088295 0.905229
0.630366 0.200690 0.035977
0.631377 0.201701 0.132025
0.632572 0.202897 0.245598
0.633811 0.204135 0.363217
0.635077 0.205401 0.483500
0.636364 0.206688 0.605788
0.637668 0.207992 0.729692
0.638987 0.209311 0.854953
0.639638 0.209962 0.916828
0.642496 0.327933 0.048107
0.643507 0.328944 0.144156
0.644703 0.330140 0.257729
0.645941 0.331378 0.375348
0.647207 0.332644 0.495630
0.648494 0.333931 0.617918
0.649799 0.335235 0.741823
0.651117 0.336554 0.867083
0.651768 0.337205 0.928958
0.654945 0.458508 0.060555
0.655956 0.459519 0.156604
0.657151 0.460715 0.270177
0.658389 0.461953 0.387796
0.659655 0.463219 0.508078
0.660943 0.464506 0.630367
0.662247 0.465811 0.754271
0.663565 0.467129 0.879532
0.664217 0.467780 0.941406
0.667623 0.591499 0.073234
0.668634 0.592510 0.169283
0.669830 0.593706 0.282856
0.671068 0.594944 0.400474
0.672334 0.596210 0.520757
0.673621 0.597497 0.643045
0.674925 0.598801 0.766949
0.676244 0.600120 0.892210
0.676895 0.600771 0.954085
0.680483 0.726395 0.086094
0.681494 0.727406 0.182143
0.682690 0.728602 0.295716
0.683928 0.729840 0.413335
0.685194 0.731106 0.533617
0.686481 0.732393 0.655905
0.687785 0.733698 0.779809
0.689104 0.735016 0.905070
0.689755 0.735667 0.966945
0.693494 0.862870 0.099105
0.694505 0.863881 0.195153
0.695700 0.865076 0.308726
0.696938 0.866315 0.426345
0.698205 0.867581 0.546627
0.699492 0.868868 0.668916
0.700796 0.870172 0.792820
0.702115 0.871491 0.918081
0.702766 0.872142 0.979956
0.704855 0.982045 0.110466
0.705866 0.983056 0.206515
0.707062 0.984252 0.320088
0.708300 0.985490 0.437706
0.709566 0.986756 0.557989
0.710853 0.988043 0.680277
0.712157 0.989347 0.804181
0.713476 0.990666 0.929442
0.714127 0.991317 0.991317
0.739817 0.022471 0.022471
0.740828 0.023482 0.118520
0.742024 0.024677 0.232093
0.743262 0.025916 0.349711
0.744528 0.027182 0.469994
0.745815 0.028469 0.592282
0.747119 0.029773 0.716186
0.748438 0.031092 0.841447
0.749089 0.031743 0.903322
0.745576 0.082875 0.028229
0.746587 0.083886 0.124278
0.747782 0.085081 0.237851
0.749020 0.086319 0.355470
0.750286 0.087586 0.475752
0.751573 0.088873 0.598041
0.752878 0.090177 0.721945
0.754196 0.091496 0.847206
0.754848 0.092147 0.909080
0.757174 0.204542 0.039828
0.758185 0.205553 0.135877
0.759381 0.206748 0.249450
0.760619 0.207986 0.367069
0.761885 0.209252 0.487351
0.763172 0.210540 0.609639
0.764477 0.211844 0.733544
0.765795 0.213162 0.858805
0.766446 0.213814 0.920679
0.769305 0.331785 0.051959
0.770316 0.332796 0.148008
0.771511 0.333991 0.261581
0.772750 0.335229 0.379199
0.774016 0.336495 0.499482
0.775303 0.337783 0.621770
0.776607 0.339087 0.745674
0.777926 0.340405 0.870935
0.778577 0.341057 0.932810
0.781753 0.462360 0.064407
0.782764 0.463371 0.160456
0.783960 0.464567 0.274029
0.785198 0.465805 0.391648
0.786464 0.467071 0.511930
0.787751 0.468358 0.634218
0.789055 0.469662 0.758122
0.790374 0.470981 0.883383
0.791025 0.471632 0.945258
0.794432 0.595351 0.077086
0.795443 0.596362 0.173134
0.796638 0.597557 0.286707
0.797876 0.598795 0.404326
0.799142 0.600062 0.524608
0.800430 0.601349 0.646897
0.801734 0.602653 0.770801
0.803052 0.603971 0.896062
0.803704 0.604623 0.957937
0.807292 0.730247 0.089946
0.808303 0.731258 0.185994
0.809498 0.732454 0.299567
0.810736 0.733692 0.417186
0.812002 0.734958 0.537469
0.813290 0.736245 0.659757
0.814594 0.737549 0.783661
0.815912 0.738868 0.908922
0.816564 0.739519 0.970797
0.820302 0.866722 0.102956
0.821313 0.867733 0.199005
0.822509 0.868928 0.312578
0.823747 0.870166 0.430197
0.825013 0.871432 0.550479
0.826300 0.872720 0.672767
0.827605 0.874024 0.796672
0.828923 0.875342 0.921932
0.829574 0.875994 0.983807
0.831664 0.985897 0.114318
0.832675 0.986908 0.210366
0.833870 0.988103 0.323939
0.835108 0.989341 0.441558
0.836374 0.990607 0.561841
0.837662 0.991895 0.684129
0.838966 0.993199 0.808033
0.840284 0.994517 0.933294
0.840936 0.995169 0.995169
0.867957 0.026363 0.026363
0.868968 0.027374 0.122412
0.870163 0.028570 0.235985
0.871401 0.029808 0.353603
0.872667 0.031074 0.473886
0.873955 0.032361 0.596174
0.875259 0.033665 0.720078
0.876577 0.034984 0.845339
0.877229 0.035635 0.907214
0.873715 0.086767 0.032122
0.874726 0.087778 0.128170
0.875922 0.088973 0.241743
0.877160 0.090212 0.359362
0.878426 0.091478 0.479644
0.879713 0.092765 0.601933
0.881017 0.094069 0.725837
0.882336 0.095388 0.851098
0.882987 0.096039 0.912972
0.885314 0.208434 0.043720
0.886325 0.209445 0.139769
0.887521 0.210640 0.253342
0.888759 0.211878 0.370961
0.890025 0.213145 0.491243
0.891312 0.214432 0.613532
0.892616 0.215736 0.737436
0.893935 0.217055 0.862697
0.894586 0.217706 0.924571
0.897445 0.335677 0.055851
0.898456 0.336688 0.151900
0.899651 0.337883 0.265473
0.900889 0.339121 0.383091
0.902155 0.340387 0.503374
0.903443 0.341675 0.625662
0.904747 0.342979 0.749566
0.906065 0.344297 0.874827
0.906717 0.344949 0.936702
0.909893 0.466252 0.068299
0.910904 0.467263 0.164348
0.912099 0.468459 0.277921
0.913338 0.469697 0.395540
0.914604 0.470963 0.515822
0.915891 0.472250 0.638110
0.917195 0.473554 0.762014
0.918514 0.474873 0.887275
0.919165 0.475524 0.949150
0.922571 0.599243 0.080978
0.923582 0.600254 0.177026
0.924778 0.601449 0.290599
0.926016 0.602687 0.408218
0.927282 0.603954 0.528500
0.928569 0.605241 0.650789
0.929874 0.606545 0.774693
0.931192 0.607864 0.899954
0.931843 0.608515 0.961829
0.935432 0.734139 0.093838
0.936443 0.735150 0.189886
0.937638 0.736346 0.303459
0.938876 0.737584 0.421078
0.940142 0.738850 0.541361
0.941429 0.740137 0.663649
0.942734 0.741441 0.787553
0.944052 0.742760 0.912814
0.944704 0.743411 0.974689
0.948442 0.870614 0.106848
0.949453 0.871625 0.202897
0.950649 0.872820 0.316470
0.951887 0.874058 0.434089
0.953153 0.875324 0.554371
0.954440 0.876612 0.676659
0.955744 0.877916 0.800564
0.957063 0.879234 0.925824
0.957714 0.879886 0.987699
0.959804 0.989789 0.118210
0.960815 0.990800 0.214258
0.962010 0.991995 0.327831
0.963248 0.993233 0.445450
0.964514 0.994499 0.565733
0.965801 0.995787 0.688021
0.967106 0.997091 0.811925
0.968424 0.998409 0.937186
0.969076 0.999061 0.999061
