skills/creativeops-producer/assets/grade/luts/moody_teal_v15.cube
TITLE "moody_teal_v15"
LUT_3D_SIZE 5
DOMAIN_MIN 0.0 0.0 0.0
DOMAIN_MAX 1.0 1.0 1.0
0.000000 0.000000 0.000000
0.002207 0.002207 0.209622
0.004711 0.004711 0.447523
0.007302 0.007302 0.693715
0.009272 0.009272 0.880851
0.017357 0.182071 0.017357
0.019564 0.184277 0.226979
0.022068 0.186782 0.464880
0.024660 0.189373 0.711073
0.026629 0.191343 0.898208
0.041936 0.439889 0.041936
0.044143 0.442096 0.251558
0.046647 0.444600 0.489459
0.049238 0.447191 0.735651
0.051208 0.449161 0.922787
0.067475 0.707776 0.067475
0.069681 0.709983 0.277096
0.072185 0.712487 0.514998
0.074777 0.715078 0.761190
0.076747 0.717048 0.948326
0.091847 0.963426 0.091847
0.094053 0.965632 0.301468
0.096557 0.968136 0.539370
0.099149 0.970728 0.785562
0.101119 0.972698 0.972698
0.126519 0.003843 0.003843
0.128725 0.006049 0.213464
0.131229 0.008554 0.451366
0.133821 0.011145 0.697558
0.135791 0.013115 0.884694
0.143876 0.185914 0.021200
0.146083 0.188120 0.230822
0.148587 0.190624 0.468723
0.151178 0.193216 0.714916
0.153148 0.195186 0.902051
0.168455 0.443732 0.045779
0.170661 0.445938 0.255401
0.173166 0.448443 0.493302
0.175757 0.451034 0.739494
0.177727 0.453004 0.926630
0.193994 0.711619 0.071318
0.196200 0.713825 0.280939
0.198704 0.716330 0.518840
0.201296 0.718921 0.765033
0.203266 0.720891 0.952169
0.218366 0.967269 0.095690
0.220572 0.969475 0.305311
0.223076 0.971979 0.543212
0.225668 0.974571 0.789405
0.227638 0.976541 0.976541
0.364468 0.011070 0.011070
0.366674 0.013277 0.220692
0.369178 0.015781 0.458593
0.371770 0.018372 0.704786
0.373740 0.020342 0.891921
0.381825 0.193141 0.028428
0.384032 0.195348 0.238049
0.386536 0.197852 0.475950
0.389127 0.200443 0.722143
0.391097 0.202413 0.909279
0.406404 0.450959 0.053006
0.408610 0.453166 0.262628
0.411114 0.455670 0.500529
0.413706 0.458261 0.746722
0.415676 0.460231 0.933857
0.431942 0.718846 0.078545
0.434149 0.721053 0.288167
0.436653 0.723557 0.526068
0.439244 0.726148 0.772260
0.441214 0.728118 0.959396
0.456314 0.974496 0.102917
0.458521 0.976702 0.312539
0.461025 0.979207 0.550440
0.463616 0.981798 0.796632
0.465586 0.983768 0.983768
0.613009 0.018619 0.018619
0.615215 0.020826 0.228241
0.617719 0.023330 0.466142
0.620311 0.025921 0.712335
0.622281 0.027891 0.899470
0.630366 0.200690 0.035977
0.632572 0.202897 0.245598
0.635077 0.205401 0.483500
0.637668 0.207992 0.729692
0.639638 0.209962 0.916828
0.654945 0.458508 0.060555
0.657151 0.460715 0.270177
0.659655 0.463219 0.508078
0.662247 0.465811 0.754271
0.664217 0.467780 0.941406
0.680483 0.726395 0.086094
0.682690 0.728602 0.295716
0.685194 0.731106 0.533617
0.687785 0.733698 0.779809
0.689755 0.735667 0.966945
0.704855 0.982045 0.110466
0.707062 0.984252 0.320088
0.709566 0.986756 0.557989
0.712157 0.989347 0.804181
0.714127 0.991317 0.991317
0.867957 0.026363 0.026363
0.870163 0.028570 0.235985
0.872667 0.031074 0.473886
0.875259 0.033665 0.720078
0.877229 0.035635 0.907214
0.885314 0.208434 0.043720
0.887521 0.210640 0.253342
0.890025 0.213145 0.491243
0.892616 0.215736 0.737436
0.894586 0.217706 0.924571
0.909893 0.466252 0.068299
0.912099 0.468459 0.277921
0.914604 0.470963 0.515822
0.917195 0.473554 0.762014
0.919165 0.475524 0.949150
0.935432 0.734139 0.093838
0.937638 0.736346 0.303459
0.940142 0.738850 0.541361
0.942734 0.741441 0.787553
0.944704 0.743411 0.974689
0.959804 0.989789 0.118210
0.962010 0.991995 0.327831
0.964514 0.994499 0.565733
0.967106 0.997091 0.811925
0.969076 0.999061 0.999061
