skills/creativeops-producer/assets/grade/luts/moody_teal_v11.cube
TITLE "moody_teal_v11"
LUT_3D_SIZE 5
DOMAIN_MIN 0.0 0.0 0.0
DOMAIN_MAX 1.0 1.0 1.0
0.000000 0.000000 0.000000
0.001781 0.001781 0.216278
0.003760 0.003760 0.456548
0.005794 0.005794 0.703508
0.007448 0.007448 0.904290
0.014867 0.195591 0.014867
0.016649 0.197372 0.231146
0.018627 0.199351 0.471415
0.020662 0.201385 0.718375
0.022315 0.203039 0.919157
0.034360 0.452040 0.034360
0.036142 0.453821 0.250639
0.038121 0.455800 0.490908
0.040155 0.457834 0.737868
0.041808 0.459488 0.938650
0.054445 0.716274 0.054445
0.056227 0.718055 0.270724
0.058205 0.720034 0.510993
0.060239 0.722068 0.757953
0.061893 0.723722 0.958735
0.073779 0.970621 0.073779
0.075560 0.972402 0.290057
0.077539 0.974381 0.530327
0.079573 0.976415 0.777287
0.081227 0.978069 0.978069
0.150860 0.003601 0.003601
0.152641 0.005382 0.219879
0.154620 0.007361 0.460149
0.156654 0.009395 0.707109
0.158308 0.011049 0.907891
0.165727 0.199192 0.018468
0.167509 0.200973 0.234747
0.169487 0.202952 0.475016
0.171522 0.204986 0.721976
0.173175 0.206640 0.922758
0.185220 0.455641 0.037961
0.187002 0.457422 0.254240
0.188981 0.459401 0.494509
0.191015 0.461435 0.741469
0.192668 0.463089 0.942251
0.205305 0.719875 0.058046
0.207087 0.721656 0.274325
0.209065 0.723635 0.514594
0.211100 0.725669 0.761554
0.212753 0.727323 0.962336
0.224639 0.974222 0.077380
0.226420 0.976003 0.293658
0.228399 0.977982 0.533928
0.230433 0.980016 0.780888
0.232087 0.981670 0.981670
0.392074 0.009359 0.009359
0.393855 0.011140 0.225637
0.395834 0.013119 0.465907
0.397868 0.015153 0.712867
0.399522 0.016807 0.913649
0.406941 0.204950 0.024226
0.408722 0.206731 0.240505
0.410701 0.208710 0.480774
0.412735 0.210744 0.727734
0.414389 0.212398 0.928516
0.426434 0.461398 0.043719
0.428215 0.463180 0.259998
0.430194 0.465159 0.500267
0.432228 0.467193 0.747227
0.433882 0.468846 0.948009
0.446519 0.725633 0.063804
0.448300 0.727414 0.280082
0.450279 0.729393 0.520352
0.452313 0.731427 0.767312
0.453967 0.733081 0.968094
0.465852 0.979980 0.083137
0.467634 0.981761 0.299416
0.469613 0.983740 0.539686
0.471647 0.985774 0.786645
0.473300 0.987428 0.987428
0.641348 0.015309 0.015309
0.643129 0.017090 0.231588
0.645108 0.019069 0.471857
0.647142 0.021103 0.718817
0.648796 0.022757 0.919599
0.656215 0.210900 0.030176
0.657996 0.212681 0.246455
0.659975 0.214660 0.486724
0.662009 0.216694 0.733684
0.663663 0.218348 0.934466
0.675708 0.467349 0.049669
0.677489 0.469130 0.265948
0.679468 0.471109 0.506218
0.681502 0.473143 0.753177
0.683156 0.474797 0.953960
0.695793 0.731583 0.069754
0.697574 0.733364 0.286033
0.699553 0.735343 0.526302
0.701587 0.737377 0.773262
0.703241 0.739031 0.974044
0.715126 0.985930 0.089088
0.716908 0.987711 0.305366
0.718887 0.989690 0.545636
0.720921 0.991724 0.792596
0.722574 0.993378 0.993378
0.895591 0.021378 0.021378
0.897373 0.023159 0.237656
0.899351 0.025138 0.477926
0.901386 0.027172 0.724886
0.903039 0.028826 0.925668
0.910458 0.216969 0.036245
0.912240 0.218750 0.252524
0.914219 0.220729 0.492793
0.916253 0.222763 0.739753
0.917906 0.224417 0.940535
0.929951 0.473418 0.055738
0.931733 0.475199 0.272017
0.933712 0.477178 0.512286
0.935746 0.479212 0.759246
0.937399 0.480866 0.960028
0.950036 0.737652 0.075823
0.951818 0.739433 0.292102
0.953797 0.741412 0.532371
0.955831 0.743446 0.779331
0.957484 0.745100 0.980113
0.969370 0.991999 0.095157
0.971151 0.993780 0.311435
0.973130 0.995759 0.551705
0.975164 0.997793 0.798665
0.976818 0.999447 0.999447
