skills/creativeops-producer/assets/grade/luts/moody_teal_v19.cube
TITLE "moody_teal_v19"
LUT_3D_SIZE 9
DOMAIN_MIN 0.0 0.0 0.0
DOMAIN_MAX 1.0 1.0 1.0
0.000000 0.000000 0.000000
0.001189 0.001189 0.091901
0.002630 0.002630 0.203233
0.004133 0.004133 0.319345
0.005676 0.005676 0.438617
0.007251 0.007251 0.560277
0.008850 0.008850 0.683866
0.010471 0.010471 0.809078
0.011096 0.011096 0.857412
0.005584 0.048578 0.005584
0.006773 0.049767 0.097485
0.008214 0.051208 0.208817
0.009717 0.052710 0.324929
0.011260 0.054254 0.444201
0.012834 0.055828 0.565861
0.014434 0.057428 0.689450
0.016054 0.059048 0.814662
0.016680 0.059674 0.862996
0.019406 0.168827 0.019406
0.020595 0.170016 0.111307
0.022036 0.171457 0.222639
0.023539 0.172959 0.338751
0.025082 0.174503 0.458023
0.026657 0.176077 0.579683
0.028256 0.177677 0.703272
0.029876 0.179297 0.828484
0.030502 0.179923 0.876818
0.034048 0.296208 0.034048
0.035237 0.297397 0.125949
0.036678 0.298838 0.237281
0.038181 0.300340 0.353393
0.039724 0.301884 0.472665
0.041299 0.303458 0.594325
0.042898 0.305058 0.717914
0.044518 0.306678 0.843126
0.045144 0.307304 0.891460
0.049168 0.427749 0.049168
0.050357 0.428938 0.141069
0.051798 0.430379 0.252402
0.053301 0.431882 0.368513
0.054844 0.433425 0.487785
0.056419 0.435000 0.609445
0.058018 0.436599 0.733034
0.059639 0.438220 0.858246
0.060264 0.438845 0.906580
0.064633 0.562287 0.064633
0.065822 0.563476 0.156534
0.067263 0.564917 0.267866
0.068765 0.566420 0.383978
0.070309 0.567963 0.503250
0.071883 0.569538 0.624910
0.073483 0.571137 0.748499
0.075103 0.572757 0.873711
0.075729 0.573383 0.922044
0.080368 0.699183 0.080368
0.081558 0.700372 0.172269
0.082998 0.701813 0.283602
0.084501 0.703316 0.399713
0.086045 0.704859 0.518985
0.087619 0.706434 0.640645
0.089218 0.708033 0.764235
0.090839 0.709653 0.889446
0.091464 0.710279 0.937780
0.096328 0.838030 0.096328
0.097518 0.839220 0.188229
0.098958 0.840660 0.299562
0.100461 0.842163 0.415673
0.102005 0.843707 0.534945
0.103579 0.845281 0.656605
0.105178 0.846880 0.780194
0.106799 0.848501 0.905406
0.107424 0.849126 0.953740
0.109915 0.956231 0.109915
0.111104 0.957420 0.201816
0.112545 0.958861 0.313148
0.114048 0.960363 0.429260
0.115591 0.961907 0.548532
0.117166 0.963481 0.670192
0.118765 0.965081 0.793781
0.120385 0.966701 0.918993
0.121011 0.967327 0.967327
0.000000 0.000000 0.000000
0.001189 0.001189 0.091901
0.002630 0.002630 0.203233
0.004133 0.004133 0.319345
0.005676 0.005676 0.438617
0.007251 0.007251 0.560277
0.008850 0.008850 0.683866
0.010471 0.010471 0.809078
0.011096 0.011096 0.857412
0.005584 0.048578 0.005584
0.006773 0.049767 0.097485
0.008214 0.051208 0.208817
0.009717 0.052710 0.324929
0.011260 0.054254 0.444201
0.012834 0.055828 0.565861
0.014434 0.057428 0.689450
0.016054 0.059048 0.814662
0.016680 0.059674 0.862996
0.019406 0.168827 0.019406
0.020595 0.170016 0.111307
0.022036 0.171457 0.222639
0.023539 0.172959 0.338751
0.025082 0.174503 0.458023
0.026657 0.176077 0.579683
0.028256 0.177677 0.703272
0.029876 0.179297 0.828484
0.030502 0.179923 0.876818
0.034048 0.296208 0.034048
0.035237 0.297397 0.125949
0.036678 0.298838 0.237281
0.038181 0.300340 0.353393
0.039724 0.301884 0.472665
0.041299 0.303458 0.594325
0.042898 0.305058 0.717914
0.044518 0.306678 0.843126
0.045144 0.307304 0.891460
0.049168 0.427749 0.049168
0.050357 0.428938 0.141069
0.051798 0.430379 0.252402
0.053301 0.431882 0.368513
0.054844 0.433425 0.487785
0.056419 0.435000 0.609445
0.058018 0.436599 0.733034
0.059639 0.438220 0.858246
0.060264 0.438845 0.906580
0.064633 0.562287 0.064633
0.065822 0.563476 0.156534
0.067263 0.564917 0.267866
0.068765 0.566420 0.383978
0.070309 0.567963 0.503250
0.071883 0.569538 0.624910
0.073483 0.571137 0.748499
0.075103 0.572757 0.873711
0.075729 0.573383 0.922044
0.080368 0.699183 0.080368
0.081558 0.700372 0.172269
0.082998 0.701813 0.283602
0.084501 0.703316 0.399713
0.086045 0.704859 0.518985
0.087619 0.706434 0.640645
0.089218 0.708033 0.764235
0.090839 0.709653 0.889446
0.091464 0.710279 0.937780
0.096328 0.838030 0.096328
0.097518 0.839220 0.188229
0.098958 0.840660 0.299562
0.100461 0.842163 0.415673
0.102005 0.843707 0.534945
0.103579 0.845281 0.656605
0.105178 0.846880 0.780194
0.106799 0.848501 0.905406
0.107424 0.849126 0.953740
0.109915 0.956231 0.109915
0.111104 0.957420 0.201816
0.112545 0.958861 0.313148
0.114048 0.960363 0.429260
0.115591 0.961907 0.548532
0.117166 0.963481 0.670192
0.118765 0.965081 0.793781
0.120385 0.966701 0.918993
0.121011 0.967327 0.967327
0.103321 0.003841 0.003841
0.104510 0.005030 0.095742
0.105951 0.006471 0.207074
0.107454 0.007973 0.323186
0.108997 0.009517 0.442458
0.110572 0.011091 0.564118
0.112171 0.012691 0.687707
0.113792 0.014311 0.812919
0.114417 0.014937 0.861252
0.108905 0.052418 0.009424
0.110094 0.053607 0.101326
0.111535 0.055048 0.212658
0.113038 0.056551 0.328769
0.114581 0.058094 0.448041
0.116156 0.059669 0.569702
0.117755 0.061268 0.693291
0.119375 0.062889 0.818502
0.120001 0.063514 0.866836
0.122727 0.172667 0.023247
0.123916 0.173857 0.115148
0.125357 0.175297 0.226480
0.126860 0.176800 0.342591
0.128403 0.178344 0.461864
0.129978 0.179918 0.583524
0.131577 0.181517 0.707113
0.133198 0.183138 0.832325
0.133823 0.183763 0.880658
0.137369 0.300048 0.037888
0.138558 0.301238 0.129790
0.139999 0.302678 0.241122
0.141502 0.304181 0.357233
0.143045 0.305725 0.476505
0.144620 0.307299 0.598166
0.146219 0.308898 0.721755
0.147840 0.310519 0.846967
0.148465 0.311144 0.895300
0.152489 0.431590 0.053009
0.153678 0.432779 0.144910
0.155119 0.434220 0.256242
0.156622 0.435722 0.372354
0.158165 0.437266 0.491626
0.159740 0.438840 0.613286
0.161339 0.440440 0.736875
0.162960 0.442060 0.862087
0.163585 0.442686 0.910420
0.167954 0.566128 0.068473
0.169143 0.567317 0.160374
0.170584 0.568758 0.271707
0.172087 0.570260 0.387818
0.173630 0.571804 0.507090
0.175204 0.573378 0.628750
0.176804 0.574978 0.752339
0.178424 0.576598 0.877551
0.179050 0.577224 0.925885
0.183689 0.703024 0.084209
0.184879 0.704213 0.176110
0.186320 0.705654 0.287442
0.187822 0.707156 0.403554
0.189366 0.708700 0.522826
0.190940 0.710274 0.644486
0.192540 0.711874 0.768075
0.194160 0.713494 0.893287
0.194785 0.714120 0.941621
0.199649 0.841871 0.100169
0.200839 0.843060 0.192070
0.202279 0.844501 0.303402
0.203782 0.846004 0.419514
0.205326 0.847547 0.538786
0.206900 0.849122 0.660446
0.208499 0.850721 0.784035
0.210120 0.852341 0.909247
0.210745 0.852967 0.957581
0.213236 0.960071 0.113756
0.214425 0.961261 0.205657
0.215866 0.962701 0.316989
0.217369 0.964204 0.433100
0.218912 0.965748 0.552373
0.220487 0.967322 0.674033
0.222086 0.968921 0.797622
0.223707 0.970542 0.922834
0.224332 0.971167 0.971167
0.217969 0.008102 0.008102
0.219159 0.009292 0.100003
0.220599 0.010732 0.211336
0.222102 0.012235 0.327447
0.223646 0.013778 0.446719
0.225220 0.015353 0.568379
0.226819 0.016952 0.691968
0.228440 0.018573 0.817180
0.229065 0.019198 0.865514
0.223553 0.056680 0.013686
0.224742 0.057869 0.105587
0.226183 0.059310 0.216919
0.227686 0.060812 0.333031
0.229229 0.062356 0.452303
0.230804 0.063930 0.573963
0.232403 0.065530 0.697552
0.234024 0.067150 0.822764
0.234649 0.067776 0.871098
0.237375 0.176929 0.027508
0.238565 0.178118 0.119409
0.240005 0.179559 0.230742
0.241508 0.181062 0.346853
0.243052 0.182605 0.466125
0.244626 0.184180 0.587785
0.246225 0.185779 0.711374
0.247846 0.187399 0.836586
0.248471 0.188025 0.884920
0.252017 0.304310 0.042150
0.253207 0.305499 0.134051
0.254647 0.306940 0.245384
0.256150 0.308443 0.361495
0.257693 0.309986 0.480767
0.259268 0.311561 0.602427
0.260867 0.313160 0.726016
0.262488 0.314780 0.851228
0.263113 0.315406 0.899562
0.267137 0.435851 0.057270
0.268327 0.437041 0.149171
0.269767 0.438481 0.260504
0.271270 0.439984 0.376615
0.272814 0.441528 0.495887
0.274388 0.443102 0.617547
0.275987 0.444701 0.741136
0.277608 0.446322 0.866348
0.278233 0.446947 0.914682
0.282602 0.570389 0.072735
0.283791 0.571578 0.164636
0.285232 0.573019 0.275968
0.286735 0.574522 0.392080
0.288278 0.576065 0.511352
0.289853 0.577640 0.633012
0.291452 0.579239 0.756601
0.293072 0.580860 0.881813
0.293698 0.581485 0.930147
0.298338 0.707285 0.088471
0.299527 0.708475 0.180372
0.300968 0.709915 0.291704
0.302470 0.711418 0.407815
0.304014 0.712961 0.527088
0.305588 0.714536 0.648748
0.307188 0.716135 0.772337
0.308808 0.717756 0.897549
0.309434 0.718381 0.945882
0.314298 0.846133 0.104431
0.315487 0.847322 0.196332
0.316928 0.848763 0.307664
0.318430 0.850265 0.423775
0.319974 0.851809 0.543048
0.321548 0.853383 0.664708
0.323148 0.854983 0.788297
0.324768 0.856603 0.913509
0.325394 0.857229 0.961842
0.327884 0.964333 0.118017
0.329074 0.965522 0.209918
0.330514 0.966963 0.321251
0.332017 0.968466 0.437362
0.333560 0.970009 0.556634
0.335135 0.971584 0.678294
0.336734 0.973183 0.801883
0.338355 0.974803 0.927095
0.338980 0.975429 0.975429
0.337313 0.012538 0.012538
0.338502 0.013728 0.104440
0.339943 0.015168 0.215772
0.341445 0.016671 0.331883
0.342989 0.018215 0.451155
0.344563 0.019789 0.572816
0.346163 0.021388 0.696405
0.347783 0.023009 0.821616
0.348409 0.023634 0.869950
0.342896 0.061116 0.018122
0.344086 0.062305 0.110023
0.345527 0.063746 0.221356
0.347029 0.065249 0.337467
0.348573 0.066792 0.456739
0.350147 0.068367 0.578399
0.351747 0.069966 0.701988
0.353367 0.071586 0.827200
0.353992 0.072212 0.875534
0.356719 0.181365 0.031944
0.357908 0.182554 0.123845
0.359349 0.183995 0.235178
0.360851 0.185498 0.351289
0.362395 0.187041 0.470561
0.363969 0.188616 0.592221
0.365569 0.190215 0.715811
0.367189 0.191836 0.841022
0.367815 0.192461 0.889356
0.371361 0.308746 0.046586
0.372550 0.309935 0.138487
0.373991 0.311376 0.249820
0.375493 0.312879 0.365931
0.377037 0.314422 0.485203
0.378611 0.315997 0.606863
0.380211 0.317596 0.730452
0.381831 0.319217 0.855664
0.382457 0.319842 0.903998
0.386481 0.440287 0.061706
0.387670 0.441477 0.153608
0.389111 0.442918 0.264940
0.390613 0.444420 0.381051
0.392157 0.445964 0.500323
0.393731 0.447538 0.621984
0.395331 0.449138 0.745573
0.396951 0.450758 0.870785
0.397577 0.451383 0.919118
0.401945 0.574825 0.077171
0.403135 0.576015 0.169072
0.404575 0.577455 0.280405
0.406078 0.578958 0.396516
0.407622 0.580502 0.515788
0.409196 0.582076 0.637448
0.410795 0.583675 0.761037
0.412416 0.585296 0.886249
0.413041 0.585921 0.934583
0.417681 0.711721 0.092907
0.418870 0.712911 0.184808
0.420311 0.714351 0.296140
0.421814 0.715854 0.412252
0.423357 0.717398 0.531524
0.424932 0.718972 0.653184
0.426531 0.720571 0.776773
0.428151 0.722192 0.901985
0.428777 0.722817 0.950318
0.433641 0.850569 0.108867
0.434830 0.851758 0.200768
0.436271 0.853199 0.312100
0.437774 0.854701 0.428212
0.439317 0.856245 0.547484
0.440892 0.857819 0.669144
0.442491 0.859419 0.792733
0.444111 0.861039 0.917945
0.444737 0.861665 0.966278
0.447228 0.968769 0.122453
0.448417 0.969958 0.214354
0.449858 0.971399 0.325687
0.451360 0.972902 0.441798
0.452904 0.974445 0.561070
0.454478 0.976020 0.682730
0.456078 0.977619 0.806320
0.457698 0.979240 0.931531
0.458324 0.979865 0.979865
0.459811 0.017092 0.017092
0.461000 0.018281 0.108993
0.462441 0.019722 0.220325
0.463944 0.021225 0.336437
0.465487 0.022768 0.455709
0.467062 0.024343 0.577369
0.468661 0.025942 0.700958
0.470281 0.027562 0.826170
0.470907 0.028188 0.874504
0.465395 0.065669 0.022676
0.466584 0.066859 0.114577
0.468025 0.068299 0.225909
0.469527 0.069802 0.342021
0.471071 0.071346 0.461293
0.472645 0.072920 0.582953
0.474245 0.074519 0.706542
0.475865 0.076140 0.831754
0.476491 0.076765 0.880087
0.479217 0.185918 0.036498
0.480406 0.187108 0.128399
0.481847 0.188549 0.239731
0.483350 0.190051 0.355843
0.484893 0.191595 0.475115
0.486468 0.193169 0.596775
0.488067 0.194769 0.720364
0.489687 0.196389 0.845576
0.490313 0.197014 0.893910
0.493859 0.313299 0.051140
0.495048 0.314489 0.143041
0.496489 0.315930 0.254373
0.497992 0.317432 0.370485
0.499535 0.318976 0.489757
0.501110 0.320550 0.611417
0.502709 0.322150 0.735006
0.504329 0.323770 0.860218
0.504955 0.324395 0.908552
0.508979 0.444841 0.066260
0.510168 0.446030 0.158161
0.511609 0.447471 0.269493
0.513112 0.448974 0.385605
0.514655 0.450517 0.504877
0.516230 0.452092 0.626537
0.517829 0.453691 0.750126
0.519450 0.455311 0.875338
0.520075 0.455937 0.923672
0.524444 0.579379 0.081724
0.525633 0.580568 0.173626
0.527074 0.582009 0.284958
0.528576 0.583512 0.401069
0.530120 0.585055 0.520341
0.531694 0.586629 0.642002
0.533294 0.588229 0.765591
0.534914 0.589849 0.890803
0.535540 0.590475 0.939136
0.540179 0.716275 0.097460
0.541369 0.717464 0.189361
0.542809 0.718905 0.300694
0.544312 0.720408 0.416805
0.545856 0.721951 0.536077
0.547430 0.723525 0.657737
0.549029 0.725125 0.781326
0.550650 0.726745 0.906538
0.551275 0.727371 0.954872
0.556139 0.855122 0.113420
0.557329 0.856311 0.205321
0.558769 0.857752 0.316654
0.560272 0.859255 0.432765
0.561815 0.860798 0.552037
0.563390 0.862373 0.673697
0.564989 0.863972 0.797286
0.566610 0.865593 0.922498
0.567235 0.866218 0.970832
0.569726 0.973323 0.127007
0.570915 0.974512 0.218908
0.572356 0.975953 0.330240
0.573859 0.977455 0.446352
0.575402 0.978999 0.565624
0.576977 0.980573 0.687284
0.578576 0.982173 0.810873
0.580196 0.983793 0.936085
0.580822 0.984419 0.984419
0.584710 0.021734 0.021734
0.585899 0.022924 0.113636
0.587340 0.024365 0.224968
0.588843 0.025867 0.341079
0.590386 0.027411 0.460351
0.591961 0.028985 0.582012
0.593560 0.030585 0.705601
0.595181 0.032205 0.830813
0.595806 0.032830 0.879146
0.590294 0.070312 0.027318
0.591483 0.071501 0.119219
0.592924 0.072942 0.230552
0.594427 0.074445 0.346663
0.595970 0.075988 0.465935
0.597545 0.077563 0.587595
0.599144 0.079162 0.711184
0.600764 0.080783 0.836396
0.601390 0.081408 0.884730
0.604116 0.190561 0.041140
0.605305 0.191750 0.133042
0.606746 0.193191 0.244374
0.608249 0.194694 0.360485
0.609792 0.196237 0.479757
0.611367 0.197812 0.601418
0.612966 0.199411 0.725007
0.614586 0.201032 0.850219
0.615212 0.201657 0.898552
0.618758 0.317942 0.055782
0.619947 0.319131 0.147684
0.621388 0.320572 0.259016
0.622891 0.322075 0.375127
0.624434 0.323618 0.494399
0.626009 0.325193 0.616060
0.627608 0.326792 0.739649
0.629228 0.328413 0.864860
0.629854 0.329038 0.913194
0.633878 0.449484 0.070903
0.635067 0.450673 0.162804
0.636508 0.452114 0.274136
0.638011 0.453616 0.390248
0.639554 0.455160 0.509520
0.641129 0.456734 0.631180
0.642728 0.458334 0.754769
0.644349 0.459954 0.879981
0.644974 0.460580 0.928314
0.649343 0.584021 0.086367
0.650532 0.585211 0.178268
0.651973 0.586652 0.289601
0.653475 0.588154 0.405712
0.655019 0.589698 0.524984
0.656593 0.591272 0.646644
0.658193 0.592872 0.770233
0.659813 0.594492 0.895445
0.660439 0.595117 0.943779
0.665078 0.720917 0.102103
0.666268 0.722107 0.194004
0.667708 0.723548 0.305336
0.669211 0.725050 0.421448
0.670755 0.726594 0.540720
0.672329 0.728168 0.662380
0.673928 0.729768 0.785969
0.675549 0.731388 0.911181
0.676174 0.732013 0.959515
0.681038 0.859765 0.118063
0.682228 0.860954 0.209964
0.683668 0.862395 0.321296
0.685171 0.863898 0.437408
0.686715 0.865441 0.556680
0.688289 0.867016 0.678340
0.689888 0.868615 0.801929
0.691509 0.870235 0.927141
0.692134 0.870861 0.975475
0.694625 0.977965 0.131649
0.695814 0.979155 0.223551
0.697255 0.980595 0.334883
0.698758 0.982098 0.450994
0.700301 0.983641 0.570266
0.701876 0.985216 0.691927
0.703475 0.986815 0.815516
0.705095 0.988436 0.940728
0.705721 0.989061 0.989061
0.711556 0.026450 0.026450
0.712746 0.027639 0.118351
0.714186 0.029080 0.229683
0.715689 0.030582 0.345794
0.717232 0.032126 0.465067
0.718807 0.033700 0.586727
0.720406 0.035300 0.710316
0.722027 0.036920 0.835528
0.722652 0.037546 0.883861
0.717140 0.075027 0.032033
0.718329 0.076216 0.123934
0.719770 0.077657 0.235267
0.721273 0.079160 0.351378
0.722816 0.080703 0.470650
0.724391 0.082278 0.592310
0.725990 0.083877 0.715900
0.727610 0.085498 0.841111
0.728236 0.086123 0.889445
0.730962 0.195276 0.045856
0.732151 0.196466 0.137757
0.733592 0.197906 0.249089
0.735095 0.199409 0.365200
0.736638 0.200952 0.484473
0.738213 0.202527 0.606133
0.739812 0.204126 0.729722
0.741433 0.205747 0.854934
0.742058 0.206372 0.903267
0.745604 0.322657 0.060497
0.746793 0.323847 0.152399
0.748234 0.325287 0.263731
0.749737 0.326790 0.379842
0.751280 0.328333 0.499114
0.752855 0.329908 0.620775
0.754454 0.331507 0.744364
0.756075 0.333128 0.869576
0.756700 0.333753 0.917909
0.760724 0.454199 0.075618
0.761914 0.455388 0.167519
0.763354 0.456829 0.278851
0.764857 0.458331 0.394963
0.766401 0.459875 0.514235
0.767975 0.461449 0.635895
0.769574 0.463049 0.759484
0.771195 0.464669 0.884696
0.771820 0.465295 0.933029
0.776189 0.588736 0.091082
0.777378 0.589926 0.182983
0.778819 0.591367 0.294316
0.780322 0.592869 0.410427
0.781865 0.594413 0.529699
0.783440 0.595987 0.651359
0.785039 0.597587 0.774948
0.786659 0.599207 0.900160
0.787285 0.599832 0.948494
0.791925 0.725633 0.106818
0.793114 0.726822 0.198719
0.794555 0.728263 0.310051
0.796057 0.729765 0.426163
0.797601 0.731309 0.545435
0.799175 0.732883 0.667095
0.800775 0.734483 0.790684
0.802395 0.736103 0.915896
0.803021 0.736729 0.964230
0.807884 0.864480 0.122778
0.809074 0.865669 0.214679
0.810515 0.867110 0.326011
0.812017 0.868613 0.442123
0.813561 0.870156 0.561395
0.815135 0.871731 0.683055
0.816735 0.873330 0.806644
0.818355 0.874950 0.931856
0.818980 0.875576 0.980190
0.821471 0.982680 0.136364
0.822660 0.983870 0.228266
0.824101 0.985310 0.339598
0.825604 0.986813 0.455709
0.827147 0.988357 0.574981
0.828722 0.989931 0.696642
0.830321 0.991530 0.820231
0.831942 0.993151 0.945443
0.832567 0.993776 0.993776
0.840045 0.031226 0.031226
0.841234 0.032415 0.123127
0.842675 0.033856 0.234459
0.844178 0.035358 0.350571
0.845721 0.036902 0.469843
0.847295 0.038476 0.591503
0.848895 0.040076 0.715092
0.850515 0.041696 0.840304
0.851141 0.042322 0.888637
0.845629 0.079803 0.036809
0.846818 0.080993 0.128711
0.848259 0.082433 0.240043
0.849761 0.083936 0.356154
0.851305 0.085479 0.475426
0.852879 0.087054 0.597087
0.854479 0.088653 0.720676
0.856099 0.090274 0.845888
0.856725 0.090899 0.894221
0.859451 0.200052 0.050632
0.860640 0.201242 0.142533
0.862081 0.202682 0.253865
0.863583 0.204185 0.369977
0.865127 0.205729 0.489249
0.866701 0.207303 0.610909
0.868301 0.208902 0.734498
0.869921 0.210523 0.859710
0.870547 0.211148 0.908043
0.874093 0.327433 0.065274
0.875282 0.328623 0.157175
0.876723 0.330063 0.268507
0.878225 0.331566 0.384618
0.879769 0.333110 0.503891
0.881343 0.334684 0.625551
0.882943 0.336283 0.749140
0.884563 0.337904 0.874352
0.885189 0.338529 0.922685
0.889213 0.458975 0.080394
0.890402 0.460164 0.172295
0.891843 0.461605 0.283627
0.893346 0.463107 0.399739
0.894889 0.464651 0.519011
0.896464 0.466225 0.640671
0.898063 0.467825 0.764260
0.899683 0.469445 0.889472
0.900309 0.470071 0.937806
0.904677 0.593513 0.095858
0.905867 0.594702 0.187759
0.907308 0.596143 0.299092
0.908810 0.597645 0.415203
0.910354 0.599189 0.534475
0.911928 0.600763 0.656135
0.913528 0.602363 0.779725
0.915148 0.603983 0.904936
0.915773 0.604609 0.953270
0.920413 0.730409 0.111594
0.921602 0.731598 0.203495
0.923043 0.733039 0.314827
0.924546 0.734541 0.430939
0.926089 0.736085 0.550211
0.927664 0.737659 0.671871
0.929263 0.739259 0.795460
0.930884 0.740879 0.920672
0.931509 0.741505 0.969006
0.936373 0.869256 0.127554
0.937562 0.870445 0.219455
0.939003 0.871886 0.330787
0.940506 0.873389 0.446899
0.942049 0.874932 0.566171
0.943624 0.876507 0.687831
0.945223 0.878106 0.811420
0.946844 0.879726 0.936632
0.947469 0.880352 0.984966
0.949960 0.987456 0.141141
0.951149 0.988646 0.233042
0.952590 0.990086 0.344374
0.954092 0.991589 0.460486
0.955636 0.993133 0.579758
0.957210 0.994707 0.701418
0.958810 0.996306 0.825007
0.960430 0.997927 0.950219
0.961056 0.998552 0.998552
