skills/creativeops-producer/assets/grade/luts/moody_teal_v19.cube
TITLE "moody_teal_v19"
LUT_3D_SIZE 17
DOMAIN_MIN 0.0 0.0 0.0
DOMAIN_MAX 1.0 1.0 1.0
0.000000 0.000000 0.000000
0.000510 0.000510 0.039375
0.001189 0.001189 0.091901
0.001900 0.001900 0.146797
0.002630 0.002630 0.203233
0.003375 0.003375 0.260825
0.004133 0.004133 0.319345
0.004900 0.004900 0.378645
0.005676 0.005676 0.438617
0.006460 0.006460 0.499182
0.007251 0.007251 0.560277
0.008048 0.008048 0.621852
0.008850 0.008850 0.683866
0.009658 0.009658 0.746285
0.010471 0.010471 0.809078
0.011096 0.011096 0.857412
0.011096 0.011096 0.857412
0.000000 0.000000 0.000000
0.000510 0.000510 0.039375
0.001189 0.001189 0.091901
0.001900 0.001900 0.146797
0.002630 0.002630 0.203233
0.003375 0.003375 0.260825
0.004133 0.004133 0.319345
0.004900 0.004900 0.378645
0.005676 0.005676 0.438617
0.006460 0.006460 0.499182
0.007251 0.007251 0.560277
0.008048 0.008048 0.621852
0.008850 0.008850 0.683866
0.009658 0.009658 0.746285
0.010471 0.010471 0.809078
0.011096 0.011096 0.857412
0.011096 0.011096 0.857412
0.005584 0.048578 0.005584
0.006093 0.049087 0.044959
0.006773 0.049767 0.097485
0.007484 0.050477 0.152381
0.008214 0.051208 0.208817
0.008959 0.051953 0.266409
0.009717 0.052710 0.324929
0.010484 0.053478 0.384228
0.011260 0.054254 0.444201
0.012044 0.055038 0.504766
0.012834 0.055828 0.565861
0.013631 0.056625 0.627436
0.014434 0.057428 0.689450
0.015242 0.058235 0.751868
0.016054 0.059048 0.814662
0.016680 0.059674 0.862996
0.016680 0.059674 0.862996
0.012350 0.107439 0.012350
0.012859 0.107948 0.051725
0.013539 0.108628 0.104251
0.014249 0.109338 0.159147
0.014980 0.110069 0.215583
0.015725 0.110814 0.273174
0.016482 0.111571 0.331695
0.017250 0.112339 0.390994
0.018026 0.113115 0.450967
0.018810 0.113899 0.511532
0.019600 0.114689 0.572627
0.020397 0.115486 0.634202
0.021200 0.116289 0.696216
0.022008 0.117096 0.758634
0.022820 0.117909 0.821428
0.023446 0.118535 0.869761
0.023446 0.118535 0.869761
0.019406 0.168827 0.019406
0.019916 0.169336 0.058781
0.020595 0.170016 0.111307
0.021306 0.170726 0.166203
0.022036 0.171457 0.222639
0.022781 0.172202 0.280231
0.023539 0.172959 0.338751
0.024306 0.173727 0.398051
0.025082 0.174503 0.458023
0.025866 0.175287 0.518588
0.026657 0.176077 0.579683
0.027454 0.176874 0.641258
0.028256 0.177677 0.703272
0.029064 0.178485 0.765691
0.029876 0.179297 0.828484
0.030502 0.179923 0.876818
0.030502 0.179923 0.876818
0.026654 0.231886 0.026654
0.027164 0.232395 0.066029
0.027844 0.233075 0.118556
0.028554 0.233786 0.173452
0.029284 0.234516 0.229888
0.030030 0.235261 0.287479
0.030787 0.236019 0.345999
0.031555 0.236786 0.405299
0.032331 0.237562 0.465271
0.033114 0.238346 0.525836
0.033905 0.239137 0.586931
0.034702 0.239933 0.648507
0.035504 0.240736 0.710521
0.036312 0.241544 0.772939
0.037125 0.242356 0.835732
0.037750 0.242982 0.884066
0.037750 0.242982 0.884066
0.034048 0.296208 0.034048
0.034557 0.296717 0.073423
0.035237 0.297397 0.125949
0.035948 0.298107 0.180845
0.036678 0.298838 0.237281
0.037423 0.299583 0.294873
0.038181 0.300340 0.353393
0.038948 0.301108 0.412693
0.039724 0.301884 0.472665
0.040508 0.302668 0.533230
0.041299 0.303458 0.594325
0.042095 0.304255 0.655900
0.042898 0.305058 0.717914
0.043706 0.305866 0.780332
0.044518 0.306678 0.843126
0.045144 0.307304 0.891460
0.045144 0.307304 0.891460
0.041559 0.361549 0.041559
0.042068 0.362059 0.080934
0.042748 0.362739 0.133460
0.043458 0.363449 0.188356
0.044189 0.364179 0.244792
0.044934 0.364925 0.302383
0.045691 0.365682 0.360904
0.046459 0.366449 0.420203
0.047235 0.367226 0.480176
0.048019 0.368009 0.540741
0.048809 0.368800 0.601836
0.049606 0.369597 0.663411
0.050409 0.370399 0.725425
0.051217 0.371207 0.787843
0.052029 0.372020 0.850637
0.052655 0.372645 0.898970
0.052655 0.372645 0.898970
0.049168 0.427749 0.049168
0.049678 0.428259 0.088543
0.050357 0.428938 0.141069
0.051068 0.429649 0.195965
0.051798 0.430379 0.252402
0.052543 0.431124 0.309993
0.053301 0.431882 0.368513
0.054068 0.432649 0.427813
0.054844 0.433425 0.487785
0.055628 0.434209 0.548350
0.056419 0.435000 0.609445
0.057216 0.435797 0.671020
0.058018 0.436599 0.733034
0.058826 0.437407 0.795453
0.059639 0.438220 0.858246
0.060264 0.438845 0.906580
0.060264 0.438845 0.906580
0.056863 0.494691 0.056863
0.057372 0.495200 0.096238
0.058052 0.495880 0.148764
0.058762 0.496590 0.203660
0.059493 0.497321 0.260096
0.060238 0.498066 0.317687
0.060995 0.498823 0.376208
0.061763 0.499591 0.435507
0.062539 0.500367 0.495480
0.063323 0.501151 0.556045
0.064113 0.501941 0.617140
0.064910 0.502738 0.678715
0.065713 0.503541 0.740729
0.066521 0.504349 0.803147
0.067333 0.505161 0.865941
0.067959 0.505787 0.914275
0.067959 0.505787 0.914275
0.064633 0.562287 0.064633
0.065142 0.562797 0.104008
0.065822 0.563476 0.156534
0.066532 0.564187 0.211430
0.067263 0.564917 0.267866
0.068008 0.565662 0.325457
0.068765 0.566420 0.383978
0.069533 0.567187 0.443277
0.070309 0.567963 0.503250
0.071093 0.568747 0.563815
0.071883 0.569538 0.624910
0.072680 0.570335 0.686485
0.073483 0.571137 0.748499
0.074291 0.571945 0.810917
0.075103 0.572757 0.873711
0.075729 0.573383 0.922044
0.075729 0.573383 0.922044
0.072470 0.630469 0.072470
0.072980 0.630979 0.111845
0.073659 0.631659 0.164371
0.074370 0.632369 0.219267
0.075100 0.633099 0.275703
0.075845 0.633845 0.333295
0.076603 0.634602 0.391815
0.077370 0.635369 0.451115
0.078146 0.636146 0.511087
0.078930 0.636929 0.571652
0.079721 0.637720 0.632747
0.080518 0.638517 0.694322
0.081320 0.639319 0.756336
0.082128 0.640127 0.818755
0.082940 0.640940 0.881548
0.083566 0.641565 0.929882
0.083566 0.641565 0.929882
0.080368 0.699183 0.080368
0.080878 0.699693 0.119743
0.081558 0.700372 0.172269
0.082268 0.701083 0.227166
0.082998 0.701813 0.283602
0.083744 0.702558 0.341193
0.084501 0.703316 0.399713
0.085268 0.704083 0.459013
0.086045 0.704859 0.518985
0.086828 0.705643 0.579550
0.087619 0.706434 0.640645
0.088416 0.707231 0.702221
0.089218 0.708033 0.764235
0.090026 0.708841 0.826653
0.090839 0.709653 0.889446
0.091464 0.710279 0.937780
0.091464 0.710279 0.937780
0.088323 0.768383 0.088323
0.088832 0.768892 0.127697
0.089512 0.769572 0.180224
0.090222 0.770282 0.235120
0.090953 0.771013 0.291556
0.091698 0.771758 0.349147
0.092455 0.772515 0.407667
0.093223 0.773283 0.466967
0.093999 0.774059 0.526940
0.094783 0.774843 0.587505
0.095573 0.775633 0.648600
0.096370 0.776430 0.710175
0.097173 0.777233 0.772189
0.097980 0.778040 0.834607
0.098793 0.778853 0.897401
0.099419 0.779479 0.945734
0.099419 0.779479 0.945734
0.096328 0.838030 0.096328
0.096838 0.838540 0.135703
0.097518 0.839220 0.188229
0.098228 0.839930 0.243126
0.098958 0.840660 0.299562
0.099704 0.841406 0.357153
0.100461 0.842163 0.415673
0.101228 0.842930 0.474973
0.102005 0.843707 0.534945
0.102788 0.844490 0.595510
0.103579 0.845281 0.656605
0.104376 0.846078 0.718181
0.105178 0.846880 0.780194
0.105986 0.847688 0.842613
0.106799 0.848501 0.905406
0.107424 0.849126 0.953740
0.107424 0.849126 0.953740
0.104382 0.908094 0.104382
0.104891 0.908604 0.143757
0.105571 0.909283 0.196283
0.106282 0.909994 0.251179
0.107012 0.910724 0.307615
0.107757 0.911469 0.365207
0.108515 0.912227 0.423727
0.109282 0.912994 0.483026
0.110058 0.913770 0.542999
0.110842 0.914554 0.603564
0.111633 0.915345 0.664659
0.112429 0.916142 0.726234
0.113232 0.916944 0.788248
0.114040 0.917752 0.850666
0.114852 0.918565 0.913460
0.115478 0.919190 0.961794
0.115478 0.919190 0.961794
0.109915 0.956231 0.109915
0.110425 0.956740 0.149290
0.111104 0.957420 0.201816
0.111815 0.958130 0.256712
0.112545 0.958861 0.313148
0.113290 0.959606 0.370740
0.114048 0.960363 0.429260
0.114815 0.961131 0.488560
0.115591 0.961907 0.548532
0.116375 0.962691 0.609097
0.117166 0.963481 0.670192
0.117963 0.964278 0.731767
0.118765 0.965081 0.793781
0.119573 0.965889 0.856199
0.120385 0.966701 0.918993
0.121011 0.967327 0.967327
0.121011 0.967327 0.967327
0.000000 0.000000 0.000000
0.000510 0.000510 0.039375
0.001189 0.001189 0.091901
0.001900 0.001900 0.146797
0.002630 0.002630 0.203233
0.003375 0.003375 0.260825
0.004133 0.004133 0.319345
0.004900 0.004900 0.378645
0.005676 0.005676 0.438617
0.006460 0.006460 0.499182
0.007251 0.007251 0.560277
0.008048 0.008048 0.621852
0.008850 0.008850 0.683866
0.009658 0.009658 0.746285
0.010471 0.010471 0.809078
0.011096 0.011096 0.857412
0.011096 0.011096 0.857412
0.000000 0.000000 0.000000
0.000510 0.000510 0.039375
0.001189 0.001189 0.091901
0.001900 0.001900 0.146797
0.002630 0.002630 0.203233
0.003375 0.003375 0.260825
0.004133 0.004133 0.319345
0.004900 0.004900 0.378645
0.005676 0.005676 0.438617
0.006460 0.006460 0.499182
0.007251 0.007251 0.560277
0.008048 0.008048 0.621852
0.008850 0.008850 0.683866
0.009658 0.009658 0.746285
0.010471 0.010471 0.809078
0.011096 0.011096 0.857412
0.011096 0.011096 0.857412
0.005584 0.048578 0.005584
0.006093 0.049087 0.044959
0.006773 0.049767 0.097485
0.007484 0.050477 0.152381
0.008214 0.051208 0.208817
0.008959 0.051953 0.266409
0.009717 0.052710 0.324929
0.010484 0.053478 0.384228
0.011260 0.054254 0.444201
0.012044 0.055038 0.504766
0.012834 0.055828 0.565861
0.013631 0.056625 0.627436
0.014434 0.057428 0.689450
0.015242 0.058235 0.751868
0.016054 0.059048 0.814662
0.016680 0.059674 0.862996
0.016680 0.059674 0.862996
0.012350 0.107439 0.012350
0.012859 0.107948 0.051725
0.013539 0.108628 0.104251
0.014249 0.109338 0.159147
0.014980 0.110069 0.215583
0.015725 0.110814 0.273174
0.016482 0.111571 0.331695
0.017250 0.112339 0.390994
0.018026 0.113115 0.450967
0.018810 0.113899 0.511532
0.019600 0.114689 0.572627
0.020397 0.115486 0.634202
0.021200 0.116289 0.696216
0.022008 0.117096 0.758634
0.022820 0.117909 0.821428
0.023446 0.118535 0.869761
0.023446 0.118535 0.869761
0.019406 0.168827 0.019406
0.019916 0.169336 0.058781
0.020595 0.170016 0.111307
0.021306 0.170726 0.166203
0.022036 0.171457 0.222639
0.022781 0.172202 0.280231
0.023539 0.172959 0.338751
0.024306 0.173727 0.398051
0.025082 0.174503 0.458023
0.025866 0.175287 0.518588
0.026657 0.176077 0.579683
0.027454 0.176874 0.641258
0.028256 0.177677 0.703272
0.029064 0.178485 0.765691
0.029876 0.179297 0.828484
0.030502 0.179923 0.876818
0.030502 0.179923 0.876818
0.026654 0.231886 0.026654
0.027164 0.232395 0.066029
0.027844 0.233075 0.118556
0.028554 0.233786 0.173452
0.029284 0.234516 0.229888
0.030030 0.235261 0.287479
0.030787 0.236019 0.345999
0.031555 0.236786 0.405299
0.032331 0.237562 0.465271
0.033114 0.238346 0.525836
0.033905 0.239137 0.586931
0.034702 0.239933 0.648507
0.035504 0.240736 0.710521
0.036312 0.241544 0.772939
0.037125 0.242356 0.835732
0.037750 0.242982 0.884066
0.037750 0.242982 0.884066
0.034048 0.296208 0.034048
0.034557 0.296717 0.073423
0.035237 0.297397 0.125949
0.035948 0.298107 0.180845
0.036678 0.298838 0.237281
0.037423 0.299583 0.294873
0.038181 0.300340 0.353393
0.038948 0.301108 0.412693
0.039724 0.301884 0.472665
0.040508 0.302668 0.533230
0.041299 0.303458 0.594325
0.042095 0.304255 0.655900
0.042898 0.305058 0.717914
0.043706 0.305866 0.780332
0.044518 0.306678 0.843126
0.045144 0.307304 0.891460
0.045144 0.307304 0.891460
0.041559 0.361549 0.041559
0.042068 0.362059 0.080934
0.042748 0.362739 0.133460
0.043458 0.363449 0.188356
0.044189 0.364179 0.244792
0.044934 0.364925 0.302383
0.045691 0.365682 0.360904
0.046459 0.366449 0.420203
0.047235 0.367226 0.480176
0.048019 0.368009 0.540741
0.048809 0.368800 0.601836
0.049606 0.369597 0.663411
0.050409 0.370399 0.725425
0.051217 0.371207 0.787843
0.052029 0.372020 0.850637
0.052655 0.372645 0.898970
0.052655 0.372645 0.898970
0.049168 0.427749 0.049168
0.049678 0.428259 0.088543
0.050357 0.428938 0.141069
0.051068 0.429649 0.195965
0.051798 0.430379 0.252402
0.052543 0.431124 0.309993
0.053301 0.431882 0.368513
0.054068 0.432649 0.427813
0.054844 0.433425 0.487785
0.055628 0.434209 0.548350
0.056419 0.435000 0.609445
0.057216 0.435797 0.671020
0.058018 0.436599 0.733034
0.058826 0.437407 0.795453
0.059639 0.438220 0.858246
0.060264 0.438845 0.906580
0.060264 0.438845 0.906580
0.056863 0.494691 0.056863
0.057372 0.495200 0.096238
0.058052 0.495880 0.148764
0.058762 0.496590 0.203660
0.059493 0.497321 0.260096
0.060238 0.498066 0.317687
0.060995 0.498823 0.376208
0.061763 0.499591 0.435507
0.062539 0.500367 0.495480
0.063323 0.501151 0.556045
0.064113 0.501941 0.617140
0.064910 0.502738 0.678715
0.065713 0.503541 0.740729
0.066521 0.504349 0.803147
0.067333 0.505161 0.865941
0.067959 0.505787 0.914275
0.067959 0.505787 0.914275
0.064633 0.562287 0.064633
0.065142 0.562797 0.104008
0.065822 0.563476 0.156534
0.066532 0.564187 0.211430
0.067263 0.564917 0.267866
0.068008 0.565662 0.325457
0.068765 0.566420 0.383978
0.069533 0.567187 0.443277
0.070309 0.567963 0.503250
0.071093 0.568747 0.563815
0.071883 0.569538 0.624910
0.072680 0.570335 0.686485
0.073483 0.571137 0.748499
0.074291 0.571945 0.810917
0.075103 0.572757 0.873711
0.075729 0.573383 0.922044
0.075729 0.573383 0.922044
0.072470 0.630469 0.072470
0.072980 0.630979 0.111845
0.073659 0.631659 0.164371
0.074370 0.632369 0.219267
0.075100 0.633099 0.275703
0.075845 0.633845 0.333295
0.076603 0.634602 0.391815
0.077370 0.635369 0.451115
0.078146 0.636146 0.511087
0.078930 0.636929 0.571652
0.079721 0.637720 0.632747
0.080518 0.638517 0.694322
0.081320 0.639319 0.756336
0.082128 0.640127 0.818755
0.082940 0.640940 0.881548
0.083566 0.641565 0.929882
0.083566 0.641565 0.929882
0.080368 0.699183 0.080368
0.080878 0.699693 0.119743
0.081558 0.700372 0.172269
0.082268 0.701083 0.227166
0.082998 0.701813 0.283602
0.083744 0.702558 0.341193
0.084501 0.703316 0.399713
0.085268 0.704083 0.459013
0.086045 0.704859 0.518985
0.086828 0.705643 0.579550
0.087619 0.706434 0.640645
0.088416 0.707231 0.702221
0.089218 0.708033 0.764235
0.090026 0.708841 0.826653
0.090839 0.709653 0.889446
0.091464 0.710279 0.937780
0.091464 0.710279 0.937780
0.088323 0.768383 0.088323
0.088832 0.768892 0.127697
0.089512 0.769572 0.180224
0.090222 0.770282 0.235120
0.090953 0.771013 0.291556
0.091698 0.771758 0.349147
0.092455 0.772515 0.407667
0.093223 0.773283 0.466967
0.093999 0.774059 0.526940
0.094783 0.774843 0.587505
0.095573 0.775633 0.648600
0.096370 0.776430 0.710175
0.097173 0.777233 0.772189
0.097980 0.778040 0.834607
0.098793 0.778853 0.897401
0.099419 0.779479 0.945734
0.099419 0.779479 0.945734
0.096328 0.838030 0.096328
0.096838 0.838540 0.135703
0.097518 0.839220 0.188229
0.098228 0.839930 0.243126
0.098958 0.840660 0.299562
0.099704 0.841406 0.357153
0.100461 0.842163 0.415673
0.101228 0.842930 0.474973
0.102005 0.843707 0.534945
0.102788 0.844490 0.595510
0.103579 0.845281 0.656605
0.104376 0.846078 0.718181
0.105178 0.846880 0.780194
0.105986 0.847688 0.842613
0.106799 0.848501 0.905406
0.107424 0.849126 0.953740
0.107424 0.849126 0.953740
0.104382 0.908094 0.104382
0.104891 0.908604 0.143757
0.105571 0.909283 0.196283
0.106282 0.909994 0.251179
0.107012 0.910724 0.307615
0.107757 0.911469 0.365207
0.108515 0.912227 0.423727
0.109282 0.912994 0.483026
0.110058 0.913770 0.542999
0.110842 0.914554 0.603564
0.111633 0.915345 0.664659
0.112429 0.916142 0.726234
0.113232 0.916944 0.788248
0.114040 0.917752 0.850666
0.114852 0.918565 0.913460
0.115478 0.919190 0.961794
0.115478 0.919190 0.961794
0.109915 0.956231 0.109915
0.110425 0.956740 0.149290
0.111104 0.957420 0.201816
0.111815 0.958130 0.256712
0.112545 0.958861 0.313148
0.113290 0.959606 0.370740
0.114048 0.960363 0.429260
0.114815 0.961131 0.488560
0.115591 0.961907 0.548532
0.116375 0.962691 0.609097
0.117166 0.963481 0.670192
0.117963 0.964278 0.731767
0.118765 0.965081 0.793781
0.119573 0.965889 0.856199
0.120385 0.966701 0.918993
0.121011 0.967327 0.967327
0.121011 0.967327 0.967327
0.000000 0.000000 0.000000
0.000510 0.000510 0.039375
0.001189 0.001189 0.091901
0.001900 0.001900 0.146797
0.002630 0.002630 0.203233
0.003375 0.003375 0.260825
0.004133 0.004133 0.319345
0.004900 0.004900 0.378645
0.005676 0.005676 0.438617
0.006460 0.006460 0.499182
0.007251 0.007251 0.560277
0.008048 0.008048 0.621852
0.008850 0.008850 0.683866
0.009658 0.009658 0.746285
0.010471 0.010471 0.809078
0.011096 0.011096 0.857412
0.011096 0.011096 0.857412
0.000000 0.000000 0.000000
0.000510 0.000510 0.039375
0.001189 0.001189 0.091901
0.001900 0.001900 0.146797
0.002630 0.002630 0.203233
0.003375 0.003375 0.260825
0.004133 0.004133 0.319345
0.004900 0.004900 0.378645
0.005676 0.005676 0.438617
0.006460 0.006460 0.499182
0.007251 0.007251 0.560277
0.008048 0.008048 0.621852
0.008850 0.008850 0.683866
0.009658 0.009658 0.746285
0.010471 0.010471 0.809078
0.011096 0.011096 0.857412
0.011096 0.011096 0.857412
0.005584 0.048578 0.005584
0.006093 0.049087 0.044959
0.006773 0.049767 0.097485
0.007484 0.050477 0.152381
0.008214 0.051208 0.208817
0.008959 0.051953 0.266409
0.009717 0.052710 0.324929
0.010484 0.053478 0.384228
0.011260 0.054254 0.444201
0.012044 0.055038 0.504766
0.012834 0.055828 0.565861
0.013631 0.056625 0.627436
0.014434 0.057428 0.689450
0.015242 0.058235 0.751868
0.016054 0.059048 0.814662
0.016680 0.059674 0.862996
0.016680 0.059674 0.862996
0.012350 0.107439 0.012350
0.012859 0.107948 0.051725
0.013539 0.108628 0.104251
0.014249 0.109338 0.159147
0.014980 0.110069 0.215583
0.015725 0.110814 0.273174
0.016482 0.111571 0.331695
0.017250 0.112339 0.390994
0.018026 0.113115 0.450967
0.018810 0.113899 0.511532
0.019600 0.114689 0.572627
0.020397 0.115486 0.634202
0.021200 0.116289 0.696216
0.022008 0.117096 0.758634
0.022820 0.117909 0.821428
0.023446 0.118535 0.869761
0.023446 0.118535 0.869761
0.019406 0.168827 0.019406
0.019916 0.169336 0.058781
0.020595 0.170016 0.111307
0.021306 0.170726 0.166203
0.022036 0.171457 0.222639
0.022781 0.172202 0.280231
0.023539 0.172959 0.338751
0.024306 0.173727 0.398051
0.025082 0.174503 0.458023
0.025866 0.175287 0.518588
0.026657 0.176077 0.579683
0.027454 0.176874 0.641258
0.028256 0.177677 0.703272
0.029064 0.178485 0.765691
0.029876 0.179297 0.828484
0.030502 0.179923 0.876818
0.030502 0.179923 0.876818
0.026654 0.231886 0.026654
0.027164 0.232395 0.066029
0.027844 0.233075 0.118556
0.028554 0.233786 0.173452
0.029284 0.234516 0.229888
0.030030 0.235261 0.287479
0.030787 0.236019 0.345999
0.031555 0.236786 0.405299
0.032331 0.237562 0.465271
0.033114 0.238346 0.525836
0.033905 0.239137 0.586931
0.034702 0.239933 0.648507
0.035504 0.240736 0.710521
0.036312 0.241544 0.772939
0.037125 0.242356 0.835732
0.037750 0.242982 0.884066
0.037750 0.242982 0.884066
0.034048 0.296208 0.034048
0.034557 0.296717 0.073423
0.035237 0.297397 0.125949
0.035948 0.298107 0.180845
0.036678 0.298838 0.237281
0.037423 0.299583 0.294873
0.038181 0.300340 0.353393
0.038948 0.301108 0.412693
0.039724 0.301884 0.472665
0.040508 0.302668 0.533230
0.041299 0.303458 0.594325
0.042095 0.304255 0.655900
0.042898 0.305058 0.717914
0.043706 0.305866 0.780332
0.044518 0.306678 0.843126
0.045144 0.307304 0.891460
0.045144 0.307304 0.891460
0.041559 0.361549 0.041559
0.042068 0.362059 0.080934
0.042748 0.362739 0.133460
0.043458 0.363449 0.188356
0.044189 0.364179 0.244792
0.044934 0.364925 0.302383
0.045691 0.365682 0.360904
0.046459 0.366449 0.420203
0.047235 0.367226 0.480176
0.048019 0.368009 0.540741
0.048809 0.368800 0.601836
0.049606 0.369597 0.663411
0.050409 0.370399 0.725425
0.051217 0.371207 0.787843
0.052029 0.372020 0.850637
0.052655 0.372645 0.898970
0.052655 0.372645 0.898970
0.049168 0.427749 0.049168
0.049678 0.428259 0.088543
0.050357 0.428938 0.141069
0.051068 0.429649 0.195965
0.051798 0.430379 0.252402
0.052543 0.431124 0.309993
0.053301 0.431882 0.368513
0.054068 0.432649 0.427813
0.054844 0.433425 0.487785
0.055628 0.434209 0.548350
0.056419 0.435000 0.609445
0.057216 0.435797 0.671020
0.058018 0.436599 0.733034
0.058826 0.437407 0.795453
0.059639 0.438220 0.858246
0.060264 0.438845 0.906580
0.060264 0.438845 0.906580
0.056863 0.494691 0.056863
0.057372 0.495200 0.096238
0.058052 0.495880 0.148764
0.058762 0.496590 0.203660
0.059493 0.497321 0.260096
0.060238 0.498066 0.317687
0.060995 0.498823 0.376208
0.061763 0.499591 0.435507
0.062539 0.500367 0.495480
0.063323 0.501151 0.556045
0.064113 0.501941 0.617140
0.064910 0.502738 0.678715
0.065713 0.503541 0.740729
0.066521 0.504349 0.803147
0.067333 0.505161 0.865941
0.067959 0.505787 0.914275
0.067959 0.505787 0.914275
0.064633 0.562287 0.064633
0.065142 0.562797 0.104008
0.065822 0.563476 0.156534
0.066532 0.564187 0.211430
0.067263 0.564917 0.267866
0.068008 0.565662 0.325457
0.068765 0.566420 0.383978
0.069533 0.567187 0.443277
0.070309 0.567963 0.503250
0.071093 0.568747 0.563815
0.071883 0.569538 0.624910
0.072680 0.570335 0.686485
0.073483 0.571137 0.748499
0.074291 0.571945 0.810917
0.075103 0.572757 0.873711
0.075729 0.573383 0.922044
0.075729 0.573383 0.922044
0.072470 0.630469 0.072470
0.072980 0.630979 0.111845
0.073659 0.631659 0.164371
0.074370 0.632369 0.219267
0.075100 0.633099 0.275703
0.075845 0.633845 0.333295
0.076603 0.634602 0.391815
0.077370 0.635369 0.451115
0.078146 0.636146 0.511087
0.078930 0.636929 0.571652
0.079721 0.637720 0.632747
0.080518 0.638517 0.694322
0.081320 0.639319 0.756336
0.082128 0.640127 0.818755
0.082940 0.640940 0.881548
0.083566 0.641565 0.929882
0.083566 0.641565 0.929882
0.080368 0.699183 0.080368
0.080878 0.699693 0.119743
0.081558 0.700372 0.172269
0.082268 0.701083 0.227166
0.082998 0.701813 0.283602
0.083744 0.702558 0.341193
0.084501 0.703316 0.399713
0.085268 0.704083 0.459013
0.086045 0.704859 0.518985
0.086828 0.705643 0.579550
0.087619 0.706434 0.640645
0.088416 0.707231 0.702221
0.089218 0.708033 0.764235
0.090026 0.708841 0.826653
0.090839 0.709653 0.889446
0.091464 0.710279 0.937780
0.091464 0.710279 0.937780
0.088323 0.768383 0.088323
0.088832 0.768892 0.127697
0.089512 0.769572 0.180224
0.090222 0.770282 0.235120
0.090953 0.771013 0.291556
0.091698 0.771758 0.349147
0.092455 0.772515 0.407667
0.093223 0.773283 0.466967
0.093999 0.774059 0.526940
0.094783 0.774843 0.587505
0.095573 0.775633 0.648600
0.096370 0.776430 0.710175
0.097173 0.777233 0.772189
0.097980 0.778040 0.834607
0.098793 0.778853 0.897401
0.099419 0.779479 0.945734
0.099419 0.779479 0.945734
0.096328 0.838030 0.096328
0.096838 0.838540 0.135703
0.097518 0.839220 0.188229
0.098228 0.839930 0.243126
0.098958 0.840660 0.299562
0.099704 0.841406 0.357153
0.100461 0.842163 0.415673
0.101228 0.842930 0.474973
0.102005 0.843707 0.534945
0.102788 0.844490 0.595510
0.103579 0.845281 0.656605
0.104376 0.846078 0.718181
0.105178 0.846880 0.780194
0.105986 0.847688 0.842613
0.106799 0.848501 0.905406
0.107424 0.849126 0.953740
0.107424 0.849126 0.953740
0.104382 0.908094 0.104382
0.104891 0.908604 0.143757
0.105571 0.909283 0.196283
0.106282 0.909994 0.251179
0.107012 0.910724 0.307615
0.107757 0.911469 0.365207
0.108515 0.912227 0.423727
0.109282 0.912994 0.483026
0.110058 0.913770 0.542999
0.110842 0.914554 0.603564
0.111633 0.915345 0.664659
0.112429 0.916142 0.726234
0.113232 0.916944 0.788248
0.114040 0.917752 0.850666
0.114852 0.918565 0.913460
0.115478 0.919190 0.961794
0.115478 0.919190 0.961794
0.109915 0.956231 0.109915
0.110425 0.956740 0.149290
0.111104 0.957420 0.201816
0.111815 0.958130 0.256712
0.112545 0.958861 0.313148
0.113290 0.959606 0.370740
0.114048 0.960363 0.429260
0.114815 0.961131 0.488560
0.115591 0.961907 0.548532
0.116375 0.962691 0.609097
0.117166 0.963481 0.670192
0.117963 0.964278 0.731767
0.118765 0.965081 0.793781
0.119573 0.965889 0.856199
0.120385 0.966701 0.918993
0.121011 0.967327 0.967327
0.121011 0.967327 0.967327
0.048971 0.001820 0.001820
0.049480 0.002330 0.041195
0.050160 0.003010 0.093721
0.050871 0.003720 0.148618
0.051601 0.004450 0.205054
0.052346 0.005196 0.262645
0.053104 0.005953 0.321165
0.053871 0.006720 0.380465
0.054647 0.007497 0.440437
0.055431 0.008280 0.501002
0.056222 0.009071 0.562097
0.057018 0.009868 0.623673
0.057821 0.010670 0.685687
0.058629 0.011478 0.748105
0.059441 0.012291 0.810898
0.060067 0.012916 0.859232
0.060067 0.012916 0.859232
0.048971 0.001820 0.001820
