skills/creativeops-producer/assets/grade/luts/moody_teal_v11.cube
TITLE "moody_teal_v11"
LUT_3D_SIZE 17
DOMAIN_MIN 0.0 0.0 0.0
DOMAIN_MAX 1.0 1.0 1.0
0.000000 0.000000 0.000000
0.000369 0.000369 0.044800
0.000828 0.000828 0.100508
0.001300 0.001300 0.157861
0.001781 0.001781 0.216278
0.002269 0.002269 0.275489
0.002762 0.002762 0.335336
0.003259 0.003259 0.395713
0.003760 0.003760 0.456548
0.004265 0.004265 0.517784
0.004772 0.004772 0.579378
0.005282 0.005282 0.641296
0.005794 0.005794 0.703508
0.006309 0.006309 0.765992
0.006826 0.006826 0.828727
0.007344 0.007344 0.891696
0.007448 0.007448 0.904290
0.001132 0.014898 0.001132
0.001501 0.015267 0.045933
0.001960 0.015726 0.101640
0.002433 0.016198 0.158994
0.002914 0.016679 0.217411
0.003401 0.017167 0.276622
0.003894 0.017660 0.336468
0.004392 0.018157 0.396846
0.004893 0.018658 0.457681
0.005397 0.019162 0.518916
0.005904 0.019670 0.580510
0.006414 0.020180 0.642428
0.006927 0.020692 0.704640
0.007441 0.021207 0.767124
0.007958 0.021723 0.829859
0.008477 0.022242 0.892829
0.008580 0.022346 0.905423
0.005537 0.072850 0.005537
0.005906 0.073219 0.050338
0.006365 0.073678 0.106045
0.006838 0.074150 0.163399
0.007319 0.074631 0.221816
0.007806 0.075119 0.281027
0.008299 0.075612 0.340873
0.008797 0.076109 0.401251
0.009298 0.076610 0.462086
0.009802 0.077115 0.523321
0.010309 0.077622 0.584916
0.010819 0.078132 0.646833
0.011332 0.078644 0.709045
0.011846 0.079159 0.771529
0.012363 0.079676 0.834264
0.012882 0.080194 0.897234
0.012985 0.080298 0.909828
0.010148 0.133504 0.010148
0.010517 0.133873 0.054948
0.010976 0.134332 0.110656
0.011448 0.134804 0.168009
0.011929 0.135285 0.226426
0.012417 0.135773 0.285637
0.012910 0.136266 0.345484
0.013407 0.136763 0.405861
0.013908 0.137264 0.466696
0.014412 0.137769 0.527932
0.014920 0.138276 0.589526
0.015430 0.138786 0.651443
0.015942 0.139298 0.713656
0.016457 0.139813 0.776140
0.016974 0.140330 0.838875
0.017492 0.140848 0.901844
0.017596 0.140952 0.914438
0.014867 0.195591 0.014867
0.015236 0.195960 0.059668
0.015695 0.196419 0.115375
0.016167 0.196891 0.172728
0.016649 0.197372 0.231146
0.017136 0.197860 0.290357
0.017629 0.198353 0.350203
0.018126 0.198850 0.410581
0.018627 0.199351 0.471415
0.019132 0.199856 0.532651
0.019639 0.200363 0.594245
0.020149 0.200873 0.656163
0.020662 0.201385 0.718375
0.021176 0.201900 0.780859
0.021693 0.202417 0.843594
0.022211 0.202935 0.906563
0.022315 0.203039 0.919157
0.019662 0.258676 0.019662
0.020031 0.259045 0.064463
0.020490 0.259504 0.120170
0.020963 0.259976 0.177524
0.021444 0.260458 0.235941
0.021931 0.260945 0.295152
0.022424 0.261438 0.354998
0.022922 0.261936 0.415376
0.023423 0.262437 0.476211
0.023927 0.262941 0.537446
0.024434 0.263448 0.599040
0.024944 0.263958 0.660958
0.025457 0.264471 0.723170
0.025971 0.264985 0.785654
0.026488 0.265502 0.848389
0.027007 0.266021 0.911359
0.027110 0.266124 0.923953
0.024516 0.322533 0.024516
0.024885 0.322902 0.069317
0.025344 0.323361 0.125024
0.025816 0.323833 0.182377
0.026298 0.324314 0.240795
0.026785 0.324802 0.300006
0.027278 0.325295 0.359852
0.027775 0.325792 0.420230
0.028277 0.326293 0.481064
0.028781 0.326797 0.542300
0.029288 0.327305 0.603894
0.029798 0.327815 0.665812
0.030311 0.328327 0.728024
0.030825 0.328842 0.790508
0.031342 0.329358 0.853243
0.031861 0.329877 0.916212
0.031964 0.329981 0.928806
0.029418 0.387019 0.029418
0.029787 0.387388 0.074218
0.030246 0.387847 0.129926
0.030718 0.388319 0.187279
0.031199 0.388801 0.245696
0.031687 0.389288 0.304907
0.032180 0.389781 0.364754
0.032677 0.390278 0.425131
0.033178 0.390780 0.485966
0.033683 0.391284 0.547202
0.034190 0.391791 0.608796
0.034700 0.392301 0.670714
0.035212 0.392814 0.732926
0.035727 0.393328 0.795410
0.036244 0.393845 0.858145
0.036762 0.394364 0.921114
0.036866 0.394467 0.933708
0.034360 0.452040 0.034360
0.034729 0.452408 0.079161
0.035188 0.452867 0.134868
0.035660 0.453340 0.192221
0.036142 0.453821 0.250639
0.036629 0.454309 0.309850
0.037122 0.454801 0.369696
0.037620 0.455299 0.430074
0.038121 0.455800 0.490908
0.038625 0.456304 0.552144
0.039132 0.456811 0.613738
0.039642 0.457321 0.675656
0.040155 0.457834 0.737868
0.040669 0.458348 0.800352
0.041186 0.458865 0.863087
0.041705 0.459384 0.926056
0.041808 0.459488 0.938650
0.039338 0.517523 0.039338
0.039707 0.517892 0.084138
0.040166 0.518351 0.139845
0.040638 0.518823 0.197199
0.041119 0.519305 0.255616
0.041607 0.519792 0.314827
0.042100 0.520285 0.374674
0.042597 0.520782 0.435051
0.043098 0.521284 0.495886
0.043602 0.521788 0.557122
0.044110 0.522295 0.618716
0.044620 0.522805 0.680633
0.045132 0.523318 0.742846
0.045647 0.523832 0.805330
0.046163 0.524349 0.868065
0.046682 0.524868 0.931034
0.046786 0.524971 0.943628
0.044347 0.583417 0.044347
0.044716 0.583786 0.089147
0.045174 0.584245 0.144854
0.045647 0.584717 0.202208
0.046128 0.585198 0.260625
0.046616 0.585686 0.319836
0.047108 0.586179 0.379682
0.047606 0.586676 0.440060
0.048107 0.587177 0.500895
0.048611 0.587682 0.562131
0.049118 0.588189 0.623725
0.049628 0.588699 0.685642
0.050141 0.589211 0.747855
0.050655 0.589726 0.810338
0.051172 0.590243 0.873074
0.051691 0.590761 0.936043
0.051795 0.590865 0.948637
0.049383 0.649679 0.049383
0.049752 0.650048 0.094184
0.050211 0.650506 0.149891
0.050683 0.650979 0.207244
0.051165 0.651460 0.265662
0.051652 0.651948 0.324873
0.052145 0.652440 0.384719
0.052642 0.652938 0.445097
0.053143 0.653439 0.505931
0.053648 0.653943 0.567167
0.054155 0.654450 0.628761
0.054665 0.654960 0.690679
0.055177 0.655473 0.752891
0.055692 0.655987 0.815375
0.056209 0.656504 0.878110
0.056727 0.657023 0.941079
0.056831 0.657127 0.953673
0.054445 0.716274 0.054445
0.054814 0.716643 0.099246
0.055273 0.717102 0.154953
0.055745 0.717574 0.212306
0.056227 0.718055 0.270724
0.056714 0.718543 0.329935
0.057207 0.719036 0.389781
0.057704 0.719533 0.450159
0.058205 0.720034 0.510993
0.058710 0.720538 0.572229
0.059217 0.721046 0.633823
0.059727 0.721556 0.695741
0.060239 0.722068 0.757953
0.060754 0.722583 0.820437
0.061271 0.723099 0.883172
0.061789 0.723618 0.946141
0.061893 0.723722 0.958735
0.059530 0.783174 0.059530
0.059899 0.783543 0.104331
0.060358 0.784002 0.160038
0.060831 0.784475 0.217392
0.061312 0.784956 0.275809
0.061799 0.785443 0.335020
0.062292 0.785936 0.394866
0.062790 0.786434 0.455244
0.063291 0.786935 0.516079
0.063795 0.787439 0.577314
0.064302 0.787946 0.638908
0.064812 0.788456 0.700826
0.065325 0.788969 0.763038
0.065839 0.789483 0.825522
0.066356 0.790000 0.888257
0.066875 0.790519 0.951227
0.066978 0.790622 0.963821
0.064637 0.850357 0.064637
0.065006 0.850726 0.109437
0.065465 0.851185 0.165145
0.065937 0.851657 0.222498
0.066418 0.852138 0.280915
0.066906 0.852626 0.340126
0.067399 0.853119 0.399973
0.067896 0.853616 0.460351
0.068397 0.854117 0.521185
0.068902 0.854622 0.582421
0.069409 0.855129 0.644015
0.069919 0.855639 0.705933
0.070431 0.856151 0.768145
0.070946 0.856666 0.830629
0.071463 0.857183 0.893364
0.071981 0.857701 0.956333
0.072085 0.857805 0.968927
0.069764 0.917801 0.069764
0.070133 0.918170 0.114564
0.070591 0.918629 0.170271
0.071064 0.919101 0.227625
0.071545 0.919582 0.286042
0.072033 0.920070 0.345253
0.072526 0.920563 0.405099
0.073023 0.921060 0.465477
0.073524 0.921561 0.526312
0.074028 0.922066 0.587548
0.074536 0.922573 0.649142
0.075046 0.923083 0.711059
0.075558 0.923595 0.773272
0.076073 0.924110 0.835756
0.076589 0.924627 0.898491
0.077108 0.925145 0.961460
0.077212 0.925249 0.974054
0.073779 0.970621 0.073779
0.074148 0.970990 0.118579
0.074606 0.971448 0.174286
0.075079 0.971921 0.231640
0.075560 0.972402 0.290057
0.076048 0.972890 0.349268
0.076540 0.973383 0.409114
0.077038 0.973880 0.469492
0.077539 0.974381 0.530327
0.078043 0.974885 0.591563
0.078550 0.975393 0.653157
0.079060 0.975903 0.715074
0.079573 0.976415 0.777287
0.080087 0.976930 0.839770
0.080604 0.977446 0.902506
0.081123 0.977965 0.965475
0.081227 0.978069 0.978069
0.000000 0.000000 0.000000
0.000369 0.000369 0.044800
0.000828 0.000828 0.100508
0.001300 0.001300 0.157861
0.001781 0.001781 0.216278
0.002269 0.002269 0.275489
0.002762 0.002762 0.335336
0.003259 0.003259 0.395713
0.003760 0.003760 0.456548
0.004265 0.004265 0.517784
0.004772 0.004772 0.579378
0.005282 0.005282 0.641296
0.005794 0.005794 0.703508
0.006309 0.006309 0.765992
0.006826 0.006826 0.828727
0.007344 0.007344 0.891696
0.007448 0.007448 0.904290
0.001132 0.014898 0.001132
0.001501 0.015267 0.045933
0.001960 0.015726 0.101640
0.002433 0.016198 0.158994
0.002914 0.016679 0.217411
0.003401 0.017167 0.276622
0.003894 0.017660 0.336468
0.004392 0.018157 0.396846
0.004893 0.018658 0.457681
0.005397 0.019162 0.518916
0.005904 0.019670 0.580510
0.006414 0.020180 0.642428
0.006927 0.020692 0.704640
0.007441 0.021207 0.767124
0.007958 0.021723 0.829859
0.008477 0.022242 0.892829
0.008580 0.022346 0.905423
0.005537 0.072850 0.005537
0.005906 0.073219 0.050338
0.006365 0.073678 0.106045
0.006838 0.074150 0.163399
0.007319 0.074631 0.221816
0.007806 0.075119 0.281027
0.008299 0.075612 0.340873
0.008797 0.076109 0.401251
0.009298 0.076610 0.462086
0.009802 0.077115 0.523321
0.010309 0.077622 0.584916
0.010819 0.078132 0.646833
0.011332 0.078644 0.709045
0.011846 0.079159 0.771529
0.012363 0.079676 0.834264
0.012882 0.080194 0.897234
0.012985 0.080298 0.909828
0.010148 0.133504 0.010148
0.010517 0.133873 0.054948
0.010976 0.134332 0.110656
0.011448 0.134804 0.168009
0.011929 0.135285 0.226426
0.012417 0.135773 0.285637
0.012910 0.136266 0.345484
0.013407 0.136763 0.405861
0.013908 0.137264 0.466696
0.014412 0.137769 0.527932
0.014920 0.138276 0.589526
0.015430 0.138786 0.651443
0.015942 0.139298 0.713656
0.016457 0.139813 0.776140
0.016974 0.140330 0.838875
0.017492 0.140848 0.901844
0.017596 0.140952 0.914438
0.014867 0.195591 0.014867
0.015236 0.195960 0.059668
0.015695 0.196419 0.115375
0.016167 0.196891 0.172728
0.016649 0.197372 0.231146
0.017136 0.197860 0.290357
0.017629 0.198353 0.350203
0.018126 0.198850 0.410581
0.018627 0.199351 0.471415
0.019132 0.199856 0.532651
0.019639 0.200363 0.594245
0.020149 0.200873 0.656163
0.020662 0.201385 0.718375
0.021176 0.201900 0.780859
0.021693 0.202417 0.843594
0.022211 0.202935 0.906563
0.022315 0.203039 0.919157
0.019662 0.258676 0.019662
0.020031 0.259045 0.064463
0.020490 0.259504 0.120170
0.020963 0.259976 0.177524
0.021444 0.260458 0.235941
0.021931 0.260945 0.295152
0.022424 0.261438 0.354998
0.022922 0.261936 0.415376
0.023423 0.262437 0.476211
0.023927 0.262941 0.537446
0.024434 0.263448 0.599040
0.024944 0.263958 0.660958
0.025457 0.264471 0.723170
0.025971 0.264985 0.785654
0.026488 0.265502 0.848389
0.027007 0.266021 0.911359
0.027110 0.266124 0.923953
0.024516 0.322533 0.024516
0.024885 0.322902 0.069317
0.025344 0.323361 0.125024
0.025816 0.323833 0.182377
0.026298 0.324314 0.240795
0.026785 0.324802 0.300006
0.027278 0.325295 0.359852
0.027775 0.325792 0.420230
0.028277 0.326293 0.481064
0.028781 0.326797 0.542300
0.029288 0.327305 0.603894
0.029798 0.327815 0.665812
0.030311 0.328327 0.728024
0.030825 0.328842 0.790508
0.031342 0.329358 0.853243
0.031861 0.329877 0.916212
0.031964 0.329981 0.928806
0.029418 0.387019 0.029418
0.029787 0.387388 0.074218
0.030246 0.387847 0.129926
0.030718 0.388319 0.187279
0.031199 0.388801 0.245696
0.031687 0.389288 0.304907
0.032180 0.389781 0.364754
0.032677 0.390278 0.425131
0.033178 0.390780 0.485966
0.033683 0.391284 0.547202
0.034190 0.391791 0.608796
0.034700 0.392301 0.670714
0.035212 0.392814 0.732926
0.035727 0.393328 0.795410
0.036244 0.393845 0.858145
0.036762 0.394364 0.921114
0.036866 0.394467 0.933708
0.034360 0.452040 0.034360
0.034729 0.452408 0.079161
0.035188 0.452867 0.134868
0.035660 0.453340 0.192221
0.036142 0.453821 0.250639
0.036629 0.454309 0.309850
0.037122 0.454801 0.369696
0.037620 0.455299 0.430074
0.038121 0.455800 0.490908
0.038625 0.456304 0.552144
0.039132 0.456811 0.613738
0.039642 0.457321 0.675656
0.040155 0.457834 0.737868
0.040669 0.458348 0.800352
0.041186 0.458865 0.863087
0.041705 0.459384 0.926056
0.041808 0.459488 0.938650
0.039338 0.517523 0.039338
0.039707 0.517892 0.084138
0.040166 0.518351 0.139845
0.040638 0.518823 0.197199
0.041119 0.519305 0.255616
0.041607 0.519792 0.314827
0.042100 0.520285 0.374674
0.042597 0.520782 0.435051
0.043098 0.521284 0.495886
0.043602 0.521788 0.557122
0.044110 0.522295 0.618716
0.044620 0.522805 0.680633
0.045132 0.523318 0.742846
0.045647 0.523832 0.805330
0.046163 0.524349 0.868065
0.046682 0.524868 0.931034
0.046786 0.524971 0.943628
0.044347 0.583417 0.044347
0.044716 0.583786 0.089147
0.045174 0.584245 0.144854
0.045647 0.584717 0.202208
0.046128 0.585198 0.260625
0.046616 0.585686 0.319836
0.047108 0.586179 0.379682
0.047606 0.586676 0.440060
0.048107 0.587177 0.500895
0.048611 0.587682 0.562131
0.049118 0.588189 0.623725
0.049628 0.588699 0.685642
0.050141 0.589211 0.747855
0.050655 0.589726 0.810338
0.051172 0.590243 0.873074
0.051691 0.590761 0.936043
0.051795 0.590865 0.948637
0.049383 0.649679 0.049383
0.049752 0.650048 0.094184
0.050211 0.650506 0.149891
0.050683 0.650979 0.207244
0.051165 0.651460 0.265662
0.051652 0.651948 0.324873
0.052145 0.652440 0.384719
0.052642 0.652938 0.445097
0.053143 0.653439 0.505931
0.053648 0.653943 0.567167
0.054155 0.654450 0.628761
0.054665 0.654960 0.690679
0.055177 0.655473 0.752891
0.055692 0.655987 0.815375
0.056209 0.656504 0.878110
0.056727 0.657023 0.941079
0.056831 0.657127 0.953673
0.054445 0.716274 0.054445
0.054814 0.716643 0.099246
0.055273 0.717102 0.154953
0.055745 0.717574 0.212306
0.056227 0.718055 0.270724
0.056714 0.718543 0.329935
0.057207 0.719036 0.389781
0.057704 0.719533 0.450159
0.058205 0.720034 0.510993
0.058710 0.720538 0.572229
0.059217 0.721046 0.633823
0.059727 0.721556 0.695741
0.060239 0.722068 0.757953
0.060754 0.722583 0.820437
0.061271 0.723099 0.883172
0.061789 0.723618 0.946141
0.061893 0.723722 0.958735
0.059530 0.783174 0.059530
0.059899 0.783543 0.104331
0.060358 0.784002 0.160038
0.060831 0.784475 0.217392
0.061312 0.784956 0.275809
0.061799 0.785443 0.335020
0.062292 0.785936 0.394866
0.062790 0.786434 0.455244
0.063291 0.786935 0.516079
0.063795 0.787439 0.577314
0.064302 0.787946 0.638908
0.064812 0.788456 0.700826
0.065325 0.788969 0.763038
0.065839 0.789483 0.825522
0.066356 0.790000 0.888257
0.066875 0.790519 0.951227
0.066978 0.790622 0.963821
0.064637 0.850357 0.064637
0.065006 0.850726 0.109437
0.065465 0.851185 0.165145
0.065937 0.851657 0.222498
0.066418 0.852138 0.280915
0.066906 0.852626 0.340126
0.067399 0.853119 0.399973
0.067896 0.853616 0.460351
0.068397 0.854117 0.521185
0.068902 0.854622 0.582421
0.069409 0.855129 0.644015
0.069919 0.855639 0.705933
0.070431 0.856151 0.768145
0.070946 0.856666 0.830629
0.071463 0.857183 0.893364
0.071981 0.857701 0.956333
0.072085 0.857805 0.968927
0.069764 0.917801 0.069764
0.070133 0.918170 0.114564
0.070591 0.918629 0.170271
0.071064 0.919101 0.227625
0.071545 0.919582 0.286042
0.072033 0.920070 0.345253
0.072526 0.920563 0.405099
0.073023 0.921060 0.465477
0.073524 0.921561 0.526312
0.074028 0.922066 0.587548
0.074536 0.922573 0.649142
0.075046 0.923083 0.711059
0.075558 0.923595 0.773272
0.076073 0.924110 0.835756
0.076589 0.924627 0.898491
0.077108 0.925145 0.961460
0.077212 0.925249 0.974054
0.073779 0.970621 0.073779
0.074148 0.970990 0.118579
0.074606 0.971448 0.174286
0.075079 0.971921 0.231640
0.075560 0.972402 0.290057
0.076048 0.972890 0.349268
0.076540 0.973383 0.409114
0.077038 0.973880 0.469492
0.077539 0.974381 0.530327
0.078043 0.974885 0.591563
0.078550 0.975393 0.653157
0.079060 0.975903 0.715074
0.079573 0.976415 0.777287
0.080087 0.976930 0.839770
0.080604 0.977446 0.902506
0.081123 0.977965 0.965475
0.081227 0.978069 0.978069
0.036592 0.000873 0.000873
0.036961 0.001242 0.045674
0.037420 0.001701 0.101381
0.037892 0.002174 0.158735
0.038374 0.002655 0.217152
0.038861 0.003142 0.276363
0.039354 0.003635 0.336209
0.039851 0.004133 0.396587
0.040352 0.004634 0.457422
0.040857 0.005138 0.518658
0.041364 0.005645 0.580252
0.041874 0.006155 0.642169
0.042387 0.006668 0.704381
0.042901 0.007182 0.766865
0.043418 0.007699 0.829600
0.043936 0.008218 0.892570
0.044040 0.008321 0.905164
0.037725 0.015771 0.002006
0.038094 0.016140 0.046806
0.038552 0.016599 0.102514
0.039025 0.017071 0.159867
0.039506 0.017553 0.218284
0.039994 0.018040 0.277495
0.040487 0.018533 0.337342
0.040984 0.019030 0.397719
0.041485 0.019532 0.458554
0.041989 0.020036 0.519790
0.042497 0.020543 0.581384
0.043007 0.021053 0.643301
0.043519 0.021566 0.705514
0.044034 0.022080 0.767998
0.044550 0.022597 0.830733
0.045069 0.023116 0.893702
0.045173 0.023219 0.906296
0.042130 0.073723 0.006411
0.042499 0.074092 0.051211
0.042957 0.074551 0.106919
0.043430 0.075024 0.164272
0.043911 0.075505 0.222689
0.044399 0.075992 0.281900
0.044892 0.076485 0.341747
0.045389 0.076983 0.402124
0.045890 0.077484 0.462959
0.046394 0.077988 0.524195
0.046902 0.078495 0.585789
0.047412 0.079005 0.647706
0.047924 0.079518 0.709919
0.048439 0.080032 0.772403
0.048955 0.080549 0.835138
0.049474 0.081068 0.898107
0.049578 0.081171 0.910701
0.046740 0.134378 0.011021
0.047109 0.134747 0.055822
0.047568 0.135205 0.111529
0.048040 0.135678 0.168882
0.048521 0.136159 0.227300
0.049009 0.136647 0.286511
0.049502 0.137140 0.346357
0.049999 0.137637 0.406735
0.050500 0.138138 0.467569
0.051005 0.138642 0.528805
0.051512 0.139150 0.590399
0.052022 0.139659 0.652317
0.052534 0.140172 0.714529
0.053049 0.140687 0.777013
0.053566 0.141203 0.839748
0.054084 0.141722 0.902717
0.054188 0.141826 0.915311
0.051459 0.196464 0.015741
0.051828 0.196833 0.060541
0.052287 0.197292 0.116248
0.052760 0.197765 0.173602
0.053241 0.198246 0.232019
0.053728 0.198733 0.291230
0.054221 0.199226 0.351076
0.054719 0.199724 0.411454
0.055220 0.200225 0.472289
0.055724 0.200729 0.533525
0.056231 0.201236 0.595119
0.056741 0.201746 0.657036
0.057254 0.202259 0.719249
0.057768 0.202773 0.781733
0.058285 0.203290 0.844468
0.058804 0.203809 0.907437
0.058907 0.203912 0.920031
0.056255 0.259550 0.020536
0.056624 0.259919 0.065336
0.057082 0.260378 0.121044
0.057555 0.260850 0.178397
0.058036 0.261331 0.236814
0.058524 0.261819 0.296025
0.059017 0.262312 0.355872
0.059514 0.262809 0.416249
0.060015 0.263310 0.477084
0.060519 0.263814 0.538320
0.061027 0.264322 0.599914
0.061537 0.264832 0.661831
0.062049 0.265344 0.724044
0.062564 0.265859 0.786528
0.063080 0.266375 0.849263
0.063599 0.266894 0.912232
0.063703 0.266998 0.924826
0.061108 0.323406 0.025390
0.061477 0.323775 0.070190
0.061936 0.324234 0.125897
0.062409 0.324706 0.183251
0.062890 0.325188 0.241668
0.063377 0.325675 0.300879
0.063870 0.326168 0.360726
0.064368 0.326665 0.421103
0.064869 0.327166 0.481938
0.065373 0.327671 0.543174
0.065880 0.328178 0.604768
0.066390 0.328688 0.666685
0.066903 0.329200 0.728898
0.067417 0.329715 0.791382
0.067934 0.330232 0.854117
0.068453 0.330750 0.917086
0.068556 0.330854 0.929680
0.066010 0.387893 0.030291
0.066379 0.388262 0.075092
0.066838 0.388721 0.130799
0.067310 0.389193 0.188153
0.067792 0.389674 0.246570
0.068279 0.390162 0.305781
0.068772 0.390655 0.365627
0.069269 0.391152 0.426005
0.069770 0.391653 0.486840
0.070275 0.392157 0.548076
0.070782 0.392665 0.609670
0.071292 0.393175 0.671587
0.071805 0.393687 0.733799
0.072319 0.394202 0.796283
0.072836 0.394718 0.859018
0.073354 0.395237 0.921988
0.073458 0.395341 0.934582
0.070953 0.452913 0.035234
0.071321 0.453282 0.080034
0.071780 0.453741 0.135741
0.072253 0.454213 0.193095
0.072734 0.454694 0.251512
0.073222 0.455182 0.310723
0.073714 0.455675 0.370570
0.074212 0.456172 0.430947
0.074713 0.456673 0.491782
0.075217 0.457178 0.553018
0.075724 0.457685 0.614612
0.076234 0.458195 0.676529
0.076747 0.458707 0.738742
0.077261 0.459222 0.801226
0.077778 0.459739 0.863961
0.078297 0.460257 0.926930
0.078401 0.460361 0.939524
0.075930 0.518397 0.040211
0.076299 0.518766 0.085012
0.076758 0.519225 0.140719
0.077230 0.519697 0.198072
0.077711 0.520178 0.256490
0.078199 0.520666 0.315701
0.078692 0.521159 0.375547
0.079189 0.521656 0.435925
0.079690 0.522157 0.496759
0.080195 0.522661 0.557995
0.080702 0.523169 0.619589
0.081212 0.523679 0.681507
0.081724 0.524191 0.743719
0.082239 0.524706 0.806203
0.082756 0.525222 0.868938
0.083274 0.525741 0.931907
0.083378 0.525845 0.944501
0.080939 0.584290 0.045220
0.081308 0.584659 0.090020
0.081767 0.585118 0.145728
0.082239 0.585591 0.203081
0.082720 0.586072 0.261498
0.083208 0.586559 0.320709
0.083701 0.587052 0.380556
0.084198 0.587550 0.440933
0.084699 0.588051 0.501768
0.085203 0.588555 0.563004
0.085711 0.589062 0.624598
0.086221 0.589572 0.686516
0.086733 0.590085 0.748728
0.087248 0.590599 0.811212
0.087764 0.591116 0.873947
0.088283 0.591635 0.936916
0.088387 0.591738 0.949510
0.085975 0.650552 0.050257
0.086344 0.650921 0.095057
0.086803 0.651380 0.150764
0.087276 0.651852 0.208118
0.087757 0.652333 0.266535
0.088244 0.652821 0.325746
0.088737 0.653314 0.385592
0.089235 0.653811 0.445970
0.089736 0.654312 0.506805
0.090240 0.654817 0.568041
0.090747 0.655324 0.629635
0.091257 0.655834 0.691552
0.091770 0.656346 0.753765
0.092284 0.656861 0.816249
0.092801 0.657378 0.878984
0.093320 0.657896 0.941953
0.093423 0.658000 0.954547
0.091037 0.717147 0.055319
0.091406 0.717516 0.100119
0.091865 0.717975 0.155826
0.092338 0.718447 0.213180
0.092819 0.718929 0.271597
0.093306 0.719416 0.330808
0.093799 0.719909 0.390654
0.094297 0.720406 0.451032
0.094798 0.720907 0.511867
0.095302 0.721412 0.573103
0.095809 0.721919 0.634697
0.096319 0.722429 0.696614
0.096832 0.722942 0.758827
0.097346 0.723456 0.821311
0.097863 0.723973 0.884046
0.098382 0.724491 0.947015
0.098485 0.724595 0.959609
0.096123 0.784048 0.060404
0.096492 0.784417 0.105204
0.096950 0.784876 0.160912
0.097423 0.785348 0.218265
0.097904 0.785829 0.276682
0.098392 0.786317 0.335893
0.098885 0.786810 0.395740
0.099382 0.787307 0.456117
0.099883 0.787808 0.516952
0.100387 0.788313 0.578188
0.100895 0.788820 0.639782
0.101405 0.789330 0.701699
0.101917 0.789842 0.763912
0.102432 0.790357 0.826396
0.102948 0.790874 0.889131
0.103467 0.791392 0.952100
0.103571 0.791496 0.964694
0.101229 0.851230 0.065511
0.101598 0.851599 0.110311
0.102057 0.852058 0.166018
0.102529 0.852531 0.223372
0.103011 0.853012 0.281789
0.103498 0.853499 0.341000
0.103991 0.853992 0.400846
0.104489 0.854490 0.461224
0.104990 0.854991 0.522059
0.105494 0.855495 0.583295
0.106001 0.856002 0.644889
0.106511 0.856512 0.706806
0.107024 0.857025 0.769019
0.107538 0.857539 0.831502
0.108055 0.858056 0.894238
0.108574 0.858575 0.957207
0.108677 0.858678 0.969801
0.106356 0.918675 0.070637
0.106725 0.919044 0.115437
0.107184 0.919502 0.171145
0.107656 0.919975 0.228498
0.108137 0.920456 0.286915
0.108625 0.920944 0.346126
0.109118 0.921437 0.405973
0.109615 0.921934 0.466351
0.110116 0.922435 0.527185
0.110620 0.922939 0.588421
0.111128 0.923447 0.650015
0.111638 0.923956 0.711933
0.112150 0.924469 0.774145
0.112665 0.924984 0.836629
0.113181 0.925500 0.899364
0.113700 0.926019 0.962333
0.113804 0.926123 0.974927
0.110371 0.971494 0.074652
0.110740 0.971863 0.119452
0.111199 0.972322 0.175160
0.111671 0.972794 0.232513
0.112152 0.973275 0.290930
0.112640 0.973763 0.350141
0.113133 0.974256 0.409988
0.113630 0.974753 0.470365
0.114131 0.975254 0.531200
0.114635 0.975759 0.592436
0.115143 0.976266 0.654030
0.115653 0.976776 0.715948
0.116165 0.977288 0.778160
0.116680 0.977803 0.840644
0.117196 0.978320 0.903379
0.117715 0.978838 0.966348
0.117819 0.978942 0.978942
0.092804 0.002215 0.002215
0.093173 0.002584 0.047016
0.093632 0.003043 0.102723
0.094105 0.003515 0.160076
0.094586 0.003997 0.218494
0.095073 0.004484 0.277705
0.095566 0.004977 0.337551
0.096064 0.005474 0.397929
0.096565 0.005976 0.458763
0.097069 0.006480 0.519999
0.097576 0.006987 0.581593
0.098086 0.007497 0.643511
0.098599 0.008010 0.705723
0.099113 0.008524 0.768207
0.099630 0.009041 0.830942
0.100149 0.009560 0.893911
0.100252 0.009663 0.906505
0.093937 0.017113 0.003348
