skills/creativeops-producer/assets/grade/luts/moody_teal_v15.cube
TITLE "moody_teal_v15"
LUT_3D_SIZE 17
DOMAIN_MIN 0.0 0.0 0.0
DOMAIN_MAX 1.0 1.0 1.0
0.000000 0.000000 0.000000
0.000441 0.000441 0.041933
0.001011 0.001011 0.096049
0.001602 0.001602 0.152182
0.002207 0.002207 0.209622
0.002821 0.002821 0.268039
0.003445 0.003445 0.327240
0.004075 0.004075 0.387099
0.004711 0.004711 0.447523
0.005352 0.005352 0.508445
0.005998 0.005998 0.569811
0.006648 0.006648 0.631580
0.007302 0.007302 0.693715
0.007960 0.007960 0.756189
0.008621 0.008621 0.818976
0.009272 0.009272 0.880851
0.009272 0.009272 0.880851
0.000444 0.004655 0.000444
0.000885 0.005096 0.042377
0.001455 0.005666 0.096492
0.002046 0.006257 0.152625
0.002650 0.006862 0.210065
0.003265 0.007476 0.268483
0.003888 0.008100 0.327684
0.004518 0.008730 0.387542
0.005154 0.009366 0.447967
0.005796 0.010007 0.508888
0.006442 0.010653 0.570255
0.007092 0.011303 0.632023
0.007746 0.011957 0.694159
0.008404 0.012615 0.756633
0.009064 0.013276 0.819420
0.009716 0.013927 0.881295
0.009716 0.013927 0.881295
0.005759 0.060404 0.005759
0.006200 0.060845 0.047692
0.006770 0.061415 0.101807
0.007360 0.062006 0.157940
0.007965 0.062610 0.215380
0.008580 0.063225 0.273797
0.009203 0.063849 0.332999
0.009833 0.064479 0.392857
0.010469 0.065115 0.453281
0.011110 0.065756 0.514203
0.011756 0.066402 0.575570
0.012407 0.067052 0.637338
0.013061 0.067706 0.699474
0.013718 0.068364 0.761948
0.014379 0.069025 0.824735
0.015031 0.069676 0.886609
0.015031 0.069676 0.886609
0.011466 0.120269 0.011466
0.011907 0.120711 0.053399
0.012477 0.121280 0.107514
0.013068 0.121871 0.163647
0.013672 0.122476 0.221087
0.014287 0.123091 0.279505
0.014910 0.123714 0.338706
0.015540 0.124344 0.398564
0.016176 0.124980 0.458989
0.016818 0.125621 0.519910
0.017464 0.126267 0.581277
0.018114 0.126918 0.643045
0.018768 0.127572 0.705181
0.019425 0.128229 0.767655
0.020086 0.128890 0.830442
0.020738 0.129541 0.892317
0.020738 0.129541 0.892317
0.017357 0.182071 0.017357
0.017799 0.182512 0.059290
0.018368 0.183082 0.113406
0.018959 0.183673 0.169539
0.019564 0.184277 0.226979
0.020179 0.184892 0.285396
0.020802 0.185515 0.344598
0.021432 0.186145 0.404456
0.022068 0.186782 0.464880
0.022709 0.187423 0.525802
0.023355 0.188069 0.587168
0.024006 0.188719 0.648937
0.024660 0.189373 0.711073
0.025317 0.190031 0.773546
0.025978 0.190691 0.836334
0.026629 0.191343 0.898208
0.026629 0.191343 0.898208
0.023375 0.245189 0.023375
0.023816 0.245630 0.065308
0.024386 0.246200 0.119423
0.024977 0.246791 0.175556
0.025581 0.247396 0.232996
0.026196 0.248010 0.291414
0.026819 0.248634 0.350615
0.027449 0.249264 0.410473
0.028085 0.249900 0.470898
0.028727 0.250541 0.531819
0.029373 0.251187 0.593186
0.030023 0.251837 0.654954
0.030677 0.252491 0.717090
0.031335 0.253149 0.779564
0.031995 0.253810 0.842351
0.032647 0.254461 0.904226
0.032647 0.254461 0.904226
0.029488 0.309314 0.029488
0.029929 0.309755 0.071421
0.030499 0.310325 0.125537
0.031090 0.310916 0.181670
0.031694 0.311520 0.239110
0.032309 0.312135 0.297527
0.032933 0.312758 0.356728
0.033563 0.313388 0.416587
0.034199 0.314024 0.477011
0.034840 0.314666 0.537933
0.035486 0.315312 0.599299
0.036136 0.315962 0.661068
0.036790 0.316616 0.723203
0.037448 0.317274 0.785677
0.038109 0.317934 0.848464
0.038760 0.318586 0.910339
0.038760 0.318586 0.910339
0.035679 0.374256 0.035679
0.036121 0.374698 0.077612
0.036690 0.375267 0.131728
0.037281 0.375858 0.187861
0.037886 0.376463 0.245301
0.038501 0.377078 0.303718
0.039124 0.377701 0.362920
0.039754 0.378331 0.422778
0.040390 0.378967 0.483202
0.041031 0.379608 0.544124
0.041677 0.380254 0.605490
0.042327 0.380904 0.667259
0.042981 0.381558 0.729394
0.043639 0.382216 0.791868
0.044300 0.382877 0.854655
0.044951 0.383528 0.916530
0.044951 0.383528 0.916530
0.041936 0.439889 0.041936
0.042378 0.440330 0.083869
0.042947 0.440900 0.137985
0.043538 0.441491 0.194118
0.044143 0.442096 0.251558
0.044758 0.442710 0.309975
0.045381 0.443334 0.369177
0.046011 0.443964 0.429035
0.046647 0.444600 0.489459
0.047288 0.445241 0.550381
0.047934 0.445887 0.611747
0.048584 0.446537 0.673516
0.049238 0.447191 0.735651
0.049896 0.447849 0.798125
0.050557 0.448510 0.860912
0.051208 0.449161 0.922787
0.051208 0.449161 0.922787
0.048250 0.506120 0.048250
0.048692 0.506562 0.090183
0.049261 0.507131 0.144299
0.049852 0.507722 0.200432
0.050457 0.508327 0.257872
0.051072 0.508942 0.316289
0.051695 0.509565 0.375491
0.052325 0.510195 0.435349
0.052961 0.510831 0.495773
0.053602 0.511472 0.556695
0.054248 0.512118 0.618061
0.054898 0.512768 0.679830
0.055552 0.513422 0.741965
0.056210 0.514080 0.804439
0.056871 0.514741 0.867226
0.057522 0.515392 0.929101
0.057522 0.515392 0.929101
0.054615 0.572880 0.054615
0.055056 0.573321 0.096548
0.055626 0.573891 0.150663
0.056217 0.574482 0.206796
0.056821 0.575086 0.264236
0.057436 0.575701 0.322654
0.058059 0.576324 0.381855
0.058689 0.576955 0.441713
0.059325 0.577591 0.502137
0.059967 0.578232 0.563059
0.060613 0.578878 0.624426
0.061263 0.579528 0.686194
0.061917 0.580182 0.748330
0.062574 0.580840 0.810804
0.063235 0.581501 0.873591
0.063887 0.582152 0.935466
0.063887 0.582152 0.935466
0.061024 0.640113 0.061024
0.061466 0.640555 0.102957
0.062035 0.641124 0.157073
0.062626 0.641715 0.213206
0.063231 0.642320 0.270646
0.063846 0.642935 0.329063
0.064469 0.643558 0.388265
0.065099 0.644188 0.448123
0.065735 0.644824 0.508547
0.066376 0.645465 0.569469
0.067022 0.646111 0.630835
0.067672 0.646761 0.692604
0.068326 0.647415 0.754740
0.068984 0.648073 0.817213
0.069645 0.648734 0.880000
0.070296 0.649385 0.941875
0.070296 0.649385 0.941875
0.067475 0.707776 0.067475
0.067916 0.708217 0.109408
0.068486 0.708787 0.163523
0.069077 0.709378 0.219656
0.069681 0.709983 0.277096
0.070296 0.710598 0.335514
0.070919 0.711221 0.394715
0.071549 0.711851 0.454573
0.072185 0.712487 0.514998
0.072827 0.713128 0.575919
0.073473 0.713774 0.637286
0.074123 0.714424 0.699054
0.074777 0.715078 0.761190
0.075435 0.715736 0.823664
0.076095 0.716397 0.886451
0.076747 0.717048 0.948326
0.076747 0.717048 0.948326
0.073963 0.775832 0.073963
0.074404 0.776273 0.115896
0.074974 0.776843 0.170011
0.075565 0.777434 0.226144
0.076169 0.778039 0.283584
0.076784 0.778654 0.342002
0.077407 0.779277 0.401203
0.078037 0.779907 0.461061
0.078673 0.780543 0.521486
0.079315 0.781184 0.582407
0.079961 0.781830 0.643774
0.080611 0.782480 0.705542
0.081265 0.783134 0.767678
0.081923 0.783792 0.830152
0.082583 0.784453 0.892939
0.083235 0.785104 0.954814
0.083235 0.785104 0.954814
0.080485 0.844251 0.080485
0.080927 0.844692 0.122418
0.081496 0.845262 0.176534
0.082087 0.845853 0.232667
0.082692 0.846457 0.290107
0.083307 0.847072 0.348524
0.083930 0.847695 0.407726
0.084560 0.848325 0.467584
0.085196 0.848961 0.528008
0.085837 0.849603 0.588930
0.086483 0.850249 0.650296
0.087133 0.850899 0.712065
0.087788 0.851553 0.774201
0.088445 0.852210 0.836674
0.089106 0.852871 0.899461
0.089757 0.853523 0.961336
0.089757 0.853523 0.961336
0.087040 0.913006 0.087040
0.087481 0.913447 0.128973
0.088051 0.914017 0.183089
0.088642 0.914608 0.239222
0.089247 0.915212 0.296662
0.089861 0.915827 0.355079
0.090485 0.916450 0.414280
0.091115 0.917080 0.474139
0.091751 0.917716 0.534563
0.092392 0.918358 0.595485
0.093038 0.919004 0.656851
0.093688 0.919654 0.718620
0.094342 0.920308 0.780755
0.095000 0.920965 0.843229
0.095661 0.921626 0.906016
0.096312 0.922278 0.967891
0.096312 0.922278 0.967891
0.091847 0.963426 0.091847
0.092288 0.963867 0.133780
0.092858 0.964437 0.187895
0.093449 0.965028 0.244028
0.094053 0.965632 0.301468
0.094668 0.966247 0.359886
0.095291 0.966870 0.419087
0.095921 0.967500 0.478945
0.096557 0.968136 0.539370
0.097199 0.968778 0.600291
0.097845 0.969424 0.661658
0.098495 0.970074 0.723426
0.099149 0.970728 0.785562
0.099807 0.971385 0.848036
0.100467 0.972046 0.910823
0.101119 0.972698 0.972698
0.101119 0.972698 0.972698
0.000000 0.000000 0.000000
0.000441 0.000441 0.041933
0.001011 0.001011 0.096049
0.001602 0.001602 0.152182
0.002207 0.002207 0.209622
0.002821 0.002821 0.268039
0.003445 0.003445 0.327240
0.004075 0.004075 0.387099
0.004711 0.004711 0.447523
0.005352 0.005352 0.508445
0.005998 0.005998 0.569811
0.006648 0.006648 0.631580
0.007302 0.007302 0.693715
0.007960 0.007960 0.756189
0.008621 0.008621 0.818976
0.009272 0.009272 0.880851
0.009272 0.009272 0.880851
0.000444 0.004655 0.000444
0.000885 0.005096 0.042377
0.001455 0.005666 0.096492
0.002046 0.006257 0.152625
0.002650 0.006862 0.210065
0.003265 0.007476 0.268483
0.003888 0.008100 0.327684
0.004518 0.008730 0.387542
0.005154 0.009366 0.447967
0.005796 0.010007 0.508888
0.006442 0.010653 0.570255
0.007092 0.011303 0.632023
0.007746 0.011957 0.694159
0.008404 0.012615 0.756633
0.009064 0.013276 0.819420
0.009716 0.013927 0.881295
0.009716 0.013927 0.881295
0.005759 0.060404 0.005759
0.006200 0.060845 0.047692
0.006770 0.061415 0.101807
0.007360 0.062006 0.157940
0.007965 0.062610 0.215380
0.008580 0.063225 0.273797
0.009203 0.063849 0.332999
0.009833 0.064479 0.392857
0.010469 0.065115 0.453281
0.011110 0.065756 0.514203
0.011756 0.066402 0.575570
0.012407 0.067052 0.637338
0.013061 0.067706 0.699474
0.013718 0.068364 0.761948
0.014379 0.069025 0.824735
0.015031 0.069676 0.886609
0.015031 0.069676 0.886609
0.011466 0.120269 0.011466
0.011907 0.120711 0.053399
0.012477 0.121280 0.107514
0.013068 0.121871 0.163647
0.013672 0.122476 0.221087
0.014287 0.123091 0.279505
0.014910 0.123714 0.338706
0.015540 0.124344 0.398564
0.016176 0.124980 0.458989
0.016818 0.125621 0.519910
0.017464 0.126267 0.581277
0.018114 0.126918 0.643045
0.018768 0.127572 0.705181
0.019425 0.128229 0.767655
0.020086 0.128890 0.830442
0.020738 0.129541 0.892317
0.020738 0.129541 0.892317
0.017357 0.182071 0.017357
0.017799 0.182512 0.059290
0.018368 0.183082 0.113406
0.018959 0.183673 0.169539
0.019564 0.184277 0.226979
0.020179 0.184892 0.285396
0.020802 0.185515 0.344598
0.021432 0.186145 0.404456
0.022068 0.186782 0.464880
0.022709 0.187423 0.525802
0.023355 0.188069 0.587168
0.024006 0.188719 0.648937
0.024660 0.189373 0.711073
0.025317 0.190031 0.773546
0.025978 0.190691 0.836334
0.026629 0.191343 0.898208
0.026629 0.191343 0.898208
0.023375 0.245189 0.023375
0.023816 0.245630 0.065308
0.024386 0.246200 0.119423
0.024977 0.246791 0.175556
0.025581 0.247396 0.232996
0.026196 0.248010 0.291414
0.026819 0.248634 0.350615
0.027449 0.249264 0.410473
0.028085 0.249900 0.470898
0.028727 0.250541 0.531819
0.029373 0.251187 0.593186
0.030023 0.251837 0.654954
0.030677 0.252491 0.717090
0.031335 0.253149 0.779564
0.031995 0.253810 0.842351
0.032647 0.254461 0.904226
0.032647 0.254461 0.904226
0.029488 0.309314 0.029488
0.029929 0.309755 0.071421
0.030499 0.310325 0.125537
0.031090 0.310916 0.181670
0.031694 0.311520 0.239110
0.032309 0.312135 0.297527
0.032933 0.312758 0.356728
0.033563 0.313388 0.416587
0.034199 0.314024 0.477011
0.034840 0.314666 0.537933
0.035486 0.315312 0.599299
0.036136 0.315962 0.661068
0.036790 0.316616 0.723203
0.037448 0.317274 0.785677
0.038109 0.317934 0.848464
0.038760 0.318586 0.910339
0.038760 0.318586 0.910339
0.035679 0.374256 0.035679
0.036121 0.374698 0.077612
0.036690 0.375267 0.131728
0.037281 0.375858 0.187861
0.037886 0.376463 0.245301
0.038501 0.377078 0.303718
0.039124 0.377701 0.362920
0.039754 0.378331 0.422778
0.040390 0.378967 0.483202
0.041031 0.379608 0.544124
0.041677 0.380254 0.605490
0.042327 0.380904 0.667259
0.042981 0.381558 0.729394
0.043639 0.382216 0.791868
0.044300 0.382877 0.854655
0.044951 0.383528 0.916530
0.044951 0.383528 0.916530
0.041936 0.439889 0.041936
0.042378 0.440330 0.083869
0.042947 0.440900 0.137985
0.043538 0.441491 0.194118
0.044143 0.442096 0.251558
0.044758 0.442710 0.309975
0.045381 0.443334 0.369177
0.046011 0.443964 0.429035
0.046647 0.444600 0.489459
0.047288 0.445241 0.550381
0.047934 0.445887 0.611747
0.048584 0.446537 0.673516
0.049238 0.447191 0.735651
0.049896 0.447849 0.798125
0.050557 0.448510 0.860912
0.051208 0.449161 0.922787
0.051208 0.449161 0.922787
0.048250 0.506120 0.048250
0.048692 0.506562 0.090183
0.049261 0.507131 0.144299
0.049852 0.507722 0.200432
0.050457 0.508327 0.257872
0.051072 0.508942 0.316289
0.051695 0.509565 0.375491
0.052325 0.510195 0.435349
0.052961 0.510831 0.495773
0.053602 0.511472 0.556695
0.054248 0.512118 0.618061
0.054898 0.512768 0.679830
0.055552 0.513422 0.741965
0.056210 0.514080 0.804439
0.056871 0.514741 0.867226
0.057522 0.515392 0.929101
0.057522 0.515392 0.929101
0.054615 0.572880 0.054615
0.055056 0.573321 0.096548
0.055626 0.573891 0.150663
0.056217 0.574482 0.206796
0.056821 0.575086 0.264236
0.057436 0.575701 0.322654
0.058059 0.576324 0.381855
0.058689 0.576955 0.441713
0.059325 0.577591 0.502137
0.059967 0.578232 0.563059
0.060613 0.578878 0.624426
0.061263 0.579528 0.686194
0.061917 0.580182 0.748330
0.062574 0.580840 0.810804
0.063235 0.581501 0.873591
0.063887 0.582152 0.935466
0.063887 0.582152 0.935466
0.061024 0.640113 0.061024
0.061466 0.640555 0.102957
0.062035 0.641124 0.157073
0.062626 0.641715 0.213206
0.063231 0.642320 0.270646
0.063846 0.642935 0.329063
0.064469 0.643558 0.388265
0.065099 0.644188 0.448123
0.065735 0.644824 0.508547
0.066376 0.645465 0.569469
0.067022 0.646111 0.630835
0.067672 0.646761 0.692604
0.068326 0.647415 0.754740
0.068984 0.648073 0.817213
0.069645 0.648734 0.880000
0.070296 0.649385 0.941875
0.070296 0.649385 0.941875
0.067475 0.707776 0.067475
0.067916 0.708217 0.109408
0.068486 0.708787 0.163523
0.069077 0.709378 0.219656
0.069681 0.709983 0.277096
0.070296 0.710598 0.335514
0.070919 0.711221 0.394715
0.071549 0.711851 0.454573
0.072185 0.712487 0.514998
0.072827 0.713128 0.575919
0.073473 0.713774 0.637286
0.074123 0.714424 0.699054
0.074777 0.715078 0.761190
0.075435 0.715736 0.823664
0.076095 0.716397 0.886451
0.076747 0.717048 0.948326
0.076747 0.717048 0.948326
0.073963 0.775832 0.073963
0.074404 0.776273 0.115896
0.074974 0.776843 0.170011
0.075565 0.777434 0.226144
0.076169 0.778039 0.283584
0.076784 0.778654 0.342002
0.077407 0.779277 0.401203
0.078037 0.779907 0.461061
0.078673 0.780543 0.521486
0.079315 0.781184 0.582407
0.079961 0.781830 0.643774
0.080611 0.782480 0.705542
0.081265 0.783134 0.767678
0.081923 0.783792 0.830152
0.082583 0.784453 0.892939
0.083235 0.785104 0.954814
0.083235 0.785104 0.954814
0.080485 0.844251 0.080485
0.080927 0.844692 0.122418
0.081496 0.845262 0.176534
0.082087 0.845853 0.232667
0.082692 0.846457 0.290107
0.083307 0.847072 0.348524
0.083930 0.847695 0.407726
0.084560 0.848325 0.467584
0.085196 0.848961 0.528008
0.085837 0.849603 0.588930
0.086483 0.850249 0.650296
0.087133 0.850899 0.712065
0.087788 0.851553 0.774201
0.088445 0.852210 0.836674
0.089106 0.852871 0.899461
0.089757 0.853523 0.961336
0.089757 0.853523 0.961336
0.087040 0.913006 0.087040
0.087481 0.913447 0.128973
0.088051 0.914017 0.183089
0.088642 0.914608 0.239222
0.089247 0.915212 0.296662
0.089861 0.915827 0.355079
0.090485 0.916450 0.414280
0.091115 0.917080 0.474139
0.091751 0.917716 0.534563
0.092392 0.918358 0.595485
0.093038 0.919004 0.656851
0.093688 0.919654 0.718620
0.094342 0.920308 0.780755
0.095000 0.920965 0.843229
0.095661 0.921626 0.906016
0.096312 0.922278 0.967891
0.096312 0.922278 0.967891
0.091847 0.963426 0.091847
0.092288 0.963867 0.133780
0.092858 0.964437 0.187895
0.093449 0.965028 0.244028
0.094053 0.965632 0.301468
0.094668 0.966247 0.359886
0.095291 0.966870 0.419087
0.095921 0.967500 0.478945
0.096557 0.968136 0.539370
0.097199 0.968778 0.600291
0.097845 0.969424 0.661658
0.098495 0.970074 0.723426
0.099149 0.970728 0.785562
0.099807 0.971385 0.848036
0.100467 0.972046 0.910823
0.101119 0.972698 0.972698
0.101119 0.972698 0.972698
0.016647 0.000506 0.000506
0.017089 0.000947 0.042439
0.017658 0.001517 0.096554
0.018249 0.002108 0.152687
0.018854 0.002712 0.210127
0.019469 0.003327 0.268545
0.020092 0.003950 0.327746
0.020722 0.004580 0.387604
0.021358 0.005216 0.448028
0.021999 0.005858 0.508950
0.022645 0.006504 0.570317
0.023295 0.007154 0.632085
0.023950 0.007808 0.694221
0.024607 0.008465 0.756695
0.025268 0.009126 0.819482
0.025919 0.009778 0.881357
0.025919 0.009778 0.881357
0.017091 0.005161 0.000949
0.017533 0.005602 0.042882
0.018102 0.006172 0.096998
0.018693 0.006763 0.153131
0.019298 0.007367 0.210571
0.019913 0.007982 0.268988
0.020536 0.008605 0.328190
0.021166 0.009235 0.388048
0.021802 0.009871 0.448472
0.022443 0.010513 0.509394
0.023089 0.011159 0.570760
0.023739 0.011809 0.632529
0.024393 0.012463 0.694665
0.025051 0.013120 0.757138
0.025712 0.013781 0.819926
0.026363 0.014433 0.881800
0.026363 0.014433 0.881800
0.022406 0.060910 0.006264
0.022847 0.061351 0.048197
0.023417 0.061921 0.102313
0.024008 0.062511 0.158446
0.024612 0.063116 0.215886
0.025227 0.063731 0.274303
0.025850 0.064354 0.333505
0.026481 0.064984 0.393363
0.027117 0.065620 0.453787
0.027758 0.066262 0.514709
0.028404 0.066907 0.576075
0.029054 0.067558 0.637844
0.029708 0.068212 0.699979
0.030366 0.068869 0.762453
0.031027 0.069530 0.825240
0.031678 0.070182 0.887115
0.031678 0.070182 0.887115
0.028113 0.120775 0.011971
0.028554 0.121216 0.053904
0.029124 0.121786 0.108020
0.029715 0.122377 0.164153
0.030320 0.122982 0.221593
0.030934 0.123596 0.280010
0.031558 0.124220 0.339212
0.032188 0.124850 0.399070
0.032824 0.125486 0.459494
0.033465 0.126127 0.520416
0.034111 0.126773 0.581782
0.034761 0.127423 0.643551
0.035415 0.128077 0.705687
0.036073 0.128735 0.768160
0.036734 0.129396 0.830947
0.037385 0.130047 0.892822
0.037385 0.130047 0.892822
0.034005 0.182576 0.017863
0.034446 0.183018 0.059796
0.035016 0.183587 0.113912
0.035607 0.184178 0.170045
0.036211 0.184783 0.227485
0.036826 0.185398 0.285902
0.037449 0.186021 0.345104
0.038079 0.186651 0.404962
0.038716 0.187287 0.465386
0.039357 0.187928 0.526308
0.040003 0.188574 0.587674
0.040653 0.189225 0.649443
0.041307 0.189879 0.711578
0.041965 0.190536 0.774052
0.042626 0.191197 0.836839
0.043277 0.191848 0.898714
0.043277 0.191848 0.898714
0.040022 0.245695 0.023880
0.040463 0.246136 0.065813
0.041033 0.246706 0.119929
0.041624 0.247297 0.176062
0.042229 0.247901 0.233502
0.042844 0.248516 0.291919
0.043467 0.249139 0.351121
0.044097 0.249769 0.410979
0.044733 0.250405 0.471403
0.045374 0.251047 0.532325
0.046020 0.251693 0.593691
0.046670 0.252343 0.655460
0.047324 0.252997 0.717596
0.047982 0.253654 0.780069
0.048643 0.254315 0.842856
0.049294 0.254967 0.904731
0.049294 0.254967 0.904731
0.046135 0.309819 0.029994
0.046577 0.310261 0.071927
0.047146 0.310830 0.126042
0.047737 0.311421 0.182175
0.048342 0.312026 0.239615
0.048957 0.312641 0.298032
0.049580 0.313264 0.357234
0.050210 0.313894 0.417092
0.050846 0.314530 0.477516
0.051487 0.315171 0.538438
0.052133 0.315817 0.599805
0.052783 0.316467 0.661573
0.053437 0.317122 0.723709
0.054095 0.317779 0.786183
0.054756 0.318440 0.848970
0.055407 0.319091 0.910845
0.055407 0.319091 0.910845
0.052327 0.374762 0.036185
0.052768 0.375203 0.078118
0.053338 0.375773 0.132233
0.053928 0.376364 0.188366
0.054533 0.376968 0.245806
0.055148 0.377583 0.304224
0.055771 0.378206 0.363425
0.056401 0.378837 0.423283
0.057037 0.379473 0.483708
0.057678 0.380114 0.544629
0.058324 0.380760 0.605996
0.058975 0.381410 0.667764
0.059629 0.382064 0.729900
0.060286 0.382722 0.792374
0.060947 0.383383 0.855161
0.061599 0.384034 0.917036
0.061599 0.384034 0.917036
0.058584 0.440395 0.042442
0.059025 0.440836 0.084375
0.059595 0.441406 0.138490
0.060185 0.441997 0.194623
0.060790 0.442601 0.252063
0.061405 0.443216 0.310481
0.062028 0.443839 0.369682
0.062658 0.444469 0.429541
0.063294 0.445105 0.489965
0.063936 0.445747 0.550886
0.064581 0.446393 0.612253
0.065232 0.447043 0.674021
0.065886 0.447697 0.736157
0.066543 0.448354 0.798631
0.067204 0.449015 0.861418
0.067856 0.449667 0.923293
0.067856 0.449667 0.923293
0.064898 0.506626 0.048756
0.065339 0.507067 0.090689
0.065909 0.507637 0.144804
0.066499 0.508228 0.200938
0.067104 0.508832 0.258377
0.067719 0.509447 0.316795
0.068342 0.510070 0.375996
0.068972 0.510701 0.435855
0.069608 0.511337 0.496279
0.070250 0.511978 0.557200
0.070896 0.512624 0.618567
0.071546 0.513274 0.680335
0.072200 0.513928 0.742471
0.072857 0.514586 0.804945
0.073518 0.515247 0.867732
0.074170 0.515898 0.929607
0.074170 0.515898 0.929607
0.071262 0.573385 0.055120
0.071703 0.573827 0.097053
0.072273 0.574397 0.151169
0.072864 0.574987 0.207302
0.073469 0.575592 0.264742
0.074083 0.576207 0.323159
0.074707 0.576830 0.382361
0.075337 0.577460 0.442219
0.075973 0.578096 0.502643
0.076614 0.578737 0.563565
0.077260 0.579383 0.624931
0.077910 0.580034 0.686700
0.078564 0.580688 0.748836
0.079222 0.581345 0.811309
0.079883 0.582006 0.874096
0.080534 0.582657 0.935971
0.080534 0.582657 0.935971
0.077672 0.640619 0.061530
0.078113 0.641060 0.103463
0.078683 0.641630 0.157578
0.079273 0.642221 0.213712
0.079878 0.642825 0.271151
0.080493 0.643440 0.329569
0.081116 0.644063 0.388770
0.081746 0.644694 0.448629
0.082382 0.645330 0.509053
0.083024 0.645971 0.569974
0.083670 0.646617 0.631341
0.084320 0.647267 0.693109
0.084974 0.647921 0.755245
0.085631 0.648579 0.817719
0.086292 0.649240 0.880506
0.086944 0.649891 0.942381
0.086944 0.649891 0.942381
0.084122 0.708282 0.067980
0.084564 0.708723 0.109913
0.085133 0.709293 0.164029
0.085724 0.709884 0.220162
0.086329 0.710488 0.277602
0.086944 0.711103 0.336019
0.087567 0.711726 0.395221
0.088197 0.712356 0.455079
0.088833 0.712992 0.515503
0.089474 0.713634 0.576425
0.090120 0.714280 0.637791
0.090770 0.714930 0.699560
0.091424 0.715584 0.761696
0.092082 0.716242 0.824169
0.092743 0.716902 0.886957
0.093394 0.717554 0.948831
0.093394 0.717554 0.948831
0.090610 0.776338 0.074468
0.091052 0.776779 0.116401
0.091621 0.777349 0.170517
0.092212 0.777940 0.226650
0.092817 0.778544 0.284090
0.093432 0.779159 0.342507
0.094055 0.779782 0.401709
0.094685 0.780412 0.461567
0.095321 0.781048 0.521991
0.095962 0.781690 0.582913
0.096608 0.782336 0.644279
0.097258 0.782986 0.706048
0.097912 0.783640 0.768184
0.098570 0.784298 0.830657
0.099231 0.784958 0.893445
0.099882 0.785610 0.955319
0.099882 0.785610 0.955319
0.097133 0.844756 0.080991
0.097574 0.845198 0.122924
0.098144 0.845767 0.177040
0.098735 0.846358 0.233173
0.099339 0.846963 0.290613
0.099954 0.847578 0.349030
0.100577 0.848201 0.408231
0.101207 0.848831 0.468090
0.101843 0.849467 0.528514
0.102485 0.850108 0.589436
0.103131 0.850754 0.650802
0.103781 0.851404 0.712571
0.104435 0.852058 0.774706
0.105093 0.852716 0.837180
0.105753 0.853377 0.899967
0.106405 0.854028 0.961842
0.106405 0.854028 0.961842
0.103687 0.913511 0.087546
0.104129 0.913953 0.129479
0.104698 0.914522 0.183594
0.105289 0.915113 0.239727
0.105894 0.915718 0.297167
0.106509 0.916333 0.355585
0.107132 0.916956 0.414786
0.107762 0.917586 0.474644
0.108398 0.918222 0.535068
0.109039 0.918863 0.595990
0.109685 0.919509 0.657357
0.110336 0.920159 0.719125
0.110990 0.920814 0.781261
0.111647 0.921471 0.843735
0.112308 0.922132 0.906522
0.112959 0.922783 0.968397
0.112959 0.922783 0.968397
0.108494 0.963931 0.092352
0.108935 0.964373 0.134285
0.109505 0.964942 0.188401
0.110096 0.965533 0.244534
0.110701 0.966138 0.301974
0.111316 0.966753 0.360391
0.111939 0.967376 0.419593
0.112569 0.968006 0.479451
0.113205 0.968642 0.539875
0.113846 0.969283 0.600797
0.114492 0.969929 0.662163
0.115142 0.970579 0.723932
0.115796 0.971234 0.786068
0.116454 0.971891 0.848541
0.117115 0.972552 0.911328
0.117766 0.973203 0.973203
0.117766 0.973203 0.973203
0.070125 0.002130 0.002130
0.070566 0.002571 0.044063
0.071136 0.003141 0.098179
0.071727 0.003732 0.154312
0.072331 0.004336 0.211752
0.072946 0.004951 0.270169
0.073569 0.005575 0.329370
0.074199 0.006205 0.389229
0.074835 0.006841 0.449653
0.075477 0.007482 0.510575
0.076123 0.008128 0.571941
0.076773 0.008778 0.633710
0.077427 0.009432 0.695845
0.078085 0.010090 0.758319
0.078745 0.010751 0.821106
0.079397 0.011402 0.882981
0.079397 0.011402 0.882981
0.070569 0.006785 0.002574
