skills/creativeops-producer/assets/grade/luts/moody_teal_v19.cube
TITLE "moody_teal_v19"
LUT_3D_SIZE 5
DOMAIN_MIN 0.0 0.0 0.0
DOMAIN_MAX 1.0 1.0 1.0
0.000000 0.000000 0.000000
0.002630 0.002630 0.203233
0.005676 0.005676 0.438617
0.008850 0.008850 0.683866
0.011096 0.011096 0.857412
0.019406 0.168827 0.019406
0.022036 0.171457 0.222639
0.025082 0.174503 0.458023
0.028256 0.177677 0.703272
0.030502 0.179923 0.876818
0.049168 0.427749 0.049168
0.051798 0.430379 0.252402
0.054844 0.433425 0.487785
0.058018 0.436599 0.733034
0.060264 0.438845 0.906580
0.080368 0.699183 0.080368
0.082998 0.701813 0.283602
0.086045 0.704859 0.518985
0.089218 0.708033 0.764235
0.091464 0.710279 0.937780
0.109915 0.956231 0.109915
0.112545 0.958861 0.313148
0.115591 0.961907 0.548532
0.118765 0.965081 0.793781
0.121011 0.967327 0.967327
0.103321 0.003841 0.003841
0.105951 0.006471 0.207074
0.108997 0.009517 0.442458
0.112171 0.012691 0.687707
0.114417 0.014937 0.861252
0.122727 0.172667 0.023247
0.125357 0.175297 0.226480
0.128403 0.178344 0.461864
0.131577 0.181517 0.707113
0.133823 0.183763 0.880658
0.152489 0.431590 0.053009
0.155119 0.434220 0.256242
0.158165 0.437266 0.491626
0.161339 0.440440 0.736875
0.163585 0.442686 0.910420
0.183689 0.703024 0.084209
0.186320 0.705654 0.287442
0.189366 0.708700 0.522826
0.192540 0.711874 0.768075
0.194785 0.714120 0.941621
0.213236 0.960071 0.113756
0.215866 0.962701 0.316989
0.218912 0.965748 0.552373
0.222086 0.968921 0.797622
0.224332 0.971167 0.971167
0.337313 0.012538 0.012538
0.339943 0.015168 0.215772
0.342989 0.018215 0.451155
0.346163 0.021388 0.696405
0.348409 0.023634 0.869950
0.356719 0.181365 0.031944
0.359349 0.183995 0.235178
0.362395 0.187041 0.470561
0.365569 0.190215 0.715811
0.367815 0.192461 0.889356
0.386481 0.440287 0.061706
0.389111 0.442918 0.264940
0.392157 0.445964 0.500323
0.395331 0.449138 0.745573
0.397577 0.451383 0.919118
0.417681 0.711721 0.092907
0.420311 0.714351 0.296140
0.423357 0.717398 0.531524
0.426531 0.720571 0.776773
0.428777 0.722817 0.950318
0.447228 0.968769 0.122453
0.449858 0.971399 0.325687
0.452904 0.974445 0.561070
0.456078 0.977619 0.806320
0.458324 0.979865 0.979865
0.584710 0.021734 0.021734
0.587340 0.024365 0.224968
0.590386 0.027411 0.460351
0.593560 0.030585 0.705601
0.595806 0.032830 0.879146
0.604116 0.190561 0.041140
0.606746 0.193191 0.244374
0.609792 0.196237 0.479757
0.612966 0.199411 0.725007
0.615212 0.201657 0.898552
0.633878 0.449484 0.070903
0.636508 0.452114 0.274136
0.639554 0.455160 0.509520
0.642728 0.458334 0.754769
0.644974 0.460580 0.928314
0.665078 0.720917 0.102103
0.667708 0.723548 0.305336
0.670755 0.726594 0.540720
0.673928 0.729768 0.785969
0.676174 0.732013 0.959515
0.694625 0.977965 0.131649
0.697255 0.980595 0.334883
0.700301 0.983641 0.570266
0.703475 0.986815 0.815516
0.705721 0.989061 0.989061
0.840045 0.031226 0.031226
0.842675 0.033856 0.234459
0.845721 0.036902 0.469843
0.848895 0.040076 0.715092
0.851141 0.042322 0.888637
0.859451 0.200052 0.050632
0.862081 0.202682 0.253865
0.865127 0.205729 0.489249
0.868301 0.208902 0.734498
0.870547 0.211148 0.908043
0.889213 0.458975 0.080394
0.891843 0.461605 0.283627
0.894889 0.464651 0.519011
0.898063 0.467825 0.764260
0.900309 0.470071 0.937806
0.920413 0.730409 0.111594
0.923043 0.733039 0.314827
0.926089 0.736085 0.550211
0.929263 0.739259 0.795460
0.931509 0.741505 0.969006
0.949960 0.987456 0.141141
0.952590 0.990086 0.344374
0.955636 0.993133 0.579758
0.958810 0.996306 0.825007
0.961056 0.998552 0.998552
