skills/creativeops-producer/assets/grade/luts/product_clean_v16.cube
TITLE "product_clean_v16"
LUT_3D_SIZE 5
DOMAIN_MIN 0.0 0.0 0.0
DOMAIN_MAX 1.0 1.0 1.0
0.000000 0.000000 0.000000
0.000000 0.000000 0.250685
0.000000 0.000000 0.521974
0.000000 0.000000 0.793263
0.000000 0.000000 1.000000
0.000000 0.243371 0.000000
0.000000 0.242550 0.242550
0.000000 0.241661 0.513839
0.000000 0.240772 0.785128
0.000000 0.239951 1.000000
0.000000 0.506745 0.000000
0.000000 0.505924 0.233746
0.000000 0.505035 0.505035
0.000000 0.504147 0.776324
0.000000 0.503325 1.000000
0.000000 0.770119 0.000000
0.000000 0.769298 0.224942
0.000000 0.768409 0.496231
0.000000 0.767521 0.767521
0.000000 0.766699 1.000000
0.000000 1.000000 0.000000
0.000000 1.000000 0.216807
0.000000 1.000000 0.488096
0.000000 1.000000 0.759386
0.000000 1.000000 1.000000
0.249088 0.000000 0.000000
0.248267 0.000000 0.248267
0.247378 0.000000 0.519556
0.246489 0.000000 0.790845
0.245668 0.000000 1.000000
0.240953 0.240953 0.000000
0.240132 0.240132 0.240132
0.239243 0.239243 0.511421
0.238354 0.238354 0.782710
0.237533 0.237533 1.000000
0.232149 0.504327 0.000000
0.231328 0.503506 0.231328
0.230439 0.502617 0.502617
0.229550 0.501728 0.773906
0.228729 0.500907 1.000000
0.223345 0.767701 0.000000
0.222524 0.766880 0.222524
0.221635 0.765991 0.493813
0.220746 0.765102 0.765102
0.219925 0.764281 1.000000
0.215210 1.000000 0.000000
0.214389 1.000000 0.214389
0.213500 1.000000 0.485678
0.212611 1.000000 0.756967
0.211790 1.000000 1.000000
0.518649 0.000000 0.000000
0.517828 0.000000 0.245650
0.516939 0.000000 0.516939
0.516050 0.000000 0.788228
0.515229 0.000000 1.000000
0.510514 0.238336 0.000000
0.509693 0.237515 0.237515
0.508804 0.236626 0.508804
0.507915 0.235737 0.780093
0.507094 0.234916 1.000000
0.501710 0.501710 0.000000
0.500889 0.500889 0.228711
0.500000 0.500000 0.500000
0.499111 0.499111 0.771289
0.498290 0.498290 1.000000
0.492906 0.765084 0.000000
0.492085 0.764263 0.219907
0.491196 0.763374 0.491196
0.490307 0.762485 0.762485
0.489486 0.761664 1.000000
0.484771 1.000000 0.000000
0.483950 1.000000 0.211772
0.483061 1.000000 0.483061
0.482172 1.000000 0.754350
0.481351 1.000000 1.000000
0.788210 0.000000 0.000000
0.787389 0.000000 0.243033
0.786500 0.000000 0.514322
0.785611 0.000000 0.785611
0.784790 0.000000 1.000000
0.780075 0.235719 0.000000
0.779254 0.234898 0.234898
0.778365 0.234009 0.506187
0.777476 0.233120 0.777476
0.776655 0.232299 1.000000
0.771271 0.499093 0.000000
0.770450 0.498272 0.226094
0.769561 0.497383 0.497383
0.768672 0.496494 0.768672
0.767851 0.495673 1.000000
0.762467 0.762467 0.000000
0.761646 0.761646 0.217290
0.760757 0.760757 0.488579
0.759868 0.759868 0.759868
0.759047 0.759047 1.000000
0.754332 1.000000 0.000000
0.753511 1.000000 0.209155
0.752622 1.000000 0.480444
0.751733 1.000000 0.751733
0.750912 1.000000 1.000000
1.000000 0.000000 0.000000
1.000000 0.000000 0.240614
1.000000 0.000000 0.511904
1.000000 0.000000 0.783193
1.000000 0.000000 1.000000
1.000000 0.233301 0.000000
1.000000 0.232479 0.232479
1.000000 0.231591 0.503769
1.000000 0.230702 0.775058
1.000000 0.229881 1.000000
1.000000 0.496675 0.000000
1.000000 0.495853 0.223676
1.000000 0.494965 0.494965
1.000000 0.494076 0.766254
1.000000 0.493255 1.000000
1.000000 0.760049 0.000000
1.000000 0.759228 0.214872
1.000000 0.758339 0.486161
1.000000 0.757450 0.757450
1.000000 0.756629 1.000000
1.000000 1.000000 0.000000
1.000000 1.000000 0.206737
1.000000 1.000000 0.478026
1.000000 1.000000 0.749315
1.000000 1.000000 1.000000
