skills/creativeops-producer/assets/grade/luts/product_clean_v16.cube
TITLE "product_clean_v16"
LUT_3D_SIZE 9
DOMAIN_MIN 0.0 0.0 0.0
DOMAIN_MAX 1.0 1.0 1.0
0.000000 0.000000 0.000000
0.000000 0.000000 0.115040
0.000000 0.000000 0.250685
0.000000 0.000000 0.386330
0.000000 0.000000 0.521974
0.000000 0.000000 0.657619
0.000000 0.000000 0.793263
0.000000 0.000000 0.928908
0.000000 0.000000 1.000000
0.000000 0.111684 0.000000
0.000000 0.111307 0.111307
0.000000 0.110863 0.246952
0.000000 0.110418 0.382596
0.000000 0.109974 0.518241
0.000000 0.109530 0.653886
0.000000 0.109085 0.789530
0.000000 0.108641 0.925175
0.000000 0.108264 1.000000
0.000000 0.243371 0.000000
0.000000 0.242994 0.106905
0.000000 0.242550 0.242550
0.000000 0.242105 0.378194
0.000000 0.241661 0.513839
0.000000 0.241217 0.649484
0.000000 0.240772 0.785128
0.000000 0.240328 0.920773
0.000000 0.239951 1.000000
0.000000 0.375058 0.000000
0.000000 0.374681 0.102503
0.000000 0.374237 0.238148
0.000000 0.373793 0.373793
0.000000 0.373348 0.509437
0.000000 0.372904 0.645082
0.000000 0.372459 0.780726
0.000000 0.372015 0.916371
0.000000 0.371638 1.000000
0.000000 0.506745 0.000000
0.000000 0.506368 0.098101
0.000000 0.505924 0.233746
0.000000 0.505480 0.369391
0.000000 0.505035 0.505035
0.000000 0.504591 0.640680
0.000000 0.504147 0.776324
0.000000 0.503702 0.911969
0.000000 0.503325 1.000000
0.000000 0.638432 0.000000
0.000000 0.638055 0.093700
0.000000 0.637611 0.229344
0.000000 0.637167 0.364989
0.000000 0.636722 0.500633
0.000000 0.636278 0.636278
0.000000 0.635834 0.771923
0.000000 0.635389 0.907567
0.000000 0.635012 1.000000
0.000000 0.770119 0.000000
0.000000 0.769743 0.089298
0.000000 0.769298 0.224942
0.000000 0.768854 0.360587
0.000000 0.768409 0.496231
0.000000 0.767965 0.631876
0.000000 0.767521 0.767521
0.000000 0.767076 0.903165
0.000000 0.766699 1.000000
0.000000 0.901807 0.000000
0.000000 0.901430 0.084896
0.000000 0.900985 0.220540
0.000000 0.900541 0.356185
0.000000 0.900097 0.491830
0.000000 0.899652 0.627474
0.000000 0.899208 0.763119
0.000000 0.898763 0.898763
0.000000 0.898387 1.000000
0.000000 1.000000 0.000000
0.000000 1.000000 0.081162
0.000000 1.000000 0.216807
0.000000 1.000000 0.352452
0.000000 1.000000 0.488096
0.000000 1.000000 0.623741
0.000000 1.000000 0.759386
0.000000 1.000000 0.895030
0.000000 1.000000 1.000000
0.114307 0.000000 0.000000
0.113931 0.000000 0.113931
0.113486 0.000000 0.249575
0.113042 0.000000 0.385220
0.112597 0.000000 0.520864
0.112153 0.000000 0.656509
0.111709 0.000000 0.792154
0.111264 0.000000 0.927798
0.110887 0.000000 1.000000
0.110574 0.110574 0.000000
0.110197 0.110197 0.110197
0.109753 0.109753 0.245842
0.109309 0.109309 0.381487
0.108864 0.108864 0.517131
0.108420 0.108420 0.652776
0.107975 0.107975 0.788420
0.107531 0.107531 0.924065
0.107154 0.107154 1.000000
0.106172 0.242261 0.000000
0.105795 0.241884 0.105795
0.105351 0.241440 0.241440
0.104907 0.240996 0.377085
0.104462 0.240551 0.512729
0.104018 0.240107 0.648374
0.103574 0.239663 0.784019
0.103129 0.239218 0.919663
0.102752 0.238841 1.000000
0.101770 0.373948 0.000000
0.101394 0.373572 0.101394
0.100949 0.373127 0.237038
0.100505 0.372683 0.372683
0.100060 0.372238 0.508327
0.099616 0.371794 0.643972
0.099172 0.371350 0.779617
0.098727 0.370905 0.915261
0.098350 0.370528 1.000000
0.097369 0.505636 0.000000
0.096992 0.505259 0.096992
0.096547 0.504814 0.232636
0.096103 0.504370 0.368281
0.095659 0.503926 0.503926
0.095214 0.503481 0.639570
0.094770 0.503037 0.775215
0.094325 0.502592 0.910859
0.093949 0.502216 1.000000
0.092967 0.637323 0.000000
0.092590 0.636946 0.092590
0.092145 0.636501 0.228234
0.091701 0.636057 0.363879
0.091257 0.635613 0.499524
0.090812 0.635168 0.635168
0.090368 0.634724 0.770813
0.089924 0.634279 0.906457
0.089547 0.633903 1.000000
0.088565 0.769010 0.000000
0.088188 0.768633 0.088188
0.087744 0.768188 0.223832
0.087299 0.767744 0.359477
0.086855 0.767300 0.495122
0.086410 0.766855 0.630766
0.085966 0.766411 0.766411
0.085522 0.765967 0.902056
0.085145 0.765590 1.000000
0.084163 0.900697 0.000000
0.083786 0.900320 0.083786
0.083342 0.899876 0.219431
0.082897 0.899431 0.355075
0.082453 0.898987 0.490720
0.082008 0.898542 0.626364
0.081564 0.898098 0.762009
0.081120 0.897654 0.897654
0.080743 0.897277 1.000000
0.080430 1.000000 0.000000
0.080053 1.000000 0.080053
0.079608 1.000000 0.215697
0.079164 1.000000 0.351342
0.078720 1.000000 0.486987
0.078275 1.000000 0.622631
0.077831 1.000000 0.758276
0.077386 1.000000 0.893920
0.077010 1.000000 1.000000
0.249088 0.000000 0.000000
0.248711 0.000000 0.112622
0.248267 0.000000 0.248267
0.247822 0.000000 0.383911
0.247378 0.000000 0.519556
0.246934 0.000000 0.655201
0.246489 0.000000 0.790845
0.246045 0.000000 0.926490
0.245668 0.000000 1.000000
0.245355 0.109266 0.000000
0.244978 0.108889 0.108889
0.244533 0.108444 0.244533
0.244089 0.108000 0.380178
0.243645 0.107556 0.515823
0.243200 0.107111 0.651467
0.242756 0.106667 0.787112
0.242312 0.106223 0.922757
0.241935 0.105846 1.000000
0.240953 0.240953 0.000000
0.240576 0.240576 0.104487
0.240132 0.240132 0.240132
0.239687 0.239687 0.375776
0.239243 0.239243 0.511421
0.238798 0.238798 0.647065
0.238354 0.238354 0.782710
0.237910 0.237910 0.918355
0.237533 0.237533 1.000000
0.236551 0.372640 0.000000
0.236174 0.372263 0.100085
0.235730 0.371819 0.235730
0.235285 0.371374 0.371374
0.234841 0.370930 0.507019
0.234397 0.370486 0.642664
0.233952 0.370041 0.778308
0.233508 0.369597 0.913953
0.233131 0.369220 1.000000
0.232149 0.504327 0.000000
0.231772 0.503950 0.095683
0.231328 0.503506 0.231328
0.230883 0.503061 0.366972
0.230439 0.502617 0.502617
0.229995 0.502173 0.638262
0.229550 0.501728 0.773906
0.229106 0.501284 0.909551
0.228729 0.500907 1.000000
0.227747 0.636014 0.000000
0.227370 0.635637 0.091281
0.226926 0.635193 0.226926
0.226482 0.634748 0.362571
0.226037 0.634304 0.498215
0.225593 0.633860 0.633860
0.225148 0.633415 0.769504
0.224704 0.632971 0.905149
0.224327 0.632594 1.000000
0.223345 0.767701 0.000000
0.222968 0.767324 0.086879
0.222524 0.766880 0.222524
0.222080 0.766436 0.358169
0.221635 0.765991 0.493813
0.221191 0.765547 0.629458
0.220746 0.765102 0.765102
0.220302 0.764658 0.900747
0.219925 0.764281 1.000000
0.218943 0.899388 0.000000
0.218566 0.899011 0.082477
0.218122 0.898567 0.218122
0.217678 0.898123 0.353767
0.217233 0.897678 0.489411
0.216789 0.897234 0.625056
0.216345 0.896790 0.760701
0.215900 0.896345 0.896345
0.215523 0.895968 1.000000
0.215210 1.000000 0.000000
0.214833 1.000000 0.078744
0.214389 1.000000 0.214389
0.213944 1.000000 0.350033
0.213500 1.000000 0.485678
0.213056 1.000000 0.621323
0.212611 1.000000 0.756967
0.212167 1.000000 0.892612
0.211790 1.000000 1.000000
0.383868 0.000000 0.000000
0.383492 0.000000 0.111314
0.383047 0.000000 0.246958
0.382603 0.000000 0.382603
0.382158 0.000000 0.518247
0.381714 0.000000 0.653892
0.381270 0.000000 0.789537
0.380825 0.000000 0.925181
0.380448 0.000000 1.000000
0.380135 0.107957 0.000000
0.379758 0.107580 0.107580
0.379314 0.107136 0.243225
0.378870 0.106692 0.378870
0.378425 0.106247 0.514514
0.377981 0.105803 0.650159
0.377536 0.105358 0.785803
0.377092 0.104914 0.921448
0.376715 0.104537 1.000000
0.375733 0.239644 0.000000
0.375356 0.239267 0.103178
0.374912 0.238823 0.238823
0.374468 0.238379 0.374468
0.374023 0.237934 0.510112
0.373579 0.237490 0.645757
0.373135 0.237046 0.781402
0.372690 0.236601 0.917046
0.372313 0.236224 1.000000
0.371331 0.371331 0.000000
0.370955 0.370955 0.098777
0.370510 0.370510 0.234421
0.370066 0.370066 0.370066
0.369621 0.369621 0.505710
0.369177 0.369177 0.641355
0.368733 0.368733 0.777000
0.368288 0.368288 0.912644
0.367911 0.367911 1.000000
0.366930 0.503019 0.000000
0.366553 0.502642 0.094375
0.366108 0.502197 0.230019
0.365664 0.501753 0.365664
0.365220 0.501309 0.501309
0.364775 0.500864 0.636953
0.364331 0.500420 0.772598
0.363886 0.499975 0.908242
0.363510 0.499599 1.000000
0.362528 0.634706 0.000000
0.362151 0.634329 0.089973
0.361706 0.633884 0.225617
0.361262 0.633440 0.361262
0.360818 0.632996 0.496907
0.360373 0.632551 0.632551
0.359929 0.632107 0.768196
0.359484 0.631662 0.903840
0.359108 0.631286 1.000000
0.358126 0.766393 0.000000
0.357749 0.766016 0.085571
0.357304 0.765571 0.221215
0.356860 0.765127 0.356860
0.356416 0.764683 0.492505
0.355971 0.764238 0.628149
0.355527 0.763794 0.763794
0.355083 0.763350 0.899439
0.354706 0.762973 1.000000
0.353724 0.898080 0.000000
0.353347 0.897703 0.081169
0.352903 0.897259 0.216814
0.352458 0.896814 0.352458
0.352014 0.896370 0.488103
0.351569 0.895925 0.623747
0.351125 0.895481 0.759392
0.350681 0.895037 0.895037
0.350304 0.894660 1.000000
0.349991 1.000000 0.000000
0.349614 1.000000 0.077436
0.349169 1.000000 0.213080
0.348725 1.000000 0.348725
0.348281 1.000000 0.484370
0.347836 1.000000 0.620014
0.347392 1.000000 0.755659
0.346947 1.000000 0.891303
0.346571 1.000000 1.000000
0.518649 0.000000 0.000000
0.518272 0.000000 0.110005
0.517828 0.000000 0.245650
0.517383 0.000000 0.381294
0.516939 0.000000 0.516939
0.516495 0.000000 0.652584
0.516050 0.000000 0.788228
0.515606 0.000000 0.923873
0.515229 0.000000 1.000000
0.514916 0.106649 0.000000
0.514539 0.106272 0.106272
0.514094 0.105827 0.241916
0.513650 0.105383 0.377561
0.513206 0.104939 0.513206
0.512761 0.104494 0.648850
0.512317 0.104050 0.784495
0.511873 0.103606 0.920140
0.511496 0.103229 1.000000
0.510514 0.238336 0.000000
0.510137 0.237959 0.101870
0.509693 0.237515 0.237515
0.509248 0.237070 0.373159
0.508804 0.236626 0.508804
0.508359 0.236181 0.644448
0.507915 0.235737 0.780093
0.507471 0.235293 0.915738
0.507094 0.234916 1.000000
0.506112 0.370023 0.000000
0.505735 0.369646 0.097468
0.505291 0.369202 0.233113
0.504846 0.368757 0.368757
0.504402 0.368313 0.504402
0.503958 0.367869 0.640047
0.503513 0.367424 0.775691
0.503069 0.366980 0.911336
0.502692 0.366603 1.000000
0.501710 0.501710 0.000000
0.501333 0.501333 0.093066
0.500889 0.500889 0.228711
0.500444 0.500444 0.364355
0.500000 0.500000 0.500000
0.499556 0.499556 0.635645
0.499111 0.499111 0.771289
0.498667 0.498667 0.906934
0.498290 0.498290 1.000000
0.497308 0.633397 0.000000
0.496931 0.633020 0.088664
0.496487 0.632576 0.224309
0.496042 0.632131 0.359953
0.495598 0.631687 0.495598
0.495154 0.631243 0.631243
0.494709 0.630798 0.766887
0.494265 0.630354 0.902532
0.493888 0.629977 1.000000
0.492906 0.765084 0.000000
0.492529 0.764707 0.084262
0.492085 0.764263 0.219907
0.491641 0.763819 0.355552
0.491196 0.763374 0.491196
0.490752 0.762930 0.626841
0.490307 0.762485 0.762485
0.489863 0.762041 0.898130
0.489486 0.761664 1.000000
0.488504 0.896771 0.000000
0.488127 0.896394 0.079860
0.487683 0.895950 0.215505
0.487239 0.895506 0.351150
0.486794 0.895061 0.486794
0.486350 0.894617 0.622439
0.485906 0.894173 0.758084
0.485461 0.893728 0.893728
0.485084 0.893351 1.000000
0.484771 1.000000 0.000000
0.484394 1.000000 0.076127
0.483950 1.000000 0.211772
0.483505 1.000000 0.347416
0.483061 1.000000 0.483061
0.482617 1.000000 0.618706
0.482172 1.000000 0.754350
0.481728 1.000000 0.889995
0.481351 1.000000 1.000000
0.653429 0.000000 0.000000
0.653053 0.000000 0.108697
0.652608 0.000000 0.244341
0.652164 0.000000 0.379986
0.651719 0.000000 0.515630
0.651275 0.000000 0.651275
0.650831 0.000000 0.786920
0.650386 0.000000 0.922564
0.650009 0.000000 1.000000
0.649696 0.105340 0.000000
0.649319 0.104963 0.104963
0.648875 0.104519 0.240608
0.648431 0.104075 0.376253
0.647986 0.103630 0.511897
0.647542 0.103186 0.647542
0.647097 0.102741 0.783186
0.646653 0.102297 0.918831
0.646276 0.101920 1.000000
0.645294 0.237027 0.000000
0.644917 0.236650 0.100561
0.644473 0.236206 0.236206
0.644029 0.235762 0.371851
0.643584 0.235317 0.507495
0.643140 0.234873 0.643140
0.642696 0.234429 0.778785
0.642251 0.233984 0.914429
0.641874 0.233607 1.000000
0.640892 0.368714 0.000000
0.640516 0.368338 0.096160
0.640071 0.367893 0.231804
0.639627 0.367449 0.367449
0.639182 0.367004 0.503093
0.638738 0.366560 0.638738
0.638294 0.366116 0.774383
0.637849 0.365671 0.910027
0.637472 0.365294 1.000000
0.636490 0.500401 0.000000
0.636114 0.500025 0.091758
0.635669 0.499580 0.227402
0.635225 0.499136 0.363047
0.634780 0.498691 0.498691
0.634336 0.498247 0.634336
0.633892 0.497803 0.769981
0.633447 0.497358 0.905625
0.633070 0.496981 1.000000
0.632089 0.632089 0.000000
0.631712 0.631712 0.087356
0.631267 0.631267 0.223000
0.630823 0.630823 0.358645
0.630379 0.630379 0.494290
0.629934 0.629934 0.629934
0.629490 0.629490 0.765579
0.629045 0.629045 0.901223
0.628669 0.628669 1.000000
0.627687 0.763776 0.000000
0.627310 0.763399 0.082954
0.626865 0.762954 0.218598
0.626421 0.762510 0.354243
0.625977 0.762066 0.489888
0.625532 0.761621 0.625532
0.625088 0.761177 0.761177
0.624644 0.760733 0.896822
0.624267 0.760356 1.000000
0.623285 0.895463 0.000000
0.622908 0.895086 0.078552
0.622464 0.894642 0.214197
0.622019 0.894197 0.349841
0.621575 0.893753 0.485486
0.621130 0.893308 0.621130
0.620686 0.892864 0.756775
0.620242 0.892420 0.892420
0.619865 0.892043 1.000000
0.619552 1.000000 0.000000
0.619175 1.000000 0.074819
0.618730 1.000000 0.210463
0.618286 1.000000 0.346108
0.617842 1.000000 0.481753
0.617397 1.000000 0.617397
0.616953 1.000000 0.753042
0.616508 1.000000 0.888686
0.616132 1.000000 1.000000
0.788210 0.000000 0.000000
0.787833 0.000000 0.107388
0.787389 0.000000 0.243033
0.786944 0.000000 0.378677
0.786500 0.000000 0.514322
0.786056 0.000000 0.649967
0.785611 0.000000 0.785611
0.785167 0.000000 0.921256
0.784790 0.000000 1.000000
0.784477 0.104032 0.000000
0.784100 0.103655 0.103655
0.783655 0.103210 0.239299
0.783211 0.102766 0.374944
0.782767 0.102322 0.510589
0.782322 0.101877 0.646233
0.781878 0.101433 0.781878
0.781434 0.100989 0.917523
0.781057 0.100612 1.000000
0.780075 0.235719 0.000000
0.779698 0.235342 0.099253
0.779254 0.234898 0.234898
0.778809 0.234453 0.370542
0.778365 0.234009 0.506187
0.777920 0.233564 0.641831
0.777476 0.233120 0.777476
0.777032 0.232676 0.913121
0.776655 0.232299 1.000000
0.775673 0.367406 0.000000
0.775296 0.367029 0.094851
0.774852 0.366585 0.230496
0.774407 0.366140 0.366140
0.773963 0.365696 0.501785
0.773518 0.365252 0.637429
0.773074 0.364807 0.773074
0.772630 0.364363 0.908719
0.772253 0.363986 1.000000
0.771271 0.499093 0.000000
0.770894 0.498716 0.090449
0.770450 0.498272 0.226094
0.770005 0.497827 0.361738
0.769561 0.497383 0.497383
0.769117 0.496939 0.633028
0.768672 0.496494 0.768672
0.768228 0.496050 0.904317
0.767851 0.495673 1.000000
0.766869 0.630780 0.000000
0.766492 0.630403 0.086047
0.766048 0.629959 0.221692
0.765603 0.629514 0.357336
0.765159 0.629070 0.492981
0.764715 0.628626 0.628626
0.764270 0.628181 0.764270
0.763826 0.627737 0.899915
0.763449 0.627360 1.000000
0.762467 0.762467 0.000000
0.762090 0.762090 0.081645
0.761646 0.761646 0.217290
0.761202 0.761202 0.352935
0.760757 0.760757 0.488579
0.760313 0.760313 0.624224
0.759868 0.759868 0.759868
0.759424 0.759424 0.895513
0.759047 0.759047 1.000000
0.758065 0.894154 0.000000
0.757688 0.893777 0.077243
0.757244 0.893333 0.212888
0.756800 0.892889 0.348533
0.756355 0.892444 0.484177
0.755911 0.892000 0.619822
0.755467 0.891556 0.755467
0.755022 0.891111 0.891111
0.754645 0.890734 1.000000
0.754332 1.000000 0.000000
0.753955 1.000000 0.073510
0.753511 1.000000 0.209155
0.753066 1.000000 0.344799
0.752622 1.000000 0.480444
0.752178 1.000000 0.616089
0.751733 1.000000 0.751733
0.751289 1.000000 0.887378
0.750912 1.000000 1.000000
0.922990 0.000000 0.000000
0.922614 0.000000 0.106080
0.922169 0.000000 0.241724
0.921725 0.000000 0.377369
0.921280 0.000000 0.513013
0.920836 0.000000 0.648658
0.920392 0.000000 0.784303
0.919947 0.000000 0.919947
0.919570 0.000000 1.000000
0.919257 0.102723 0.000000
0.918880 0.102346 0.102346
0.918436 0.101902 0.237991
0.917992 0.101458 0.373636
0.917547 0.101013 0.509280
0.917103 0.100569 0.644925
0.916658 0.100124 0.780569
0.916214 0.099680 0.916214
0.915837 0.099303 1.000000
0.914855 0.234410 0.000000
0.914478 0.234033 0.097944
0.914034 0.233589 0.233589
0.913590 0.233145 0.369234
0.913145 0.232700 0.504878
0.912701 0.232256 0.640523
0.912256 0.231812 0.776168
0.911812 0.231367 0.911812
0.911435 0.230990 1.000000
0.910453 0.366097 0.000000
0.910076 0.365721 0.093543
0.909632 0.365276 0.229187
0.909188 0.364832 0.364832
0.908743 0.364387 0.500476
0.908299 0.363943 0.636121
0.907855 0.363499 0.771766
0.907410 0.363054 0.907410
0.907033 0.362677 1.000000
0.906051 0.497784 0.000000
0.905675 0.497408 0.089141
0.905230 0.496963 0.224785
0.904786 0.496519 0.360430
0.904341 0.496074 0.496074
0.903897 0.495630 0.631719
0.903453 0.495186 0.767364
0.903008 0.494741 0.903008
0.902631 0.494364 1.000000
0.901650 0.629472 0.000000
0.901273 0.629095 0.084739
0.900828 0.628650 0.220383
0.900384 0.628206 0.356028
0.899940 0.627762 0.491673
0.899495 0.627317 0.627317
0.899051 0.626873 0.762962
0.898606 0.626428 0.898606
0.898230 0.626052 1.000000
0.897248 0.761159 0.000000
0.896871 0.760782 0.080337
0.896426 0.760337 0.215981
0.895982 0.759893 0.351626
0.895538 0.759449 0.487271
0.895093 0.759004 0.622915
0.894649 0.758560 0.758560
0.894205 0.758116 0.894205
0.893828 0.757739 1.000000
0.892846 0.892846 0.000000
0.892469 0.892469 0.075935
0.892025 0.892025 0.211580
0.891580 0.891580 0.347224
0.891136 0.891136 0.482869
0.890691 0.890691 0.618513
0.890247 0.890247 0.754158
0.889803 0.889803 0.889803
0.889426 0.889426 1.000000
0.889113 1.000000 0.000000
0.888736 1.000000 0.072202
0.888291 1.000000 0.207846
0.887847 1.000000 0.343491
0.887403 1.000000 0.479136
0.886958 1.000000 0.614780
0.886514 1.000000 0.750425
0.886069 1.000000 0.886069
0.885693 1.000000 1.000000
1.000000 0.000000 0.000000
1.000000 0.000000 0.104970
1.000000 0.000000 0.240614
1.000000 0.000000 0.376259
1.000000 0.000000 0.511904
1.000000 0.000000 0.647548
1.000000 0.000000 0.783193
1.000000 0.000000 0.918838
1.000000 0.000000 1.000000
1.000000 0.101613 0.000000
1.000000 0.101237 0.101237
1.000000 0.100792 0.236881
1.000000 0.100348 0.372526
1.000000 0.099903 0.508170
1.000000 0.099459 0.643815
1.000000 0.099015 0.779460
1.000000 0.098570 0.915104
1.000000 0.098193 1.000000
1.000000 0.233301 0.000000
1.000000 0.232924 0.096835
1.000000 0.232479 0.232479
1.000000 0.232035 0.368124
1.000000 0.231591 0.503769
1.000000 0.231146 0.639413
1.000000 0.230702 0.775058
1.000000 0.230257 0.910702
1.000000 0.229881 1.000000
1.000000 0.364988 0.000000
1.000000 0.364611 0.092433
1.000000 0.364166 0.228077
1.000000 0.363722 0.363722
1.000000 0.363278 0.499367
1.000000 0.362833 0.635011
1.000000 0.362389 0.770656
1.000000 0.361945 0.906300
1.000000 0.361568 1.000000
1.000000 0.496675 0.000000
1.000000 0.496298 0.088031
1.000000 0.495853 0.223676
1.000000 0.495409 0.359320
1.000000 0.494965 0.494965
1.000000 0.494520 0.630609
1.000000 0.494076 0.766254
1.000000 0.493632 0.901899
1.000000 0.493255 1.000000
1.000000 0.628362 0.000000
1.000000 0.627985 0.083629
1.000000 0.627541 0.219274
1.000000 0.627096 0.354918
1.000000 0.626652 0.490563
1.000000 0.626207 0.626207
1.000000 0.625763 0.761852
1.000000 0.625319 0.897497
1.000000 0.624942 1.000000
1.000000 0.760049 0.000000
1.000000 0.759672 0.079227
1.000000 0.759228 0.214872
1.000000 0.758783 0.350516
1.000000 0.758339 0.486161
1.000000 0.757895 0.621806
1.000000 0.757450 0.757450
1.000000 0.757006 0.893095
1.000000 0.756629 1.000000
1.000000 0.891736 0.000000
1.000000 0.891359 0.074825
1.000000 0.890915 0.210470
1.000000 0.890470 0.346114
1.000000 0.890026 0.481759
1.000000 0.889582 0.617404
1.000000 0.889137 0.753048
1.000000 0.888693 0.888693
1.000000 0.888316 1.000000
1.000000 1.000000 0.000000
1.000000 1.000000 0.071092
1.000000 1.000000 0.206737
1.000000 1.000000 0.342381
1.000000 1.000000 0.478026
1.000000 1.000000 0.613670
1.000000 1.000000 0.749315
1.000000 1.000000 0.884960
1.000000 1.000000 1.000000
