skills/creativeops-producer/assets/grade/luts/product_clean_v16.cube
TITLE "product_clean_v16"
LUT_3D_SIZE 17
DOMAIN_MIN 0.0 0.0 0.0
DOMAIN_MAX 1.0 1.0 1.0
0.000000 0.000000 0.000000
0.000000 0.000000 0.047218
0.000000 0.000000 0.115040
0.000000 0.000000 0.182863
0.000000 0.000000 0.250685
0.000000 0.000000 0.318507
0.000000 0.000000 0.386330
0.000000 0.000000 0.454152
0.000000 0.000000 0.521974
0.000000 0.000000 0.589797
0.000000 0.000000 0.657619
0.000000 0.000000 0.725441
0.000000 0.000000 0.793263
0.000000 0.000000 0.861086
0.000000 0.000000 0.928908
0.000000 0.000000 0.996730
0.000000 0.000000 1.000000
0.000000 0.045840 0.000000
0.000000 0.045686 0.045686
0.000000 0.045464 0.113508
0.000000 0.045241 0.181330
0.000000 0.045019 0.249153
0.000000 0.044797 0.316975
0.000000 0.044575 0.384797
0.000000 0.044353 0.452620
0.000000 0.044130 0.520442
0.000000 0.043908 0.588264
0.000000 0.043686 0.656087
0.000000 0.043464 0.723909
0.000000 0.043242 0.791731
0.000000 0.043020 0.859553
0.000000 0.042797 0.927376
0.000000 0.042575 0.995198
0.000000 0.042420 1.000000
0.000000 0.111684 0.000000
0.000000 0.111529 0.043485
0.000000 0.111307 0.111307
0.000000 0.111085 0.179129
0.000000 0.110863 0.246952
0.000000 0.110641 0.314774
0.000000 0.110418 0.382596
0.000000 0.110196 0.450419
0.000000 0.109974 0.518241
0.000000 0.109752 0.586063
0.000000 0.109530 0.653886
0.000000 0.109307 0.721708
0.000000 0.109085 0.789530
0.000000 0.108863 0.857352
0.000000 0.108641 0.925175
0.000000 0.108419 0.992997
0.000000 0.108264 1.000000
0.000000 0.177528 0.000000
0.000000 0.177373 0.041284
0.000000 0.177151 0.109106
0.000000 0.176928 0.176928
0.000000 0.176706 0.244751
0.000000 0.176484 0.312573
0.000000 0.176262 0.380395
0.000000 0.176040 0.448218
0.000000 0.175818 0.516040
0.000000 0.175595 0.583862
0.000000 0.175373 0.651685
0.000000 0.175151 0.719507
0.000000 0.174929 0.787329
0.000000 0.174707 0.855152
0.000000 0.174484 0.922974
0.000000 0.174262 0.990796
0.000000 0.174108 1.000000
0.000000 0.243371 0.000000
0.000000 0.243216 0.039083
0.000000 0.242994 0.106905
0.000000 0.242772 0.174728
0.000000 0.242550 0.242550
0.000000 0.242328 0.310372
0.000000 0.242105 0.378194
0.000000 0.241883 0.446017
0.000000 0.241661 0.513839
0.000000 0.241439 0.581661
0.000000 0.241217 0.649484
0.000000 0.240995 0.717306
0.000000 0.240772 0.785128
0.000000 0.240550 0.852951
0.000000 0.240328 0.920773
0.000000 0.240106 0.988595
0.000000 0.239951 1.000000
0.000000 0.309215 0.000000
0.000000 0.309060 0.036882
0.000000 0.308838 0.104704
0.000000 0.308616 0.172527
0.000000 0.308393 0.240349
0.000000 0.308171 0.308171
0.000000 0.307949 0.375993
0.000000 0.307727 0.443816
0.000000 0.307505 0.511638
0.000000 0.307282 0.579460
0.000000 0.307060 0.647283
0.000000 0.306838 0.715105
0.000000 0.306616 0.782927
0.000000 0.306394 0.850750
0.000000 0.306172 0.918572
0.000000 0.305949 0.986394
0.000000 0.305795 1.000000
0.000000 0.375058 0.000000
0.000000 0.374903 0.034681
0.000000 0.374681 0.102503
0.000000 0.374459 0.170326
0.000000 0.374237 0.238148
0.000000 0.374015 0.305970
0.000000 0.373793 0.373793
0.000000 0.373570 0.441615
0.000000 0.373348 0.509437
0.000000 0.373126 0.577259
0.000000 0.372904 0.645082
0.000000 0.372682 0.712904
0.000000 0.372459 0.780726
0.000000 0.372237 0.848549
0.000000 0.372015 0.916371
0.000000 0.371793 0.984193
0.000000 0.371638 1.000000
0.000000 0.440902 0.000000
0.000000 0.440747 0.032480
0.000000 0.440525 0.100302
0.000000 0.440303 0.168125
0.000000 0.440080 0.235947
0.000000 0.439858 0.303769
0.000000 0.439636 0.371592
0.000000 0.439414 0.439414
0.000000 0.439192 0.507236
0.000000 0.438970 0.575059
0.000000 0.438747 0.642881
0.000000 0.438525 0.710703
0.000000 0.438303 0.778525
0.000000 0.438081 0.846348
0.000000 0.437859 0.914170
0.000000 0.437636 0.981992
0.000000 0.437482 1.000000
0.000000 0.506745 0.000000
0.000000 0.506591 0.030279
0.000000 0.506368 0.098101
0.000000 0.506146 0.165924
0.000000 0.505924 0.233746
0.000000 0.505702 0.301568
0.000000 0.505480 0.369391
0.000000 0.505257 0.437213
0.000000 0.505035 0.505035
0.000000 0.504813 0.572858
0.000000 0.504591 0.640680
0.000000 0.504369 0.708502
0.000000 0.504147 0.776324
0.000000 0.503924 0.844147
0.000000 0.503702 0.911969
0.000000 0.503480 0.979791
0.000000 0.503325 1.000000
0.000000 0.572589 0.000000
0.000000 0.572434 0.028078
0.000000 0.572212 0.095900
0.000000 0.571990 0.163723
0.000000 0.571768 0.231545
0.000000 0.571545 0.299367
0.000000 0.571323 0.367190
0.000000 0.571101 0.435012
0.000000 0.570879 0.502834
0.000000 0.570657 0.570657
0.000000 0.570434 0.638479
0.000000 0.570212 0.706301
0.000000 0.569990 0.774124
0.000000 0.569768 0.841946
0.000000 0.569546 0.909768
0.000000 0.569323 0.977590
0.000000 0.569169 1.000000
0.000000 0.638432 0.000000
0.000000 0.638278 0.025877
0.000000 0.638055 0.093700
0.000000 0.637833 0.161522
0.000000 0.637611 0.229344
0.000000 0.637389 0.297166
0.000000 0.637167 0.364989
0.000000 0.636945 0.432811
0.000000 0.636722 0.500633
0.000000 0.636500 0.568456
0.000000 0.636278 0.636278
0.000000 0.636056 0.704100
0.000000 0.635834 0.771923
0.000000 0.635611 0.839745
0.000000 0.635389 0.907567
0.000000 0.635167 0.975390
0.000000 0.635012 1.000000
0.000000 0.704276 0.000000
0.000000 0.704121 0.023676
0.000000 0.703899 0.091499
0.000000 0.703677 0.159321
0.000000 0.703455 0.227143
0.000000 0.703232 0.294965
0.000000 0.703010 0.362788
0.000000 0.702788 0.430610
0.000000 0.702566 0.498432
0.000000 0.702344 0.566255
0.000000 0.702122 0.634077
0.000000 0.701899 0.701899
0.000000 0.701677 0.769722
0.000000 0.701455 0.837544
0.000000 0.701233 0.905366
0.000000 0.701011 0.973189
0.000000 0.700856 1.000000
0.000000 0.770119 0.000000
0.000000 0.769965 0.021475
0.000000 0.769743 0.089298
0.000000 0.769520 0.157120
0.000000 0.769298 0.224942
0.000000 0.769076 0.292765
0.000000 0.768854 0.360587
0.000000 0.768632 0.428409
0.000000 0.768409 0.496231
0.000000 0.768187 0.564054
0.000000 0.767965 0.631876
0.000000 0.767743 0.699698
0.000000 0.767521 0.767521
0.000000 0.767299 0.835343
0.000000 0.767076 0.903165
0.000000 0.766854 0.970988
0.000000 0.766699 1.000000
0.000000 0.835963 0.000000
0.000000 0.835808 0.019274
0.000000 0.835586 0.087097
0.000000 0.835364 0.154919
0.000000 0.835142 0.222741
0.000000 0.834920 0.290564
0.000000 0.834697 0.358386
0.000000 0.834475 0.426208
0.000000 0.834253 0.494031
0.000000 0.834031 0.561853
0.000000 0.833809 0.629675
0.000000 0.833586 0.697497
0.000000 0.833364 0.765320
0.000000 0.833142 0.833142
0.000000 0.832920 0.900964
0.000000 0.832698 0.968787
0.000000 0.832543 1.000000
0.000000 0.901807 0.000000
0.000000 0.901652 0.017073
0.000000 0.901430 0.084896
0.000000 0.901207 0.152718
0.000000 0.900985 0.220540
0.000000 0.900763 0.288363
0.000000 0.900541 0.356185
0.000000 0.900319 0.424007
0.000000 0.900097 0.491830
0.000000 0.899874 0.559652
0.000000 0.899652 0.627474
0.000000 0.899430 0.695296
0.000000 0.899208 0.763119
0.000000 0.898986 0.830941
0.000000 0.898763 0.898763
0.000000 0.898541 0.966586
0.000000 0.898387 1.000000
0.000000 0.967650 0.000000
0.000000 0.967495 0.014872
0.000000 0.967273 0.082695
0.000000 0.967051 0.150517
0.000000 0.966829 0.218339
0.000000 0.966607 0.286162
0.000000 0.966384 0.353984
0.000000 0.966162 0.421806
0.000000 0.965940 0.489629
0.000000 0.965718 0.557451
0.000000 0.965496 0.625273
0.000000 0.965274 0.693096
0.000000 0.965051 0.760918
0.000000 0.964829 0.828740
0.000000 0.964607 0.896562
0.000000 0.964385 0.964385
0.000000 0.964230 1.000000
0.000000 1.000000 0.000000
0.000000 1.000000 0.013340
0.000000 1.000000 0.081162
0.000000 1.000000 0.148985
0.000000 1.000000 0.216807
0.000000 1.000000 0.284629
0.000000 1.000000 0.352452
0.000000 1.000000 0.420274
0.000000 1.000000 0.488096
0.000000 1.000000 0.555919
0.000000 1.000000 0.623741
0.000000 1.000000 0.691563
0.000000 1.000000 0.759386
0.000000 1.000000 0.827208
0.000000 1.000000 0.895030
0.000000 1.000000 0.962852
0.000000 1.000000 1.000000
0.046917 0.000000 0.000000
0.046763 0.000000 0.046763
0.046540 0.000000 0.114585
0.046318 0.000000 0.182407
0.046096 0.000000 0.250229
0.045874 0.000000 0.318052
0.045652 0.000000 0.385874
0.045429 0.000000 0.453696
0.045207 0.000000 0.521519
0.044985 0.000000 0.589341
0.044763 0.000000 0.657163
0.044541 0.000000 0.724986
0.044319 0.000000 0.792808
0.044096 0.000000 0.860630
0.043874 0.000000 0.928453
0.043652 0.000000 0.996275
0.043497 0.000000 1.000000
0.045385 0.045385 0.000000
0.045230 0.045230 0.045230
0.045008 0.045008 0.113053
0.044786 0.044786 0.180875
0.044564 0.044564 0.248697
0.044342 0.044342 0.316519
0.044119 0.044119 0.384342
0.043897 0.043897 0.452164
0.043675 0.043675 0.519986
0.043453 0.043453 0.587809
0.043231 0.043231 0.655631
0.043008 0.043008 0.723453
0.042786 0.042786 0.791276
0.042564 0.042564 0.859098
0.042342 0.042342 0.926920
0.042120 0.042120 0.994743
0.041965 0.041965 1.000000
0.043184 0.111228 0.000000
0.043029 0.111074 0.043029
0.042807 0.110852 0.110852
0.042585 0.110629 0.178674
0.042363 0.110407 0.246496
0.042141 0.110185 0.314319
0.041918 0.109963 0.382141
0.041696 0.109741 0.449963
0.041474 0.109518 0.517785
0.041252 0.109296 0.585608
0.041030 0.109074 0.653430
0.040807 0.108852 0.721252
0.040585 0.108630 0.789075
0.040363 0.108408 0.856897
0.040141 0.108185 0.924719
0.039919 0.107963 0.992542
0.039764 0.107808 1.000000
0.040983 0.177072 0.000000
0.040828 0.176917 0.040828
0.040606 0.176695 0.108651
0.040384 0.176473 0.176473
0.040162 0.176251 0.244295
0.039940 0.176029 0.312118
0.039717 0.175806 0.379940
0.039495 0.175584 0.447762
0.039273 0.175362 0.515585
0.039051 0.175140 0.583407
0.038829 0.174918 0.651229
0.038606 0.174695 0.719051
0.038384 0.174473 0.786874
0.038162 0.174251 0.854696
0.037940 0.174029 0.922518
0.037718 0.173807 0.990341
0.037563 0.173652 1.000000
0.038782 0.242916 0.000000
0.038627 0.242761 0.038627
0.038405 0.242539 0.106450
0.038183 0.242317 0.174272
0.037961 0.242094 0.242094
0.037739 0.241872 0.309917
0.037516 0.241650 0.377739
0.037294 0.241428 0.445561
0.037072 0.241206 0.513384
0.036850 0.240983 0.581206
0.036628 0.240761 0.649028
0.036406 0.240539 0.716850
0.036183 0.240317 0.784673
0.035961 0.240095 0.852495
0.035739 0.239872 0.920317
0.035517 0.239650 0.988140
0.035362 0.239496 1.000000
0.036581 0.308759 0.000000
0.036426 0.308604 0.036426
0.036204 0.308382 0.104249
0.035982 0.308160 0.172071
0.035760 0.307938 0.239893
0.035538 0.307716 0.307716
0.035316 0.307494 0.375538
0.035093 0.307271 0.443360
0.034871 0.307049 0.511183
0.034649 0.306827 0.579005
0.034427 0.306605 0.646827
0.034205 0.306383 0.714650
0.033982 0.306160 0.782472
0.033760 0.305938 0.850294
0.033538 0.305716 0.918116
0.033316 0.305494 0.985939
0.033161 0.305339 1.000000
0.034380 0.374603 0.000000
0.034226 0.374448 0.034226
0.034003 0.374226 0.102048
0.033781 0.374004 0.169870
0.033559 0.373781 0.237692
0.033337 0.373559 0.305515
0.033115 0.373337 0.373337
0.032892 0.373115 0.441159
0.032670 0.372893 0.508982
0.032448 0.372670 0.576804
0.032226 0.372448 0.644626
0.032004 0.372226 0.712449
0.031781 0.372004 0.780271
0.031559 0.371782 0.848093
0.031337 0.371560 0.915916
0.031115 0.371337 0.983738
0.030960 0.371183 1.000000
0.032179 0.440446 0.000000
0.032025 0.440292 0.032025
0.031802 0.440069 0.099847
0.031580 0.439847 0.167669
0.031358 0.439625 0.235491
0.031136 0.439403 0.303314
0.030914 0.439181 0.371136
0.030691 0.438958 0.438958
0.030469 0.438736 0.506781
0.030247 0.438514 0.574603
0.030025 0.438292 0.642425
0.029803 0.438070 0.710248
0.029581 0.437847 0.778070
0.029358 0.437625 0.845892
0.029136 0.437403 0.913715
0.028914 0.437181 0.981537
0.028759 0.437026 1.000000
0.029978 0.506290 0.000000
0.029824 0.506135 0.029824
0.029601 0.505913 0.097646
0.029379 0.505691 0.165468
0.029157 0.505469 0.233291
0.028935 0.505246 0.301113
0.028713 0.505024 0.368935
0.028490 0.504802 0.436757
0.028268 0.504580 0.504580
0.028046 0.504358 0.572402
0.027824 0.504135 0.640224
0.027602 0.503913 0.708047
0.027380 0.503691 0.775869
0.027157 0.503469 0.843691
0.026935 0.503247 0.911514
0.026713 0.503024 0.979336
0.026558 0.502870 1.000000
0.027777 0.572133 0.000000
0.027623 0.571979 0.027623
0.027400 0.571756 0.095445
0.027178 0.571534 0.163267
0.026956 0.571312 0.231090
0.026734 0.571090 0.298912
0.026512 0.570868 0.366734
0.026290 0.570646 0.434557
0.026067 0.570423 0.502379
0.025845 0.570201 0.570201
0.025623 0.569979 0.638023
0.025401 0.569757 0.705846
0.025179 0.569535 0.773668
0.024956 0.569312 0.841490
0.024734 0.569090 0.909313
0.024512 0.568868 0.977135
0.024357 0.568713 1.000000
0.025576 0.637977 0.000000
0.025422 0.637822 0.025422
0.025200 0.637600 0.093244
0.024977 0.637378 0.161066
0.024755 0.637156 0.228889
0.024533 0.636933 0.296711
0.024311 0.636711 0.364533
0.024089 0.636489 0.432356
0.023866 0.636267 0.500178
0.023644 0.636045 0.568000
0.023422 0.635822 0.635822
0.023200 0.635600 0.703645
0.022978 0.635378 0.771467
0.022755 0.635156 0.839289
0.022533 0.634934 0.907112
0.022311 0.634712 0.974934
0.022156 0.634557 1.000000
0.023375 0.703820 0.000000
0.023221 0.703666 0.023221
0.022999 0.703444 0.091043
0.022776 0.703221 0.158865
0.022554 0.702999 0.226688
0.022332 0.702777 0.294510
0.022110 0.702555 0.362332
0.021888 0.702333 0.430155
0.021665 0.702110 0.497977
0.021443 0.701888 0.565799
0.021221 0.701666 0.633622
0.020999 0.701444 0.701444
0.020777 0.701222 0.769266
0.020555 0.700999 0.837088
0.020332 0.700777 0.904911
0.020110 0.700555 0.972733
0.019955 0.700400 1.000000
0.021175 0.769664 0.000000
0.021020 0.769509 0.021020
0.020798 0.769287 0.088842
0.020575 0.769065 0.156664
0.020353 0.768843 0.224487
0.020131 0.768621 0.292309
0.019909 0.768398 0.360131
0.019687 0.768176 0.427954
0.019465 0.767954 0.495776
0.019242 0.767732 0.563598
0.019020 0.767510 0.631421
0.018798 0.767287 0.699243
0.018576 0.767065 0.767065
0.018354 0.766843 0.834888
0.018131 0.766621 0.902710
0.017909 0.766399 0.970532
0.017755 0.766244 1.000000
0.018974 0.835507 0.000000
0.018819 0.835353 0.018819
0.018597 0.835131 0.086641
0.018375 0.834908 0.154463
0.018152 0.834686 0.222286
0.017930 0.834464 0.290108
0.017708 0.834242 0.357930
0.017486 0.834020 0.425753
0.017264 0.833797 0.493575
0.017041 0.833575 0.561397
0.016819 0.833353 0.629220
0.016597 0.833131 0.697042
0.016375 0.832909 0.764864
0.016153 0.832687 0.832687
0.015930 0.832464 0.900509
0.015708 0.832242 0.968331
0.015554 0.832087 1.000000
0.016773 0.901351 0.000000
0.016618 0.901196 0.016618
0.016396 0.900974 0.084440
0.016174 0.900752 0.152263
0.015951 0.900530 0.220085
0.015729 0.900308 0.287907
0.015507 0.900085 0.355729
0.015285 0.899863 0.423552
0.015063 0.899641 0.491374
0.014840 0.899419 0.559196
0.014618 0.899197 0.627019
0.014396 0.898974 0.694841
0.014174 0.898752 0.762663
0.013952 0.898530 0.830486
0.013729 0.898308 0.898308
0.013507 0.898086 0.966130
0.013353 0.897931 1.000000
0.014572 0.967195 0.000000
0.014417 0.967040 0.014417
0.014195 0.966818 0.082239
0.013973 0.966596 0.150062
0.013750 0.966373 0.217884
0.013528 0.966151 0.285706
0.013306 0.965929 0.353529
0.013084 0.965707 0.421351
0.012862 0.965485 0.489173
0.012639 0.965262 0.556995
0.012417 0.965040 0.624818
0.012195 0.964818 0.692640
0.011973 0.964596 0.760462
0.011751 0.964374 0.828285
0.011529 0.964151 0.896107
0.011306 0.963929 0.963929
0.011152 0.963775 1.000000
0.013039 1.000000 0.000000
0.012885 1.000000 0.012885
0.012662 1.000000 0.080707
0.012440 1.000000 0.148529
0.012218 1.000000 0.216352
0.011996 1.000000 0.284174
0.011774 1.000000 0.351996
0.011552 1.000000 0.419819
0.011329 1.000000 0.487641
0.011107 1.000000 0.555463
0.010885 1.000000 0.623285
0.010663 1.000000 0.691108
0.010441 1.000000 0.758930
0.010218 1.000000 0.826752
0.009996 1.000000 0.894575
0.009774 1.000000 0.962397
0.009619 1.000000 1.000000
0.114307 0.000000 0.000000
0.114153 0.000000 0.046108
0.113931 0.000000 0.113931
0.113708 0.000000 0.181753
0.113486 0.000000 0.249575
0.113264 0.000000 0.317398
0.113042 0.000000 0.385220
0.112820 0.000000 0.453042
0.112597 0.000000 0.520864
0.112375 0.000000 0.588687
0.112153 0.000000 0.656509
0.111931 0.000000 0.724331
0.111709 0.000000 0.792154
0.111487 0.000000 0.859976
0.111264 0.000000 0.927798
0.111042 0.000000 0.995621
0.110887 0.000000 1.000000
0.112775 0.044731 0.000000
0.112621 0.044576 0.044576
0.112398 0.044354 0.112398
0.112176 0.044132 0.180221
0.111954 0.043909 0.248043
0.111732 0.043687 0.315865
0.111510 0.043465 0.383688
0.111287 0.043243 0.451510
0.111065 0.043021 0.519332
0.110843 0.042799 0.587154
0.110621 0.042576 0.654977
0.110399 0.042354 0.722799
0.110176 0.042132 0.790621
0.109954 0.041910 0.858444
0.109732 0.041688 0.926266
0.109510 0.041465 0.994088
0.109355 0.041311 1.000000
0.110574 0.110574 0.000000
0.110420 0.110420 0.042375
0.110197 0.110197 0.110197
0.109975 0.109975 0.178020
0.109753 0.109753 0.245842
0.109531 0.109531 0.313664
0.109309 0.109309 0.381487
0.109086 0.109086 0.449309
0.108864 0.108864 0.517131
0.108642 0.108642 0.584954
0.108420 0.108420 0.652776
0.108198 0.108198 0.720598
0.107975 0.107975 0.788420
0.107753 0.107753 0.856243
0.107531 0.107531 0.924065
0.107309 0.107309 0.991887
0.107154 0.107154 1.000000
0.108373 0.176418 0.000000
0.108219 0.176263 0.040174
0.107996 0.176041 0.107996
0.107774 0.175819 0.175819
0.107552 0.175597 0.243641
0.107330 0.175374 0.311463
0.107108 0.175152 0.379286
0.106885 0.174930 0.447108
0.106663 0.174708 0.514930
0.106441 0.174486 0.582753
0.106219 0.174263 0.650575
0.105997 0.174041 0.718397
0.105775 0.173819 0.786219
0.105552 0.173597 0.854042
0.105330 0.173375 0.921864
0.105108 0.173152 0.989686
0.104953 0.172998 1.000000
0.106172 0.242261 0.000000
0.106018 0.242107 0.037973
0.105795 0.241884 0.105795
0.105573 0.241662 0.173618
0.105351 0.241440 0.241440
0.105129 0.241218 0.309262
0.104907 0.240996 0.377085
0.104685 0.240774 0.444907
0.104462 0.240551 0.512729
0.104240 0.240329 0.580552
0.104018 0.240107 0.648374
0.103796 0.239885 0.716196
0.103574 0.239663 0.784019
0.103351 0.239440 0.851841
0.103129 0.239218 0.919663
0.102907 0.238996 0.987485
0.102752 0.238841 1.000000
0.103971 0.308105 0.000000
0.103817 0.307950 0.035772
0.103595 0.307728 0.103595
0.103372 0.307506 0.171417
0.103150 0.307284 0.239239
0.102928 0.307061 0.307061
0.102706 0.306839 0.374884
0.102484 0.306617 0.442706
0.102261 0.306395 0.510528
0.102039 0.306173 0.578351
0.101817 0.305951 0.646173
0.101595 0.305728 0.713995
0.101373 0.305506 0.781818
0.101150 0.305284 0.849640
0.100928 0.305062 0.917462
0.100706 0.304840 0.985285
0.100551 0.304685 1.000000
0.101770 0.373948 0.000000
0.101616 0.373794 0.033571
0.101394 0.373572 0.101394
0.101171 0.373349 0.169216
0.100949 0.373127 0.237038
0.100727 0.372905 0.304860
0.100505 0.372683 0.372683
0.100283 0.372461 0.440505
0.100060 0.372238 0.508327
0.099838 0.372016 0.576150
0.099616 0.371794 0.643972
0.099394 0.371572 0.711794
0.099172 0.371350 0.779617
0.098950 0.371127 0.847439
0.098727 0.370905 0.915261
0.098505 0.370683 0.983084
0.098350 0.370528 1.000000
0.099569 0.439792 0.000000
0.099415 0.439637 0.031370
0.099193 0.439415 0.099193
0.098970 0.439193 0.167015
0.098748 0.438971 0.234837
0.098526 0.438749 0.302660
0.098304 0.438526 0.370482
0.098082 0.438304 0.438304
0.097859 0.438082 0.506126
0.097637 0.437860 0.573949
0.097415 0.437638 0.641771
0.097193 0.437415 0.709593
0.096971 0.437193 0.777416
0.096749 0.436971 0.845238
0.096526 0.436749 0.913060
0.096304 0.436527 0.980883
0.096149 0.436372 1.000000
0.097369 0.505636 0.000000
0.097214 0.505481 0.029169
0.096992 0.505259 0.096992
0.096769 0.505036 0.164814
0.096547 0.504814 0.232636
0.096325 0.504592 0.300459
0.096103 0.504370 0.368281
0.095881 0.504148 0.436103
0.095659 0.503926 0.503926
0.095436 0.503703 0.571748
0.095214 0.503481 0.639570
0.094992 0.503259 0.707392
0.094770 0.503037 0.775215
0.094548 0.502815 0.843037
0.094325 0.502592 0.910859
0.094103 0.502370 0.978682
0.093949 0.502216 1.000000
0.095168 0.571479 0.000000
0.095013 0.571324 0.026968
0.094791 0.571102 0.094791
0.094569 0.570880 0.162613
0.094346 0.570658 0.230435
0.094124 0.570436 0.298258
0.093902 0.570213 0.366080
0.093680 0.569991 0.433902
0.093458 0.569769 0.501725
0.093235 0.569547 0.569547
0.093013 0.569325 0.637369
0.092791 0.569103 0.705191
0.092569 0.568880 0.773014
0.092347 0.568658 0.840836
0.092124 0.568436 0.908658
0.091902 0.568214 0.976481
0.091748 0.568059 1.000000
0.092967 0.637323 0.000000
0.092812 0.637168 0.024767
0.092590 0.636946 0.092590
0.092368 0.636724 0.160412
0.092145 0.636501 0.228234
0.091923 0.636279 0.296057
0.091701 0.636057 0.363879
0.091479 0.635835 0.431701
0.091257 0.635613 0.499524
0.091034 0.635390 0.567346
0.090812 0.635168 0.635168
0.090590 0.634946 0.702991
0.090368 0.634724 0.770813
0.090146 0.634502 0.838635
0.089924 0.634279 0.906457
0.089701 0.634057 0.974280
0.089547 0.633903 1.000000
0.090766 0.703166 0.000000
0.090611 0.703011 0.022567
0.090389 0.702789 0.090389
0.090167 0.702567 0.158211
0.089944 0.702345 0.226033
0.089722 0.702123 0.293856
0.089500 0.701901 0.361678
0.089278 0.701678 0.429500
0.089056 0.701456 0.497323
0.088834 0.701234 0.565145
0.088611 0.701012 0.632967
0.088389 0.700790 0.700790
0.088167 0.700567 0.768612
0.087945 0.700345 0.836434
0.087723 0.700123 0.904257
0.087500 0.699901 0.972079
0.087346 0.699746 1.000000
0.088565 0.769010 0.000000
0.088410 0.768855 0.020366
0.088188 0.768633 0.088188
0.087966 0.768411 0.156010
0.087744 0.768188 0.223832
0.087521 0.767966 0.291655
0.087299 0.767744 0.359477
0.087077 0.767522 0.427299
0.086855 0.767300 0.495122
0.086633 0.767078 0.562944
0.086410 0.766855 0.630766
0.086188 0.766633 0.698589
0.085966 0.766411 0.766411
0.085744 0.766189 0.834233
0.085522 0.765967 0.902056
0.085299 0.765744 0.969878
0.085145 0.765590 1.000000
0.086364 0.834853 0.000000
0.086209 0.834699 0.018165
0.085987 0.834476 0.085987
0.085765 0.834254 0.153809
0.085543 0.834032 0.221632
0.085320 0.833810 0.289454
0.085098 0.833588 0.357276
0.084876 0.833365 0.425098
0.084654 0.833143 0.492921
0.084432 0.832921 0.560743
0.084209 0.832699 0.628565
0.083987 0.832477 0.696388
0.083765 0.832254 0.764210
0.083543 0.832032 0.832032
0.083321 0.831810 0.899855
0.083098 0.831588 0.967677
0.082944 0.831433 1.000000
0.084163 0.900697 0.000000
0.084008 0.900542 0.015964
0.083786 0.900320 0.083786
0.083564 0.900098 0.151608
0.083342 0.899876 0.219431
0.083119 0.899653 0.287253
0.082897 0.899431 0.355075
0.082675 0.899209 0.422898
0.082453 0.898987 0.490720
0.082231 0.898765 0.558542
0.082008 0.898542 0.626364
0.081786 0.898320 0.694187
0.081564 0.898098 0.762009
0.081342 0.897876 0.829831
0.081120 0.897654 0.897654
0.080898 0.897431 0.965476
0.080743 0.897277 1.000000
0.081962 0.966540 0.000000
0.081807 0.966386 0.013763
0.081585 0.966163 0.081585
0.081363 0.965941 0.149407
0.081141 0.965719 0.217230
0.080918 0.965497 0.285052
0.080696 0.965275 0.352874
0.080474 0.965053 0.420697
0.080252 0.964830 0.488519
0.080030 0.964608 0.556341
0.079808 0.964386 0.624163
0.079585 0.964164 0.691986
0.079363 0.963942 0.759808
0.079141 0.963719 0.827630
0.078919 0.963497 0.895453
0.078697 0.963275 0.963275
0.078542 0.963120 1.000000
0.080430 1.000000 0.000000
0.080275 1.000000 0.012230
0.080053 1.000000 0.080053
0.079831 1.000000 0.147875
0.079608 1.000000 0.215697
0.079386 1.000000 0.283520
0.079164 1.000000 0.351342
0.078942 1.000000 0.419164
0.078720 1.000000 0.486987
0.078497 1.000000 0.554809
0.078275 1.000000 0.622631
0.078053 1.000000 0.690453
0.077831 1.000000 0.758276
0.077609 1.000000 0.826098
0.077386 1.000000 0.893920
0.077164 1.000000 0.961743
0.077010 1.000000 1.000000
0.181698 0.000000 0.000000
0.181543 0.000000 0.045454
0.181321 0.000000 0.113276
0.181099 0.000000 0.181099
0.180876 0.000000 0.248921
0.180654 0.000000 0.316743
0.180432 0.000000 0.384566
0.180210 0.000000 0.452388
0.179988 0.000000 0.520210
0.179766 0.000000 0.588033
0.179543 0.000000 0.655855
0.179321 0.000000 0.723677
0.179099 0.000000 0.791499
0.178877 0.000000 0.859322
0.178655 0.000000 0.927144
0.178432 0.000000 0.994966
0.178278 0.000000 1.000000
0.180165 0.044076 0.000000
