skills/creativeops-producer/assets/grade/luts/trailer_punch_v10.cube
TITLE "trailer_punch_v10"
LUT_3D_SIZE 9
DOMAIN_MIN 0.0 0.0 0.0
DOMAIN_MAX 1.0 1.0 1.0
0.000000 0.000000 0.000000
0.000000 0.000000 0.083435
0.000000 0.000000 0.229367
0.000000 0.000000 0.380073
0.000000 0.000000 0.533666
0.000000 0.000000 0.689356
0.000000 0.000000 0.846701
0.000000 0.000000 1.000000
0.000000 0.000000 1.000000
0.000000 0.076567 0.000000
0.000000 0.075796 0.075796
0.000000 0.074447 0.221728
0.000000 0.073054 0.372434
0.000000 0.071635 0.526027
0.000000 0.070196 0.681718
0.000000 0.068742 0.839063
0.000000 0.067275 0.997778
0.000000 0.066079 1.000000
0.000000 0.210488 0.000000
0.000000 0.209717 0.062435
0.000000 0.208368 0.208368
0.000000 0.206975 0.359074
0.000000 0.205555 0.512667
0.000000 0.204116 0.668357
0.000000 0.202662 0.825702
0.000000 0.201195 0.984417
0.000000 0.200000 1.000000
0.000000 0.348789 0.000000
0.000000 0.348018 0.048638
0.000000 0.346669 0.194570
0.000000 0.345276 0.345276
0.000000 0.343856 0.498869
0.000000 0.342417 0.654560
0.000000 0.340963 0.811905
0.000000 0.339496 0.970619
0.000000 0.338301 1.000000
0.000000 0.489739 0.000000
0.000000 0.488968 0.034576
0.000000 0.487620 0.180508
0.000000 0.486227 0.331214
0.000000 0.484807 0.484807
0.000000 0.483368 0.640498
0.000000 0.481914 0.797843
0.000000 0.480447 0.956557
0.000000 0.479251 1.000000
0.000000 0.632615 0.000000
0.000000 0.631844 0.020322
0.000000 0.630495 0.166254
0.000000 0.629102 0.316960
0.000000 0.627683 0.470553
0.000000 0.626244 0.626244
0.000000 0.624789 0.783589
0.000000 0.623323 0.942304
0.000000 0.622127 1.000000
0.000000 0.777009 0.000000
0.000000 0.776238 0.005917
0.000000 0.774889 0.151849
0.000000 0.773496 0.302555
0.000000 0.772077 0.456148
0.000000 0.770638 0.611838
0.000000 0.769183 0.769183
0.000000 0.767716 0.927898
0.000000 0.766521 1.000000
0.000000 0.922660 0.000000
0.000000 0.921889 0.000000
0.000000 0.920540 0.137318
0.000000 0.919147 0.288024
0.000000 0.917727 0.441617
0.000000 0.916288 0.597307
0.000000 0.914834 0.754652
0.000000 0.913367 0.913367
0.000000 0.912172 1.000000
0.000000 1.000000 0.000000
0.000000 1.000000 0.000000
0.000000 1.000000 0.125475
0.000000 1.000000 0.276181
0.000000 1.000000 0.429774
0.000000 1.000000 0.585464
0.000000 1.000000 0.742809
0.000000 1.000000 0.901524
0.000000 1.000000 1.000000
0.081935 0.000000 0.000000
0.081164 0.000000 0.081164
0.079815 0.000000 0.227096
0.078422 0.000000 0.377802
0.077003 0.000000 0.531395
0.075564 0.000000 0.687086
0.074110 0.000000 0.844431
0.072643 0.000000 1.000000
0.071447 0.000000 1.000000
0.074296 0.074296 0.000000
0.073525 0.073525 0.073525
0.072177 0.072177 0.219458
0.070784 0.070784 0.370163
0.069364 0.069364 0.523757
0.067925 0.067925 0.679447
0.066471 0.066471 0.836792
0.065004 0.065004 0.995507
0.063808 0.063808 1.000000
0.060936 0.208217 0.000000
0.060165 0.207446 0.060165
0.058816 0.206097 0.206097
0.057423 0.204704 0.356803
0.056004 0.203285 0.510396
0.054565 0.201846 0.666086
0.053110 0.200391 0.823432
0.051643 0.198925 0.982146
0.050448 0.197729 1.000000
0.047138 0.346518 0.000000
0.046367 0.345747 0.046367
0.045018 0.344398 0.192300
0.043626 0.343005 0.343005
0.042206 0.341586 0.496598
0.040767 0.340147 0.652289
0.039313 0.338693 0.809634
0.037846 0.337226 0.968349
0.036650 0.336030 1.000000
0.033076 0.487469 0.000000
0.032305 0.486698 0.032305
0.030956 0.485349 0.178238
0.029564 0.483956 0.328943
0.028144 0.482536 0.482536
0.026705 0.481098 0.638227
0.025251 0.479643 0.795572
0.023784 0.478176 0.954287
0.022588 0.476981 1.000000
0.018822 0.630344 0.000000
0.018051 0.629573 0.018051
0.016703 0.628224 0.163984
0.015310 0.626832 0.314689
0.013890 0.625412 0.468283
0.012451 0.623973 0.623973
0.010997 0.622519 0.781318
0.009530 0.621052 0.940033
0.008334 0.619856 1.000000
0.004417 0.774738 0.000000
0.003646 0.773967 0.003646
0.002297 0.772618 0.149578
0.000904 0.771225 0.300284
0.000000 0.769806 0.453877
0.000000 0.768367 0.609568
0.000000 0.766913 0.766913
0.000000 0.765446 0.925627
0.000000 0.764250 1.000000
0.000000 0.920389 0.000000
0.000000 0.919618 0.000000
0.000000 0.918269 0.135047
0.000000 0.916876 0.285753
0.000000 0.915457 0.439346
0.000000 0.914018 0.595037
0.000000 0.912563 0.752382
0.000000 0.911097 0.911097
0.000000 0.909901 1.000000
0.000000 1.000000 0.000000
0.000000 1.000000 0.000000
0.000000 1.000000 0.123204
0.000000 1.000000 0.273910
0.000000 1.000000 0.427503
0.000000 1.000000 0.583194
0.000000 1.000000 0.740539
0.000000 1.000000 0.899253
0.000000 1.000000 1.000000
0.225245 0.000000 0.000000
0.224474 0.000000 0.077192
0.223125 0.000000 0.223125
0.221732 0.000000 0.373831
0.220312 0.000000 0.527424
0.218873 0.000000 0.683114
0.217419 0.000000 0.840459
0.215952 0.000000 0.999174
0.214757 0.000000 1.000000
0.217606 0.070325 0.000000
0.216835 0.069554 0.069554
0.215486 0.068205 0.215486
0.214093 0.066812 0.366192
0.212674 0.065393 0.519785
0.211235 0.063954 0.675475
0.209781 0.062499 0.832821
0.208314 0.061032 0.991535
0.207118 0.059837 1.000000
0.204245 0.204245 0.000000
0.203474 0.203474 0.056193
0.202126 0.202126 0.202126
0.200733 0.200733 0.352831
0.199313 0.199313 0.506424
0.197874 0.197874 0.662115
0.196420 0.196420 0.819460
0.194953 0.194953 0.978175
0.193757 0.193757 1.000000
0.190448 0.342547 0.000000
0.189677 0.341775 0.042396
0.188328 0.340427 0.188328
0.186935 0.339034 0.339034
0.185516 0.337614 0.492627
0.184077 0.336175 0.648317
0.182622 0.334721 0.805662
0.181155 0.333254 0.964377
0.179960 0.332059 1.000000
0.176386 0.483497 0.000000
0.175615 0.482726 0.028334
0.174266 0.481377 0.174266
0.172873 0.479984 0.324972
0.171454 0.478565 0.478565
0.170015 0.477126 0.634255
0.168560 0.475672 0.791600
0.167094 0.474205 0.950315
0.165898 0.473009 1.000000
0.162132 0.626373 0.000000
0.161361 0.625602 0.014080
0.160012 0.624253 0.160012
0.158619 0.622860 0.310718
0.157200 0.621440 0.464311
0.155761 0.620001 0.620001
0.154306 0.618547 0.777347
0.152840 0.617080 0.936061
0.151644 0.615885 1.000000
0.147727 0.770767 0.000000
0.146955 0.769995 0.000000
0.145607 0.768647 0.145607
0.144214 0.767254 0.296312
0.142794 0.765834 0.449906
0.141355 0.764395 0.605596
0.139901 0.762941 0.762941
0.138434 0.761474 0.921656
0.137239 0.760279 1.000000
0.133196 0.916417 0.000000
0.132425 0.915646 0.000000
0.131076 0.914298 0.131076
0.129683 0.912905 0.281782
0.128263 0.911485 0.435375
0.126824 0.910046 0.591065
0.125370 0.908592 0.748410
0.123903 0.907125 0.907125
0.122708 0.905929 1.000000
0.121353 1.000000 0.000000
0.120581 1.000000 0.000000
0.119233 1.000000 0.119233
0.117840 1.000000 0.269938
0.116420 1.000000 0.423532
0.114981 1.000000 0.579222
0.113527 1.000000 0.736567
0.112060 1.000000 0.895282
0.110865 1.000000 1.000000
0.373242 0.000000 0.000000
0.372471 0.000000 0.073091
0.371122 0.000000 0.219023
0.369729 0.000000 0.369729
0.368310 0.000000 0.523322
0.366871 0.000000 0.679013
0.365416 0.000000 0.836358
0.363950 0.000000 0.995073
0.362754 0.000000 1.000000
0.365603 0.066223 0.000000
0.364832 0.065452 0.065452
0.363483 0.064104 0.211385
0.362090 0.062711 0.362090
0.360671 0.061291 0.515684
0.359232 0.059852 0.671374
0.357778 0.058398 0.828719
0.356311 0.056931 0.987434
0.355115 0.055735 1.000000
0.352243 0.200144 0.000000
0.351472 0.199373 0.052092
0.350123 0.198024 0.198024
0.348730 0.196631 0.348730
0.347310 0.195212 0.502323
0.345871 0.193773 0.658013
0.344417 0.192318 0.815359
0.342950 0.190852 0.974073
0.341755 0.189656 1.000000
0.338445 0.338445 0.000000
0.337674 0.337674 0.038294
0.336325 0.336325 0.184227
0.334932 0.334932 0.334932
0.333513 0.333513 0.488525
0.332074 0.332074 0.644216
0.330620 0.330620 0.801561
0.329153 0.329153 0.960276
0.327957 0.327957 1.000000
0.324383 0.479396 0.000000
0.323612 0.478625 0.024232
0.322263 0.477276 0.170165
0.320870 0.475883 0.320870
0.319451 0.474463 0.474463
0.318012 0.473025 0.630154
0.316558 0.471570 0.787499
0.315091 0.470103 0.946214
0.313895 0.468908 1.000000
0.310129 0.622271 0.000000
0.309358 0.621500 0.009978
0.308009 0.620151 0.155911
0.306616 0.618758 0.306616
0.305197 0.617339 0.460210
0.303758 0.615900 0.615900
0.302304 0.614446 0.773245
0.300837 0.612979 0.931960
0.299641 0.611783 1.000000
0.295724 0.766665 0.000000
0.294953 0.765894 0.000000
0.293604 0.764545 0.141505
0.292211 0.763152 0.292211
0.290791 0.761733 0.445804
0.289352 0.760294 0.601495
0.287898 0.758840 0.758840
0.286431 0.757373 0.917554
0.285236 0.756177 1.000000
0.281193 0.912316 0.000000
0.280422 0.911545 0.000000
0.279073 0.910196 0.126974
0.277680 0.908803 0.277680
0.276261 0.907384 0.431273
0.274822 0.905945 0.586964
0.273367 0.904490 0.744309
0.271901 0.903024 0.903024
0.270705 0.901828 1.000000
0.269350 1.000000 0.000000
0.268579 1.000000 0.000000
0.267230 1.000000 0.115131
0.265837 1.000000 0.265837
0.264417 1.000000 0.419430
0.262978 1.000000 0.575121
0.261524 1.000000 0.732466
0.260057 1.000000 0.891180
0.258862 1.000000 1.000000
0.524075 0.000000 0.000000
0.523303 0.000000 0.068911
0.521955 0.000000 0.214843
0.520562 0.000000 0.365549
0.519142 0.000000 0.519142
0.517703 0.000000 0.674833
0.516249 0.000000 0.832178
0.514782 0.000000 0.990893
0.513587 0.000000 1.000000
0.516436 0.062043 0.000000
0.515665 0.061272 0.061272
0.514316 0.059924 0.207205
0.512923 0.058531 0.357910
0.511504 0.057111 0.511504
0.510065 0.055672 0.667194
0.508610 0.054218 0.824539
0.507143 0.052751 0.983254
0.505948 0.051555 1.000000
0.503075 0.195964 0.000000
0.502304 0.195193 0.047912
0.500955 0.193844 0.193844
0.499563 0.192451 0.344550
0.498143 0.191032 0.498143
0.496704 0.189593 0.653833
0.495250 0.188138 0.811178
0.493783 0.186672 0.969893
0.492587 0.185476 1.000000
0.489278 0.334265 0.000000
0.488507 0.333494 0.034114
0.487158 0.332145 0.180046
0.485765 0.330752 0.330752
0.484345 0.329333 0.484345
0.482906 0.327894 0.640036
0.481452 0.326440 0.797381
0.479985 0.324973 0.956096
0.478790 0.323777 1.000000
0.475216 0.475216 0.000000
0.474445 0.474445 0.020052
0.473096 0.473096 0.165985
0.471703 0.471703 0.316690
0.470283 0.470283 0.470283
0.468844 0.468844 0.625974
0.467390 0.467390 0.783319
0.465923 0.465923 0.942034
0.464728 0.464728 1.000000
0.460962 0.618091 0.000000
0.460191 0.617320 0.005798
0.458842 0.615971 0.151731
0.457449 0.614578 0.302436
0.456029 0.613159 0.456029
0.454591 0.611720 0.611720
0.453136 0.610266 0.769065
0.451669 0.608799 0.927780
0.450474 0.607603 1.000000
0.446556 0.762485 0.000000
0.445785 0.761714 0.000000
0.444436 0.760365 0.137325
0.443044 0.758972 0.288031
0.441624 0.757553 0.441624
0.440185 0.756114 0.597315
0.438731 0.754660 0.754660
0.437264 0.753193 0.913374
0.436068 0.751997 1.000000
0.432026 0.908136 0.000000
0.431254 0.907365 0.000000
0.429906 0.906016 0.122794
0.428513 0.904623 0.273500
0.427093 0.903204 0.427093
0.425654 0.901765 0.582784
0.424200 0.900310 0.740129
0.422733 0.898844 0.898844
0.421538 0.897648 1.000000
0.420182 1.000000 0.000000
0.419411 1.000000 0.000000
0.418062 1.000000 0.110951
0.416670 1.000000 0.261657
0.415250 1.000000 0.415250
0.413811 1.000000 0.570940
0.412357 1.000000 0.728286
0.410890 1.000000 0.887000
0.409694 1.000000 1.000000
0.676967 0.000000 0.000000
0.676196 0.000000 0.064674
0.674847 0.000000 0.210606
0.673454 0.000000 0.361312
0.672034 0.000000 0.514905
0.670596 0.000000 0.670596
0.669141 0.000000 0.827941
0.667674 0.000000 0.986655
0.666479 0.000000 1.000000
0.669328 0.057806 0.000000
0.668557 0.057035 0.057035
0.667208 0.055686 0.202968
0.665815 0.054294 0.353673
0.664396 0.052874 0.507266
0.662957 0.051435 0.662957
0.661503 0.049981 0.820302
0.660036 0.048514 0.979017
0.658840 0.047318 1.000000
0.655968 0.191727 0.000000
0.655196 0.190956 0.043675
0.653848 0.189607 0.189607
0.652455 0.188214 0.340313
0.651035 0.186795 0.493906
0.649596 0.185356 0.649596
0.648142 0.183901 0.806941
0.646675 0.182434 0.965656
0.645480 0.181239 1.000000
0.642170 0.330028 0.000000
0.641399 0.329257 0.029877
0.640050 0.327908 0.175809
0.638657 0.326515 0.326515
0.637238 0.325096 0.480108
0.635799 0.323657 0.635799
0.634344 0.322202 0.793144
0.632878 0.320735 0.951859
0.631682 0.319540 1.000000
0.628108 0.470979 0.000000
0.627337 0.470208 0.015815
0.625988 0.468859 0.161747
0.624595 0.467466 0.312453
0.623176 0.466046 0.466046
0.621737 0.464607 0.621737
0.620283 0.463153 0.779082
0.618816 0.461686 0.937797
0.617620 0.460491 1.000000
0.613854 0.613854 0.000000
0.613083 0.613083 0.001561
0.611734 0.611734 0.147493
0.610341 0.610341 0.298199
0.608922 0.608922 0.451792
0.607483 0.607483 0.607483
0.606029 0.606029 0.764828
0.604562 0.604562 0.923543
0.603366 0.603366 1.000000
0.599449 0.758248 0.000000
0.598678 0.757477 0.000000
0.597329 0.756128 0.133088
0.595936 0.754735 0.283794
0.594516 0.753316 0.437387
0.593077 0.751877 0.593077
0.591623 0.750422 0.750422
0.590156 0.748956 0.909137
0.588961 0.747760 1.000000
0.584918 0.903899 0.000000
0.584147 0.903128 0.000000
0.582798 0.901779 0.118557
0.581405 0.900386 0.269263
0.579985 0.898966 0.422856
0.578547 0.897528 0.578547
0.577092 0.896073 0.735892
0.575625 0.894606 0.894606
0.574430 0.893411 1.000000
0.573075 1.000000 0.000000
0.572303 1.000000 0.000000
0.570955 1.000000 0.106714
0.569562 1.000000 0.257420
0.568142 1.000000 0.411013
0.566703 1.000000 0.566703
0.565249 1.000000 0.724048
0.563782 1.000000 0.882763
0.562587 1.000000 1.000000
0.831484 0.000000 0.000000
0.830713 0.000000 0.060392
0.829364 0.000000 0.206324
0.827971 0.000000 0.357030
0.826552 0.000000 0.510623
0.825113 0.000000 0.666313
0.823658 0.000000 0.823658
0.822192 0.000000 0.982373
0.820996 0.000000 1.000000
0.823845 0.053524 0.000000
0.823074 0.052753 0.052753
0.821725 0.051404 0.198685
0.820333 0.050011 0.349391
0.818913 0.048592 0.502984
0.817474 0.047153 0.658675
0.816020 0.045699 0.816020
0.814553 0.044232 0.974735
0.813357 0.043036 1.000000
0.810485 0.187445 0.000000
0.809714 0.186674 0.039392
0.808365 0.185325 0.185325
0.806972 0.183932 0.336031
0.805552 0.182512 0.489624
0.804113 0.181073 0.645314
0.802659 0.179619 0.802659
0.801192 0.178152 0.961374
0.799997 0.176957 1.000000
0.796687 0.325746 0.000000
0.795916 0.324975 0.025595
0.794567 0.323626 0.171527
0.793174 0.322233 0.322233
0.791755 0.320813 0.475826
0.790316 0.319374 0.631517
0.788862 0.317920 0.788862
0.787395 0.316453 0.947576
0.786199 0.315258 1.000000
0.782625 0.466696 0.000000
0.781854 0.465925 0.011533
0.780505 0.464577 0.157465
0.779112 0.463184 0.308171
0.777693 0.461764 0.461764
0.776254 0.460325 0.617455
0.774800 0.458871 0.774800
0.773333 0.457404 0.933514
0.772137 0.456208 1.000000
0.768371 0.609572 0.000000
0.767600 0.608801 0.000000
0.766251 0.607452 0.143211
0.764859 0.606059 0.293917
0.763439 0.604640 0.447510
0.762000 0.603201 0.603201
0.760546 0.601746 0.760546
0.759079 0.600280 0.919261
0.757883 0.599084 1.000000
0.753966 0.753966 0.000000
0.753195 0.753195 0.000000
0.751846 0.751846 0.128806
0.750453 0.750453 0.279512
0.749034 0.749034 0.433105
0.747595 0.747595 0.588795
0.746140 0.746140 0.746140
0.744673 0.744673 0.904855
0.743478 0.743478 1.000000
0.739435 0.899617 0.000000
0.738664 0.898846 0.000000
0.737315 0.897497 0.114275
0.735922 0.896104 0.264981
0.734503 0.894684 0.418574
0.733064 0.893245 0.574264
0.731609 0.891791 0.731609
0.730143 0.890324 0.890324
0.728947 0.889129 1.000000
0.727592 1.000000 0.000000
0.726821 1.000000 0.000000
0.725472 1.000000 0.102432
0.724079 1.000000 0.253138
0.722659 1.000000 0.406731
0.721221 1.000000 0.562421
0.719766 1.000000 0.719766
0.718299 1.000000 0.878481
0.717104 1.000000 1.000000
0.987346 0.000000 0.000000
0.986575 0.000000 0.056072
0.985226 0.000000 0.202005
0.983833 0.000000 0.352710
0.982414 0.000000 0.506304
0.980975 0.000000 0.661994
0.979521 0.000000 0.819339
0.978054 0.000000 0.978054
0.976858 0.000000 1.000000
0.979708 0.049205 0.000000
0.978936 0.048434 0.048434
0.977588 0.047085 0.194366
0.976195 0.045692 0.345072
0.974775 0.044272 0.498665
0.973336 0.042833 0.654355
0.971882 0.041379 0.811700
0.970415 0.039912 0.970415
0.969220 0.038717 1.000000
0.966347 0.183125 0.000000
0.965576 0.182354 0.035073
0.964227 0.181005 0.181005
0.962834 0.179612 0.331711
0.961415 0.178193 0.485304
0.959976 0.176754 0.640995
0.958521 0.175300 0.798340
0.957055 0.173833 0.957055
0.955859 0.172637 1.000000
0.952549 0.321426 0.000000
0.951778 0.320655 0.021275
0.950429 0.319306 0.167208
0.949037 0.317914 0.317914
0.947617 0.316494 0.471507
0.946178 0.315055 0.627197
0.944724 0.313601 0.784542
0.943257 0.312134 0.943257
0.942061 0.310938 1.000000
0.938487 0.462377 0.000000
0.937716 0.461606 0.007213
0.936368 0.460257 0.153146
0.934975 0.458864 0.303852
0.933555 0.457445 0.457445
0.932116 0.456006 0.613135
0.930662 0.454552 0.770480
0.929195 0.453085 0.929195
0.927999 0.451889 1.000000
0.924233 0.605253 0.000000
0.923462 0.604481 0.000000
0.922114 0.603133 0.138892
0.920721 0.601740 0.289598
0.919301 0.600320 0.443191
0.917862 0.598881 0.598881
0.916408 0.597427 0.756226
0.914941 0.595960 0.914941
0.913745 0.594765 1.000000
0.909828 0.749646 0.000000
0.909057 0.748875 0.000000
0.907708 0.747527 0.124486
0.906315 0.746134 0.275192
0.904896 0.744714 0.428785
0.903457 0.743275 0.584476
0.902003 0.741821 0.741821
0.900536 0.740354 0.900536
0.899340 0.739158 1.000000
0.895297 0.895297 0.000000
0.894526 0.894526 0.000000
0.893177 0.893177 0.109956
0.891784 0.891784 0.260661
0.890365 0.890365 0.414255
0.888926 0.888926 0.569945
0.887472 0.887472 0.727290
0.886005 0.886005 0.886005
0.884809 0.884809 1.000000
0.883454 1.000000 0.000000
0.882683 1.000000 0.000000
0.881334 1.000000 0.098112
0.879941 1.000000 0.248818
0.878522 1.000000 0.402411
0.877083 1.000000 0.558102
0.875628 1.000000 0.715447
0.874162 1.000000 0.874162
0.872966 1.000000 1.000000
1.000000 0.000000 0.000000
1.000000 0.000000 0.052552
1.000000 0.000000 0.198484
1.000000 0.000000 0.349190
1.000000 0.000000 0.502783
1.000000 0.000000 0.658473
1.000000 0.000000 0.815819
1.000000 0.000000 0.974533
1.000000 0.000000 1.000000
1.000000 0.045684 0.000000
1.000000 0.044913 0.044913
1.000000 0.043564 0.190845
1.000000 0.042171 0.341551
1.000000 0.040752 0.495144
1.000000 0.039313 0.650835
1.000000 0.037859 0.808180
1.000000 0.036392 0.966895
1.000000 0.035196 1.000000
1.000000 0.179605 0.000000
1.000000 0.178834 0.031552
1.000000 0.177485 0.177485
1.000000 0.176092 0.328191
1.000000 0.174672 0.481784
1.000000 0.173233 0.637474
1.000000 0.171779 0.794819
1.000000 0.170312 0.953534
1.000000 0.169117 1.000000
1.000000 0.317906 0.000000
1.000000 0.317135 0.017755
1.000000 0.315786 0.163687
1.000000 0.314393 0.314393
1.000000 0.312973 0.467986
1.000000 0.311535 0.623677
1.000000 0.310080 0.781022
1.000000 0.308613 0.939736
1.000000 0.307418 1.000000
1.000000 0.458857 0.000000
1.000000 0.458085 0.003693
1.000000 0.456737 0.149625
1.000000 0.455344 0.300331
1.000000 0.453924 0.453924
1.000000 0.452485 0.609615
1.000000 0.451031 0.766960
1.000000 0.449564 0.925675
1.000000 0.448369 1.000000
1.000000 0.601732 0.000000
1.000000 0.600961 0.000000
1.000000 0.599612 0.135371
1.000000 0.598219 0.286077
1.000000 0.596800 0.439670
1.000000 0.595361 0.595361
1.000000 0.593906 0.752706
1.000000 0.592440 0.911421
1.000000 0.591244 1.000000
1.000000 0.746126 0.000000
1.000000 0.745355 0.000000
1.000000 0.744006 0.120966
1.000000 0.742613 0.271672
1.000000 0.741194 0.425265
1.000000 0.739755 0.580955
1.000000 0.738300 0.738300
1.000000 0.736833 0.897015
1.000000 0.735638 1.000000
1.000000 0.891777 0.000000
1.000000 0.891006 0.000000
1.000000 0.889657 0.106435
1.000000 0.888264 0.257141
1.000000 0.886844 0.410734
1.000000 0.885405 0.566424
1.000000 0.883951 0.723770
1.000000 0.882484 0.882484
1.000000 0.881289 1.000000
1.000000 1.000000 0.000000
1.000000 1.000000 0.000000
1.000000 1.000000 0.094592
1.000000 1.000000 0.245298
1.000000 1.000000 0.398891
1.000000 1.000000 0.554581
1.000000 1.000000 0.711926
1.000000 1.000000 0.870641
1.000000 1.000000 1.000000
