skills/creativeops-producer/assets/grade/luts/trailer_punch_v04.cube
TITLE "trailer_punch_v04"
LUT_3D_SIZE 5
DOMAIN_MIN 0.0 0.0 0.0
DOMAIN_MAX 1.0 1.0 1.0
0.000000 0.000000 0.000000
0.000000 0.000000 0.239222
0.000000 0.000000 0.521670
0.000000 0.000000 0.808809
0.000000 0.000000 1.000000
0.000000 0.226652 0.000000
0.000000 0.225241 0.225241
0.000000 0.223574 0.507689
0.000000 0.221880 0.794828
0.000000 0.220268 1.000000
0.000000 0.494259 0.000000
0.000000 0.492848 0.208733
0.000000 0.491181 0.491181
0.000000 0.489487 0.778320
0.000000 0.487875 1.000000
0.000000 0.766311 0.000000
0.000000 0.764899 0.191952
0.000000 0.763233 0.474399
0.000000 0.761539 0.761539
0.000000 0.759927 1.000000
0.000000 1.000000 0.000000
0.000000 1.000000 0.175983
0.000000 1.000000 0.458431
0.000000 1.000000 0.745570
0.000000 1.000000 1.000000
0.236477 0.000000 0.000000
0.235066 0.000000 0.235066
0.233399 0.000000 0.517514
0.231705 0.000000 0.804653
0.230093 0.000000 1.000000
0.222496 0.222496 0.000000
0.221085 0.221085 0.221085
0.219418 0.219418 0.503533
0.217724 0.217724 0.790672
0.216112 0.216112 1.000000
0.205989 0.490103 0.000000
0.204577 0.488692 0.204577
0.202911 0.487025 0.487025
0.201217 0.485331 0.774164
0.199605 0.483719 1.000000
0.189207 0.762155 0.000000
0.187796 0.760743 0.187796
0.186129 0.759077 0.470243
0.184435 0.757383 0.757383
0.182823 0.755771 1.000000
0.173238 1.000000 0.000000
0.171827 1.000000 0.171827
0.170161 1.000000 0.454275
0.168467 1.000000 0.741414
0.166854 1.000000 1.000000
0.515684 0.000000 0.000000
0.514273 0.000000 0.230159
0.512607 0.000000 0.512607
0.510913 0.000000 0.799746
0.509300 0.000000 1.000000
0.501703 0.217589 0.000000
0.500292 0.216178 0.216178
0.498626 0.214511 0.498626
0.496931 0.212817 0.785765
0.495319 0.211205 1.000000
0.485196 0.485196 0.000000
0.483785 0.483785 0.199670
0.482118 0.482118 0.482118
0.480424 0.480424 0.769257
0.478812 0.478812 1.000000
0.468414 0.757248 0.000000
0.467003 0.755836 0.182889
0.465336 0.754170 0.465336
0.463642 0.752476 0.752476
0.462030 0.750864 1.000000
0.452446 1.000000 0.000000
0.451034 1.000000 0.166920
0.449368 1.000000 0.449368
0.447674 1.000000 0.736507
0.446062 1.000000 1.000000
0.799529 0.000000 0.000000
0.798118 0.000000 0.225170
0.796451 0.000000 0.507618
0.794757 0.000000 0.794757
0.793145 0.000000 1.000000
0.785548 0.212601 0.000000
0.784137 0.211189 0.211189
0.782470 0.209523 0.493637
0.780776 0.207829 0.780776
0.779164 0.206217 1.000000
0.769041 0.480207 0.000000
0.767629 0.478796 0.194682
0.765963 0.477130 0.477130
0.764269 0.475435 0.764269
0.762657 0.473823 1.000000
0.752259 0.752259 0.000000
0.750848 0.750848 0.177900
0.749181 0.749181 0.460348
0.747487 0.747487 0.747487
0.745875 0.745875 1.000000
0.736291 1.000000 0.000000
0.734879 1.000000 0.161932
0.733213 1.000000 0.444379
0.731519 1.000000 0.731519
0.729907 1.000000 1.000000
1.000000 0.000000 0.000000
1.000000 0.000000 0.220424
1.000000 0.000000 0.502871
1.000000 0.000000 0.790011
1.000000 0.000000 1.000000
1.000000 0.207854 0.000000
1.000000 0.206442 0.206442
1.000000 0.204776 0.488890
1.000000 0.203082 0.776029
1.000000 0.201470 1.000000
1.000000 0.475461 0.000000
1.000000 0.474049 0.189935
1.000000 0.472383 0.472383
1.000000 0.470689 0.759522
1.000000 0.469077 1.000000
1.000000 0.747512 0.000000
1.000000 0.746101 0.173153
1.000000 0.744434 0.455601
1.000000 0.742740 0.742740
1.000000 0.741128 1.000000
1.000000 1.000000 0.000000
1.000000 1.000000 0.157185
1.000000 1.000000 0.439633
1.000000 1.000000 0.726772
1.000000 1.000000 1.000000
