skills/creativeops-producer/assets/grade/luts/trailer_punch_v16.cube
TITLE "trailer_punch_v16"
LUT_3D_SIZE 5
DOMAIN_MIN 0.0 0.0 0.0
DOMAIN_MAX 1.0 1.0 1.0
0.000000 0.000000 0.000000
0.000000 0.000000 0.217749
0.000000 0.000000 0.544103
0.000000 0.000000 0.884186
0.000000 0.000000 1.000000
0.000000 0.193920 0.000000
0.000000 0.191244 0.191244
0.000000 0.187234 0.517599
0.000000 0.183055 0.857681
0.000000 0.179328 1.000000
0.000000 0.484560 0.000000
0.000000 0.481884 0.151520
0.000000 0.477874 0.477874
0.000000 0.473695 0.817957
0.000000 0.469968 1.000000
0.000000 0.787426 0.000000
0.000000 0.784750 0.110124
0.000000 0.780740 0.436479
0.000000 0.776561 0.776561
0.000000 0.772834 1.000000
0.000000 1.000000 0.000000
0.000000 1.000000 0.073203
0.000000 1.000000 0.399558
0.000000 1.000000 0.739640
0.000000 1.000000 1.000000
0.212545 0.000000 0.000000
0.209870 0.000000 0.209870
0.205860 0.000000 0.536225
0.201681 0.000000 0.876307
0.197953 0.000000 1.000000
0.186041 0.186041 0.000000
0.183365 0.183365 0.183365
0.179355 0.179355 0.509720
0.175176 0.175176 0.849802
0.171449 0.171449 1.000000
0.146316 0.476681 0.000000
0.143641 0.474006 0.143641
0.139631 0.469996 0.469996
0.135452 0.465817 0.810078
0.131724 0.462089 1.000000
0.104921 0.779547 0.000000
0.102246 0.776872 0.102246
0.098235 0.772861 0.428600
0.094056 0.768683 0.768683
0.090329 0.764955 1.000000
0.068000 1.000000 0.000000
0.065324 1.000000 0.065324
0.061314 1.000000 0.391679
0.057135 1.000000 0.731761
0.053408 1.000000 1.000000
0.531102 0.000000 0.000000
0.528426 0.000000 0.198061
0.524416 0.000000 0.524416
0.520237 0.000000 0.864498
0.516510 0.000000 1.000000
0.504597 0.174232 0.000000
0.501922 0.171557 0.171557
0.497911 0.167546 0.497911
0.493733 0.163368 0.837994
0.490005 0.159640 1.000000
0.464873 0.464873 0.000000
0.462197 0.462197 0.131832
0.458187 0.458187 0.458187
0.454008 0.454008 0.798269
0.450281 0.450281 1.000000
0.423478 0.767739 0.000000
0.420802 0.765063 0.090437
0.416792 0.761053 0.416792
0.412613 0.756874 0.756874
0.408886 0.753147 1.000000
0.386556 1.000000 0.000000
0.383881 1.000000 0.053516
0.379870 1.000000 0.379870
0.375692 1.000000 0.719953
0.371964 1.000000 1.000000
0.863058 0.000000 0.000000
0.860382 0.000000 0.185756
0.856372 0.000000 0.512111
0.852193 0.000000 0.852193
0.848466 0.000000 1.000000
0.836553 0.161927 0.000000
0.833878 0.159252 0.159252
0.829867 0.155241 0.485606
0.825689 0.151062 0.825689
0.821961 0.147335 1.000000
0.796829 0.452568 0.000000
0.794153 0.449892 0.119527
0.790143 0.445882 0.445882
0.785964 0.441703 0.785964
0.782237 0.437976 1.000000
0.755434 0.755434 0.000000
0.752758 0.752758 0.078132
0.748748 0.748748 0.404487
0.744569 0.744569 0.744569
0.740842 0.740842 1.000000
0.718512 1.000000 0.000000
0.715837 1.000000 0.041211
0.711826 1.000000 0.367565
0.707648 1.000000 0.707648
0.703920 1.000000 1.000000
1.000000 0.000000 0.000000
1.000000 0.000000 0.174781
1.000000 0.000000 0.501136
1.000000 0.000000 0.841218
1.000000 0.000000 1.000000
1.000000 0.150952 0.000000
1.000000 0.148276 0.148276
1.000000 0.144266 0.474631
1.000000 0.140087 0.814713
1.000000 0.136360 1.000000
1.000000 0.441593 0.000000
1.000000 0.438917 0.108552
1.000000 0.434907 0.434907
1.000000 0.430728 0.774989
1.000000 0.427001 1.000000
1.000000 0.744458 0.000000
1.000000 0.741783 0.067157
1.000000 0.737773 0.393511
1.000000 0.733594 0.733594
1.000000 0.729866 1.000000
1.000000 1.000000 0.000000
1.000000 1.000000 0.030235
1.000000 1.000000 0.356590
1.000000 1.000000 0.696672
1.000000 1.000000 1.000000
