skills/creativeops-producer/assets/grade/luts/trailer_punch_v10.cube
TITLE "trailer_punch_v10"
LUT_3D_SIZE 17
DOMAIN_MIN 0.0 0.0 0.0
DOMAIN_MAX 1.0 1.0 1.0
0.000000 0.000000 0.000000
0.000000 0.000000 0.014482
0.000000 0.000000 0.083435
0.000000 0.000000 0.155581
0.000000 0.000000 0.229367
0.000000 0.000000 0.304285
0.000000 0.000000 0.380073
0.000000 0.000000 0.456570
0.000000 0.000000 0.533666
0.000000 0.000000 0.611282
0.000000 0.000000 0.689356
0.000000 0.000000 0.767843
0.000000 0.000000 0.846701
0.000000 0.000000 0.925902
0.000000 0.000000 1.000000
0.000000 0.000000 1.000000
0.000000 0.000000 1.000000
0.000000 0.013290 0.000000
0.000000 0.013156 0.013156
0.000000 0.012519 0.082109
0.000000 0.011852 0.154255
0.000000 0.011170 0.228041
0.000000 0.010477 0.302959
0.000000 0.009777 0.378747
0.000000 0.009070 0.455244
0.000000 0.008357 0.532340
0.000000 0.007640 0.609956
0.000000 0.006918 0.688031
0.000000 0.006193 0.766517
0.000000 0.005464 0.845376
0.000000 0.004732 0.924576
0.000000 0.003997 1.000000
0.000000 0.003260 1.000000
0.000000 0.002802 1.000000
0.000000 0.076567 0.000000
0.000000 0.076433 0.006843
0.000000 0.075796 0.075796
0.000000 0.075129 0.147943
0.000000 0.074447 0.221728
0.000000 0.073755 0.296646
0.000000 0.073054 0.372434
0.000000 0.072347 0.448931
0.000000 0.071635 0.526027
0.000000 0.070917 0.603643
0.000000 0.070196 0.681718
0.000000 0.069470 0.760204
0.000000 0.068742 0.839063
0.000000 0.068010 0.918263
0.000000 0.067275 0.997778
0.000000 0.066537 1.000000
0.000000 0.066079 1.000000
0.000000 0.142775 0.000000
0.000000 0.142641 0.000238
0.000000 0.142004 0.069191
0.000000 0.141337 0.141337
0.000000 0.140655 0.215123
0.000000 0.139963 0.290041
0.000000 0.139262 0.365829
0.000000 0.138555 0.442326
0.000000 0.137843 0.519422
0.000000 0.137126 0.597038
0.000000 0.136404 0.675112
0.000000 0.135679 0.753599
0.000000 0.134950 0.832458
0.000000 0.134218 0.911658
0.000000 0.133483 0.991172
0.000000 0.132745 1.000000
0.000000 0.132287 1.000000
0.000000 0.210488 0.000000
0.000000 0.210354 0.000000
0.000000 0.209717 0.062435
0.000000 0.209050 0.134582
0.000000 0.208368 0.208368
0.000000 0.207675 0.283286
0.000000 0.206975 0.359074
0.000000 0.206268 0.435571
0.000000 0.205555 0.512667
0.000000 0.204838 0.590282
0.000000 0.204116 0.668357
0.000000 0.203391 0.746843
0.000000 0.202662 0.825702
0.000000 0.201930 0.904902
0.000000 0.201195 0.984417
0.000000 0.200458 1.000000
0.000000 0.200000 1.000000
0.000000 0.279239 0.000000
0.000000 0.279105 0.000000
0.000000 0.278468 0.055576
0.000000 0.277801 0.127723
0.000000 0.277119 0.201509
0.000000 0.276427 0.276427
0.000000 0.275726 0.352215
0.000000 0.275019 0.428712
0.000000 0.274307 0.505808
0.000000 0.273589 0.583423
0.000000 0.272868 0.661498
0.000000 0.272142 0.739984
0.000000 0.271413 0.818843
0.000000 0.270681 0.898043
0.000000 0.269947 0.977558
0.000000 0.269209 1.000000
0.000000 0.268751 1.000000
0.000000 0.348789 0.000000
0.000000 0.348655 0.000000
0.000000 0.348018 0.048638
0.000000 0.347351 0.120784
0.000000 0.346669 0.194570
0.000000 0.345976 0.269488
0.000000 0.345276 0.345276
0.000000 0.344569 0.421773
0.000000 0.343856 0.498869
0.000000 0.343139 0.576485
0.000000 0.342417 0.654560
0.000000 0.341692 0.733046
0.000000 0.340963 0.811905
0.000000 0.340231 0.891105
0.000000 0.339496 0.970619
0.000000 0.338759 1.000000
0.000000 0.338301 1.000000
0.000000 0.418989 0.000000
0.000000 0.418855 0.000000
0.000000 0.418218 0.041634
0.000000 0.417551 0.113781
0.000000 0.416869 0.187567
0.000000 0.416177 0.262484
0.000000 0.415476 0.338272
0.000000 0.414769 0.414769
0.000000 0.414057 0.491866
0.000000 0.413339 0.569481
0.000000 0.412618 0.647556
0.000000 0.411893 0.726042
0.000000 0.411164 0.804901
0.000000 0.410432 0.884101
0.000000 0.409697 0.963616
0.000000 0.408959 1.000000
0.000000 0.408501 1.000000
0.000000 0.489739 0.000000
0.000000 0.489606 0.000000
0.000000 0.488968 0.034576
0.000000 0.488302 0.106722
0.000000 0.487620 0.180508
0.000000 0.486927 0.255426
0.000000 0.486227 0.331214
0.000000 0.485520 0.407711
0.000000 0.484807 0.484807
0.000000 0.484090 0.562423
0.000000 0.483368 0.640498
0.000000 0.482643 0.718984
0.000000 0.481914 0.797843
0.000000 0.481182 0.877043
0.000000 0.480447 0.956557
0.000000 0.479709 1.000000
0.000000 0.479251 1.000000
0.000000 0.560967 0.000000
0.000000 0.560833 0.000000
0.000000 0.560195 0.027470
0.000000 0.559529 0.099617
0.000000 0.558847 0.173402
0.000000 0.558154 0.248320
0.000000 0.557454 0.324108
0.000000 0.556747 0.400605
0.000000 0.556034 0.477701
0.000000 0.555317 0.555317
0.000000 0.554595 0.633392
0.000000 0.553870 0.711878
0.000000 0.553141 0.790737
0.000000 0.552409 0.869937
0.000000 0.551674 0.949451
0.000000 0.550937 1.000000
0.000000 0.550479 1.000000
0.000000 0.632615 0.000000
0.000000 0.632481 0.000000
0.000000 0.631844 0.020322
0.000000 0.631177 0.092469
0.000000 0.630495 0.166254
0.000000 0.629803 0.241172
0.000000 0.629102 0.316960
0.000000 0.628395 0.393457
0.000000 0.627683 0.470553
0.000000 0.626965 0.548169
0.000000 0.626244 0.626244
0.000000 0.625518 0.704730
0.000000 0.624789 0.783589
0.000000 0.624057 0.862789
0.000000 0.623323 0.942304
0.000000 0.622585 1.000000
0.000000 0.622127 1.000000
0.000000 0.704641 0.000000
0.000000 0.704507 0.000000
0.000000 0.703870 0.013136
0.000000 0.703203 0.085283
0.000000 0.702521 0.159069
0.000000 0.701828 0.233986
0.000000 0.701128 0.309774
0.000000 0.700421 0.386271
0.000000 0.699708 0.463368
0.000000 0.698991 0.540983
0.000000 0.698270 0.619058
0.000000 0.697544 0.697544
0.000000 0.696815 0.776403
0.000000 0.696083 0.855603
0.000000 0.695348 0.935118
0.000000 0.694611 1.000000
0.000000 0.694153 1.000000
0.000000 0.777009 0.000000
0.000000 0.776875 0.000000
0.000000 0.776238 0.005917
0.000000 0.775571 0.078063
0.000000 0.774889 0.151849
0.000000 0.774197 0.226767
0.000000 0.773496 0.302555
0.000000 0.772789 0.379052
0.000000 0.772077 0.456148
0.000000 0.771359 0.533764
0.000000 0.770638 0.611838
0.000000 0.769912 0.690324
0.000000 0.769183 0.769183
0.000000 0.768451 0.848383
0.000000 0.767716 0.927898
0.000000 0.766979 1.000000
0.000000 0.766521 1.000000
0.000000 0.849690 0.000000
0.000000 0.849556 0.000000
0.000000 0.848919 0.000000
0.000000 0.848252 0.070812
0.000000 0.847570 0.144598
0.000000 0.846878 0.219516
0.000000 0.846177 0.295304
0.000000 0.845470 0.371801
0.000000 0.844758 0.448897
0.000000 0.844040 0.526512
0.000000 0.843319 0.604587
0.000000 0.842593 0.683073
0.000000 0.841864 0.761932
0.000000 0.841132 0.841132
0.000000 0.840398 0.920647
0.000000 0.839660 1.000000
0.000000 0.839202 1.000000
0.000000 0.922660 0.000000
0.000000 0.922526 0.000000
0.000000 0.921889 0.000000
0.000000 0.921222 0.063532
0.000000 0.920540 0.137318
0.000000 0.919847 0.212236
0.000000 0.919147 0.288024
0.000000 0.918440 0.364521
0.000000 0.917727 0.441617
0.000000 0.917010 0.519233
0.000000 0.916288 0.597307
0.000000 0.915563 0.675794
0.000000 0.914834 0.754652
0.000000 0.914102 0.833853
0.000000 0.913367 0.913367
0.000000 0.912630 0.993174
0.000000 0.912172 1.000000
0.000000 0.995897 0.000000
0.000000 0.995763 0.000000
0.000000 0.995126 0.000000
0.000000 0.994459 0.056226
0.000000 0.993777 0.130012
0.000000 0.993085 0.204929
0.000000 0.992384 0.280717
0.000000 0.991677 0.357214
0.000000 0.990965 0.434310
0.000000 0.990247 0.511926
0.000000 0.989526 0.590001
0.000000 0.988800 0.668487
0.000000 0.988072 0.747346
0.000000 0.987340 0.826546
0.000000 0.986605 0.906061
0.000000 0.985867 0.985867
0.000000 0.985409 1.000000
0.000000 1.000000 0.000000
0.000000 1.000000 0.000000
0.000000 1.000000 0.000000
0.000000 1.000000 0.051689
0.000000 1.000000 0.125475
0.000000 1.000000 0.200393
0.000000 1.000000 0.276181
0.000000 1.000000 0.352678
0.000000 1.000000 0.429774
0.000000 1.000000 0.507389
0.000000 1.000000 0.585464
0.000000 1.000000 0.663950
0.000000 1.000000 0.742809
0.000000 1.000000 0.822009
0.000000 1.000000 0.901524
0.000000 1.000000 0.981330
0.000000 1.000000 1.000000
0.014221 0.000000 0.000000
0.014088 0.000000 0.014088
0.013450 0.000000 0.083041
0.012784 0.000000 0.155187
0.012102 0.000000 0.228973
0.011409 0.000000 0.303891
0.010709 0.000000 0.379679
0.010002 0.000000 0.456176
0.009289 0.000000 0.533272
0.008572 0.000000 0.610888
0.007850 0.000000 0.688962
0.007125 0.000000 0.767448
0.006396 0.000000 0.846307
0.005664 0.000000 0.925508
0.004929 0.000000 1.000000
0.004191 0.000000 1.000000
0.003733 0.000000 1.000000
0.012896 0.012896 0.000000
0.012762 0.012762 0.012762
0.012124 0.012124 0.081715
0.011458 0.011458 0.153861
0.010776 0.010776 0.227647
0.010083 0.010083 0.302565
0.009383 0.009383 0.378353
0.008676 0.008676 0.454850
0.007963 0.007963 0.531946
0.007246 0.007246 0.609562
0.006524 0.006524 0.687636
0.005799 0.005799 0.766123
0.005070 0.005070 0.844982
0.004338 0.004338 0.924182
0.003603 0.003603 1.000000
0.002866 0.002866 1.000000
0.002408 0.002408 1.000000
0.006583 0.076173 0.000000
0.006449 0.076039 0.006449
0.005812 0.075402 0.075402
0.005145 0.074735 0.147548
0.004463 0.074053 0.221334
0.003770 0.073361 0.296252
0.003070 0.072660 0.372040
0.002363 0.071953 0.448537
0.001650 0.071241 0.525633
0.000933 0.070523 0.603249
0.000211 0.069802 0.681324
0.000000 0.069076 0.759810
0.000000 0.068348 0.838669
0.000000 0.067616 0.917869
0.000000 0.066881 0.997383
0.000000 0.066143 1.000000
0.000000 0.065685 1.000000
0.000000 0.142381 0.000000
0.000000 0.142247 0.000000
0.000000 0.141610 0.068797
0.000000 0.140943 0.140943
0.000000 0.140261 0.214729
0.000000 0.139569 0.289647
0.000000 0.138868 0.365435
0.000000 0.138161 0.441932
0.000000 0.137449 0.519028
0.000000 0.136731 0.596644
0.000000 0.136010 0.674718
0.000000 0.135284 0.753204
0.000000 0.134556 0.832063
0.000000 0.133824 0.911264
0.000000 0.133089 0.990778
0.000000 0.132351 1.000000
0.000000 0.131893 1.000000
0.000000 0.210094 0.000000
0.000000 0.209960 0.000000
0.000000 0.209322 0.062041
0.000000 0.208656 0.134188
0.000000 0.207974 0.207974
0.000000 0.207281 0.282891
0.000000 0.206581 0.358679
0.000000 0.205874 0.435176
0.000000 0.205161 0.512273
0.000000 0.204444 0.589888
0.000000 0.203722 0.667963
0.000000 0.202997 0.746449
0.000000 0.202268 0.825308
0.000000 0.201536 0.904508
0.000000 0.200801 0.984023
0.000000 0.200064 1.000000
0.000000 0.199606 1.000000
0.000000 0.278845 0.000000
0.000000 0.278711 0.000000
0.000000 0.278074 0.055182
0.000000 0.277407 0.127329
0.000000 0.276725 0.201115
0.000000 0.276033 0.276033
0.000000 0.275332 0.351821
0.000000 0.274625 0.428317
0.000000 0.273912 0.505414
0.000000 0.273195 0.583029
0.000000 0.272474 0.661104
0.000000 0.271748 0.739590
0.000000 0.271019 0.818449
0.000000 0.270287 0.897649
0.000000 0.269552 0.977164
0.000000 0.268815 1.000000
0.000000 0.268357 1.000000
0.000000 0.348395 0.000000
0.000000 0.348261 0.000000
0.000000 0.347624 0.048244
0.000000 0.346957 0.120390
0.000000 0.346275 0.194176
0.000000 0.345582 0.269094
0.000000 0.344882 0.344882
0.000000 0.344175 0.421379
0.000000 0.343462 0.498475
0.000000 0.342745 0.576091
0.000000 0.342023 0.654165
0.000000 0.341298 0.732652
0.000000 0.340569 0.811511
0.000000 0.339837 0.890711
0.000000 0.339102 0.970225
0.000000 0.338365 1.000000
0.000000 0.337907 1.000000
0.000000 0.418595 0.000000
0.000000 0.418461 0.000000
0.000000 0.417824 0.041240
0.000000 0.417157 0.113387
0.000000 0.416475 0.187173
0.000000 0.415783 0.262090
0.000000 0.415082 0.337878
0.000000 0.414375 0.414375
0.000000 0.413663 0.491471
0.000000 0.412945 0.569087
0.000000 0.412224 0.647162
0.000000 0.411498 0.725648
0.000000 0.410770 0.804507
0.000000 0.410038 0.883707
0.000000 0.409303 0.963222
0.000000 0.408565 1.000000
0.000000 0.408107 1.000000
0.000000 0.489345 0.000000
0.000000 0.489212 0.000000
0.000000 0.488574 0.034182
0.000000 0.487907 0.106328
0.000000 0.487225 0.180114
0.000000 0.486533 0.255032
0.000000 0.485833 0.330820
0.000000 0.485126 0.407317
0.000000 0.484413 0.484413
0.000000 0.483696 0.562029
0.000000 0.482974 0.640104
0.000000 0.482249 0.718590
0.000000 0.481520 0.797449
0.000000 0.480788 0.876649
0.000000 0.480053 0.956163
0.000000 0.479315 1.000000
0.000000 0.478857 1.000000
0.000000 0.560572 0.000000
0.000000 0.560439 0.000000
0.000000 0.559801 0.027076
0.000000 0.559135 0.099222
0.000000 0.558453 0.173008
0.000000 0.557760 0.247926
0.000000 0.557060 0.323714
0.000000 0.556353 0.400211
0.000000 0.555640 0.477307
0.000000 0.554923 0.554923
0.000000 0.554201 0.632998
0.000000 0.553476 0.711484
0.000000 0.552747 0.790343
0.000000 0.552015 0.869543
0.000000 0.551280 0.949057
0.000000 0.550542 1.000000
0.000000 0.550084 1.000000
0.000000 0.632221 0.000000
0.000000 0.632087 0.000000
0.000000 0.631450 0.019928
0.000000 0.630783 0.092074
0.000000 0.630101 0.165860
0.000000 0.629409 0.240778
0.000000 0.628708 0.316566
0.000000 0.628001 0.393063
0.000000 0.627289 0.470159
0.000000 0.626571 0.547775
0.000000 0.625850 0.625850
0.000000 0.625124 0.704336
0.000000 0.624395 0.783195
0.000000 0.623663 0.862395
0.000000 0.622928 0.941909
0.000000 0.622191 1.000000
0.000000 0.621733 1.000000
0.000000 0.704247 0.000000
0.000000 0.704113 0.000000
0.000000 0.703476 0.012742
0.000000 0.702809 0.084889
0.000000 0.702127 0.158675
0.000000 0.701434 0.233592
0.000000 0.700734 0.309380
0.000000 0.700027 0.385877
0.000000 0.699314 0.462973
0.000000 0.698597 0.540589
0.000000 0.697875 0.618664
0.000000 0.697150 0.697150
0.000000 0.696421 0.776009
0.000000 0.695689 0.855209
0.000000 0.694954 0.934724
0.000000 0.694217 1.000000
0.000000 0.693759 1.000000
0.000000 0.776615 0.000000
0.000000 0.776481 0.000000
0.000000 0.775844 0.005522
0.000000 0.775177 0.077669
0.000000 0.774495 0.151455
0.000000 0.773802 0.226373
0.000000 0.773102 0.302161
0.000000 0.772395 0.378657
0.000000 0.771682 0.455754
0.000000 0.770965 0.533369
0.000000 0.770243 0.611444
0.000000 0.769518 0.689930
0.000000 0.768789 0.768789
0.000000 0.768057 0.847989
0.000000 0.767322 0.927504
0.000000 0.766585 1.000000
0.000000 0.766127 1.000000
0.000000 0.849296 0.000000
0.000000 0.849162 0.000000
0.000000 0.848525 0.000000
0.000000 0.847858 0.070418
0.000000 0.847176 0.144204
0.000000 0.846484 0.219122
0.000000 0.845783 0.294910
0.000000 0.845076 0.371406
0.000000 0.844364 0.448503
0.000000 0.843646 0.526118
0.000000 0.842925 0.604193
0.000000 0.842199 0.682679
0.000000 0.841470 0.761538
0.000000 0.840738 0.840738
0.000000 0.840003 0.920253
0.000000 0.839266 1.000000
0.000000 0.838808 1.000000
0.000000 0.922266 0.000000
0.000000 0.922132 0.000000
0.000000 0.921494 0.000000
0.000000 0.920828 0.063138
0.000000 0.920146 0.136924
0.000000 0.919453 0.211842
0.000000 0.918753 0.287630
0.000000 0.918046 0.364127
0.000000 0.917333 0.441223
0.000000 0.916616 0.518839
0.000000 0.915894 0.596913
0.000000 0.915169 0.675399
0.000000 0.914440 0.754258
0.000000 0.913708 0.833459
0.000000 0.912973 0.912973
0.000000 0.912236 0.992780
0.000000 0.911778 1.000000
0.000000 0.995503 0.000000
0.000000 0.995369 0.000000
0.000000 0.994732 0.000000
0.000000 0.994065 0.055832
0.000000 0.993383 0.129617
0.000000 0.992691 0.204535
0.000000 0.991990 0.280323
0.000000 0.991283 0.356820
0.000000 0.990571 0.433916
0.000000 0.989853 0.511532
0.000000 0.989132 0.589607
0.000000 0.988406 0.668093
0.000000 0.987678 0.746952
0.000000 0.986946 0.826152
0.000000 0.986211 0.905667
0.000000 0.985473 0.985473
0.000000 0.985015 1.000000
0.000000 1.000000 0.000000
0.000000 1.000000 0.000000
0.000000 1.000000 0.000000
0.000000 1.000000 0.051295
0.000000 1.000000 0.125081
0.000000 1.000000 0.199999
0.000000 1.000000 0.275787
0.000000 1.000000 0.352283
0.000000 1.000000 0.429380
0.000000 1.000000 0.506995
0.000000 1.000000 0.585070
0.000000 1.000000 0.663556
0.000000 1.000000 0.742415
0.000000 1.000000 0.821615
0.000000 1.000000 0.901130
0.000000 1.000000 0.980936
0.000000 1.000000 1.000000
0.081935 0.000000 0.000000
0.081801 0.000000 0.012211
0.081164 0.000000 0.081164
0.080497 0.000000 0.153311
0.079815 0.000000 0.227096
0.079123 0.000000 0.302014
0.078422 0.000000 0.377802
0.077715 0.000000 0.454299
0.077003 0.000000 0.531395
0.076285 0.000000 0.609011
0.075564 0.000000 0.687086
0.074838 0.000000 0.765572
0.074110 0.000000 0.844431
0.073378 0.000000 0.923631
0.072643 0.000000 1.000000
0.071905 0.000000 1.000000
0.071447 0.000000 1.000000
0.080609 0.011019 0.000000
0.080475 0.010885 0.010885
0.079838 0.010248 0.079838
0.079171 0.009581 0.151985
0.078489 0.008899 0.225771
0.077797 0.008207 0.300688
0.077097 0.007506 0.376476
0.076390 0.006799 0.452973
0.075677 0.006087 0.530069
0.074960 0.005369 0.607685
0.074238 0.004648 0.685760
0.073513 0.003922 0.764246
0.072784 0.003194 0.843105
0.072052 0.002462 0.922305
0.071317 0.001727 1.000000
0.070579 0.000989 1.000000
0.070121 0.000531 1.000000
0.074296 0.074296 0.000000
0.074163 0.074163 0.004572
0.073525 0.073525 0.073525
0.072859 0.072859 0.145672
0.072177 0.072177 0.219458
0.071484 0.071484 0.294375
0.070784 0.070784 0.370163
0.070077 0.070077 0.446660
0.069364 0.069364 0.523757
0.068647 0.068647 0.601372
0.067925 0.067925 0.679447
0.067200 0.067200 0.757933
0.066471 0.066471 0.836792
0.065739 0.065739 0.915992
0.065004 0.065004 0.995507
0.064266 0.064266 1.000000
0.063808 0.063808 1.000000
0.067691 0.140505 0.000000
0.067557 0.140371 0.000000
0.066920 0.139733 0.066920
0.066253 0.139067 0.139067
0.065571 0.138385 0.212852
0.064879 0.137692 0.287770
0.064178 0.136992 0.363558
0.063471 0.136285 0.440055
0.062759 0.135572 0.517151
0.062042 0.134855 0.594767
0.061320 0.134133 0.672842
0.060595 0.133408 0.751328
0.059866 0.132679 0.830187
0.059134 0.131947 0.909387
0.058399 0.131212 0.988902
0.057661 0.130475 1.000000
0.057203 0.130017 1.000000
0.060936 0.208217 0.000000
0.060802 0.208083 0.000000
0.060165 0.207446 0.060165
0.059498 0.206779 0.132311
0.058816 0.206097 0.206097
0.058124 0.205405 0.281015
0.057423 0.204704 0.356803
0.056716 0.203997 0.433300
0.056004 0.203285 0.510396
0.055286 0.202567 0.588012
0.054565 0.201846 0.666086
0.053839 0.201120 0.744573
0.053110 0.200391 0.823432
0.052378 0.199660 0.902632
0.051643 0.198925 0.982146
0.050906 0.198187 1.000000
0.050448 0.197729 1.000000
0.054077 0.276968 0.000000
0.053943 0.276834 0.000000
0.053306 0.276197 0.053306
0.052639 0.275530 0.125452
0.051957 0.274848 0.199238
0.051265 0.274156 0.274156
0.050564 0.273455 0.349944
0.049857 0.272748 0.426441
0.049145 0.272036 0.503537
0.048427 0.271319 0.581153
0.047706 0.270597 0.659228
0.046980 0.269872 0.737714
0.046251 0.269143 0.816573
0.045519 0.268411 0.895773
0.044785 0.267676 0.975287
0.044047 0.266938 1.000000
0.043589 0.266480 1.000000
0.047138 0.346518 0.000000
0.047004 0.346384 0.000000
0.046367 0.345747 0.046367
0.045700 0.345080 0.118514
0.045018 0.344398 0.192300
0.044326 0.343706 0.267217
0.043626 0.343005 0.343005
0.042919 0.342298 0.419502
0.042206 0.341586 0.496598
0.041489 0.340868 0.574214
0.040767 0.340147 0.652289
0.040042 0.339421 0.730775
0.039313 0.338693 0.809634
0.038581 0.337961 0.888834
0.037846 0.337226 0.968349
0.037108 0.336488 1.000000
0.036650 0.336030 1.000000
0.040135 0.416718 0.000000
0.040001 0.416585 0.000000
0.039364 0.415947 0.039364
0.038697 0.415281 0.111510
0.038015 0.414599 0.185296
0.037322 0.413906 0.260214
0.036622 0.413206 0.336002
0.035915 0.412499 0.412499
0.035202 0.411786 0.489595
0.034485 0.411069 0.567211
0.033764 0.410347 0.645285
0.033038 0.409622 0.723771
0.032309 0.408893 0.802630
0.031577 0.408161 0.881831
0.030842 0.407426 0.961345
0.030105 0.406688 1.000000
0.029647 0.406230 1.000000
0.033076 0.487469 0.000000
0.032943 0.487335 0.000000
0.032305 0.486698 0.032305
0.031638 0.486031 0.104452
0.030956 0.485349 0.178238
0.030264 0.484657 0.253155
0.029564 0.483956 0.328943
0.028857 0.483249 0.405440
0.028144 0.482536 0.482536
0.027427 0.481819 0.560152
0.026705 0.481098 0.638227
0.025980 0.480372 0.716713
0.025251 0.479643 0.795572
0.024519 0.478911 0.874772
0.023784 0.478176 0.954287
0.023046 0.477439 1.000000
0.022588 0.476981 1.000000
0.025970 0.558696 0.000000
0.025837 0.558562 0.000000
0.025199 0.557925 0.025199
0.024532 0.557258 0.097346
0.023851 0.556576 0.171132
0.023158 0.555884 0.246049
0.022458 0.555183 0.321837
0.021751 0.554476 0.398334
0.021038 0.553764 0.475431
0.020321 0.553046 0.553046
0.019599 0.552325 0.631121
0.018874 0.551599 0.709607
0.018145 0.550870 0.788466
0.017413 0.550138 0.867666
0.016678 0.549404 0.947181
0.015940 0.548666 1.000000
0.015482 0.548208 1.000000
0.018822 0.630344 0.000000
0.018689 0.630210 0.000000
0.018051 0.629573 0.018051
0.017384 0.628906 0.090198
0.016703 0.628224 0.163984
0.016010 0.627532 0.238901
0.015310 0.626832 0.314689
0.014603 0.626124 0.391186
0.013890 0.625412 0.468283
0.013173 0.624695 0.545898
0.012451 0.623973 0.623973
0.011726 0.623248 0.702459
0.010997 0.622519 0.781318
0.010265 0.621787 0.860518
0.009530 0.621052 0.940033
0.008792 0.620314 1.000000
0.008334 0.619856 1.000000
0.011637 0.702370 0.000000
0.011503 0.702236 0.000000
0.010866 0.701599 0.010866
0.010199 0.700932 0.083012
0.009517 0.700250 0.156798
0.008824 0.699558 0.231716
0.008124 0.698857 0.307504
0.007417 0.698150 0.384001
0.006704 0.697438 0.461097
0.005987 0.696720 0.538713
0.005266 0.695999 0.616787
0.004540 0.695273 0.695273
0.003811 0.694545 0.774132
0.003079 0.693813 0.853333
0.002344 0.693078 0.932847
0.001607 0.692340 1.000000
0.001149 0.691882 1.000000
0.004417 0.774738 0.000000
0.004283 0.774604 0.000000
0.003646 0.773967 0.003646
0.002979 0.773300 0.075792
0.002297 0.772618 0.149578
0.001605 0.771926 0.224496
0.000904 0.771225 0.300284
0.000197 0.770518 0.376781
0.000000 0.769806 0.453877
0.000000 0.769088 0.531493
0.000000 0.768367 0.609568
0.000000 0.767641 0.688054
0.000000 0.766913 0.766913
0.000000 0.766181 0.846113
0.000000 0.765446 0.925627
0.000000 0.764708 1.000000
0.000000 0.764250 1.000000
0.000000 0.847419 0.000000
0.000000 0.847285 0.000000
0.000000 0.846648 0.000000
0.000000 0.845981 0.068541
0.000000 0.845299 0.142327
0.000000 0.844607 0.217245
0.000000 0.843907 0.293033
0.000000 0.843199 0.369530
0.000000 0.842487 0.446626
0.000000 0.841770 0.524242
0.000000 0.841048 0.602317
0.000000 0.840323 0.680803
0.000000 0.839594 0.759662
0.000000 0.838862 0.838862
0.000000 0.838127 0.918376
0.000000 0.837389 0.998183
0.000000 0.836931 1.000000
0.000000 0.920389 0.000000
0.000000 0.920255 0.000000
0.000000 0.919618 0.000000
0.000000 0.918951 0.061262
0.000000 0.918269 0.135047
0.000000 0.917577 0.209965
0.000000 0.916876 0.285753
0.000000 0.916169 0.362250
0.000000 0.915457 0.439346
0.000000 0.914739 0.516962
0.000000 0.914018 0.595037
0.000000 0.913292 0.673523
0.000000 0.912563 0.752382
0.000000 0.911831 0.831582
0.000000 0.911097 0.911097
0.000000 0.910359 0.990903
0.000000 0.909901 1.000000
0.000000 0.993626 0.000000
0.000000 0.993493 0.000000
0.000000 0.992855 0.000000
0.000000 0.992189 0.053955
0.000000 0.991507 0.127741
0.000000 0.990814 0.202659
0.000000 0.990114 0.278447
0.000000 0.989407 0.354944
0.000000 0.988694 0.432040
0.000000 0.987977 0.509655
0.000000 0.987255 0.587730
0.000000 0.986530 0.666216
0.000000 0.985801 0.745075
0.000000 0.985069 0.824275
0.000000 0.984334 0.903790
0.000000 0.983596 0.983596
0.000000 0.983138 1.000000
0.000000 1.000000 0.000000
0.000000 1.000000 0.000000
0.000000 1.000000 0.000000
0.000000 1.000000 0.049418
0.000000 1.000000 0.123204
0.000000 1.000000 0.198122
0.000000 1.000000 0.273910
0.000000 1.000000 0.350407
0.000000 1.000000 0.427503
0.000000 1.000000 0.505119
0.000000 1.000000 0.583194
0.000000 1.000000 0.661680
0.000000 1.000000 0.740539
0.000000 1.000000 0.819739
0.000000 1.000000 0.899253
0.000000 1.000000 0.979060
0.000000 1.000000 1.000000
0.152785 0.000000 0.000000
0.152651 0.000000 0.010248
0.152014 0.000000 0.079201
0.151347 0.000000 0.151347
0.150665 0.000000 0.225133
0.149973 0.000000 0.300051
0.149272 0.000000 0.375839
0.148565 0.000000 0.452336
0.147853 0.000000 0.529432
0.147135 0.000000 0.607048
0.146414 0.000000 0.685122
0.145688 0.000000 0.763608
0.144960 0.000000 0.842467
0.144228 0.000000 0.921667
0.143493 0.000000 1.000000
0.142755 0.000000 1.000000
0.142297 0.000000 1.000000
0.151459 0.009056 0.000000
