skills/creativeops-producer/assets/grade/luts/trailer_punch_v20.cube
TITLE "trailer_punch_v20"
LUT_3D_SIZE 17
DOMAIN_MIN 0.0 0.0 0.0
DOMAIN_MAX 1.0 1.0 1.0
0.000000 0.000000 0.000000
0.000000 0.000000 0.000000
0.000000 0.000000 0.051909
0.000000 0.000000 0.128601
0.000000 0.000000 0.209077
0.000000 0.000000 0.291974
0.000000 0.000000 0.376674
0.000000 0.000000 0.462820
0.000000 0.000000 0.550178
0.000000 0.000000 0.638579
0.000000 0.000000 0.727898
0.000000 0.000000 0.818039
0.000000 0.000000 0.908923
0.000000 0.000000 1.000000
0.000000 0.000000 1.000000
0.000000 0.000000 1.000000
0.000000 0.000000 1.000000
0.000000 0.000000 0.000000
0.000000 0.000000 0.000000
0.000000 0.000000 0.051909
0.000000 0.000000 0.128601
0.000000 0.000000 0.209077
0.000000 0.000000 0.291974
0.000000 0.000000 0.376674
0.000000 0.000000 0.462820
0.000000 0.000000 0.550178
0.000000 0.000000 0.638579
0.000000 0.000000 0.727898
0.000000 0.000000 0.818039
0.000000 0.000000 0.908923
0.000000 0.000000 1.000000
0.000000 0.000000 1.000000
0.000000 0.000000 1.000000
0.000000 0.000000 1.000000
0.000000 0.045358 0.000000
0.000000 0.045358 0.000000
0.000000 0.044622 0.044622
0.000000 0.043535 0.121314
0.000000 0.042394 0.201790
0.000000 0.041220 0.284686
0.000000 0.040019 0.369387
0.000000 0.038798 0.455533
0.000000 0.037560 0.542890
0.000000 0.036307 0.631291
0.000000 0.035042 0.720611
0.000000 0.033764 0.810751
0.000000 0.032476 0.901635
0.000000 0.031178 0.993198
0.000000 0.029872 1.000000
0.000000 0.028557 1.000000
0.000000 0.028030 1.000000
0.000000 0.112370 0.000000
0.000000 0.112370 0.000000
0.000000 0.111634 0.033855
0.000000 0.110547 0.110547
0.000000 0.109407 0.191023
0.000000 0.108232 0.273920
0.000000 0.107031 0.358620
0.000000 0.105810 0.444766
0.000000 0.104572 0.532124
0.000000 0.103320 0.620525
0.000000 0.102054 0.709844
0.000000 0.100776 0.799985
0.000000 0.099488 0.890869
0.000000 0.098190 0.982432
0.000000 0.096884 1.000000
0.000000 0.095569 1.000000
0.000000 0.095042 1.000000
0.000000 0.182688 0.000000
0.000000 0.182688 0.000000
0.000000 0.181953 0.022557
0.000000 0.180866 0.099249
0.000000 0.179725 0.179725
0.000000 0.178551 0.262622
0.000000 0.177350 0.347322
0.000000 0.176129 0.433469
0.000000 0.174891 0.520826
0.000000 0.173638 0.609227
0.000000 0.172373 0.698546
0.000000 0.171095 0.788687
0.000000 0.169807 0.879571
0.000000 0.168509 0.971134
0.000000 0.167203 1.000000
0.000000 0.165888 1.000000
0.000000 0.165360 1.000000
0.000000 0.255122 0.000000
0.000000 0.255122 0.000000
0.000000 0.254387 0.010920
0.000000 0.253300 0.087612
0.000000 0.252159 0.168088
0.000000 0.250984 0.250984
0.000000 0.249784 0.335685
0.000000 0.248563 0.421831
0.000000 0.247325 0.509188
0.000000 0.246072 0.597589
0.000000 0.244806 0.686909
0.000000 0.243529 0.777049
0.000000 0.242241 0.867933
0.000000 0.240943 0.959496
0.000000 0.239637 1.000000
0.000000 0.238322 1.000000
0.000000 0.237794 1.000000
0.000000 0.329132 0.000000
0.000000 0.329132 0.000000
0.000000 0.328396 0.000000
0.000000 0.327309 0.075721
0.000000 0.326169 0.156197
0.000000 0.324994 0.239093
0.000000 0.323794 0.323794
0.000000 0.322573 0.409940
0.000000 0.321335 0.497297
0.000000 0.320082 0.585698
0.000000 0.318816 0.675018
0.000000 0.317539 0.765158
0.000000 0.316251 0.856042
0.000000 0.314953 0.947605
0.000000 0.313646 1.000000
0.000000 0.312332 1.000000
0.000000 0.311804 1.000000
0.000000 0.404405 0.000000
0.000000 0.404405 0.000000
0.000000 0.403670 0.000000
0.000000 0.402583 0.063627
0.000000 0.401442 0.144103
0.000000 0.400267 0.226999
0.000000 0.399067 0.311700
0.000000 0.397846 0.397846
0.000000 0.396608 0.485203
0.000000 0.395355 0.573604
0.000000 0.394089 0.662924
0.000000 0.392812 0.753065
0.000000 0.391524 0.843948
0.000000 0.390226 0.935511
0.000000 0.388920 1.000000
0.000000 0.387605 1.000000
0.000000 0.387077 1.000000
0.000000 0.480737 0.000000
0.000000 0.480737 0.000000
0.000000 0.480001 0.000000
0.000000 0.478914 0.051363
0.000000 0.477774 0.131839
0.000000 0.476599 0.214736
0.000000 0.475398 0.299436
0.000000 0.474178 0.385582
0.000000 0.472940 0.472940
0.000000 0.471687 0.561340
0.000000 0.470421 0.650660
0.000000 0.469143 0.740801
0.000000 0.467855 0.831685
0.000000 0.466558 0.923248
0.000000 0.465251 1.000000
0.000000 0.463936 1.000000
0.000000 0.463409 1.000000
0.000000 0.557980 0.000000
0.000000 0.557980 0.000000
0.000000 0.557245 0.000000
0.000000 0.556158 0.038953
0.000000 0.555017 0.119429
0.000000 0.553842 0.202325
0.000000 0.552642 0.287026
0.000000 0.551421 0.373172
0.000000 0.550183 0.460529
0.000000 0.548930 0.548930
0.000000 0.547664 0.638250
0.000000 0.546387 0.728390
0.000000 0.545099 0.819274
0.000000 0.543801 0.910837
0.000000 0.542495 1.000000
0.000000 0.541180 1.000000
0.000000 0.540652 1.000000
0.000000 0.636026 0.000000
0.000000 0.636026 0.000000
0.000000 0.635290 0.000000
0.000000 0.634204 0.026413
0.000000 0.633063 0.106889
0.000000 0.631888 0.189786
0.000000 0.630688 0.274486
0.000000 0.629467 0.360633
0.000000 0.628229 0.447990
0.000000 0.626976 0.536391
0.000000 0.625710 0.625710
0.000000 0.624433 0.715851
0.000000 0.623145 0.806735
0.000000 0.621847 0.898298
0.000000 0.620541 0.990487
0.000000 0.619226 1.000000
0.000000 0.618698 1.000000
0.000000 0.714790 0.000000
0.000000 0.714790 0.000000
0.000000 0.714054 0.000000
0.000000 0.712967 0.013759
0.000000 0.711827 0.094235
0.000000 0.710652 0.177131
0.000000 0.709451 0.261832
0.000000 0.708231 0.347978
0.000000 0.706992 0.435335
0.000000 0.705740 0.523736
0.000000 0.704474 0.613056
0.000000 0.703196 0.703196
0.000000 0.701908 0.794080
0.000000 0.700611 0.885643
0.000000 0.699304 0.977832
0.000000 0.697989 1.000000
0.000000 0.697462 1.000000
0.000000 0.794203 0.000000
0.000000 0.794203 0.000000
0.000000 0.793467 0.000000
0.000000 0.792380 0.001000
0.000000 0.791240 0.081476
0.000000 0.790065 0.164372
0.000000 0.788864 0.249073
0.000000 0.787643 0.335219
0.000000 0.786405 0.422576
0.000000 0.785153 0.510977
0.000000 0.783887 0.600297
0.000000 0.782609 0.690437
0.000000 0.781321 0.781321
0.000000 0.780024 0.872884
0.000000 0.778717 0.965073
0.000000 0.777402 1.000000
0.000000 0.776875 1.000000
0.000000 0.874209 0.000000
0.000000 0.874209 0.000000
0.000000 0.873473 0.000000
0.000000 0.872386 0.000000
0.000000 0.871246 0.068621
0.000000 0.870071 0.151518
0.000000 0.868871 0.236218
0.000000 0.867650 0.322365
0.000000 0.866412 0.409722
0.000000 0.865159 0.498123
0.000000 0.863893 0.587442
0.000000 0.862616 0.677583
0.000000 0.861328 0.768467
0.000000 0.860030 0.860030
0.000000 0.858723 0.952219
0.000000 0.857409 1.000000
0.000000 0.856881 1.000000
0.000000 0.954762 0.000000
0.000000 0.954762 0.000000
0.000000 0.954027 0.000000
0.000000 0.952940 0.000000
0.000000 0.951799 0.055679
0.000000 0.950624 0.138576
0.000000 0.949424 0.223276
0.000000 0.948203 0.309423
0.000000 0.946965 0.396780
0.000000 0.945712 0.485181
0.000000 0.944446 0.574500
0.000000 0.943169 0.664641
0.000000 0.941881 0.755525
0.000000 0.940583 0.847088
0.000000 0.939277 0.939277
0.000000 0.937962 1.000000
0.000000 0.937434 1.000000
0.000000 1.000000 0.000000
0.000000 1.000000 0.000000
0.000000 1.000000 0.000000
0.000000 1.000000 0.000000
0.000000 1.000000 0.042656
0.000000 1.000000 0.125552
0.000000 1.000000 0.210252
0.000000 1.000000 0.296399
0.000000 1.000000 0.383756
0.000000 1.000000 0.472157
0.000000 1.000000 0.561476
0.000000 1.000000 0.651617
0.000000 1.000000 0.742501
0.000000 1.000000 0.834064
0.000000 1.000000 0.926253
0.000000 1.000000 1.000000
0.000000 1.000000 1.000000
0.000000 1.000000 0.000000
0.000000 1.000000 0.000000
0.000000 1.000000 0.000000
0.000000 1.000000 0.000000
0.000000 1.000000 0.037429
0.000000 1.000000 0.120326
0.000000 1.000000 0.205026
0.000000 1.000000 0.291172
0.000000 1.000000 0.378530
0.000000 1.000000 0.466931
0.000000 1.000000 0.556250
0.000000 1.000000 0.646391
0.000000 1.000000 0.737275
0.000000 1.000000 0.828838
0.000000 1.000000 0.921027
0.000000 1.000000 1.000000
0.000000 1.000000 1.000000
0.000000 0.000000 0.000000
0.000000 0.000000 0.000000
0.000000 0.000000 0.051909
0.000000 0.000000 0.128601
0.000000 0.000000 0.209077
0.000000 0.000000 0.291974
0.000000 0.000000 0.376674
0.000000 0.000000 0.462820
0.000000 0.000000 0.550178
0.000000 0.000000 0.638579
0.000000 0.000000 0.727898
0.000000 0.000000 0.818039
0.000000 0.000000 0.908923
0.000000 0.000000 1.000000
0.000000 0.000000 1.000000
0.000000 0.000000 1.000000
0.000000 0.000000 1.000000
0.000000 0.000000 0.000000
0.000000 0.000000 0.000000
0.000000 0.000000 0.051909
0.000000 0.000000 0.128601
0.000000 0.000000 0.209077
0.000000 0.000000 0.291974
0.000000 0.000000 0.376674
0.000000 0.000000 0.462820
0.000000 0.000000 0.550178
0.000000 0.000000 0.638579
0.000000 0.000000 0.727898
0.000000 0.000000 0.818039
0.000000 0.000000 0.908923
0.000000 0.000000 1.000000
0.000000 0.000000 1.000000
0.000000 0.000000 1.000000
0.000000 0.000000 1.000000
0.000000 0.045358 0.000000
0.000000 0.045358 0.000000
0.000000 0.044622 0.044622
0.000000 0.043535 0.121314
0.000000 0.042394 0.201790
0.000000 0.041220 0.284686
0.000000 0.040019 0.369387
0.000000 0.038798 0.455533
0.000000 0.037560 0.542890
0.000000 0.036307 0.631291
0.000000 0.035042 0.720611
0.000000 0.033764 0.810751
0.000000 0.032476 0.901635
0.000000 0.031178 0.993198
0.000000 0.029872 1.000000
0.000000 0.028557 1.000000
0.000000 0.028030 1.000000
0.000000 0.112370 0.000000
0.000000 0.112370 0.000000
0.000000 0.111634 0.033855
0.000000 0.110547 0.110547
0.000000 0.109407 0.191023
0.000000 0.108232 0.273920
0.000000 0.107031 0.358620
0.000000 0.105810 0.444766
0.000000 0.104572 0.532124
0.000000 0.103320 0.620525
0.000000 0.102054 0.709844
0.000000 0.100776 0.799985
0.000000 0.099488 0.890869
0.000000 0.098190 0.982432
0.000000 0.096884 1.000000
0.000000 0.095569 1.000000
0.000000 0.095042 1.000000
0.000000 0.182688 0.000000
0.000000 0.182688 0.000000
0.000000 0.181953 0.022557
0.000000 0.180866 0.099249
0.000000 0.179725 0.179725
0.000000 0.178551 0.262622
0.000000 0.177350 0.347322
0.000000 0.176129 0.433469
0.000000 0.174891 0.520826
0.000000 0.173638 0.609227
0.000000 0.172373 0.698546
0.000000 0.171095 0.788687
0.000000 0.169807 0.879571
0.000000 0.168509 0.971134
0.000000 0.167203 1.000000
0.000000 0.165888 1.000000
0.000000 0.165360 1.000000
0.000000 0.255122 0.000000
0.000000 0.255122 0.000000
0.000000 0.254387 0.010920
0.000000 0.253300 0.087612
0.000000 0.252159 0.168088
0.000000 0.250984 0.250984
0.000000 0.249784 0.335685
0.000000 0.248563 0.421831
0.000000 0.247325 0.509188
0.000000 0.246072 0.597589
0.000000 0.244806 0.686909
0.000000 0.243529 0.777049
0.000000 0.242241 0.867933
0.000000 0.240943 0.959496
0.000000 0.239637 1.000000
0.000000 0.238322 1.000000
0.000000 0.237794 1.000000
0.000000 0.329132 0.000000
0.000000 0.329132 0.000000
0.000000 0.328396 0.000000
0.000000 0.327309 0.075721
0.000000 0.326169 0.156197
0.000000 0.324994 0.239093
0.000000 0.323794 0.323794
0.000000 0.322573 0.409940
0.000000 0.321335 0.497297
0.000000 0.320082 0.585698
0.000000 0.318816 0.675018
0.000000 0.317539 0.765158
0.000000 0.316251 0.856042
0.000000 0.314953 0.947605
0.000000 0.313646 1.000000
0.000000 0.312332 1.000000
0.000000 0.311804 1.000000
0.000000 0.404405 0.000000
0.000000 0.404405 0.000000
0.000000 0.403670 0.000000
0.000000 0.402583 0.063627
0.000000 0.401442 0.144103
0.000000 0.400267 0.226999
0.000000 0.399067 0.311700
0.000000 0.397846 0.397846
0.000000 0.396608 0.485203
0.000000 0.395355 0.573604
0.000000 0.394089 0.662924
0.000000 0.392812 0.753065
0.000000 0.391524 0.843948
0.000000 0.390226 0.935511
0.000000 0.388920 1.000000
0.000000 0.387605 1.000000
0.000000 0.387077 1.000000
0.000000 0.480737 0.000000
0.000000 0.480737 0.000000
0.000000 0.480001 0.000000
0.000000 0.478914 0.051363
0.000000 0.477774 0.131839
0.000000 0.476599 0.214736
0.000000 0.475398 0.299436
0.000000 0.474178 0.385582
0.000000 0.472940 0.472940
0.000000 0.471687 0.561340
0.000000 0.470421 0.650660
0.000000 0.469143 0.740801
0.000000 0.467855 0.831685
0.000000 0.466558 0.923248
0.000000 0.465251 1.000000
0.000000 0.463936 1.000000
0.000000 0.463409 1.000000
0.000000 0.557980 0.000000
0.000000 0.557980 0.000000
0.000000 0.557245 0.000000
0.000000 0.556158 0.038953
0.000000 0.555017 0.119429
0.000000 0.553842 0.202325
0.000000 0.552642 0.287026
0.000000 0.551421 0.373172
0.000000 0.550183 0.460529
0.000000 0.548930 0.548930
0.000000 0.547664 0.638250
0.000000 0.546387 0.728390
0.000000 0.545099 0.819274
0.000000 0.543801 0.910837
0.000000 0.542495 1.000000
0.000000 0.541180 1.000000
0.000000 0.540652 1.000000
0.000000 0.636026 0.000000
0.000000 0.636026 0.000000
0.000000 0.635290 0.000000
0.000000 0.634204 0.026413
0.000000 0.633063 0.106889
0.000000 0.631888 0.189786
0.000000 0.630688 0.274486
0.000000 0.629467 0.360633
0.000000 0.628229 0.447990
0.000000 0.626976 0.536391
0.000000 0.625710 0.625710
0.000000 0.624433 0.715851
0.000000 0.623145 0.806735
0.000000 0.621847 0.898298
0.000000 0.620541 0.990487
0.000000 0.619226 1.000000
0.000000 0.618698 1.000000
0.000000 0.714790 0.000000
0.000000 0.714790 0.000000
0.000000 0.714054 0.000000
0.000000 0.712967 0.013759
0.000000 0.711827 0.094235
0.000000 0.710652 0.177131
0.000000 0.709451 0.261832
0.000000 0.708231 0.347978
0.000000 0.706992 0.435335
0.000000 0.705740 0.523736
0.000000 0.704474 0.613056
0.000000 0.703196 0.703196
0.000000 0.701908 0.794080
0.000000 0.700611 0.885643
0.000000 0.699304 0.977832
0.000000 0.697989 1.000000
0.000000 0.697462 1.000000
0.000000 0.794203 0.000000
0.000000 0.794203 0.000000
0.000000 0.793467 0.000000
0.000000 0.792380 0.001000
0.000000 0.791240 0.081476
0.000000 0.790065 0.164372
0.000000 0.788864 0.249073
0.000000 0.787643 0.335219
0.000000 0.786405 0.422576
0.000000 0.785153 0.510977
0.000000 0.783887 0.600297
0.000000 0.782609 0.690437
0.000000 0.781321 0.781321
0.000000 0.780024 0.872884
0.000000 0.778717 0.965073
0.000000 0.777402 1.000000
0.000000 0.776875 1.000000
0.000000 0.874209 0.000000
0.000000 0.874209 0.000000
0.000000 0.873473 0.000000
0.000000 0.872386 0.000000
0.000000 0.871246 0.068621
0.000000 0.870071 0.151518
0.000000 0.868871 0.236218
0.000000 0.867650 0.322365
0.000000 0.866412 0.409722
0.000000 0.865159 0.498123
0.000000 0.863893 0.587442
0.000000 0.862616 0.677583
0.000000 0.861328 0.768467
0.000000 0.860030 0.860030
0.000000 0.858723 0.952219
0.000000 0.857409 1.000000
0.000000 0.856881 1.000000
0.000000 0.954762 0.000000
0.000000 0.954762 0.000000
0.000000 0.954027 0.000000
0.000000 0.952940 0.000000
0.000000 0.951799 0.055679
0.000000 0.950624 0.138576
0.000000 0.949424 0.223276
0.000000 0.948203 0.309423
0.000000 0.946965 0.396780
0.000000 0.945712 0.485181
0.000000 0.944446 0.574500
0.000000 0.943169 0.664641
0.000000 0.941881 0.755525
0.000000 0.940583 0.847088
0.000000 0.939277 0.939277
0.000000 0.937962 1.000000
0.000000 0.937434 1.000000
0.000000 1.000000 0.000000
0.000000 1.000000 0.000000
0.000000 1.000000 0.000000
0.000000 1.000000 0.000000
0.000000 1.000000 0.042656
0.000000 1.000000 0.125552
0.000000 1.000000 0.210252
0.000000 1.000000 0.296399
0.000000 1.000000 0.383756
0.000000 1.000000 0.472157
0.000000 1.000000 0.561476
0.000000 1.000000 0.651617
0.000000 1.000000 0.742501
0.000000 1.000000 0.834064
0.000000 1.000000 0.926253
0.000000 1.000000 1.000000
0.000000 1.000000 1.000000
0.000000 1.000000 0.000000
0.000000 1.000000 0.000000
0.000000 1.000000 0.000000
0.000000 1.000000 0.000000
0.000000 1.000000 0.037429
0.000000 1.000000 0.120326
0.000000 1.000000 0.205026
0.000000 1.000000 0.291172
0.000000 1.000000 0.378530
0.000000 1.000000 0.466931
0.000000 1.000000 0.556250
0.000000 1.000000 0.646391
0.000000 1.000000 0.737275
0.000000 1.000000 0.828838
0.000000 1.000000 0.921027
0.000000 1.000000 1.000000
0.000000 1.000000 1.000000
0.050479 0.000000 0.000000
0.050479 0.000000 0.000000
0.049743 0.000000 0.049743
0.048656 0.000000 0.126435
0.047516 0.000000 0.206911
0.046341 0.000000 0.289808
0.045140 0.000000 0.374508
0.043920 0.000000 0.460654
0.042681 0.000000 0.548011
0.041429 0.000000 0.636412
0.040163 0.000000 0.725732
0.038885 0.000000 0.815873
0.037597 0.000000 0.906756
0.036300 0.000000 0.998319
0.034993 0.000000 1.000000
0.033678 0.000000 1.000000
0.033151 0.000000 1.000000
0.050479 0.000000 0.000000
0.050479 0.000000 0.000000
0.049743 0.000000 0.049743
0.048656 0.000000 0.126435
0.047516 0.000000 0.206911
0.046341 0.000000 0.289808
0.045140 0.000000 0.374508
0.043920 0.000000 0.460654
0.042681 0.000000 0.548011
0.041429 0.000000 0.636412
0.040163 0.000000 0.725732
0.038885 0.000000 0.815873
0.037597 0.000000 0.906756
0.036300 0.000000 0.998319
0.034993 0.000000 1.000000
0.033678 0.000000 1.000000
0.033151 0.000000 1.000000
0.043191 0.043191 0.000000
0.043191 0.043191 0.000000
0.042456 0.042456 0.042456
0.041369 0.041369 0.119147
0.040228 0.040228 0.199624
0.039053 0.039053 0.282520
0.037853 0.037853 0.367220
0.036632 0.036632 0.453367
0.035394 0.035394 0.540724
0.034141 0.034141 0.629125
0.032875 0.032875 0.718444
0.031598 0.031598 0.808585
0.030310 0.030310 0.899469
0.029012 0.029012 0.991032
0.027706 0.027706 1.000000
0.026391 0.026391 1.000000
0.025863 0.025863 1.000000
0.032425 0.110203 0.000000
0.032425 0.110203 0.000000
0.031689 0.109468 0.031689
0.030602 0.108381 0.108381
0.029462 0.107240 0.188857
0.028287 0.106065 0.271754
0.027086 0.104865 0.356454
0.025866 0.103644 0.442600
0.024627 0.102406 0.529957
0.023375 0.101153 0.618358
0.022109 0.099887 0.707678
0.020831 0.098610 0.797819
0.019543 0.097322 0.888702
0.018246 0.096024 0.980265
0.016939 0.094718 1.000000
0.015624 0.093403 1.000000
0.015097 0.092875 1.000000
0.021127 0.180522 0.000000
0.021127 0.180522 0.000000
0.020391 0.179787 0.020391
0.019304 0.178700 0.097083
0.018164 0.177559 0.177559
0.016989 0.176384 0.260456
0.015789 0.175184 0.345156
0.014568 0.173963 0.431302
0.013330 0.172725 0.518660
0.012077 0.171472 0.607061
0.010811 0.170206 0.696380
0.009533 0.168929 0.786521
0.008245 0.167641 0.877405
0.006948 0.166343 0.968968
0.005641 0.165037 1.000000
0.004326 0.163722 1.000000
0.003799 0.163194 1.000000
0.009489 0.252956 0.000000
0.009489 0.252956 0.000000
0.008754 0.252220 0.008754
0.007667 0.251133 0.085445
0.006526 0.249993 0.165921
0.005351 0.248818 0.248818
0.004151 0.247618 0.333518
0.002930 0.246397 0.419665
0.001692 0.245159 0.507022
0.000439 0.243906 0.595423
0.000000 0.242640 0.684742
0.000000 0.241362 0.774883
0.000000 0.240074 0.865767
0.000000 0.238777 0.957330
0.000000 0.237470 1.000000
0.000000 0.236156 1.000000
0.000000 0.235628 1.000000
0.000000 0.326966 0.000000
0.000000 0.326966 0.000000
0.000000 0.326230 0.000000
0.000000 0.325143 0.073554
0.000000 0.324003 0.154031
0.000000 0.322828 0.236927
0.000000 0.321627 0.321627
0.000000 0.320407 0.407774
0.000000 0.319169 0.495131
0.000000 0.317916 0.583532
0.000000 0.316650 0.672851
0.000000 0.315372 0.762992
0.000000 0.314084 0.853876
0.000000 0.312787 0.945439
0.000000 0.311480 1.000000
0.000000 0.310165 1.000000
0.000000 0.309638 1.000000
0.000000 0.402239 0.000000
0.000000 0.402239 0.000000
0.000000 0.401503 0.000000
0.000000 0.400417 0.061461
0.000000 0.399276 0.141937
0.000000 0.398101 0.224833
0.000000 0.396901 0.309534
0.000000 0.395680 0.395680
0.000000 0.394442 0.483037
0.000000 0.393189 0.571438
0.000000 0.391923 0.660758
0.000000 0.390646 0.750898
0.000000 0.389358 0.841782
0.000000 0.388060 0.933345
0.000000 0.386754 1.000000
0.000000 0.385439 1.000000
0.000000 0.384911 1.000000
0.000000 0.478571 0.000000
0.000000 0.478571 0.000000
0.000000 0.477835 0.000000
0.000000 0.476748 0.049197
0.000000 0.475607 0.129673
0.000000 0.474433 0.212569
0.000000 0.473232 0.297270
0.000000 0.472011 0.383416
0.000000 0.470773 0.470773
0.000000 0.469520 0.559174
0.000000 0.468255 0.648494
0.000000 0.466977 0.738634
0.000000 0.465689 0.829518
0.000000 0.464391 0.921081
0.000000 0.463085 1.000000
0.000000 0.461770 1.000000
0.000000 0.461243 1.000000
0.000000 0.555814 0.000000
0.000000 0.555814 0.000000
0.000000 0.555078 0.000000
0.000000 0.553991 0.036786
0.000000 0.552851 0.117262
0.000000 0.551676 0.200159
0.000000 0.550476 0.284859
0.000000 0.549255 0.371006
0.000000 0.548017 0.458363
0.000000 0.546764 0.546764
0.000000 0.545498 0.636083
0.000000 0.544220 0.726224
0.000000 0.542932 0.817108
0.000000 0.541635 0.908671
0.000000 0.540328 1.000000
0.000000 0.539014 1.000000
0.000000 0.538486 1.000000
0.000000 0.633860 0.000000
0.000000 0.633860 0.000000
0.000000 0.633124 0.000000
0.000000 0.632037 0.024247
0.000000 0.630897 0.104723
0.000000 0.629722 0.187620
0.000000 0.628522 0.272320
0.000000 0.627301 0.358466
0.000000 0.626063 0.445824
0.000000 0.624810 0.534224
0.000000 0.623544 0.623544
0.000000 0.622266 0.713685
0.000000 0.620978 0.804569
0.000000 0.619681 0.896132
0.000000 0.618374 0.988320
0.000000 0.617060 1.000000
0.000000 0.616532 1.000000
0.000000 0.712623 0.000000
0.000000 0.712623 0.000000
0.000000 0.711888 0.000000
0.000000 0.710801 0.011592
0.000000 0.709660 0.092068
0.000000 0.708486 0.174965
0.000000 0.707285 0.259665
0.000000 0.706064 0.345812
0.000000 0.704826 0.433169
0.000000 0.703573 0.521570
0.000000 0.702308 0.610889
0.000000 0.701030 0.701030
0.000000 0.699742 0.791914
0.000000 0.698444 0.883477
0.000000 0.697138 0.975666
0.000000 0.695823 1.000000
0.000000 0.695295 1.000000
0.000000 0.792036 0.000000
0.000000 0.792036 0.000000
0.000000 0.791301 0.000000
0.000000 0.790214 0.000000
0.000000 0.789073 0.079310
0.000000 0.787898 0.162206
0.000000 0.786698 0.246906
0.000000 0.785477 0.333053
0.000000 0.784239 0.420410
0.000000 0.782986 0.508811
0.000000 0.781720 0.598130
0.000000 0.780443 0.688271
0.000000 0.779155 0.779155
0.000000 0.777857 0.870718
0.000000 0.776551 0.962907
0.000000 0.775236 1.000000
0.000000 0.774708 1.000000
0.000000 0.872043 0.000000
0.000000 0.872043 0.000000
0.000000 0.871307 0.000000
0.000000 0.870220 0.000000
0.000000 0.869080 0.066455
0.000000 0.867905 0.149352
0.000000 0.866704 0.234052
0.000000 0.865484 0.320198
0.000000 0.864246 0.407556
0.000000 0.862993 0.495957
0.000000 0.861727 0.585276
0.000000 0.860449 0.675417
0.000000 0.859161 0.766301
0.000000 0.857864 0.857864
0.000000 0.856557 0.950052
0.000000 0.855242 1.000000
0.000000 0.854715 1.000000
0.000000 0.952596 0.000000
0.000000 0.952596 0.000000
0.000000 0.951860 0.000000
0.000000 0.950773 0.000000
0.000000 0.949633 0.053513
0.000000 0.948458 0.136410
0.000000 0.947258 0.221110
0.000000 0.946037 0.307256
0.000000 0.944799 0.394613
0.000000 0.943546 0.483014
0.000000 0.942280 0.572334
0.000000 0.941003 0.662475
0.000000 0.939714 0.753358
0.000000 0.938417 0.844921
0.000000 0.937110 0.937110
0.000000 0.935796 1.000000
0.000000 0.935268 1.000000
0.000000 1.000000 0.000000
0.000000 1.000000 0.000000
0.000000 1.000000 0.000000
0.000000 1.000000 0.000000
0.000000 1.000000 0.040489
0.000000 1.000000 0.123386
0.000000 1.000000 0.208086
0.000000 1.000000 0.294233
0.000000 1.000000 0.381590
0.000000 1.000000 0.469991
0.000000 1.000000 0.559310
0.000000 1.000000 0.649451
0.000000 1.000000 0.740335
0.000000 1.000000 0.831898
0.000000 1.000000 0.924087
0.000000 1.000000 1.000000
0.000000 1.000000 1.000000
0.000000 1.000000 0.000000
0.000000 1.000000 0.000000
0.000000 1.000000 0.000000
0.000000 1.000000 0.000000
0.000000 1.000000 0.035263
0.000000 1.000000 0.118160
0.000000 1.000000 0.202860
0.000000 1.000000 0.289006
0.000000 1.000000 0.376363
0.000000 1.000000 0.464764
0.000000 1.000000 0.554084
0.000000 1.000000 0.644225
0.000000 1.000000 0.735108
0.000000 1.000000 0.826671
0.000000 1.000000 0.918860
0.000000 1.000000 1.000000
0.000000 1.000000 1.000000
0.125057 0.000000 0.000000
0.125057 0.000000 0.000000
0.124321 0.000000 0.046543
0.123234 0.000000 0.123234
0.122094 0.000000 0.203711
0.120919 0.000000 0.286607
0.119719 0.000000 0.371307
0.118498 0.000000 0.457454
0.117260 0.000000 0.544811
0.116007 0.000000 0.633212
0.114741 0.000000 0.722531
0.113463 0.000000 0.812672
0.112175 0.000000 0.903556
0.110878 0.000000 0.995119
0.109571 0.000000 1.000000
0.108256 0.000000 1.000000
0.107729 0.000000 1.000000
0.125057 0.000000 0.000000
