skills/creativeops-producer/assets/grade/luts/trailer_punch_v16.cube
TITLE "trailer_punch_v16"
LUT_3D_SIZE 9
DOMAIN_MIN 0.0 0.0 0.0
DOMAIN_MAX 1.0 1.0 1.0
0.000000 0.000000 0.000000
0.000000 0.000000 0.064700
0.000000 0.000000 0.217749
0.000000 0.000000 0.378640
0.000000 0.000000 0.544103
0.000000 0.000000 0.712853
0.000000 0.000000 0.884186
0.000000 0.000000 1.000000
0.000000 0.000000 1.000000
0.000000 0.057620 0.000000
0.000000 0.056825 0.056825
0.000000 0.054944 0.209873
0.000000 0.052967 0.370765
0.000000 0.050934 0.536228
0.000000 0.048860 0.704978
0.000000 0.046755 0.876310
0.000000 0.044623 1.000000
0.000000 0.043028 1.000000
0.000000 0.193920 0.000000
0.000000 0.193125 0.038195
0.000000 0.191244 0.191244
0.000000 0.189267 0.352136
0.000000 0.187234 0.517599
0.000000 0.185160 0.686349
0.000000 0.183055 0.857681
0.000000 0.180923 1.000000
0.000000 0.179328 1.000000
0.000000 0.337204 0.000000
0.000000 0.336409 0.018611
0.000000 0.334529 0.171660
0.000000 0.332552 0.332552
0.000000 0.330518 0.498015
0.000000 0.328445 0.666765
0.000000 0.326339 0.838097
0.000000 0.324208 1.000000
0.000000 0.322612 1.000000
0.000000 0.484560 0.000000
0.000000 0.483765 0.000000
0.000000 0.481884 0.151520
0.000000 0.479907 0.312411
0.000000 0.477874 0.477874
0.000000 0.475801 0.646624
0.000000 0.473695 0.817957
0.000000 0.471564 0.991423
0.000000 0.469968 1.000000
0.000000 0.634843 0.000000
0.000000 0.634048 0.000000
0.000000 0.632168 0.130979
0.000000 0.630191 0.291871
0.000000 0.628157 0.457334
0.000000 0.626084 0.626084
0.000000 0.623978 0.797416
0.000000 0.621847 0.970882
0.000000 0.620251 1.000000
0.000000 0.787426 0.000000
0.000000 0.786631 0.000000
0.000000 0.784750 0.110124
0.000000 0.782773 0.271016
0.000000 0.780740 0.436479
0.000000 0.778667 0.605229
0.000000 0.776561 0.776561
0.000000 0.774430 0.950028
0.000000 0.772834 1.000000
0.000000 0.941909 0.000000
0.000000 0.941114 0.000000
0.000000 0.939234 0.089010
0.000000 0.937257 0.249901
0.000000 0.935223 0.415364
0.000000 0.933150 0.584114
0.000000 0.931045 0.755447
0.000000 0.928913 0.928913
0.000000 0.927317 1.000000
0.000000 1.000000 0.000000
0.000000 1.000000 0.000000
0.000000 1.000000 0.073203
0.000000 1.000000 0.234094
0.000000 1.000000 0.399558
0.000000 1.000000 0.568308
0.000000 1.000000 0.739640
0.000000 1.000000 0.913106
0.000000 1.000000 1.000000
0.063154 0.000000 0.000000
0.062359 0.000000 0.062359
0.060478 0.000000 0.215408
0.058501 0.000000 0.376299
0.056468 0.000000 0.541762
0.054394 0.000000 0.710512
0.052289 0.000000 0.881845
0.050158 0.000000 1.000000
0.048562 0.000000 1.000000
0.055279 0.055279 0.000000
0.054483 0.054483 0.054483
0.052603 0.052603 0.207532
0.050626 0.050626 0.368424
0.048593 0.048593 0.533887
0.046519 0.046519 0.702637
0.044414 0.044414 0.873969
0.042282 0.042282 1.000000
0.040687 0.040687 1.000000
0.036649 0.191579 0.000000
0.035854 0.190784 0.035854
0.033974 0.188903 0.188903
0.031997 0.186926 0.349794
0.029963 0.184893 0.515258
0.027890 0.182819 0.684008
0.025784 0.180714 0.855340
0.023653 0.178582 1.000000
0.022057 0.176987 1.000000
0.017065 0.334863 0.000000
0.016270 0.334068 0.016270
0.014390 0.332188 0.169319
0.012413 0.330211 0.330211
0.010379 0.328177 0.495674
0.008306 0.326104 0.664424
0.006201 0.323998 0.835756
0.004069 0.321867 1.000000
0.002473 0.320271 1.000000
0.000000 0.482219 0.000000
0.000000 0.481424 0.000000
0.000000 0.479543 0.149179
0.000000 0.477566 0.310070
0.000000 0.475533 0.475533
0.000000 0.473460 0.644283
0.000000 0.471354 0.815616
0.000000 0.469223 0.989082
0.000000 0.467627 1.000000
0.000000 0.632502 0.000000
0.000000 0.631707 0.000000
0.000000 0.629827 0.128638
0.000000 0.627850 0.289530
0.000000 0.625816 0.454993
0.000000 0.623743 0.623743
0.000000 0.621637 0.795075
0.000000 0.619506 0.968541
0.000000 0.617910 1.000000
0.000000 0.785085 0.000000
0.000000 0.784290 0.000000
0.000000 0.782409 0.107783
0.000000 0.780432 0.268675
0.000000 0.778399 0.434138
0.000000 0.776326 0.602888
0.000000 0.774220 0.774220
0.000000 0.772089 0.947687
0.000000 0.770493 1.000000
0.000000 0.939568 0.000000
0.000000 0.938773 0.000000
0.000000 0.936893 0.086669
0.000000 0.934916 0.247560
0.000000 0.932882 0.413023
0.000000 0.930809 0.581773
0.000000 0.928704 0.753106
0.000000 0.926572 0.926572
0.000000 0.924976 1.000000
0.000000 1.000000 0.000000
0.000000 1.000000 0.000000
0.000000 1.000000 0.070862
0.000000 1.000000 0.231753
0.000000 1.000000 0.397217
0.000000 1.000000 0.565967
0.000000 1.000000 0.737299
0.000000 1.000000 0.910765
0.000000 1.000000 1.000000
0.212545 0.000000 0.000000
0.211750 0.000000 0.056821
0.209870 0.000000 0.209870
0.207893 0.000000 0.370761
0.205860 0.000000 0.536225
0.203786 0.000000 0.704974
0.201681 0.000000 0.876307
0.199549 0.000000 1.000000
0.197953 0.000000 1.000000
0.204670 0.049741 0.000000
0.203875 0.048946 0.048946
0.201994 0.047065 0.201994
0.200017 0.045088 0.362886
0.197984 0.043055 0.528349
0.195911 0.040981 0.697099
0.193805 0.038876 0.868431
0.191674 0.036744 1.000000
0.190078 0.035149 1.000000
0.186041 0.186041 0.000000
0.185246 0.185246 0.030316
0.183365 0.183365 0.183365
0.181388 0.181388 0.344257
0.179355 0.179355 0.509720
0.177281 0.177281 0.678470
0.175176 0.175176 0.849802
0.173045 0.173045 1.000000
0.171449 0.171449 1.000000
0.166457 0.329325 0.000000
0.165662 0.328530 0.010733
0.163781 0.326650 0.163781
0.161804 0.324673 0.324673
0.159771 0.322640 0.490136
0.157697 0.320566 0.658886
0.155592 0.318461 0.830218
0.153461 0.316329 1.000000
0.151865 0.314733 1.000000
0.146316 0.476681 0.000000
0.145521 0.475886 0.000000
0.143641 0.474006 0.143641
0.141664 0.472029 0.304532
0.139631 0.469996 0.469996
0.137557 0.467922 0.638745
0.135452 0.465817 0.810078
0.133320 0.463685 0.983544
0.131724 0.462089 1.000000
0.125776 0.626964 0.000000
0.124981 0.626169 0.000000
0.123100 0.624289 0.123100
0.121123 0.622312 0.283992
0.119090 0.620279 0.449455
0.117017 0.618205 0.618205
0.114911 0.616100 0.789537
0.112780 0.613968 0.963004
0.111184 0.612372 1.000000
0.104921 0.779547 0.000000
0.104126 0.778752 0.000000
0.102246 0.776872 0.102246
0.100269 0.774895 0.263137
0.098235 0.772861 0.428600
0.096162 0.770788 0.597350
0.094056 0.768683 0.768683
0.091925 0.766551 0.942149
0.090329 0.764955 1.000000
0.083807 0.934031 0.000000
0.083012 0.933236 0.000000
0.081131 0.931355 0.081131
0.079154 0.929378 0.242023
0.077121 0.927345 0.407486
0.075047 0.925271 0.576236
0.072942 0.923166 0.747568
0.070810 0.921034 0.921034
0.069215 0.919439 1.000000
0.068000 1.000000 0.000000
0.067205 1.000000 0.000000
0.065324 1.000000 0.065324
0.063347 1.000000 0.226216
0.061314 1.000000 0.391679
0.059240 1.000000 0.560429
0.057135 1.000000 0.731761
0.055003 1.000000 0.905227
0.053408 1.000000 1.000000
0.369593 0.000000 0.000000
0.368798 0.000000 0.051000
0.366917 0.000000 0.204048
0.364940 0.000000 0.364940
0.362907 0.000000 0.530403
0.360833 0.000000 0.699153
0.358728 0.000000 0.870485
0.356596 0.000000 1.000000
0.355001 0.000000 1.000000
0.361717 0.043919 0.000000
0.360922 0.043124 0.043124
0.359042 0.041244 0.196173
0.357065 0.039267 0.357065
0.355031 0.037233 0.522528
0.352958 0.035160 0.691278
0.350852 0.033055 0.862610
0.348721 0.030923 1.000000
0.347125 0.029327 1.000000
0.343088 0.180219 0.000000
0.342293 0.179424 0.024495
0.340412 0.177544 0.177544
0.338435 0.175567 0.338435
0.336402 0.173533 0.503898
0.334328 0.171460 0.672648
0.332223 0.169355 0.843981
0.330092 0.167223 1.000000
0.328496 0.165627 1.000000
0.323504 0.323504 0.000000
0.322709 0.322709 0.004911
0.320828 0.320828 0.157960
0.318851 0.318851 0.318851
0.316818 0.316818 0.484314
0.314745 0.314745 0.653064
0.312639 0.312639 0.824397
0.310508 0.310508 0.997863
0.308912 0.308912 1.000000
0.303364 0.470860 0.000000
0.302569 0.470065 0.000000
0.300688 0.468184 0.137819
0.298711 0.466207 0.298711
0.296678 0.464174 0.464174
0.294604 0.462100 0.632924
0.292499 0.459995 0.804256
0.290367 0.457864 0.977723
0.288772 0.456268 1.000000
0.282823 0.621143 0.000000
0.282028 0.620348 0.000000
0.280147 0.618467 0.117279
0.278170 0.616490 0.278170
0.276137 0.614457 0.443634
0.274064 0.612384 0.612384
0.271958 0.610278 0.783716
0.269827 0.608147 0.957182
0.268231 0.606551 1.000000
0.261968 0.773726 0.000000
0.261173 0.772931 0.000000
0.259293 0.771050 0.096424
0.257316 0.769073 0.257316
0.255282 0.767040 0.422779
0.253209 0.764966 0.591529
0.251104 0.762861 0.762861
0.248972 0.760730 0.936327
0.247376 0.759134 1.000000
0.240854 0.928209 0.000000
0.240059 0.927414 0.000000
0.238178 0.925533 0.075309
0.236201 0.923556 0.236201
0.234168 0.921523 0.401664
0.232094 0.919450 0.570414
0.229989 0.917344 0.741747
0.227857 0.915213 0.915213
0.226262 0.913617 1.000000
0.225047 1.000000 0.000000
0.224252 1.000000 0.000000
0.222371 1.000000 0.059503
0.220394 1.000000 0.220394
0.218361 1.000000 0.385857
0.216287 1.000000 0.554607
0.214182 1.000000 0.725940
0.212051 1.000000 0.899406
0.210455 1.000000 1.000000
0.531102 0.000000 0.000000
0.530307 0.000000 0.045013
0.528426 0.000000 0.198061
0.526449 0.000000 0.358953
0.524416 0.000000 0.524416
0.522342 0.000000 0.693166
0.520237 0.000000 0.864498
0.518106 0.000000 1.000000
0.516510 0.000000 1.000000
0.523227 0.037932 0.000000
0.522432 0.037137 0.037137
0.520551 0.035257 0.190186
0.518574 0.033280 0.351078
0.516541 0.031246 0.516541
0.514467 0.029173 0.685291
0.512362 0.027068 0.856623
0.510230 0.024936 1.000000
0.508635 0.023340 1.000000
0.504597 0.174232 0.000000
0.503802 0.173437 0.018508
0.501922 0.171557 0.171557
0.499945 0.169580 0.332448
0.497911 0.167546 0.497911
0.495838 0.165473 0.666661
0.493733 0.163368 0.837994
0.491601 0.161236 1.000000
0.490005 0.159640 1.000000
0.485013 0.317517 0.000000
0.484218 0.316722 0.000000
0.482338 0.314841 0.151973
0.480361 0.312864 0.312864
0.478327 0.310831 0.478327
0.476254 0.308758 0.647077
0.474149 0.306652 0.818410
0.472017 0.304521 0.991876
0.470421 0.302925 1.000000
0.464873 0.464873 0.000000
0.464078 0.464078 0.000000
0.462197 0.462197 0.131832
0.460220 0.460220 0.292724
0.458187 0.458187 0.458187
0.456114 0.456114 0.626937
0.454008 0.454008 0.798269
0.451877 0.451877 0.971736
0.450281 0.450281 1.000000
0.444333 0.615156 0.000000
0.443537 0.614361 0.000000
0.441657 0.612480 0.111292
0.439680 0.610503 0.272184
0.437647 0.608470 0.437647
0.435573 0.606397 0.606397
0.433468 0.604291 0.777729
0.431336 0.602160 0.951195
0.429741 0.600564 1.000000
0.423478 0.767739 0.000000
0.422683 0.766944 0.000000
0.420802 0.765063 0.090437
0.418825 0.763086 0.251329
0.416792 0.761053 0.416792
0.414718 0.758979 0.585542
0.412613 0.756874 0.756874
0.410481 0.754743 0.930340
0.408886 0.753147 1.000000
0.402363 0.922222 0.000000
0.401568 0.921427 0.000000
0.399687 0.919546 0.069323
0.397710 0.917569 0.230214
0.395677 0.915536 0.395677
0.393604 0.913463 0.564427
0.391498 0.911357 0.735760
0.389367 0.909226 0.909226
0.387771 0.907630 1.000000
0.386556 1.000000 0.000000
0.385761 1.000000 0.000000
0.383881 1.000000 0.053516
0.381904 1.000000 0.214407
0.379870 1.000000 0.379870
0.377797 1.000000 0.548620
0.375692 1.000000 0.719953
0.373560 1.000000 0.893419
0.371964 1.000000 1.000000
0.695820 0.000000 0.000000
0.695025 0.000000 0.038907
0.693144 0.000000 0.191955
0.691167 0.000000 0.352847
0.689134 0.000000 0.518310
0.687060 0.000000 0.687060
0.684955 0.000000 0.858393
0.682823 0.000000 1.000000
0.681228 0.000000 1.000000
0.687944 0.031826 0.000000
0.687149 0.031031 0.031031
0.685269 0.029151 0.184080
0.683292 0.027174 0.344972
0.681258 0.025141 0.510435
0.679185 0.023067 0.679185
0.677080 0.020962 0.850517
0.674948 0.018830 1.000000
0.673352 0.017234 1.000000
0.669315 0.168127 0.000000
0.668520 0.167331 0.012402
0.666639 0.165451 0.165451
0.664662 0.163474 0.326342
0.662629 0.161441 0.491806
0.660556 0.159367 0.660556
0.658450 0.157262 0.831888
0.656319 0.155130 1.000000
0.654723 0.153535 1.000000
0.649731 0.311411 0.000000
0.648936 0.310616 0.000000
0.647055 0.308736 0.145867
0.645078 0.306759 0.306759
0.643045 0.304725 0.472222
0.640972 0.302652 0.640972
0.638866 0.300546 0.812304
0.636735 0.298415 0.985770
0.635139 0.296819 1.000000
0.629591 0.458767 0.000000
0.628796 0.457972 0.000000
0.626915 0.456091 0.125727
0.624938 0.454114 0.286618
0.622905 0.452081 0.452081
0.620831 0.450008 0.620831
0.618726 0.447902 0.792164
0.616594 0.445771 0.965630
0.614999 0.444175 1.000000
0.609050 0.609050 0.000000
0.608255 0.608255 0.000000
0.606375 0.606375 0.105186
0.604397 0.604397 0.266078
0.602364 0.602364 0.431541
0.600291 0.600291 0.600291
0.598185 0.598185 0.771623
0.596054 0.596054 0.945089
0.594458 0.594458 1.000000
0.588195 0.761633 0.000000
0.587400 0.760838 0.000000
0.585520 0.758957 0.084331
0.583543 0.756980 0.245223
0.581510 0.754947 0.410686
0.579436 0.752874 0.579436
0.577331 0.750768 0.750768
0.575199 0.748637 0.924235
0.573603 0.747041 1.000000
0.567081 0.916116 0.000000
0.566286 0.915321 0.000000
0.564405 0.913441 0.063217
0.562428 0.911464 0.224108
0.560395 0.909430 0.389571
0.558321 0.907357 0.558321
0.556216 0.905252 0.729654
0.554085 0.903120 0.903120
0.552489 0.901524 1.000000
0.551274 1.000000 0.000000
0.550479 1.000000 0.000000
0.548598 1.000000 0.047410
0.546621 1.000000 0.208301
0.544588 1.000000 0.373765
0.542514 1.000000 0.542514
0.540409 1.000000 0.713847
0.538278 1.000000 0.887313
0.536682 1.000000 1.000000
0.863058 0.000000 0.000000
0.862263 0.000000 0.032708
0.860382 0.000000 0.185756
0.858405 0.000000 0.346648
0.856372 0.000000 0.512111
0.854299 0.000000 0.680861
0.852193 0.000000 0.852193
0.850062 0.000000 1.000000
0.848466 0.000000 1.000000
0.855183 0.025627 0.000000
0.854388 0.024832 0.024832
0.852507 0.022952 0.177881
0.850530 0.020975 0.338772
0.848497 0.018941 0.504236
0.846423 0.016868 0.672986
0.844318 0.014762 0.844318
0.842186 0.012631 1.000000
0.840591 0.011035 1.000000
0.836553 0.161927 0.000000
0.835758 0.161132 0.006203
0.833878 0.159252 0.159252
0.831901 0.157275 0.320143
0.829867 0.155241 0.485606
0.827794 0.153168 0.654356
0.825689 0.151062 0.825689
0.823557 0.148931 0.999155
0.821961 0.147335 1.000000
0.816969 0.305212 0.000000
0.816174 0.304417 0.000000
0.814294 0.302536 0.139668
0.812317 0.300559 0.300559
0.810284 0.298526 0.466022
0.808210 0.296452 0.634772
0.806105 0.294347 0.806105
0.803973 0.292216 0.979571
0.802377 0.290620 1.000000
0.796829 0.452568 0.000000
0.796034 0.451773 0.000000
0.794153 0.449892 0.119527
0.792176 0.447915 0.280419
0.790143 0.445882 0.445882
0.788070 0.443808 0.614632
0.785964 0.441703 0.785964
0.783833 0.439572 0.959431
0.782237 0.437976 1.000000
0.776289 0.602851 0.000000
0.775494 0.602056 0.000000
0.773613 0.600175 0.098987
0.771636 0.598198 0.259878
0.769603 0.596165 0.425342
0.767529 0.594091 0.594091
0.765424 0.591986 0.765424
0.763292 0.589855 0.938890
0.761697 0.588259 1.000000
0.755434 0.755434 0.000000
0.754639 0.754639 0.000000
0.752758 0.752758 0.078132
0.750781 0.750781 0.239024
0.748748 0.748748 0.404487
0.746674 0.746674 0.573237
0.744569 0.744569 0.744569
0.742437 0.742437 0.918035
0.740842 0.740842 1.000000
0.734319 0.909917 0.000000
0.733524 0.909122 0.000000
0.731644 0.907241 0.057017
0.729667 0.905264 0.217909
0.727633 0.903231 0.383372
0.725560 0.901158 0.552122
0.723454 0.899052 0.723454
0.721323 0.896921 0.896921
0.719727 0.895325 1.000000
0.718512 1.000000 0.000000
0.717717 1.000000 0.000000
0.715837 1.000000 0.041211
0.713860 1.000000 0.202102
0.711826 1.000000 0.367565
0.709753 1.000000 0.536315
0.707648 1.000000 0.707648
0.705516 1.000000 0.881114
0.703920 1.000000 1.000000
1.000000 0.000000 0.000000
1.000000 0.000000 0.026431
1.000000 0.000000 0.179480
1.000000 0.000000 0.340371
1.000000 0.000000 0.505834
1.000000 0.000000 0.674584
1.000000 0.000000 0.845917
1.000000 0.000000 1.000000
1.000000 0.000000 1.000000
1.000000 0.019351 0.000000
1.000000 0.018556 0.018556
1.000000 0.016675 0.171604
1.000000 0.014698 0.332496
1.000000 0.012665 0.497959
1.000000 0.010591 0.666709
1.000000 0.008486 0.838041
1.000000 0.006354 1.000000
1.000000 0.004759 1.000000
1.000000 0.155651 0.000000
1.000000 0.154856 0.000000
1.000000 0.152975 0.152975
1.000000 0.150998 0.313867
0.999189 0.148965 0.479330
0.997115 0.146891 0.648080
0.995010 0.144786 0.819412
0.992878 0.142654 0.992878
0.991283 0.141059 1.000000
0.986291 0.298935 0.000000
0.985496 0.298140 0.000000
0.983615 0.296260 0.133391
0.981638 0.294283 0.294283
0.979605 0.292250 0.459746
0.977531 0.290176 0.628496
0.975426 0.288071 0.799828
0.973294 0.285939 0.973294
0.971699 0.284343 1.000000
0.966150 0.446291 0.000000
0.965355 0.445496 0.000000
0.963475 0.443616 0.113251
0.961498 0.441639 0.274142
0.959464 0.439605 0.439605
0.957391 0.437532 0.608355
0.955286 0.435427 0.779688
0.953154 0.433295 0.953154
0.951558 0.431699 1.000000
0.945610 0.596574 0.000000
0.944815 0.595779 0.000000
0.942934 0.593899 0.092710
0.940957 0.591922 0.253602
0.938924 0.589889 0.419065
0.936850 0.587815 0.587815
0.934745 0.585710 0.759147
0.932614 0.583578 0.932614
0.931018 0.581982 1.000000
0.924755 0.749157 0.000000
0.923960 0.748362 0.000000
0.922079 0.746482 0.071855
0.920102 0.744505 0.232747
0.918069 0.742471 0.398210
0.915996 0.740398 0.566960
0.913890 0.738292 0.738292
0.911759 0.736161 0.911759
0.910163 0.734565 1.000000
0.903641 0.903641 0.000000
0.902845 0.902845 0.000000
0.900965 0.900965 0.050741
0.898988 0.898988 0.211633
0.896955 0.896955 0.377096
0.894881 0.894881 0.545846
0.892776 0.892776 0.717178
0.890644 0.890644 0.890644
0.889049 0.889049 1.000000
0.887834 1.000000 0.000000
0.887039 1.000000 0.000000
0.885158 1.000000 0.034934
0.883181 1.000000 0.195826
0.881148 1.000000 0.361289
0.879074 1.000000 0.530039
0.876969 1.000000 0.701371
0.874837 1.000000 0.874837
0.873242 1.000000 1.000000
1.000000 0.000000 0.000000
1.000000 0.000000 0.021732
1.000000 0.000000 0.174781
1.000000 0.000000 0.335673
1.000000 0.000000 0.501136
1.000000 0.000000 0.669886
1.000000 0.000000 0.841218
1.000000 0.000000 1.000000
1.000000 0.000000 1.000000
1.000000 0.014652 0.000000
1.000000 0.013857 0.013857
1.000000 0.011976 0.166906
1.000000 0.009999 0.327797
1.000000 0.007966 0.493260
1.000000 0.005893 0.662010
1.000000 0.003787 0.833343
1.000000 0.001656 1.000000
1.000000 0.000060 1.000000
1.000000 0.150952 0.000000
1.000000 0.150157 0.000000
1.000000 0.148276 0.148276
1.000000 0.146299 0.309168
1.000000 0.144266 0.474631
1.000000 0.142193 0.643381
1.000000 0.140087 0.814713
1.000000 0.137956 0.988180
1.000000 0.136360 1.000000
1.000000 0.294237 0.000000
1.000000 0.293442 0.000000
1.000000 0.291561 0.128692
1.000000 0.289584 0.289584
1.000000 0.287551 0.455047
1.000000 0.285477 0.623797
1.000000 0.283372 0.795129
1.000000 0.281240 0.968596
1.000000 0.279645 1.000000
1.000000 0.441593 0.000000
1.000000 0.440798 0.000000
1.000000 0.438917 0.108552
1.000000 0.436940 0.269444
1.000000 0.434907 0.434907
1.000000 0.432833 0.603657
1.000000 0.430728 0.774989
1.000000 0.428596 0.948455
1.000000 0.427001 1.000000
1.000000 0.591876 0.000000
1.000000 0.591081 0.000000
1.000000 0.589200 0.088012
1.000000 0.587223 0.248903
1.000000 0.585190 0.414366
1.000000 0.583116 0.583116
1.000000 0.581011 0.754449
1.000000 0.578879 0.927915
1.000000 0.577284 1.000000
1.000000 0.744458 0.000000
1.000000 0.743663 0.000000
1.000000 0.741783 0.067157
1.000000 0.739806 0.228048
1.000000 0.737773 0.393511
1.000000 0.735699 0.562261
1.000000 0.733594 0.733594
1.000000 0.731462 0.907060
1.000000 0.729866 1.000000
1.000000 0.898942 0.000000
1.000000 0.898147 0.000000
1.000000 0.896266 0.046042
1.000000 0.894289 0.206934
1.000000 0.892256 0.372397
1.000000 0.890182 0.541147
1.000000 0.888077 0.712479
1.000000 0.885945 0.885945
1.000000 0.884350 1.000000
1.000000 1.000000 0.000000
1.000000 1.000000 0.000000
1.000000 1.000000 0.030235
1.000000 1.000000 0.191127
1.000000 1.000000 0.356590
1.000000 1.000000 0.525340
1.000000 1.000000 0.696672
1.000000 1.000000 0.870139
1.000000 1.000000 1.000000
