skills/creativeops-producer/assets/grade/luts/trailer_punch_v20.cube
TITLE "trailer_punch_v20"
LUT_3D_SIZE 5
DOMAIN_MIN 0.0 0.0 0.0
DOMAIN_MAX 1.0 1.0 1.0
0.000000 0.000000 0.000000
0.000000 0.000000 0.209077
0.000000 0.000000 0.550178
0.000000 0.000000 0.908923
0.000000 0.000000 1.000000
0.000000 0.182688 0.000000
0.000000 0.179725 0.179725
0.000000 0.174891 0.520826
0.000000 0.169807 0.879571
0.000000 0.165360 1.000000
0.000000 0.480737 0.000000
0.000000 0.477774 0.131839
0.000000 0.472940 0.472940
0.000000 0.467855 0.831685
0.000000 0.463409 1.000000
0.000000 0.794203 0.000000
0.000000 0.791240 0.081476
0.000000 0.786405 0.422576
0.000000 0.781321 0.781321
0.000000 0.776875 1.000000
0.000000 1.000000 0.000000
0.000000 1.000000 0.037429
0.000000 1.000000 0.378530
0.000000 1.000000 0.737275
0.000000 1.000000 1.000000
0.203315 0.000000 0.000000
0.200352 0.000000 0.200352
0.195518 0.000000 0.541453
0.190434 0.000000 0.900198
0.185987 0.000000 1.000000
0.173963 0.173963 0.000000
0.171000 0.171000 0.171000
0.166166 0.166166 0.512101
0.161082 0.161082 0.870846
0.156635 0.156635 1.000000
0.126077 0.472012 0.000000
0.123114 0.469049 0.123114
0.118280 0.464214 0.464214
0.113196 0.459130 0.822959
0.108749 0.454684 1.000000
0.075714 0.785478 0.000000
0.072751 0.782514 0.072751
0.067916 0.777680 0.413851
0.062832 0.772596 0.772596
0.058386 0.768150 1.000000
0.031667 1.000000 0.000000
0.028704 1.000000 0.028704
0.023870 1.000000 0.369805
0.018786 1.000000 0.728550
0.014339 1.000000 1.000000
0.535015 0.000000 0.000000
0.532052 0.000000 0.186117
0.527218 0.000000 0.527218
0.522134 0.000000 0.885963
0.517687 0.000000 1.000000
0.505663 0.159729 0.000000
0.502700 0.156766 0.156766
0.497866 0.151931 0.497866
0.492782 0.146847 0.856611
0.488335 0.142401 1.000000
0.457777 0.457777 0.000000
0.454814 0.454814 0.108879
0.449980 0.449980 0.449980
0.444896 0.444896 0.808725
0.440449 0.440449 1.000000
0.407414 0.771243 0.000000
0.404451 0.768280 0.058516
0.399616 0.763446 0.399616
0.394532 0.758361 0.758361
0.390086 0.753915 1.000000
0.363367 1.000000 0.000000
0.360404 1.000000 0.014469
0.355570 1.000000 0.355570
0.350486 1.000000 0.714315
0.346039 1.000000 1.000000
0.883873 0.000000 0.000000
0.880910 0.000000 0.171146
0.876076 0.000000 0.512247
0.870992 0.000000 0.870992
0.866545 0.000000 1.000000
0.854522 0.144758 0.000000
0.851558 0.141795 0.141795
0.846724 0.136960 0.482895
0.841640 0.131876 0.841640
0.837194 0.127430 1.000000
0.806635 0.442806 0.000000
0.803672 0.439843 0.093908
0.798838 0.435009 0.435009
0.793754 0.429925 0.793754
0.789307 0.425478 1.000000
0.756272 0.756272 0.000000
0.753309 0.753309 0.043545
0.748475 0.748475 0.384645
0.743390 0.743390 0.743390
0.738944 0.738944 1.000000
0.712225 1.000000 0.000000
0.709262 1.000000 0.000000
0.704428 1.000000 0.340599
0.699344 1.000000 0.699344
0.694897 1.000000 1.000000
1.000000 0.000000 0.000000
1.000000 0.000000 0.158053
1.000000 0.000000 0.499154
1.000000 0.000000 0.857899
1.000000 0.000000 1.000000
1.000000 0.131664 0.000000
1.000000 0.128701 0.128701
1.000000 0.123867 0.469802
1.000000 0.118783 0.828547
1.000000 0.114336 1.000000
1.000000 0.429713 0.000000
1.000000 0.426750 0.080815
1.000000 0.421916 0.421916
1.000000 0.416831 0.780661
1.000000 0.412385 1.000000
1.000000 0.743179 0.000000
1.000000 0.740216 0.030452
1.000000 0.735381 0.371552
1.000000 0.730297 0.730297
1.000000 0.725851 1.000000
1.000000 1.000000 0.000000
1.000000 1.000000 0.000000
1.000000 1.000000 0.327506
1.000000 1.000000 0.686251
1.000000 1.000000 1.000000
