skills/creativeops-producer/assets/grade/luts/trailer_punch_v20.cube
TITLE "trailer_punch_v20"
LUT_3D_SIZE 9
DOMAIN_MIN 0.0 0.0 0.0
DOMAIN_MAX 1.0 1.0 1.0
0.000000 0.000000 0.000000
0.000000 0.000000 0.051909
0.000000 0.000000 0.209077
0.000000 0.000000 0.376674
0.000000 0.000000 0.550178
0.000000 0.000000 0.727898
0.000000 0.000000 0.908923
0.000000 0.000000 1.000000
0.000000 0.000000 1.000000
0.000000 0.045358 0.000000
0.000000 0.044622 0.044622
0.000000 0.042394 0.201790
0.000000 0.040019 0.369387
0.000000 0.037560 0.542890
0.000000 0.035042 0.720611
0.000000 0.032476 0.901635
0.000000 0.029872 1.000000
0.000000 0.028030 1.000000
0.000000 0.182688 0.000000
0.000000 0.181953 0.022557
0.000000 0.179725 0.179725
0.000000 0.177350 0.347322
0.000000 0.174891 0.520826
0.000000 0.172373 0.698546
0.000000 0.169807 0.879571
0.000000 0.167203 1.000000
0.000000 0.165360 1.000000
0.000000 0.329132 0.000000
0.000000 0.328396 0.000000
0.000000 0.326169 0.156197
0.000000 0.323794 0.323794
0.000000 0.321335 0.497297
0.000000 0.318816 0.675018
0.000000 0.316251 0.856042
0.000000 0.313646 1.000000
0.000000 0.311804 1.000000
0.000000 0.480737 0.000000
0.000000 0.480001 0.000000
0.000000 0.477774 0.131839
0.000000 0.475398 0.299436
0.000000 0.472940 0.472940
0.000000 0.470421 0.650660
0.000000 0.467855 0.831685
0.000000 0.465251 1.000000
0.000000 0.463409 1.000000
0.000000 0.636026 0.000000
0.000000 0.635290 0.000000
0.000000 0.633063 0.106889
0.000000 0.630688 0.274486
0.000000 0.628229 0.447990
0.000000 0.625710 0.625710
0.000000 0.623145 0.806735
0.000000 0.620541 0.990487
0.000000 0.618698 1.000000
0.000000 0.794203 0.000000
0.000000 0.793467 0.000000
0.000000 0.791240 0.081476
0.000000 0.788864 0.249073
0.000000 0.786405 0.422576
0.000000 0.783887 0.600297
0.000000 0.781321 0.781321
0.000000 0.778717 0.965073
0.000000 0.776875 1.000000
0.000000 0.954762 0.000000
0.000000 0.954027 0.000000
0.000000 0.951799 0.055679
0.000000 0.949424 0.223276
0.000000 0.946965 0.396780
0.000000 0.944446 0.574500
0.000000 0.941881 0.755525
0.000000 0.939277 0.939277
0.000000 0.937434 1.000000
0.000000 1.000000 0.000000
0.000000 1.000000 0.000000
0.000000 1.000000 0.037429
0.000000 1.000000 0.205026
0.000000 1.000000 0.378530
0.000000 1.000000 0.556250
0.000000 1.000000 0.737275
0.000000 1.000000 0.921027
0.000000 1.000000 1.000000
0.050479 0.000000 0.000000
0.049743 0.000000 0.049743
0.047516 0.000000 0.206911
0.045140 0.000000 0.374508
0.042681 0.000000 0.548011
0.040163 0.000000 0.725732
0.037597 0.000000 0.906756
0.034993 0.000000 1.000000
0.033151 0.000000 1.000000
0.043191 0.043191 0.000000
0.042456 0.042456 0.042456
0.040228 0.040228 0.199624
0.037853 0.037853 0.367220
0.035394 0.035394 0.540724
0.032875 0.032875 0.718444
0.030310 0.030310 0.899469
0.027706 0.027706 1.000000
0.025863 0.025863 1.000000
0.021127 0.180522 0.000000
0.020391 0.179787 0.020391
0.018164 0.177559 0.177559
0.015789 0.175184 0.345156
0.013330 0.172725 0.518660
0.010811 0.170206 0.696380
0.008245 0.167641 0.877405
0.005641 0.165037 1.000000
0.003799 0.163194 1.000000
0.000000 0.326966 0.000000
0.000000 0.326230 0.000000
0.000000 0.324003 0.154031
0.000000 0.321627 0.321627
0.000000 0.319169 0.495131
0.000000 0.316650 0.672851
0.000000 0.314084 0.853876
0.000000 0.311480 1.000000
0.000000 0.309638 1.000000
0.000000 0.478571 0.000000
0.000000 0.477835 0.000000
0.000000 0.475607 0.129673
0.000000 0.473232 0.297270
0.000000 0.470773 0.470773
0.000000 0.468255 0.648494
0.000000 0.465689 0.829518
0.000000 0.463085 1.000000
0.000000 0.461243 1.000000
0.000000 0.633860 0.000000
0.000000 0.633124 0.000000
0.000000 0.630897 0.104723
0.000000 0.628522 0.272320
0.000000 0.626063 0.445824
0.000000 0.623544 0.623544
0.000000 0.620978 0.804569
0.000000 0.618374 0.988320
0.000000 0.616532 1.000000
0.000000 0.792036 0.000000
0.000000 0.791301 0.000000
0.000000 0.789073 0.079310
0.000000 0.786698 0.246906
0.000000 0.784239 0.420410
0.000000 0.781720 0.598130
0.000000 0.779155 0.779155
0.000000 0.776551 0.962907
0.000000 0.774708 1.000000
0.000000 0.952596 0.000000
0.000000 0.951860 0.000000
0.000000 0.949633 0.053513
0.000000 0.947258 0.221110
0.000000 0.944799 0.394613
0.000000 0.942280 0.572334
0.000000 0.939714 0.753358
0.000000 0.937110 0.937110
0.000000 0.935268 1.000000
0.000000 1.000000 0.000000
0.000000 1.000000 0.000000
0.000000 1.000000 0.035263
0.000000 1.000000 0.202860
0.000000 1.000000 0.376363
0.000000 1.000000 0.554084
0.000000 1.000000 0.735108
0.000000 1.000000 0.918860
0.000000 1.000000 1.000000
0.203315 0.000000 0.000000
0.202580 0.000000 0.043184
0.200352 0.000000 0.200352
0.197977 0.000000 0.367949
0.195518 0.000000 0.541453
0.192999 0.000000 0.719173
0.190434 0.000000 0.900198
0.187830 0.000000 1.000000
0.185987 0.000000 1.000000
0.196028 0.036632 0.000000
0.195292 0.035897 0.035897
0.193065 0.033669 0.193065
0.190689 0.031294 0.360662
0.188231 0.028835 0.534165
0.185712 0.026316 0.711886
0.183146 0.023751 0.892910
0.180542 0.021147 1.000000
0.178700 0.019304 1.000000
0.173963 0.173963 0.000000
0.173228 0.173228 0.013832
0.171000 0.171000 0.171000
0.168625 0.168625 0.338597
0.166166 0.166166 0.512101
0.163647 0.163647 0.689821
0.161082 0.161082 0.870846
0.158478 0.158478 1.000000
0.156635 0.156635 1.000000
0.150435 0.320407 0.000000
0.149699 0.319671 0.000000
0.147472 0.317444 0.147472
0.145097 0.315069 0.315069
0.142638 0.312610 0.488572
0.140119 0.310091 0.666293
0.137553 0.307525 0.847317
0.134949 0.304921 1.000000
0.133107 0.303079 1.000000
0.126077 0.472012 0.000000
0.125341 0.471276 0.000000
0.123114 0.469049 0.123114
0.120739 0.466673 0.290711
0.118280 0.464214 0.464214
0.115761 0.461696 0.641935
0.113196 0.459130 0.822959
0.110591 0.456526 1.000000
0.108749 0.454684 1.000000
0.101127 0.627301 0.000000
0.100392 0.626565 0.000000
0.098164 0.624338 0.098164
0.095789 0.621963 0.265761
0.093330 0.619504 0.439265
0.090811 0.616985 0.616985
0.088246 0.614420 0.798010
0.085642 0.611815 0.981762
0.083799 0.609973 1.000000
0.075714 0.785478 0.000000
0.074978 0.784742 0.000000
0.072751 0.782514 0.072751
0.070375 0.780139 0.240347
0.067916 0.777680 0.413851
0.065398 0.775162 0.591572
0.062832 0.772596 0.772596
0.060228 0.769992 0.956348
0.058386 0.768150 1.000000
0.049917 0.946037 0.000000
0.049182 0.945301 0.000000
0.046954 0.943074 0.046954
0.044579 0.940699 0.214551
0.042120 0.938240 0.388055
0.039601 0.935721 0.565775
0.037036 0.933156 0.746800
0.034432 0.930551 0.930551
0.032589 0.928709 1.000000
0.031667 1.000000 0.000000
0.030932 1.000000 0.000000
0.028704 1.000000 0.028704
0.026329 1.000000 0.196301
0.023870 1.000000 0.369805
0.021351 1.000000 0.547525
0.018786 1.000000 0.728550
0.016182 1.000000 0.912301
0.014339 1.000000 1.000000
0.366293 0.000000 0.000000
0.365558 0.000000 0.036190
0.363330 0.000000 0.193358
0.360955 0.000000 0.360955
0.358496 0.000000 0.534458
0.355977 0.000000 0.712179
0.353412 0.000000 0.893203
0.350808 0.000000 1.000000
0.348965 0.000000 1.000000
0.359006 0.029638 0.000000
0.358270 0.028903 0.028903
0.356043 0.026675 0.186071
0.353667 0.024300 0.353667
0.351209 0.021841 0.527171
0.348690 0.019322 0.704891
0.346124 0.016757 0.885916
0.343520 0.014153 1.000000
0.341678 0.012310 1.000000
0.336941 0.166969 0.000000
0.336206 0.166234 0.006838
0.333978 0.164006 0.164006
0.331603 0.161631 0.331603
0.329144 0.159172 0.505107
0.326625 0.156653 0.682827
0.324060 0.154088 0.863852
0.321456 0.151484 1.000000
0.319613 0.149641 1.000000
0.313413 0.313413 0.000000
0.312677 0.312677 0.000000
0.310450 0.310450 0.140478
0.308075 0.308075 0.308075
0.305616 0.305616 0.481578
0.303097 0.303097 0.659299
0.300531 0.300531 0.840323
0.297927 0.297927 1.000000
0.296085 0.296085 1.000000
0.289055 0.465018 0.000000
0.288319 0.464282 0.000000
0.286092 0.462055 0.116120
0.283717 0.459679 0.283717
0.281258 0.457220 0.457220
0.278739 0.454702 0.634941
0.276174 0.452136 0.815965
0.273569 0.449532 0.999717
0.271727 0.447690 1.000000
0.264105 0.620307 0.000000
0.263370 0.619571 0.000000
0.261142 0.617344 0.091170
0.258767 0.614969 0.258767
0.256308 0.612510 0.432271
0.253789 0.609991 0.609991
0.251224 0.607426 0.791016
0.248620 0.604821 0.974767
0.246777 0.602979 1.000000
0.238692 0.778483 0.000000
0.237956 0.777748 0.000000
0.235729 0.775520 0.065757
0.233353 0.773145 0.233353
0.230894 0.770686 0.406857
0.228376 0.768168 0.584577
0.225810 0.765602 0.765602
0.223206 0.762998 0.949354
0.221364 0.761155 1.000000
0.212895 0.939043 0.000000
0.212160 0.938307 0.000000
0.209932 0.936080 0.039960
0.207557 0.933705 0.207557
0.205098 0.931246 0.381061
0.202579 0.928727 0.558781
0.200014 0.926162 0.739805
0.197410 0.923557 0.923557
0.195567 0.921715 1.000000
0.194645 1.000000 0.000000
0.193910 1.000000 0.000000
0.191682 1.000000 0.021710
0.189307 1.000000 0.189307
0.186848 1.000000 0.362810
0.184329 1.000000 0.540531
0.181764 1.000000 0.721555
0.179160 1.000000 0.905307
0.177317 1.000000 1.000000
0.535015 0.000000 0.000000
0.534279 0.000000 0.028950
0.532052 0.000000 0.186117
0.529677 0.000000 0.353714
0.527218 0.000000 0.527218
0.524699 0.000000 0.704938
0.522134 0.000000 0.885963
0.519530 0.000000 1.000000
0.517687 0.000000 1.000000
0.527728 0.022398 0.000000
0.526992 0.021662 0.021662
0.524765 0.019435 0.178830
0.522389 0.017059 0.346427
0.519930 0.014601 0.519930
0.517412 0.012082 0.697651
0.514846 0.009516 0.878675
0.512242 0.006912 1.000000
0.510400 0.005070 1.000000
0.505663 0.159729 0.000000
0.504928 0.158993 0.000000
0.502700 0.156766 0.156766
0.500325 0.154390 0.324362
0.497866 0.151931 0.497866
0.495347 0.149413 0.675586
0.492782 0.146847 0.856611
0.490178 0.144243 1.000000
0.488335 0.142401 1.000000
0.482135 0.306172 0.000000
0.481399 0.305437 0.000000
0.479172 0.303209 0.133237
0.476796 0.300834 0.300834
0.474338 0.298375 0.474338
0.471819 0.295856 0.652058
0.469253 0.293291 0.833083
0.466649 0.290687 1.000000
0.464807 0.288844 1.000000
0.457777 0.457777 0.000000
0.457041 0.457041 0.000000
0.454814 0.454814 0.108879
0.452439 0.452439 0.276476
0.449980 0.449980 0.449980
0.447461 0.447461 0.627700
0.444896 0.444896 0.808725
0.442291 0.442291 0.992477
0.440449 0.440449 1.000000
0.432827 0.613066 0.000000
0.432092 0.612331 0.000000
0.429864 0.610103 0.083930
0.427489 0.607728 0.251526
0.425030 0.605269 0.425030
0.422511 0.602750 0.602750
0.419946 0.600185 0.783775
0.417342 0.597581 0.967527
0.415499 0.595738 1.000000
0.407414 0.771243 0.000000
0.406678 0.770507 0.000000
0.404451 0.768280 0.058516
0.402075 0.765905 0.226113
0.399616 0.763446 0.399616
0.397098 0.760927 0.577337
0.394532 0.758361 0.758361
0.391928 0.755757 0.942113
0.390086 0.753915 1.000000
0.381617 0.931802 0.000000
0.380882 0.931067 0.000000
0.378654 0.928839 0.032720
0.376279 0.926464 0.200316
0.373820 0.924005 0.373820
0.371301 0.921486 0.551540
0.368736 0.918921 0.732565
0.366132 0.916317 0.916317
0.364289 0.914474 1.000000
0.363367 1.000000 0.000000
0.362631 1.000000 0.000000
0.360404 1.000000 0.014469
0.358029 1.000000 0.182066
0.355570 1.000000 0.355570
0.353051 1.000000 0.533290
0.350486 1.000000 0.714315
0.347882 1.000000 0.898067
0.346039 1.000000 1.000000
0.707838 0.000000 0.000000
0.707102 0.000000 0.021533
0.704875 0.000000 0.178701
0.702499 0.000000 0.346298
0.700040 0.000000 0.519801
0.697522 0.000000 0.697522
0.694956 0.000000 0.878546
0.692352 0.000000 1.000000
0.690510 0.000000 1.000000
0.700550 0.014981 0.000000
0.699815 0.014246 0.014246
0.697587 0.012018 0.171413
0.695212 0.009643 0.339010
0.692753 0.007184 0.512514
0.690234 0.004665 0.690234
0.687669 0.002100 0.871259
0.685065 0.000000 1.000000
0.683222 0.000000 1.000000
0.678486 0.152312 0.000000
0.677750 0.151576 0.000000
0.675523 0.149349 0.149349
0.673148 0.146974 0.316946
0.670689 0.144515 0.490450
0.668170 0.141996 0.668170
0.665604 0.139431 0.849194
0.663000 0.136827 1.000000
0.661158 0.134984 1.000000
0.654957 0.298756 0.000000
0.654222 0.298020 0.000000
0.651994 0.295793 0.125821
0.649619 0.293417 0.293417
0.647160 0.290958 0.466921
0.644641 0.288440 0.644641
0.642076 0.285874 0.825666
0.639472 0.283270 1.000000
0.637629 0.281428 1.000000
0.630600 0.450360 0.000000
0.629864 0.449625 0.000000
0.627637 0.447397 0.101463
0.625261 0.445022 0.269060
0.622802 0.442563 0.442563
0.620284 0.440045 0.620284
0.617718 0.437479 0.801308
0.615114 0.434875 0.985060
0.613272 0.433032 1.000000
0.605650 0.605650 0.000000
0.604914 0.604914 0.000000
0.602687 0.602687 0.076513
0.600312 0.600312 0.244110
0.597853 0.597853 0.417613
0.595334 0.595334 0.595334
0.592768 0.592768 0.776358
0.590164 0.590164 0.960110
0.588322 0.588322 1.000000
0.580236 0.763826 0.000000
0.579501 0.763091 0.000000
0.577273 0.760863 0.051099
0.574898 0.758488 0.218696
0.572439 0.756029 0.392200
0.569920 0.753510 0.569920
0.567355 0.750945 0.750945
0.564751 0.748341 0.934697
0.562908 0.746498 1.000000
0.554440 0.924386 0.000000
0.553704 0.923650 0.000000
0.551477 0.921423 0.025303
0.549101 0.919048 0.192900
0.546643 0.916589 0.366403
0.544124 0.914070 0.544124
0.541558 0.911504 0.725148
0.538954 0.908900 0.908900
0.537112 0.907058 1.000000
0.536190 1.000000 0.000000
0.535454 1.000000 0.000000
0.533227 1.000000 0.007053
0.530851 1.000000 0.174650
0.528392 1.000000 0.348153
0.525874 1.000000 0.525874
0.523308 1.000000 0.706898
0.520704 1.000000 0.890650
0.518862 1.000000 1.000000
0.883873 0.000000 0.000000
0.883138 0.000000 0.013979
0.880910 0.000000 0.171146
0.878535 0.000000 0.338743
0.876076 0.000000 0.512247
0.873557 0.000000 0.689967
0.870992 0.000000 0.870992
0.868388 0.000000 1.000000
0.866545 0.000000 1.000000
0.876586 0.007427 0.000000
0.875850 0.006691 0.006691
0.873623 0.004464 0.163859
0.871248 0.002088 0.331456
0.868789 0.000000 0.504960
0.866270 0.000000 0.682680
0.863704 0.000000 0.863704
0.861100 0.000000 1.000000
0.859258 0.000000 1.000000
0.854522 0.144758 0.000000
0.853786 0.144022 0.000000
0.851558 0.141795 0.141795
0.849183 0.139419 0.309391
0.846724 0.136960 0.482895
0.844206 0.134442 0.660615
0.841640 0.131876 0.841640
0.839036 0.129272 1.000000
0.837194 0.127430 1.000000
0.830993 0.291201 0.000000
0.830257 0.290466 0.000000
0.828030 0.288238 0.118266
0.825655 0.285863 0.285863
0.823196 0.283404 0.459367
0.820677 0.280885 0.637087
0.818112 0.278320 0.818112
0.815507 0.275716 1.000000
0.813665 0.273873 1.000000
0.806635 0.442806 0.000000
0.805900 0.442070 0.000000
0.803672 0.439843 0.093908
0.801297 0.437468 0.261505
0.798838 0.435009 0.435009
0.796319 0.432490 0.612729
0.793754 0.429925 0.793754
0.791150 0.427320 0.977506
0.789307 0.425478 1.000000
0.781685 0.598095 0.000000
0.780950 0.597360 0.000000
0.778722 0.595132 0.068959
0.776347 0.592757 0.236555
0.773888 0.590298 0.410059
0.771370 0.587779 0.587779
0.768804 0.585214 0.768804
0.766200 0.582610 0.952556
0.764357 0.580767 1.000000
0.756272 0.756272 0.000000
0.755536 0.755536 0.000000
0.753309 0.753309 0.043545
0.750934 0.750934 0.211142
0.748475 0.748475 0.384645
0.745956 0.745956 0.562366
0.743390 0.743390 0.743390
0.740786 0.740786 0.927142
0.738944 0.738944 1.000000
0.730475 0.916831 0.000000
0.729740 0.916096 0.000000
0.727512 0.913868 0.017749
0.725137 0.911493 0.185345
0.722678 0.909034 0.358849
0.720159 0.906516 0.536569
0.717594 0.903950 0.717594
0.714990 0.901346 0.901346
0.713147 0.899503 1.000000
0.712225 1.000000 0.000000
0.711490 1.000000 0.000000
0.709262 1.000000 0.000000
0.706887 1.000000 0.167095
0.704428 1.000000 0.340599
0.701909 1.000000 0.518319
0.699344 1.000000 0.699344
0.696740 1.000000 0.883096
0.694897 1.000000 1.000000
1.000000 0.000000 0.000000
1.000000 0.000000 0.006310
1.000000 0.000000 0.163478
1.000000 0.000000 0.331075
1.000000 0.000000 0.504579
1.000000 0.000000 0.682299
1.000000 0.000000 0.863324
1.000000 0.000000 1.000000
1.000000 0.000000 1.000000
1.000000 0.000000 0.000000
1.000000 0.000000 0.000000
1.000000 0.000000 0.156191
1.000000 0.000000 0.323788
1.000000 0.000000 0.497291
1.000000 0.000000 0.675012
1.000000 0.000000 0.856036
1.000000 0.000000 1.000000
1.000000 0.000000 1.000000
1.000000 0.137089 0.000000
1.000000 0.136354 0.000000
1.000000 0.134126 0.134126
1.000000 0.131751 0.301723
1.000000 0.129292 0.475227
1.000000 0.126774 0.652947
1.000000 0.124208 0.833972
1.000000 0.121604 1.000000
1.000000 0.119761 1.000000
1.000000 0.283533 0.000000
1.000000 0.282797 0.000000
1.000000 0.280570 0.110598
1.000000 0.278195 0.278195
1.000000 0.275736 0.451698
0.999365 0.273217 0.629419
0.996799 0.270652 0.810443
0.994195 0.268047 0.994195
0.992353 0.266205 1.000000
0.985323 0.435138 0.000000
0.984587 0.434402 0.000000
0.982360 0.432175 0.086240
0.979985 0.429799 0.253837
0.977526 0.427341 0.427341
0.975007 0.424822 0.605061
0.972442 0.422256 0.786086
0.969837 0.419652 0.969837
0.967995 0.417810 1.000000
0.960373 0.590427 0.000000
0.959638 0.589691 0.000000
0.957410 0.587464 0.061290
0.955035 0.585089 0.228887
0.952576 0.582630 0.402391
0.950057 0.580111 0.580111
0.947492 0.577546 0.761136
0.944888 0.574942 0.944888
0.943045 0.573099 1.000000
0.934960 0.748604 0.000000
0.934224 0.747868 0.000000
0.931997 0.745641 0.035877
0.929621 0.743265 0.203474
0.927162 0.740806 0.376977
0.924644 0.738288 0.554698
0.922078 0.735722 0.735722
0.919474 0.733118 0.919474
0.917632 0.731276 1.000000
0.909163 0.909163 0.000000
0.908428 0.908428 0.000000
0.906200 0.906200 0.010080
0.903825 0.903825 0.177677
0.901366 0.901366 0.351181
0.898847 0.898847 0.528901
0.896282 0.896282 0.709926
0.893678 0.893678 0.893678
0.891835 0.891835 1.000000
0.890913 1.000000 0.000000
0.890178 1.000000 0.000000
0.887950 1.000000 0.000000
0.885575 1.000000 0.159427
0.883116 1.000000 0.332931
0.880597 1.000000 0.510651
0.878032 1.000000 0.691676
0.875428 1.000000 0.875428
0.873585 1.000000 1.000000
1.000000 0.000000 0.000000
1.000000 0.000000 0.000885
1.000000 0.000000 0.158053
1.000000 0.000000 0.325650
1.000000 0.000000 0.499154
1.000000 0.000000 0.676874
1.000000 0.000000 0.857899
1.000000 0.000000 1.000000
1.000000 0.000000 1.000000
1.000000 0.000000 0.000000
1.000000 0.000000 0.000000
1.000000 0.000000 0.150766
1.000000 0.000000 0.318363
1.000000 0.000000 0.491866
1.000000 0.000000 0.669587
1.000000 0.000000 0.850611
1.000000 0.000000 1.000000
1.000000 0.000000 1.000000
1.000000 0.131664 0.000000
1.000000 0.130929 0.000000
1.000000 0.128701 0.128701
1.000000 0.126326 0.296298
1.000000 0.123867 0.469802
1.000000 0.121349 0.647522
1.000000 0.118783 0.828547
1.000000 0.116179 1.000000
1.000000 0.114336 1.000000
1.000000 0.278108 0.000000
1.000000 0.277372 0.000000
1.000000 0.275145 0.105173
1.000000 0.272770 0.272770
1.000000 0.270311 0.446273
1.000000 0.267792 0.623994
1.000000 0.265227 0.805018
1.000000 0.262622 0.988770
1.000000 0.260780 1.000000
1.000000 0.429713 0.000000
1.000000 0.428977 0.000000
1.000000 0.426750 0.080815
1.000000 0.424374 0.248412
1.000000 0.421916 0.421916
1.000000 0.419397 0.599636
1.000000 0.416831 0.780661
1.000000 0.414227 0.964412
1.000000 0.412385 1.000000
1.000000 0.585002 0.000000
1.000000 0.584266 0.000000
1.000000 0.582039 0.055865
1.000000 0.579664 0.223462
1.000000 0.577205 0.396966
1.000000 0.574686 0.574686
1.000000 0.572121 0.755711
1.000000 0.569517 0.939463
1.000000 0.567674 1.000000
1.000000 0.743179 0.000000
1.000000 0.742443 0.000000
1.000000 0.740216 0.030452
1.000000 0.737840 0.198049
1.000000 0.735381 0.371552
1.000000 0.732863 0.549273
1.000000 0.730297 0.730297
1.000000 0.727693 0.914049
1.000000 0.725851 1.000000
1.000000 0.903738 0.000000
1.000000 0.903003 0.000000
1.000000 0.900775 0.004655
1.000000 0.898400 0.172252
1.000000 0.895941 0.345756
1.000000 0.893422 0.523476
1.000000 0.890857 0.704501
1.000000 0.888253 0.888253
1.000000 0.886410 1.000000
1.000000 1.000000 0.000000
1.000000 1.000000 0.000000
1.000000 1.000000 0.000000
1.000000 1.000000 0.154002
1.000000 1.000000 0.327506
1.000000 1.000000 0.505226
1.000000 1.000000 0.686251
1.000000 1.000000 0.870003
1.000000 1.000000 1.000000
