skills/creativeops-producer/assets/grade/luts/trailer_punch_v16.cube
TITLE "trailer_punch_v16"
LUT_3D_SIZE 17
DOMAIN_MIN 0.0 0.0 0.0
DOMAIN_MAX 1.0 1.0 1.0
0.000000 0.000000 0.000000
0.000000 0.000000 0.000000
0.000000 0.000000 0.064700
0.000000 0.000000 0.139836
0.000000 0.000000 0.217749
0.000000 0.000000 0.297500
0.000000 0.000000 0.378640
0.000000 0.000000 0.460901
0.000000 0.000000 0.544103
0.000000 0.000000 0.628120
0.000000 0.000000 0.712853
0.000000 0.000000 0.798229
0.000000 0.000000 0.884186
0.000000 0.000000 0.970674
0.000000 0.000000 1.000000
0.000000 0.000000 1.000000
0.000000 0.000000 1.000000
0.000000 0.000000 0.000000
0.000000 0.000000 0.000000
0.000000 0.000000 0.064700
0.000000 0.000000 0.139836
0.000000 0.000000 0.217749
0.000000 0.000000 0.297500
0.000000 0.000000 0.378640
0.000000 0.000000 0.460901
0.000000 0.000000 0.544103
0.000000 0.000000 0.628120
0.000000 0.000000 0.712853
0.000000 0.000000 0.798229
0.000000 0.000000 0.884186
0.000000 0.000000 0.970674
0.000000 0.000000 1.000000
0.000000 0.000000 1.000000
0.000000 0.000000 1.000000
0.000000 0.057620 0.000000
0.000000 0.057620 0.000000
0.000000 0.056825 0.056825
0.000000 0.055901 0.131960
0.000000 0.054944 0.209873
0.000000 0.053964 0.289625
0.000000 0.052967 0.370765
0.000000 0.051956 0.453025
0.000000 0.050934 0.536228
0.000000 0.049901 0.620244
0.000000 0.048860 0.704978
0.000000 0.047811 0.790353
0.000000 0.046755 0.876310
0.000000 0.045692 0.962798
0.000000 0.044623 1.000000
0.000000 0.043549 1.000000
0.000000 0.043028 1.000000
0.000000 0.124533 0.000000
0.000000 0.124533 0.000000
0.000000 0.123738 0.047679
0.000000 0.122815 0.122815
0.000000 0.121857 0.200728
0.000000 0.120877 0.280479
0.000000 0.119880 0.361619
0.000000 0.118869 0.443880
0.000000 0.117847 0.527082
0.000000 0.116815 0.611099
0.000000 0.115773 0.695832
0.000000 0.114724 0.781208
0.000000 0.113668 0.867165
0.000000 0.112605 0.953653
0.000000 0.111537 1.000000
0.000000 0.110462 1.000000
0.000000 0.109941 1.000000
0.000000 0.193920 0.000000
0.000000 0.193920 0.000000
0.000000 0.193125 0.038195
0.000000 0.192201 0.113331
0.000000 0.191244 0.191244
0.000000 0.190264 0.270995
0.000000 0.189267 0.352136
0.000000 0.188256 0.434396
0.000000 0.187234 0.517599
0.000000 0.186201 0.601615
0.000000 0.185160 0.686349
0.000000 0.184111 0.771724
0.000000 0.183055 0.857681
0.000000 0.181992 0.944169
0.000000 0.180923 1.000000
0.000000 0.179849 1.000000
0.000000 0.179328 1.000000
0.000000 0.264944 0.000000
0.000000 0.264944 0.000000
0.000000 0.264149 0.028488
0.000000 0.263225 0.103623
0.000000 0.262268 0.181536
0.000000 0.261288 0.261288
0.000000 0.260291 0.342428
0.000000 0.259280 0.424689
0.000000 0.258258 0.507891
0.000000 0.257225 0.591907
0.000000 0.256184 0.676641
0.000000 0.255135 0.762017
0.000000 0.254079 0.847973
0.000000 0.253016 0.934462
0.000000 0.251947 1.000000
0.000000 0.250873 1.000000
0.000000 0.250352 1.000000
0.000000 0.337204 0.000000
0.000000 0.337204 0.000000
0.000000 0.336409 0.018611
0.000000 0.335486 0.093747
0.000000 0.334529 0.171660
0.000000 0.333549 0.251412
0.000000 0.332552 0.332552
0.000000 0.331541 0.414812
0.000000 0.330518 0.498015
0.000000 0.329486 0.582031
0.000000 0.328445 0.666765
0.000000 0.327396 0.752140
0.000000 0.326339 0.838097
0.000000 0.325277 0.924585
0.000000 0.324208 1.000000
0.000000 0.323134 1.000000
0.000000 0.322612 1.000000
0.000000 0.410463 0.000000
0.000000 0.410463 0.000000
0.000000 0.409668 0.008598
0.000000 0.408745 0.083734
0.000000 0.407787 0.161647
0.000000 0.406807 0.241399
0.000000 0.405810 0.322539
0.000000 0.404799 0.404799
0.000000 0.403777 0.488002
0.000000 0.402745 0.572018
0.000000 0.401703 0.656752
0.000000 0.400654 0.742127
0.000000 0.399598 0.828084
0.000000 0.398535 0.914572
0.000000 0.397467 1.000000
0.000000 0.396392 1.000000
0.000000 0.395871 1.000000
0.000000 0.484560 0.000000
0.000000 0.484560 0.000000
0.000000 0.483765 0.000000
0.000000 0.482842 0.073607
0.000000 0.481884 0.151520
0.000000 0.480905 0.231271
0.000000 0.479907 0.312411
0.000000 0.478897 0.394672
0.000000 0.477874 0.477874
0.000000 0.476842 0.561891
0.000000 0.475801 0.646624
0.000000 0.474752 0.732000
0.000000 0.473695 0.817957
0.000000 0.472633 0.904445
0.000000 0.471564 0.991423
0.000000 0.470490 1.000000
0.000000 0.469968 1.000000
0.000000 0.559382 0.000000
0.000000 0.559382 0.000000
0.000000 0.558587 0.000000
0.000000 0.557664 0.063380
0.000000 0.556707 0.141293
0.000000 0.555727 0.221045
0.000000 0.554730 0.302185
0.000000 0.553719 0.384445
0.000000 0.552696 0.467648
0.000000 0.551664 0.551664
0.000000 0.550623 0.636398
0.000000 0.549574 0.721773
0.000000 0.548518 0.807730
0.000000 0.547455 0.894218
0.000000 0.546386 0.981196
0.000000 0.545312 1.000000
0.000000 0.544790 1.000000
0.000000 0.634843 0.000000
0.000000 0.634843 0.000000
0.000000 0.634048 0.000000
0.000000 0.633125 0.053066
0.000000 0.632168 0.130979
0.000000 0.631188 0.210731
0.000000 0.630191 0.291871
0.000000 0.629180 0.374131
0.000000 0.628157 0.457334
0.000000 0.627125 0.541350
0.000000 0.626084 0.626084
0.000000 0.625035 0.711459
0.000000 0.623978 0.797416
0.000000 0.622916 0.883904
0.000000 0.621847 0.970882
0.000000 0.620773 1.000000
0.000000 0.620251 1.000000
0.000000 0.710876 0.000000
0.000000 0.710876 0.000000
0.000000 0.710081 0.000000
0.000000 0.709158 0.042674
0.000000 0.708200 0.120587
0.000000 0.707220 0.200339
0.000000 0.706223 0.281479
0.000000 0.705212 0.363739
0.000000 0.704190 0.446942
0.000000 0.703158 0.530958
0.000000 0.702116 0.615692
0.000000 0.701067 0.701067
0.000000 0.700011 0.787024
0.000000 0.698948 0.873512
0.000000 0.697880 0.960490
0.000000 0.696805 1.000000
0.000000 0.696284 1.000000
0.000000 0.787426 0.000000
0.000000 0.787426 0.000000
0.000000 0.786631 0.000000
0.000000 0.785708 0.032211
0.000000 0.784750 0.110124
0.000000 0.783770 0.189876
0.000000 0.782773 0.271016
0.000000 0.781763 0.353277
0.000000 0.780740 0.436479
0.000000 0.779708 0.520495
0.000000 0.778667 0.605229
0.000000 0.777618 0.690605
0.000000 0.776561 0.776561
0.000000 0.775499 0.863050
0.000000 0.774430 0.950028
0.000000 0.773355 1.000000
0.000000 0.772834 1.000000
0.000000 0.864450 0.000000
0.000000 0.864450 0.000000
0.000000 0.863655 0.000000
0.000000 0.862731 0.021684
0.000000 0.861774 0.099597
0.000000 0.860794 0.179348
0.000000 0.859797 0.260488
0.000000 0.858786 0.342749
0.000000 0.857764 0.425952
0.000000 0.856731 0.509968
0.000000 0.855690 0.594702
0.000000 0.854641 0.680077
0.000000 0.853585 0.766034
0.000000 0.852522 0.852522
0.000000 0.851453 0.939500
0.000000 0.850379 1.000000
0.000000 0.849858 1.000000
0.000000 0.941909 0.000000
0.000000 0.941909 0.000000
0.000000 0.941114 0.000000
0.000000 0.940191 0.011097
0.000000 0.939234 0.089010
0.000000 0.938254 0.168761
0.000000 0.937257 0.249901
0.000000 0.936246 0.332162
0.000000 0.935223 0.415364
0.000000 0.934191 0.499381
0.000000 0.933150 0.584114
0.000000 0.932101 0.669490
0.000000 0.931045 0.755447
0.000000 0.929982 0.841935
0.000000 0.928913 0.928913
0.000000 0.927839 1.000000
0.000000 0.927317 1.000000
0.000000 1.000000 0.000000
0.000000 1.000000 0.000000
0.000000 1.000000 0.000000
0.000000 1.000000 0.000454
0.000000 1.000000 0.078367
0.000000 1.000000 0.158119
0.000000 1.000000 0.239259
0.000000 1.000000 0.321520
0.000000 1.000000 0.404722
0.000000 1.000000 0.488738
0.000000 1.000000 0.573472
0.000000 1.000000 0.658848
0.000000 1.000000 0.744804
0.000000 1.000000 0.831293
0.000000 1.000000 0.918271
0.000000 1.000000 1.000000
0.000000 1.000000 1.000000
0.000000 1.000000 0.000000
0.000000 1.000000 0.000000
0.000000 1.000000 0.000000
0.000000 1.000000 0.000000
0.000000 1.000000 0.073203
0.000000 1.000000 0.152954
0.000000 1.000000 0.234094
0.000000 1.000000 0.316355
0.000000 1.000000 0.399558
0.000000 1.000000 0.483574
0.000000 1.000000 0.568308
0.000000 1.000000 0.653683
0.000000 1.000000 0.739640
0.000000 1.000000 0.826128
0.000000 1.000000 0.913106
0.000000 1.000000 1.000000
0.000000 1.000000 1.000000
0.000000 0.000000 0.000000
0.000000 0.000000 0.000000
0.000000 0.000000 0.064700
0.000000 0.000000 0.139836
0.000000 0.000000 0.217749
0.000000 0.000000 0.297500
0.000000 0.000000 0.378640
0.000000 0.000000 0.460901
0.000000 0.000000 0.544103
0.000000 0.000000 0.628120
0.000000 0.000000 0.712853
0.000000 0.000000 0.798229
0.000000 0.000000 0.884186
0.000000 0.000000 0.970674
0.000000 0.000000 1.000000
0.000000 0.000000 1.000000
0.000000 0.000000 1.000000
0.000000 0.000000 0.000000
0.000000 0.000000 0.000000
0.000000 0.000000 0.064700
0.000000 0.000000 0.139836
0.000000 0.000000 0.217749
0.000000 0.000000 0.297500
0.000000 0.000000 0.378640
0.000000 0.000000 0.460901
0.000000 0.000000 0.544103
0.000000 0.000000 0.628120
0.000000 0.000000 0.712853
0.000000 0.000000 0.798229
0.000000 0.000000 0.884186
0.000000 0.000000 0.970674
0.000000 0.000000 1.000000
0.000000 0.000000 1.000000
0.000000 0.000000 1.000000
0.000000 0.057620 0.000000
0.000000 0.057620 0.000000
0.000000 0.056825 0.056825
0.000000 0.055901 0.131960
0.000000 0.054944 0.209873
0.000000 0.053964 0.289625
0.000000 0.052967 0.370765
0.000000 0.051956 0.453025
0.000000 0.050934 0.536228
0.000000 0.049901 0.620244
0.000000 0.048860 0.704978
0.000000 0.047811 0.790353
0.000000 0.046755 0.876310
0.000000 0.045692 0.962798
0.000000 0.044623 1.000000
0.000000 0.043549 1.000000
0.000000 0.043028 1.000000
0.000000 0.124533 0.000000
0.000000 0.124533 0.000000
0.000000 0.123738 0.047679
0.000000 0.122815 0.122815
0.000000 0.121857 0.200728
0.000000 0.120877 0.280479
0.000000 0.119880 0.361619
0.000000 0.118869 0.443880
0.000000 0.117847 0.527082
0.000000 0.116815 0.611099
0.000000 0.115773 0.695832
0.000000 0.114724 0.781208
0.000000 0.113668 0.867165
0.000000 0.112605 0.953653
0.000000 0.111537 1.000000
0.000000 0.110462 1.000000
0.000000 0.109941 1.000000
0.000000 0.193920 0.000000
0.000000 0.193920 0.000000
0.000000 0.193125 0.038195
0.000000 0.192201 0.113331
0.000000 0.191244 0.191244
0.000000 0.190264 0.270995
0.000000 0.189267 0.352136
0.000000 0.188256 0.434396
0.000000 0.187234 0.517599
0.000000 0.186201 0.601615
0.000000 0.185160 0.686349
0.000000 0.184111 0.771724
0.000000 0.183055 0.857681
0.000000 0.181992 0.944169
0.000000 0.180923 1.000000
0.000000 0.179849 1.000000
0.000000 0.179328 1.000000
0.000000 0.264944 0.000000
0.000000 0.264944 0.000000
0.000000 0.264149 0.028488
0.000000 0.263225 0.103623
0.000000 0.262268 0.181536
0.000000 0.261288 0.261288
0.000000 0.260291 0.342428
0.000000 0.259280 0.424689
0.000000 0.258258 0.507891
0.000000 0.257225 0.591907
0.000000 0.256184 0.676641
0.000000 0.255135 0.762017
0.000000 0.254079 0.847973
0.000000 0.253016 0.934462
0.000000 0.251947 1.000000
0.000000 0.250873 1.000000
0.000000 0.250352 1.000000
0.000000 0.337204 0.000000
0.000000 0.337204 0.000000
0.000000 0.336409 0.018611
0.000000 0.335486 0.093747
0.000000 0.334529 0.171660
0.000000 0.333549 0.251412
0.000000 0.332552 0.332552
0.000000 0.331541 0.414812
0.000000 0.330518 0.498015
0.000000 0.329486 0.582031
0.000000 0.328445 0.666765
0.000000 0.327396 0.752140
0.000000 0.326339 0.838097
0.000000 0.325277 0.924585
0.000000 0.324208 1.000000
0.000000 0.323134 1.000000
0.000000 0.322612 1.000000
0.000000 0.410463 0.000000
0.000000 0.410463 0.000000
0.000000 0.409668 0.008598
0.000000 0.408745 0.083734
0.000000 0.407787 0.161647
0.000000 0.406807 0.241399
0.000000 0.405810 0.322539
0.000000 0.404799 0.404799
0.000000 0.403777 0.488002
0.000000 0.402745 0.572018
0.000000 0.401703 0.656752
0.000000 0.400654 0.742127
0.000000 0.399598 0.828084
0.000000 0.398535 0.914572
0.000000 0.397467 1.000000
0.000000 0.396392 1.000000
0.000000 0.395871 1.000000
0.000000 0.484560 0.000000
0.000000 0.484560 0.000000
0.000000 0.483765 0.000000
0.000000 0.482842 0.073607
0.000000 0.481884 0.151520
0.000000 0.480905 0.231271
0.000000 0.479907 0.312411
0.000000 0.478897 0.394672
0.000000 0.477874 0.477874
0.000000 0.476842 0.561891
0.000000 0.475801 0.646624
0.000000 0.474752 0.732000
0.000000 0.473695 0.817957
0.000000 0.472633 0.904445
0.000000 0.471564 0.991423
0.000000 0.470490 1.000000
0.000000 0.469968 1.000000
0.000000 0.559382 0.000000
0.000000 0.559382 0.000000
0.000000 0.558587 0.000000
0.000000 0.557664 0.063380
0.000000 0.556707 0.141293
0.000000 0.555727 0.221045
0.000000 0.554730 0.302185
0.000000 0.553719 0.384445
0.000000 0.552696 0.467648
0.000000 0.551664 0.551664
0.000000 0.550623 0.636398
0.000000 0.549574 0.721773
0.000000 0.548518 0.807730
0.000000 0.547455 0.894218
0.000000 0.546386 0.981196
0.000000 0.545312 1.000000
0.000000 0.544790 1.000000
0.000000 0.634843 0.000000
0.000000 0.634843 0.000000
0.000000 0.634048 0.000000
0.000000 0.633125 0.053066
0.000000 0.632168 0.130979
0.000000 0.631188 0.210731
0.000000 0.630191 0.291871
0.000000 0.629180 0.374131
0.000000 0.628157 0.457334
0.000000 0.627125 0.541350
0.000000 0.626084 0.626084
0.000000 0.625035 0.711459
0.000000 0.623978 0.797416
0.000000 0.622916 0.883904
0.000000 0.621847 0.970882
0.000000 0.620773 1.000000
0.000000 0.620251 1.000000
0.000000 0.710876 0.000000
0.000000 0.710876 0.000000
0.000000 0.710081 0.000000
0.000000 0.709158 0.042674
0.000000 0.708200 0.120587
0.000000 0.707220 0.200339
0.000000 0.706223 0.281479
0.000000 0.705212 0.363739
0.000000 0.704190 0.446942
0.000000 0.703158 0.530958
0.000000 0.702116 0.615692
0.000000 0.701067 0.701067
0.000000 0.700011 0.787024
0.000000 0.698948 0.873512
0.000000 0.697880 0.960490
0.000000 0.696805 1.000000
0.000000 0.696284 1.000000
0.000000 0.787426 0.000000
0.000000 0.787426 0.000000
0.000000 0.786631 0.000000
0.000000 0.785708 0.032211
0.000000 0.784750 0.110124
0.000000 0.783770 0.189876
0.000000 0.782773 0.271016
0.000000 0.781763 0.353277
0.000000 0.780740 0.436479
0.000000 0.779708 0.520495
0.000000 0.778667 0.605229
0.000000 0.777618 0.690605
0.000000 0.776561 0.776561
0.000000 0.775499 0.863050
0.000000 0.774430 0.950028
0.000000 0.773355 1.000000
0.000000 0.772834 1.000000
0.000000 0.864450 0.000000
0.000000 0.864450 0.000000
0.000000 0.863655 0.000000
0.000000 0.862731 0.021684
0.000000 0.861774 0.099597
0.000000 0.860794 0.179348
0.000000 0.859797 0.260488
0.000000 0.858786 0.342749
0.000000 0.857764 0.425952
0.000000 0.856731 0.509968
0.000000 0.855690 0.594702
0.000000 0.854641 0.680077
0.000000 0.853585 0.766034
0.000000 0.852522 0.852522
0.000000 0.851453 0.939500
0.000000 0.850379 1.000000
0.000000 0.849858 1.000000
0.000000 0.941909 0.000000
0.000000 0.941909 0.000000
0.000000 0.941114 0.000000
0.000000 0.940191 0.011097
0.000000 0.939234 0.089010
0.000000 0.938254 0.168761
0.000000 0.937257 0.249901
0.000000 0.936246 0.332162
0.000000 0.935223 0.415364
0.000000 0.934191 0.499381
0.000000 0.933150 0.584114
0.000000 0.932101 0.669490
0.000000 0.931045 0.755447
0.000000 0.929982 0.841935
0.000000 0.928913 0.928913
0.000000 0.927839 1.000000
0.000000 0.927317 1.000000
0.000000 1.000000 0.000000
0.000000 1.000000 0.000000
0.000000 1.000000 0.000000
0.000000 1.000000 0.000454
0.000000 1.000000 0.078367
0.000000 1.000000 0.158119
0.000000 1.000000 0.239259
0.000000 1.000000 0.321520
0.000000 1.000000 0.404722
0.000000 1.000000 0.488738
0.000000 1.000000 0.573472
0.000000 1.000000 0.658848
0.000000 1.000000 0.744804
0.000000 1.000000 0.831293
0.000000 1.000000 0.918271
0.000000 1.000000 1.000000
0.000000 1.000000 1.000000
0.000000 1.000000 0.000000
0.000000 1.000000 0.000000
0.000000 1.000000 0.000000
0.000000 1.000000 0.000000
0.000000 1.000000 0.073203
0.000000 1.000000 0.152954
0.000000 1.000000 0.234094
0.000000 1.000000 0.316355
0.000000 1.000000 0.399558
0.000000 1.000000 0.483574
0.000000 1.000000 0.568308
0.000000 1.000000 0.653683
0.000000 1.000000 0.739640
0.000000 1.000000 0.826128
0.000000 1.000000 0.913106
0.000000 1.000000 1.000000
0.000000 1.000000 1.000000
0.063154 0.000000 0.000000
0.063154 0.000000 0.000000
0.062359 0.000000 0.062359
0.061436 0.000000 0.137495
0.060478 0.000000 0.215408
0.059498 0.000000 0.295159
0.058501 0.000000 0.376299
0.057490 0.000000 0.458560
0.056468 0.000000 0.541762
0.055436 0.000000 0.625779
0.054394 0.000000 0.710512
0.053345 0.000000 0.795888
0.052289 0.000000 0.881845
0.051226 0.000000 0.968333
0.050158 0.000000 1.000000
0.049083 0.000000 1.000000
0.048562 0.000000 1.000000
0.063154 0.000000 0.000000
0.063154 0.000000 0.000000
0.062359 0.000000 0.062359
0.061436 0.000000 0.137495
0.060478 0.000000 0.215408
0.059498 0.000000 0.295159
0.058501 0.000000 0.376299
0.057490 0.000000 0.458560
0.056468 0.000000 0.541762
0.055436 0.000000 0.625779
0.054394 0.000000 0.710512
0.053345 0.000000 0.795888
0.052289 0.000000 0.881845
0.051226 0.000000 0.968333
0.050158 0.000000 1.000000
0.049083 0.000000 1.000000
0.048562 0.000000 1.000000
0.055279 0.055279 0.000000
0.055279 0.055279 0.000000
0.054483 0.054483 0.054483
0.053560 0.053560 0.129619
0.052603 0.052603 0.207532
0.051623 0.051623 0.287284
0.050626 0.050626 0.368424
0.049615 0.049615 0.450684
0.048593 0.048593 0.533887
0.047560 0.047560 0.617903
0.046519 0.046519 0.702637
0.045470 0.045470 0.788012
0.044414 0.044414 0.873969
0.043351 0.043351 0.960457
0.042282 0.042282 1.000000
0.041208 0.041208 1.000000
0.040687 0.040687 1.000000
0.046133 0.122192 0.000000
0.046133 0.122192 0.000000
0.045338 0.121397 0.045338
0.044415 0.120474 0.120474
0.043457 0.119516 0.198387
0.042477 0.118536 0.278138
0.041480 0.117539 0.359278
0.040469 0.116528 0.441539
0.039447 0.115506 0.524741
0.038415 0.114474 0.608758
0.037373 0.113432 0.693491
0.036324 0.112383 0.778867
0.035268 0.111327 0.864824
0.034205 0.110264 0.951312
0.033137 0.109196 1.000000
0.032062 0.108121 1.000000
0.031541 0.107600 1.000000
0.036649 0.191579 0.000000
0.036649 0.191579 0.000000
0.035854 0.190784 0.035854
0.034931 0.189860 0.110990
0.033974 0.188903 0.188903
0.032994 0.187923 0.268654
0.031997 0.186926 0.349794
0.030986 0.185915 0.432055
0.029963 0.184893 0.515258
0.028931 0.183860 0.599274
0.027890 0.182819 0.684008
0.026841 0.181770 0.769383
0.025784 0.180714 0.855340
0.024722 0.179651 0.941828
0.023653 0.178582 1.000000
0.022579 0.177508 1.000000
0.022057 0.176987 1.000000
0.026942 0.262603 0.000000
0.026942 0.262603 0.000000
0.026147 0.261808 0.026147
0.025223 0.260884 0.101282
0.024266 0.259927 0.179195
0.023286 0.258947 0.258947
0.022289 0.257950 0.340087
0.021278 0.256939 0.422348
0.020256 0.255917 0.505550
0.019224 0.254884 0.589566
0.018182 0.253843 0.674300
0.017133 0.252794 0.759676
0.016077 0.251738 0.845632
0.015014 0.250675 0.932121
0.013945 0.249606 1.000000
0.012871 0.248532 1.000000
0.012350 0.248011 1.000000
0.017065 0.334863 0.000000
0.017065 0.334863 0.000000
0.016270 0.334068 0.016270
0.015347 0.333145 0.091406
0.014390 0.332188 0.169319
0.013410 0.331208 0.249070
0.012413 0.330211 0.330211
0.011402 0.329200 0.412471
0.010379 0.328177 0.495674
0.009347 0.327145 0.579690
0.008306 0.326104 0.664424
0.007257 0.325055 0.749799
0.006201 0.323998 0.835756
0.005138 0.322936 0.922244
0.004069 0.321867 1.000000
0.002995 0.320793 1.000000
0.002473 0.320271 1.000000
0.007052 0.408122 0.000000
0.007052 0.408122 0.000000
0.006257 0.407327 0.006257
0.005334 0.406403 0.081393
0.004377 0.405446 0.159306
0.003397 0.404466 0.239058
0.002400 0.403469 0.320198
0.001389 0.402458 0.402458
0.000367 0.401436 0.485661
0.000000 0.400404 0.569677
0.000000 0.399362 0.654411
0.000000 0.398313 0.739786
0.000000 0.397257 0.825743
0.000000 0.396194 0.912231
0.000000 0.395125 0.999209
0.000000 0.394051 1.000000
0.000000 0.393530 1.000000
0.000000 0.482219 0.000000
0.000000 0.482219 0.000000
0.000000 0.481424 0.000000
0.000000 0.480501 0.071266
0.000000 0.479543 0.149179
0.000000 0.478563 0.228930
0.000000 0.477566 0.310070
0.000000 0.476556 0.392331
0.000000 0.475533 0.475533
0.000000 0.474501 0.559550
0.000000 0.473460 0.644283
0.000000 0.472411 0.729659
0.000000 0.471354 0.815616
0.000000 0.470292 0.902104
0.000000 0.469223 0.989082
0.000000 0.468149 1.000000
0.000000 0.467627 1.000000
0.000000 0.557041 0.000000
0.000000 0.557041 0.000000
0.000000 0.556246 0.000000
0.000000 0.555323 0.061039
0.000000 0.554366 0.138952
0.000000 0.553386 0.218704
0.000000 0.552389 0.299844
0.000000 0.551378 0.382104
0.000000 0.550355 0.465307
0.000000 0.549323 0.549323
0.000000 0.548282 0.634057
0.000000 0.547233 0.719432
0.000000 0.546177 0.805389
0.000000 0.545114 0.891877
0.000000 0.544045 0.978855
0.000000 0.542971 1.000000
0.000000 0.542449 1.000000
0.000000 0.632502 0.000000
0.000000 0.632502 0.000000
0.000000 0.631707 0.000000
0.000000 0.630784 0.050725
0.000000 0.629827 0.128638
0.000000 0.628847 0.208390
0.000000 0.627850 0.289530
0.000000 0.626839 0.371790
0.000000 0.625816 0.454993
0.000000 0.624784 0.539009
0.000000 0.623743 0.623743
0.000000 0.622694 0.709118
0.000000 0.621637 0.795075
0.000000 0.620575 0.881563
0.000000 0.619506 0.968541
0.000000 0.618432 1.000000
0.000000 0.617910 1.000000
0.000000 0.708535 0.000000
0.000000 0.708535 0.000000
0.000000 0.707740 0.000000
0.000000 0.706817 0.040333
0.000000 0.705859 0.118246
0.000000 0.704879 0.197998
0.000000 0.703882 0.279138
0.000000 0.702871 0.361398
0.000000 0.701849 0.444601
0.000000 0.700817 0.528617
0.000000 0.699775 0.613351
0.000000 0.698726 0.698726
0.000000 0.697670 0.784683
0.000000 0.696607 0.871171
0.000000 0.695539 0.958149
0.000000 0.694464 1.000000
0.000000 0.693943 1.000000
0.000000 0.785085 0.000000
0.000000 0.785085 0.000000
0.000000 0.784290 0.000000
0.000000 0.783367 0.029870
0.000000 0.782409 0.107783
0.000000 0.781429 0.187535
0.000000 0.780432 0.268675
0.000000 0.779422 0.350936
0.000000 0.778399 0.434138
0.000000 0.777367 0.518154
0.000000 0.776326 0.602888
0.000000 0.775277 0.688263
0.000000 0.774220 0.774220
0.000000 0.773158 0.860709
0.000000 0.772089 0.947687
0.000000 0.771014 1.000000
0.000000 0.770493 1.000000
0.000000 0.862109 0.000000
0.000000 0.862109 0.000000
0.000000 0.861314 0.000000
0.000000 0.860390 0.019343
0.000000 0.859433 0.097256
0.000000 0.858453 0.177007
0.000000 0.857456 0.258147
0.000000 0.856445 0.340408
0.000000 0.855423 0.423611
0.000000 0.854390 0.507627
0.000000 0.853349 0.592360
0.000000 0.852300 0.677736
0.000000 0.851244 0.763693
0.000000 0.850181 0.850181
0.000000 0.849112 0.937159
0.000000 0.848038 1.000000
0.000000 0.847517 1.000000
0.000000 0.939568 0.000000
0.000000 0.939568 0.000000
0.000000 0.938773 0.000000
0.000000 0.937850 0.008756
0.000000 0.936893 0.086669
0.000000 0.935913 0.166420
0.000000 0.934916 0.247560
0.000000 0.933905 0.329821
0.000000 0.932882 0.413023
0.000000 0.931850 0.497040
0.000000 0.930809 0.581773
0.000000 0.929760 0.667149
0.000000 0.928704 0.753106
0.000000 0.927641 0.839594
0.000000 0.926572 0.926572
0.000000 0.925498 1.000000
0.000000 0.924976 1.000000
0.000000 1.000000 0.000000
0.000000 1.000000 0.000000
0.000000 1.000000 0.000000
0.000000 1.000000 0.000000
0.000000 1.000000 0.076026
0.000000 1.000000 0.155778
0.000000 1.000000 0.236918
0.000000 1.000000 0.319179
0.000000 1.000000 0.402381
0.000000 1.000000 0.486397
0.000000 1.000000 0.571131
0.000000 1.000000 0.656507
0.000000 1.000000 0.742463
0.000000 1.000000 0.828952
0.000000 1.000000 0.915930
0.000000 1.000000 1.000000
0.000000 1.000000 1.000000
0.000000 1.000000 0.000000
0.000000 1.000000 0.000000
0.000000 1.000000 0.000000
0.000000 1.000000 0.000000
0.000000 1.000000 0.070862
0.000000 1.000000 0.150613
0.000000 1.000000 0.231753
0.000000 1.000000 0.314014
0.000000 1.000000 0.397217
0.000000 1.000000 0.481233
0.000000 1.000000 0.565967
0.000000 1.000000 0.651342
0.000000 1.000000 0.737299
0.000000 1.000000 0.823787
0.000000 1.000000 0.910765
0.000000 1.000000 0.998197
0.000000 1.000000 1.000000
0.136494 0.000000 0.000000
0.136494 0.000000 0.000000
0.135699 0.000000 0.059640
0.134776 0.000000 0.134776
0.133819 0.000000 0.212689
0.132839 0.000000 0.292440
0.131842 0.000000 0.373580
0.130831 0.000000 0.455841
0.129808 0.000000 0.539044
0.128776 0.000000 0.623060
0.127735 0.000000 0.707794
0.126686 0.000000 0.793169
0.125629 0.000000 0.879126
0.124567 0.000000 0.965614
0.123498 0.000000 1.000000
0.122424 0.000000 1.000000
0.121902 0.000000 1.000000
0.136494 0.000000 0.000000
