skills/creativeops-producer/assets/grade/luts/trailer_punch_v04.cube
TITLE "trailer_punch_v04"
LUT_3D_SIZE 17
DOMAIN_MIN 0.0 0.0 0.0
DOMAIN_MAX 1.0 1.0 1.0
0.000000 0.000000 0.000000
0.000000 0.000000 0.034067
0.000000 0.000000 0.101232
0.000000 0.000000 0.169814
0.000000 0.000000 0.239222
0.000000 0.000000 0.309219
0.000000 0.000000 0.379676
0.000000 0.000000 0.450512
0.000000 0.000000 0.521670
0.000000 0.000000 0.593107
0.000000 0.000000 0.664792
0.000000 0.000000 0.736700
0.000000 0.000000 0.808809
0.000000 0.000000 0.881103
0.000000 0.000000 0.953567
0.000000 0.000000 1.000000
0.000000 0.000000 1.000000
0.000000 0.032277 0.000000
0.000000 0.032076 0.032076
0.000000 0.031680 0.099241
0.000000 0.031275 0.167823
0.000000 0.030866 0.237231
0.000000 0.030453 0.307228
0.000000 0.030037 0.377685
0.000000 0.029619 0.448521
0.000000 0.029199 0.519679
0.000000 0.028778 0.591116
0.000000 0.028355 0.662801
0.000000 0.027931 0.734708
0.000000 0.027505 0.806818
0.000000 0.027079 0.879112
0.000000 0.026651 0.951576
0.000000 0.026223 1.000000
0.000000 0.025893 1.000000
0.000000 0.095913 0.000000
0.000000 0.095712 0.028151
0.000000 0.095316 0.095316
0.000000 0.094911 0.163898
0.000000 0.094502 0.233305
0.000000 0.094089 0.303302
0.000000 0.093673 0.373760
0.000000 0.093255 0.444596
0.000000 0.092835 0.515753
0.000000 0.092414 0.587191
0.000000 0.091991 0.658876
0.000000 0.091567 0.730783
0.000000 0.091141 0.802892
0.000000 0.090715 0.875186
0.000000 0.090287 0.947651
0.000000 0.089859 1.000000
0.000000 0.089529 1.000000
0.000000 0.160892 0.000000
0.000000 0.160691 0.024143
0.000000 0.160294 0.091308
0.000000 0.159890 0.159890
0.000000 0.159480 0.229297
0.000000 0.159067 0.299294
0.000000 0.158652 0.369752
0.000000 0.158234 0.440587
0.000000 0.157814 0.511745
0.000000 0.157392 0.583182
0.000000 0.156969 0.654867
0.000000 0.156545 0.726775
0.000000 0.156120 0.798884
0.000000 0.155693 0.871178
0.000000 0.155266 0.943643
0.000000 0.154837 1.000000
0.000000 0.154508 1.000000
0.000000 0.226652 0.000000
0.000000 0.226451 0.020086
0.000000 0.226055 0.087251
0.000000 0.225650 0.155833
0.000000 0.225241 0.225241
0.000000 0.224828 0.295238
0.000000 0.224412 0.365695
0.000000 0.223994 0.436531
0.000000 0.223574 0.507689
0.000000 0.223153 0.579126
0.000000 0.222730 0.650811
0.000000 0.222306 0.722718
0.000000 0.221880 0.794828
0.000000 0.221454 0.867122
0.000000 0.221026 0.939586
0.000000 0.220598 1.000000
0.000000 0.220268 1.000000
0.000000 0.292971 0.000000
0.000000 0.292770 0.015995
0.000000 0.292374 0.083160
0.000000 0.291969 0.151742
0.000000 0.291560 0.221150
0.000000 0.291147 0.291147
0.000000 0.290731 0.361604
0.000000 0.290313 0.432440
0.000000 0.289893 0.503598
0.000000 0.289472 0.575035
0.000000 0.289049 0.646720
0.000000 0.288625 0.718627
0.000000 0.288199 0.790737
0.000000 0.287773 0.863031
0.000000 0.287345 0.935495
0.000000 0.286917 1.000000
0.000000 0.286587 1.000000
0.000000 0.359726 0.000000
0.000000 0.359525 0.011878
0.000000 0.359129 0.079042
0.000000 0.358725 0.147625
0.000000 0.358315 0.217032
0.000000 0.357902 0.287029
0.000000 0.357486 0.357486
0.000000 0.357068 0.428322
0.000000 0.356649 0.499480
0.000000 0.356227 0.570917
0.000000 0.355804 0.642602
0.000000 0.355380 0.714510
0.000000 0.354955 0.786619
0.000000 0.354528 0.858913
0.000000 0.354100 0.931378
0.000000 0.353672 1.000000
0.000000 0.353342 1.000000
0.000000 0.426840 0.000000
0.000000 0.426639 0.007738
0.000000 0.426243 0.074902
0.000000 0.425838 0.143485
0.000000 0.425429 0.212892
0.000000 0.425016 0.282889
0.000000 0.424600 0.353346
0.000000 0.424182 0.424182
0.000000 0.423763 0.495340
0.000000 0.423341 0.566777
0.000000 0.422918 0.638462
0.000000 0.422494 0.710370
0.000000 0.422068 0.782479
0.000000 0.421642 0.854773
0.000000 0.421214 0.927238
0.000000 0.420786 0.999860
0.000000 0.420456 1.000000
0.000000 0.494259 0.000000
0.000000 0.494058 0.003579
0.000000 0.493662 0.070744
0.000000 0.493257 0.139326
0.000000 0.492848 0.208733
0.000000 0.492435 0.278730
0.000000 0.492019 0.349188
0.000000 0.491601 0.420024
0.000000 0.491181 0.491181
0.000000 0.490760 0.562618
0.000000 0.490337 0.634303
0.000000 0.489912 0.706211
0.000000 0.489487 0.778320
0.000000 0.489060 0.850614
0.000000 0.488633 0.923079
0.000000 0.488204 0.995701
0.000000 0.487875 1.000000
0.000000 0.561943 0.000000
0.000000 0.561742 0.000000
0.000000 0.561345 0.066569
0.000000 0.560941 0.135151
0.000000 0.560531 0.204558
0.000000 0.560118 0.274555
0.000000 0.559703 0.345013
0.000000 0.559285 0.415849
0.000000 0.558865 0.487006
0.000000 0.558443 0.558443
0.000000 0.558020 0.630128
0.000000 0.557596 0.702036
0.000000 0.557171 0.774145
0.000000 0.556744 0.846439
0.000000 0.556317 0.918904
0.000000 0.555888 0.991526
0.000000 0.555559 1.000000
0.000000 0.629861 0.000000
0.000000 0.629660 0.000000
0.000000 0.629264 0.062379
0.000000 0.628859 0.130961
0.000000 0.628450 0.200369
0.000000 0.628037 0.270366
0.000000 0.627621 0.340823
0.000000 0.627203 0.411659
0.000000 0.626783 0.482816
0.000000 0.626362 0.554254
0.000000 0.625939 0.625939
0.000000 0.625515 0.697846
0.000000 0.625089 0.769956
0.000000 0.624663 0.842250
0.000000 0.624235 0.914714
0.000000 0.623807 0.987337
0.000000 0.623477 1.000000
0.000000 0.697990 0.000000
0.000000 0.697789 0.000000
0.000000 0.697393 0.058176
0.000000 0.696988 0.126759
0.000000 0.696579 0.196166
0.000000 0.696166 0.266163
0.000000 0.695750 0.336620
0.000000 0.695332 0.407456
0.000000 0.694912 0.478614
0.000000 0.694491 0.550051
0.000000 0.694068 0.621736
0.000000 0.693644 0.693644
0.000000 0.693218 0.765753
0.000000 0.692792 0.838047
0.000000 0.692364 0.910512
0.000000 0.691936 0.983134
0.000000 0.691606 1.000000
0.000000 0.766311 0.000000
0.000000 0.766110 0.000000
0.000000 0.765713 0.053962
0.000000 0.765309 0.122544
0.000000 0.764899 0.191952
0.000000 0.764486 0.261949
0.000000 0.764071 0.332406
0.000000 0.763653 0.403242
0.000000 0.763233 0.474399
0.000000 0.762811 0.545837
0.000000 0.762388 0.617522
0.000000 0.761964 0.689429
0.000000 0.761539 0.761539
0.000000 0.761112 0.833833
0.000000 0.760685 0.906297
0.000000 0.760256 0.978920
0.000000 0.759927 1.000000
0.000000 0.834806 0.000000
0.000000 0.834605 0.000000
0.000000 0.834209 0.049737
0.000000 0.833804 0.118319
0.000000 0.833395 0.187727
0.000000 0.832982 0.257724
0.000000 0.832566 0.328181
0.000000 0.832148 0.399017
0.000000 0.831728 0.470174
0.000000 0.831307 0.541612
0.000000 0.830884 0.613297
0.000000 0.830460 0.685204
0.000000 0.830034 0.757314
0.000000 0.829608 0.829608
0.000000 0.829180 0.902072
0.000000 0.828752 0.974695
0.000000 0.828422 1.000000
0.000000 0.903463 0.000000
0.000000 0.903262 0.000000
0.000000 0.902866 0.045502
0.000000 0.902461 0.114084
0.000000 0.902052 0.183491
0.000000 0.901639 0.253488
0.000000 0.901223 0.323946
0.000000 0.900805 0.394782
0.000000 0.900385 0.465939
0.000000 0.899964 0.537377
0.000000 0.899541 0.609062
0.000000 0.899116 0.680969
0.000000 0.898691 0.753078
0.000000 0.898264 0.825372
0.000000 0.897837 0.897837
0.000000 0.897408 0.970460
0.000000 0.897079 1.000000
0.000000 0.972270 0.000000
0.000000 0.972069 0.000000
0.000000 0.971672 0.041257
0.000000 0.971268 0.109840
0.000000 0.970858 0.179247
0.000000 0.970445 0.249244
0.000000 0.970030 0.319701
0.000000 0.969612 0.390537
0.000000 0.969192 0.461695
0.000000 0.968770 0.533132
0.000000 0.968347 0.604817
0.000000 0.967923 0.676725
0.000000 0.967498 0.748834
0.000000 0.967071 0.821128
0.000000 0.966644 0.893593
0.000000 0.966215 0.966215
0.000000 0.965886 1.000000
0.000000 1.000000 0.000000
0.000000 1.000000 0.000000
0.000000 1.000000 0.037993
0.000000 1.000000 0.106576
0.000000 1.000000 0.175983
0.000000 1.000000 0.245980
0.000000 1.000000 0.316438
0.000000 1.000000 0.387273
0.000000 1.000000 0.458431
0.000000 1.000000 0.529868
0.000000 1.000000 0.601553
0.000000 1.000000 0.673461
0.000000 1.000000 0.745570
0.000000 1.000000 0.817864
0.000000 1.000000 0.890329
0.000000 1.000000 0.962951
0.000000 1.000000 1.000000
0.033677 0.000000 0.000000
0.033476 0.000000 0.033476
0.033079 0.000000 0.100640
0.032675 0.000000 0.169223
0.032265 0.000000 0.238630
0.031852 0.000000 0.308627
0.031436 0.000000 0.379084
0.031019 0.000000 0.449920
0.030599 0.000000 0.521078
0.030177 0.000000 0.592515
0.029754 0.000000 0.664200
0.029330 0.000000 0.736108
0.028905 0.000000 0.808217
0.028478 0.000000 0.880511
0.028050 0.000000 0.952976
0.027622 0.000000 1.000000
0.027293 0.000000 1.000000
0.031685 0.031685 0.000000
0.031484 0.031484 0.031484
0.031088 0.031088 0.098649
0.030684 0.030684 0.167232
0.030274 0.030274 0.236639
0.029861 0.029861 0.306636
0.029445 0.029445 0.377093
0.029027 0.029027 0.447929
0.028608 0.028608 0.519087
0.028186 0.028186 0.590524
0.027763 0.027763 0.662209
0.027339 0.027339 0.734117
0.026914 0.026914 0.806226
0.026487 0.026487 0.878520
0.026059 0.026059 0.950984
0.025631 0.025631 1.000000
0.025301 0.025301 1.000000
0.027760 0.095321 0.000000
0.027559 0.095120 0.027559
0.027163 0.094724 0.094724
0.026758 0.094319 0.163306
0.026349 0.093910 0.232714
0.025936 0.093497 0.302711
0.025520 0.093081 0.373168
0.025102 0.092663 0.444004
0.024682 0.092243 0.515161
0.024261 0.091822 0.586599
0.023838 0.091399 0.658284
0.023414 0.090975 0.730191
0.022988 0.090549 0.802301
0.022562 0.090123 0.874595
0.022134 0.089695 0.947059
0.021706 0.089267 1.000000
0.021376 0.088937 1.000000
0.023752 0.160300 0.000000
0.023551 0.160099 0.023551
0.023155 0.159703 0.090716
0.022750 0.159298 0.159298
0.022340 0.158888 0.228705
0.021927 0.158475 0.298702
0.021512 0.158060 0.369160
0.021094 0.157642 0.439996
0.020674 0.157222 0.511153
0.020253 0.156801 0.582590
0.019830 0.156378 0.654276
0.019405 0.155953 0.726183
0.018980 0.155528 0.798292
0.018553 0.155101 0.870586
0.018126 0.154674 0.943051
0.017697 0.154245 1.000000
0.017368 0.153916 1.000000
0.019695 0.226060 0.000000
0.019494 0.225859 0.019494
0.019098 0.225463 0.086659
0.018694 0.225058 0.155241
0.018284 0.224649 0.224649
0.017871 0.224236 0.294646
0.017455 0.223820 0.365103
0.017037 0.223402 0.435939
0.016618 0.222982 0.507097
0.016196 0.222561 0.578534
0.015773 0.222138 0.650219
0.015349 0.221714 0.722127
0.014923 0.221288 0.794236
0.014497 0.220862 0.866530
0.014069 0.220434 0.938994
0.013641 0.220006 1.000000
0.013311 0.219676 1.000000
0.015604 0.292379 0.000000
0.015403 0.292178 0.015403
0.015007 0.291782 0.082568
0.014603 0.291377 0.151151
0.014193 0.290968 0.220558
0.013780 0.290555 0.290555
0.013364 0.290139 0.361012
0.012946 0.289721 0.431848
0.012527 0.289301 0.503006
0.012105 0.288880 0.574443
0.011682 0.288457 0.646128
0.011258 0.288033 0.718036
0.010833 0.287607 0.790145
0.010406 0.287181 0.862439
0.009978 0.286753 0.934903
0.009550 0.286325 1.000000
0.009220 0.285995 1.000000
0.011487 0.359135 0.000000
0.011286 0.358934 0.011286
0.010889 0.358537 0.078450
0.010485 0.358133 0.147033
0.010075 0.357723 0.216440
0.009662 0.357310 0.286437
0.009247 0.356895 0.356895
0.008829 0.356477 0.427730
0.008409 0.356057 0.498888
0.007987 0.355635 0.570325
0.007564 0.355212 0.642010
0.007140 0.354788 0.713918
0.006715 0.354363 0.786027
0.006288 0.353936 0.858321
0.005861 0.353509 0.930786
0.005432 0.353080 1.000000
0.005103 0.352751 1.000000
0.007347 0.426249 0.000000
0.007146 0.426048 0.007146
0.006749 0.425651 0.074311
0.006345 0.425247 0.142893
0.005935 0.424837 0.212300
0.005522 0.424424 0.282297
0.005107 0.424008 0.352755
0.004689 0.423590 0.423590
0.004269 0.423171 0.494748
0.003847 0.422749 0.566185
0.003424 0.422326 0.637870
0.003000 0.421902 0.709778
0.002575 0.421477 0.781887
0.002148 0.421050 0.854181
0.001721 0.420622 0.926646
0.001292 0.420194 0.999268
0.000963 0.419865 1.000000
0.003188 0.493667 0.000000
0.002987 0.493466 0.002987
0.002591 0.493070 0.070152
0.002186 0.492665 0.138734
0.001777 0.492256 0.208141
0.001364 0.491843 0.278138
0.000948 0.491427 0.348596
0.000530 0.491009 0.419432
0.000110 0.490589 0.490589
0.000000 0.490168 0.562027
0.000000 0.489745 0.633712
0.000000 0.489321 0.705619
0.000000 0.488895 0.777728
0.000000 0.488469 0.850023
0.000000 0.488041 0.922487
0.000000 0.487613 0.995110
0.000000 0.487283 1.000000
0.000000 0.561351 0.000000
0.000000 0.561150 0.000000
0.000000 0.560754 0.065977
0.000000 0.560349 0.134559
0.000000 0.559939 0.203966
0.000000 0.559526 0.273963
0.000000 0.559111 0.344421
0.000000 0.558693 0.415257
0.000000 0.558273 0.486414
0.000000 0.557851 0.557851
0.000000 0.557429 0.629537
0.000000 0.557004 0.701444
0.000000 0.556579 0.773553
0.000000 0.556152 0.845847
0.000000 0.555725 0.918312
0.000000 0.555296 0.990935
0.000000 0.554967 1.000000
0.000000 0.629269 0.000000
0.000000 0.629068 0.000000
0.000000 0.628672 0.061787
0.000000 0.628267 0.130369
0.000000 0.627858 0.199777
0.000000 0.627445 0.269774
0.000000 0.627029 0.340231
0.000000 0.626611 0.411067
0.000000 0.626191 0.482225
0.000000 0.625770 0.553662
0.000000 0.625347 0.625347
0.000000 0.624923 0.697254
0.000000 0.624497 0.769364
0.000000 0.624071 0.841658
0.000000 0.623643 0.914122
0.000000 0.623215 0.986745
0.000000 0.622885 1.000000
0.000000 0.697398 0.000000
0.000000 0.697197 0.000000
0.000000 0.696801 0.057585
0.000000 0.696397 0.126167
0.000000 0.695987 0.195574
0.000000 0.695574 0.265571
0.000000 0.695158 0.336029
0.000000 0.694740 0.406865
0.000000 0.694321 0.478022
0.000000 0.693899 0.549459
0.000000 0.693476 0.621144
0.000000 0.693052 0.693052
0.000000 0.692626 0.765161
0.000000 0.692200 0.837455
0.000000 0.691772 0.909920
0.000000 0.691344 0.982542
0.000000 0.691014 1.000000
0.000000 0.765719 0.000000
0.000000 0.765518 0.000000
0.000000 0.765122 0.053370
0.000000 0.764717 0.121952
0.000000 0.764307 0.191360
0.000000 0.763894 0.261357
0.000000 0.763479 0.331814
0.000000 0.763061 0.402650
0.000000 0.762641 0.473808
0.000000 0.762219 0.545245
0.000000 0.761797 0.616930
0.000000 0.761372 0.688838
0.000000 0.760947 0.760947
0.000000 0.760520 0.833241
0.000000 0.760093 0.905705
0.000000 0.759664 0.978328
0.000000 0.759335 1.000000
0.000000 0.834214 0.000000
0.000000 0.834013 0.000000
0.000000 0.833617 0.049145
0.000000 0.833212 0.117727
0.000000 0.832803 0.187135
0.000000 0.832390 0.257132
0.000000 0.831974 0.327589
0.000000 0.831556 0.398425
0.000000 0.831136 0.469582
0.000000 0.830715 0.541020
0.000000 0.830292 0.612705
0.000000 0.829868 0.684612
0.000000 0.829442 0.756722
0.000000 0.829016 0.829016
0.000000 0.828588 0.901480
0.000000 0.828160 0.974103
0.000000 0.827830 1.000000
0.000000 0.902871 0.000000
0.000000 0.902670 0.000000
0.000000 0.902274 0.044910
0.000000 0.901869 0.113492
0.000000 0.901460 0.182900
0.000000 0.901047 0.252897
0.000000 0.900631 0.323354
0.000000 0.900213 0.394190
0.000000 0.899793 0.465347
0.000000 0.899372 0.536785
0.000000 0.898949 0.608470
0.000000 0.898525 0.680377
0.000000 0.898099 0.752487
0.000000 0.897673 0.824781
0.000000 0.897245 0.897245
0.000000 0.896817 0.969868
0.000000 0.896487 1.000000
0.000000 0.971678 0.000000
0.000000 0.971477 0.000000
0.000000 0.971081 0.040666
0.000000 0.970676 0.109248
0.000000 0.970266 0.178655
0.000000 0.969853 0.248652
0.000000 0.969438 0.319110
0.000000 0.969020 0.389945
0.000000 0.968600 0.461103
0.000000 0.968179 0.532540
0.000000 0.967756 0.604225
0.000000 0.967331 0.676133
0.000000 0.966906 0.748242
0.000000 0.966479 0.820536
0.000000 0.966052 0.893001
0.000000 0.965623 0.965623
0.000000 0.965294 1.000000
0.000000 1.000000 0.000000
0.000000 1.000000 0.000000
0.000000 1.000000 0.037402
0.000000 1.000000 0.105984
0.000000 1.000000 0.175391
0.000000 1.000000 0.245388
0.000000 1.000000 0.315846
0.000000 1.000000 0.386682
0.000000 1.000000 0.457839
0.000000 1.000000 0.529276
0.000000 1.000000 0.600961
0.000000 1.000000 0.672869
0.000000 1.000000 0.744978
0.000000 1.000000 0.817272
0.000000 1.000000 0.889737
0.000000 1.000000 0.962359
0.000000 1.000000 1.000000
0.100071 0.000000 0.000000
0.099870 0.000000 0.032309
0.099473 0.000000 0.099473
0.099069 0.000000 0.168056
0.098659 0.000000 0.237463
0.098246 0.000000 0.307460
0.097831 0.000000 0.377918
0.097413 0.000000 0.448753
0.096993 0.000000 0.519911
0.096571 0.000000 0.591348
0.096148 0.000000 0.663033
0.095724 0.000000 0.734941
0.095299 0.000000 0.807050
0.094872 0.000000 0.879344
0.094445 0.000000 0.951809
0.094016 0.000000 1.000000
0.093687 0.000000 1.000000
0.098080 0.030519 0.000000
0.097879 0.030318 0.030318
0.097482 0.029921 0.097482
0.097078 0.029517 0.166065
0.096668 0.029107 0.235472
0.096255 0.028694 0.305469
0.095840 0.028279 0.375927
0.095422 0.027861 0.446762
0.095002 0.027441 0.517920
0.094580 0.027019 0.589357
0.094157 0.026596 0.661042
0.093733 0.026172 0.732950
0.093308 0.025747 0.805059
0.092881 0.025320 0.877353
0.092454 0.024893 0.949818
0.092025 0.024464 1.000000
0.091696 0.024135 1.000000
0.094154 0.094154 0.000000
0.093953 0.093953 0.026392
0.093557 0.093557 0.093557
0.093152 0.093152 0.162139
0.092743 0.092743 0.231547
0.092330 0.092330 0.301544
0.091914 0.091914 0.372001
0.091496 0.091496 0.442837
0.091076 0.091076 0.513994
0.090655 0.090655 0.585432
0.090232 0.090232 0.657117
0.089808 0.089808 0.729024
0.089382 0.089382 0.801134
0.088956 0.088956 0.873428
0.088528 0.088528 0.945892
0.088100 0.088100 1.000000
0.087770 0.087770 1.000000
0.090146 0.159133 0.000000
0.089945 0.158932 0.022384
0.089549 0.158536 0.089549
0.089144 0.158131 0.158131
0.088735 0.157722 0.227538
0.088322 0.157309 0.297535
0.087906 0.156893 0.367993
0.087488 0.156475 0.438829
0.087068 0.156055 0.509986
0.086647 0.155634 0.581424
0.086224 0.155211 0.653109
0.085800 0.154786 0.725016
0.085374 0.154361 0.797125
0.084948 0.153934 0.869420
0.084520 0.153507 0.941884
0.084092 0.153078 1.000000
0.083762 0.152749 1.000000
0.086090 0.224893 0.000000
0.085889 0.224692 0.018328
0.085492 0.224296 0.085492
0.085088 0.223892 0.154075
0.084678 0.223482 0.223482
0.084265 0.223069 0.293479
0.083850 0.222653 0.363936
0.083432 0.222235 0.434772
0.083012 0.221816 0.505930
0.082590 0.221394 0.577367
0.082167 0.220971 0.649052
0.081743 0.220547 0.720960
0.081318 0.220121 0.793069
0.080891 0.219695 0.865363
0.080464 0.219267 0.937828
0.080035 0.218839 1.000000
0.079706 0.218509 1.000000
0.081999 0.291212 0.000000
0.081798 0.291011 0.014237
0.081401 0.290615 0.081401
0.080997 0.290211 0.149984
0.080587 0.289801 0.219391
0.080174 0.289388 0.289388
0.079759 0.288972 0.359846
0.079341 0.288554 0.430681
0.078921 0.288135 0.501839
0.078499 0.287713 0.573276
0.078076 0.287290 0.644961
0.077652 0.286866 0.716869
0.077227 0.286441 0.788978
0.076800 0.286014 0.861272
0.076373 0.285586 0.933737
0.075944 0.285158 1.000000
0.075615 0.284828 1.000000
0.077881 0.357968 0.000000
0.077680 0.357767 0.010119
0.077284 0.357371 0.077284
0.076879 0.356966 0.145866
0.076469 0.356556 0.215273
0.076056 0.356143 0.285270
0.075641 0.355728 0.355728
0.075223 0.355310 0.426564
0.074803 0.354890 0.497721
0.074382 0.354468 0.569158
0.073959 0.354046 0.640843
0.073534 0.353621 0.712751
0.073109 0.353196 0.784860
0.072682 0.352769 0.857154
0.072255 0.352342 0.929619
0.071826 0.351913 1.000000
0.071497 0.351584 1.000000
0.073741 0.425082 0.000000
0.073540 0.424881 0.005979
0.073144 0.424484 0.073144
0.072739 0.424080 0.141726
0.072330 0.423670 0.211133
0.071917 0.423257 0.281130
0.071501 0.422842 0.351588
0.071083 0.422424 0.422424
0.070663 0.422004 0.493581
0.070242 0.421582 0.565018
0.069819 0.421159 0.636704
0.069394 0.420735 0.708611
0.068969 0.420310 0.780720
0.068542 0.419883 0.853014
0.068115 0.419456 0.925479
0.067686 0.419027 0.998101
0.067357 0.418698 1.000000
0.069582 0.492500 0.000000
0.069381 0.492299 0.001820
0.068985 0.491903 0.068985
0.068580 0.491498 0.137567
0.068171 0.491089 0.206975
0.067758 0.490676 0.276972
0.067342 0.490260 0.347429
0.066924 0.489842 0.418265
0.066504 0.489422 0.489422
0.066083 0.489001 0.560860
0.065660 0.488578 0.632545
0.065236 0.488154 0.704452
0.064810 0.487728 0.776562
0.064384 0.487302 0.848856
0.063956 0.486874 0.921320
0.063528 0.486446 0.993943
0.063198 0.486116 1.000000
0.065407 0.560184 0.000000
0.065206 0.559983 0.000000
0.064810 0.559587 0.064810
0.064405 0.559182 0.133392
0.063996 0.558773 0.202799
0.063583 0.558360 0.272796
0.063167 0.557944 0.343254
0.062749 0.557526 0.414090
0.062329 0.557106 0.485247
0.061908 0.556685 0.556685
0.061485 0.556262 0.628370
0.061061 0.555837 0.700277
0.060635 0.555412 0.772386
0.060209 0.554985 0.844681
0.059781 0.554558 0.917145
0.059353 0.554129 0.989768
0.059023 0.553800 1.000000
0.061218 0.628102 0.000000
0.061017 0.627901 0.000000
0.060620 0.627505 0.060620
0.060216 0.627100 0.129203
0.059806 0.626691 0.198610
0.059393 0.626278 0.268607
0.058977 0.625862 0.339064
0.058560 0.625444 0.409900
0.058140 0.625025 0.481058
0.057718 0.624603 0.552495
0.057295 0.624180 0.624180
0.056871 0.623756 0.696088
0.056446 0.623330 0.768197
0.056019 0.622904 0.840491
0.055592 0.622476 0.912955
0.055163 0.622048 0.985578
0.054834 0.621718 1.000000
0.057015 0.696232 0.000000
0.056814 0.696031 0.000000
0.056418 0.695634 0.056418
0.056013 0.695230 0.125000
0.055604 0.694820 0.194407
0.055191 0.694407 0.264404
0.054775 0.693991 0.334862
0.054357 0.693574 0.405698
0.053937 0.693154 0.476855
0.053516 0.692732 0.548292
0.053093 0.692309 0.619978
0.052668 0.691885 0.691885
0.052243 0.691460 0.763994
0.051816 0.691033 0.836288
0.051389 0.690606 0.908753
0.050960 0.690177 0.981376
0.050631 0.689848 1.000000
0.052801 0.764552 0.000000
0.052600 0.764351 0.000000
0.052203 0.763955 0.052203
0.051799 0.763550 0.120786
0.051389 0.763141 0.190193
0.050976 0.762728 0.260190
0.050561 0.762312 0.330647
0.050143 0.761894 0.401483
0.049723 0.761474 0.472641
0.049301 0.761053 0.544078
0.048878 0.760630 0.615763
0.048454 0.760205 0.687671
0.048029 0.759780 0.759780
0.047602 0.759353 0.832074
0.047175 0.758926 0.904539
0.046746 0.758497 0.977161
0.046417 0.758168 1.000000
0.048575 0.833047 0.000000
0.048374 0.832846 0.000000
0.047978 0.832450 0.047978
0.047574 0.832045 0.116560
0.047164 0.831636 0.185968
0.046751 0.831223 0.255965
0.046335 0.830807 0.326422
0.045917 0.830389 0.397258
0.045498 0.829970 0.468416
0.045076 0.829548 0.539853
0.044653 0.829125 0.611538
0.044229 0.828701 0.683445
0.043803 0.828275 0.755555
0.043377 0.827849 0.827849
0.042949 0.827421 0.900313
0.042521 0.826993 0.972936
0.042191 0.826663 1.000000
0.044340 0.901704 0.000000
0.044139 0.901503 0.000000
0.043743 0.901107 0.043743
0.043338 0.900702 0.112325
0.042929 0.900293 0.181733
0.042516 0.899880 0.251730
0.042100 0.899464 0.322187
0.041682 0.899046 0.393023
0.041262 0.898626 0.464180
0.040841 0.898205 0.535618
0.040418 0.897782 0.607303
0.039994 0.897358 0.679210
0.039568 0.896932 0.751320
0.039142 0.896506 0.823614
0.038714 0.896078 0.896078
0.038286 0.895650 0.968701
0.037956 0.895320 1.000000
0.040096 0.970511 0.000000
0.039895 0.970310 0.000000
0.039499 0.969914 0.039499
0.039094 0.969509 0.108081
0.038685 0.969100 0.177488
0.038272 0.968687 0.247485
0.037856 0.968271 0.317943
0.037438 0.967853 0.388779
0.037018 0.967433 0.459936
0.036597 0.967012 0.531373
0.036174 0.966589 0.603059
0.035749 0.966164 0.674966
0.035324 0.965739 0.747075
0.034897 0.965313 0.819369
0.034470 0.964885 0.891834
0.034041 0.964456 0.964456
0.033712 0.964127 1.000000
0.036832 1.000000 0.000000
0.036631 1.000000 0.000000
0.036235 1.000000 0.036235
0.035830 1.000000 0.104817
0.035421 1.000000 0.174224
0.035008 1.000000 0.244221
0.034592 1.000000 0.314679
0.034174 1.000000 0.385515
0.033754 1.000000 0.456672
0.033333 1.000000 0.528110
0.032910 1.000000 0.599795
0.032485 1.000000 0.671702
0.032060 1.000000 0.743811
0.031634 1.000000 0.816105
0.031206 1.000000 0.888570
0.030777 1.000000 0.961193
0.030448 1.000000 1.000000
0.167866 0.000000 0.000000
0.167665 0.000000 0.031117
0.167269 0.000000 0.098282
0.166864 0.000000 0.166864
0.166455 0.000000 0.236272
0.166042 0.000000 0.306269
0.165626 0.000000 0.376726
0.165208 0.000000 0.447562
0.164788 0.000000 0.518719
0.164367 0.000000 0.590157
0.163944 0.000000 0.661842
0.163520 0.000000 0.733749
0.163094 0.000000 0.805859
0.162668 0.000000 0.878153
0.162240 0.000000 0.950617
0.161812 0.000000 1.000000
0.161482 0.000000 1.000000
0.165875 0.029327 0.000000
