skills/creativeops-producer/assets/grade/luts/trailer_punch_v04.cube
TITLE "trailer_punch_v04"
LUT_3D_SIZE 9
DOMAIN_MIN 0.0 0.0 0.0
DOMAIN_MAX 1.0 1.0 1.0
0.000000 0.000000 0.000000
0.000000 0.000000 0.101232
0.000000 0.000000 0.239222
0.000000 0.000000 0.379676
0.000000 0.000000 0.521670
0.000000 0.000000 0.664792
0.000000 0.000000 0.808809
0.000000 0.000000 0.953567
0.000000 0.000000 1.000000
0.000000 0.095913 0.000000
0.000000 0.095316 0.095316
0.000000 0.094502 0.233305
0.000000 0.093673 0.373760
0.000000 0.092835 0.515753
0.000000 0.091991 0.658876
0.000000 0.091141 0.802892
0.000000 0.090287 0.947651
0.000000 0.089529 1.000000
0.000000 0.226652 0.000000
0.000000 0.226055 0.087251
0.000000 0.225241 0.225241
0.000000 0.224412 0.365695
0.000000 0.223574 0.507689
0.000000 0.222730 0.650811
0.000000 0.221880 0.794828
0.000000 0.221026 0.939586
0.000000 0.220268 1.000000
0.000000 0.359726 0.000000
0.000000 0.359129 0.079042
0.000000 0.358315 0.217032
0.000000 0.357486 0.357486
0.000000 0.356649 0.499480
0.000000 0.355804 0.642602
0.000000 0.354955 0.786619
0.000000 0.354100 0.931378
0.000000 0.353342 1.000000
0.000000 0.494259 0.000000
0.000000 0.493662 0.070744
0.000000 0.492848 0.208733
0.000000 0.492019 0.349188
0.000000 0.491181 0.491181
0.000000 0.490337 0.634303
0.000000 0.489487 0.778320
0.000000 0.488633 0.923079
0.000000 0.487875 1.000000
0.000000 0.629861 0.000000
0.000000 0.629264 0.062379
0.000000 0.628450 0.200369
0.000000 0.627621 0.340823
0.000000 0.626783 0.482816
0.000000 0.625939 0.625939
0.000000 0.625089 0.769956
0.000000 0.624235 0.914714
0.000000 0.623477 1.000000
0.000000 0.766311 0.000000
0.000000 0.765713 0.053962
0.000000 0.764899 0.191952
0.000000 0.764071 0.332406
0.000000 0.763233 0.474399
0.000000 0.762388 0.617522
0.000000 0.761539 0.761539
0.000000 0.760685 0.906297
0.000000 0.759927 1.000000
0.000000 0.903463 0.000000
0.000000 0.902866 0.045502
0.000000 0.902052 0.183491
0.000000 0.901223 0.323946
0.000000 0.900385 0.465939
0.000000 0.899541 0.609062
0.000000 0.898691 0.753078
0.000000 0.897837 0.897837
0.000000 0.897079 1.000000
0.000000 1.000000 0.000000
0.000000 1.000000 0.037993
0.000000 1.000000 0.175983
0.000000 1.000000 0.316438
0.000000 1.000000 0.458431
0.000000 1.000000 0.601553
0.000000 1.000000 0.745570
0.000000 1.000000 0.890329
0.000000 1.000000 1.000000
0.100071 0.000000 0.000000
0.099473 0.000000 0.099473
0.098659 0.000000 0.237463
0.097831 0.000000 0.377918
0.096993 0.000000 0.519911
0.096148 0.000000 0.663033
0.095299 0.000000 0.807050
0.094445 0.000000 0.951809
0.093687 0.000000 1.000000
0.094154 0.094154 0.000000
0.093557 0.093557 0.093557
0.092743 0.092743 0.231547
0.091914 0.091914 0.372001
0.091076 0.091076 0.513994
0.090232 0.090232 0.657117
0.089382 0.089382 0.801134
0.088528 0.088528 0.945892
0.087770 0.087770 1.000000
0.086090 0.224893 0.000000
0.085492 0.224296 0.085492
0.084678 0.223482 0.223482
0.083850 0.222653 0.363936
0.083012 0.221816 0.505930
0.082167 0.220971 0.649052
0.081318 0.220121 0.793069
0.080464 0.219267 0.937828
0.079706 0.218509 1.000000
0.077881 0.357968 0.000000
0.077284 0.357371 0.077284
0.076469 0.356556 0.215273
0.075641 0.355728 0.355728
0.074803 0.354890 0.497721
0.073959 0.354046 0.640843
0.073109 0.353196 0.784860
0.072255 0.352342 0.929619
0.071497 0.351584 1.000000
0.069582 0.492500 0.000000
0.068985 0.491903 0.068985
0.068171 0.491089 0.206975
0.067342 0.490260 0.347429
0.066504 0.489422 0.489422
0.065660 0.488578 0.632545
0.064810 0.487728 0.776562
0.063956 0.486874 0.921320
0.063198 0.486116 1.000000
0.061218 0.628102 0.000000
0.060620 0.627505 0.060620
0.059806 0.626691 0.198610
0.058977 0.625862 0.339064
0.058140 0.625025 0.481058
0.057295 0.624180 0.624180
0.056446 0.623330 0.768197
0.055592 0.622476 0.912955
0.054834 0.621718 1.000000
0.052801 0.764552 0.000000
0.052203 0.763955 0.052203
0.051389 0.763141 0.190193
0.050561 0.762312 0.330647
0.049723 0.761474 0.472641
0.048878 0.760630 0.615763
0.048029 0.759780 0.759780
0.047175 0.758926 0.904539
0.046417 0.758168 1.000000
0.044340 0.901704 0.000000
0.043743 0.901107 0.043743
0.042929 0.900293 0.181733
0.042100 0.899464 0.322187
0.041262 0.898626 0.464180
0.040418 0.897782 0.607303
0.039568 0.896932 0.751320
0.038714 0.896078 0.896078
0.037956 0.895320 1.000000
0.036832 1.000000 0.000000
0.036235 1.000000 0.036235
0.035421 1.000000 0.174224
0.034592 1.000000 0.314679
0.033754 1.000000 0.456672
0.032910 1.000000 0.599795
0.032060 1.000000 0.743811
0.031206 1.000000 0.888570
0.030448 1.000000 1.000000
0.236477 0.000000 0.000000
0.235880 0.000000 0.097076
0.235066 0.000000 0.235066
0.234237 0.000000 0.375520
0.233399 0.000000 0.517514
0.232555 0.000000 0.660636
0.231705 0.000000 0.804653
0.230851 0.000000 0.949411
0.230093 0.000000 1.000000
0.230561 0.091757 0.000000
0.229964 0.091160 0.091160
0.229149 0.090346 0.229149
0.228321 0.089517 0.369604
0.227483 0.088679 0.511597
0.226639 0.087835 0.654720
0.225789 0.086985 0.798736
0.224935 0.086131 0.943495
0.224177 0.085373 1.000000
0.222496 0.222496 0.000000
0.221899 0.221899 0.083095
0.221085 0.221085 0.221085
0.220256 0.220256 0.361539
0.219418 0.219418 0.503533
0.218574 0.218574 0.646655
0.217724 0.217724 0.790672
0.216870 0.216870 0.935430
0.216112 0.216112 1.000000
0.214287 0.355570 0.000000
0.213690 0.354973 0.074886
0.212876 0.354159 0.212876
0.212047 0.353330 0.353330
0.211210 0.352493 0.495324
0.210365 0.351648 0.638446
0.209515 0.350799 0.782463
0.208661 0.349944 0.927222
0.207903 0.349186 1.000000
0.205989 0.490103 0.000000
0.205391 0.489506 0.066588
0.204577 0.488692 0.204577
0.203749 0.487863 0.345032
0.202911 0.487025 0.487025
0.202066 0.486181 0.630147
0.201217 0.485331 0.774164
0.200363 0.484477 0.918923
0.199605 0.483719 1.000000
0.197624 0.625705 0.000000
0.197027 0.625108 0.058223
0.196213 0.624294 0.196213
0.195384 0.623465 0.336667
0.194546 0.622627 0.478660
0.193702 0.621783 0.621783
0.192852 0.620933 0.765800
0.191998 0.620079 0.910558
0.191240 0.619321 1.000000
0.189207 0.762155 0.000000
0.188610 0.761557 0.049806
0.187796 0.760743 0.187796
0.186967 0.759915 0.328250
0.186129 0.759077 0.470243
0.185285 0.758232 0.613366
0.184435 0.757383 0.757383
0.183581 0.756529 0.902141
0.182823 0.755771 1.000000
0.180747 0.899307 0.000000
0.180150 0.898710 0.041346
0.179335 0.897896 0.179335
0.178507 0.897067 0.319790
0.177669 0.896229 0.461783
0.176825 0.895385 0.604906
0.175975 0.894535 0.748922
0.175121 0.893681 0.893681
0.174363 0.892923 1.000000
0.173238 1.000000 0.000000
0.172641 1.000000 0.033837
0.171827 1.000000 0.171827
0.170998 1.000000 0.312282
0.170161 1.000000 0.454275
0.169316 1.000000 0.597397
0.168467 1.000000 0.741414
0.167612 1.000000 0.886173
0.166854 1.000000 1.000000
0.375320 0.000000 0.000000
0.374723 0.000000 0.094636
0.373909 0.000000 0.232626
0.373080 0.000000 0.373080
0.372242 0.000000 0.515073
0.371398 0.000000 0.658196
0.370548 0.000000 0.802213
0.369694 0.000000 0.946971
0.368936 0.000000 1.000000
0.369404 0.089317 0.000000
0.368806 0.088720 0.088720
0.367992 0.087905 0.226709
0.367164 0.087077 0.367164
0.366326 0.086239 0.509157
0.365482 0.085395 0.652279
0.364632 0.084545 0.796296
0.363778 0.083691 0.941055
0.363020 0.082933 1.000000
0.361339 0.220056 0.000000
0.360742 0.219459 0.080655
0.359928 0.218645 0.218645
0.359099 0.217816 0.359099
0.358261 0.216978 0.501092
0.357417 0.216134 0.644215
0.356567 0.215284 0.788232
0.355713 0.214430 0.932990
0.354955 0.213672 1.000000
0.353130 0.353130 0.000000
0.352533 0.352533 0.072446
0.351719 0.351719 0.210436
0.350890 0.350890 0.350890
0.350052 0.350052 0.492884
0.349208 0.349208 0.636006
0.348358 0.348358 0.780023
0.347504 0.347504 0.924781
0.346746 0.346746 1.000000
0.344832 0.487663 0.000000
0.344234 0.487066 0.064148
0.343420 0.486251 0.202137
0.342592 0.485423 0.342592
0.341754 0.484585 0.484585
0.340909 0.483741 0.627707
0.340060 0.482891 0.771724
0.339206 0.482037 0.916483
0.338448 0.481279 1.000000
0.336467 0.623265 0.000000
0.335870 0.622668 0.055783
0.335056 0.621854 0.193772
0.334227 0.621025 0.334227
0.333389 0.620187 0.476220
0.332545 0.619343 0.619343
0.331695 0.618493 0.763359
0.330841 0.617639 0.908118
0.330083 0.616881 1.000000
0.328050 0.759714 0.000000
0.327453 0.759117 0.047366
0.326639 0.758303 0.185356
0.325810 0.757474 0.325810
0.324972 0.756637 0.467803
0.324128 0.755792 0.610926
0.323278 0.754943 0.754943
0.322424 0.754088 0.899701
0.321666 0.753330 1.000000
0.319590 0.896867 0.000000
0.318992 0.896270 0.038906
0.318178 0.895455 0.176895
0.317350 0.894627 0.317350
0.316512 0.893789 0.459343
0.315667 0.892945 0.602465
0.314818 0.892095 0.746482
0.313964 0.891241 0.891241
0.313206 0.890483 1.000000
0.312081 1.000000 0.000000
0.311484 1.000000 0.031397
0.310670 1.000000 0.169387
0.309841 1.000000 0.309841
0.309004 1.000000 0.451835
0.308159 1.000000 0.594957
0.307310 1.000000 0.738974
0.306455 1.000000 0.883732
0.305697 1.000000 1.000000
0.515684 0.000000 0.000000
0.515087 0.000000 0.092169
0.514273 0.000000 0.230159
0.513444 0.000000 0.370613
0.512607 0.000000 0.512607
0.511762 0.000000 0.655729
0.510913 0.000000 0.799746
0.510058 0.000000 0.944504
0.509300 0.000000 1.000000
0.509768 0.086850 0.000000
0.509171 0.086253 0.086253
0.508357 0.085439 0.224242
0.507528 0.084610 0.364697
0.506690 0.083772 0.506690
0.505846 0.082928 0.649813
0.504996 0.082078 0.793829
0.504142 0.081224 0.938588
0.503384 0.080466 1.000000
0.501703 0.217589 0.000000
0.501106 0.216992 0.078188
0.500292 0.216178 0.216178
0.499463 0.215349 0.356632
0.498626 0.214511 0.498626
0.497781 0.213667 0.641748
0.496931 0.212817 0.785765
0.496077 0.211963 0.930523
0.495319 0.211205 1.000000
0.493495 0.350663 0.000000
0.492897 0.350066 0.069979
0.492083 0.349252 0.207969
0.491255 0.348423 0.348423
0.490417 0.347586 0.490417
0.489572 0.346741 0.633539
0.488723 0.345892 0.777556
0.487869 0.345037 0.922315
0.487111 0.344279 1.000000
0.485196 0.485196 0.000000
0.484599 0.484599 0.061681
0.483785 0.483785 0.199670
0.482956 0.482956 0.340125
0.482118 0.482118 0.482118
0.481274 0.481274 0.625240
0.480424 0.480424 0.769257
0.479570 0.479570 0.914016
0.478812 0.478812 1.000000
0.476831 0.620798 0.000000
0.476234 0.620201 0.053316
0.475420 0.619387 0.191306
0.474591 0.618558 0.331760
0.473753 0.617720 0.473753
0.472909 0.616876 0.616876
0.472059 0.616026 0.760893
0.471205 0.615172 0.905651
0.470447 0.614414 1.000000
0.468414 0.757248 0.000000
0.467817 0.756650 0.044899
0.467003 0.755836 0.182889
0.466174 0.755008 0.323343
0.465336 0.754170 0.465336
0.464492 0.753325 0.608459
0.463642 0.752476 0.752476
0.462788 0.751622 0.897234
0.462030 0.750864 1.000000
0.459954 0.894400 0.000000
0.459357 0.893803 0.036439
0.458543 0.892989 0.174428
0.457714 0.892160 0.314883
0.456876 0.891322 0.456876
0.456032 0.890478 0.599999
0.455182 0.889628 0.744015
0.454328 0.888774 0.888774
0.453570 0.888016 1.000000
0.452446 1.000000 0.000000
0.451848 1.000000 0.028930
0.451034 1.000000 0.166920
0.450206 1.000000 0.307375
0.449368 1.000000 0.449368
0.448523 1.000000 0.592490
0.447674 1.000000 0.736507
0.446820 1.000000 0.881266
0.446062 1.000000 1.000000
0.657165 0.000000 0.000000
0.656568 0.000000 0.089683
0.655753 0.000000 0.227672
0.654925 0.000000 0.368127
0.654087 0.000000 0.510120
0.653243 0.000000 0.653243
0.652393 0.000000 0.797259
0.651539 0.000000 0.942018
0.650781 0.000000 1.000000
0.651248 0.084364 0.000000
0.650651 0.083766 0.083766
0.649837 0.082952 0.221756
0.649008 0.082123 0.362210
0.648171 0.081286 0.504204
0.647326 0.080441 0.647326
0.646476 0.079592 0.791343
0.645622 0.078738 0.936101
0.644864 0.077980 1.000000
0.643184 0.215103 0.000000
0.642586 0.214505 0.075702
0.641772 0.213691 0.213691
0.640944 0.212863 0.354146
0.640106 0.212025 0.496139
0.639261 0.211180 0.639261
0.638412 0.210331 0.783278
0.637558 0.209477 0.928037
0.636800 0.208719 1.000000
0.634975 0.348177 0.000000
0.634378 0.347580 0.067493
0.633564 0.346766 0.205482
0.632735 0.345937 0.345937
0.631897 0.345099 0.487930
0.631053 0.344255 0.631053
0.630203 0.343405 0.775069
0.629349 0.342551 0.919828
0.628591 0.341793 1.000000
0.626676 0.482709 0.000000
0.626079 0.482112 0.059194
0.625265 0.481298 0.197184
0.624436 0.480469 0.337638
0.623598 0.479632 0.479632
0.622754 0.478787 0.622754
0.621904 0.477938 0.766771
0.621050 0.477083 0.911529
0.620292 0.476325 1.000000
0.618312 0.618312 0.000000
0.617714 0.617714 0.050829
0.616900 0.616900 0.188819
0.616072 0.616072 0.329274
0.615234 0.615234 0.471267
0.614389 0.614389 0.614389
0.613540 0.613540 0.758406
0.612686 0.612686 0.903165
0.611928 0.611928 1.000000
0.609895 0.754761 0.000000
0.609297 0.754164 0.042413
0.608483 0.753350 0.180402
0.607655 0.752521 0.320857
0.606817 0.751683 0.462850
0.605972 0.750839 0.605972
0.605123 0.749989 0.749989
0.604269 0.749135 0.894748
0.603511 0.748377 1.000000
0.601434 0.891913 0.000000
0.600837 0.891316 0.033952
0.600023 0.890502 0.171942
0.599194 0.889673 0.312396
0.598357 0.888836 0.454390
0.597512 0.887991 0.597512
0.596662 0.887142 0.741529
0.595808 0.886287 0.886287
0.595050 0.885529 1.000000
0.593926 1.000000 0.000000
0.593329 1.000000 0.026444
0.592515 1.000000 0.164434
0.591686 1.000000 0.304888
0.590848 1.000000 0.446881
0.590004 1.000000 0.590004
0.589154 1.000000 0.734021
0.588300 1.000000 0.878779
0.587542 1.000000 1.000000
0.799529 0.000000 0.000000
0.798932 0.000000 0.087181
0.798118 0.000000 0.225170
0.797289 0.000000 0.365625
0.796451 0.000000 0.507618
0.795607 0.000000 0.650741
0.794757 0.000000 0.794757
0.793903 0.000000 0.939516
0.793145 0.000000 1.000000
0.793613 0.081862 0.000000
0.793016 0.081264 0.081264
0.792201 0.080450 0.219254
0.791373 0.079621 0.359708
0.790535 0.078784 0.501702
0.789691 0.077939 0.644824
0.788841 0.077090 0.788841
0.787987 0.076235 0.933599
0.787229 0.075478 1.000000
0.785548 0.212601 0.000000
0.784951 0.212003 0.073200
0.784137 0.211189 0.211189
0.783308 0.210361 0.351644
0.782470 0.209523 0.493637
0.781626 0.208678 0.636759
0.780776 0.207829 0.780776
0.779922 0.206975 0.925535
0.779164 0.206217 1.000000
0.777339 0.345675 0.000000
0.776742 0.345078 0.064991
0.775928 0.344264 0.202980
0.775099 0.343435 0.343435
0.774262 0.342597 0.485428
0.773417 0.341753 0.628551
0.772567 0.340903 0.772567
0.771713 0.340049 0.917326
0.770955 0.339291 1.000000
0.769041 0.480207 0.000000
0.768443 0.479610 0.056692
0.767629 0.478796 0.194682
0.766801 0.477967 0.335136
0.765963 0.477130 0.477130
0.765118 0.476285 0.620252
0.764269 0.475435 0.764269
0.763415 0.474581 0.909027
0.762657 0.473823 1.000000
0.760676 0.615810 0.000000
0.760079 0.615212 0.048327
0.759265 0.614398 0.186317
0.758436 0.613570 0.326772
0.757598 0.612732 0.468765
0.756754 0.611887 0.611887
0.755904 0.611038 0.755904
0.755050 0.610184 0.900663
0.754292 0.609426 1.000000
0.752259 0.752259 0.000000
0.751662 0.751662 0.039911
0.750848 0.750848 0.177900
0.750019 0.750019 0.318355
0.749181 0.749181 0.460348
0.748337 0.748337 0.603470
0.747487 0.747487 0.747487
0.746633 0.746633 0.892246
0.745875 0.745875 1.000000
0.743799 0.889411 0.000000
0.743202 0.888814 0.031450
0.742387 0.888000 0.169440
0.741559 0.887171 0.309894
0.740721 0.886334 0.451888
0.739877 0.885489 0.595010
0.739027 0.884640 0.739027
0.738173 0.883785 0.883785
0.737415 0.883027 1.000000
0.736291 1.000000 0.000000
0.735693 1.000000 0.023942
0.734879 1.000000 0.161932
0.734050 1.000000 0.302386
0.733213 1.000000 0.444379
0.732368 1.000000 0.587502
0.731519 1.000000 0.731519
0.730665 1.000000 0.876277
0.729907 1.000000 1.000000
0.942627 0.000000 0.000000
0.942030 0.000000 0.084666
0.941216 0.000000 0.222655
0.940387 0.000000 0.363110
0.939549 0.000000 0.505103
0.938705 0.000000 0.648226
0.937855 0.000000 0.792242
0.937001 0.000000 0.937001
0.936243 0.000000 1.000000
0.936711 0.079347 0.000000
0.936113 0.078749 0.078749
0.935299 0.077935 0.216739
0.934470 0.077107 0.357193
0.933633 0.076269 0.499187
0.932788 0.075424 0.642309
0.931939 0.074575 0.786326
0.931085 0.073721 0.931085
0.930327 0.072963 1.000000
0.928646 0.210086 0.000000
0.928049 0.209488 0.070685
0.927234 0.208674 0.208674
0.926406 0.207846 0.349129
0.925568 0.207008 0.491122
0.924724 0.206163 0.634245
0.923874 0.205314 0.778261
0.923020 0.204460 0.923020
0.922262 0.203702 1.000000
0.920437 0.343160 0.000000
0.919840 0.342563 0.062476
0.919026 0.341749 0.200466
0.918197 0.340920 0.340920
0.917359 0.340082 0.482913
0.916515 0.339238 0.626036
0.915665 0.338388 0.770053
0.914811 0.337534 0.914811
0.914053 0.336776 1.000000
0.912138 0.477693 0.000000
0.911541 0.477095 0.054177
0.910727 0.476281 0.192167
0.909898 0.475452 0.332621
0.909061 0.474615 0.474615
0.908216 0.473770 0.617737
0.907367 0.472921 0.761754
0.906512 0.472067 0.906512
0.905754 0.471309 1.000000
0.903774 0.613295 0.000000
0.903177 0.612697 0.045813
0.902362 0.611883 0.183802
0.901534 0.611055 0.324257
0.900696 0.610217 0.466250
0.899852 0.609372 0.609372
0.899002 0.608523 0.753389
0.898148 0.607669 0.898148
0.897390 0.606911 1.000000
0.895357 0.749744 0.000000
0.894760 0.749147 0.037396
0.893945 0.748333 0.175385
0.893117 0.747504 0.315840
0.892279 0.746666 0.457833
0.891435 0.745822 0.600955
0.890585 0.744972 0.744972
0.889731 0.744118 0.889731
0.888973 0.743360 1.000000
0.886897 0.886897 0.000000
0.886299 0.886299 0.028935
0.885485 0.885485 0.166925
0.884656 0.884656 0.307379
0.883819 0.883819 0.449373
0.882974 0.882974 0.592495
0.882125 0.882125 0.736512
0.881271 0.881271 0.881271
0.880513 0.880513 1.000000
0.879388 1.000000 0.000000
0.878791 1.000000 0.021427
0.877977 1.000000 0.159417
0.877148 1.000000 0.299871
0.876310 1.000000 0.441865
0.875466 1.000000 0.584987
0.874616 1.000000 0.729004
0.873762 1.000000 0.873762
0.873004 1.000000 1.000000
1.000000 0.000000 0.000000
1.000000 0.000000 0.082434
1.000000 0.000000 0.220424
1.000000 0.000000 0.360878
1.000000 0.000000 0.502871
1.000000 0.000000 0.645994
1.000000 0.000000 0.790011
1.000000 0.000000 0.934769
1.000000 0.000000 1.000000
1.000000 0.077115 0.000000
1.000000 0.076517 0.076517
1.000000 0.075703 0.214507
1.000000 0.074875 0.354962
1.000000 0.074037 0.496955
1.000000 0.073192 0.640077
1.000000 0.072343 0.784094
1.000000 0.071489 0.928853
1.000000 0.070731 1.000000
1.000000 0.207854 0.000000
1.000000 0.207257 0.068453
1.000000 0.206442 0.206442
1.000000 0.205614 0.346897
1.000000 0.204776 0.488890
1.000000 0.203932 0.632013
1.000000 0.203082 0.776029
1.000000 0.202228 0.920788
1.000000 0.201470 1.000000
1.000000 0.340928 0.000000
1.000000 0.340331 0.060244
1.000000 0.339517 0.198234
1.000000 0.338688 0.338688
1.000000 0.337850 0.480681
1.000000 0.337006 0.623804
1.000000 0.336156 0.767821
1.000000 0.335302 0.912579
1.000000 0.334544 1.000000
1.000000 0.475461 0.000000
1.000000 0.474863 0.051945
1.000000 0.474049 0.189935
1.000000 0.473221 0.330389
1.000000 0.472383 0.472383
1.000000 0.471538 0.615505
1.000000 0.470689 0.759522
1.000000 0.469835 0.904281
1.000000 0.469077 1.000000
1.000000 0.611063 0.000000
1.000000 0.610466 0.043581
1.000000 0.609651 0.181570
1.000000 0.608823 0.322025
1.000000 0.607985 0.464018
1.000000 0.607141 0.607141
1.000000 0.606291 0.751157
1.000000 0.605437 0.895916
1.000000 0.604679 1.000000
1.000000 0.747512 0.000000
1.000000 0.746915 0.035164
1.000000 0.746101 0.173153
1.000000 0.745272 0.313608
1.000000 0.744434 0.455601
1.000000 0.743590 0.598724
1.000000 0.742740 0.742740
1.000000 0.741886 0.887499
1.000000 0.741128 1.000000
1.000000 0.884665 0.000000
1.000000 0.884067 0.026703
1.000000 0.883253 0.164693
1.000000 0.882425 0.305148
1.000000 0.881587 0.447141
1.000000 0.880742 0.590263
1.000000 0.879893 0.734280
1.000000 0.879039 0.879039
1.000000 0.878281 1.000000
1.000000 1.000000 0.000000
1.000000 1.000000 0.019195
1.000000 1.000000 0.157185
1.000000 1.000000 0.297639
1.000000 1.000000 0.439633
1.000000 1.000000 0.582755
1.000000 1.000000 0.726772
1.000000 1.000000 0.871530
1.000000 1.000000 1.000000
