skills/creativeops-producer/assets/grade/luts/trailer_punch_v10.cube
TITLE "trailer_punch_v10"
LUT_3D_SIZE 5
DOMAIN_MIN 0.0 0.0 0.0
DOMAIN_MAX 1.0 1.0 1.0
0.000000 0.000000 0.000000
0.000000 0.000000 0.229367
0.000000 0.000000 0.533666
0.000000 0.000000 0.846701
0.000000 0.000000 1.000000
0.000000 0.210488 0.000000
0.000000 0.208368 0.208368
0.000000 0.205555 0.512667
0.000000 0.202662 0.825702
0.000000 0.200000 1.000000
0.000000 0.489739 0.000000
0.000000 0.487620 0.180508
0.000000 0.484807 0.484807
0.000000 0.481914 0.797843
0.000000 0.479251 1.000000
0.000000 0.777009 0.000000
0.000000 0.774889 0.151849
0.000000 0.772077 0.456148
0.000000 0.769183 0.769183
0.000000 0.766521 1.000000
0.000000 1.000000 0.000000
0.000000 1.000000 0.125475
0.000000 1.000000 0.429774
0.000000 1.000000 0.742809
0.000000 1.000000 1.000000
0.225245 0.000000 0.000000
0.223125 0.000000 0.223125
0.220312 0.000000 0.527424
0.217419 0.000000 0.840459
0.214757 0.000000 1.000000
0.204245 0.204245 0.000000
0.202126 0.202126 0.202126
0.199313 0.199313 0.506424
0.196420 0.196420 0.819460
0.193757 0.193757 1.000000
0.176386 0.483497 0.000000
0.174266 0.481377 0.174266
0.171454 0.478565 0.478565
0.168560 0.475672 0.791600
0.165898 0.473009 1.000000
0.147727 0.770767 0.000000
0.145607 0.768647 0.145607
0.142794 0.765834 0.449906
0.139901 0.762941 0.762941
0.137239 0.760279 1.000000
0.121353 1.000000 0.000000
0.119233 1.000000 0.119233
0.116420 1.000000 0.423532
0.113527 1.000000 0.736567
0.110865 1.000000 1.000000
0.524075 0.000000 0.000000
0.521955 0.000000 0.214843
0.519142 0.000000 0.519142
0.516249 0.000000 0.832178
0.513587 0.000000 1.000000
0.503075 0.195964 0.000000
0.500955 0.193844 0.193844
0.498143 0.191032 0.498143
0.495250 0.188138 0.811178
0.492587 0.185476 1.000000
0.475216 0.475216 0.000000
0.473096 0.473096 0.165985
0.470283 0.470283 0.470283
0.467390 0.467390 0.783319
0.464728 0.464728 1.000000
0.446556 0.762485 0.000000
0.444436 0.760365 0.137325
0.441624 0.757553 0.441624
0.438731 0.754660 0.754660
0.436068 0.751997 1.000000
0.420182 1.000000 0.000000
0.418062 1.000000 0.110951
0.415250 1.000000 0.415250
0.412357 1.000000 0.728286
0.409694 1.000000 1.000000
0.831484 0.000000 0.000000
0.829364 0.000000 0.206324
0.826552 0.000000 0.510623
0.823658 0.000000 0.823658
0.820996 0.000000 1.000000
0.810485 0.187445 0.000000
0.808365 0.185325 0.185325
0.805552 0.182512 0.489624
0.802659 0.179619 0.802659
0.799997 0.176957 1.000000
0.782625 0.466696 0.000000
0.780505 0.464577 0.157465
0.777693 0.461764 0.461764
0.774800 0.458871 0.774800
0.772137 0.456208 1.000000
0.753966 0.753966 0.000000
0.751846 0.751846 0.128806
0.749034 0.749034 0.433105
0.746140 0.746140 0.746140
0.743478 0.743478 1.000000
0.727592 1.000000 0.000000
0.725472 1.000000 0.102432
0.722659 1.000000 0.406731
0.719766 1.000000 0.719766
0.717104 1.000000 1.000000
1.000000 0.000000 0.000000
1.000000 0.000000 0.198484
1.000000 0.000000 0.502783
1.000000 0.000000 0.815819
1.000000 0.000000 1.000000
1.000000 0.179605 0.000000
1.000000 0.177485 0.177485
1.000000 0.174672 0.481784
1.000000 0.171779 0.794819
1.000000 0.169117 1.000000
1.000000 0.458857 0.000000
1.000000 0.456737 0.149625
1.000000 0.453924 0.453924
1.000000 0.451031 0.766960
1.000000 0.448369 1.000000
1.000000 0.746126 0.000000
1.000000 0.744006 0.120966
1.000000 0.741194 0.425265
1.000000 0.738300 0.738300
1.000000 0.735638 1.000000
1.000000 1.000000 0.000000
1.000000 1.000000 0.094592
1.000000 1.000000 0.398891
1.000000 1.000000 0.711926
1.000000 1.000000 1.000000
