skills/creativeops-producer/assets/grade/luts/vintage_fade_v02.cube
TITLE "vintage_fade_v02"
LUT_3D_SIZE 5
DOMAIN_MIN 0.0 0.0 0.0
DOMAIN_MAX 1.0 1.0 1.0
0.028873 0.028873 0.028873
0.030482 0.030482 0.251511
0.032068 0.032068 0.471044
0.033645 0.033645 0.689289
0.035216 0.035216 0.906692
0.044809 0.265838 0.044809
0.046418 0.267447 0.267447
0.048004 0.269033 0.486980
0.049581 0.270610 0.705225
0.051152 0.272181 0.922629
0.060523 0.499499 0.060523
0.062132 0.501108 0.283161
0.063718 0.502694 0.502694
0.065295 0.504271 0.720939
0.066866 0.505842 0.938343
0.076145 0.731789 0.076145
0.077754 0.733397 0.298783
0.079340 0.734984 0.518316
0.080917 0.736561 0.736561
0.082488 0.738132 0.953964
0.091706 0.963183 0.091706
0.093315 0.964792 0.314344
0.094902 0.966378 0.533878
0.096479 0.967955 0.752122
0.098050 0.969526 0.969526
0.254639 0.033610 0.033610
0.256248 0.035219 0.256248
0.257834 0.036805 0.475781
0.259411 0.038382 0.694026
0.260982 0.039953 0.911430
0.270575 0.270575 0.049546
0.272184 0.272184 0.272184
0.273771 0.273771 0.491717
0.275348 0.275348 0.709962
0.276918 0.276918 0.927366
0.286289 0.504236 0.065260
0.287898 0.505845 0.287898
0.289485 0.507431 0.507431
0.291062 0.509008 0.725676
0.292632 0.510579 0.943080
0.301911 0.736526 0.080882
0.303520 0.738135 0.303520
0.305106 0.739721 0.523053
0.306683 0.741298 0.741298
0.308254 0.742869 0.958702
0.317473 0.967920 0.096444
0.319081 0.969529 0.319081
0.320668 0.971115 0.538615
0.322245 0.972692 0.756860
0.323816 0.974263 0.974263
0.477257 0.038281 0.038281
0.478866 0.039890 0.260919
0.480452 0.041476 0.480452
0.482029 0.043053 0.698697
0.483600 0.044624 0.916101
0.493193 0.275247 0.054217
0.494802 0.276855 0.276855
0.496389 0.278442 0.496389
0.497966 0.280019 0.714633
0.499537 0.281590 0.932037
0.508907 0.508907 0.069931
0.510516 0.510516 0.292569
0.512103 0.512103 0.512103
0.513680 0.513680 0.730347
0.515251 0.515251 0.947751
0.524529 0.741197 0.085553
0.526138 0.742806 0.308191
0.527724 0.744392 0.527724
0.529301 0.745969 0.745969
0.530872 0.747540 0.963373
0.540091 0.972591 0.101115
0.541700 0.974200 0.323753
0.543286 0.975786 0.543286
0.544863 0.977363 0.761531
0.546434 0.978934 0.978934
0.698569 0.042925 0.042925
0.700178 0.044534 0.265563
0.701764 0.046120 0.485096
0.703341 0.047697 0.703341
0.704912 0.049268 0.920744
0.714505 0.279890 0.058861
0.716114 0.281499 0.281499
0.717700 0.283085 0.501032
0.719277 0.284662 0.719277
0.720848 0.286233 0.936681
0.730219 0.513551 0.074575
0.731828 0.515160 0.297213
0.733414 0.516746 0.516746
0.734991 0.518323 0.734991
0.736562 0.519894 0.952395
0.745841 0.745841 0.090197
0.747450 0.747450 0.312835
0.749036 0.749036 0.532368
0.750613 0.750613 0.750613
0.752184 0.752184 0.968016
0.761402 0.977235 0.105759
0.763011 0.978844 0.328396
0.764597 0.980430 0.547930
0.766174 0.982007 0.766174
0.767745 0.983578 0.983578
0.919027 0.047551 0.047551
0.920636 0.049160 0.270189
0.922222 0.050746 0.489722
0.923799 0.052323 0.707967
0.925370 0.053894 0.925370
0.934963 0.284516 0.063487
0.936572 0.286125 0.286125
0.938158 0.287711 0.505658
0.939735 0.289288 0.723903
0.941306 0.290859 0.941306
0.950677 0.518177 0.079201
0.952286 0.519786 0.301839
0.953872 0.521372 0.521372
0.955449 0.522949 0.739617
0.957020 0.524520 0.957020
0.966299 0.750467 0.094823
0.967908 0.752075 0.317461
0.969494 0.753662 0.536994
0.971071 0.755239 0.755239
0.972642 0.756810 0.972642
0.981861 0.981861 0.110384
0.983469 0.983469 0.333022
0.985056 0.985056 0.552555
0.986633 0.986633 0.770800
0.988204 0.988204 0.988204
