skills/creativeops-producer/assets/grade/luts/vintage_fade_v02.cube
TITLE "vintage_fade_v02"
LUT_3D_SIZE 9
DOMAIN_MIN 0.0 0.0 0.0
DOMAIN_MAX 1.0 1.0 1.0
0.028873 0.028873 0.028873
0.029682 0.029682 0.140905
0.030482 0.030482 0.251511
0.031276 0.031276 0.361486
0.032068 0.032068 0.471044
0.032857 0.032857 0.580291
0.033645 0.033645 0.689289
0.034431 0.034431 0.798079
0.035216 0.035216 0.906692
0.036892 0.148115 0.036892
0.037702 0.148924 0.148924
0.038501 0.149723 0.259530
0.039296 0.150518 0.369505
0.040087 0.151310 0.479063
0.040877 0.152099 0.588310
0.041664 0.152887 0.697308
0.042450 0.153673 0.806099
0.043235 0.154458 0.914711
0.044809 0.265838 0.044809
0.045619 0.266648 0.156841
0.046418 0.267447 0.267447
0.047213 0.268242 0.377422
0.048004 0.269033 0.486980
0.048794 0.269823 0.596227
0.049581 0.270610 0.705225
0.050367 0.271396 0.814016
0.051152 0.272181 0.922629
0.052681 0.382890 0.052681
0.053491 0.383700 0.164713
0.054290 0.384499 0.275319
0.055084 0.385294 0.385294
0.055876 0.386085 0.494852
0.056666 0.386875 0.604099
0.057453 0.387662 0.713097
0.058239 0.388448 0.821888
0.059024 0.389233 0.930500
0.060523 0.499499 0.060523
0.061333 0.500309 0.172555
0.062132 0.501108 0.283161
0.062927 0.501903 0.393136
0.063718 0.502694 0.502694
0.064508 0.503484 0.611941
0.065295 0.504271 0.720939
0.066081 0.505057 0.829730
0.066866 0.505842 0.938343
0.068343 0.615776 0.068343
0.069152 0.616586 0.180375
0.069952 0.617385 0.290981
0.070746 0.618180 0.400956
0.071538 0.618972 0.510514
0.072327 0.619761 0.619761
0.073115 0.620549 0.728759
0.073901 0.621335 0.837549
0.074686 0.622120 0.946162
0.076145 0.731789 0.076145
0.076954 0.732598 0.188177
0.077754 0.733397 0.298783
0.078548 0.734192 0.408758
0.079340 0.734984 0.518316
0.080129 0.735773 0.627563
0.080917 0.736561 0.736561
0.081703 0.737347 0.845351
0.082488 0.738132 0.953964
0.083932 0.847580 0.083932
0.084742 0.848390 0.195964
0.085541 0.849189 0.306570
0.086335 0.849984 0.416545
0.087127 0.850775 0.526103
0.087917 0.851565 0.635350
0.088704 0.852352 0.744348
0.089490 0.853139 0.853139
0.090275 0.853923 0.961751
0.091706 0.963183 0.091706
0.092516 0.963992 0.203738
0.093315 0.964792 0.314344
0.094110 0.965586 0.424319
0.094902 0.966378 0.533878
0.095691 0.967167 0.643124
0.096479 0.967955 0.752122
0.097265 0.968741 0.860913
0.098050 0.969526 0.969526
0.142479 0.031257 0.031257
0.143289 0.032066 0.143289
0.144088 0.032865 0.253895
0.144883 0.033660 0.363869
0.145674 0.034452 0.473428
0.146464 0.035241 0.582675
0.147251 0.036029 0.691673
0.148037 0.036815 0.800463
0.148822 0.037600 0.909076
0.150498 0.150498 0.039276
0.151308 0.151308 0.151308
0.152107 0.152107 0.261914
0.152902 0.152902 0.371888
0.153693 0.153693 0.481447
0.154483 0.154483 0.590694
0.155270 0.155270 0.699692
0.156057 0.156057 0.808482
0.156841 0.156841 0.917095
0.158415 0.268222 0.047193
0.159225 0.269032 0.159225
0.160024 0.269831 0.269831
0.160819 0.270625 0.379806
0.161610 0.271417 0.489364
0.162400 0.272207 0.598611
0.163187 0.272994 0.707609
0.163974 0.273780 0.816399
0.164758 0.274565 0.925012
0.166287 0.385274 0.055065
0.167097 0.386084 0.167097
0.167896 0.386883 0.277703
0.168691 0.387677 0.387677
0.169482 0.388469 0.497236
0.170272 0.389259 0.606483
0.171059 0.390046 0.715481
0.171846 0.390832 0.824271
0.172630 0.391617 0.932884
0.174129 0.501883 0.062907
0.174939 0.502692 0.174939
0.175738 0.503492 0.285545
0.176533 0.504286 0.395520
0.177324 0.505078 0.505078
0.178114 0.505867 0.614325
0.178901 0.506655 0.723323
0.179688 0.507441 0.832113
0.180472 0.508226 0.940726
0.181949 0.618160 0.070727
0.182759 0.618970 0.182759
0.183558 0.619769 0.293365
0.184353 0.620564 0.403339
0.185144 0.621355 0.512898
0.185934 0.622145 0.622145
0.186721 0.622932 0.731143
0.187507 0.623718 0.839933
0.188292 0.624503 0.948546
0.189751 0.734172 0.078529
0.190561 0.734982 0.190561
0.191360 0.735781 0.301167
0.192155 0.736576 0.411141
0.192946 0.737368 0.520700
0.193736 0.738157 0.629947
0.194523 0.738945 0.738945
0.195309 0.739731 0.847735
0.196094 0.740516 0.956348
0.197538 0.849964 0.086316
0.198348 0.850774 0.198348
0.199147 0.851573 0.308954
0.199942 0.852368 0.418928
0.200733 0.853159 0.528487
0.201523 0.853949 0.637734
0.202310 0.854736 0.746732
0.203097 0.855522 0.855522
0.203881 0.856307 0.964135
0.205313 0.965567 0.094090
0.206122 0.966376 0.206122
0.206921 0.967175 0.316728
0.207716 0.967970 0.426703
0.208508 0.968762 0.536261
0.209297 0.969551 0.645508
0.210085 0.970339 0.754506
0.210871 0.971125 0.863297
0.211656 0.971910 0.971910
0.254639 0.033610 0.033610
0.255449 0.034420 0.145642
0.256248 0.035219 0.256248
0.257043 0.036014 0.366223
0.257834 0.036805 0.475781
0.258624 0.037595 0.585028
0.259411 0.038382 0.694026
0.260197 0.039168 0.802817
0.260982 0.039953 0.911430
0.262658 0.152852 0.041629
0.263468 0.153661 0.153661
0.264267 0.154460 0.264267
0.265062 0.155255 0.374242
0.265853 0.156047 0.483800
0.266643 0.156836 0.593047
0.267430 0.157624 0.702045
0.268217 0.158410 0.810836
0.269001 0.159195 0.919449
0.270575 0.270575 0.049546
0.271385 0.271385 0.161578
0.272184 0.272184 0.272184
0.272979 0.272979 0.382159
0.273771 0.273771 0.491717
0.274560 0.274560 0.600964
0.275348 0.275348 0.709962
0.276134 0.276134 0.818753
0.276918 0.276918 0.927366
0.278447 0.387627 0.057418
0.279257 0.388437 0.169450
0.280056 0.389236 0.280056
0.280851 0.390031 0.390031
0.281642 0.390823 0.499589
0.282432 0.391612 0.608836
0.283219 0.392400 0.717834
0.284006 0.393186 0.826625
0.284790 0.393971 0.935238
0.286289 0.504236 0.065260
0.287099 0.505046 0.177292
0.287898 0.505845 0.287898
0.288693 0.506640 0.397873
0.289485 0.507431 0.507431
0.290274 0.508221 0.616678
0.291062 0.509008 0.725676
0.291848 0.509795 0.834467
0.292632 0.510579 0.943080
0.294109 0.620514 0.073080
0.294919 0.621323 0.185112
0.295718 0.622122 0.295718
0.296513 0.622917 0.405693
0.297304 0.623709 0.515251
0.298094 0.624498 0.624498
0.298881 0.625286 0.733496
0.299667 0.626072 0.842287
0.300452 0.626857 0.950900
0.301911 0.736526 0.080882
0.302721 0.737335 0.192914
0.303520 0.738135 0.303520
0.304315 0.738929 0.413495
0.305106 0.739721 0.523053
0.305896 0.740510 0.632300
0.306683 0.741298 0.741298
0.307469 0.742084 0.850089
0.308254 0.742869 0.958702
0.309698 0.852318 0.088669
0.310508 0.853127 0.200701
0.311307 0.853926 0.311307
0.312102 0.854721 0.421282
0.312893 0.855513 0.530840
0.313683 0.856302 0.640087
0.314470 0.857090 0.749085
0.315257 0.857876 0.857876
0.316041 0.858661 0.966489
0.317473 0.967920 0.096444
0.318282 0.968730 0.208476
0.319081 0.969529 0.319081
0.319876 0.970323 0.429056
0.320668 0.971115 0.538615
0.321457 0.971905 0.647862
0.322245 0.972692 0.756860
0.323031 0.973478 0.865650
0.323816 0.974263 0.974263
0.366159 0.035950 0.035950
0.366969 0.036760 0.147982
0.367768 0.037559 0.258588
0.368563 0.038354 0.368563
0.369354 0.039145 0.478121
0.370144 0.039935 0.587368
0.370931 0.040722 0.696366
0.371718 0.041508 0.805157
0.372502 0.042293 0.913770
0.374178 0.155192 0.043969
0.374988 0.156001 0.156001
0.375787 0.156800 0.266607
0.376582 0.157595 0.376582
0.377374 0.158387 0.486140
0.378163 0.159176 0.595387
0.378951 0.159964 0.704385
0.379737 0.160750 0.813176
0.380522 0.161535 0.921789
0.382096 0.272915 0.051886
0.382905 0.273725 0.163918
0.383704 0.274524 0.274524
0.384499 0.275319 0.384499
0.385291 0.276111 0.494057
0.386080 0.276900 0.603304
0.386868 0.277688 0.712302
0.387654 0.278474 0.821093
0.388439 0.279258 0.929706
0.389967 0.389967 0.059758
0.390777 0.390777 0.171790
0.391576 0.391576 0.282396
0.392371 0.392371 0.392371
0.393163 0.393163 0.501929
0.393952 0.393952 0.611176
0.394740 0.394740 0.720174
0.395526 0.395526 0.828965
0.396311 0.396311 0.937578
0.397810 0.506576 0.067600
0.398619 0.507386 0.179632
0.399418 0.508185 0.290238
0.400213 0.508980 0.400213
0.401005 0.509771 0.509771
0.401794 0.510561 0.619018
0.402582 0.511348 0.728016
0.403368 0.512135 0.836807
0.404153 0.512919 0.945420
0.405629 0.622854 0.075420
0.406439 0.623663 0.187452
0.407238 0.624462 0.298058
0.408033 0.625257 0.408033
0.408824 0.626049 0.517591
0.409614 0.626838 0.626838
0.410401 0.627626 0.735836
0.411188 0.628412 0.844627
0.411972 0.629197 0.953240
0.413431 0.738866 0.083222
0.414241 0.739675 0.195254
0.415040 0.740475 0.305860
0.415835 0.741269 0.415835
0.416626 0.742061 0.525393
0.417416 0.742850 0.634640
0.418203 0.743638 0.743638
0.418990 0.744424 0.852429
0.419774 0.745209 0.961042
0.421218 0.854657 0.091009
0.422028 0.855467 0.203041
0.422827 0.856266 0.313647
0.423622 0.857061 0.423622
0.424414 0.857853 0.533180
0.425203 0.858642 0.642427
0.425991 0.859430 0.751425
0.426777 0.860216 0.860216
0.427562 0.861001 0.968829
0.428993 0.970260 0.098784
0.429802 0.971070 0.210816
0.430602 0.971869 0.321421
0.431396 0.972663 0.431396
0.432188 0.973455 0.540955
0.432977 0.974245 0.650202
0.433765 0.975032 0.759200
0.434551 0.975818 0.867990
0.435336 0.976603 0.976603
0.477257 0.038281 0.038281
0.478067 0.039091 0.150313
0.478866 0.039890 0.260919
0.479661 0.040685 0.370894
0.480452 0.041476 0.480452
0.481242 0.042266 0.589699
0.482029 0.043053 0.698697
0.482815 0.043840 0.807488
0.483600 0.044624 0.916101
0.485276 0.157523 0.046300
0.486086 0.158332 0.158332
0.486885 0.159132 0.268938
0.487680 0.159926 0.378913
0.488471 0.160718 0.488471
0.489261 0.161507 0.597718
0.490049 0.162295 0.706716
0.490835 0.163081 0.815507
0.491619 0.163866 0.924120
0.493193 0.275247 0.054217
0.494003 0.276056 0.166249
0.494802 0.276855 0.276855
0.495597 0.277650 0.386830
0.496389 0.278442 0.496389
0.497178 0.279231 0.605635
0.497966 0.280019 0.714633
0.498752 0.280805 0.823424
0.499537 0.281590 0.932037
0.501065 0.392299 0.062089
0.501875 0.393108 0.174121
0.502674 0.393907 0.284727
0.503469 0.394702 0.394702
0.504260 0.395494 0.504260
0.505050 0.396283 0.613507
0.505837 0.397071 0.722505
0.506624 0.397857 0.831296
0.507408 0.398642 0.939909
0.508907 0.508907 0.069931
0.509717 0.509717 0.181963
0.510516 0.510516 0.292569
0.511311 0.511311 0.402544
0.512103 0.512103 0.512103
0.512892 0.512892 0.621349
0.513680 0.513680 0.730347
0.514466 0.514466 0.839138
0.515251 0.515251 0.947751
0.516727 0.625185 0.077751
0.517537 0.625994 0.189783
0.518336 0.626794 0.300389
0.519131 0.627588 0.410364
0.519922 0.628380 0.519922
0.520712 0.629169 0.629169
0.521499 0.629957 0.738167
0.522285 0.630743 0.846958
0.523070 0.631528 0.955571
0.524529 0.741197 0.085553
0.525339 0.742007 0.197585
0.526138 0.742806 0.308191
0.526933 0.743600 0.418166
0.527724 0.744392 0.527724
0.528514 0.745182 0.636971
0.529301 0.745969 0.745969
0.530087 0.746755 0.854760
0.530872 0.747540 0.963373
0.532316 0.856989 0.093340
0.533126 0.857798 0.205372
0.533925 0.858597 0.315978
0.534720 0.859392 0.425953
0.535511 0.860184 0.535511
0.536301 0.860973 0.644758
0.537088 0.861761 0.753756
0.537875 0.862547 0.862547
0.538659 0.863332 0.971160
0.540091 0.972591 0.101115
0.540900 0.973401 0.213147
0.541700 0.974200 0.323753
0.542494 0.974995 0.433727
0.543286 0.975786 0.543286
0.544075 0.976576 0.652533
0.544863 0.977363 0.761531
0.545649 0.978149 0.870321
0.546434 0.978934 0.978934
0.588039 0.040606 0.040606
0.588849 0.041415 0.152638
0.589648 0.042215 0.263244
0.590443 0.043009 0.373218
0.591234 0.043801 0.482777
0.592024 0.044590 0.592024
0.592811 0.045378 0.701022
0.593597 0.046164 0.809812
0.594382 0.046949 0.918425
0.596058 0.159847 0.048625
0.596868 0.160657 0.160657
0.597667 0.161456 0.271263
0.598462 0.162251 0.381238
0.599253 0.163042 0.490796
0.600043 0.163832 0.600043
0.600831 0.164619 0.709041
0.601617 0.165406 0.817831
0.602401 0.166190 0.926444
0.603975 0.277571 0.056542
0.604785 0.278381 0.168574
0.605584 0.279180 0.279180
0.606379 0.279974 0.389155
0.607171 0.280766 0.498713
0.607960 0.281556 0.607960
0.608748 0.282343 0.716958
0.609534 0.283129 0.825749
0.610319 0.283914 0.934361
0.611847 0.394623 0.064414
0.612657 0.395433 0.176446
0.613456 0.396232 0.287052
0.614251 0.397027 0.397027
0.615042 0.397818 0.506585
0.615832 0.398608 0.615832
0.616620 0.399395 0.724830
0.617406 0.400181 0.833620
0.618190 0.400966 0.942233
0.619689 0.511232 0.072256
0.620499 0.512041 0.184288
0.621298 0.512841 0.294894
0.622093 0.513635 0.404869
0.622885 0.514427 0.514427
0.623674 0.515216 0.623674
0.624462 0.516004 0.732672
0.625248 0.516790 0.841462
0.626033 0.517575 0.950075
0.627509 0.627509 0.080076
0.628319 0.628319 0.192108
0.629118 0.629118 0.302714
0.629913 0.629913 0.412688
0.630704 0.630704 0.522247
0.631494 0.631494 0.631494
0.632281 0.632281 0.740492
0.633068 0.633068 0.849282
0.633852 0.633852 0.957895
0.635311 0.743522 0.087878
0.636121 0.744331 0.199910
0.636920 0.745130 0.310516
0.637715 0.745925 0.420490
0.638506 0.746717 0.530049
0.639296 0.747506 0.639296
0.640083 0.748294 0.748294
0.640869 0.749080 0.857084
0.641654 0.749865 0.965697
0.643098 0.859313 0.095665
0.643908 0.860123 0.207697
0.644707 0.860922 0.318303
0.645502 0.861717 0.428278
0.646293 0.862508 0.537836
0.647083 0.863298 0.647083
0.647871 0.864085 0.756081
0.648657 0.864871 0.864871
0.649441 0.865656 0.973484
0.650873 0.974916 0.103439
0.651682 0.975725 0.215471
0.652482 0.976524 0.326077
0.653276 0.977319 0.436052
0.654068 0.978111 0.545610
0.654857 0.978900 0.654857
0.655645 0.979688 0.763855
0.656431 0.980474 0.872646
0.657216 0.981259 0.981259
0.698569 0.042925 0.042925
0.699378 0.043735 0.154957
0.700178 0.044534 0.265563
0.700972 0.045328 0.375538
0.701764 0.046120 0.485096
0.702553 0.046909 0.594343
0.703341 0.047697 0.703341
0.704127 0.048483 0.812131
0.704912 0.049268 0.920744
0.706588 0.162167 0.050944
0.707397 0.162976 0.162976
0.708197 0.163775 0.273582
0.708991 0.164570 0.383557
0.709783 0.165362 0.493115
0.710572 0.166151 0.602362
0.711360 0.166939 0.711360
0.712146 0.167725 0.820151
0.712931 0.168510 0.928764
0.714505 0.279890 0.058861
0.715315 0.280700 0.170893
0.716114 0.281499 0.281499
0.716908 0.282294 0.391474
0.717700 0.283085 0.501032
0.718490 0.283875 0.610279
0.719277 0.284662 0.719277
0.720063 0.285449 0.828068
0.720848 0.286233 0.936681
0.722377 0.396942 0.066733
0.723186 0.397752 0.178765
0.723986 0.398551 0.289371
0.724780 0.399346 0.399346
0.725572 0.400137 0.508904
0.726361 0.400927 0.618151
0.727149 0.401714 0.727149
0.727935 0.402501 0.835940
0.728720 0.403285 0.944553
0.730219 0.513551 0.074575
0.731029 0.514361 0.186607
0.731828 0.515160 0.297213
0.732622 0.515955 0.407188
0.733414 0.516746 0.516746
0.734204 0.517536 0.625993
0.734991 0.518323 0.734991
0.735777 0.519109 0.843782
0.736562 0.519894 0.952395
0.738039 0.629828 0.082395
0.738848 0.630638 0.194427
0.739648 0.631437 0.305033
0.740442 0.632232 0.415008
0.741234 0.633024 0.524566
0.742023 0.633813 0.633813
0.742811 0.634601 0.742811
0.743597 0.635387 0.851602
0.744382 0.636172 0.960214
0.745841 0.745841 0.090197
0.746650 0.746650 0.202229
0.747450 0.747450 0.312835
0.748244 0.748244 0.422810
0.749036 0.749036 0.532368
0.749825 0.749825 0.641615
0.750613 0.750613 0.750613
0.751399 0.751399 0.859403
0.752184 0.752184 0.968016
0.753628 0.861632 0.097984
0.754437 0.862442 0.210016
0.755237 0.863241 0.320622
0.756031 0.864036 0.430597
0.756823 0.864827 0.540155
0.757612 0.865617 0.649402
0.758400 0.866405 0.758400
0.759186 0.867191 0.867191
0.759971 0.867975 0.975804
0.761402 0.977235 0.105759
0.762212 0.978044 0.217790
0.763011 0.978844 0.328396
0.763806 0.979638 0.438371
0.764597 0.980430 0.547930
0.765387 0.981219 0.657177
0.766174 0.982007 0.766174
0.766961 0.982793 0.874965
0.767745 0.983578 0.983578
0.808888 0.045240 0.045240
0.809698 0.046049 0.157272
0.810497 0.046849 0.267878
0.811291 0.047643 0.377852
0.812083 0.048435 0.487411
0.812873 0.049224 0.596658
0.813660 0.050012 0.705656
0.814446 0.050798 0.814446
0.815231 0.051583 0.923059
0.816907 0.164481 0.053259
0.817717 0.165291 0.165291
0.818516 0.166090 0.275897
0.819311 0.166885 0.385872
0.820102 0.167676 0.495430
0.820892 0.168466 0.604677
0.821679 0.169254 0.713675
0.822465 0.170040 0.822465
0.823250 0.170824 0.931078
0.824824 0.282205 0.061176
0.825634 0.283015 0.173208
0.826433 0.283814 0.283814
0.827228 0.284609 0.393789
0.828019 0.285400 0.503347
0.828809 0.286190 0.612594
0.829596 0.286977 0.721592
0.830383 0.287763 0.830383
0.831167 0.288548 0.938995
0.832696 0.399257 0.069048
0.833506 0.400067 0.181080
0.834305 0.400866 0.291686
0.835100 0.401661 0.401661
0.835891 0.402452 0.511219
0.836681 0.403242 0.620466
0.837468 0.404029 0.729464
0.838254 0.404815 0.838254
0.839039 0.405600 0.946867
0.840538 0.515866 0.076890
0.841348 0.516675 0.188922
0.842147 0.517475 0.299528
0.842942 0.518269 0.409503
0.843733 0.519061 0.519061
0.844523 0.519850 0.628308
0.845310 0.520638 0.737306
0.846097 0.521424 0.846097
0.846881 0.522209 0.954709
0.848358 0.632143 0.084710
0.849168 0.632953 0.196742
0.849967 0.633752 0.307348
0.850761 0.634547 0.417322
0.851553 0.635338 0.526881
0.852343 0.636128 0.636128
0.853130 0.636915 0.745126
0.853916 0.637702 0.853916
0.854701 0.638486 0.962529
0.856160 0.748156 0.092512
0.856970 0.748965 0.204544
0.857769 0.749764 0.315150
0.858563 0.750559 0.425124
0.859355 0.751351 0.534683
0.860145 0.752140 0.643930
0.860932 0.752928 0.752928
0.861718 0.753714 0.861718
0.862503 0.754499 0.970331
0.863947 0.863947 0.100299
0.864757 0.864757 0.212331
0.865556 0.865556 0.322937
0.866351 0.866351 0.432912
0.867142 0.867142 0.542470
0.867932 0.867932 0.651717
0.868719 0.868719 0.760715
0.869505 0.869505 0.869505
0.870290 0.870290 0.978118
0.871722 0.979550 0.108073
0.872531 0.980359 0.220105
0.873330 0.981158 0.330711
0.874125 0.981953 0.440686
0.874917 0.982745 0.550244
0.875706 0.983534 0.659491
0.876494 0.984322 0.768489
0.877280 0.985108 0.877280
0.878065 0.985893 0.985893
0.919027 0.047551 0.047551
0.919837 0.048360 0.159583
0.920636 0.049160 0.270189
0.921431 0.049954 0.380163
0.922222 0.050746 0.489722
0.923012 0.051535 0.598969
0.923799 0.052323 0.707967
0.924585 0.053109 0.816757
0.925370 0.053894 0.925370
0.927046 0.166792 0.055570
0.927856 0.167602 0.167602
0.928655 0.168401 0.278208
0.929450 0.169196 0.388183
0.930241 0.169987 0.497741
0.931031 0.170777 0.606988
0.931818 0.171565 0.715986
0.932605 0.172351 0.824776
0.933389 0.173135 0.933389
0.934963 0.284516 0.063487
0.935773 0.285326 0.175519
0.936572 0.286125 0.286125
0.937367 0.286920 0.396100
0.938158 0.287711 0.505658
0.938948 0.288501 0.614905
0.939735 0.289288 0.723903
0.940522 0.290074 0.832694
0.941306 0.290859 0.941306
0.942835 0.401568 0.071359
0.943645 0.402378 0.183391
0.944444 0.403177 0.293997
0.945239 0.403972 0.403972
0.946030 0.404763 0.513530
0.946820 0.405553 0.622777
0.947607 0.406340 0.731775
0.948393 0.407126 0.840565
0.949178 0.407911 0.949178
0.950677 0.518177 0.079201
0.951487 0.518987 0.191233
0.952286 0.519786 0.301839
0.953081 0.520580 0.411814
0.953872 0.521372 0.521372
0.954662 0.522162 0.630619
0.955449 0.522949 0.739617
0.956236 0.523735 0.848408
0.957020 0.524520 0.957020
0.958497 0.634454 0.087021
0.959307 0.635264 0.199053
0.960106 0.636063 0.309659
0.960901 0.636858 0.419633
0.961692 0.637649 0.529192
0.962482 0.638439 0.638439
0.963269 0.639226 0.747437
0.964055 0.640013 0.856227
0.964840 0.640797 0.964840
0.966299 0.750467 0.094823
0.967109 0.751276 0.206855
0.967908 0.752075 0.317461
0.968703 0.752870 0.427435
0.969494 0.753662 0.536994
0.970284 0.754451 0.646241
0.971071 0.755239 0.755239
0.971857 0.756025 0.864029
0.972642 0.756810 0.972642
0.974086 0.866258 0.102610
0.974896 0.867068 0.214642
0.975695 0.867867 0.325248
0.976490 0.868662 0.435223
0.977281 0.869453 0.544781
0.978071 0.870243 0.654028
0.978858 0.871030 0.763026
0.979645 0.871816 0.871816
0.980429 0.872601 0.980429
0.981861 0.981861 0.110384
0.982670 0.982670 0.222416
0.983469 0.983469 0.333022
0.984264 0.984264 0.442997
0.985056 0.985056 0.552555
0.985845 0.985845 0.661802
0.986633 0.986633 0.770800
0.987419 0.987419 0.879591
0.988204 0.988204 0.988204
