skills/creativeops-producer/assets/grade/luts/vintage_fade_v02.cube
TITLE "vintage_fade_v02"
LUT_3D_SIZE 17
DOMAIN_MIN 0.0 0.0 0.0
DOMAIN_MAX 1.0 1.0 1.0
0.028873 0.028873 0.028873
0.029280 0.029280 0.085200
0.029682 0.029682 0.140905
0.030083 0.030083 0.196309
0.030482 0.030482 0.251511
0.030879 0.030879 0.306560
0.031276 0.031276 0.361486
0.031673 0.031673 0.416309
0.032068 0.032068 0.471044
0.032463 0.032463 0.525702
0.032857 0.032857 0.580291
0.033251 0.033251 0.634818
0.033645 0.033645 0.689289
0.034038 0.034038 0.743708
0.034431 0.034431 0.798079
0.034824 0.034824 0.852407
0.035216 0.035216 0.906692
0.032905 0.088824 0.032905
0.033312 0.089231 0.089231
0.033714 0.089634 0.144937
0.034115 0.090034 0.200341
0.034514 0.090433 0.255543
0.034911 0.090831 0.310591
0.035308 0.091228 0.365517
0.035704 0.091624 0.420341
0.036100 0.092019 0.475076
0.036495 0.092414 0.529734
0.036889 0.092809 0.584323
0.037283 0.093203 0.638850
0.037677 0.093597 0.693321
0.038070 0.093990 0.747740
0.038463 0.094383 0.802111
0.038856 0.094775 0.856438
0.039248 0.095167 0.910724
0.036892 0.148115 0.036892
0.037299 0.148522 0.093219
0.037702 0.148924 0.148924
0.038102 0.149324 0.204328
0.038501 0.149723 0.259530
0.038899 0.150121 0.314579
0.039296 0.150518 0.369505
0.039692 0.150914 0.424328
0.040087 0.151310 0.479063
0.040482 0.151705 0.533721
0.040877 0.152099 0.588310
0.041271 0.152493 0.642837
0.041664 0.152887 0.697308
0.042057 0.153280 0.751727
0.042450 0.153673 0.806099
0.042843 0.154065 0.860426
0.043235 0.154458 0.914711
0.040858 0.207084 0.040858
0.041265 0.207491 0.097185
0.041667 0.207894 0.152890
0.042068 0.208294 0.208294
0.042467 0.208693 0.263496
0.042864 0.209091 0.318545
0.043261 0.209488 0.373470
0.043657 0.209884 0.428294
0.044053 0.210279 0.483029
0.044448 0.210674 0.537687
0.044842 0.211069 0.592276
0.045236 0.211463 0.646803
0.045630 0.211856 0.701274
0.046023 0.212249 0.755693
0.046416 0.212642 0.810064
0.046809 0.213035 0.864392
0.047201 0.213427 0.918677
0.044809 0.265838 0.044809
0.045216 0.266245 0.101136
0.045619 0.266648 0.156841
0.046019 0.267048 0.212245
0.046418 0.267447 0.267447
0.046816 0.267845 0.322496
0.047213 0.268242 0.377422
0.047609 0.268638 0.432245
0.048004 0.269033 0.486980
0.048399 0.269428 0.541638
0.048794 0.269823 0.596227
0.049188 0.270217 0.650754
0.049581 0.270610 0.705225
0.049975 0.271004 0.759644
0.050367 0.271396 0.814016
0.050760 0.271789 0.868343
0.051152 0.272181 0.922629
0.048749 0.324430 0.048749
0.049156 0.324837 0.105076
0.049559 0.325239 0.160781
0.049959 0.325639 0.216186
0.050358 0.326038 0.271387
0.050756 0.326436 0.326436
0.051153 0.326833 0.381362
0.051549 0.327229 0.436185
0.051945 0.327625 0.490921
0.052340 0.328020 0.545578
0.052734 0.328414 0.600167
0.053128 0.328808 0.654695
0.053522 0.329202 0.709165
0.053915 0.329595 0.763585
0.054308 0.329988 0.817956
0.054700 0.330380 0.872283
0.055093 0.330773 0.926569
0.052681 0.382890 0.052681
0.053088 0.383297 0.109008
0.053491 0.383700 0.164713
0.053891 0.384100 0.220117
0.054290 0.384499 0.275319
0.054688 0.384897 0.330368
0.055084 0.385294 0.385294
0.055481 0.385690 0.440117
0.055876 0.386085 0.494852
0.056271 0.386480 0.549510
0.056666 0.386875 0.604099
0.057060 0.387269 0.658626
0.057453 0.387662 0.713097
0.057846 0.388056 0.767516
0.058239 0.388448 0.821888
0.058632 0.388841 0.876215
0.059024 0.389233 0.930500
0.056605 0.441242 0.056605
0.057012 0.441649 0.112932
0.057415 0.442051 0.168637
0.057815 0.442451 0.224041
0.058214 0.442850 0.279243
0.058612 0.443248 0.334292
0.059009 0.443645 0.389218
0.059405 0.444041 0.444041
0.059800 0.444437 0.498776
0.060195 0.444832 0.553434
0.060590 0.445226 0.608023
0.060984 0.445620 0.662550
0.061377 0.446014 0.717021
0.061771 0.446407 0.771440
0.062164 0.446800 0.825812
0.062556 0.447192 0.880139
0.062948 0.447585 0.934425
0.060523 0.499499 0.060523
0.060930 0.499906 0.116850
0.061333 0.500309 0.172555
0.061733 0.500709 0.227959
0.062132 0.501108 0.283161
0.062530 0.501506 0.338210
0.062927 0.501903 0.393136
0.063323 0.502299 0.447959
0.063718 0.502694 0.502694
0.064113 0.503089 0.557352
0.064508 0.503484 0.611941
0.064902 0.503878 0.666468
0.065295 0.504271 0.720939
0.065689 0.504664 0.775358
0.066081 0.505057 0.829730
0.066474 0.505450 0.884057
0.066866 0.505842 0.938343
0.064435 0.557674 0.064435
0.064843 0.558081 0.120762
0.065245 0.558484 0.176467
0.065645 0.558884 0.231872
0.066044 0.559283 0.287073
0.066442 0.559681 0.342122
0.066839 0.560078 0.397048
0.067235 0.560474 0.451871
0.067631 0.560869 0.506607
0.068026 0.561264 0.561264
0.068420 0.561659 0.615854
0.068814 0.562053 0.670381
0.069208 0.562446 0.724851
0.069601 0.562840 0.779271
0.069994 0.563233 0.833642
0.070386 0.563625 0.887969
0.070779 0.564017 0.942255
0.068343 0.615776 0.068343
0.068750 0.616183 0.124670
0.069152 0.616586 0.180375
0.069553 0.616986 0.235779
0.069952 0.617385 0.290981
0.070349 0.617783 0.346030
0.070746 0.618180 0.400956
0.071143 0.618576 0.455779
0.071538 0.618972 0.510514
0.071933 0.619366 0.565172
0.072327 0.619761 0.619761
0.072721 0.620155 0.674288
0.073115 0.620549 0.728759
0.073508 0.620942 0.783178
0.073901 0.621335 0.837549
0.074294 0.621727 0.891877
0.074686 0.622120 0.946162
0.072246 0.673813 0.072246
0.072653 0.674220 0.128573
0.073055 0.674622 0.184278
0.073456 0.675022 0.239682
0.073855 0.675421 0.294884
0.074252 0.675819 0.349933
0.074649 0.676216 0.404859
0.075046 0.676612 0.459682
0.075441 0.677008 0.514417
0.075836 0.677403 0.569075
0.076230 0.677797 0.623664
0.076624 0.678191 0.678191
0.077018 0.678585 0.732662
0.077411 0.678978 0.787081
0.077804 0.679371 0.841452
0.078197 0.679763 0.895780
0.078589 0.680156 0.950065
0.076145 0.731789 0.076145
0.076552 0.732196 0.132472
0.076954 0.732598 0.188177
0.077355 0.732999 0.243581
0.077754 0.733397 0.298783
0.078151 0.733795 0.353832
0.078548 0.734192 0.408758
0.078945 0.734588 0.463581
0.079340 0.734984 0.518316
0.079735 0.735379 0.572974
0.080129 0.735773 0.627563
0.080523 0.736167 0.682090
0.080917 0.736561 0.736561
0.081310 0.736954 0.790980
0.081703 0.737347 0.845351
0.082096 0.737740 0.899679
0.082488 0.738132 0.953964
0.080040 0.789710 0.080040
0.080447 0.790117 0.136367
0.080850 0.790519 0.192072
0.081250 0.790920 0.247476
0.081649 0.791319 0.302678
0.082047 0.791716 0.357727
0.082444 0.792113 0.412653
0.082840 0.792510 0.467476
0.083235 0.792905 0.522211
0.083630 0.793300 0.576869
0.084025 0.793694 0.631458
0.084419 0.794088 0.685985
0.084812 0.794482 0.740456
0.085206 0.794875 0.794875
0.085598 0.795268 0.849247
0.085991 0.795661 0.903574
0.086383 0.796053 0.957860
0.083932 0.847580 0.083932
0.084339 0.847987 0.140259
0.084742 0.848390 0.195964
0.085142 0.848790 0.251368
0.085541 0.849189 0.306570
0.085939 0.849587 0.361619
0.086335 0.849984 0.416545
0.086732 0.850380 0.471368
0.087127 0.850775 0.526103
0.087522 0.851170 0.580761
0.087917 0.851565 0.635350
0.088311 0.851959 0.689877
0.088704 0.852352 0.744348
0.089097 0.852746 0.798767
0.089490 0.853139 0.853139
0.089883 0.853531 0.907466
0.090275 0.853923 0.961751
0.087821 0.905404 0.087821
0.088228 0.905811 0.144147
0.088630 0.906213 0.199853
0.089031 0.906613 0.255257
0.089430 0.907012 0.310459
0.089827 0.907410 0.365507
0.090224 0.907807 0.420433
0.090620 0.908203 0.475257
0.091016 0.908599 0.529992
0.091411 0.908994 0.584650
0.091805 0.909388 0.639239
0.092199 0.909782 0.693766
0.092593 0.910176 0.748237
0.092986 0.910569 0.802656
0.093379 0.910962 0.857027
0.093772 0.911354 0.911354
0.094164 0.911747 0.965640
0.091706 0.963183 0.091706
0.092113 0.963590 0.148033
0.092516 0.963992 0.203738
0.092916 0.964393 0.259143
0.093315 0.964792 0.314344
0.093713 0.965189 0.369393
0.094110 0.965586 0.424319
0.094506 0.965982 0.479142
0.094902 0.966378 0.533878
0.095297 0.966773 0.588535
0.095691 0.967167 0.643124
0.096085 0.967561 0.697652
0.096479 0.967955 0.752122
0.096872 0.968348 0.806542
0.097265 0.968741 0.860913
0.097657 0.969134 0.915240
0.098050 0.969526 0.969526
0.085991 0.030071 0.030071
0.086398 0.030478 0.086398
0.086801 0.030881 0.142103
0.087201 0.031281 0.197508
0.087600 0.031680 0.252709
0.087998 0.032078 0.307758
0.088395 0.032475 0.362684
0.088791 0.032871 0.417507
0.089186 0.033267 0.472242
0.089581 0.033661 0.526900
0.089976 0.034056 0.581489
0.090370 0.034450 0.636017
0.090763 0.034844 0.690487
0.091156 0.035237 0.744907
0.091549 0.035630 0.799278
0.091942 0.036022 0.853605
0.092334 0.036415 0.907891
0.090023 0.090023 0.034103
0.090430 0.090430 0.090430
0.090832 0.090832 0.146135
0.091233 0.091233 0.201539
0.091632 0.091632 0.256741
0.092029 0.092029 0.311790
0.092426 0.092426 0.366716
0.092822 0.092822 0.421539
0.093218 0.093218 0.476274
0.093613 0.093613 0.530932
0.094007 0.094007 0.585521
0.094401 0.094401 0.640048
0.094795 0.094795 0.694519
0.095188 0.095188 0.748938
0.095581 0.095581 0.803310
0.095974 0.095974 0.857637
0.096366 0.096366 0.911923
0.094010 0.149313 0.038091
0.094417 0.149720 0.094417
0.094820 0.150123 0.150123
0.095220 0.150523 0.205527
0.095619 0.150922 0.260728
0.096017 0.151320 0.315777
0.096414 0.151716 0.370703
0.096810 0.152113 0.425527
0.097205 0.152508 0.480262
0.097600 0.152903 0.534919
0.097995 0.153298 0.589509
0.098389 0.153692 0.644036
0.098782 0.154085 0.698507
0.099176 0.154478 0.752926
0.099568 0.154871 0.807297
0.099961 0.155264 0.861624
0.100353 0.155656 0.915910
0.097976 0.208283 0.042056
0.098383 0.208690 0.098383
0.098786 0.209092 0.154088
0.099186 0.209492 0.209492
0.099585 0.209891 0.264694
0.099983 0.210289 0.319743
0.100379 0.210686 0.374669
0.100776 0.211082 0.429492
0.101171 0.211478 0.484227
0.101566 0.211873 0.538885
0.101961 0.212267 0.593474
0.102355 0.212661 0.648001
0.102748 0.213055 0.702472
0.103141 0.213448 0.756891
0.103534 0.213841 0.811263
0.103927 0.214233 0.865590
0.104319 0.214626 0.919876
0.101927 0.267037 0.046008
0.102334 0.267444 0.102334
0.102737 0.267846 0.158040
0.103137 0.268247 0.213444
0.103536 0.268645 0.268645
0.103934 0.269043 0.323694
0.104331 0.269440 0.378620
0.104727 0.269836 0.433444
0.105122 0.270232 0.488179
0.105517 0.270627 0.542837
0.105912 0.271021 0.597426
0.106306 0.271415 0.651953
0.106699 0.271809 0.706424
0.107093 0.272202 0.760843
0.107486 0.272595 0.815214
0.107878 0.272988 0.869541
0.108270 0.273380 0.923827
0.105868 0.325628 0.049948
0.106275 0.326035 0.106275
0.106677 0.326438 0.161980
0.107078 0.326838 0.217384
0.107476 0.327237 0.272586
0.107874 0.327635 0.327635
0.108271 0.328032 0.382561
0.108667 0.328428 0.437384
0.109063 0.328823 0.492119
0.109458 0.329218 0.546777
0.109852 0.329613 0.601366
0.110246 0.330007 0.655893
0.110640 0.330400 0.710364
0.111033 0.330793 0.764783
0.111426 0.331186 0.819155
0.111818 0.331579 0.873482
0.112211 0.331971 0.927767
0.109799 0.384089 0.053880
0.110206 0.384496 0.110206
0.110609 0.384898 0.165912
0.111009 0.385299 0.221316
0.111408 0.385698 0.276517
0.111806 0.386095 0.331566
0.112203 0.386492 0.386492
0.112599 0.386888 0.441315
0.112994 0.387284 0.496051
0.113389 0.387679 0.550708
0.113784 0.388073 0.605298
0.114178 0.388467 0.659825
0.114571 0.388861 0.714295
0.114965 0.389254 0.768715
0.115357 0.389647 0.823086
0.115750 0.390040 0.877413
0.116142 0.390432 0.931699
0.113723 0.442440 0.057804
0.114130 0.442847 0.114130
0.114533 0.443250 0.169836
0.114933 0.443650 0.225240
0.115332 0.444049 0.280442
0.115730 0.444447 0.335490
0.116127 0.444844 0.390416
0.116523 0.445240 0.445240
0.116919 0.445635 0.499975
0.117313 0.446030 0.554633
0.117708 0.446425 0.609222
0.118102 0.446819 0.663749
0.118496 0.447212 0.718220
0.118889 0.447605 0.772639
0.119282 0.447998 0.827010
0.119674 0.448391 0.881337
0.120066 0.448783 0.935623
0.117641 0.500698 0.061722
0.118048 0.501105 0.118048
0.118451 0.501507 0.173754
0.118851 0.501907 0.229158
0.119250 0.502306 0.284359
0.119648 0.502704 0.339408
0.120045 0.503101 0.394334
0.120441 0.503497 0.449158
0.120836 0.503893 0.503893
0.121231 0.504288 0.558551
0.121626 0.504682 0.613140
0.122020 0.505076 0.667667
0.122413 0.505470 0.722138
0.122807 0.505863 0.776557
0.123200 0.506256 0.830928
0.123592 0.506648 0.885255
0.123984 0.507041 0.939541
0.121554 0.558873 0.065634
0.121961 0.559280 0.121961
0.122363 0.559682 0.177666
0.122764 0.560083 0.233070
0.123162 0.560482 0.288272
0.123560 0.560879 0.343321
0.123957 0.561276 0.398247
0.124353 0.561672 0.453070
0.124749 0.562068 0.507805
0.125144 0.562463 0.562463
0.125538 0.562857 0.617052
0.125932 0.563251 0.671579
0.126326 0.563645 0.726050
0.126719 0.564038 0.780469
0.127112 0.564431 0.834841
0.127504 0.564824 0.889168
0.127897 0.565216 0.943453
0.125461 0.616975 0.069541
0.125868 0.617382 0.125868
0.126271 0.617784 0.181573
0.126671 0.618185 0.236978
0.127070 0.618584 0.292179
0.127468 0.618981 0.347228
0.127865 0.619378 0.402154
0.128261 0.619775 0.456977
0.128656 0.620170 0.511713
0.129051 0.620565 0.566370
0.129446 0.620959 0.620959
0.129840 0.621353 0.675487
0.130233 0.621747 0.729957
0.130626 0.622140 0.784377
0.131019 0.622533 0.838748
0.131412 0.622926 0.893075
0.131804 0.623318 0.947361
0.129364 0.675011 0.073444
0.129771 0.675418 0.129771
0.130174 0.675821 0.185476
0.130574 0.676221 0.240881
0.130973 0.676620 0.296082
0.131371 0.677018 0.351131
0.131768 0.677414 0.406057
0.132164 0.677811 0.460880
0.132559 0.678206 0.515616
0.132954 0.678601 0.570273
0.133349 0.678996 0.624862
0.133743 0.679390 0.679390
0.134136 0.679783 0.733860
0.134529 0.680176 0.788280
0.134922 0.680569 0.842651
0.135315 0.680962 0.896978
0.135707 0.681354 0.951264
0.133263 0.732987 0.077343
0.133670 0.733394 0.133670
0.134073 0.733797 0.189375
0.134473 0.734197 0.244780
0.134872 0.734596 0.299981
0.135270 0.734994 0.355030
0.135667 0.735391 0.409956
0.136063 0.735787 0.464779
0.136458 0.736182 0.519514
0.136853 0.736577 0.574172
0.137248 0.736972 0.628761
0.137642 0.737366 0.683289
0.138035 0.737759 0.737759
0.138428 0.738153 0.792178
0.138821 0.738545 0.846550
0.139214 0.738938 0.900877
0.139606 0.739330 0.955163
0.137158 0.790908 0.081239
0.137565 0.791315 0.137565
0.137968 0.791718 0.193271
0.138368 0.792118 0.248675
0.138767 0.792517 0.303877
0.139165 0.792915 0.358925
0.139562 0.793312 0.413851
0.139958 0.793708 0.468675
0.140353 0.794104 0.523410
0.140748 0.794498 0.578068
0.141143 0.794893 0.632657
0.141537 0.795287 0.687184
0.141930 0.795681 0.741655
0.142324 0.796074 0.796074
0.142717 0.796467 0.850445
0.143109 0.796859 0.904772
0.143501 0.797251 0.959058
0.141050 0.848779 0.085131
0.141457 0.849186 0.141457
0.141860 0.849588 0.197163
0.142260 0.849989 0.252567
0.142659 0.850388 0.307768
0.143057 0.850785 0.362817
0.143454 0.851182 0.417743
0.143850 0.851578 0.472566
0.144245 0.851974 0.527302
0.144640 0.852369 0.581959
0.145035 0.852763 0.636549
0.145429 0.853157 0.691076
0.145822 0.853551 0.745546
0.146216 0.853944 0.799966
0.146608 0.854337 0.854337
0.147001 0.854730 0.908664
0.147393 0.855122 0.962950
0.144939 0.906602 0.089019
0.145346 0.907009 0.145346
0.145748 0.907412 0.201051
0.146149 0.907812 0.256455
0.146548 0.908211 0.311657
0.146945 0.908609 0.366706
0.147342 0.909006 0.421632
0.147738 0.909402 0.476455
0.148134 0.909797 0.531190
0.148529 0.910192 0.585848
0.148923 0.910587 0.640437
0.149317 0.910981 0.694964
0.149711 0.911374 0.749435
0.150104 0.911767 0.803854
0.150497 0.912160 0.858226
0.150890 0.912553 0.912553
0.151282 0.912945 0.966839
0.148825 0.964381 0.092905
0.149232 0.964788 0.149232
0.149634 0.965191 0.204937
0.150034 0.965591 0.260341
0.150433 0.965990 0.315543
0.150831 0.966388 0.370592
0.151228 0.966785 0.425518
0.151624 0.967181 0.480341
0.152020 0.967576 0.535076
0.152415 0.967971 0.589734
0.152809 0.968366 0.644323
0.153203 0.968760 0.698850
0.153597 0.969153 0.753321
0.153990 0.969547 0.807740
0.154383 0.969940 0.862111
0.154775 0.970332 0.916439
0.155168 0.970724 0.970724
0.142479 0.031257 0.031257
0.142886 0.031664 0.087583
0.143289 0.032066 0.143289
0.143689 0.032467 0.198693
0.144088 0.032865 0.253895
0.144486 0.033263 0.308943
0.144883 0.033660 0.363869
0.145279 0.034056 0.418693
0.145674 0.034452 0.473428
0.146069 0.034847 0.528086
0.146464 0.035241 0.582675
0.146858 0.035635 0.637202
0.147251 0.036029 0.691673
0.147645 0.036422 0.746092
0.148037 0.036815 0.800463
0.148430 0.037208 0.854790
0.148822 0.037600 0.909076
0.146511 0.091208 0.035288
0.146918 0.091615 0.091615
0.147320 0.092018 0.147320
0.147721 0.092418 0.202725
0.148120 0.092817 0.257926
0.148517 0.093215 0.312975
0.148914 0.093612 0.367901
0.149311 0.094008 0.422724
0.149706 0.094403 0.477460
0.150101 0.094798 0.532117
0.150495 0.095193 0.586707
0.150889 0.095587 0.641234
0.151283 0.095980 0.695704
0.151676 0.096374 0.750124
0.152069 0.096766 0.804495
0.152462 0.097159 0.858822
0.152854 0.097551 0.913108
0.150498 0.150498 0.039276
0.150905 0.150905 0.095603
0.151308 0.151308 0.151308
0.151708 0.151708 0.206712
0.152107 0.152107 0.261914
0.152505 0.152505 0.316962
0.152902 0.152902 0.371888
0.153298 0.153298 0.426712
0.153693 0.153693 0.481447
0.154088 0.154088 0.536105
0.154483 0.154483 0.590694
0.154877 0.154877 0.645221
0.155270 0.155270 0.699692
0.155664 0.155664 0.754111
0.156057 0.156057 0.808482
0.156449 0.156449 0.862809
0.156841 0.156841 0.917095
0.154464 0.209468 0.043242
0.154871 0.209875 0.099568
0.155274 0.210277 0.155274
0.155674 0.210678 0.210678
0.156073 0.211077 0.265879
0.156471 0.211474 0.320928
0.156868 0.211871 0.375854
0.157264 0.212267 0.430678
0.157659 0.212663 0.485413
0.158054 0.213058 0.540071
0.158449 0.213452 0.594660
0.158843 0.213846 0.649187
0.159236 0.214240 0.703658
0.159629 0.214633 0.758077
0.160022 0.215026 0.812448
0.160415 0.215419 0.866775
0.160807 0.215811 0.921061
0.158415 0.268222 0.047193
0.158822 0.268629 0.103520
0.159225 0.269032 0.159225
0.159625 0.269432 0.214629
0.160024 0.269831 0.269831
0.160422 0.270229 0.324880
0.160819 0.270625 0.379806
0.161215 0.271022 0.434629
0.161610 0.271417 0.489364
0.162005 0.271812 0.544022
0.162400 0.272207 0.598611
0.162794 0.272601 0.653138
0.163187 0.272994 0.707609
0.163581 0.273387 0.762028
0.163974 0.273780 0.816399
0.164366 0.274173 0.870727
0.164758 0.274565 0.925012
0.162356 0.326813 0.051133
0.162763 0.327220 0.107460
0.163165 0.327623 0.163165
0.163566 0.328023 0.218569
0.163964 0.328422 0.273771
0.164362 0.328820 0.328820
0.164759 0.329217 0.383746
0.165155 0.329613 0.438569
0.165551 0.330008 0.493304
0.165946 0.330403 0.547962
0.166340 0.330798 0.602551
0.166734 0.331192 0.657078
0.167128 0.331586 0.711549
0.167521 0.331979 0.765968
0.167914 0.332372 0.820340
0.168307 0.332764 0.874667
0.168699 0.333156 0.928953
0.166287 0.385274 0.055065
0.166694 0.385681 0.111391
0.167097 0.386084 0.167097
0.167497 0.386484 0.222501
0.167896 0.386883 0.277703
0.168294 0.387281 0.332751
0.168691 0.387677 0.387677
0.169087 0.388074 0.442501
0.169482 0.388469 0.497236
0.169877 0.388864 0.551894
0.170272 0.389259 0.606483
0.170666 0.389653 0.661010
0.171059 0.390046 0.715481
0.171453 0.390439 0.769900
0.171846 0.390832 0.824271
0.172238 0.391225 0.878598
0.172630 0.391617 0.932884
0.170211 0.443625 0.058989
0.170618 0.444032 0.115316
0.171021 0.444435 0.171021
0.171421 0.444835 0.226425
0.171820 0.445234 0.281627
0.172218 0.445632 0.336676
0.172615 0.446029 0.391602
0.173011 0.446425 0.446425
0.173407 0.446820 0.501160
0.173802 0.447215 0.555818
0.174196 0.447610 0.610407
0.174590 0.448004 0.664934
0.174984 0.448398 0.719405
0.175377 0.448791 0.773824
0.175770 0.449184 0.828196
0.176162 0.449576 0.882523
0.176555 0.449968 0.936808
0.174129 0.501883 0.062907
0.174536 0.502290 0.119234
0.174939 0.502692 0.174939
0.175339 0.503093 0.230343
0.175738 0.503492 0.285545
0.176136 0.503889 0.340594
0.176533 0.504286 0.395520
0.176929 0.504682 0.450343
0.177324 0.505078 0.505078
0.177719 0.505473 0.559736
0.178114 0.505867 0.614325
0.178508 0.506261 0.668852
0.178901 0.506655 0.723323
0.179295 0.507048 0.777742
0.179688 0.507441 0.832113
0.180080 0.507834 0.886441
0.180472 0.508226 0.940726
0.178042 0.560058 0.066819
0.178449 0.560465 0.123146
0.178851 0.560868 0.178851
0.179252 0.561268 0.234255
0.179650 0.561667 0.289457
0.180048 0.562065 0.344506
0.180445 0.562462 0.399432
0.180841 0.562858 0.454255
0.181237 0.563253 0.508990
0.181632 0.563648 0.563648
0.182026 0.564043 0.618237
0.182420 0.564437 0.672764
0.182814 0.564830 0.727235
0.183207 0.565223 0.781654
0.183600 0.565616 0.836026
0.183993 0.566009 0.890353
0.184385 0.566401 0.944639
0.181949 0.618160 0.070727
0.182356 0.618567 0.127053
0.182759 0.618970 0.182759
0.183159 0.619370 0.238163
0.183558 0.619769 0.293365
0.183956 0.620167 0.348413
0.184353 0.620564 0.403339
0.184749 0.620960 0.458163
0.185144 0.621355 0.512898
0.185539 0.621750 0.567556
0.185934 0.622145 0.622145
0.186328 0.622539 0.676672
0.186721 0.622932 0.731143
0.187115 0.623326 0.785562
0.187507 0.623718 0.839933
0.187900 0.624111 0.894260
0.188292 0.624503 0.948546
0.185852 0.676196 0.074630
0.186259 0.676603 0.130956
0.186662 0.677006 0.186662
0.187062 0.677406 0.242066
0.187461 0.677805 0.297268
0.187859 0.678203 0.352316
0.188256 0.678600 0.407242
0.188652 0.678996 0.462066
0.189047 0.679391 0.516801
0.189442 0.679786 0.571459
0.189837 0.680181 0.626048
0.190231 0.680575 0.680575
0.190624 0.680968 0.735046
0.191018 0.681362 0.789465
0.191410 0.681755 0.843836
0.191803 0.682147 0.898163
0.192195 0.682539 0.952449
0.189751 0.734172 0.078529
0.190158 0.734580 0.134855
0.190561 0.734982 0.190561
0.190961 0.735382 0.245965
0.191360 0.735781 0.301167
0.191758 0.736179 0.356215
0.192155 0.736576 0.411141
0.192551 0.736972 0.465965
0.192946 0.737368 0.520700
0.193341 0.737763 0.575358
0.193736 0.738157 0.629947
0.194130 0.738551 0.684474
0.194523 0.738945 0.738945
0.194916 0.739338 0.793364
0.195309 0.739731 0.847735
0.195702 0.740123 0.902062
0.196094 0.740516 0.956348
0.193646 0.792094 0.082424
0.194053 0.792501 0.138751
0.194456 0.792903 0.194456
0.194856 0.793304 0.249860
0.195255 0.793702 0.305062
0.195653 0.794100 0.360111
0.196050 0.794497 0.415037
0.196446 0.794893 0.469860
0.196842 0.795289 0.524595
0.197236 0.795684 0.579253
0.197631 0.796078 0.633842
0.198025 0.796472 0.688369
0.198419 0.796866 0.742840
0.198812 0.797259 0.797259
0.199205 0.797652 0.851630
0.199597 0.798044 0.905958
0.199989 0.798437 0.960243
0.197538 0.849964 0.086316
0.197945 0.850371 0.142642
0.198348 0.850774 0.198348
0.198748 0.851174 0.253752
0.199147 0.851573 0.308954
0.199545 0.851971 0.364002
0.199942 0.852368 0.418928
0.200338 0.852764 0.473752
0.200733 0.853159 0.528487
0.201128 0.853554 0.583145
0.201523 0.853949 0.637734
0.201917 0.854343 0.692261
0.202310 0.854736 0.746732
0.202704 0.855129 0.801151
0.203097 0.855522 0.855522
0.203489 0.855915 0.909849
0.203881 0.856307 0.964135
0.201427 0.907787 0.090205
0.201834 0.908194 0.146531
0.202236 0.908597 0.202236
0.202637 0.908997 0.257641
0.203036 0.909396 0.312842
0.203433 0.909794 0.367891
0.203830 0.910191 0.422817
0.204227 0.910587 0.477640
0.204622 0.910982 0.532376
0.205017 0.911377 0.587033
0.205411 0.911772 0.641623
0.205805 0.912166 0.696150
0.206199 0.912559 0.750620
0.206592 0.912953 0.805040
0.206985 0.913346 0.859411
0.207378 0.913738 0.913738
0.207770 0.914130 0.968024
0.205313 0.965567 0.094090
0.205720 0.965974 0.150417
0.206122 0.966376 0.206122
0.206523 0.966776 0.261526
0.206921 0.967175 0.316728
0.207319 0.967573 0.371777
0.207716 0.967970 0.426703
0.208112 0.968366 0.481526
0.208508 0.968762 0.536261
0.208903 0.969157 0.590919
0.209297 0.969551 0.645508
0.209691 0.969945 0.700035
0.210085 0.970339 0.754506
0.210478 0.970732 0.808925
0.210871 0.971125 0.863297
0.211263 0.971517 0.917624
0.211656 0.971910 0.971910
0.198662 0.032436 0.032436
0.199069 0.032843 0.088762
0.199471 0.033245 0.144468
0.199872 0.033645 0.199872
0.200271 0.034044 0.255073
0.200668 0.034442 0.310122
0.201065 0.034839 0.365048
0.201461 0.035235 0.419872
0.201857 0.035631 0.474607
0.202252 0.036026 0.529264
0.202646 0.036420 0.583854
0.203040 0.036814 0.638381
0.203434 0.037208 0.692852
0.203827 0.037601 0.747271
0.204220 0.037994 0.801642
0.204613 0.038386 0.855969
0.205005 0.038779 0.910255
0.202694 0.092387 0.036467
