skills/appstore-creatives-orchestrator/assets/grade/luts/ad_warm_v09.cube
TITLE "ad_warm_v09"
LUT_3D_SIZE 9
DOMAIN_MIN 0.0 0.0 0.0
DOMAIN_MAX 1.0 1.0 1.0
0.026447 0.000000 0.000000
0.025995 0.000000 0.106371
0.025414 0.000000 0.243425
0.024841 0.000000 0.378610
0.024272 0.000000 0.512662
0.023708 0.000000 0.645898
0.023145 0.000000 0.778496
0.022585 0.000000 0.910571
0.022027 0.000000 1.000000
0.020720 0.130886 0.000000
0.020268 0.130434 0.100644
0.019687 0.129853 0.237698
0.019114 0.129280 0.372883
0.018545 0.128711 0.506935
0.017980 0.128147 0.640171
0.017418 0.127584 0.772769
0.016858 0.127024 0.904844
0.016300 0.126466 1.000000
0.014986 0.262271 0.000000
0.014533 0.261818 0.094909
0.013952 0.261237 0.231963
0.013379 0.260664 0.367148
0.012811 0.260096 0.501200
0.012246 0.259531 0.634436
0.011684 0.258969 0.767035
0.011124 0.258409 0.899110
0.010566 0.257850 1.000000
0.009320 0.392079 0.000000
0.008868 0.391627 0.089244
0.008287 0.391046 0.226298
0.007714 0.390472 0.361483
0.007145 0.389904 0.495535
0.006580 0.389339 0.628771
0.006018 0.388777 0.761369
0.005458 0.388217 0.893444
0.004900 0.387659 1.000000
0.003699 0.520882 0.000000
0.003246 0.520429 0.083622
0.002665 0.519848 0.220676
0.002092 0.519275 0.355861
0.001524 0.518707 0.489913
0.000959 0.518142 0.623149
0.000397 0.517580 0.755747
0.000000 0.517020 0.887822
0.000000 0.516461 1.000000
0.000000 0.648943 0.000000
0.000000 0.648491 0.078033
0.000000 0.647910 0.215087
0.000000 0.647337 0.350272
0.000000 0.646768 0.484324
0.000000 0.646204 0.617560
0.000000 0.645641 0.750158
0.000000 0.645081 0.882233
0.000000 0.644523 1.000000
0.000000 0.776419 0.000000
0.000000 0.775967 0.072469
0.000000 0.775386 0.209523
0.000000 0.774812 0.344708
0.000000 0.774244 0.478760
0.000000 0.773679 0.611996
0.000000 0.773117 0.744594
0.000000 0.772557 0.876669
0.000000 0.771999 1.000000
0.000000 0.903410 0.000000
0.000000 0.902957 0.066926
0.000000 0.902376 0.203981
0.000000 0.901803 0.339165
0.000000 0.901235 0.473217
0.000000 0.900670 0.606453
0.000000 0.900108 0.739052
0.000000 0.899548 0.871127
0.000000 0.898990 1.000000
0.000000 1.000000 0.000000
0.000000 1.000000 0.061953
0.000000 1.000000 0.199007
0.000000 1.000000 0.334192
0.000000 1.000000 0.468244
0.000000 1.000000 0.601480
0.000000 1.000000 0.734078
0.000000 1.000000 0.866153
0.000000 1.000000 0.997785
0.164516 0.000000 0.000000
0.164063 0.000000 0.104633
0.163482 0.000000 0.241687
0.162909 0.000000 0.376872
0.162341 0.000000 0.510924
0.161776 0.000000 0.644160
0.161214 0.000000 0.776758
0.160654 0.000000 0.908833
0.160096 0.000000 1.000000
0.158788 0.129148 0.000000
0.158336 0.128696 0.098906
0.157755 0.128115 0.235960
0.157182 0.127542 0.371145
0.156613 0.126973 0.505197
0.156049 0.126409 0.638433
0.155486 0.125846 0.771031
0.154926 0.125286 0.903106
0.154368 0.124728 1.000000
0.153054 0.260533 0.000000
0.152602 0.260080 0.093171
0.152021 0.259499 0.230225
0.151447 0.258926 0.365410
0.150879 0.258358 0.499462
0.150314 0.257793 0.632698
0.149752 0.257231 0.765297
0.149192 0.256671 0.897372
0.148634 0.256112 1.000000
0.147388 0.390341 0.000000
0.146936 0.389889 0.087506
0.146355 0.389308 0.224560
0.145782 0.388734 0.359745
0.145214 0.388166 0.493797
0.144649 0.387601 0.627033
0.144086 0.387039 0.759631
0.143527 0.386479 0.891706
0.142968 0.385921 1.000000
0.141767 0.519144 0.000000
0.141314 0.518691 0.081884
0.140733 0.518110 0.218938
0.140160 0.517537 0.354123
0.139592 0.516969 0.488175
0.139027 0.516404 0.621411
0.138465 0.515842 0.754009
0.137905 0.515282 0.886084
0.137347 0.514723 1.000000
0.136177 0.647205 0.000000
0.135725 0.646753 0.076295
0.135144 0.646172 0.213349
0.134571 0.645599 0.348534
0.134003 0.645030 0.482586
0.133438 0.644466 0.615822
0.132875 0.643903 0.748420
0.132316 0.643343 0.880495
0.131757 0.642785 1.000000
0.130614 0.774681 0.000000
0.130161 0.774229 0.070731
0.129580 0.773648 0.207785
0.129007 0.773074 0.342970
0.128439 0.772506 0.477022
0.127874 0.771941 0.610258
0.127312 0.771379 0.742856
0.126752 0.770819 0.874931
0.126194 0.770261 1.000000
0.125071 0.901672 0.000000
0.124619 0.901219 0.065188
0.124038 0.900638 0.202243
0.123464 0.900065 0.337427
0.122896 0.899497 0.471479
0.122331 0.898932 0.604715
0.121769 0.898370 0.737314
0.121209 0.897810 0.869389
0.120651 0.897252 1.000000
0.120098 1.000000 0.000000
0.119646 1.000000 0.060215
0.119064 1.000000 0.197269
0.118491 1.000000 0.332454
0.117923 1.000000 0.466506
0.117358 1.000000 0.599742
0.116796 1.000000 0.732340
0.116236 1.000000 0.864415
0.115678 1.000000 0.996047
0.299496 0.000000 0.000000
0.299044 0.000000 0.102934
0.298463 0.000000 0.239988
0.297890 0.000000 0.375173
0.297321 0.000000 0.509225
0.296756 0.000000 0.642461
0.296194 0.000000 0.775059
0.295634 0.000000 0.907134
0.295076 0.000000 1.000000
0.293769 0.127449 0.000000
0.293317 0.126997 0.097206
0.292736 0.126416 0.234261
0.292162 0.125843 0.369445
0.291594 0.125274 0.503497
0.291029 0.124709 0.636734
0.290467 0.124147 0.769332
0.289907 0.123587 0.901407
0.289349 0.123029 1.000000
0.288035 0.258833 0.000000
0.287582 0.258381 0.091472
0.287001 0.257800 0.228526
0.286428 0.257227 0.363711
0.285860 0.256658 0.497763
0.285295 0.256094 0.630999
0.284733 0.255531 0.763597
0.284173 0.254971 0.895673
0.283615 0.254413 1.000000
0.282369 0.388642 0.000000
0.281917 0.388189 0.085806
0.281336 0.387608 0.222861
0.280762 0.387035 0.358046
0.280194 0.386467 0.492098
0.279629 0.385902 0.625334
0.279067 0.385340 0.757932
0.278507 0.384780 0.890007
0.277949 0.384222 1.000000
0.276747 0.517444 0.000000
0.276295 0.516992 0.080185
0.275714 0.516411 0.217239
0.275141 0.515838 0.352424
0.274572 0.515269 0.486476
0.274008 0.514705 0.619712
0.273445 0.514142 0.752310
0.272885 0.513582 0.884385
0.272327 0.513024 1.000000
0.271158 0.645506 0.000000
0.270706 0.645054 0.074595
0.270125 0.644473 0.211650
0.269551 0.643900 0.346835
0.268983 0.643331 0.480886
0.268418 0.642766 0.614123
0.267856 0.642204 0.746721
0.267296 0.641644 0.878796
0.266738 0.641086 1.000000
0.265594 0.772982 0.000000
0.265142 0.772530 0.069032
0.264561 0.771948 0.206086
0.263988 0.771375 0.341271
0.263419 0.770807 0.475323
0.262854 0.770242 0.608559
0.262292 0.769680 0.741157
0.261732 0.769120 0.873232
0.261174 0.768562 1.000000
0.260052 0.899973 0.000000
0.259599 0.899520 0.063489
0.259018 0.898939 0.200543
0.258445 0.898366 0.335728
0.257877 0.897798 0.469780
0.257312 0.897233 0.603016
0.256750 0.896671 0.735615
0.256190 0.896111 0.867690
0.255632 0.895553 0.999321
0.255078 1.000000 0.000000
0.254626 1.000000 0.058516
0.254045 1.000000 0.195570
0.253472 1.000000 0.330755
0.252903 1.000000 0.464807
0.252339 1.000000 0.598043
0.251776 1.000000 0.730641
0.251216 1.000000 0.862716
0.250658 1.000000 0.994348
0.433030 0.000000 0.000000
0.432578 0.000000 0.101253
0.431997 0.000000 0.238307
0.431424 0.000000 0.373492
0.430855 0.000000 0.507544
0.430290 0.000000 0.640780
0.429728 0.000000 0.773378
0.429168 0.000000 0.905453
0.428610 0.000000 1.000000
0.427303 0.125768 0.000000
0.426851 0.125316 0.095525
0.426270 0.124735 0.232580
0.425697 0.124162 0.367765
0.425128 0.123593 0.501817
0.424563 0.123029 0.635053
0.424001 0.122466 0.767651
0.423441 0.121906 0.899726
0.422883 0.121348 1.000000
0.421569 0.257152 0.000000
0.421116 0.256700 0.089791
0.420535 0.256119 0.226845
0.419962 0.255546 0.362030
0.419394 0.254978 0.496082
0.418829 0.254413 0.629318
0.418267 0.253850 0.761917
0.417707 0.253291 0.893992
0.417149 0.252732 1.000000
0.415903 0.386961 0.000000
0.415451 0.386509 0.084126
0.414870 0.385927 0.221180
0.414297 0.385354 0.356365
0.413728 0.384786 0.490417
0.413163 0.384221 0.623653
0.412601 0.383659 0.756251
0.412041 0.383099 0.888326
0.411483 0.382541 1.000000
0.410282 0.515763 0.000000
0.409829 0.515311 0.078504
0.409248 0.514730 0.215558
0.408675 0.514157 0.350743
0.408107 0.513589 0.484795
0.407542 0.513024 0.618031
0.406980 0.512461 0.750629
0.406420 0.511901 0.882704
0.405861 0.511343 1.000000
0.404692 0.643825 0.000000
0.404240 0.643373 0.072915
0.403659 0.642792 0.209969
0.403086 0.642219 0.345154
0.402517 0.641650 0.479206
0.401952 0.641085 0.612442
0.401390 0.640523 0.745040
0.400830 0.639963 0.877115
0.400272 0.639405 1.000000
0.399128 0.771301 0.000000
0.398676 0.770849 0.067351
0.398095 0.770268 0.204405
0.397522 0.769694 0.339590
0.396953 0.769126 0.473642
0.396389 0.768561 0.606878
0.395826 0.767999 0.739476
0.395266 0.767439 0.871551
0.394708 0.766881 1.000000
0.393586 0.898292 0.000000
0.393133 0.897839 0.061808
0.392552 0.897258 0.198862
0.391979 0.896685 0.334047
0.391411 0.896117 0.468099
0.390846 0.895552 0.601335
0.390284 0.894990 0.733934
0.389724 0.894430 0.866009
0.389166 0.893872 0.997640
0.388613 1.000000 0.000000
0.388160 1.000000 0.056835
0.387579 1.000000 0.193889
0.387006 1.000000 0.329074
0.386438 1.000000 0.463126
0.385873 1.000000 0.596362
0.385311 1.000000 0.728960
0.384751 1.000000 0.861035
0.384193 1.000000 0.992667
0.565602 0.000000 0.000000
0.565149 0.000000 0.099584
0.564568 0.000000 0.236638
0.563995 0.000000 0.371823
0.563427 0.000000 0.505875
0.562862 0.000000 0.639111
0.562300 0.000000 0.771709
0.561740 0.000000 0.903784
0.561182 0.000000 1.000000
0.559875 0.124100 0.000000
0.559422 0.123647 0.093857
0.558841 0.123066 0.230911
0.558268 0.122493 0.366096
0.557700 0.121925 0.500148
0.557135 0.121360 0.633384
0.556573 0.120798 0.765982
0.556013 0.120238 0.898057
0.555455 0.119680 1.000000
0.554140 0.255484 0.000000
0.553688 0.255031 0.088122
0.553107 0.254450 0.225177
0.552534 0.253877 0.360361
0.551965 0.253309 0.494413
0.551400 0.252744 0.627649
0.550838 0.252182 0.760248
0.550278 0.251622 0.892323
0.549720 0.251064 1.000000
0.548475 0.385292 0.000000
0.548022 0.384840 0.082457
0.547441 0.384259 0.219511
0.546868 0.383686 0.354696
0.546300 0.383117 0.488748
0.545735 0.382552 0.621984
0.545173 0.381990 0.754582
0.544613 0.381430 0.886657
0.544055 0.380872 1.000000
0.542853 0.514095 0.000000
0.542401 0.513642 0.076835
0.541820 0.513061 0.213889
0.541246 0.512488 0.349074
0.540678 0.511920 0.483126
0.540113 0.511355 0.616362
0.539551 0.510793 0.748960
0.538991 0.510233 0.881036
0.538433 0.509675 1.000000
0.537264 0.642156 0.000000
0.536811 0.641704 0.071246
0.536230 0.641123 0.208300
0.535657 0.640550 0.343485
0.535089 0.639982 0.477537
0.534524 0.639417 0.610773
0.533962 0.638854 0.743371
0.533402 0.638295 0.875446
0.532844 0.637736 1.000000
0.531700 0.769632 0.000000
0.531247 0.769180 0.065682
0.530666 0.768599 0.202736
0.530093 0.768026 0.337921
0.529525 0.767457 0.471973
0.528960 0.766892 0.605209
0.528398 0.766330 0.737807
0.527838 0.765770 0.869882
0.527280 0.765212 1.000000
0.526157 0.896623 0.000000
0.525705 0.896171 0.060139
0.525124 0.895590 0.197194
0.524551 0.895016 0.332378
0.523982 0.894448 0.466430
0.523417 0.893883 0.599666
0.522855 0.893321 0.732265
0.522295 0.892761 0.864340
0.521737 0.892203 0.995971
0.521184 1.000000 0.000000
0.520732 1.000000 0.055166
0.520151 1.000000 0.192220
0.519577 1.000000 0.327405
0.519009 1.000000 0.461457
0.518444 1.000000 0.594693
0.517882 1.000000 0.727292
0.517322 1.000000 0.859367
0.516764 1.000000 0.990998
0.697451 0.000000 0.000000
0.696998 0.000000 0.097924
0.696417 0.000000 0.234978
0.695844 0.000000 0.370163
0.695276 0.000000 0.504215
0.694711 0.000000 0.637451
0.694149 0.000000 0.770050
0.693589 0.000000 0.902125
0.693031 0.000000 1.000000
0.691724 0.122440 0.000000
0.691271 0.121987 0.092197
0.690690 0.121406 0.229251
0.690117 0.120833 0.364436
0.689549 0.120265 0.498488
0.688984 0.119700 0.631724
0.688422 0.119138 0.764322
0.687862 0.118578 0.896397
0.687303 0.118020 1.000000
0.685989 0.253824 0.000000
0.685537 0.253372 0.086463
0.684956 0.252790 0.223517
0.684383 0.252217 0.358702
0.683814 0.251649 0.492754
0.683249 0.251084 0.625990
0.682687 0.250522 0.758588
0.682127 0.249962 0.890663
0.681569 0.249404 1.000000
0.680324 0.383632 0.000000
0.679871 0.383180 0.080797
0.679290 0.382599 0.217851
0.678717 0.382026 0.353036
0.678149 0.381457 0.487088
0.677584 0.380893 0.620324
0.677022 0.380330 0.752922
0.676462 0.379770 0.884997
0.675904 0.379212 1.000000
0.674702 0.512435 0.000000
0.674250 0.511983 0.075175
0.673668 0.511401 0.212230
0.673095 0.510828 0.347414
0.672527 0.510260 0.481466
0.671962 0.509695 0.614702
0.671400 0.509133 0.747301
0.670840 0.508573 0.879376
0.670282 0.508015 1.000000
0.669113 0.640497 0.000000
0.668660 0.640044 0.069586
0.668079 0.639463 0.206640
0.667506 0.638890 0.341825
0.666938 0.638322 0.475877
0.666373 0.637757 0.609113
0.665811 0.637195 0.741711
0.665251 0.636635 0.873786
0.664693 0.636077 1.000000
0.663549 0.767972 0.000000
0.663096 0.767520 0.064022
0.662515 0.766939 0.201077
0.661942 0.766366 0.336261
0.661374 0.765798 0.470313
0.660809 0.765233 0.603549
0.660247 0.764670 0.736148
0.659687 0.764110 0.868223
0.659129 0.763552 0.999854
0.658006 0.894963 0.000000
0.657554 0.894511 0.058480
0.656973 0.893930 0.195534
0.656400 0.893357 0.330719
0.655831 0.892788 0.464771
0.655266 0.892223 0.598007
0.654704 0.891661 0.730605
0.654144 0.891101 0.862680
0.653586 0.890543 0.994312
0.653033 1.000000 0.000000
0.652581 1.000000 0.053506
0.652000 1.000000 0.190561
0.651426 1.000000 0.325746
0.650858 1.000000 0.459797
0.650293 1.000000 0.593034
0.649731 1.000000 0.725632
0.649171 1.000000 0.857707
0.648613 1.000000 0.989338
0.828721 0.000000 0.000000
0.828269 0.000000 0.096272
0.827688 0.000000 0.233326
0.827115 0.000000 0.368511
0.826547 0.000000 0.502563
0.825982 0.000000 0.635799
0.825419 0.000000 0.768397
0.824859 0.000000 0.900472
0.824301 0.000000 1.000000
0.822994 0.120787 0.000000
0.822542 0.120335 0.090545
0.821961 0.119754 0.227599
0.821388 0.119181 0.362784
0.820819 0.118612 0.496836
0.820254 0.118048 0.630072
0.819692 0.117485 0.762670
0.819132 0.116925 0.894745
0.818574 0.116367 1.000000
0.817260 0.252172 0.000000
0.816808 0.251719 0.084810
0.816226 0.251138 0.221864
0.815653 0.250565 0.357049
0.815085 0.249997 0.491101
0.814520 0.249432 0.624337
0.813958 0.248870 0.756936
0.813398 0.248310 0.889011
0.812840 0.247751 1.000000
0.811594 0.381980 0.000000
0.811142 0.381528 0.079145
0.810561 0.380947 0.216199
0.809988 0.380373 0.351384
0.809419 0.379805 0.485436
0.808855 0.379240 0.618672
0.808292 0.378678 0.751270
0.807732 0.378118 0.883345
0.807174 0.377560 1.000000
0.805973 0.510782 0.000000
0.805520 0.510330 0.073523
0.804939 0.509749 0.210577
0.804366 0.509176 0.345762
0.803798 0.508608 0.479814
0.803233 0.508043 0.613050
0.802671 0.507480 0.745648
0.802111 0.506921 0.877723
0.801553 0.506362 1.000000
0.800383 0.638844 0.000000
0.799931 0.638392 0.067934
0.799350 0.637811 0.204988
0.798777 0.637238 0.340173
0.798208 0.636669 0.474225
0.797644 0.636105 0.607461
0.797081 0.635542 0.740059
0.796521 0.634982 0.872134
0.795963 0.634424 1.000000
0.794820 0.766320 0.000000
0.794367 0.765868 0.062370
0.793786 0.765287 0.199424
0.793213 0.764713 0.334609
0.792645 0.764145 0.468661
0.792080 0.763580 0.601897
0.791518 0.763018 0.734495
0.790958 0.762458 0.866570
0.790400 0.761900 0.998202
0.789277 0.893311 0.000000
0.788825 0.892858 0.056827
0.788244 0.892277 0.193881
0.787670 0.891704 0.329066
0.787102 0.891136 0.463118
0.786537 0.890571 0.596354
0.785975 0.890009 0.728953
0.785415 0.889449 0.861028
0.784857 0.888891 0.992659
0.784304 1.000000 0.000000
0.783851 1.000000 0.051854
0.783270 1.000000 0.188908
0.782697 1.000000 0.324093
0.782129 1.000000 0.458145
0.781564 1.000000 0.591381
0.781002 1.000000 0.723979
0.780442 1.000000 0.856054
0.779884 1.000000 0.987686
0.959510 0.000000 0.000000
0.959058 0.000000 0.094625
0.958477 0.000000 0.231680
0.957904 0.000000 0.366864
0.957335 0.000000 0.500916
0.956771 0.000000 0.634152
0.956208 0.000000 0.766751
0.955648 0.000000 0.898826
0.955090 0.000000 1.000000
0.953783 0.119141 0.000000
0.953331 0.118689 0.088898
0.952750 0.118108 0.225952
0.952177 0.117534 0.361137
0.951608 0.116966 0.495189
0.951043 0.116401 0.628425
0.950481 0.115839 0.761024
0.949921 0.115279 0.893099
0.949363 0.114721 1.000000
0.948049 0.250525 0.000000
0.947596 0.250073 0.083164
0.947015 0.249492 0.220218
0.946442 0.248919 0.355403
0.945874 0.248350 0.489455
0.945309 0.247785 0.622691
0.944747 0.247223 0.755289
0.944187 0.246663 0.887364
0.943629 0.246105 1.000000
0.942383 0.380334 0.000000
0.941931 0.379881 0.077498
0.941350 0.379300 0.214553
0.940777 0.378727 0.349737
0.940208 0.378159 0.483789
0.939643 0.377594 0.617025
0.939081 0.377032 0.749624
0.938521 0.376472 0.881699
0.937963 0.375914 1.000000
0.936762 0.509136 0.000000
0.936309 0.508684 0.071877
0.935728 0.508103 0.208931
0.935155 0.507530 0.344116
0.934587 0.506961 0.478168
0.934022 0.506396 0.611404
0.933460 0.505834 0.744002
0.932900 0.505274 0.876077
0.932342 0.504716 1.000000
0.931172 0.637198 0.000000
0.930720 0.636746 0.066287
0.930139 0.636164 0.203341
0.929566 0.635591 0.338526
0.928997 0.635023 0.472578
0.928432 0.634458 0.605814
0.927870 0.633896 0.738413
0.927310 0.633336 0.870488
0.926752 0.632778 1.000000
0.925609 0.764674 0.000000
0.925156 0.764221 0.060723
0.924575 0.763640 0.197778
0.924002 0.763067 0.332962
0.923434 0.762499 0.467014
0.922869 0.761934 0.600251
0.922307 0.761372 0.732849
0.921747 0.760812 0.864924
0.921188 0.760254 0.996555
0.920066 0.891664 0.000000
0.919614 0.891212 0.055181
0.919032 0.890631 0.192235
0.918459 0.890058 0.327420
0.917891 0.889490 0.461472
0.917326 0.888925 0.594708
0.916764 0.888362 0.727306
0.916204 0.887803 0.859381
0.915646 0.887244 0.991013
0.915093 1.000000 0.000000
0.914640 1.000000 0.050208
0.914059 1.000000 0.187262
0.913486 1.000000 0.322447
0.912918 1.000000 0.456499
0.912353 1.000000 0.589735
0.911791 1.000000 0.722333
0.911231 1.000000 0.854408
0.910673 1.000000 0.986040
1.000000 0.000000 0.000000
1.000000 0.000000 0.093500
1.000000 0.000000 0.230554
1.000000 0.000000 0.365739
1.000000 0.000000 0.499791
1.000000 0.000000 0.633027
1.000000 0.000000 0.765625
1.000000 0.000000 0.897700
1.000000 0.000000 1.000000
1.000000 0.118016 0.000000
1.000000 0.117563 0.087773
1.000000 0.116982 0.224827
1.000000 0.116409 0.360012
1.000000 0.115841 0.494064
1.000000 0.115276 0.627300
1.000000 0.114714 0.759898
1.000000 0.114154 0.891973
1.000000 0.113596 1.000000
1.000000 0.249400 0.000000
1.000000 0.248947 0.082039
1.000000 0.248366 0.219093
1.000000 0.247793 0.354278
1.000000 0.247225 0.488330
1.000000 0.246660 0.621566
1.000000 0.246098 0.754164
1.000000 0.245538 0.886239
1.000000 0.244980 1.000000
1.000000 0.379208 0.000000
1.000000 0.378756 0.076373
1.000000 0.378175 0.213427
1.000000 0.377602 0.348612
1.000000 0.377033 0.482664
1.000000 0.376469 0.615900
1.000000 0.375906 0.748498
1.000000 0.375346 0.880573
1.000000 0.374788 1.000000
1.000000 0.508011 0.000000
1.000000 0.507558 0.070751
1.000000 0.506977 0.207806
1.000000 0.506404 0.342990
1.000000 0.505836 0.477042
1.000000 0.505271 0.610278
1.000000 0.504709 0.742877
1.000000 0.504149 0.874952
1.000000 0.503591 1.000000
1.000000 0.636073 0.000000
1.000000 0.635620 0.065162
1.000000 0.635039 0.202216
1.000000 0.634466 0.337401
1.000000 0.633898 0.471453
1.000000 0.633333 0.604689
1.000000 0.632771 0.737287
1.000000 0.632211 0.869362
1.000000 0.631653 1.000000
1.000000 0.763548 0.000000
1.000000 0.763096 0.059598
1.000000 0.762515 0.196652
1.000000 0.761942 0.331837
1.000000 0.761373 0.465889
1.000000 0.760809 0.599125
1.000000 0.760246 0.731724
1.000000 0.759686 0.863799
1.000000 0.759128 0.995430
1.000000 0.890539 0.000000
1.000000 0.890087 0.054056
1.000000 0.889506 0.191110
1.000000 0.888933 0.326295
1.000000 0.888364 0.460347
1.000000 0.887799 0.593583
1.000000 0.887237 0.726181
1.000000 0.886677 0.858256
1.000000 0.886119 0.989887
1.000000 1.000000 0.000000
1.000000 1.000000 0.049082
1.000000 1.000000 0.186137
1.000000 1.000000 0.321321
1.000000 1.000000 0.455373
1.000000 1.000000 0.588609
1.000000 1.000000 0.721208
1.000000 1.000000 0.853283
1.000000 1.000000 0.984914
