skills/appstore-creatives-orchestrator/assets/grade/luts/ad_warm_v02.cube
TITLE "ad_warm_v02"
LUT_3D_SIZE 17
DOMAIN_MIN 0.0 0.0 0.0
DOMAIN_MAX 1.0 1.0 1.0
0.012463 0.000000 0.000000
0.012369 0.000000 0.052887
0.012253 0.000000 0.118132
0.012137 0.000000 0.182934
0.012022 0.000000 0.247462
0.011907 0.000000 0.311791
0.011793 0.000000 0.375964
0.011679 0.000000 0.440009
0.011565 0.000000 0.503944
0.011451 0.000000 0.567783
0.011338 0.000000 0.631539
0.011224 0.000000 0.695219
0.011111 0.000000 0.758831
0.010997 0.000000 0.822381
0.010884 0.000000 0.885872
0.010771 0.000000 0.949311
0.010658 0.000000 1.000000
0.011304 0.064533 0.000000
0.011210 0.064439 0.051728
0.011094 0.064322 0.116974
0.010978 0.064207 0.181775
0.010863 0.064092 0.246303
0.010749 0.063977 0.310632
0.010634 0.063863 0.374805
0.010520 0.063749 0.438850
0.010406 0.063635 0.502785
0.010292 0.063521 0.566624
0.010179 0.063407 0.630380
0.010065 0.063294 0.694060
0.009952 0.063181 0.757672
0.009839 0.063067 0.821222
0.009725 0.062954 0.884714
0.009612 0.062841 0.948152
0.009499 0.062728 1.000000
0.010154 0.128635 0.000000
0.010060 0.128540 0.050578
0.009944 0.128424 0.115824
0.009828 0.128309 0.180625
0.009713 0.128194 0.245153
0.009599 0.128079 0.309482
0.009484 0.127964 0.373655
0.009370 0.127850 0.437700
0.009256 0.127736 0.501635
0.009142 0.127623 0.565475
0.009029 0.127509 0.629230
0.008915 0.127396 0.692910
0.008802 0.127282 0.756522
0.008689 0.127169 0.820072
0.008575 0.127056 0.883564
0.008462 0.126943 0.947002
0.008349 0.126830 1.000000
0.009011 0.192347 0.000000
0.008917 0.192253 0.049435
0.008801 0.192136 0.114681
0.008685 0.192021 0.179482
0.008570 0.191906 0.244010
0.008456 0.191791 0.308339
0.008341 0.191677 0.372513
0.008227 0.191563 0.436557
0.008113 0.191449 0.500492
0.007999 0.191335 0.564332
0.007886 0.191221 0.628087
0.007772 0.191108 0.691768
0.007659 0.190995 0.755379
0.007546 0.190881 0.818929
0.007433 0.190768 0.882421
0.007319 0.190655 0.945859
0.007206 0.190542 1.000000
0.007873 0.255809 0.000000
0.007779 0.255714 0.048297
0.007662 0.255598 0.113542
0.007547 0.255483 0.178344
0.007432 0.255368 0.242872
0.007317 0.255253 0.307201
0.007203 0.255138 0.371374
0.007089 0.255024 0.435418
0.006975 0.254910 0.499353
0.006861 0.254797 0.563193
0.006747 0.254683 0.626949
0.006634 0.254570 0.690629
0.006520 0.254456 0.754241
0.006407 0.254343 0.817790
0.006294 0.254230 0.881282
0.006181 0.254117 0.944721
0.006068 0.254004 1.000000
0.006738 0.319084 0.000000
0.006644 0.318990 0.047162
0.006527 0.318874 0.112407
0.006412 0.318758 0.177209
0.006297 0.318643 0.241737
0.006182 0.318529 0.306066
0.006068 0.318414 0.370239
0.005954 0.318300 0.434283
0.005840 0.318186 0.498218
0.005726 0.318072 0.562058
0.005612 0.317959 0.625814
0.005499 0.317845 0.689494
0.005385 0.317732 0.753106
0.005272 0.317619 0.816655
0.005159 0.317505 0.880147
0.005046 0.317392 0.943586
0.004933 0.317279 1.000000
0.005605 0.382213 0.000000
0.005511 0.382118 0.046029
0.005395 0.382002 0.111275
0.005279 0.381886 0.176076
0.005164 0.381771 0.240604
0.005050 0.381657 0.304933
0.004935 0.381542 0.369106
0.004821 0.381428 0.433151
0.004707 0.381314 0.497086
0.004593 0.381200 0.560926
0.004480 0.381087 0.624681
0.004366 0.380973 0.688361
0.004253 0.380860 0.751973
0.004140 0.380747 0.815523
0.004026 0.380634 0.879015
0.003913 0.380521 0.942453
0.003800 0.380408 1.000000
0.004475 0.445218 0.000000
0.004381 0.445124 0.044899
0.004265 0.445008 0.110144
0.004149 0.444892 0.174946
0.004034 0.444777 0.239474
0.003919 0.444662 0.303803
0.003805 0.444548 0.367976
0.003691 0.444434 0.432021
0.003577 0.444320 0.495955
0.003463 0.444206 0.559795
0.003350 0.444093 0.623551
0.003236 0.443979 0.687231
0.003123 0.443866 0.750843
0.003009 0.443752 0.814393
0.002896 0.443639 0.877884
0.002783 0.443526 0.941323
0.002670 0.443413 1.000000
0.003347 0.508119 0.000000
0.003252 0.508025 0.043771
0.003136 0.507909 0.109016
0.003021 0.507793 0.173818
0.002906 0.507678 0.238346
0.002791 0.507563 0.302675
0.002677 0.507449 0.366848
0.002562 0.507335 0.430892
0.002449 0.507221 0.494827
0.002335 0.507107 0.558667
0.002221 0.506994 0.622423
0.002108 0.506880 0.686103
0.001994 0.506767 0.749715
0.001881 0.506653 0.813264
0.001768 0.506540 0.876756
0.001655 0.506427 0.940195
0.001542 0.506314 1.000000
0.002220 0.570929 0.000000
0.002126 0.570835 0.042644
0.002009 0.570718 0.107889
0.001894 0.570603 0.172691
0.001779 0.570488 0.237219
0.001664 0.570373 0.301548
0.001550 0.570259 0.365721
0.001436 0.570145 0.429765
0.001322 0.570031 0.493700
0.001208 0.569917 0.557540
0.001094 0.569803 0.621296
0.000981 0.569690 0.684976
0.000867 0.569576 0.748588
0.000754 0.569463 0.812137
0.000641 0.569350 0.875629
0.000528 0.569237 0.939068
0.000415 0.569124 1.000000
0.001095 0.633658 0.000000
0.001000 0.633563 0.041519
0.000884 0.633447 0.106764
0.000769 0.633332 0.171566
0.000654 0.633217 0.236094
0.000539 0.633102 0.300423
0.000425 0.632988 0.364596
0.000310 0.632873 0.428640
0.000196 0.632759 0.492575
0.000083 0.632646 0.556415
0.000000 0.632532 0.620171
0.000000 0.632419 0.683851
0.000000 0.632305 0.747463
0.000000 0.632192 0.811012
0.000000 0.632079 0.874504
0.000000 0.631966 0.937943
0.000000 0.631853 1.000000
0.000000 0.696314 0.000000
0.000000 0.696219 0.040395
0.000000 0.696103 0.105640
0.000000 0.695988 0.170442
0.000000 0.695873 0.234970
0.000000 0.695758 0.299299
0.000000 0.695643 0.363472
0.000000 0.695529 0.427516
0.000000 0.695415 0.491451
0.000000 0.695302 0.555291
0.000000 0.695188 0.619047
0.000000 0.695075 0.682727
0.000000 0.694961 0.746339
0.000000 0.694848 0.809888
0.000000 0.694735 0.873380
0.000000 0.694622 0.936819
0.000000 0.694509 1.000000
0.000000 0.758904 0.000000
0.000000 0.758809 0.039272
0.000000 0.758693 0.104517
0.000000 0.758577 0.169319
0.000000 0.758462 0.233847
0.000000 0.758348 0.298176
0.000000 0.758233 0.362349
0.000000 0.758119 0.426393
0.000000 0.758005 0.490328
0.000000 0.757892 0.554168
0.000000 0.757778 0.617924
0.000000 0.757664 0.681604
0.000000 0.757551 0.745216
0.000000 0.757438 0.808765
0.000000 0.757325 0.872257
0.000000 0.757212 0.935696
0.000000 0.757099 0.999085
0.000000 0.821433 0.000000
0.000000 0.821339 0.038150
0.000000 0.821222 0.103395
0.000000 0.821107 0.168197
0.000000 0.820992 0.232725
0.000000 0.820877 0.297054
0.000000 0.820763 0.361227
0.000000 0.820649 0.425272
0.000000 0.820535 0.489207
0.000000 0.820421 0.553046
0.000000 0.820307 0.616802
0.000000 0.820194 0.680482
0.000000 0.820080 0.744094
0.000000 0.819967 0.807644
0.000000 0.819854 0.871135
0.000000 0.819741 0.934574
0.000000 0.819628 0.997963
0.000000 0.883907 0.000000
0.000000 0.883812 0.037029
0.000000 0.883696 0.102275
0.000000 0.883581 0.167076
0.000000 0.883465 0.231604
0.000000 0.883351 0.295934
0.000000 0.883236 0.360107
0.000000 0.883122 0.424151
0.000000 0.883008 0.488086
0.000000 0.882895 0.551926
0.000000 0.882781 0.615681
0.000000 0.882667 0.679362
0.000000 0.882554 0.742973
0.000000 0.882441 0.806523
0.000000 0.882328 0.870015
0.000000 0.882215 0.933453
0.000000 0.882102 0.996842
0.000000 0.946329 0.000000
0.000000 0.946234 0.035909
0.000000 0.946118 0.101155
0.000000 0.946002 0.165957
0.000000 0.945887 0.230484
0.000000 0.945773 0.294814
0.000000 0.945658 0.358987
0.000000 0.945544 0.423031
0.000000 0.945430 0.486966
0.000000 0.945317 0.550806
0.000000 0.945203 0.614561
0.000000 0.945089 0.678242
0.000000 0.944976 0.741854
0.000000 0.944863 0.805403
0.000000 0.944750 0.868895
0.000000 0.944637 0.932333
0.000000 0.944524 0.995722
0.000000 1.000000 0.000000
0.000000 1.000000 0.034819
0.000000 1.000000 0.100064
0.000000 1.000000 0.164866
0.000000 1.000000 0.229394
0.000000 1.000000 0.293723
0.000000 1.000000 0.357896
0.000000 1.000000 0.421940
0.000000 1.000000 0.485875
0.000000 1.000000 0.549715
0.000000 1.000000 0.613471
0.000000 1.000000 0.677151
0.000000 1.000000 0.740763
0.000000 1.000000 0.804312
0.000000 1.000000 0.867804
0.000000 1.000000 0.931243
0.000000 1.000000 0.994632
0.078028 0.000000 0.000000
0.077934 0.000000 0.052542
0.077818 0.000000 0.117787
0.077702 0.000000 0.182589
0.077587 0.000000 0.247117
0.077473 0.000000 0.311446
0.077358 0.000000 0.375619
0.077244 0.000000 0.439663
0.077130 0.000000 0.503598
0.077016 0.000000 0.567438
0.076903 0.000000 0.631194
0.076789 0.000000 0.694874
0.076676 0.000000 0.758486
0.076563 0.000000 0.822035
0.076449 0.000000 0.885527
0.076336 0.000000 0.948966
0.076223 0.000000 1.000000
0.076870 0.064188 0.000000
0.076775 0.064093 0.051383
0.076659 0.063977 0.116628
0.076543 0.063862 0.181430
0.076428 0.063747 0.245958
0.076314 0.063632 0.310287
0.076199 0.063518 0.374460
0.076085 0.063403 0.438504
0.075971 0.063290 0.502439
0.075857 0.063176 0.566279
0.075744 0.063062 0.630035
0.075630 0.062949 0.693715
0.075517 0.062835 0.757327
0.075404 0.062722 0.820876
0.075291 0.062609 0.884368
0.075177 0.062496 0.947807
0.075065 0.062383 1.000000
0.075720 0.128289 0.000000
0.075625 0.128195 0.050233
0.075509 0.128079 0.115478
0.075393 0.127963 0.180280
0.075278 0.127848 0.244808
0.075164 0.127734 0.309137
0.075049 0.127619 0.373310
0.074935 0.127505 0.437355
0.074821 0.127391 0.501289
0.074708 0.127277 0.565129
0.074594 0.127164 0.628885
0.074480 0.127050 0.692565
0.074367 0.126937 0.756177
0.074254 0.126824 0.819726
0.074141 0.126710 0.883218
0.074028 0.126597 0.946657
0.073915 0.126484 1.000000
0.074577 0.192002 0.000000
0.074482 0.191907 0.049090
0.074366 0.191791 0.114335
0.074250 0.191676 0.179137
0.074135 0.191561 0.243665
0.074021 0.191446 0.307994
0.073906 0.191332 0.372167
0.073792 0.191218 0.436212
0.073678 0.191104 0.500147
0.073565 0.190990 0.563986
0.073451 0.190876 0.627742
0.073337 0.190763 0.691422
0.073224 0.190649 0.755034
0.073111 0.190536 0.818584
0.072998 0.190423 0.882075
0.072885 0.190310 0.945514
0.072772 0.190197 1.000000
0.073438 0.255463 0.000000
0.073344 0.255369 0.047952
0.073228 0.255253 0.113197
0.073112 0.255137 0.177999
0.072997 0.255022 0.242527
0.072882 0.254908 0.306856
0.072768 0.254793 0.371029
0.072654 0.254679 0.435073
0.072540 0.254565 0.499008
0.072426 0.254451 0.562848
0.072313 0.254338 0.626604
0.072199 0.254224 0.690284
0.072086 0.254111 0.753896
0.071972 0.253998 0.817445
0.071859 0.253884 0.880937
0.071746 0.253771 0.944376
0.071633 0.253658 1.000000
0.072303 0.318739 0.000000
0.072209 0.318645 0.046816
0.072092 0.318528 0.112062
0.071977 0.318413 0.176863
0.071862 0.318298 0.241391
0.071747 0.318183 0.305721
0.071633 0.318069 0.369894
0.071519 0.317955 0.433938
0.071405 0.317841 0.497873
0.071291 0.317727 0.561713
0.071177 0.317613 0.625468
0.071064 0.317500 0.689149
0.070951 0.317387 0.752761
0.070837 0.317273 0.816310
0.070724 0.317160 0.879802
0.070611 0.317047 0.943240
0.070498 0.316934 1.000000
0.071171 0.381867 0.000000
0.071076 0.381773 0.045684
0.070960 0.381657 0.110929
0.070844 0.381541 0.175731
0.070729 0.381426 0.240259
0.070615 0.381311 0.304588
0.070500 0.381197 0.368761
0.070386 0.381083 0.432806
0.070272 0.380969 0.496740
0.070159 0.380855 0.560580
0.070045 0.380742 0.624336
0.069931 0.380628 0.688016
0.069818 0.380515 0.751628
0.069705 0.380401 0.815178
0.069592 0.380288 0.878669
0.069479 0.380175 0.942108
0.069366 0.380062 1.000000
0.070040 0.444873 0.000000
0.069946 0.444779 0.044554
0.069830 0.444662 0.109799
0.069714 0.444547 0.174601
0.069599 0.444432 0.239129
0.069485 0.444317 0.303458
0.069370 0.444203 0.367631
0.069256 0.444089 0.431675
0.069142 0.443975 0.495610
0.069028 0.443861 0.559450
0.068915 0.443747 0.623206
0.068801 0.443634 0.686886
0.068688 0.443520 0.750498
0.068575 0.443407 0.814047
0.068461 0.443294 0.877539
0.068348 0.443181 0.940978
0.068235 0.443068 1.000000
0.068912 0.507774 0.000000
0.068818 0.507680 0.043425
0.068701 0.507563 0.108671
0.068586 0.507448 0.173472
0.068471 0.507333 0.238000
0.068356 0.507218 0.302330
0.068242 0.507104 0.366503
0.068128 0.506990 0.430547
0.068014 0.506876 0.494482
0.067900 0.506762 0.558322
0.067786 0.506648 0.622077
0.067673 0.506535 0.685758
0.067559 0.506421 0.749369
0.067446 0.506308 0.812919
0.067333 0.506195 0.876411
0.067220 0.506082 0.939849
0.067107 0.505969 1.000000
0.067785 0.570584 0.000000
0.067691 0.570489 0.042299
0.067575 0.570373 0.107544
0.067459 0.570258 0.172346
0.067344 0.570143 0.236874
0.067229 0.570028 0.301203
0.067115 0.569914 0.365376
0.067001 0.569799 0.429420
0.066887 0.569685 0.493355
0.066773 0.569572 0.557195
0.066660 0.569458 0.620951
0.066546 0.569345 0.684631
0.066433 0.569231 0.748243
0.066319 0.569118 0.811792
0.066206 0.569005 0.875284
0.066093 0.568892 0.938723
0.065980 0.568779 1.000000
0.066660 0.633312 0.000000
0.066566 0.633218 0.041173
0.066449 0.633102 0.106419
0.066334 0.632986 0.171220
0.066219 0.632871 0.235748
0.066104 0.632757 0.300077
0.065990 0.632642 0.364250
0.065876 0.632528 0.428295
0.065762 0.632414 0.492230
0.065648 0.632300 0.556070
0.065534 0.632187 0.619825
0.065421 0.632073 0.683505
0.065307 0.631960 0.747117
0.065194 0.631847 0.810667
0.065081 0.631733 0.874159
0.064968 0.631620 0.937597
0.064855 0.631507 1.000000
0.065536 0.695968 0.000000
0.065442 0.695874 0.040049
0.065325 0.695758 0.105295
0.065210 0.695642 0.170096
0.065095 0.695527 0.234624
0.064980 0.695413 0.298953
0.064866 0.695298 0.363127
0.064752 0.695184 0.427171
0.064638 0.695070 0.491106
0.064524 0.694956 0.554946
0.064410 0.694843 0.618701
0.064297 0.694729 0.682382
0.064183 0.694616 0.745993
0.064070 0.694503 0.809543
0.063957 0.694389 0.873035
0.063844 0.694276 0.936473
0.063731 0.694163 0.999862
0.064413 0.758558 0.000000
0.064319 0.758464 0.038926
0.064202 0.758348 0.104172
0.064087 0.758232 0.168973
0.063972 0.758117 0.233501
0.063857 0.758002 0.297831
0.063743 0.757888 0.362004
0.063629 0.757774 0.426048
0.063515 0.757660 0.489983
0.063401 0.757546 0.553823
0.063287 0.757433 0.617578
0.063174 0.757319 0.681259
0.063061 0.757206 0.744871
0.062947 0.757092 0.808420
0.062834 0.756979 0.871912
0.062721 0.756866 0.935350
0.062608 0.756753 0.998739
0.063291 0.821088 0.000000
0.063197 0.820993 0.037805
0.063081 0.820877 0.103050
0.062965 0.820762 0.167852
0.062850 0.820647 0.232380
0.062736 0.820532 0.296709
0.062621 0.820418 0.360882
0.062507 0.820303 0.424926
0.062393 0.820189 0.488861
0.062279 0.820076 0.552701
0.062166 0.819962 0.616457
0.062052 0.819849 0.680137
0.061939 0.819735 0.743749
0.061826 0.819622 0.807298
0.061712 0.819509 0.870790
0.061599 0.819396 0.934229
0.061486 0.819283 0.997618
0.062171 0.883561 0.000000
0.062076 0.883467 0.036684
0.061960 0.883351 0.101929
0.061844 0.883235 0.166731
0.061729 0.883120 0.231259
0.061615 0.883006 0.295588
0.061500 0.882891 0.359761
0.061386 0.882777 0.423806
0.061272 0.882663 0.487741
0.061159 0.882549 0.551580
0.061045 0.882436 0.615336
0.060931 0.882322 0.679016
0.060818 0.882209 0.742628
0.060705 0.882096 0.806178
0.060592 0.881982 0.869669
0.060479 0.881869 0.933108
0.060366 0.881756 0.996497
0.061051 0.945983 0.000000
0.060956 0.945889 0.035564
0.060840 0.945773 0.100810
0.060725 0.945657 0.165611
0.060610 0.945542 0.230139
0.060495 0.945428 0.294468
0.060381 0.945313 0.358641
0.060267 0.945199 0.422686
0.060153 0.945085 0.486621
0.060039 0.944971 0.550461
0.059925 0.944858 0.614216
0.059812 0.944744 0.677896
0.059698 0.944631 0.741508
0.059585 0.944518 0.805058
0.059472 0.944404 0.868550
0.059359 0.944291 0.931988
0.059246 0.944178 0.995377
0.059960 1.000000 0.000000
0.059866 1.000000 0.034473
0.059749 1.000000 0.099719
0.059634 1.000000 0.164521
0.059519 1.000000 0.229049
0.059404 1.000000 0.293378
0.059290 1.000000 0.357551
0.059176 1.000000 0.421595
0.059062 1.000000 0.485530
0.058948 1.000000 0.549370
0.058834 1.000000 0.613126
0.058721 1.000000 0.676806
0.058608 1.000000 0.740418
0.058494 1.000000 0.803967
0.058381 1.000000 0.867459
0.058268 1.000000 0.930897
0.058155 1.000000 0.994286
0.142843 0.000000 0.000000
0.142749 0.000000 0.052200
0.142632 0.000000 0.117446
0.142517 0.000000 0.182247
0.142402 0.000000 0.246775
0.142287 0.000000 0.311105
0.142173 0.000000 0.375278
0.142059 0.000000 0.439322
0.141945 0.000000 0.503257
0.141831 0.000000 0.567097
0.141717 0.000000 0.630852
0.141604 0.000000 0.694533
0.141491 0.000000 0.758145
0.141377 0.000000 0.821694
0.141264 0.000000 0.885186
0.141151 0.000000 0.948624
0.141038 0.000000 1.000000
0.141684 0.063846 0.000000
0.141590 0.063752 0.051042
0.141474 0.063636 0.116287
0.141358 0.063520 0.181089
0.141243 0.063405 0.245617
0.141128 0.063291 0.309946
0.141014 0.063176 0.374119
0.140900 0.063062 0.438163
0.140786 0.062948 0.502098
0.140672 0.062834 0.565938
0.140559 0.062721 0.629694
0.140445 0.062607 0.693374
0.140332 0.062494 0.756986
0.140218 0.062381 0.820535
0.140105 0.062268 0.884027
0.139992 0.062154 0.947466
0.139879 0.062042 1.000000
0.140534 0.127948 0.000000
0.140440 0.127854 0.049892
0.140324 0.127737 0.115137
0.140208 0.127622 0.179939
0.140093 0.127507 0.244467
0.139978 0.127392 0.308796
0.139864 0.127278 0.372969
0.139750 0.127164 0.437013
0.139636 0.127050 0.500948
0.139522 0.126936 0.564788
0.139409 0.126822 0.628544
0.139295 0.126709 0.692224
0.139182 0.126596 0.755836
0.139068 0.126482 0.819385
0.138955 0.126369 0.882877
0.138842 0.126256 0.946316
0.138729 0.126143 1.000000
0.139391 0.191661 0.000000
0.139297 0.191566 0.048749
0.139181 0.191450 0.113994
0.139065 0.191334 0.178796
0.138950 0.191219 0.243324
0.138836 0.191105 0.307653
0.138721 0.190990 0.371826
0.138607 0.190876 0.435870
0.138493 0.190762 0.499805
0.138379 0.190648 0.563645
0.138266 0.190535 0.627401
0.138152 0.190421 0.691081
0.138039 0.190308 0.754693
0.137926 0.190195 0.818242
0.137812 0.190082 0.881734
0.137699 0.189969 0.945173
0.137586 0.189856 1.000000
0.138253 0.255122 0.000000
0.138159 0.255028 0.047610
0.138042 0.254911 0.112856
0.137927 0.254796 0.177657
0.137812 0.254681 0.242185
0.137697 0.254566 0.306514
0.137583 0.254452 0.370687
0.137469 0.254338 0.434732
0.137355 0.254224 0.498667
0.137241 0.254110 0.562507
0.137127 0.253996 0.626262
0.137014 0.253883 0.689942
0.136900 0.253770 0.753554
0.136787 0.253656 0.817104
0.136674 0.253543 0.880596
0.136561 0.253430 0.944034
0.136448 0.253317 1.000000
0.137118 0.318398 0.000000
0.137023 0.318303 0.046475
0.136907 0.318187 0.111720
0.136792 0.318072 0.176522
0.136677 0.317957 0.241050
0.136562 0.317842 0.305379
0.136448 0.317728 0.369552
0.136333 0.317613 0.433597
0.136220 0.317500 0.497532
0.136106 0.317386 0.561371
0.135992 0.317272 0.625127
0.135879 0.317159 0.688807
0.135765 0.317045 0.752419
0.135652 0.316932 0.815969
0.135539 0.316819 0.879461
0.135426 0.316706 0.942899
0.135313 0.316593 1.000000
0.135985 0.381526 0.000000
0.135891 0.381432 0.045343
0.135775 0.381315 0.110588
0.135659 0.381200 0.175390
0.135544 0.381085 0.239918
0.135430 0.380970 0.304247
0.135315 0.380856 0.368420
0.135201 0.380742 0.432464
0.135087 0.380628 0.496399
0.134973 0.380514 0.560239
0.134860 0.380400 0.623995
0.134746 0.380287 0.687675
0.134633 0.380173 0.751287
0.134520 0.380060 0.814836
0.134406 0.379947 0.878328
0.134293 0.379834 0.941767
0.134180 0.379721 1.000000
0.134855 0.444532 0.000000
0.134761 0.444437 0.044212
0.134644 0.444321 0.109458
0.134529 0.444205 0.174259
0.134414 0.444090 0.238787
0.134299 0.443976 0.303117
0.134185 0.443861 0.367290
0.134071 0.443747 0.431334
0.133957 0.443633 0.495269
0.133843 0.443520 0.559109
0.133729 0.443406 0.622864
0.133616 0.443292 0.686545
0.133503 0.443179 0.750157
0.133389 0.443066 0.813706
0.133276 0.442953 0.877198
0.133163 0.442840 0.940636
0.133050 0.442727 1.000000
0.133727 0.507433 0.000000
0.133632 0.507338 0.043084
0.133516 0.507222 0.108329
0.133400 0.507106 0.173131
0.133285 0.506991 0.237659
0.133171 0.506877 0.301988
0.133056 0.506762 0.366161
0.132942 0.506648 0.430206
0.132828 0.506534 0.494141
0.132715 0.506421 0.557980
0.132601 0.506307 0.621736
0.132487 0.506193 0.685416
0.132374 0.506080 0.749028
0.132261 0.505967 0.812578
0.132148 0.505854 0.876069
0.132035 0.505741 0.939508
0.131922 0.505628 1.000000
0.132600 0.570242 0.000000
0.132506 0.570148 0.041957
0.132389 0.570032 0.107203
0.132274 0.569916 0.172004
0.132159 0.569801 0.236532
0.132044 0.569687 0.300861
0.131930 0.569572 0.365034
0.131816 0.569458 0.429079
0.131702 0.569344 0.493014
0.131588 0.569230 0.556854
0.131474 0.569117 0.620609
0.131361 0.569003 0.684289
0.131247 0.568890 0.747901
0.131134 0.568777 0.811451
0.131021 0.568663 0.874943
0.130908 0.568550 0.938381
0.130795 0.568437 1.000000
0.131475 0.632971 0.000000
0.131380 0.632877 0.040832
0.131264 0.632760 0.106077
0.131148 0.632645 0.170879
0.131033 0.632530 0.235407
0.130919 0.632415 0.299736
0.130804 0.632301 0.363909
0.130690 0.632187 0.427954
0.130576 0.632073 0.491888
0.130463 0.631959 0.555728
0.130349 0.631845 0.619484
0.130235 0.631732 0.683164
0.130122 0.631619 0.746776
0.130009 0.631505 0.810325
0.129896 0.631392 0.873817
0.129783 0.631279 0.937256
0.129670 0.631166 1.000000
0.130351 0.695627 0.000000
0.130256 0.695533 0.039708
0.130140 0.695416 0.104953
0.130024 0.695301 0.169755
0.129909 0.695186 0.234283
0.129795 0.695071 0.298612
0.129680 0.694957 0.362785
0.129566 0.694843 0.426830
0.129452 0.694729 0.490764
0.129339 0.694615 0.554604
0.129225 0.694501 0.618360
0.129111 0.694388 0.682040
0.128998 0.694275 0.745652
0.128885 0.694161 0.809201
0.128772 0.694048 0.872693
0.128659 0.693935 0.936132
0.128546 0.693822 0.999521
0.129228 0.758217 0.000000
0.129133 0.758123 0.038585
0.129017 0.758006 0.103830
0.128902 0.757891 0.168632
0.128787 0.757776 0.233160
0.128672 0.757661 0.297489
0.128558 0.757547 0.361662
0.128443 0.757433 0.425707
0.128330 0.757319 0.489642
0.128216 0.757205 0.553481
0.128102 0.757091 0.617237
0.127989 0.756978 0.680917
0.127875 0.756864 0.744529
0.127762 0.756751 0.808079
0.127649 0.756638 0.871571
0.127536 0.756525 0.935009
0.127423 0.756412 0.998398
0.128106 0.820746 0.000000
0.128012 0.820652 0.037463
0.127895 0.820536 0.102709
0.127780 0.820420 0.167510
0.127665 0.820305 0.232038
0.127550 0.820191 0.296368
0.127436 0.820076 0.360541
0.127322 0.819962 0.424585
0.127208 0.819848 0.488520
0.127094 0.819734 0.552360
0.126980 0.819621 0.616115
0.126867 0.819507 0.679796
0.126754 0.819394 0.743408
0.126640 0.819281 0.806957
0.126527 0.819167 0.870449
0.126414 0.819054 0.933887
0.126301 0.818941 0.997276
0.126985 0.883220 0.000000
0.126891 0.883126 0.036343
0.126775 0.883009 0.101588
0.126659 0.882894 0.166390
0.126544 0.882779 0.230918
0.126430 0.882664 0.295247
0.126315 0.882550 0.359420
0.126201 0.882436 0.423464
0.126087 0.882322 0.487399
0.125973 0.882208 0.551239
0.125860 0.882094 0.614995
0.125746 0.881981 0.678675
0.125633 0.881868 0.742287
0.125520 0.881754 0.805836
0.125406 0.881641 0.869328
0.125293 0.881528 0.932767
0.125180 0.881415 0.996156
0.125866 0.945642 0.000000
0.125771 0.945548 0.035223
0.125655 0.945431 0.100468
0.125539 0.945316 0.165270
0.125424 0.945201 0.229798
0.125310 0.945086 0.294127
0.125195 0.944972 0.358300
0.125081 0.944858 0.422344
0.124967 0.944744 0.486279
0.124854 0.944630 0.550119
0.124740 0.944516 0.613875
0.124626 0.944403 0.677555
0.124513 0.944289 0.741167
0.124400 0.944176 0.804716
0.124287 0.944063 0.868208
0.124174 0.943950 0.931647
0.124061 0.943837 0.995036
0.124775 1.000000 0.000000
0.124680 1.000000 0.034132
0.124564 1.000000 0.099378
0.124449 1.000000 0.164179
0.124334 1.000000 0.228707
0.124219 1.000000 0.293036
0.124105 1.000000 0.357209
0.123991 1.000000 0.421254
0.123877 1.000000 0.485189
0.123763 1.000000 0.549029
0.123649 1.000000 0.612784
0.123536 1.000000 0.676464
0.123422 1.000000 0.740076
0.123309 1.000000 0.803626
0.123196 1.000000 0.867118
0.123083 1.000000 0.930556
0.122970 1.000000 0.993945
0.207302 0.000000 0.000000
0.207208 0.000000 0.051861
0.207091 0.000000 0.117106
0.206976 0.000000 0.181908
0.206861 0.000000 0.246436
0.206746 0.000000 0.310765
0.206632 0.000000 0.374938
0.206518 0.000000 0.438983
0.206404 0.000000 0.502917
0.206290 0.000000 0.566757
0.206176 0.000000 0.630513
0.206063 0.000000 0.694193
0.205950 0.000000 0.757805
0.205836 0.000000 0.821354
0.205723 0.000000 0.884846
0.205610 0.000000 0.948285
0.205497 0.000000 1.000000
0.206143 0.063507 0.000000
