skills/appstore-creatives-orchestrator/assets/grade/luts/ad_warm_v02.cube
TITLE "ad_warm_v02"
LUT_3D_SIZE 5
DOMAIN_MIN 0.0 0.0 0.0
DOMAIN_MAX 1.0 1.0 1.0
0.012463 0.000000 0.000000
0.012022 0.000000 0.247462
0.011565 0.000000 0.503944
0.011111 0.000000 0.758831
0.010658 0.000000 1.000000
0.007873 0.255809 0.000000
0.007432 0.255368 0.242872
0.006975 0.254910 0.499353
0.006520 0.254456 0.754241
0.006068 0.254004 1.000000
0.003347 0.508119 0.000000
0.002906 0.507678 0.238346
0.002449 0.507221 0.494827
0.001994 0.506767 0.749715
0.001542 0.506314 1.000000
0.000000 0.758904 0.000000
0.000000 0.758462 0.233847
0.000000 0.758005 0.490328
0.000000 0.757551 0.745216
0.000000 0.757099 0.999085
0.000000 1.000000 0.000000
0.000000 1.000000 0.229394
0.000000 1.000000 0.485875
0.000000 1.000000 0.740763
0.000000 1.000000 0.994632
0.271523 0.000000 0.000000
0.271082 0.000000 0.246098
0.270625 0.000000 0.502579
0.270171 0.000000 0.757467
0.269718 0.000000 1.000000
0.266933 0.254444 0.000000
0.266492 0.254003 0.241508
0.266035 0.253546 0.497989
0.265581 0.253092 0.752877
0.265128 0.252639 1.000000
0.262407 0.506755 0.000000
0.261966 0.506314 0.236981
0.261509 0.505857 0.493463
0.261054 0.505402 0.748350
0.260602 0.504950 1.000000
0.257908 0.757539 0.000000
0.257467 0.757098 0.232482
0.257010 0.756641 0.488964
0.256555 0.756187 0.743852
0.256103 0.755734 0.997720
0.253455 1.000000 0.000000
0.253014 1.000000 0.228030
0.252557 1.000000 0.484511
0.252103 1.000000 0.739399
0.251650 1.000000 0.993267
0.526917 0.000000 0.000000
0.526476 0.000000 0.244753
0.526019 0.000000 0.501234
0.525564 0.000000 0.756122
0.525112 0.000000 1.000000
0.522327 0.253099 0.000000
0.521885 0.252658 0.240163
0.521428 0.252201 0.496644
0.520974 0.251747 0.751532
0.520522 0.251294 1.000000
0.517800 0.505410 0.000000
0.517359 0.504969 0.235636
0.516902 0.504512 0.492118
0.516448 0.504057 0.747006
0.515995 0.503605 1.000000
0.513302 0.756194 0.000000
0.512860 0.755753 0.231138
0.512403 0.755296 0.487619
0.511949 0.754842 0.742507
0.511497 0.754389 0.996375
0.508849 1.000000 0.000000
0.508407 1.000000 0.226685
0.507950 1.000000 0.483166
0.507496 1.000000 0.738054
0.507044 1.000000 0.991922
0.780805 0.000000 0.000000
0.780364 0.000000 0.243416
0.779907 0.000000 0.499897
0.779453 0.000000 0.754785
0.779000 0.000000 1.000000
0.776215 0.251762 0.000000
0.775774 0.251321 0.238826
0.775317 0.250864 0.495307
0.774863 0.250410 0.750195
0.774410 0.249957 1.000000
0.771689 0.504073 0.000000
0.771248 0.503632 0.234299
0.770791 0.503175 0.490781
0.770337 0.502720 0.745668
0.769884 0.502268 0.999537
0.767190 0.754857 0.000000
0.766749 0.754416 0.229801
0.766292 0.753959 0.486282
0.765838 0.753505 0.741170
0.765385 0.753052 0.995038
0.762737 1.000000 0.000000
0.762296 1.000000 0.225348
0.761839 1.000000 0.481829
0.761385 1.000000 0.736717
0.760932 1.000000 0.990585
1.000000 0.000000 0.000000
1.000000 0.000000 0.242157
1.000000 0.000000 0.498638
1.000000 0.000000 0.753526
1.000000 0.000000 1.000000
1.000000 0.250503 0.000000
1.000000 0.250062 0.237567
1.000000 0.249605 0.494048
1.000000 0.249151 0.748936
1.000000 0.248698 1.000000
1.000000 0.502814 0.000000
1.000000 0.502373 0.233040
1.000000 0.501916 0.489522
1.000000 0.501461 0.744409
1.000000 0.501009 0.998278
1.000000 0.753598 0.000000
1.000000 0.753157 0.228541
1.000000 0.752700 0.485023
1.000000 0.752246 0.739911
1.000000 0.751793 0.993779
1.000000 1.000000 0.000000
1.000000 1.000000 0.224088
1.000000 1.000000 0.480570
1.000000 1.000000 0.735458
1.000000 1.000000 0.989326
