skills/appstore-creatives-orchestrator/assets/grade/luts/ad_warm_v02.cube
TITLE "ad_warm_v02"
LUT_3D_SIZE 9
DOMAIN_MIN 0.0 0.0 0.0
DOMAIN_MAX 1.0 1.0 1.0
0.012463 0.000000 0.000000
0.012253 0.000000 0.118132
0.012022 0.000000 0.247462
0.011793 0.000000 0.375964
0.011565 0.000000 0.503944
0.011338 0.000000 0.631539
0.011111 0.000000 0.758831
0.010884 0.000000 0.885872
0.010658 0.000000 1.000000
0.010154 0.128635 0.000000
0.009944 0.128424 0.115824
0.009713 0.128194 0.245153
0.009484 0.127964 0.373655
0.009256 0.127736 0.501635
0.009029 0.127509 0.629230
0.008802 0.127282 0.756522
0.008575 0.127056 0.883564
0.008349 0.126830 1.000000
0.007873 0.255809 0.000000
0.007662 0.255598 0.113542
0.007432 0.255368 0.242872
0.007203 0.255138 0.371374
0.006975 0.254910 0.499353
0.006747 0.254683 0.626949
0.006520 0.254456 0.754241
0.006294 0.254230 0.881282
0.006068 0.254004 1.000000
0.005605 0.382213 0.000000
0.005395 0.382002 0.111275
0.005164 0.381771 0.240604
0.004935 0.381542 0.369106
0.004707 0.381314 0.497086
0.004480 0.381087 0.624681
0.004253 0.380860 0.751973
0.004026 0.380634 0.879015
0.003800 0.380408 1.000000
0.003347 0.508119 0.000000
0.003136 0.507909 0.109016
0.002906 0.507678 0.238346
0.002677 0.507449 0.366848
0.002449 0.507221 0.494827
0.002221 0.506994 0.622423
0.001994 0.506767 0.749715
0.001768 0.506540 0.876756
0.001542 0.506314 1.000000
0.001095 0.633658 0.000000
0.000884 0.633447 0.106764
0.000654 0.633217 0.236094
0.000425 0.632988 0.364596
0.000196 0.632759 0.492575
0.000000 0.632532 0.620171
0.000000 0.632305 0.747463
0.000000 0.632079 0.874504
0.000000 0.631853 1.000000
0.000000 0.758904 0.000000
0.000000 0.758693 0.104517
0.000000 0.758462 0.233847
0.000000 0.758233 0.362349
0.000000 0.758005 0.490328
0.000000 0.757778 0.617924
0.000000 0.757551 0.745216
0.000000 0.757325 0.872257
0.000000 0.757099 0.999085
0.000000 0.883907 0.000000
0.000000 0.883696 0.102275
0.000000 0.883465 0.231604
0.000000 0.883236 0.360107
0.000000 0.883008 0.488086
0.000000 0.882781 0.615681
0.000000 0.882554 0.742973
0.000000 0.882328 0.870015
0.000000 0.882102 0.996842
0.000000 1.000000 0.000000
0.000000 1.000000 0.100064
0.000000 1.000000 0.229394
0.000000 1.000000 0.357896
0.000000 1.000000 0.485875
0.000000 1.000000 0.613471
0.000000 1.000000 0.740763
0.000000 1.000000 0.867804
0.000000 1.000000 0.994632
0.142843 0.000000 0.000000
0.142632 0.000000 0.117446
0.142402 0.000000 0.246775
0.142173 0.000000 0.375278
0.141945 0.000000 0.503257
0.141717 0.000000 0.630852
0.141491 0.000000 0.758145
0.141264 0.000000 0.885186
0.141038 0.000000 1.000000
0.140534 0.127948 0.000000
0.140324 0.127737 0.115137
0.140093 0.127507 0.244467
0.139864 0.127278 0.372969
0.139636 0.127050 0.500948
0.139409 0.126822 0.628544
0.139182 0.126596 0.755836
0.138955 0.126369 0.882877
0.138729 0.126143 1.000000
0.138253 0.255122 0.000000
0.138042 0.254911 0.112856
0.137812 0.254681 0.242185
0.137583 0.254452 0.370687
0.137355 0.254224 0.498667
0.137127 0.253996 0.626262
0.136900 0.253770 0.753554
0.136674 0.253543 0.880596
0.136448 0.253317 1.000000
0.135985 0.381526 0.000000
0.135775 0.381315 0.110588
0.135544 0.381085 0.239918
0.135315 0.380856 0.368420
0.135087 0.380628 0.496399
0.134860 0.380400 0.623995
0.134633 0.380173 0.751287
0.134406 0.379947 0.878328
0.134180 0.379721 1.000000
0.133727 0.507433 0.000000
0.133516 0.507222 0.108329
0.133285 0.506991 0.237659
0.133056 0.506762 0.366161
0.132828 0.506534 0.494141
0.132601 0.506307 0.621736
0.132374 0.506080 0.749028
0.132148 0.505854 0.876069
0.131922 0.505628 1.000000
0.131475 0.632971 0.000000
0.131264 0.632760 0.106077
0.131033 0.632530 0.235407
0.130804 0.632301 0.363909
0.130576 0.632073 0.491888
0.130349 0.631845 0.619484
0.130122 0.631619 0.746776
0.129896 0.631392 0.873817
0.129670 0.631166 1.000000
0.129228 0.758217 0.000000
0.129017 0.758006 0.103830
0.128787 0.757776 0.233160
0.128558 0.757547 0.361662
0.128330 0.757319 0.489642
0.128102 0.757091 0.617237
0.127875 0.756864 0.744529
0.127649 0.756638 0.871571
0.127423 0.756412 0.998398
0.126985 0.883220 0.000000
0.126775 0.883009 0.101588
0.126544 0.882779 0.230918
0.126315 0.882550 0.359420
0.126087 0.882322 0.487399
0.125860 0.882094 0.614995
0.125633 0.881868 0.742287
0.125406 0.881641 0.869328
0.125180 0.881415 0.996156
0.124775 1.000000 0.000000
0.124564 1.000000 0.099378
0.124334 1.000000 0.228707
0.124105 1.000000 0.357209
0.123877 1.000000 0.485189
0.123649 1.000000 0.612784
0.123422 1.000000 0.740076
0.123196 1.000000 0.867118
0.122970 1.000000 0.993945
0.271523 0.000000 0.000000
0.271313 0.000000 0.116768
0.271082 0.000000 0.246098
0.270853 0.000000 0.374600
0.270625 0.000000 0.502579
0.270398 0.000000 0.630175
0.270171 0.000000 0.757467
0.269944 0.000000 0.884508
0.269718 0.000000 1.000000
0.269214 0.127270 0.000000
0.269004 0.127060 0.114459
0.268773 0.126829 0.243789
0.268544 0.126600 0.372291
0.268316 0.126372 0.500270
0.268089 0.126145 0.627866
0.267862 0.125918 0.755158
0.267636 0.125691 0.882199
0.267409 0.125465 1.000000
0.266933 0.254444 0.000000
0.266722 0.254234 0.112178
0.266492 0.254003 0.241508
0.266263 0.253774 0.370010
0.266035 0.253546 0.497989
0.265807 0.253319 0.625585
0.265581 0.253092 0.752877
0.265354 0.252865 0.879918
0.265128 0.252639 1.000000
0.264665 0.380848 0.000000
0.264455 0.380638 0.109910
0.264224 0.380407 0.239240
0.263995 0.380178 0.367742
0.263767 0.379950 0.495722
0.263540 0.379723 0.623317
0.263313 0.379496 0.750609
0.263087 0.379269 0.877650
0.262861 0.379043 1.000000
0.262407 0.506755 0.000000
0.262196 0.506544 0.107652
0.261966 0.506314 0.236981
0.261737 0.506085 0.365484
0.261509 0.505857 0.493463
0.261281 0.505629 0.621058
0.261054 0.505402 0.748350
0.260828 0.505176 0.875392
0.260602 0.504950 1.000000
0.260155 0.632293 0.000000
0.259944 0.632083 0.105400
0.259714 0.631852 0.234729
0.259485 0.631623 0.363232
0.259257 0.631395 0.491211
0.259029 0.631168 0.618806
0.258802 0.630941 0.746098
0.258576 0.630714 0.873140
0.258350 0.630488 0.999967
0.257908 0.757539 0.000000
0.257697 0.757329 0.103153
0.257467 0.757098 0.232482
0.257238 0.756869 0.360985
0.257010 0.756641 0.488964
0.256782 0.756414 0.616559
0.256555 0.756187 0.743852
0.256329 0.755960 0.870893
0.256103 0.755734 0.997720
0.255666 0.882542 0.000000
0.255455 0.882332 0.100910
0.255224 0.882101 0.230240
0.254995 0.881872 0.358742
0.254767 0.881644 0.486722
0.254540 0.881417 0.614317
0.254313 0.881190 0.741609
0.254087 0.880963 0.868650
0.253861 0.880737 0.995478
0.253455 1.000000 0.000000
0.253244 1.000000 0.098700
0.253014 1.000000 0.228030
0.252785 1.000000 0.356532
0.252557 1.000000 0.484511
0.252329 1.000000 0.612107
0.252103 1.000000 0.739399
0.251876 1.000000 0.866440
0.251650 1.000000 0.993267
0.399463 0.000000 0.000000
0.399253 0.000000 0.116094
0.399022 0.000000 0.245424
0.398793 0.000000 0.373926
0.398565 0.000000 0.501905
0.398338 0.000000 0.629501
0.398111 0.000000 0.756793
0.397885 0.000000 0.883834
0.397658 0.000000 1.000000
0.397155 0.126597 0.000000
0.396944 0.126386 0.113786
0.396714 0.126155 0.243115
0.396485 0.125926 0.371617
0.396256 0.125698 0.499597
0.396029 0.125471 0.627192
0.395802 0.125244 0.754484
0.395576 0.125018 0.881526
0.395350 0.124792 1.000000
0.394873 0.253771 0.000000
0.394663 0.253560 0.111504
0.394432 0.253330 0.240834
0.394203 0.253100 0.369336
0.393975 0.252872 0.497315
0.393748 0.252645 0.624911
0.393521 0.252418 0.752203
0.393294 0.252192 0.879244
0.393068 0.251966 1.000000
0.392606 0.380175 0.000000
0.392395 0.379964 0.109237
0.392165 0.379733 0.238566
0.391936 0.379504 0.367068
0.391707 0.379276 0.495048
0.391480 0.379049 0.622643
0.391253 0.378822 0.749935
0.391027 0.378596 0.876977
0.390801 0.378370 1.000000
0.390347 0.506081 0.000000
0.390136 0.505871 0.106978
0.389906 0.505640 0.236308
0.389677 0.505411 0.364810
0.389449 0.505183 0.492789
0.389221 0.504956 0.620385
0.388995 0.504729 0.747677
0.388768 0.504502 0.874718
0.388542 0.504276 1.000000
0.388095 0.631620 0.000000
0.387884 0.631409 0.104726
0.387654 0.631179 0.234056
0.387425 0.630950 0.362558
0.387197 0.630721 0.490537
0.386969 0.630494 0.618133
0.386742 0.630267 0.745425
0.386516 0.630041 0.872466
0.386290 0.629815 0.999293
0.385848 0.756866 0.000000
0.385638 0.756655 0.102479
0.385407 0.756424 0.231809
0.385178 0.756195 0.360311
0.384950 0.755967 0.488290
0.384723 0.755740 0.615886
0.384496 0.755513 0.743178
0.384269 0.755287 0.870219
0.384043 0.755061 0.997047
0.383606 0.881869 0.000000
0.383395 0.881658 0.100237
0.383165 0.881427 0.229566
0.382936 0.881198 0.358069
0.382707 0.880970 0.486048
0.382480 0.880743 0.613643
0.382253 0.880516 0.740935
0.382027 0.880290 0.867977
0.381801 0.880064 0.994804
0.381395 1.000000 0.000000
0.381185 1.000000 0.098026
0.380954 1.000000 0.227356
0.380725 1.000000 0.355858
0.380497 1.000000 0.483837
0.380270 1.000000 0.611433
0.380043 1.000000 0.738725
0.379816 1.000000 0.865766
0.379590 1.000000 0.992594
0.526917 0.000000 0.000000
0.526706 0.000000 0.115423
0.526476 0.000000 0.244753
0.526247 0.000000 0.373255
0.526019 0.000000 0.501234
0.525791 0.000000 0.628830
0.525564 0.000000 0.756122
0.525338 0.000000 0.883163
0.525112 0.000000 1.000000
0.524608 0.125925 0.000000
0.524397 0.125715 0.113114
0.524167 0.125484 0.242444
0.523938 0.125255 0.370946
0.523710 0.125027 0.498926
0.523482 0.124800 0.626521
0.523256 0.124573 0.753813
0.523029 0.124347 0.880854
0.522803 0.124120 1.000000
0.522327 0.253099 0.000000
0.522116 0.252889 0.110833
0.521885 0.252658 0.240163
0.521656 0.252429 0.368665
0.521428 0.252201 0.496644
0.521201 0.251974 0.624240
0.520974 0.251747 0.751532
0.520748 0.251521 0.878573
0.520522 0.251294 1.000000
0.520059 0.379503 0.000000
0.519848 0.379293 0.108565
0.519618 0.379062 0.237895
0.519389 0.378833 0.366397
0.519161 0.378605 0.494377
0.518933 0.378378 0.621972
0.518707 0.378151 0.749264
0.518480 0.377924 0.876305
0.518254 0.377698 1.000000
0.517800 0.505410 0.000000
0.517590 0.505199 0.106307
0.517359 0.504969 0.235636
0.517130 0.504740 0.364139
0.516902 0.504512 0.492118
0.516675 0.504284 0.619713
0.516448 0.504057 0.747006
0.516221 0.503831 0.874047
0.515995 0.503605 1.000000
0.515548 0.630948 0.000000
0.515338 0.630738 0.104055
0.515107 0.630507 0.233384
0.514878 0.630278 0.361887
0.514650 0.630050 0.489866
0.514423 0.629823 0.617461
0.514196 0.629596 0.744753
0.513969 0.629370 0.871795
0.513743 0.629144 0.998622
0.513302 0.756194 0.000000
0.513091 0.755984 0.101808
0.512860 0.755753 0.231138
0.512631 0.755524 0.359640
0.512403 0.755296 0.487619
0.512176 0.755069 0.615215
0.511949 0.754842 0.742507
0.511723 0.754615 0.869548
0.511497 0.754389 0.996375
0.511059 0.881197 0.000000
0.510848 0.880987 0.099565
0.510618 0.880756 0.228895
0.510389 0.880527 0.357397
0.510161 0.880299 0.485377
0.509933 0.880072 0.612972
0.509707 0.879845 0.740264
0.509480 0.879618 0.867305
0.509254 0.879392 0.994133
0.508849 1.000000 0.000000
0.508638 1.000000 0.097355
0.508407 1.000000 0.226685
0.508178 1.000000 0.355187
0.507950 1.000000 0.483166
0.507723 1.000000 0.610762
0.507496 1.000000 0.738054
0.507270 1.000000 0.865095
0.507044 1.000000 0.991922
0.654006 0.000000 0.000000
0.653796 0.000000 0.114754
0.653565 0.000000 0.244084
0.653336 0.000000 0.372586
0.653108 0.000000 0.500565
0.652881 0.000000 0.628161
0.652654 0.000000 0.755453
0.652427 0.000000 0.882494
0.652201 0.000000 1.000000
0.651698 0.125256 0.000000
0.651487 0.125046 0.112445
0.651256 0.124815 0.241775
0.651027 0.124586 0.370277
0.650799 0.124358 0.498256
0.650572 0.124131 0.625852
0.650345 0.123904 0.753144
0.650119 0.123677 0.880185
0.649893 0.123451 1.000000
0.649416 0.252430 0.000000
0.649206 0.252220 0.110164
0.648975 0.251989 0.239493
0.648746 0.251760 0.367996
0.648518 0.251532 0.495975
0.648291 0.251305 0.623570
0.648064 0.251078 0.750862
0.647837 0.250851 0.877904
0.647611 0.250625 1.000000
0.647149 0.378834 0.000000
0.646938 0.378623 0.107896
0.646707 0.378393 0.237226
0.646478 0.378164 0.365728
0.646250 0.377936 0.493707
0.646023 0.377708 0.621303
0.645796 0.377482 0.748595
0.645570 0.377255 0.875636
0.645344 0.377029 1.000000
0.644890 0.504741 0.000000
0.644679 0.504530 0.105637
0.644449 0.504300 0.234967
0.644220 0.504071 0.363469
0.643992 0.503842 0.491449
0.643764 0.503615 0.619044
0.643537 0.503388 0.746336
0.643311 0.503162 0.873378
0.643085 0.502936 1.000000
0.642638 0.630279 0.000000
0.642427 0.630069 0.103385
0.642197 0.629838 0.232715
0.641968 0.629609 0.361217
0.641740 0.629381 0.489197
0.641512 0.629154 0.616792
0.641285 0.628927 0.744084
0.641059 0.628700 0.871125
0.640833 0.628474 0.997953
0.640391 0.755525 0.000000
0.640180 0.755314 0.101139
0.639950 0.755084 0.230468
0.639721 0.754855 0.358970
0.639493 0.754627 0.486950
0.639265 0.754399 0.614545
0.639039 0.754173 0.741837
0.638812 0.753946 0.868879
0.638586 0.753720 0.995706
0.638149 0.880528 0.000000
0.637938 0.880318 0.098896
0.637708 0.880087 0.228226
0.637479 0.879858 0.356728
0.637250 0.879630 0.484707
0.637023 0.879402 0.612303
0.636796 0.879176 0.739595
0.636570 0.878949 0.866636
0.636344 0.878723 0.993464
0.635938 1.000000 0.000000
0.635728 1.000000 0.096686
0.635497 1.000000 0.226015
0.635268 1.000000 0.354518
0.635040 1.000000 0.482497
0.634813 1.000000 0.610092
0.634586 1.000000 0.737384
0.634359 1.000000 0.864426
0.634133 1.000000 0.991253
0.780805 0.000000 0.000000
0.780595 0.000000 0.114086
0.780364 0.000000 0.243416
0.780135 0.000000 0.371918
0.779907 0.000000 0.499897
0.779680 0.000000 0.627493
0.779453 0.000000 0.754785
0.779227 0.000000 0.881826
0.779000 0.000000 1.000000
0.778497 0.124588 0.000000
0.778286 0.124378 0.111777
0.778056 0.124147 0.241107
0.777827 0.123918 0.369609
0.777598 0.123690 0.497588
0.777371 0.123463 0.625184
0.777144 0.123236 0.752476
0.776918 0.123009 0.879517
0.776692 0.122783 1.000000
0.776215 0.251762 0.000000
0.776005 0.251552 0.109496
0.775774 0.251321 0.238826
0.775545 0.251092 0.367328
0.775317 0.250864 0.495307
0.775090 0.250637 0.622903
0.774863 0.250410 0.750195
0.774636 0.250183 0.877236
0.774410 0.249957 1.000000
0.773948 0.378166 0.000000
0.773737 0.377956 0.107228
0.773507 0.377725 0.236558
0.773278 0.377496 0.365060
0.773049 0.377268 0.493040
0.772822 0.377041 0.620635
0.772595 0.376814 0.747927
0.772369 0.376587 0.874968
0.772143 0.376361 1.000000
0.771689 0.504073 0.000000
0.771478 0.503862 0.104970
0.771248 0.503632 0.234299
0.771019 0.503403 0.362802
0.770791 0.503175 0.490781
0.770563 0.502947 0.618376
0.770337 0.502720 0.745668
0.770110 0.502494 0.872710
0.769884 0.502268 0.999537
0.769437 0.629611 0.000000
0.769226 0.629401 0.102718
0.768996 0.629170 0.232047
0.768767 0.628941 0.360550
0.768539 0.628713 0.488529
0.768311 0.628486 0.616124
0.768084 0.628259 0.743416
0.767858 0.628033 0.870458
0.767632 0.627806 0.997285
0.767190 0.754857 0.000000
0.766980 0.754647 0.100471
0.766749 0.754416 0.229801
0.766520 0.754187 0.358303
0.766292 0.753959 0.486282
0.766065 0.753732 0.613878
0.765838 0.753505 0.741170
0.765611 0.753278 0.868211
0.765385 0.753052 0.995038
0.764948 0.879860 0.000000
0.764737 0.879650 0.098228
0.764507 0.879419 0.227558
0.764278 0.879190 0.356060
0.764049 0.878962 0.484040
0.763822 0.878735 0.611635
0.763595 0.878508 0.738927
0.763369 0.878281 0.865968
0.763143 0.878055 0.992796
0.762737 1.000000 0.000000
0.762527 1.000000 0.096018
0.762296 1.000000 0.225348
0.762067 1.000000 0.353850
0.761839 1.000000 0.481829
0.761612 1.000000 0.609425
0.761385 1.000000 0.736717
0.761158 1.000000 0.863758
0.760932 1.000000 0.990585
0.907363 0.000000 0.000000
0.907152 0.000000 0.113420
0.906922 0.000000 0.242749
0.906692 0.000000 0.371252
0.906464 0.000000 0.499231
0.906237 0.000000 0.626826
0.906010 0.000000 0.754118
0.905784 0.000000 0.881160
0.905558 0.000000 1.000000
0.905054 0.123922 0.000000
0.904843 0.123711 0.111111
0.904613 0.123481 0.240441
0.904384 0.123252 0.368943
0.904156 0.123024 0.496922
0.903928 0.122796 0.624518
0.903701 0.122569 0.751810
0.903475 0.122343 0.878851
0.903249 0.122117 1.000000
0.902772 0.251096 0.000000
0.902562 0.250885 0.108829
0.902331 0.250655 0.238159
0.902102 0.250426 0.366661
0.901874 0.250198 0.494641
0.901647 0.249970 0.622236
0.901420 0.249743 0.749528
0.901194 0.249517 0.876570
0.900968 0.249291 1.000000
0.900505 0.377500 0.000000
0.900294 0.377289 0.106562
0.900064 0.377059 0.235892
0.899835 0.376830 0.364394
0.899607 0.376602 0.492373
0.899379 0.376374 0.619969
0.899152 0.376147 0.747261
0.898926 0.375921 0.874302
0.898700 0.375695 1.000000
0.898246 0.503407 0.000000
0.898036 0.503196 0.104303
0.897805 0.502965 0.233633
0.897576 0.502736 0.362135
0.897348 0.502508 0.490114
0.897121 0.502281 0.617710
0.896894 0.502054 0.745002
0.896667 0.501828 0.872043
0.896441 0.501602 0.998871
0.895994 0.628945 0.000000
0.895784 0.628734 0.102051
0.895553 0.628504 0.231381
0.895324 0.628275 0.359883
0.895096 0.628047 0.487862
0.894869 0.627819 0.615458
0.894642 0.627592 0.742750
0.894415 0.627366 0.869791
0.894189 0.627140 0.996619
0.893747 0.754191 0.000000
0.893537 0.753980 0.099804
0.893306 0.753750 0.229134
0.893077 0.753521 0.357636
0.892849 0.753293 0.485616
0.892622 0.753065 0.613211
0.892395 0.752838 0.740503
0.892168 0.752612 0.867544
0.891942 0.752386 0.994372
0.891505 0.879194 0.000000
0.891294 0.878983 0.097562
0.891064 0.878753 0.226892
0.890835 0.878524 0.355394
0.890607 0.878296 0.483373
0.890379 0.878068 0.610969
0.890152 0.877841 0.738261
0.889926 0.877615 0.865302
0.889700 0.877389 0.992129
0.889294 1.000000 0.000000
0.889084 1.000000 0.095351
0.888853 1.000000 0.224681
0.888624 1.000000 0.353183
0.888396 1.000000 0.481163
0.888169 1.000000 0.608758
0.887942 1.000000 0.736050
0.887716 1.000000 0.863091
0.887489 1.000000 0.989919
1.000000 0.000000 0.000000
1.000000 0.000000 0.112827
1.000000 0.000000 0.242157
1.000000 0.000000 0.370659
1.000000 0.000000 0.498638
1.000000 0.000000 0.626234
1.000000 0.000000 0.753526
1.000000 0.000000 0.880567
1.000000 0.000000 1.000000
1.000000 0.123329 0.000000
1.000000 0.123119 0.110518
1.000000 0.122888 0.239848
1.000000 0.122659 0.368350
1.000000 0.122431 0.496329
1.000000 0.122204 0.623925
1.000000 0.121977 0.751217
1.000000 0.121750 0.878258
1.000000 0.121524 1.000000
1.000000 0.250503 0.000000
1.000000 0.250293 0.108237
1.000000 0.250062 0.237567
1.000000 0.249833 0.366069
1.000000 0.249605 0.494048
1.000000 0.249378 0.621644
1.000000 0.249151 0.748936
1.000000 0.248924 0.875977
1.000000 0.248698 1.000000
1.000000 0.376907 0.000000
1.000000 0.376697 0.105969
1.000000 0.376466 0.235299
1.000000 0.376237 0.363801
1.000000 0.376009 0.491780
1.000000 0.375782 0.619376
1.000000 0.375555 0.746668
1.000000 0.375328 0.873709
1.000000 0.375102 1.000000
1.000000 0.502814 0.000000
1.000000 0.502603 0.103711
1.000000 0.502373 0.233040
1.000000 0.502144 0.361543
1.000000 0.501916 0.489522
1.000000 0.501688 0.617117
1.000000 0.501461 0.744409
1.000000 0.501235 0.871451
1.000000 0.501009 0.998278
1.000000 0.628352 0.000000
1.000000 0.628142 0.101459
1.000000 0.627911 0.230788
1.000000 0.627682 0.359290
1.000000 0.627454 0.487270
1.000000 0.627227 0.614865
1.000000 0.627000 0.742157
1.000000 0.626773 0.869199
1.000000 0.626547 0.996026
1.000000 0.753598 0.000000
1.000000 0.753388 0.099212
1.000000 0.753157 0.228541
1.000000 0.752928 0.357044
1.000000 0.752700 0.485023
1.000000 0.752473 0.612618
1.000000 0.752246 0.739911
1.000000 0.752019 0.866952
1.000000 0.751793 0.993779
1.000000 0.878601 0.000000
1.000000 0.878391 0.096969
1.000000 0.878160 0.226299
1.000000 0.877931 0.354801
1.000000 0.877703 0.482780
1.000000 0.877476 0.610376
1.000000 0.877249 0.737668
1.000000 0.877022 0.864709
1.000000 0.876796 0.991537
1.000000 1.000000 0.000000
1.000000 1.000000 0.094759
1.000000 1.000000 0.224088
1.000000 1.000000 0.352591
1.000000 1.000000 0.480570
1.000000 1.000000 0.608165
1.000000 1.000000 0.735458
1.000000 1.000000 0.862499
1.000000 1.000000 0.989326
