skills/appstore-creatives-orchestrator/assets/grade/luts/ad_warm_v09.cube
TITLE "ad_warm_v09"
LUT_3D_SIZE 17
DOMAIN_MIN 0.0 0.0 0.0
DOMAIN_MAX 1.0 1.0 1.0
0.026447 0.000000 0.000000
0.026292 0.000000 0.036386
0.025995 0.000000 0.106371
0.025703 0.000000 0.175216
0.025414 0.000000 0.243425
0.025127 0.000000 0.311189
0.024841 0.000000 0.378610
0.024556 0.000000 0.445753
0.024272 0.000000 0.512662
0.023990 0.000000 0.579369
0.023708 0.000000 0.645898
0.023426 0.000000 0.712268
0.023145 0.000000 0.778496
0.022865 0.000000 0.844593
0.022585 0.000000 0.910571
0.022306 0.000000 0.976438
0.022027 0.000000 1.000000
0.023634 0.064120 0.000000
0.023479 0.063965 0.033572
0.023182 0.063668 0.103558
0.022890 0.063376 0.172403
0.022601 0.063087 0.240612
0.022313 0.062800 0.308375
0.022028 0.062514 0.375797
0.021743 0.062229 0.442940
0.021459 0.061945 0.509849
0.021176 0.061663 0.576556
0.020894 0.061381 0.643085
0.020613 0.061099 0.709455
0.020332 0.060818 0.775683
0.020052 0.060538 0.841780
0.019772 0.060258 0.907758
0.019493 0.059979 0.973625
0.019214 0.059700 1.000000
0.020720 0.130886 0.000000
0.020565 0.130731 0.030658
0.020268 0.130434 0.100644
0.019976 0.130142 0.169489
0.019687 0.129853 0.237698
0.019399 0.129566 0.305461
0.019114 0.129280 0.372883
0.018829 0.128995 0.440026
0.018545 0.128711 0.506935
0.018262 0.128429 0.573641
0.017980 0.128147 0.640171
0.017699 0.127865 0.706541
0.017418 0.127584 0.772769
0.017138 0.127304 0.838866
0.016858 0.127024 0.904844
0.016579 0.126745 0.970711
0.016300 0.126466 1.000000
0.017842 0.196837 0.000000
0.017686 0.196681 0.027780
0.017389 0.196385 0.097765
0.017097 0.196093 0.166611
0.016808 0.195804 0.234819
0.016521 0.195516 0.302583
0.016235 0.195230 0.370004
0.015950 0.194946 0.437147
0.015667 0.194662 0.504056
0.015384 0.194379 0.570763
0.015102 0.194097 0.637292
0.014821 0.193816 0.703663
0.014540 0.193535 0.769891
0.014260 0.193255 0.835988
0.013980 0.192975 0.901966
0.013701 0.192696 0.967833
0.013422 0.192417 1.000000
0.014986 0.262271 0.000000
0.014830 0.262115 0.024924
0.014533 0.261818 0.094909
0.014242 0.261526 0.163755
0.013952 0.261237 0.231963
0.013665 0.260950 0.299727
0.013379 0.260664 0.367148
0.013095 0.260379 0.434291
0.012811 0.260096 0.501200
0.012528 0.259813 0.567907
0.012246 0.259531 0.634436
0.011965 0.259249 0.700807
0.011684 0.258969 0.767035
0.011404 0.258688 0.833132
0.011124 0.258409 0.899110
0.010845 0.258129 0.964977
0.010566 0.257850 1.000000
0.012147 0.327325 0.000000
0.011991 0.327169 0.022085
0.011694 0.326872 0.092070
0.011402 0.326580 0.160915
0.011113 0.326291 0.229124
0.010826 0.326004 0.296888
0.010540 0.325718 0.364309
0.010255 0.325433 0.431452
0.009972 0.325150 0.498361
0.009689 0.324867 0.565068
0.009407 0.324585 0.631597
0.009125 0.324303 0.697968
0.008845 0.324023 0.764195
0.008564 0.323742 0.830293
0.008285 0.323463 0.896270
0.008005 0.323183 0.962137
0.007726 0.322905 1.000000
0.009320 0.392079 0.000000
0.009165 0.391923 0.019258
0.008868 0.391627 0.089244
0.008576 0.391335 0.158089
0.008287 0.391046 0.226298
0.008000 0.390758 0.294062
0.007714 0.390472 0.361483
0.007429 0.390188 0.428626
0.007145 0.389904 0.495535
0.006863 0.389621 0.562242
0.006580 0.389339 0.628771
0.006299 0.389058 0.695141
0.006018 0.388777 0.761369
0.005738 0.388497 0.827466
0.005458 0.388217 0.893444
0.005179 0.387938 0.959311
0.004900 0.387659 1.000000
0.006505 0.456586 0.000000
0.006349 0.456430 0.016443
0.006052 0.456133 0.086428
0.005761 0.455841 0.155274
0.005471 0.455552 0.223482
0.005184 0.455265 0.291246
0.004898 0.454979 0.358667
0.004614 0.454694 0.425810
0.004330 0.454411 0.492719
0.004047 0.454128 0.559426
0.003765 0.453846 0.625955
0.003484 0.453565 0.692326
0.003203 0.453284 0.758554
0.002923 0.453003 0.824651
0.002643 0.452724 0.890629
0.002364 0.452445 0.956496
0.002085 0.452166 1.000000
0.003699 0.520882 0.000000
0.003543 0.520726 0.013637
0.003246 0.520429 0.083622
0.002954 0.520137 0.152467
0.002665 0.519848 0.220676
0.002378 0.519561 0.288440
0.002092 0.519275 0.355861
0.001807 0.518990 0.423004
0.001524 0.518707 0.489913
0.001241 0.518424 0.556620
0.000959 0.518142 0.623149
0.000677 0.517860 0.689520
0.000397 0.517580 0.755747
0.000116 0.517299 0.821845
0.000000 0.517020 0.887822
0.000000 0.516740 0.953690
0.000000 0.516461 1.000000
0.000900 0.584994 0.000000
0.000745 0.584838 0.010839
0.000448 0.584541 0.080824
0.000156 0.584249 0.149669
0.000000 0.583960 0.217878
0.000000 0.583673 0.285642
0.000000 0.583387 0.353063
0.000000 0.583102 0.420206
0.000000 0.582819 0.487115
0.000000 0.582536 0.553822
0.000000 0.582254 0.620351
0.000000 0.581972 0.686722
0.000000 0.581692 0.752949
0.000000 0.581411 0.819046
0.000000 0.581132 0.885024
0.000000 0.580852 0.950891
0.000000 0.580574 1.000000
0.000000 0.648943 0.000000
0.000000 0.648788 0.008047
0.000000 0.648491 0.078033
0.000000 0.648199 0.146878
0.000000 0.647910 0.215087
0.000000 0.647623 0.282850
0.000000 0.647337 0.350272
0.000000 0.647052 0.417415
0.000000 0.646768 0.484324
0.000000 0.646486 0.551031
0.000000 0.646204 0.617560
0.000000 0.645922 0.683930
0.000000 0.645641 0.750158
0.000000 0.645361 0.816255
0.000000 0.645081 0.882233
0.000000 0.644802 0.948100
0.000000 0.644523 1.000000
0.000000 0.712747 0.000000
0.000000 0.712592 0.005263
0.000000 0.712295 0.075248
0.000000 0.712003 0.144093
0.000000 0.711714 0.212302
0.000000 0.711426 0.280066
0.000000 0.711141 0.347487
0.000000 0.710856 0.414630
0.000000 0.710572 0.481539
0.000000 0.710289 0.548246
0.000000 0.710007 0.614775
0.000000 0.709726 0.681146
0.000000 0.709445 0.747373
0.000000 0.709165 0.813471
0.000000 0.708885 0.879448
0.000000 0.708606 0.945315
0.000000 0.708327 1.000000
0.000000 0.776419 0.000000
0.000000 0.776263 0.002484
0.000000 0.775967 0.072469
0.000000 0.775675 0.141314
0.000000 0.775386 0.209523
0.000000 0.775098 0.277287
0.000000 0.774812 0.344708
0.000000 0.774528 0.411851
0.000000 0.774244 0.478760
0.000000 0.773961 0.545467
0.000000 0.773679 0.611996
0.000000 0.773398 0.678367
0.000000 0.773117 0.744594
0.000000 0.772837 0.810692
0.000000 0.772557 0.876669
0.000000 0.772278 0.942536
0.000000 0.771999 1.000000
0.000000 0.839970 0.000000
0.000000 0.839814 0.000000
0.000000 0.839518 0.069695
0.000000 0.839226 0.138541
0.000000 0.838937 0.206749
0.000000 0.838649 0.274513
0.000000 0.838363 0.341934
0.000000 0.838079 0.409077
0.000000 0.837795 0.475986
0.000000 0.837512 0.542693
0.000000 0.837230 0.609222
0.000000 0.836949 0.675593
0.000000 0.836668 0.741821
0.000000 0.836388 0.807918
0.000000 0.836108 0.873896
0.000000 0.835829 0.939763
0.000000 0.835550 1.000000
0.000000 0.903410 0.000000
0.000000 0.903254 0.000000
0.000000 0.902957 0.066926
0.000000 0.902666 0.135772
0.000000 0.902376 0.203981
0.000000 0.902089 0.271744
0.000000 0.901803 0.339165
0.000000 0.901519 0.406308
0.000000 0.901235 0.473217
0.000000 0.900952 0.539924
0.000000 0.900670 0.606453
0.000000 0.900389 0.672824
0.000000 0.900108 0.739052
0.000000 0.899828 0.805149
0.000000 0.899548 0.871127
0.000000 0.899269 0.936994
0.000000 0.898990 1.000000
0.000000 0.966747 0.000000
0.000000 0.966591 0.000000
0.000000 0.966294 0.064162
0.000000 0.966002 0.133007
0.000000 0.965713 0.201216
0.000000 0.965426 0.268980
0.000000 0.965140 0.336401
0.000000 0.964855 0.403544
0.000000 0.964572 0.470453
0.000000 0.964289 0.537160
0.000000 0.964007 0.603689
0.000000 0.963725 0.670060
0.000000 0.963445 0.736287
0.000000 0.963164 0.802385
0.000000 0.962885 0.868362
0.000000 0.962605 0.934229
0.000000 0.962327 0.999994
0.000000 1.000000 0.000000
0.000000 1.000000 0.000000
0.000000 1.000000 0.061953
0.000000 1.000000 0.130799
0.000000 1.000000 0.199007
0.000000 1.000000 0.266771
0.000000 1.000000 0.334192
0.000000 1.000000 0.401335
0.000000 1.000000 0.468244
0.000000 1.000000 0.534951
0.000000 1.000000 0.601480
0.000000 1.000000 0.667851
0.000000 1.000000 0.734078
0.000000 1.000000 0.800176
0.000000 1.000000 0.866153
0.000000 1.000000 0.932021
0.000000 1.000000 0.997785
0.096122 0.000000 0.000000
0.095966 0.000000 0.035508
0.095670 0.000000 0.105494
0.095378 0.000000 0.174339
0.095089 0.000000 0.242548
0.094801 0.000000 0.310312
0.094516 0.000000 0.377733
0.094231 0.000000 0.444876
0.093947 0.000000 0.511785
0.093664 0.000000 0.578492
0.093382 0.000000 0.645021
0.093101 0.000000 0.711391
0.092820 0.000000 0.777619
0.092540 0.000000 0.843716
0.092260 0.000000 0.909694
0.091981 0.000000 0.975561
0.091702 0.000000 1.000000
0.093309 0.063243 0.000000
0.093153 0.063088 0.032695
0.092857 0.062791 0.102681
0.092565 0.062499 0.171526
0.092276 0.062210 0.239735
0.091988 0.061923 0.307498
0.091702 0.061637 0.374920
0.091418 0.061352 0.442063
0.091134 0.061068 0.508972
0.090851 0.060786 0.575678
0.090569 0.060503 0.642208
0.090288 0.060222 0.708578
0.090007 0.059941 0.774806
0.089727 0.059661 0.840903
0.089447 0.059381 0.906881
0.089168 0.059102 0.972748
0.088889 0.058823 1.000000
0.090395 0.130009 0.000000
0.090239 0.129854 0.029781
0.089943 0.129557 0.099766
0.089651 0.129265 0.168612
0.089362 0.128976 0.236821
0.089074 0.128689 0.304584
0.088788 0.128403 0.372006
0.088504 0.128118 0.439149
0.088220 0.127834 0.506058
0.087937 0.127552 0.572764
0.087655 0.127270 0.639294
0.087374 0.126988 0.705664
0.087093 0.126707 0.771892
0.086813 0.126427 0.837989
0.086533 0.126147 0.903967
0.086254 0.125868 0.969834
0.085975 0.125589 1.000000
0.087517 0.195960 0.000000
0.087361 0.195804 0.026903
0.087064 0.195508 0.096888
0.086772 0.195216 0.165734
0.086483 0.194926 0.233942
0.086196 0.194639 0.301706
0.085910 0.194353 0.369127
0.085625 0.194069 0.436270
0.085342 0.193785 0.503179
0.085059 0.193502 0.569886
0.084777 0.193220 0.636415
0.084495 0.192939 0.702786
0.084215 0.192658 0.769013
0.083934 0.192378 0.835111
0.083655 0.192098 0.901088
0.083375 0.191819 0.966956
0.083096 0.191540 1.000000
0.084661 0.261393 0.000000
0.084505 0.261238 0.024047
0.084208 0.260941 0.094032
0.083916 0.260649 0.162878
0.083627 0.260360 0.231086
0.083340 0.260073 0.298850
0.083054 0.259787 0.366271
0.082769 0.259502 0.433414
0.082486 0.259219 0.500323
0.082203 0.258936 0.567030
0.081921 0.258654 0.633559
0.081639 0.258372 0.699930
0.081359 0.258091 0.766158
0.081078 0.257811 0.832255
0.080799 0.257532 0.898233
0.080519 0.257252 0.964100
0.080241 0.256973 1.000000
0.081821 0.326448 0.000000
0.081666 0.326292 0.021208
0.081369 0.325995 0.091193
0.081077 0.325703 0.160038
0.080788 0.325414 0.228247
0.080501 0.325127 0.296011
0.080215 0.324841 0.363432
0.079930 0.324556 0.430575
0.079646 0.324273 0.497484
0.079364 0.323990 0.564191
0.079081 0.323708 0.630720
0.078800 0.323426 0.697091
0.078519 0.323146 0.763318
0.078239 0.322865 0.829416
0.077959 0.322586 0.895393
0.077680 0.322306 0.961260
0.077401 0.322028 1.000000
0.078995 0.391202 0.000000
0.078839 0.391046 0.018381
0.078543 0.390750 0.088367
0.078251 0.390458 0.157212
0.077962 0.390168 0.225421
0.077674 0.389881 0.293184
0.077388 0.389595 0.360606
0.077104 0.389311 0.427749
0.076820 0.389027 0.494658
0.076537 0.388744 0.561364
0.076255 0.388462 0.627894
0.075974 0.388181 0.694264
0.075693 0.387900 0.760492
0.075413 0.387620 0.826589
0.075133 0.387340 0.892567
0.074854 0.387061 0.958434
0.074575 0.386782 1.000000
0.076180 0.455709 0.000000
0.076024 0.455553 0.015566
0.075727 0.455256 0.085551
0.075435 0.454964 0.154397
0.075146 0.454675 0.222605
0.074859 0.454388 0.290369
0.074573 0.454102 0.357790
0.074288 0.453817 0.424933
0.074005 0.453534 0.491842
0.073722 0.453251 0.558549
0.073440 0.452969 0.625078
0.073158 0.452687 0.691449
0.072878 0.452407 0.757677
0.072597 0.452126 0.823774
0.072318 0.451847 0.889752
0.072038 0.451567 0.955619
0.071760 0.451289 1.000000
0.073373 0.520004 0.000000
0.073218 0.519849 0.012760
0.072921 0.519552 0.082745
0.072629 0.519260 0.151590
0.072340 0.518971 0.219799
0.072053 0.518684 0.287563
0.071767 0.518398 0.354984
0.071482 0.518113 0.422127
0.071198 0.517830 0.489036
0.070916 0.517547 0.555743
0.070634 0.517265 0.622272
0.070352 0.516983 0.688643
0.070071 0.516702 0.754870
0.069791 0.516422 0.820968
0.069511 0.516142 0.886945
0.069232 0.515863 0.952812
0.068953 0.515584 1.000000
0.070575 0.584117 0.000000
0.070419 0.583961 0.009961
0.070123 0.583664 0.079947
0.069831 0.583372 0.148792
0.069542 0.583083 0.217001
0.069254 0.582796 0.284765
0.068969 0.582510 0.352186
0.068684 0.582225 0.419329
0.068400 0.581942 0.486238
0.068117 0.581659 0.552945
0.067835 0.581377 0.619474
0.067554 0.581095 0.685844
0.067273 0.580815 0.752072
0.066993 0.580534 0.818169
0.066713 0.580255 0.884147
0.066434 0.579975 0.950014
0.066155 0.579697 1.000000
0.067784 0.648066 0.000000
0.067628 0.647911 0.007170
0.067332 0.647614 0.077156
0.067040 0.647322 0.146001
0.066751 0.647033 0.214210
0.066463 0.646746 0.281973
0.066177 0.646460 0.349395
0.065893 0.646175 0.416538
0.065609 0.645891 0.483447
0.065326 0.645609 0.550153
0.065044 0.645326 0.616683
0.064763 0.645045 0.683053
0.064482 0.644764 0.749281
0.064202 0.644484 0.815378
0.063922 0.644204 0.881356
0.063643 0.643925 0.947223
0.063364 0.643646 1.000000
0.064999 0.711870 0.000000
0.064844 0.711715 0.004386
0.064547 0.711418 0.074371
0.064255 0.711126 0.143216
0.063966 0.710837 0.211425
0.063679 0.710549 0.279189
0.063393 0.710264 0.346610
0.063108 0.709979 0.413753
0.062824 0.709695 0.480662
0.062541 0.709412 0.547369
0.062259 0.709130 0.613898
0.061978 0.708849 0.680269
0.061697 0.708568 0.746496
0.061417 0.708288 0.812594
0.061137 0.708008 0.878571
0.060858 0.707729 0.944438
0.060579 0.707450 1.000000
0.062220 0.775542 0.000000
0.062065 0.775386 0.001607
0.061768 0.775090 0.071592
0.061476 0.774798 0.140437
0.061187 0.774509 0.208646
0.060900 0.774221 0.276410
0.060614 0.773935 0.343831
0.060329 0.773651 0.410974
0.060045 0.773367 0.477883
0.059762 0.773084 0.544590
0.059480 0.772802 0.611119
0.059199 0.772521 0.677490
0.058918 0.772240 0.743717
0.058638 0.771960 0.809815
0.058358 0.771680 0.875792
0.058079 0.771401 0.941659
0.057800 0.771122 1.000000
0.059447 0.839093 0.000000
0.059291 0.838937 0.000000
0.058994 0.838641 0.068818
0.058702 0.838349 0.137664
0.058413 0.838060 0.205872
0.058126 0.837772 0.273636
0.057840 0.837486 0.341057
0.057555 0.837202 0.408200
0.057272 0.836918 0.475109
0.056989 0.836635 0.541816
0.056707 0.836353 0.608345
0.056425 0.836072 0.674716
0.056145 0.835791 0.740943
0.055864 0.835511 0.807041
0.055585 0.835231 0.873018
0.055305 0.834952 0.938886
0.055026 0.834673 1.000000
0.056678 0.902533 0.000000
0.056522 0.902377 0.000000
0.056225 0.902080 0.066049
0.055933 0.901789 0.134895
0.055644 0.901499 0.203103
0.055357 0.901212 0.270867
0.055071 0.900926 0.338288
0.054786 0.900642 0.405431
0.054503 0.900358 0.472340
0.054220 0.900075 0.539047
0.053938 0.899793 0.605576
0.053656 0.899512 0.671947
0.053376 0.899231 0.738175
0.053095 0.898951 0.804272
0.052816 0.898671 0.870250
0.052536 0.898392 0.936117
0.052258 0.898113 1.000000
0.053913 0.965870 0.000000
0.053758 0.965714 0.000000
0.053461 0.965417 0.063285
0.053169 0.965125 0.132130
0.052880 0.964836 0.200339
0.052593 0.964549 0.268103
0.052307 0.964263 0.335524
0.052022 0.963978 0.402667
0.051738 0.963695 0.469576
0.051456 0.963412 0.536283
0.051173 0.963130 0.602812
0.050892 0.962848 0.669183
0.050611 0.962568 0.735410
0.050331 0.962287 0.801508
0.050051 0.962008 0.867485
0.049772 0.961728 0.933352
0.049493 0.961450 0.999117
0.051704 1.000000 0.000000
0.051549 1.000000 0.000000
0.051252 1.000000 0.061076
0.050960 1.000000 0.129921
0.050671 1.000000 0.198130
0.050384 1.000000 0.265894
0.050098 1.000000 0.333315
0.049813 1.000000 0.400458
0.049530 1.000000 0.467367
0.049247 1.000000 0.534074
0.048965 1.000000 0.600603
0.048683 1.000000 0.666974
0.048402 1.000000 0.733201
0.048122 1.000000 0.799299
0.047842 1.000000 0.865276
0.047563 1.000000 0.931144
0.047284 1.000000 0.996908
0.164516 0.000000 0.000000
0.164360 0.000000 0.034648
0.164063 0.000000 0.104633
0.163771 0.000000 0.173478
0.163482 0.000000 0.241687
0.163195 0.000000 0.309451
0.162909 0.000000 0.376872
0.162624 0.000000 0.444015
0.162341 0.000000 0.510924
0.162058 0.000000 0.577631
0.161776 0.000000 0.644160
0.161494 0.000000 0.710530
0.161214 0.000000 0.776758
0.160933 0.000000 0.842855
0.160654 0.000000 0.908833
0.160374 0.000000 0.974700
0.160096 0.000000 1.000000
0.161702 0.062382 0.000000
0.161547 0.062227 0.031834
0.161250 0.061930 0.101820
0.160958 0.061638 0.170665
0.160669 0.061349 0.238874
0.160382 0.061062 0.306637
0.160096 0.060776 0.374059
0.159811 0.060491 0.441202
0.159528 0.060207 0.508111
0.159245 0.059925 0.574818
0.158963 0.059643 0.641347
0.158681 0.059361 0.707717
0.158400 0.059080 0.773945
0.158120 0.058800 0.840042
0.157841 0.058520 0.906020
0.157561 0.058241 0.971887
0.157282 0.057962 1.000000
0.158788 0.129148 0.000000
0.158633 0.128993 0.028920
0.158336 0.128696 0.098906
0.158044 0.128404 0.167751
0.157755 0.128115 0.235960
0.157468 0.127828 0.303723
0.157182 0.127542 0.371145
0.156897 0.127257 0.438288
0.156613 0.126973 0.505197
0.156331 0.126691 0.571903
0.156049 0.126409 0.638433
0.155767 0.126127 0.704803
0.155486 0.125846 0.771031
0.155206 0.125566 0.837128
0.154926 0.125286 0.903106
0.154647 0.125007 0.968973
0.154368 0.124728 1.000000
0.155910 0.195099 0.000000
0.155754 0.194943 0.026042
0.155458 0.194647 0.096027
0.155166 0.194355 0.164873
0.154877 0.194066 0.233081
0.154589 0.193778 0.300845
0.154303 0.193492 0.368266
0.154019 0.193208 0.435409
0.153735 0.192924 0.502318
0.153452 0.192641 0.569025
0.153170 0.192359 0.635554
0.152889 0.192078 0.701925
0.152608 0.191797 0.768153
0.152328 0.191517 0.834250
0.152048 0.191237 0.900228
0.151769 0.190958 0.966095
0.151490 0.190679 1.000000
0.153054 0.260533 0.000000
0.152898 0.260377 0.023186
0.152602 0.260080 0.093171
0.152310 0.259788 0.162017
0.152021 0.259499 0.230225
0.151733 0.259212 0.297989
0.151447 0.258926 0.365410
0.151163 0.258641 0.432553
0.150879 0.258358 0.499462
0.150596 0.258075 0.566169
0.150314 0.257793 0.632698
0.150033 0.257511 0.699069
0.149752 0.257231 0.765297
0.149472 0.256950 0.831394
0.149192 0.256671 0.897372
0.148913 0.256391 0.963239
0.148634 0.256112 1.000000
0.150215 0.325587 0.000000
0.150059 0.325431 0.020347
0.149762 0.325134 0.090332
0.149470 0.324842 0.159177
0.149181 0.324553 0.227386
0.148894 0.324266 0.295150
0.148608 0.323980 0.362571
0.148323 0.323695 0.429714
0.148040 0.323412 0.496623
0.147757 0.323129 0.563330
0.147475 0.322847 0.629859
0.147194 0.322565 0.696230
0.146913 0.322285 0.762457
0.146632 0.322004 0.828555
0.146353 0.321725 0.894532
0.146074 0.321445 0.960399
0.145795 0.321167 1.000000
0.147388 0.390341 0.000000
0.147233 0.390185 0.017520
0.146936 0.389889 0.087506
0.146644 0.389597 0.156351
0.146355 0.389308 0.224560
0.146068 0.389020 0.292323
0.145782 0.388734 0.359745
0.145497 0.388450 0.426888
0.145214 0.388166 0.493797
0.144931 0.387883 0.560504
0.144649 0.387601 0.627033
0.144367 0.387320 0.693403
0.144086 0.387039 0.759631
0.143806 0.386759 0.825728
0.143527 0.386479 0.891706
0.143247 0.386200 0.957573
0.142968 0.385921 1.000000
0.144573 0.454848 0.000000
0.144417 0.454692 0.014705
0.144121 0.454395 0.084690
0.143829 0.454103 0.153536
0.143540 0.453814 0.221744
0.143252 0.453527 0.289508
0.142966 0.453241 0.356929
0.142682 0.452956 0.424072
0.142398 0.452673 0.490981
0.142115 0.452390 0.557688
0.141833 0.452108 0.624217
0.141552 0.451826 0.690588
0.141271 0.451546 0.756816
0.140991 0.451265 0.822913
0.140711 0.450986 0.888891
0.140432 0.450706 0.954758
0.140153 0.450428 1.000000
0.141767 0.519144 0.000000
0.141611 0.518988 0.011899
0.141314 0.518691 0.081884
0.141023 0.518399 0.150729
0.140733 0.518110 0.218938
0.140446 0.517823 0.286702
0.140160 0.517537 0.354123
0.139876 0.517252 0.421266
0.139592 0.516969 0.488175
0.139309 0.516686 0.554882
0.139027 0.516404 0.621411
0.138746 0.516122 0.687782
0.138465 0.515842 0.754009
0.138185 0.515561 0.820107
0.137905 0.515282 0.886084
0.137626 0.515002 0.951952
0.137347 0.514723 1.000000
0.138969 0.583256 0.000000
0.138813 0.583100 0.009101
0.138516 0.582803 0.079086
0.138224 0.582511 0.147931
0.137935 0.582222 0.216140
0.137648 0.581935 0.283904
0.137362 0.581649 0.351325
0.137077 0.581364 0.418468
0.136794 0.581081 0.485377
0.136511 0.580798 0.552084
0.136229 0.580516 0.618613
0.135947 0.580234 0.684984
0.135667 0.579954 0.751211
0.135386 0.579673 0.817308
0.135107 0.579394 0.883286
0.134827 0.579114 0.949153
0.134549 0.578836 1.000000
0.136177 0.647205 0.000000
0.136022 0.647050 0.006309
0.135725 0.646753 0.076295
0.135433 0.646461 0.145140
0.135144 0.646172 0.213349
0.134857 0.645885 0.281112
0.134571 0.645599 0.348534
0.134286 0.645314 0.415677
0.134003 0.645030 0.482586
0.133720 0.644748 0.549292
0.133438 0.644466 0.615822
0.133156 0.644184 0.682192
0.132875 0.643903 0.748420
0.132595 0.643623 0.814517
0.132316 0.643343 0.880495
0.132036 0.643064 0.946362
0.131757 0.642785 1.000000
0.133393 0.711009 0.000000
0.133237 0.710854 0.003525
0.132940 0.710557 0.073510
0.132648 0.710265 0.142355
0.132359 0.709976 0.210564
0.132072 0.709688 0.278328
0.131786 0.709403 0.345749
0.131501 0.709118 0.412892
0.131218 0.708834 0.479801
0.130935 0.708551 0.546508
0.130653 0.708269 0.613037
0.130371 0.707988 0.679408
0.130091 0.707707 0.745635
0.129810 0.707427 0.811733
0.129531 0.707147 0.877710
0.129251 0.706868 0.943577
0.128973 0.706589 1.000000
0.130614 0.774681 0.000000
0.130458 0.774525 0.000746
0.130161 0.774229 0.070731
0.129869 0.773937 0.139576
0.129580 0.773648 0.207785
0.129293 0.773360 0.275549
0.129007 0.773074 0.342970
0.128722 0.772790 0.410113
0.128439 0.772506 0.477022
0.128156 0.772223 0.543729
0.127874 0.771941 0.610258
0.127592 0.771660 0.676629
0.127312 0.771379 0.742856
0.127031 0.771099 0.808954
0.126752 0.770819 0.874931
0.126472 0.770540 0.940798
0.126194 0.770261 1.000000
0.127840 0.838232 0.000000
0.127684 0.838076 0.000000
0.127388 0.837780 0.067957
0.127096 0.837488 0.136803
0.126807 0.837199 0.205011
0.126519 0.836911 0.272775
0.126233 0.836625 0.340196
0.125949 0.836341 0.407339
0.125665 0.836057 0.474248
0.125382 0.835774 0.540955
0.125100 0.835492 0.607484
0.124819 0.835211 0.673855
0.124538 0.834930 0.740083
0.124258 0.834650 0.806180
0.123978 0.834370 0.872158
0.123699 0.834091 0.938025
0.123420 0.833812 1.000000
0.125071 0.901672 0.000000
0.124915 0.901516 0.000000
0.124619 0.901219 0.065188
0.124327 0.900928 0.134034
0.124038 0.900638 0.202243
0.123750 0.900351 0.270006
0.123464 0.900065 0.337427
0.123180 0.899781 0.404570
0.122896 0.899497 0.471479
0.122613 0.899214 0.538186
0.122331 0.898932 0.604715
0.122050 0.898651 0.671086
0.121769 0.898370 0.737314
0.121489 0.898090 0.803411
0.121209 0.897810 0.869389
0.120930 0.897531 0.935256
0.120651 0.897252 1.000000
0.122307 0.965009 0.000000
0.122151 0.964853 0.000000
0.121854 0.964556 0.062424
0.121562 0.964264 0.131269
0.121273 0.963975 0.199478
0.120986 0.963688 0.267242
0.120700 0.963402 0.334663
0.120415 0.963117 0.401806
0.120132 0.962834 0.468715
0.119849 0.962551 0.535422
0.119567 0.962269 0.601951
0.119285 0.961987 0.668322
0.119005 0.961707 0.734549
0.118724 0.961426 0.800647
0.118445 0.961147 0.866624
0.118165 0.960867 0.932491
0.117887 0.960589 0.998256
0.120098 1.000000 0.000000
0.119942 1.000000 0.000000
0.119646 1.000000 0.060215
0.119354 1.000000 0.129061
0.119064 1.000000 0.197269
0.118777 1.000000 0.265033
0.118491 1.000000 0.332454
0.118207 1.000000 0.399597
0.117923 1.000000 0.466506
0.117640 1.000000 0.533213
0.117358 1.000000 0.599742
0.117077 1.000000 0.666113
0.116796 1.000000 0.732340
0.116516 1.000000 0.798438
0.116236 1.000000 0.864415
0.115957 1.000000 0.930283
0.115678 1.000000 0.996047
0.232236 0.000000 0.000000
0.232081 0.000000 0.033795
0.231784 0.000000 0.103780
0.231492 0.000000 0.172626
0.231203 0.000000 0.240835
0.230916 0.000000 0.308598
0.230630 0.000000 0.376019
0.230345 0.000000 0.443162
0.230061 0.000000 0.510071
0.229779 0.000000 0.576778
0.229497 0.000000 0.643307
0.229215 0.000000 0.709678
0.228934 0.000000 0.775906
0.228654 0.000000 0.842003
0.228374 0.000000 0.907981
0.228095 0.000000 0.973848
0.227816 0.000000 1.000000
0.229423 0.061530 0.000000
