skills/appstore-creatives-orchestrator/assets/grade/luts/ad_warm_v09.cube
TITLE "ad_warm_v09"
LUT_3D_SIZE 5
DOMAIN_MIN 0.0 0.0 0.0
DOMAIN_MAX 1.0 1.0 1.0
0.026447 0.000000 0.000000
0.025414 0.000000 0.243425
0.024272 0.000000 0.512662
0.023145 0.000000 0.778496
0.022027 0.000000 1.000000
0.014986 0.262271 0.000000
0.013952 0.261237 0.231963
0.012811 0.260096 0.501200
0.011684 0.258969 0.767035
0.010566 0.257850 1.000000
0.003699 0.520882 0.000000
0.002665 0.519848 0.220676
0.001524 0.518707 0.489913
0.000397 0.517580 0.755747
0.000000 0.516461 1.000000
0.000000 0.776419 0.000000
0.000000 0.775386 0.209523
0.000000 0.774244 0.478760
0.000000 0.773117 0.744594
0.000000 0.771999 1.000000
0.000000 1.000000 0.000000
0.000000 1.000000 0.199007
0.000000 1.000000 0.468244
0.000000 1.000000 0.734078
0.000000 1.000000 0.997785
0.299496 0.000000 0.000000
0.298463 0.000000 0.239988
0.297321 0.000000 0.509225
0.296194 0.000000 0.775059
0.295076 0.000000 1.000000
0.288035 0.258833 0.000000
0.287001 0.257800 0.228526
0.285860 0.256658 0.497763
0.284733 0.255531 0.763597
0.283615 0.254413 1.000000
0.276747 0.517444 0.000000
0.275714 0.516411 0.217239
0.274572 0.515269 0.486476
0.273445 0.514142 0.752310
0.272327 0.513024 1.000000
0.265594 0.772982 0.000000
0.264561 0.771948 0.206086
0.263419 0.770807 0.475323
0.262292 0.769680 0.741157
0.261174 0.768562 1.000000
0.255078 1.000000 0.000000
0.254045 1.000000 0.195570
0.252903 1.000000 0.464807
0.251776 1.000000 0.730641
0.250658 1.000000 0.994348
0.565602 0.000000 0.000000
0.564568 0.000000 0.236638
0.563427 0.000000 0.505875
0.562300 0.000000 0.771709
0.561182 0.000000 1.000000
0.554140 0.255484 0.000000
0.553107 0.254450 0.225177
0.551965 0.253309 0.494413
0.550838 0.252182 0.760248
0.549720 0.251064 1.000000
0.542853 0.514095 0.000000
0.541820 0.513061 0.213889
0.540678 0.511920 0.483126
0.539551 0.510793 0.748960
0.538433 0.509675 1.000000
0.531700 0.769632 0.000000
0.530666 0.768599 0.202736
0.529525 0.767457 0.471973
0.528398 0.766330 0.737807
0.527280 0.765212 1.000000
0.521184 1.000000 0.000000
0.520151 1.000000 0.192220
0.519009 1.000000 0.461457
0.517882 1.000000 0.727292
0.516764 1.000000 0.990998
0.828721 0.000000 0.000000
0.827688 0.000000 0.233326
0.826547 0.000000 0.502563
0.825419 0.000000 0.768397
0.824301 0.000000 1.000000
0.817260 0.252172 0.000000
0.816226 0.251138 0.221864
0.815085 0.249997 0.491101
0.813958 0.248870 0.756936
0.812840 0.247751 1.000000
0.805973 0.510782 0.000000
0.804939 0.509749 0.210577
0.803798 0.508608 0.479814
0.802671 0.507480 0.745648
0.801553 0.506362 1.000000
0.794820 0.766320 0.000000
0.793786 0.765287 0.199424
0.792645 0.764145 0.468661
0.791518 0.763018 0.734495
0.790400 0.761900 0.998202
0.784304 1.000000 0.000000
0.783270 1.000000 0.188908
0.782129 1.000000 0.458145
0.781002 1.000000 0.723979
0.779884 1.000000 0.987686
1.000000 0.000000 0.000000
1.000000 0.000000 0.230554
1.000000 0.000000 0.499791
1.000000 0.000000 0.765625
1.000000 0.000000 1.000000
1.000000 0.249400 0.000000
1.000000 0.248366 0.219093
1.000000 0.247225 0.488330
1.000000 0.246098 0.754164
1.000000 0.244980 1.000000
1.000000 0.508011 0.000000
1.000000 0.506977 0.207806
1.000000 0.505836 0.477042
1.000000 0.504709 0.742877
1.000000 0.503591 1.000000
1.000000 0.763548 0.000000
1.000000 0.762515 0.196652
1.000000 0.761373 0.465889
1.000000 0.760246 0.731724
1.000000 0.759128 0.995430
1.000000 1.000000 0.000000
1.000000 1.000000 0.186137
1.000000 1.000000 0.455373
1.000000 1.000000 0.721208
1.000000 1.000000 0.984914
