skills/appstore-creatives-orchestrator/assets/grade/luts/clean_bright_v16.cube
TITLE "clean_bright_v16"
LUT_3D_SIZE 9
DOMAIN_MIN 0.0 0.0 0.0
DOMAIN_MAX 1.0 1.0 1.0
0.038911 0.038911 0.038911
0.038509 0.038509 0.185299
0.038128 0.038128 0.323798
0.037758 0.037758 0.458541
0.037394 0.037394 0.590796
0.037035 0.037035 0.721192
0.036681 0.036681 0.850108
0.036330 0.036330 0.977796
0.036172 0.036172 1.000000
0.034924 0.181715 0.034924
0.034522 0.181312 0.181312
0.034141 0.180931 0.319811
0.033771 0.180561 0.454554
0.033407 0.180197 0.586809
0.033049 0.179839 0.717205
0.032694 0.179484 0.846121
0.032343 0.179133 0.973810
0.032185 0.178975 1.000000
0.031153 0.316822 0.031153
0.030750 0.316420 0.177540
0.030369 0.316039 0.316039
0.029999 0.315669 0.450783
0.029635 0.315305 0.583037
0.029277 0.314947 0.713433
0.028922 0.314592 0.842349
0.028571 0.314241 0.970038
0.028413 0.314083 1.000000
0.027483 0.448267 0.027483
0.027080 0.447864 0.173871
0.026700 0.447483 0.312370
0.026329 0.447113 0.447113
0.025966 0.446749 0.579367
0.025607 0.446391 0.709763
0.025253 0.446036 0.838680
0.024902 0.445685 0.966368
0.024744 0.445528 1.000000
0.023881 0.577283 0.023881
0.023479 0.576880 0.170269
0.023098 0.576499 0.308768
0.022727 0.576129 0.443511
0.022364 0.575765 0.575765
0.022005 0.575407 0.706161
0.021651 0.575052 0.835078
0.021300 0.574701 0.962766
0.021142 0.574544 1.000000
0.020330 0.704486 0.020330
0.019927 0.704084 0.166718
0.019547 0.703703 0.305216
0.019176 0.703332 0.439960
0.018813 0.702969 0.572214
0.018454 0.702610 0.702610
0.018100 0.702256 0.831526
0.017749 0.701905 0.959215
0.017591 0.701747 1.000000
0.016819 0.830246 0.016819
0.016416 0.829843 0.163207
0.016036 0.829463 0.301706
0.015665 0.829092 0.436449
0.015302 0.828728 0.568703
0.014943 0.828370 0.699099
0.014589 0.828016 0.828016
0.014238 0.827664 0.955704
0.014080 0.827507 1.000000
0.013341 0.954808 0.013341
0.012939 0.954406 0.159729
0.012558 0.954025 0.298228
0.012188 0.953654 0.432971
0.011824 0.953291 0.565226
0.011466 0.952932 0.695622
0.011111 0.952578 0.824538
0.010760 0.952227 0.952227
0.010602 0.952069 1.000000
0.011778 1.000000 0.011778
0.011376 1.000000 0.158166
0.010995 1.000000 0.296665
0.010624 1.000000 0.431408
0.010261 1.000000 0.563662
0.009902 1.000000 0.694058
0.009548 1.000000 0.822975
0.009197 1.000000 0.950663
0.009039 1.000000 1.000000
0.184516 0.037726 0.037726
0.184114 0.037324 0.184114
0.183733 0.036943 0.322613
0.183363 0.036572 0.457356
0.182999 0.036209 0.589610
0.182640 0.035850 0.720006
0.182286 0.035496 0.848923
0.181935 0.035145 0.976611
0.181777 0.034987 1.000000
0.180529 0.180529 0.033739
0.180127 0.180127 0.180127
0.179746 0.179746 0.318626
0.179376 0.179376 0.453369
0.179012 0.179012 0.585624
0.178654 0.178654 0.716020
0.178299 0.178299 0.844936
0.177948 0.177948 0.972625
0.177790 0.177790 1.000000
0.176758 0.315637 0.029967
0.176355 0.315235 0.176355
0.175974 0.314854 0.314854
0.175604 0.314484 0.449597
0.175240 0.314120 0.581852
0.174882 0.313762 0.712248
0.174527 0.313407 0.841164
0.174176 0.313056 0.968853
0.174018 0.312898 1.000000
0.173088 0.447082 0.026298
0.172685 0.446679 0.172685
0.172305 0.446298 0.311184
0.171934 0.445928 0.445928
0.171571 0.445564 0.578182
0.171212 0.445206 0.708578
0.170858 0.444851 0.837494
0.170507 0.444500 0.965183
0.170349 0.444342 1.000000
0.169486 0.576098 0.022696
0.169084 0.575695 0.169084
0.168703 0.575314 0.307583
0.168332 0.574944 0.442326
0.167969 0.574580 0.574580
0.167610 0.574222 0.704976
0.167256 0.573867 0.833893
0.166905 0.573516 0.961581
0.166747 0.573359 1.000000
0.165935 0.703301 0.019145
0.165532 0.702898 0.165532
0.165152 0.702518 0.304031
0.164781 0.702147 0.438775
0.164418 0.701784 0.571029
0.164059 0.701425 0.701425
0.163705 0.701071 0.830341
0.163354 0.700720 0.958030
0.163196 0.700562 1.000000
0.162424 0.829061 0.015634
0.162021 0.828658 0.162021
0.161641 0.828277 0.300520
0.161270 0.827907 0.435264
0.160907 0.827543 0.567518
0.160548 0.827185 0.697914
0.160194 0.826830 0.826830
0.159843 0.826479 0.954519
0.159685 0.826322 1.000000
0.158946 0.953623 0.012156
0.158544 0.953220 0.158544
0.158163 0.952840 0.297043
0.157793 0.952469 0.431786
0.157429 0.952106 0.564041
0.157071 0.951747 0.694437
0.156716 0.951393 0.823353
0.156365 0.951042 0.951042
0.156207 0.950884 1.000000
0.157383 1.000000 0.010593
0.156981 1.000000 0.156981
0.156600 1.000000 0.295480
0.156229 1.000000 0.430223
0.155866 1.000000 0.562477
0.155507 1.000000 0.692873
0.155153 1.000000 0.821790
0.154802 1.000000 0.949478
0.154644 1.000000 1.000000
0.322275 0.036605 0.036605
0.321872 0.036202 0.182993
0.321491 0.035822 0.321491
0.321121 0.035451 0.456235
0.320757 0.035088 0.588489
0.320399 0.034729 0.718885
0.320044 0.034375 0.847801
0.319693 0.034024 0.975490
0.319536 0.033866 1.000000
0.318288 0.179408 0.032618
0.317886 0.179006 0.179006
0.317505 0.178625 0.317505
0.317134 0.178255 0.452248
0.316771 0.177891 0.584502
0.316412 0.177532 0.714898
0.316058 0.177178 0.843815
0.315707 0.176827 0.971503
0.315549 0.176669 1.000000
0.314516 0.314516 0.028846
0.314114 0.314114 0.175234
0.313733 0.313733 0.313733
0.313362 0.313362 0.448476
0.312999 0.312999 0.580731
0.312640 0.312640 0.711127
0.312286 0.312286 0.840043
0.311935 0.311935 0.967731
0.311777 0.311777 1.000000
0.310846 0.445960 0.025177
0.310444 0.445558 0.171564
0.310063 0.445177 0.310063
0.309693 0.444807 0.444807
0.309329 0.444443 0.577061
0.308971 0.444084 0.707457
0.308616 0.443730 0.836373
0.308265 0.443379 0.964062
0.308107 0.443221 1.000000
0.307245 0.574976 0.021575
0.306842 0.574574 0.167962
0.306461 0.574193 0.306461
0.306091 0.573823 0.441205
0.305727 0.573459 0.573459
0.305369 0.573101 0.703855
0.305014 0.572746 0.832771
0.304663 0.572395 0.960460
0.304506 0.572237 1.000000
0.303693 0.702180 0.018024
0.303291 0.701777 0.164411
0.302910 0.701396 0.302910
0.302540 0.701026 0.437654
0.302176 0.700662 0.569908
0.301818 0.700304 0.700304
0.301463 0.699949 0.829220
0.301112 0.699598 0.956909
0.300954 0.699441 1.000000
0.300182 0.827939 0.014513
0.299780 0.827537 0.160900
0.299399 0.827156 0.299399
0.299029 0.826786 0.434143
0.298665 0.826422 0.566397
0.298307 0.826064 0.696793
0.297952 0.825709 0.825709
0.297601 0.825358 0.953398
0.297443 0.825200 1.000000
0.296705 0.952502 0.011035
0.296303 0.952099 0.157423
0.295922 0.951718 0.295922
0.295551 0.951348 0.430665
0.295188 0.950984 0.562919
0.294829 0.950626 0.693315
0.294475 0.950271 0.822232
0.294124 0.949920 0.949920
0.293966 0.949763 1.000000
0.295142 1.000000 0.009472
0.294739 1.000000 0.155859
0.294358 1.000000 0.294358
0.293988 1.000000 0.429102
0.293624 1.000000 0.561356
0.293266 1.000000 0.691752
0.292911 1.000000 0.820668
0.292560 1.000000 0.948357
0.292403 1.000000 1.000000
0.456298 0.035514 0.035514
0.455895 0.035112 0.181902
0.455514 0.034731 0.320401
0.455144 0.034360 0.455144
0.454780 0.033997 0.587398
0.454422 0.033638 0.717794
0.454068 0.033284 0.846711
0.453716 0.032933 0.974399
0.453559 0.032775 1.000000
0.452311 0.178317 0.031527
0.451909 0.177915 0.177915
0.451528 0.177534 0.316414
0.451157 0.177164 0.451157
0.450794 0.176800 0.583412
0.450435 0.176442 0.713808
0.450081 0.176087 0.842724
0.449730 0.175736 0.970413
0.449572 0.175578 1.000000
0.448539 0.313425 0.027755
0.448137 0.313023 0.174143
0.447756 0.312642 0.312642
0.447385 0.312272 0.447385
0.447022 0.311908 0.579640
0.446663 0.311549 0.710036
0.446309 0.311195 0.838952
0.445958 0.310844 0.966641
0.445800 0.310686 1.000000
0.444869 0.444869 0.024086
0.444467 0.444467 0.170473
0.444086 0.444086 0.308972
0.443716 0.443716 0.443716
0.443352 0.443352 0.575970
0.442994 0.442994 0.706366
0.442639 0.442639 0.835282
0.442288 0.442288 0.962971
0.442130 0.442130 1.000000
0.441268 0.573886 0.020484
0.440865 0.573483 0.166872
0.440484 0.573102 0.305371
0.440114 0.572732 0.440114
0.439750 0.572368 0.572368
0.439392 0.572010 0.702764
0.439037 0.571655 0.831681
0.438686 0.571304 0.959369
0.438529 0.571146 1.000000
0.437716 0.701089 0.016933
0.437314 0.700686 0.163320
0.436933 0.700306 0.301819
0.436563 0.699935 0.436563
0.436199 0.699572 0.568817
0.435841 0.699213 0.699213
0.435486 0.698859 0.828129
0.435135 0.698508 0.955818
0.434977 0.698350 1.000000
0.434205 0.826849 0.013422
0.433803 0.826446 0.159809
0.433422 0.826065 0.298308
0.433052 0.825695 0.433052
0.432688 0.825331 0.565306
0.432330 0.824973 0.695702
0.431975 0.824618 0.824618
0.431624 0.824267 0.952307
0.431466 0.824109 1.000000
0.430728 0.951411 0.009944
0.430326 0.951008 0.156332
0.429945 0.950628 0.294831
0.429574 0.950257 0.429574
0.429211 0.949894 0.561829
0.428852 0.949535 0.692225
0.428498 0.949181 0.821141
0.428147 0.948830 0.948830
0.427989 0.948672 1.000000
0.429165 1.000000 0.008381
0.428762 1.000000 0.154769
0.428381 1.000000 0.293268
0.428011 1.000000 0.428011
0.427647 1.000000 0.560265
0.427289 1.000000 0.690661
0.426934 1.000000 0.819578
0.426583 1.000000 0.947266
0.426426 1.000000 1.000000
0.587845 0.034443 0.034443
0.587443 0.034041 0.180831
0.587062 0.033660 0.319330
0.586691 0.033290 0.454073
0.586328 0.032926 0.586328
0.585969 0.032568 0.716724
0.585615 0.032213 0.845640
0.585264 0.031862 0.973329
0.585106 0.031704 1.000000
0.583858 0.177247 0.030457
0.583456 0.176844 0.176844
0.583075 0.176463 0.315343
0.582705 0.176093 0.450087
0.582341 0.175729 0.582341
0.581982 0.175371 0.712737
0.581628 0.175016 0.841653
0.581277 0.174665 0.969342
0.581119 0.174508 1.000000
0.580086 0.312355 0.026685
0.579684 0.311952 0.173072
0.579303 0.311571 0.311571
0.578933 0.311201 0.446315
0.578569 0.310837 0.578569
0.578211 0.310479 0.708965
0.577856 0.310124 0.837881
0.577505 0.309773 0.965570
0.577347 0.309615 1.000000
0.576417 0.443799 0.023015
0.576014 0.443396 0.169403
0.575633 0.443016 0.307902
0.575263 0.442645 0.442645
0.574899 0.442281 0.574899
0.574541 0.441923 0.705295
0.574186 0.441569 0.834212
0.573835 0.441217 0.961900
0.573678 0.441060 1.000000
0.572815 0.572815 0.019413
0.572412 0.572412 0.165801
0.572032 0.572032 0.304300
0.571661 0.571661 0.439043
0.571298 0.571298 0.571298
0.570939 0.570939 0.701694
0.570585 0.570585 0.830610
0.570234 0.570234 0.958299
0.570076 0.570076 1.000000
0.569264 0.700018 0.015862
0.568861 0.699616 0.162250
0.568480 0.699235 0.300749
0.568110 0.698864 0.435492
0.567746 0.698501 0.567746
0.567388 0.698142 0.698142
0.567033 0.697788 0.827059
0.566682 0.697437 0.954747
0.566525 0.697279 1.000000
0.565753 0.825778 0.012351
0.565350 0.825375 0.158739
0.564969 0.824995 0.297238
0.564599 0.824624 0.431981
0.564235 0.824261 0.564235
0.563877 0.823902 0.694631
0.563522 0.823548 0.823548
0.563171 0.823197 0.951236
0.563014 0.823039 1.000000
0.562275 0.950340 0.008874
0.561873 0.949938 0.155261
0.561492 0.949557 0.293760
0.561122 0.949186 0.428504
0.560758 0.948823 0.560758
0.560399 0.948464 0.691154
0.560045 0.948110 0.820070
0.559694 0.947759 0.947759
0.559536 0.947601 1.000000
0.560712 1.000000 0.007310
0.560309 1.000000 0.153698
0.559929 1.000000 0.292197
0.559558 1.000000 0.426940
0.559195 1.000000 0.559195
0.558836 1.000000 0.689591
0.558482 1.000000 0.818507
0.558131 1.000000 0.946196
0.557973 1.000000 1.000000
0.717544 0.033388 0.033388
0.717141 0.032985 0.179775
0.716761 0.032604 0.318274
0.716390 0.032234 0.453018
0.716027 0.031870 0.585272
0.715668 0.031512 0.715668
0.715314 0.031157 0.844584
0.714963 0.030806 0.972273
0.714805 0.030649 1.000000
0.713557 0.176191 0.029401
0.713155 0.175789 0.175789
0.712774 0.175408 0.314288
0.712403 0.175037 0.449031
0.712040 0.174674 0.581285
0.711681 0.174315 0.711681
0.711327 0.173961 0.840598
0.710976 0.173610 0.968286
0.710818 0.173452 1.000000
0.709785 0.311299 0.025629
0.709383 0.310896 0.172017
0.709002 0.310516 0.310516
0.708632 0.310145 0.445259
0.708268 0.309782 0.577513
0.707909 0.309423 0.707909
0.707555 0.309069 0.836826
0.707204 0.308718 0.964514
0.707046 0.308560 1.000000
0.706116 0.442743 0.021959
0.705713 0.442341 0.168347
0.705332 0.441960 0.306846
0.704962 0.441589 0.441589
0.704598 0.441226 0.573844
0.704240 0.440867 0.704240
0.703885 0.440513 0.833156
0.703534 0.440162 0.960845
0.703376 0.440004 1.000000
0.702514 0.571759 0.018358
0.702111 0.571357 0.164745
0.701731 0.570976 0.303244
0.701360 0.570606 0.437988
0.700996 0.570242 0.570242
0.700638 0.569883 0.700638
0.700284 0.569529 0.829554
0.699932 0.569178 0.957243
0.699775 0.569020 1.000000
0.698963 0.698963 0.014806
0.698560 0.698560 0.161194
0.698179 0.698179 0.299693
0.697809 0.697809 0.434436
0.697445 0.697445 0.566691
0.697087 0.697087 0.697087
0.696732 0.696732 0.826003
0.696381 0.696381 0.953692
0.696223 0.696223 1.000000
0.695452 0.824722 0.011295
0.695049 0.824320 0.157683
0.694668 0.823939 0.296182
0.694298 0.823569 0.430925
0.693934 0.823205 0.563180
0.693576 0.822846 0.693576
0.693221 0.822492 0.822492
0.692870 0.822141 0.950181
0.692713 0.821983 1.000000
0.691974 0.949285 0.007818
0.691572 0.948882 0.154206
0.691191 0.948501 0.292705
0.690820 0.948131 0.427448
0.690457 0.947767 0.559702
0.690098 0.947409 0.690098
0.689744 0.947054 0.819015
0.689393 0.946703 0.946703
0.689235 0.946545 1.000000
0.690411 1.000000 0.006255
0.690008 1.000000 0.152642
0.689628 1.000000 0.291141
0.689257 1.000000 0.425885
0.688894 1.000000 0.558139
0.688535 1.000000 0.688535
0.688181 1.000000 0.817451
0.687830 1.000000 0.945140
0.687672 1.000000 1.000000
0.845771 0.032344 0.032344
0.845368 0.031942 0.178732
0.844988 0.031561 0.317231
0.844617 0.031190 0.451974
0.844254 0.030827 0.584228
0.843895 0.030468 0.714624
0.843541 0.030114 0.843541
0.843190 0.029763 0.971229
0.843032 0.029605 1.000000
0.841784 0.175147 0.028357
0.841382 0.174745 0.174745
0.841001 0.174364 0.313244
0.840630 0.173994 0.447987
0.840267 0.173630 0.580242
0.839908 0.173272 0.710638
0.839554 0.172917 0.839554
0.839203 0.172566 0.967243
0.839045 0.172408 1.000000
0.838012 0.310255 0.024585
0.837610 0.309853 0.170973
0.837229 0.309472 0.309472
0.836859 0.309102 0.444215
0.836495 0.308738 0.576470
0.836136 0.308379 0.706866
0.835782 0.308025 0.835782
0.835431 0.307674 0.963471
0.835273 0.307516 1.000000
0.834343 0.441699 0.020916
0.833940 0.441297 0.167303
0.833559 0.440916 0.305802
0.833189 0.440546 0.440546
0.832825 0.440182 0.572800
0.832467 0.439824 0.703196
0.832112 0.439469 0.832112
0.831761 0.439118 0.959801
0.831603 0.438960 1.000000
0.830741 0.570716 0.017314
0.830338 0.570313 0.163702
0.829958 0.569932 0.302201
0.829587 0.569562 0.436944
0.829223 0.569198 0.569198
0.828865 0.568840 0.699594
0.828511 0.568485 0.828511
0.828159 0.568134 0.956199
0.828002 0.567976 1.000000
0.827190 0.697919 0.013763
0.826787 0.697516 0.160150
0.826406 0.697136 0.298649
0.826036 0.696765 0.433393
0.825672 0.696402 0.565647
0.825314 0.696043 0.696043
0.824959 0.695689 0.824959
0.824608 0.695338 0.952648
0.824450 0.695180 1.000000
0.823679 0.823679 0.010252
0.823276 0.823276 0.156639
0.822895 0.822895 0.295138
0.822525 0.822525 0.429882
0.822161 0.822161 0.562136
0.821803 0.821803 0.692532
0.821448 0.821448 0.821448
0.821097 0.821097 0.949137
0.820940 0.820940 1.000000
0.820201 0.948241 0.006774
0.819799 0.947838 0.153162
0.819418 0.947458 0.291661
0.819047 0.947087 0.426404
0.818684 0.946724 0.558659
0.818325 0.946365 0.689055
0.817971 0.946011 0.817971
0.817620 0.945660 0.945660
0.817462 0.945502 1.000000
0.818638 1.000000 0.005211
0.818235 1.000000 0.151599
0.817855 1.000000 0.290098
0.817484 1.000000 0.424841
0.817121 1.000000 0.557095
0.816762 1.000000 0.687491
0.816408 1.000000 0.816408
0.816057 1.000000 0.944096
0.815899 1.000000 1.000000
0.972777 0.031310 0.031310
0.972374 0.030908 0.177698
0.971994 0.030527 0.316197
0.971623 0.030157 0.450940
0.971260 0.029793 0.583195
0.970901 0.029435 0.713591
0.970547 0.029080 0.842507
0.970196 0.028729 0.970196
0.970038 0.028571 1.000000
0.968790 0.174114 0.027324
0.968388 0.173711 0.173711
0.968007 0.173330 0.312210
0.967636 0.172960 0.446954
0.967273 0.172596 0.579208
0.966914 0.172238 0.709604
0.966560 0.171883 0.838520
0.966209 0.171532 0.966209
0.966051 0.171375 1.000000
0.965018 0.309222 0.023552
0.964616 0.308819 0.169939
0.964235 0.308438 0.308438
0.963865 0.308068 0.443182
0.963501 0.307704 0.575436
0.963142 0.307346 0.705832
0.962788 0.306991 0.834748
0.962437 0.306640 0.962437
0.962279 0.306482 1.000000
0.961349 0.440666 0.019882
0.960946 0.440263 0.166270
0.960565 0.439883 0.304769
0.960195 0.439512 0.439512
0.959831 0.439148 0.571766
0.959473 0.438790 0.702162
0.959118 0.438436 0.831079
0.958767 0.438084 0.958767
0.958610 0.437927 1.000000
0.957747 0.569682 0.016280
0.957344 0.569279 0.162668
0.956964 0.568899 0.301167
0.956593 0.568528 0.435910
0.956230 0.568165 0.568165
0.955871 0.567806 0.698561
0.955517 0.567452 0.827477
0.955166 0.567101 0.955166
0.955008 0.566943 1.000000
0.954196 0.696885 0.012729
0.953793 0.696483 0.159117
0.953412 0.696102 0.297616
0.953042 0.695731 0.432359
0.952678 0.695368 0.564613
0.952320 0.695009 0.695009
0.951965 0.694655 0.823926
0.951614 0.694304 0.951614
0.951456 0.694146 1.000000
0.950685 0.822645 0.009218
0.950282 0.822242 0.155606
0.949901 0.821862 0.294105
0.949531 0.821491 0.428848
0.949167 0.821128 0.561102
0.948809 0.820769 0.691498
0.948454 0.820415 0.820415
0.948103 0.820064 0.948103
0.947946 0.819906 1.000000
0.947207 0.947207 0.005741
0.946805 0.946805 0.152128
0.946424 0.946424 0.290627
0.946053 0.946053 0.425371
0.945690 0.945690 0.557625
0.945331 0.945331 0.688021
0.944977 0.944977 0.816937
0.944626 0.944626 0.944626
0.944468 0.944468 1.000000
0.945644 1.000000 0.004177
0.945241 1.000000 0.150565
0.944861 1.000000 0.289064
0.944490 1.000000 0.423807
0.944127 1.000000 0.556062
0.943768 1.000000 0.686458
0.943414 1.000000 0.815374
0.943063 1.000000 0.943063
0.942905 1.000000 1.000000
1.000000 0.030846 0.030846
1.000000 0.030443 0.177233
1.000000 0.030062 0.315732
1.000000 0.029692 0.450476
1.000000 0.029328 0.582730
1.000000 0.028970 0.713126
1.000000 0.028615 0.842042
1.000000 0.028264 0.969731
1.000000 0.028107 1.000000
1.000000 0.173649 0.026859
1.000000 0.173247 0.173247
1.000000 0.172866 0.311746
1.000000 0.172495 0.446489
1.000000 0.172132 0.578743
1.000000 0.171773 0.709139
1.000000 0.171419 0.838055
1.000000 0.171068 0.965744
1.000000 0.170910 1.000000
1.000000 0.308757 0.023087
1.000000 0.308354 0.169475
1.000000 0.307974 0.307974
1.000000 0.307603 0.442717
1.000000 0.307240 0.574971
1.000000 0.306881 0.705367
1.000000 0.306527 0.834284
1.000000 0.306176 0.961972
1.000000 0.306018 1.000000
1.000000 0.440201 0.019417
1.000000 0.439799 0.165805
1.000000 0.439418 0.304304
1.000000 0.439047 0.439047
1.000000 0.438684 0.571302
1.000000 0.438325 0.701698
1.000000 0.437971 0.830614
1.000000 0.437620 0.958303
1.000000 0.437462 1.000000
1.000000 0.569217 0.015816
1.000000 0.568815 0.162203
1.000000 0.568434 0.300702
1.000000 0.568063 0.435446
1.000000 0.567700 0.567700
1.000000 0.567341 0.698096
1.000000 0.566987 0.827012
1.000000 0.566636 0.954701
1.000000 0.566478 1.000000
1.000000 0.696420 0.012264
1.000000 0.696018 0.158652
1.000000 0.695637 0.297151
1.000000 0.695267 0.431894
1.000000 0.694903 0.564149
1.000000 0.694545 0.694545
1.000000 0.694190 0.823461
1.000000 0.693839 0.951150
1.000000 0.693681 1.000000
1.000000 0.822180 0.008753
1.000000 0.821778 0.155141
1.000000 0.821397 0.293640
1.000000 0.821026 0.428383
1.000000 0.820663 0.560638
1.000000 0.820304 0.691034
1.000000 0.819950 0.819950
1.000000 0.819599 0.947639
1.000000 0.819441 1.000000
1.000000 0.946742 0.005276
1.000000 0.946340 0.151664
1.000000 0.945959 0.290163
1.000000 0.945589 0.424906
1.000000 0.945225 0.557160
1.000000 0.944867 0.687556
1.000000 0.944512 0.816472
1.000000 0.944161 0.944161
1.000000 0.944003 1.000000
1.000000 1.000000 0.003713
1.000000 1.000000 0.150100
1.000000 1.000000 0.288599
1.000000 1.000000 0.423343
1.000000 1.000000 0.555597
1.000000 1.000000 0.685993
1.000000 1.000000 0.814909
1.000000 1.000000 0.942598
1.000000 1.000000 1.000000
