skills/appstore-creatives-orchestrator/assets/grade/luts/clean_bright_v16.cube
TITLE "clean_bright_v16"
LUT_3D_SIZE 17
DOMAIN_MIN 0.0 0.0 0.0
DOMAIN_MAX 1.0 1.0 1.0
0.038911 0.038911 0.038911
0.038706 0.038706 0.113709
0.038509 0.038509 0.185299
0.038317 0.038317 0.255147
0.038128 0.038128 0.323798
0.037942 0.037942 0.391537
0.037758 0.037758 0.458541
0.037575 0.037575 0.524932
0.037394 0.037394 0.590796
0.037214 0.037214 0.656198
0.037035 0.037035 0.721192
0.036858 0.036858 0.785817
0.036681 0.036681 0.850108
0.036505 0.036505 0.914093
0.036330 0.036330 0.977796
0.036172 0.036172 1.000000
0.036172 0.036172 1.000000
0.036874 0.111878 0.036874
0.036668 0.111672 0.111672
0.036472 0.111476 0.183262
0.036280 0.111284 0.253110
0.036091 0.111095 0.321761
0.035905 0.110909 0.389500
0.035720 0.110724 0.456504
0.035538 0.110542 0.522895
0.035357 0.110361 0.588758
0.035177 0.110181 0.654161
0.034998 0.110002 0.719154
0.034821 0.109825 0.783780
0.034644 0.109648 0.848071
0.034468 0.109472 0.912056
0.034293 0.109297 0.975759
0.034135 0.109139 1.000000
0.034135 0.109139 1.000000
0.034924 0.181715 0.034924
0.034719 0.181509 0.109723
0.034522 0.181312 0.181312
0.034330 0.181120 0.251161
0.034141 0.180931 0.319811
0.033955 0.180745 0.387550
0.033771 0.180561 0.454554
0.033588 0.180378 0.520945
0.033407 0.180197 0.586809
0.033227 0.180017 0.652212
0.033049 0.179839 0.717205
0.032871 0.179661 0.781830
0.032694 0.179484 0.846121
0.032518 0.179308 0.910106
0.032343 0.179133 0.973810
0.032185 0.178975 1.000000
0.032185 0.178975 1.000000
0.033022 0.249853 0.033022
0.032817 0.249647 0.107820
0.032620 0.249450 0.179410
0.032428 0.249258 0.249258
0.032239 0.249070 0.317909
0.032053 0.248883 0.385648
0.031869 0.248699 0.452652
0.031686 0.248517 0.519043
0.031505 0.248336 0.584907
0.031325 0.248156 0.650309
0.031146 0.247977 0.715303
0.030969 0.247799 0.779928
0.030792 0.247623 0.844219
0.030616 0.247447 0.908204
0.030441 0.247272 0.971907
0.030283 0.247114 1.000000
0.030283 0.247114 1.000000
0.031153 0.316822 0.031153
0.030947 0.316617 0.105951
0.030750 0.316420 0.177540
0.030558 0.316228 0.247389
0.030369 0.316039 0.316039
0.030183 0.315853 0.383778
0.029999 0.315669 0.450783
0.029816 0.315486 0.517173
0.029635 0.315305 0.583037
0.029455 0.315125 0.648440
0.029277 0.314947 0.713433
0.029099 0.314769 0.778058
0.028922 0.314592 0.842349
0.028746 0.314416 0.906334
0.028571 0.314241 0.970038
0.028413 0.314083 1.000000
0.028413 0.314083 1.000000
0.029308 0.382903 0.029308
0.029102 0.382697 0.104106
0.028905 0.382500 0.175695
0.028713 0.382308 0.245544
0.028525 0.382119 0.314194
0.028338 0.381933 0.381933
0.028154 0.381749 0.448938
0.027972 0.381566 0.515328
0.027790 0.381385 0.581192
0.027611 0.381206 0.646595
0.027432 0.381027 0.711588
0.027254 0.380849 0.776213
0.027078 0.380672 0.840504
0.026902 0.380497 0.904490
0.026726 0.380321 0.968193
0.026569 0.380164 1.000000
0.026569 0.380164 1.000000
0.027483 0.448267 0.027483
0.027277 0.448061 0.102281
0.027080 0.447864 0.173871
0.026888 0.447672 0.243719
0.026700 0.447483 0.312370
0.026513 0.447297 0.380108
0.026329 0.447113 0.447113
0.026147 0.446930 0.513504
0.025966 0.446749 0.579367
0.025786 0.446570 0.644770
0.025607 0.446391 0.709763
0.025429 0.446213 0.774388
0.025253 0.446036 0.838680
0.025077 0.445860 0.902665
0.024902 0.445685 0.966368
0.024744 0.445528 1.000000
0.024744 0.445528 1.000000
0.025675 0.513032 0.025675
0.025469 0.512826 0.100473
0.025272 0.512629 0.172062
0.025080 0.512437 0.241911
0.024892 0.512248 0.310561
0.024705 0.512062 0.378300
0.024521 0.511878 0.445305
0.024339 0.511695 0.511695
0.024158 0.511514 0.577559
0.023978 0.511335 0.642962
0.023799 0.511156 0.707955
0.023621 0.510978 0.772580
0.023445 0.510801 0.836871
0.023269 0.510626 0.900857
0.023094 0.510450 0.964560
0.022936 0.510293 1.000000
0.022936 0.510293 1.000000
0.023881 0.577283 0.023881
0.023675 0.577077 0.098679
0.023479 0.576880 0.170269
0.023287 0.576688 0.240117
0.023098 0.576499 0.308768
0.022912 0.576313 0.376507
0.022727 0.576129 0.443511
0.022545 0.575947 0.509902
0.022364 0.575765 0.575765
0.022184 0.575586 0.641168
0.022005 0.575407 0.706161
0.021828 0.575229 0.770787
0.021651 0.575052 0.835078
0.021475 0.574877 0.899063
0.021300 0.574701 0.962766
0.021142 0.574544 1.000000
0.021142 0.574544 1.000000
0.022100 0.641084 0.022100
0.021894 0.640878 0.096898
0.021697 0.640682 0.168488
0.021505 0.640490 0.238336
0.021317 0.640301 0.306987
0.021130 0.640115 0.374725
0.020946 0.639930 0.441730
0.020764 0.639748 0.508120
0.020583 0.639567 0.573984
0.020403 0.639387 0.639387
0.020224 0.639208 0.704380
0.020046 0.639031 0.769005
0.019870 0.638854 0.833296
0.019694 0.638678 0.897282
0.019519 0.638503 0.960985
0.019361 0.638345 1.000000
0.019361 0.638345 1.000000
0.020330 0.704486 0.020330
0.020124 0.704280 0.095128
0.019927 0.704084 0.166718
0.019735 0.703892 0.236566
0.019547 0.703703 0.305216
0.019360 0.703517 0.372955
0.019176 0.703332 0.439960
0.018994 0.703150 0.506350
0.018813 0.702969 0.572214
0.018633 0.702789 0.637617
0.018454 0.702610 0.702610
0.018276 0.702433 0.767235
0.018100 0.702256 0.831526
0.017924 0.702080 0.895512
0.017749 0.701905 0.959215
0.017591 0.701747 1.000000
0.017591 0.701747 1.000000
0.018570 0.767529 0.018570
0.018364 0.767323 0.093368
0.018167 0.767126 0.164957
0.017975 0.766934 0.234806
0.017787 0.766746 0.303456
0.017600 0.766559 0.371195
0.017416 0.766375 0.438200
0.017234 0.766193 0.504590
0.017053 0.766012 0.570454
0.016873 0.765832 0.635857
0.016694 0.765653 0.700850
0.016516 0.765475 0.765475
0.016340 0.765299 0.829766
0.016164 0.765123 0.893752
0.015989 0.764948 0.957455
0.015831 0.764790 1.000000
0.015831 0.764790 1.000000
0.016819 0.830246 0.016819
0.016613 0.830040 0.091617
0.016416 0.829843 0.163207
0.016224 0.829651 0.233055
0.016036 0.829463 0.301706
0.015849 0.829276 0.369444
0.015665 0.829092 0.436449
0.015483 0.828910 0.502840
0.015302 0.828728 0.568703
0.015122 0.828549 0.634106
0.014943 0.828370 0.699099
0.014765 0.828192 0.763724
0.014589 0.828016 0.828016
0.014413 0.827840 0.892001
0.014238 0.827664 0.955704
0.014080 0.827507 1.000000
0.014080 0.827507 1.000000
0.015076 0.892664 0.015076
0.014871 0.892459 0.089875
0.014674 0.892262 0.161464
0.014482 0.892070 0.231313
0.014293 0.891881 0.299963
0.014107 0.891695 0.367702
0.013923 0.891511 0.434706
0.013740 0.891328 0.501097
0.013559 0.891147 0.566961
0.013379 0.890967 0.632363
0.013201 0.890789 0.697357
0.013023 0.890611 0.761982
0.012846 0.890434 0.826273
0.012670 0.890258 0.890258
0.012495 0.890083 0.953962
0.012337 0.889925 1.000000
0.012337 0.889925 1.000000
0.013341 0.954808 0.013341
0.013136 0.954602 0.088140
0.012939 0.954406 0.159729
0.012747 0.954214 0.229578
0.012558 0.954025 0.298228
0.012372 0.953839 0.365967
0.012188 0.953654 0.432971
0.012005 0.953472 0.499362
0.011824 0.953291 0.565226
0.011644 0.953111 0.630629
0.011466 0.952932 0.695622
0.011288 0.952755 0.760247
0.011111 0.952578 0.824538
0.010935 0.952402 0.888523
0.010760 0.952227 0.952227
0.010602 0.952069 1.000000
0.010602 0.952069 1.000000
0.011778 1.000000 0.011778
0.011573 1.000000 0.086576
0.011376 1.000000 0.158166
0.011184 1.000000 0.228014
0.010995 1.000000 0.296665
0.010809 1.000000 0.364404
0.010624 1.000000 0.431408
0.010442 1.000000 0.497799
0.010261 1.000000 0.563662
0.010081 1.000000 0.629065
0.009902 1.000000 0.694058
0.009725 1.000000 0.758684
0.009548 1.000000 0.822975
0.009372 1.000000 0.886960
0.009197 1.000000 0.950663
0.009039 1.000000 1.000000
0.009039 1.000000 1.000000
0.011778 1.000000 0.011778
0.011573 1.000000 0.086576
0.011376 1.000000 0.158166
0.011184 1.000000 0.228014
0.010995 1.000000 0.296665
0.010809 1.000000 0.364404
0.010624 1.000000 0.431408
0.010442 1.000000 0.497799
0.010261 1.000000 0.563662
0.010081 1.000000 0.629065
0.009902 1.000000 0.694058
0.009725 1.000000 0.758684
0.009548 1.000000 0.822975
0.009372 1.000000 0.886960
0.009197 1.000000 0.950663
0.009039 1.000000 1.000000
0.009039 1.000000 1.000000
0.113310 0.038306 0.038306
0.113104 0.038100 0.113104
0.112907 0.037903 0.184693
0.112715 0.037711 0.254542
0.112526 0.037522 0.323192
0.112340 0.037336 0.390931
0.112156 0.037152 0.457936
0.111973 0.036969 0.524326
0.111792 0.036788 0.590190
0.111612 0.036609 0.655593
0.111434 0.036430 0.720586
0.111256 0.036252 0.785211
0.111079 0.036075 0.849502
0.110903 0.035900 0.913487
0.110728 0.035724 0.977191
0.110571 0.035567 1.000000
0.110571 0.035567 1.000000
0.111273 0.111273 0.036269
0.111067 0.111067 0.111067
0.110870 0.110870 0.182656
0.110678 0.110678 0.252505
0.110489 0.110489 0.321155
0.110303 0.110303 0.388894
0.110119 0.110119 0.455899
0.109936 0.109936 0.522289
0.109755 0.109755 0.588153
0.109575 0.109575 0.653556
0.109397 0.109397 0.718549
0.109219 0.109219 0.783174
0.109042 0.109042 0.847465
0.108866 0.108866 0.911450
0.108691 0.108691 0.975154
0.108533 0.108533 1.000000
0.108533 0.108533 1.000000
0.109323 0.181109 0.034319
0.109117 0.180903 0.109117
0.108920 0.180707 0.180707
0.108728 0.180515 0.250555
0.108540 0.180326 0.319206
0.108353 0.180140 0.386944
0.108169 0.179955 0.453949
0.107987 0.179773 0.520340
0.107806 0.179592 0.586203
0.107626 0.179412 0.651606
0.107447 0.179233 0.716599
0.107269 0.179056 0.781224
0.107093 0.178879 0.845515
0.106917 0.178703 0.909501
0.106742 0.178528 0.973204
0.106584 0.178370 1.000000
0.106584 0.178370 1.000000
0.107421 0.249247 0.032417
0.107215 0.249042 0.107215
0.107018 0.248845 0.178804
0.106826 0.248653 0.248653
0.106637 0.248464 0.317303
0.106451 0.248278 0.385042
0.106267 0.248094 0.452047
0.106084 0.247911 0.518437
0.105903 0.247730 0.584301
0.105723 0.247550 0.649704
0.105545 0.247372 0.714697
0.105367 0.247194 0.779322
0.105190 0.247017 0.843613
0.105014 0.246841 0.907598
0.104839 0.246666 0.971302
0.104681 0.246508 1.000000
0.104681 0.246508 1.000000
0.105551 0.316217 0.030547
0.105345 0.316011 0.105345
0.105148 0.315814 0.176935
0.104956 0.315622 0.246783
0.104768 0.315434 0.315434
0.104581 0.315247 0.383173
0.104397 0.315063 0.450177
0.104215 0.314881 0.516568
0.104034 0.314700 0.582431
0.103854 0.314520 0.647834
0.103675 0.314341 0.712827
0.103497 0.314163 0.777453
0.103321 0.313987 0.841744
0.103145 0.313811 0.905729
0.102970 0.313636 0.969432
0.102812 0.313478 1.000000
0.102812 0.313478 1.000000
0.103706 0.382297 0.028702
0.103501 0.382092 0.103501
0.103304 0.381895 0.175090
0.103112 0.381703 0.244938
0.102923 0.381514 0.313589
0.102737 0.381328 0.381328
0.102552 0.381143 0.448332
0.102370 0.380961 0.514723
0.102189 0.380780 0.580587
0.102009 0.380600 0.645989
0.101830 0.380421 0.710983
0.101653 0.380244 0.775608
0.101476 0.380067 0.839899
0.101300 0.379891 0.903884
0.101125 0.379716 0.967587
0.100967 0.379558 1.000000
0.100967 0.379558 1.000000
0.101881 0.447661 0.026877
0.101676 0.447455 0.101676
0.101479 0.447259 0.173265
0.101287 0.447067 0.243114
0.101098 0.446878 0.311764
0.100912 0.446692 0.379503
0.100728 0.446507 0.446507
0.100545 0.446325 0.512898
0.100364 0.446144 0.578762
0.100184 0.445964 0.644164
0.100006 0.445785 0.709158
0.099828 0.445608 0.773783
0.099651 0.445431 0.838074
0.099475 0.445255 0.902059
0.099300 0.445080 0.965763
0.099142 0.444922 1.000000
0.099142 0.444922 1.000000
0.100073 0.512426 0.025069
0.099868 0.512220 0.099868
0.099671 0.512024 0.171457
0.099479 0.511832 0.241305
0.099290 0.511643 0.309956
0.099104 0.511457 0.377695
0.098920 0.511272 0.444699
0.098737 0.511090 0.511090
0.098556 0.510909 0.576954
0.098376 0.510729 0.642356
0.098197 0.510550 0.707350
0.098020 0.510373 0.771975
0.097843 0.510196 0.836266
0.097667 0.510020 0.900251
0.097492 0.509845 0.963955
0.097334 0.509687 1.000000
0.097334 0.509687 1.000000
0.098279 0.576677 0.023276
0.098074 0.576472 0.098074
0.097877 0.576275 0.169663
0.097685 0.576083 0.239512
0.097496 0.575894 0.308162
0.097310 0.575708 0.375901
0.097126 0.575523 0.442906
0.096943 0.575341 0.509296
0.096762 0.575160 0.575160
0.096582 0.574980 0.640563
0.096404 0.574801 0.705556
0.096226 0.574624 0.770181
0.096049 0.574447 0.834472
0.095873 0.574271 0.898457
0.095698 0.574096 0.962161
0.095540 0.573938 1.000000
0.095540 0.573938 1.000000
0.096498 0.640479 0.021494
0.096293 0.640273 0.096293
0.096096 0.640076 0.167882
0.095904 0.639884 0.237731
0.095715 0.639695 0.306381
0.095529 0.639509 0.374120
0.095345 0.639325 0.441124
0.095162 0.639142 0.507515
0.094981 0.638961 0.573379
0.094801 0.638781 0.638781
0.094623 0.638603 0.703775
0.094445 0.638425 0.768400
0.094268 0.638248 0.832691
0.094092 0.638072 0.896676
0.093917 0.637897 0.960380
0.093759 0.637739 1.000000
0.093759 0.637739 1.000000
0.094728 0.703880 0.019724
0.094523 0.703675 0.094523
0.094326 0.703478 0.166112
0.094134 0.703286 0.235960
0.093945 0.703097 0.304611
0.093759 0.702911 0.372350
0.093575 0.702727 0.439354
0.093392 0.702544 0.505745
0.093211 0.702363 0.571609
0.093031 0.702183 0.637011
0.092852 0.702005 0.702005
0.092675 0.701827 0.766630
0.092498 0.701650 0.830921
0.092322 0.701474 0.894906
0.092147 0.701299 0.958610
0.091989 0.701141 1.000000
0.091989 0.701141 1.000000
0.092968 0.766923 0.017964
0.092763 0.766718 0.092763
0.092566 0.766521 0.164352
0.092374 0.766329 0.234200
0.092185 0.766140 0.302851
0.091999 0.765954 0.370590
0.091815 0.765770 0.437594
0.091632 0.765587 0.503985
0.091451 0.765406 0.569849
0.091271 0.765226 0.635251
0.091092 0.765048 0.700245
0.090915 0.764870 0.764870
0.090738 0.764693 0.829161
0.090562 0.764517 0.893146
0.090387 0.764342 0.956850
0.090229 0.764184 1.000000
0.090229 0.764184 1.000000
0.091217 0.829640 0.016213
0.091012 0.829435 0.091012
0.090815 0.829238 0.162601
0.090623 0.829046 0.232450
0.090434 0.828857 0.301100
0.090248 0.828671 0.368839
0.090064 0.828487 0.435843
0.089881 0.828304 0.502234
0.089700 0.828123 0.568098
0.089520 0.827943 0.633500
0.089342 0.827764 0.698494
0.089164 0.827587 0.763119
0.088987 0.827410 0.827410
0.088811 0.827234 0.891395
0.088636 0.827059 0.955099
0.088478 0.826901 1.000000
0.088478 0.826901 1.000000
0.089475 0.892059 0.014471
0.089269 0.891853 0.089269
0.089072 0.891656 0.160858
0.088880 0.891464 0.230707
0.088692 0.891276 0.299357
0.088505 0.891089 0.367096
0.088321 0.890905 0.434101
0.088139 0.890723 0.500491
0.087957 0.890541 0.566355
0.087778 0.890362 0.631758
0.087599 0.890183 0.696751
0.087421 0.890005 0.761376
0.087245 0.889829 0.825667
0.087069 0.889653 0.889653
0.086893 0.889477 0.953356
0.086736 0.889320 1.000000
0.086736 0.889320 1.000000
0.087740 0.954202 0.012736
0.087534 0.953997 0.087534
0.087337 0.953800 0.159124
0.087145 0.953608 0.228972
0.086957 0.953419 0.297623
0.086770 0.953233 0.365361
0.086586 0.953049 0.432366
0.086404 0.952866 0.498757
0.086223 0.952685 0.564620
0.086043 0.952505 0.630023
0.085864 0.952327 0.695016
0.085686 0.952149 0.759641
0.085510 0.951972 0.823932
0.085334 0.951796 0.887918
0.085159 0.951621 0.951621
0.085001 0.951463 1.000000
0.085001 0.951463 1.000000
0.086177 1.000000 0.011173
0.085971 1.000000 0.085971
0.085774 1.000000 0.157560
0.085582 1.000000 0.227409
0.085393 1.000000 0.296059
0.085207 1.000000 0.363798
0.085023 1.000000 0.430803
0.084840 1.000000 0.497193
0.084659 1.000000 0.563057
0.084479 1.000000 0.628460
0.084301 1.000000 0.693453
0.084123 1.000000 0.758078
0.083946 1.000000 0.822369
0.083770 1.000000 0.886354
0.083595 1.000000 0.950058
0.083437 1.000000 1.000000
0.083437 1.000000 1.000000
0.086177 1.000000 0.011173
0.085971 1.000000 0.085971
0.085774 1.000000 0.157560
0.085582 1.000000 0.227409
0.085393 1.000000 0.296059
0.085207 1.000000 0.363798
0.085023 1.000000 0.430803
0.084840 1.000000 0.497193
0.084659 1.000000 0.563057
0.084479 1.000000 0.628460
0.084301 1.000000 0.693453
0.084123 1.000000 0.758078
0.083946 1.000000 0.822369
0.083770 1.000000 0.886354
0.083595 1.000000 0.950058
0.083437 1.000000 1.000000
0.083437 1.000000 1.000000
0.184516 0.037726 0.037726
0.184311 0.037520 0.112524
0.184114 0.037324 0.184114
0.183922 0.037132 0.253962
0.183733 0.036943 0.322613
0.183547 0.036757 0.390352
0.183363 0.036572 0.457356
0.183180 0.036390 0.523747
0.182999 0.036209 0.589610
0.182819 0.036029 0.655013
0.182640 0.035850 0.720006
0.182463 0.035673 0.784632
0.182286 0.035496 0.848923
0.182110 0.035320 0.912908
0.181935 0.035145 0.976611
0.181777 0.034987 1.000000
0.181777 0.034987 1.000000
0.182479 0.110693 0.035689
0.182274 0.110487 0.110487
0.182077 0.110291 0.182077
0.181885 0.110098 0.251925
0.181696 0.109910 0.320576
0.181510 0.109723 0.388315
0.181325 0.109539 0.455319
0.181143 0.109357 0.521710
0.180962 0.109176 0.587573
0.180782 0.108996 0.652976
0.180603 0.108817 0.717969
0.180426 0.108640 0.782595
0.180249 0.108463 0.846886
0.180073 0.108287 0.910871
0.179898 0.108112 0.974574
0.179740 0.107954 1.000000
0.179740 0.107954 1.000000
0.180529 0.180529 0.033739
0.180324 0.180324 0.108538
0.180127 0.180127 0.180127
0.179935 0.179935 0.249976
0.179746 0.179746 0.318626
0.179560 0.179560 0.386365
0.179376 0.179376 0.453369
0.179193 0.179193 0.519760
0.179012 0.179012 0.585624
0.178832 0.178832 0.651026
0.178654 0.178654 0.716020
0.178476 0.178476 0.780645
0.178299 0.178299 0.844936
0.178123 0.178123 0.908921
0.177948 0.177948 0.972625
0.177790 0.177790 1.000000
0.177790 0.177790 1.000000
0.178627 0.248668 0.031837
0.178422 0.248462 0.106635
0.178225 0.248265 0.178225
0.178033 0.248073 0.248073
0.177844 0.247885 0.316724
0.177658 0.247698 0.384463
0.177474 0.247514 0.451467
0.177291 0.247332 0.517858
0.177110 0.247150 0.583721
0.176930 0.246971 0.649124
0.176751 0.246792 0.714117
0.176574 0.246614 0.778743
0.176397 0.246438 0.843034
0.176221 0.246262 0.907019
0.176046 0.246086 0.970722
0.175888 0.245929 1.000000
0.175888 0.245929 1.000000
0.176758 0.315637 0.029967
0.176552 0.315432 0.104766
0.176355 0.315235 0.176355
0.176163 0.315043 0.246204
0.175974 0.314854 0.314854
0.175788 0.314668 0.382593
0.175604 0.314484 0.449597
0.175421 0.314301 0.515988
0.175240 0.314120 0.581852
0.175060 0.313940 0.647255
0.174882 0.313762 0.712248
0.174704 0.313584 0.776873
0.174527 0.313407 0.841164
0.174351 0.313231 0.905149
0.174176 0.313056 0.968853
0.174018 0.312898 1.000000
0.174018 0.312898 1.000000
0.174913 0.381718 0.028123
0.174707 0.381512 0.102921
0.174510 0.381315 0.174510
0.174318 0.381123 0.244359
0.174130 0.380934 0.313009
0.173943 0.380748 0.380748
0.173759 0.380564 0.447753
0.173577 0.380381 0.514143
0.173395 0.380200 0.580007
0.173216 0.380020 0.645410
0.173037 0.379842 0.710403
0.172859 0.379664 0.775028
0.172683 0.379487 0.839319
0.172507 0.379311 0.903304
0.172331 0.379136 0.967008
0.172174 0.378979 1.000000
0.172174 0.378979 1.000000
0.173088 0.447082 0.026298
0.172882 0.446876 0.101096
0.172685 0.446679 0.172685
0.172493 0.446487 0.242534
0.172305 0.446298 0.311184
0.172118 0.446112 0.378923
0.171934 0.445928 0.445928
0.171752 0.445745 0.512318
0.171571 0.445564 0.578182
0.171391 0.445384 0.643585
0.171212 0.445206 0.708578
0.171034 0.445028 0.773203
0.170858 0.444851 0.837494
0.170682 0.444675 0.901480
0.170507 0.444500 0.965183
0.170349 0.444342 1.000000
0.170349 0.444342 1.000000
0.171280 0.511847 0.024490
0.171074 0.511641 0.099288
0.170877 0.511444 0.170877
0.170685 0.511252 0.240726
0.170497 0.511063 0.309376
0.170310 0.510877 0.377115
0.170126 0.510693 0.444120
0.169944 0.510510 0.510510
0.169763 0.510329 0.576374
0.169583 0.510149 0.641777
0.169404 0.509971 0.706770
0.169226 0.509793 0.771395
0.169050 0.509616 0.835686
0.168874 0.509440 0.899672
0.168699 0.509265 0.963375
0.168541 0.509107 1.000000
0.168541 0.509107 1.000000
0.169486 0.576098 0.022696
0.169280 0.575892 0.097494
0.169084 0.575695 0.169084
0.168892 0.575503 0.238932
0.168703 0.575314 0.307583
0.168517 0.575128 0.375321
0.168332 0.574944 0.442326
0.168150 0.574761 0.508717
0.167969 0.574580 0.574580
0.167789 0.574401 0.639983
0.167610 0.574222 0.704976
0.167433 0.574044 0.769602
0.167256 0.573867 0.833893
0.167080 0.573691 0.897878
0.166905 0.573516 0.961581
0.166747 0.573359 1.000000
0.166747 0.573359 1.000000
0.167705 0.639899 0.020915
0.167499 0.639693 0.095713
0.167302 0.639497 0.167302
0.167110 0.639304 0.237151
0.166922 0.639116 0.305801
0.166735 0.638930 0.373540
0.166551 0.638745 0.440545
0.166369 0.638563 0.506935
0.166188 0.638382 0.572799
0.166008 0.638202 0.638202
0.165829 0.638023 0.703195
0.165651 0.637846 0.767820
0.165475 0.637669 0.832111
0.165299 0.637493 0.896097
0.165124 0.637318 0.959800
0.164966 0.637160 1.000000
0.164966 0.637160 1.000000
0.165935 0.703301 0.019145
0.165729 0.703095 0.093943
0.165532 0.702898 0.165532
0.165340 0.702706 0.235381
0.165152 0.702518 0.304031
0.164965 0.702331 0.371770
0.164781 0.702147 0.438775
0.164599 0.701965 0.505165
0.164418 0.701784 0.571029
0.164238 0.701604 0.636432
0.164059 0.701425 0.701425
0.163881 0.701247 0.766050
0.163705 0.701071 0.830341
0.163529 0.700895 0.894327
0.163354 0.700720 0.958030
0.163196 0.700562 1.000000
0.163196 0.700562 1.000000
0.164175 0.766344 0.017385
0.163969 0.766138 0.092183
0.163772 0.765941 0.163772
0.163580 0.765749 0.233621
0.163392 0.765561 0.302271
0.163205 0.765374 0.370010
0.163021 0.765190 0.437015
0.162839 0.765008 0.503405
0.162658 0.764826 0.569269
0.162478 0.764647 0.634672
0.162299 0.764468 0.699665
0.162121 0.764290 0.764290
0.161945 0.764114 0.828581
0.161769 0.763938 0.892567
0.161594 0.763762 0.956270
0.161436 0.763605 1.000000
0.161436 0.763605 1.000000
0.162424 0.829061 0.015634
0.162218 0.828855 0.090432
0.162021 0.828658 0.162021
0.161829 0.828466 0.231870
0.161641 0.828277 0.300520
0.161454 0.828091 0.368259
0.161270 0.827907 0.435264
0.161088 0.827724 0.501654
0.160907 0.827543 0.567518
0.160727 0.827364 0.632921
0.160548 0.827185 0.697914
0.160370 0.827007 0.762539
0.160194 0.826830 0.826830
0.160018 0.826655 0.890816
0.159843 0.826479 0.954519
0.159685 0.826322 1.000000
0.159685 0.826322 1.000000
0.160681 0.891479 0.013891
0.160476 0.891274 0.088690
0.160279 0.891077 0.160279
0.160087 0.890885 0.230127
0.159898 0.890696 0.298778
0.159712 0.890510 0.366517
0.159528 0.890326 0.433521
0.159345 0.890143 0.499912
0.159164 0.889962 0.565776
0.158984 0.889782 0.631178
0.158806 0.889603 0.696172
0.158628 0.889426 0.760797
0.158451 0.889249 0.825088
0.158275 0.889073 0.889073
0.158100 0.888898 0.952777
0.157942 0.888740 1.000000
0.157942 0.888740 1.000000
0.158946 0.953623 0.012156
0.158741 0.953417 0.086955
0.158544 0.953220 0.158544
0.158352 0.953028 0.228393
0.158163 0.952840 0.297043
0.157977 0.952653 0.364782
0.157793 0.952469 0.431786
0.157610 0.952287 0.498177
0.157429 0.952106 0.564041
0.157249 0.951926 0.629443
0.157071 0.951747 0.694437
0.156893 0.951569 0.759062
0.156716 0.951393 0.823353
0.156540 0.951217 0.887338
0.156365 0.951042 0.951042
0.156207 0.950884 1.000000
0.156207 0.950884 1.000000
0.157383 1.000000 0.010593
0.157178 1.000000 0.085391
0.156981 1.000000 0.156981
0.156789 1.000000 0.226829
0.156600 1.000000 0.295480
0.156414 1.000000 0.363219
0.156229 1.000000 0.430223
0.156047 1.000000 0.496614
0.155866 1.000000 0.562477
0.155686 1.000000 0.627880
0.155507 1.000000 0.692873
0.155330 1.000000 0.757499
0.155153 1.000000 0.821790
0.154977 1.000000 0.885775
0.154802 1.000000 0.949478
0.154644 1.000000 1.000000
0.154644 1.000000 1.000000
0.157383 1.000000 0.010593
0.157178 1.000000 0.085391
0.156981 1.000000 0.156981
0.156789 1.000000 0.226829
0.156600 1.000000 0.295480
0.156414 1.000000 0.363219
0.156229 1.000000 0.430223
0.156047 1.000000 0.496614
0.155866 1.000000 0.562477
0.155686 1.000000 0.627880
0.155507 1.000000 0.692873
0.155330 1.000000 0.757499
0.155153 1.000000 0.821790
0.154977 1.000000 0.885775
0.154802 1.000000 0.949478
0.154644 1.000000 1.000000
0.154644 1.000000 1.000000
0.253991 0.037161 0.037161
0.253786 0.036955 0.111959
0.253589 0.036758 0.183548
0.253397 0.036566 0.253397
0.253208 0.036377 0.322047
0.253022 0.036191 0.389786
0.252838 0.036007 0.456791
0.252655 0.035824 0.523181
0.252474 0.035643 0.589045
0.252294 0.035464 0.654448
0.252115 0.035285 0.719441
0.251938 0.035107 0.784066
0.251761 0.034930 0.848357
0.251585 0.034754 0.912342
0.251410 0.034579 0.976046
0.251252 0.034422 1.000000
0.251252 0.034422 1.000000
0.251954 0.110128 0.035124
