skills/appstore-creatives-orchestrator/assets/grade/luts/clean_bright_v16.cube
TITLE "clean_bright_v16"
LUT_3D_SIZE 5
DOMAIN_MIN 0.0 0.0 0.0
DOMAIN_MAX 1.0 1.0 1.0
0.038911 0.038911 0.038911
0.038128 0.038128 0.323798
0.037394 0.037394 0.590796
0.036681 0.036681 0.850108
0.036172 0.036172 1.000000
0.031153 0.316822 0.031153
0.030369 0.316039 0.316039
0.029635 0.315305 0.583037
0.028922 0.314592 0.842349
0.028413 0.314083 1.000000
0.023881 0.577283 0.023881
0.023098 0.576499 0.308768
0.022364 0.575765 0.575765
0.021651 0.575052 0.835078
0.021142 0.574544 1.000000
0.016819 0.830246 0.016819
0.016036 0.829463 0.301706
0.015302 0.828728 0.568703
0.014589 0.828016 0.828016
0.014080 0.827507 1.000000
0.011778 1.000000 0.011778
0.010995 1.000000 0.296665
0.010261 1.000000 0.563662
0.009548 1.000000 0.822975
0.009039 1.000000 1.000000
0.322275 0.036605 0.036605
0.321491 0.035822 0.321491
0.320757 0.035088 0.588489
0.320044 0.034375 0.847801
0.319536 0.033866 1.000000
0.314516 0.314516 0.028846
0.313733 0.313733 0.313733
0.312999 0.312999 0.580731
0.312286 0.312286 0.840043
0.311777 0.311777 1.000000
0.307245 0.574976 0.021575
0.306461 0.574193 0.306461
0.305727 0.573459 0.573459
0.305014 0.572746 0.832771
0.304506 0.572237 1.000000
0.300182 0.827939 0.014513
0.299399 0.827156 0.299399
0.298665 0.826422 0.566397
0.297952 0.825709 0.825709
0.297443 0.825200 1.000000
0.295142 1.000000 0.009472
0.294358 1.000000 0.294358
0.293624 1.000000 0.561356
0.292911 1.000000 0.820668
0.292403 1.000000 1.000000
0.587845 0.034443 0.034443
0.587062 0.033660 0.319330
0.586328 0.032926 0.586328
0.585615 0.032213 0.845640
0.585106 0.031704 1.000000
0.580086 0.312355 0.026685
0.579303 0.311571 0.311571
0.578569 0.310837 0.578569
0.577856 0.310124 0.837881
0.577347 0.309615 1.000000
0.572815 0.572815 0.019413
0.572032 0.572032 0.304300
0.571298 0.571298 0.571298
0.570585 0.570585 0.830610
0.570076 0.570076 1.000000
0.565753 0.825778 0.012351
0.564969 0.824995 0.297238
0.564235 0.824261 0.564235
0.563522 0.823548 0.823548
0.563014 0.823039 1.000000
0.560712 1.000000 0.007310
0.559929 1.000000 0.292197
0.559195 1.000000 0.559195
0.558482 1.000000 0.818507
0.557973 1.000000 1.000000
0.845771 0.032344 0.032344
0.844988 0.031561 0.317231
0.844254 0.030827 0.584228
0.843541 0.030114 0.843541
0.843032 0.029605 1.000000
0.838012 0.310255 0.024585
0.837229 0.309472 0.309472
0.836495 0.308738 0.576470
0.835782 0.308025 0.835782
0.835273 0.307516 1.000000
0.830741 0.570716 0.017314
0.829958 0.569932 0.302201
0.829223 0.569198 0.569198
0.828511 0.568485 0.828511
0.828002 0.567976 1.000000
0.823679 0.823679 0.010252
0.822895 0.822895 0.295138
0.822161 0.822161 0.562136
0.821448 0.821448 0.821448
0.820940 0.820940 1.000000
0.818638 1.000000 0.005211
0.817855 1.000000 0.290098
0.817121 1.000000 0.557095
0.816408 1.000000 0.816408
0.815899 1.000000 1.000000
1.000000 0.030846 0.030846
1.000000 0.030062 0.315732
1.000000 0.029328 0.582730
1.000000 0.028615 0.842042
1.000000 0.028107 1.000000
1.000000 0.308757 0.023087
1.000000 0.307974 0.307974
1.000000 0.307240 0.574971
1.000000 0.306527 0.834284
1.000000 0.306018 1.000000
1.000000 0.569217 0.015816
1.000000 0.568434 0.300702
1.000000 0.567700 0.567700
1.000000 0.566987 0.827012
1.000000 0.566478 1.000000
1.000000 0.822180 0.008753
1.000000 0.821397 0.293640
1.000000 0.820663 0.560638
1.000000 0.819950 0.819950
1.000000 0.819441 1.000000
1.000000 1.000000 0.003713
1.000000 1.000000 0.288599
1.000000 1.000000 0.555597
1.000000 1.000000 0.814909
1.000000 1.000000 1.000000
