skills/appstore-creatives-orchestrator/assets/grade/luts/cool_tech_v17.cube
TITLE "cool_tech_v17"
LUT_3D_SIZE 17
DOMAIN_MIN 0.0 0.0 0.0
DOMAIN_MAX 1.0 1.0 1.0
0.000165 0.000165 0.030330
0.000472 0.000472 0.086661
0.000787 0.000787 0.144375
0.001106 0.001106 0.202909
0.001428 0.001428 0.262031
0.001752 0.001752 0.321616
0.002079 0.002079 0.381580
0.002408 0.002408 0.441869
0.002738 0.002738 0.502440
0.003069 0.003069 0.563262
0.003402 0.003402 0.624308
0.003735 0.003735 0.685559
0.004070 0.004070 0.746997
0.004406 0.004406 0.808607
0.004742 0.004742 0.870378
0.005080 0.005080 0.932299
0.005092 0.005092 0.934566
0.002300 0.041633 0.032465
0.002607 0.041940 0.088795
0.002921 0.042254 0.146510
0.003240 0.042573 0.205043
0.003562 0.042895 0.264166
0.003887 0.043220 0.323750
0.004214 0.043546 0.383715
0.004542 0.043875 0.444004
0.004872 0.044205 0.504575
0.005203 0.044536 0.565396
0.005536 0.044869 0.626442
0.005870 0.045203 0.687693
0.006205 0.045537 0.749131
0.006540 0.045873 0.810742
0.006877 0.046210 0.872513
0.007214 0.046547 0.934434
0.007227 0.046559 0.936700
0.005357 0.101019 0.035521
0.005664 0.101326 0.091852
0.005978 0.101641 0.149567
0.006297 0.101960 0.208100
0.006619 0.102282 0.267223
0.006944 0.102606 0.326807
0.007270 0.102933 0.386772
0.007599 0.103262 0.447061
0.007929 0.103592 0.507632
0.008260 0.103923 0.568453
0.008593 0.104256 0.629499
0.008927 0.104589 0.690750
0.009261 0.104924 0.752188
0.009597 0.105260 0.813799
0.009934 0.105596 0.875570
0.010271 0.105934 0.937491
0.010283 0.105946 0.939757
0.008480 0.161703 0.038645
0.008787 0.162010 0.094976
0.009102 0.162324 0.152690
0.009421 0.162643 0.211224
0.009743 0.162965 0.270347
0.010067 0.163290 0.329931
0.010394 0.163617 0.389895
0.010723 0.163945 0.450184
0.011053 0.164275 0.510755
0.011384 0.164606 0.571577
0.011717 0.164939 0.632623
0.012050 0.165273 0.693874
0.012385 0.165608 0.755312
0.012721 0.165943 0.816922
0.013057 0.166280 0.878693
0.013395 0.166617 0.940614
0.013407 0.166630 0.942881
0.011645 0.223192 0.041810
0.011952 0.223499 0.098141
0.012267 0.223813 0.155856
0.012586 0.224132 0.214389
0.012908 0.224454 0.273512
0.013232 0.224779 0.333096
0.013559 0.225106 0.393061
0.013888 0.225434 0.453349
0.014218 0.225764 0.513920
0.014549 0.226096 0.574742
0.014882 0.226428 0.635788
0.015215 0.226762 0.697039
0.015550 0.227097 0.758477
0.015886 0.227432 0.820087
0.016222 0.227769 0.881858
0.016560 0.228106 0.943779
0.016572 0.228119 0.946046
0.014841 0.285271 0.045006
0.015148 0.285578 0.101336
0.015462 0.285893 0.159051
0.015781 0.286212 0.217585
0.016103 0.286534 0.276707
0.016428 0.286858 0.336291
0.016755 0.287185 0.396256
0.017083 0.287514 0.456545
0.017413 0.287844 0.517116
0.017745 0.288175 0.577937
0.018077 0.288508 0.638984
0.018411 0.288841 0.700234
0.018746 0.289176 0.761672
0.019081 0.289512 0.823283
0.019418 0.289848 0.885054
0.019755 0.290186 0.946975
0.019768 0.290198 0.949241
0.018060 0.347818 0.048225
0.018367 0.348125 0.104556
0.018682 0.348439 0.162271
0.019001 0.348758 0.220804
0.019323 0.349081 0.279927
0.019648 0.349405 0.339511
0.019974 0.349732 0.399476
0.020303 0.350060 0.459764
0.020633 0.350390 0.520335
0.020964 0.350722 0.581157
0.021297 0.351054 0.642203
0.021630 0.351388 0.703454
0.021965 0.351723 0.764892
0.022301 0.352059 0.826502
0.022637 0.352395 0.888273
0.022975 0.352732 0.950194
0.022987 0.352745 0.952461
0.021300 0.410753 0.051465
0.021607 0.411060 0.107795
0.021921 0.411374 0.165510
0.022240 0.411693 0.224044
0.022562 0.412015 0.283166
0.022887 0.412340 0.342750
0.023214 0.412666 0.402715
0.023542 0.412995 0.463004
0.023872 0.413325 0.523575
0.024204 0.413656 0.584396
0.024536 0.413989 0.645443
0.024870 0.414323 0.706693
0.025205 0.414657 0.768131
0.025540 0.414993 0.829742
0.025877 0.415330 0.891513
0.026214 0.415667 0.953434
0.026227 0.415679 0.955700
0.024557 0.474019 0.054721
0.024863 0.474326 0.111052
0.025178 0.474640 0.168767
0.025497 0.474959 0.227300
0.025819 0.475281 0.286423
0.026144 0.475606 0.346007
0.026470 0.475933 0.405972
0.026799 0.476261 0.466260
0.027129 0.476591 0.526832
0.027460 0.476922 0.587653
0.027793 0.477255 0.648699
0.028127 0.477589 0.709950
0.028461 0.477923 0.771388
0.028797 0.478259 0.832998
0.029134 0.478596 0.894770
0.029471 0.478933 0.956690
0.029483 0.478945 0.958957
0.027828 0.537575 0.057993
0.028135 0.537882 0.114323
0.028449 0.538196 0.172038
0.028768 0.538515 0.230572
0.029090 0.538837 0.289694
0.029415 0.539162 0.349279
0.029742 0.539488 0.409243
0.030070 0.539817 0.469532
0.030400 0.540147 0.530103
0.030732 0.540478 0.590924
0.031064 0.540811 0.651971
0.031398 0.541145 0.713221
0.031733 0.541479 0.774659
0.032069 0.541815 0.836270
0.032405 0.542152 0.898041
0.032742 0.542489 0.959962
0.032755 0.542501 0.962228
0.031113 0.601388 0.061278
0.031420 0.601695 0.117608
0.031734 0.602010 0.175323
0.032053 0.602329 0.233857
0.032375 0.602651 0.292979
0.032700 0.602975 0.352563
0.033027 0.603302 0.412528
0.033355 0.603631 0.472817
0.033685 0.603961 0.533388
0.034016 0.604292 0.594209
0.034349 0.604625 0.655256
0.034683 0.604958 0.716506
0.035018 0.605293 0.777944
0.035353 0.605629 0.839555
0.035690 0.605965 0.901326
0.036027 0.606303 0.963247
0.036040 0.606315 0.965513
0.034410 0.665434 0.064574
0.034716 0.665741 0.120905
0.035031 0.666055 0.178620
0.035350 0.666374 0.237153
0.035672 0.666696 0.296276
0.035997 0.667021 0.355860
0.036323 0.667348 0.415825
0.036652 0.667676 0.476113
0.036982 0.668006 0.536684
0.037313 0.668337 0.597506
0.037646 0.668670 0.658552
0.037980 0.669004 0.719803
0.038314 0.669339 0.781241
0.038650 0.669674 0.842851
0.038987 0.670011 0.904623
0.039324 0.670348 0.966543
0.039336 0.670361 0.968810
0.037717 0.729690 0.067882
0.038024 0.729997 0.124212
0.038338 0.730312 0.181927
0.038657 0.730631 0.240461
0.038979 0.730953 0.299583
0.039304 0.731277 0.359168
0.039631 0.731604 0.419132
0.039959 0.731933 0.479421
0.040289 0.732263 0.539992
0.040621 0.732594 0.600813
0.040953 0.732927 0.661860
0.041287 0.733260 0.723110
0.041622 0.733595 0.784548
0.041958 0.733931 0.846159
0.042294 0.734267 0.907930
0.042631 0.734605 0.969851
0.042644 0.734617 0.972117
0.041035 0.794141 0.071199
0.041342 0.794447 0.127530
0.041656 0.794762 0.185245
0.041975 0.795081 0.243778
0.042297 0.795403 0.302901
0.042622 0.795728 0.362485
0.042948 0.796054 0.422450
0.043277 0.796383 0.482739
0.043607 0.796713 0.543310
0.043938 0.797044 0.604131
0.044271 0.797377 0.665177
0.044605 0.797711 0.726428
0.044939 0.798045 0.787866
0.045275 0.798381 0.849477
0.045612 0.798718 0.911248
0.045949 0.799055 0.973169
0.045961 0.799067 0.975435
0.044361 0.858770 0.074526
0.044668 0.859076 0.130857
0.044983 0.859391 0.188571
0.045302 0.859710 0.247105
0.045624 0.860032 0.306228
0.045948 0.860357 0.365812
0.046275 0.860683 0.425777
0.046604 0.861012 0.486065
0.046934 0.861342 0.546636
0.047265 0.861673 0.607458
0.047598 0.862006 0.668504
0.047931 0.862340 0.729755
0.048266 0.862674 0.791193
0.048602 0.863010 0.852803
0.048938 0.863347 0.914574
0.049276 0.863684 0.976495
0.049288 0.863696 0.978762
0.047697 0.923565 0.077861
0.048004 0.923872 0.134192
0.048318 0.924186 0.191907
0.048637 0.924505 0.250440
0.048959 0.924827 0.309563
0.049284 0.925152 0.369147
0.049610 0.925479 0.429112
0.049939 0.925807 0.489401
0.050269 0.926137 0.549972
0.050600 0.926469 0.610793
0.050933 0.926801 0.671839
0.051267 0.927135 0.733090
0.051601 0.927470 0.794528
0.051937 0.927805 0.856139
0.052274 0.928142 0.917910
0.052611 0.928479 0.979831
0.052623 0.928492 0.982097
0.050606 0.980079 0.080770
0.050913 0.980386 0.137101
0.051227 0.980701 0.194816
0.051546 0.981020 0.253349
0.051868 0.981342 0.312472
0.052193 0.981666 0.372056
0.052519 0.981993 0.432021
0.052848 0.982322 0.492310
0.053178 0.982652 0.552881
0.053509 0.982983 0.613702
0.053842 0.983316 0.674748
0.054176 0.983649 0.735999
0.054510 0.983984 0.797437
0.054846 0.984320 0.859048
0.055183 0.984656 0.920819
0.055520 0.984994 0.982740
0.055532 0.985006 0.985006
0.000165 0.000165 0.030330
0.000472 0.000472 0.086661
0.000787 0.000787 0.144375
0.001106 0.001106 0.202909
0.001428 0.001428 0.262031
0.001752 0.001752 0.321616
0.002079 0.002079 0.381580
0.002408 0.002408 0.441869
0.002738 0.002738 0.502440
0.003069 0.003069 0.563262
0.003402 0.003402 0.624308
0.003735 0.003735 0.685559
0.004070 0.004070 0.746997
0.004406 0.004406 0.808607
0.004742 0.004742 0.870378
0.005080 0.005080 0.932299
0.005092 0.005092 0.934566
0.002300 0.041633 0.032465
0.002607 0.041940 0.088795
0.002921 0.042254 0.146510
0.003240 0.042573 0.205043
0.003562 0.042895 0.264166
0.003887 0.043220 0.323750
0.004214 0.043546 0.383715
0.004542 0.043875 0.444004
0.004872 0.044205 0.504575
0.005203 0.044536 0.565396
0.005536 0.044869 0.626442
0.005870 0.045203 0.687693
0.006205 0.045537 0.749131
0.006540 0.045873 0.810742
0.006877 0.046210 0.872513
0.007214 0.046547 0.934434
0.007227 0.046559 0.936700
0.005357 0.101019 0.035521
0.005664 0.101326 0.091852
0.005978 0.101641 0.149567
0.006297 0.101960 0.208100
0.006619 0.102282 0.267223
0.006944 0.102606 0.326807
0.007270 0.102933 0.386772
0.007599 0.103262 0.447061
0.007929 0.103592 0.507632
0.008260 0.103923 0.568453
0.008593 0.104256 0.629499
0.008927 0.104589 0.690750
0.009261 0.104924 0.752188
0.009597 0.105260 0.813799
0.009934 0.105596 0.875570
0.010271 0.105934 0.937491
0.010283 0.105946 0.939757
0.008480 0.161703 0.038645
0.008787 0.162010 0.094976
0.009102 0.162324 0.152690
0.009421 0.162643 0.211224
0.009743 0.162965 0.270347
0.010067 0.163290 0.329931
0.010394 0.163617 0.389895
0.010723 0.163945 0.450184
0.011053 0.164275 0.510755
0.011384 0.164606 0.571577
0.011717 0.164939 0.632623
0.012050 0.165273 0.693874
0.012385 0.165608 0.755312
0.012721 0.165943 0.816922
0.013057 0.166280 0.878693
0.013395 0.166617 0.940614
0.013407 0.166630 0.942881
0.011645 0.223192 0.041810
0.011952 0.223499 0.098141
0.012267 0.223813 0.155856
0.012586 0.224132 0.214389
0.012908 0.224454 0.273512
0.013232 0.224779 0.333096
0.013559 0.225106 0.393061
0.013888 0.225434 0.453349
0.014218 0.225764 0.513920
0.014549 0.226096 0.574742
0.014882 0.226428 0.635788
0.015215 0.226762 0.697039
0.015550 0.227097 0.758477
0.015886 0.227432 0.820087
0.016222 0.227769 0.881858
0.016560 0.228106 0.943779
0.016572 0.228119 0.946046
0.014841 0.285271 0.045006
0.015148 0.285578 0.101336
0.015462 0.285893 0.159051
0.015781 0.286212 0.217585
0.016103 0.286534 0.276707
0.016428 0.286858 0.336291
0.016755 0.287185 0.396256
0.017083 0.287514 0.456545
0.017413 0.287844 0.517116
0.017745 0.288175 0.577937
0.018077 0.288508 0.638984
0.018411 0.288841 0.700234
0.018746 0.289176 0.761672
0.019081 0.289512 0.823283
0.019418 0.289848 0.885054
0.019755 0.290186 0.946975
0.019768 0.290198 0.949241
0.018060 0.347818 0.048225
0.018367 0.348125 0.104556
0.018682 0.348439 0.162271
0.019001 0.348758 0.220804
0.019323 0.349081 0.279927
0.019648 0.349405 0.339511
0.019974 0.349732 0.399476
0.020303 0.350060 0.459764
0.020633 0.350390 0.520335
0.020964 0.350722 0.581157
0.021297 0.351054 0.642203
0.021630 0.351388 0.703454
0.021965 0.351723 0.764892
0.022301 0.352059 0.826502
0.022637 0.352395 0.888273
0.022975 0.352732 0.950194
0.022987 0.352745 0.952461
0.021300 0.410753 0.051465
0.021607 0.411060 0.107795
0.021921 0.411374 0.165510
0.022240 0.411693 0.224044
0.022562 0.412015 0.283166
0.022887 0.412340 0.342750
0.023214 0.412666 0.402715
0.023542 0.412995 0.463004
0.023872 0.413325 0.523575
0.024204 0.413656 0.584396
0.024536 0.413989 0.645443
0.024870 0.414323 0.706693
0.025205 0.414657 0.768131
0.025540 0.414993 0.829742
0.025877 0.415330 0.891513
0.026214 0.415667 0.953434
0.026227 0.415679 0.955700
0.024557 0.474019 0.054721
0.024863 0.474326 0.111052
0.025178 0.474640 0.168767
0.025497 0.474959 0.227300
0.025819 0.475281 0.286423
0.026144 0.475606 0.346007
0.026470 0.475933 0.405972
0.026799 0.476261 0.466260
0.027129 0.476591 0.526832
0.027460 0.476922 0.587653
0.027793 0.477255 0.648699
0.028127 0.477589 0.709950
0.028461 0.477923 0.771388
0.028797 0.478259 0.832998
0.029134 0.478596 0.894770
0.029471 0.478933 0.956690
0.029483 0.478945 0.958957
0.027828 0.537575 0.057993
0.028135 0.537882 0.114323
0.028449 0.538196 0.172038
0.028768 0.538515 0.230572
0.029090 0.538837 0.289694
0.029415 0.539162 0.349279
0.029742 0.539488 0.409243
0.030070 0.539817 0.469532
0.030400 0.540147 0.530103
0.030732 0.540478 0.590924
0.031064 0.540811 0.651971
0.031398 0.541145 0.713221
0.031733 0.541479 0.774659
0.032069 0.541815 0.836270
0.032405 0.542152 0.898041
0.032742 0.542489 0.959962
0.032755 0.542501 0.962228
0.031113 0.601388 0.061278
0.031420 0.601695 0.117608
0.031734 0.602010 0.175323
0.032053 0.602329 0.233857
0.032375 0.602651 0.292979
0.032700 0.602975 0.352563
0.033027 0.603302 0.412528
0.033355 0.603631 0.472817
0.033685 0.603961 0.533388
0.034016 0.604292 0.594209
0.034349 0.604625 0.655256
0.034683 0.604958 0.716506
0.035018 0.605293 0.777944
0.035353 0.605629 0.839555
0.035690 0.605965 0.901326
0.036027 0.606303 0.963247
0.036040 0.606315 0.965513
0.034410 0.665434 0.064574
0.034716 0.665741 0.120905
0.035031 0.666055 0.178620
0.035350 0.666374 0.237153
0.035672 0.666696 0.296276
0.035997 0.667021 0.355860
0.036323 0.667348 0.415825
0.036652 0.667676 0.476113
0.036982 0.668006 0.536684
0.037313 0.668337 0.597506
0.037646 0.668670 0.658552
0.037980 0.669004 0.719803
0.038314 0.669339 0.781241
0.038650 0.669674 0.842851
0.038987 0.670011 0.904623
0.039324 0.670348 0.966543
0.039336 0.670361 0.968810
0.037717 0.729690 0.067882
0.038024 0.729997 0.124212
0.038338 0.730312 0.181927
0.038657 0.730631 0.240461
0.038979 0.730953 0.299583
0.039304 0.731277 0.359168
0.039631 0.731604 0.419132
0.039959 0.731933 0.479421
0.040289 0.732263 0.539992
0.040621 0.732594 0.600813
0.040953 0.732927 0.661860
0.041287 0.733260 0.723110
0.041622 0.733595 0.784548
0.041958 0.733931 0.846159
0.042294 0.734267 0.907930
0.042631 0.734605 0.969851
0.042644 0.734617 0.972117
0.041035 0.794141 0.071199
0.041342 0.794447 0.127530
0.041656 0.794762 0.185245
0.041975 0.795081 0.243778
0.042297 0.795403 0.302901
0.042622 0.795728 0.362485
0.042948 0.796054 0.422450
0.043277 0.796383 0.482739
0.043607 0.796713 0.543310
0.043938 0.797044 0.604131
0.044271 0.797377 0.665177
0.044605 0.797711 0.726428
0.044939 0.798045 0.787866
0.045275 0.798381 0.849477
0.045612 0.798718 0.911248
0.045949 0.799055 0.973169
0.045961 0.799067 0.975435
0.044361 0.858770 0.074526
0.044668 0.859076 0.130857
0.044983 0.859391 0.188571
0.045302 0.859710 0.247105
0.045624 0.860032 0.306228
0.045948 0.860357 0.365812
0.046275 0.860683 0.425777
0.046604 0.861012 0.486065
0.046934 0.861342 0.546636
0.047265 0.861673 0.607458
0.047598 0.862006 0.668504
0.047931 0.862340 0.729755
0.048266 0.862674 0.791193
0.048602 0.863010 0.852803
0.048938 0.863347 0.914574
0.049276 0.863684 0.976495
0.049288 0.863696 0.978762
0.047697 0.923565 0.077861
0.048004 0.923872 0.134192
0.048318 0.924186 0.191907
0.048637 0.924505 0.250440
0.048959 0.924827 0.309563
0.049284 0.925152 0.369147
0.049610 0.925479 0.429112
0.049939 0.925807 0.489401
0.050269 0.926137 0.549972
0.050600 0.926469 0.610793
0.050933 0.926801 0.671839
0.051267 0.927135 0.733090
0.051601 0.927470 0.794528
0.051937 0.927805 0.856139
0.052274 0.928142 0.917910
0.052611 0.928479 0.979831
0.052623 0.928492 0.982097
0.050606 0.980079 0.080770
0.050913 0.980386 0.137101
0.051227 0.980701 0.194816
0.051546 0.981020 0.253349
0.051868 0.981342 0.312472
0.052193 0.981666 0.372056
0.052519 0.981993 0.432021
0.052848 0.982322 0.492310
0.053178 0.982652 0.552881
0.053509 0.982983 0.613702
0.053842 0.983316 0.674748
0.054176 0.983649 0.735999
0.054510 0.983984 0.797437
0.054846 0.984320 0.859048
0.055183 0.984656 0.920819
0.055520 0.984994 0.982740
0.055532 0.985006 0.985006
0.049524 0.000949 0.031114
0.049831 0.001256 0.087444
0.050145 0.001570 0.145159
0.050464 0.001889 0.203693
0.050786 0.002211 0.262815
0.051111 0.002536 0.322399
0.051438 0.002863 0.382364
0.051766 0.003191 0.442653
0.052096 0.003521 0.503224
0.052427 0.003853 0.564045
0.052760 0.004185 0.625092
0.053094 0.004519 0.686342
0.053429 0.004854 0.747780
0.053764 0.005189 0.809391
0.054101 0.005526 0.871162
0.054438 0.005863 0.933083
0.054450 0.005876 0.935349
0.051658 0.042416 0.033248
0.051965 0.042723 0.089579
0.052280 0.043038 0.147294
0.052599 0.043356 0.205827
0.052921 0.043679 0.264950
0.053245 0.044003 0.324534
0.053572 0.044330 0.384499
0.053901 0.044658 0.444787
0.054231 0.044988 0.505358
0.054562 0.045320 0.566180
0.054895 0.045652 0.627226
0.055228 0.045986 0.688477
0.055563 0.046321 0.749915
0.055899 0.046657 0.811525
0.056235 0.046993 0.873296
0.056573 0.047331 0.935217
0.056585 0.047343 0.937484
0.054715 0.101803 0.036305
0.055022 0.102110 0.092636
0.055337 0.102424 0.150350
0.055655 0.102743 0.208884
0.055978 0.103065 0.268006
0.056302 0.103390 0.327591
0.056629 0.103717 0.387555
0.056957 0.104045 0.447844
0.057287 0.104375 0.508415
0.057619 0.104707 0.569237
0.057951 0.105039 0.630283
0.058285 0.105373 0.691534
0.058620 0.105708 0.752971
0.058956 0.106043 0.814582
0.059292 0.106380 0.876353
0.059630 0.106717 0.938274
0.059642 0.106730 0.940541
0.057839 0.162486 0.039429
0.058146 0.162793 0.095759
0.058460 0.163108 0.153474
0.058779 0.163427 0.212008
0.059101 0.163749 0.271130
0.059426 0.164073 0.330714
0.059753 0.164400 0.390679
0.060081 0.164729 0.450968
0.060411 0.165059 0.511539
0.060742 0.165390 0.572360
0.061075 0.165723 0.633407
0.061409 0.166056 0.694657
0.061744 0.166391 0.756095
0.062079 0.166727 0.817706
0.062416 0.167063 0.879477
0.062753 0.167401 0.941398
0.062766 0.167413 0.943664
0.061004 0.223975 0.042594
0.061311 0.224282 0.098924
0.061625 0.224597 0.156639
0.061944 0.224916 0.215173
0.062266 0.225238 0.274295
0.062591 0.225563 0.333879
0.062918 0.225889 0.393844
0.063246 0.226218 0.454133
0.063576 0.226548 0.514704
0.063908 0.226879 0.575525
0.064240 0.227212 0.636572
0.064574 0.227545 0.697822
0.064909 0.227880 0.759260
0.065244 0.228216 0.820871
0.065581 0.228552 0.882642
0.065918 0.228890 0.944563
0.065931 0.228902 0.946829
0.064199 0.286055 0.045789
0.064506 0.286362 0.102120
0.064821 0.286676 0.159835
0.065140 0.286995 0.218368
0.065462 0.287317 0.277491
0.065786 0.287642 0.337075
0.066113 0.287969 0.397040
0.066442 0.288297 0.457328
0.066772 0.288627 0.517899
0.067103 0.288959 0.578721
0.067436 0.289291 0.639767
0.067769 0.289625 0.701018
0.068104 0.289960 0.762456
0.068440 0.290295 0.824066
0.068776 0.290632 0.885838
0.069114 0.290969 0.947758
0.069126 0.290982 0.950025
0.067419 0.348602 0.049009
0.067726 0.348909 0.105339
0.068040 0.349223 0.163054
0.068359 0.349542 0.221588
0.068681 0.349864 0.280710
0.069006 0.350189 0.340295
0.069333 0.350515 0.400259
0.069661 0.350844 0.460548
0.069991 0.351174 0.521119
0.070323 0.351505 0.581940
0.070655 0.351838 0.642987
0.070989 0.352172 0.704237
0.071324 0.352506 0.765675
0.071659 0.352842 0.827286
0.071996 0.353179 0.889057
0.072333 0.353516 0.950978
0.072346 0.353528 0.953244
0.070658 0.411536 0.052248
0.070965 0.411843 0.108579
0.071280 0.412158 0.166294
0.071599 0.412477 0.224827
0.071921 0.412799 0.283950
0.072246 0.413123 0.343534
0.072572 0.413450 0.403499
0.072901 0.413778 0.463787
0.073231 0.414109 0.524359
0.073562 0.414440 0.585180
0.073895 0.414773 0.646226
0.074228 0.415106 0.707477
0.074563 0.415441 0.768915
0.074899 0.415777 0.830525
0.075235 0.416113 0.892297
0.075573 0.416451 0.954218
0.075585 0.416463 0.956484
0.073915 0.474802 0.055505
0.074222 0.475109 0.111836
0.074536 0.475424 0.169550
0.074855 0.475743 0.228084
0.075177 0.476065 0.287206
0.075502 0.476389 0.346791
0.075829 0.476716 0.406755
0.076157 0.477045 0.467044
0.076487 0.477375 0.527615
0.076819 0.477706 0.588437
0.077151 0.478039 0.649483
0.077485 0.478372 0.710734
0.077820 0.478707 0.772171
0.078155 0.479043 0.833782
0.078492 0.479379 0.895553
0.078829 0.479717 0.957474
0.078842 0.479729 0.959741
0.077187 0.538358 0.058776
0.077493 0.538665 0.115107
0.077808 0.538980 0.172822
0.078127 0.539299 0.231355
0.078449 0.539621 0.290478
0.078774 0.539945 0.350062
0.079100 0.540272 0.410027
0.079429 0.540601 0.470316
0.079759 0.540931 0.530887
0.080090 0.541262 0.591708
0.080423 0.541595 0.652754
0.080757 0.541928 0.714005
0.081091 0.542263 0.775443
0.081427 0.542599 0.837054
0.081764 0.542935 0.898825
0.082101 0.543273 0.960746
0.082113 0.543285 0.963012
0.080471 0.602172 0.062061
0.080778 0.602479 0.118392
0.081093 0.602793 0.176107
0.081412 0.603112 0.234640
0.081734 0.603434 0.293763
0.082058 0.603759 0.353347
0.082385 0.604086 0.413312
0.082714 0.604414 0.473600
0.083044 0.604744 0.534171
0.083375 0.605076 0.594993
0.083708 0.605408 0.656039
0.084041 0.605742 0.717290
0.084376 0.606077 0.778728
0.084712 0.606412 0.840338
0.085048 0.606749 0.902109
0.085386 0.607086 0.964030
0.085398 0.607099 0.966297
0.083768 0.666217 0.065358
0.084075 0.666524 0.121689
0.084389 0.666839 0.179403
0.084708 0.667158 0.237937
0.085030 0.667480 0.297059
0.085355 0.667804 0.356644
0.085682 0.668131 0.416608
0.086010 0.668460 0.476897
0.086340 0.668790 0.537468
0.086672 0.669121 0.598289
0.087004 0.669454 0.659336
0.087338 0.669787 0.720586
0.087673 0.670122 0.782024
0.088008 0.670458 0.843635
0.088345 0.670794 0.905406
0.088682 0.671132 0.967327
0.088695 0.671144 0.969594
0.087076 0.730474 0.068665
0.087382 0.730781 0.124996
0.087697 0.731095 0.182711
0.088016 0.731414 0.241244
0.088338 0.731736 0.300367
0.088663 0.732061 0.359951
0.088989 0.732388 0.419916
0.089318 0.732716 0.480205
0.089648 0.733046 0.540776
0.089979 0.733378 0.601597
0.090312 0.733710 0.662643
0.090646 0.734044 0.723894
0.090980 0.734379 0.785332
0.091316 0.734714 0.846943
0.091653 0.735051 0.908714
0.091990 0.735388 0.970635
0.092002 0.735401 0.972901
0.090393 0.794924 0.071983
0.090700 0.795231 0.128314
0.091014 0.795545 0.186028
0.091333 0.795864 0.244562
0.091656 0.796187 0.303684
0.091980 0.796511 0.363269
0.092307 0.796838 0.423233
0.092635 0.797166 0.483522
0.092965 0.797496 0.544093
0.093297 0.797828 0.604915
0.093629 0.798160 0.665961
0.093963 0.798494 0.727212
0.094298 0.798829 0.788649
0.094634 0.799165 0.850260
0.094970 0.799501 0.912031
0.095307 0.799839 0.973952
0.095320 0.799851 0.976219
0.093720 0.859553 0.075310
0.094027 0.859860 0.131640
0.094341 0.860175 0.189355
0.094660 0.860493 0.247889
0.094982 0.860816 0.307011
0.095307 0.861140 0.366595
0.095634 0.861467 0.426560
0.095962 0.861795 0.486849
0.096292 0.862125 0.547420
0.096623 0.862457 0.608241
0.096956 0.862789 0.669288
0.097290 0.863123 0.730538
0.097625 0.863458 0.791976
0.097960 0.863794 0.853587
0.098297 0.864130 0.915358
0.098634 0.864468 0.977279
0.098647 0.864480 0.979545
0.097055 0.924348 0.078645
0.097362 0.924655 0.134976
0.097676 0.924970 0.192690
0.097995 0.925289 0.251224
0.098318 0.925611 0.310346
0.098642 0.925936 0.369931
0.098969 0.926262 0.429895
0.099297 0.926591 0.490184
0.099627 0.926921 0.550755
0.099959 0.927252 0.611577
0.100291 0.927585 0.672623
0.100625 0.927919 0.733874
0.100960 0.928253 0.795311
0.101296 0.928589 0.856922
0.101632 0.928925 0.918693
0.101970 0.929263 0.980614
0.101982 0.929275 0.982881
0.099964 0.980863 0.081554
0.100271 0.981170 0.137885
0.100586 0.981484 0.195599
0.100904 0.981803 0.254133
0.101227 0.982125 0.313256
0.101551 0.982450 0.372840
0.101878 0.982777 0.432804
0.102206 0.983105 0.493093
0.102536 0.983435 0.553664
0.102868 0.983767 0.614486
0.103200 0.984099 0.675532
0.103534 0.984433 0.736783
0.103869 0.984768 0.798221
0.104205 0.985103 0.859831
0.104541 0.985440 0.921602
0.104879 0.985777 0.983523
0.104891 0.985790 0.985790
0.107031 0.001862 0.032027
0.107338 0.002169 0.088357
0.107652 0.002483 0.146072
0.107971 0.002802 0.204606
0.108293 0.003124 0.263728
0.108618 0.003449 0.323312
0.108945 0.003776 0.383277
0.109273 0.004104 0.443566
0.109603 0.004434 0.504137
0.109934 0.004765 0.564958
0.110267 0.005098 0.626005
0.110601 0.005432 0.687255
0.110936 0.005767 0.748693
0.111271 0.006102 0.810304
0.111608 0.006439 0.872075
0.111945 0.006776 0.933996
0.111958 0.006789 0.936262
0.109165 0.043329 0.034161
