skills/appstore-creatives-orchestrator/assets/grade/luts/cool_tech_v17.cube
TITLE "cool_tech_v17"
LUT_3D_SIZE 9
DOMAIN_MIN 0.0 0.0 0.0
DOMAIN_MAX 1.0 1.0 1.0
0.000165 0.000165 0.030330
0.000787 0.000787 0.144375
0.001428 0.001428 0.262031
0.002079 0.002079 0.381580
0.002738 0.002738 0.502440
0.003402 0.003402 0.624308
0.004070 0.004070 0.746997
0.004742 0.004742 0.870378
0.005092 0.005092 0.934566
0.005357 0.101019 0.035521
0.005978 0.101641 0.149567
0.006619 0.102282 0.267223
0.007270 0.102933 0.386772
0.007929 0.103592 0.507632
0.008593 0.104256 0.629499
0.009261 0.104924 0.752188
0.009934 0.105596 0.875570
0.010283 0.105946 0.939757
0.011645 0.223192 0.041810
0.012267 0.223813 0.155856
0.012908 0.224454 0.273512
0.013559 0.225106 0.393061
0.014218 0.225764 0.513920
0.014882 0.226428 0.635788
0.015550 0.227097 0.758477
0.016222 0.227769 0.881858
0.016572 0.228119 0.946046
0.018060 0.347818 0.048225
0.018682 0.348439 0.162271
0.019323 0.349081 0.279927
0.019974 0.349732 0.399476
0.020633 0.350390 0.520335
0.021297 0.351054 0.642203
0.021965 0.351723 0.764892
0.022637 0.352395 0.888273
0.022987 0.352745 0.952461
0.024557 0.474019 0.054721
0.025178 0.474640 0.168767
0.025819 0.475281 0.286423
0.026470 0.475933 0.405972
0.027129 0.476591 0.526832
0.027793 0.477255 0.648699
0.028461 0.477923 0.771388
0.029134 0.478596 0.894770
0.029483 0.478945 0.958957
0.031113 0.601388 0.061278
0.031734 0.602010 0.175323
0.032375 0.602651 0.292979
0.033027 0.603302 0.412528
0.033685 0.603961 0.533388
0.034349 0.604625 0.655256
0.035018 0.605293 0.777944
0.035690 0.605965 0.901326
0.036040 0.606315 0.965513
0.037717 0.729690 0.067882
0.038338 0.730312 0.181927
0.038979 0.730953 0.299583
0.039631 0.731604 0.419132
0.040289 0.732263 0.539992
0.040953 0.732927 0.661860
0.041622 0.733595 0.784548
0.042294 0.734267 0.907930
0.042644 0.734617 0.972117
0.044361 0.858770 0.074526
0.044983 0.859391 0.188571
0.045624 0.860032 0.306228
0.046275 0.860683 0.425777
0.046934 0.861342 0.546636
0.047598 0.862006 0.668504
0.048266 0.862674 0.791193
0.048938 0.863347 0.914574
0.049288 0.863696 0.978762
0.050606 0.980079 0.080770
0.051227 0.980701 0.194816
0.051868 0.981342 0.312472
0.052519 0.981993 0.432021
0.053178 0.982652 0.552881
0.053842 0.983316 0.674748
0.054510 0.983984 0.797437
0.055183 0.984656 0.920819
0.055532 0.985006 0.985006
0.049524 0.000949 0.031114
0.050145 0.001570 0.145159
0.050786 0.002211 0.262815
0.051438 0.002863 0.382364
0.052096 0.003521 0.503224
0.052760 0.004185 0.625092
0.053429 0.004854 0.747780
0.054101 0.005526 0.871162
0.054450 0.005876 0.935349
0.054715 0.101803 0.036305
0.055337 0.102424 0.150350
0.055978 0.103065 0.268006
0.056629 0.103717 0.387555
0.057287 0.104375 0.508415
0.057951 0.105039 0.630283
0.058620 0.105708 0.752971
0.059292 0.106380 0.876353
0.059642 0.106730 0.940541
0.061004 0.223975 0.042594
0.061625 0.224597 0.156639
0.062266 0.225238 0.274295
0.062918 0.225889 0.393844
0.063576 0.226548 0.514704
0.064240 0.227212 0.636572
0.064909 0.227880 0.759260
0.065581 0.228552 0.882642
0.065931 0.228902 0.946829
0.067419 0.348602 0.049009
0.068040 0.349223 0.163054
0.068681 0.349864 0.280710
0.069333 0.350515 0.400259
0.069991 0.351174 0.521119
0.070655 0.351838 0.642987
0.071324 0.352506 0.765675
0.071996 0.353179 0.889057
0.072346 0.353528 0.953244
0.073915 0.474802 0.055505
0.074536 0.475424 0.169550
0.075177 0.476065 0.287206
0.075829 0.476716 0.406755
0.076487 0.477375 0.527615
0.077151 0.478039 0.649483
0.077820 0.478707 0.772171
0.078492 0.479379 0.895553
0.078842 0.479729 0.959741
0.080471 0.602172 0.062061
0.081093 0.602793 0.176107
0.081734 0.603434 0.293763
0.082385 0.604086 0.413312
0.083044 0.604744 0.534171
0.083708 0.605408 0.656039
0.084376 0.606077 0.778728
0.085048 0.606749 0.902109
0.085398 0.607099 0.966297
0.087076 0.730474 0.068665
0.087697 0.731095 0.182711
0.088338 0.731736 0.300367
0.088989 0.732388 0.419916
0.089648 0.733046 0.540776
0.090312 0.733710 0.662643
0.090980 0.734379 0.785332
0.091653 0.735051 0.908714
0.092002 0.735401 0.972901
0.093720 0.859553 0.075310
0.094341 0.860175 0.189355
0.094982 0.860816 0.307011
0.095634 0.861467 0.426560
0.096292 0.862125 0.547420
0.096956 0.862789 0.669288
0.097625 0.863458 0.791976
0.098297 0.864130 0.915358
0.098647 0.864480 0.979545
0.099964 0.980863 0.081554
0.100586 0.981484 0.195599
0.101227 0.982125 0.313256
0.101878 0.982777 0.432804
0.102536 0.983435 0.553664
0.103200 0.984099 0.675532
0.103869 0.984768 0.798221
0.104541 0.985440 0.921602
0.104891 0.985790 0.985790
0.165670 0.002793 0.032958
0.166291 0.003414 0.147003
0.166932 0.004055 0.264659
0.167583 0.004707 0.384208
0.168242 0.005365 0.505068
0.168906 0.006029 0.626935
0.169574 0.006697 0.749624
0.170247 0.007370 0.873006
0.170596 0.007719 0.937193
0.170861 0.103647 0.038149
0.171482 0.104268 0.152194
0.172123 0.104909 0.269850
0.172775 0.105561 0.389399
0.173433 0.106219 0.510259
0.174097 0.106883 0.632127
0.174766 0.107552 0.754815
0.175438 0.108224 0.878197
0.175788 0.108574 0.942385
0.177150 0.225819 0.044438
0.177771 0.226441 0.158483
0.178412 0.227082 0.276139
0.179064 0.227733 0.395688
0.179722 0.228392 0.516548
0.180386 0.229056 0.638416
0.181055 0.229724 0.761104
0.181727 0.230396 0.884486
0.182077 0.230746 0.948673
0.183565 0.350446 0.050853
0.184186 0.351067 0.164898
0.184827 0.351708 0.282554
0.185479 0.352359 0.402103
0.186137 0.353018 0.522963
0.186801 0.353682 0.644831
0.187470 0.354350 0.767519
0.188142 0.355023 0.890901
0.188492 0.355372 0.955088
0.190061 0.476646 0.057349
0.190682 0.477268 0.171394
0.191323 0.477909 0.289050
0.191975 0.478560 0.408599
0.192633 0.479218 0.529459
0.193297 0.479882 0.651327
0.193966 0.480551 0.774015
0.194638 0.481223 0.897397
0.194988 0.481573 0.961584
0.196617 0.604016 0.063905
0.197239 0.604637 0.177950
0.197880 0.605278 0.295607
0.198531 0.605930 0.415155
0.199189 0.606588 0.536015
0.199853 0.607252 0.657883
0.200522 0.607920 0.780572
0.201194 0.608593 0.903953
0.201544 0.608942 0.968141
0.203221 0.732318 0.070509
0.203843 0.732939 0.184555
0.204484 0.733580 0.302211
0.205135 0.734232 0.421760
0.205794 0.734890 0.542620
0.206458 0.735554 0.664487
0.207126 0.736223 0.787176
0.207798 0.736895 0.910558
0.208148 0.737245 0.974745
0.209866 0.861397 0.077154
0.210487 0.862018 0.191199
0.211128 0.862659 0.308855
0.211779 0.863311 0.428404
0.212438 0.863969 0.549264
0.213102 0.864633 0.671132
0.213770 0.865302 0.793820
0.214443 0.865974 0.917202
0.214792 0.866324 0.981389
0.216110 0.982707 0.083398
0.216731 0.983328 0.197443
0.217372 0.983969 0.315099
0.218024 0.984621 0.434648
0.218682 0.985279 0.555508
0.219346 0.985943 0.677376
0.220015 0.986612 0.800064
0.220687 0.987284 0.923446
0.221037 0.987634 0.987634
0.284956 0.004686 0.034851
0.285577 0.005308 0.148897
0.286218 0.005949 0.266553
0.286869 0.006600 0.386102
0.287528 0.007259 0.506961
0.288192 0.007923 0.628829
0.288860 0.008591 0.751518
0.289533 0.009263 0.874899
0.289882 0.009613 0.939087
0.290147 0.105541 0.040043
0.290768 0.106162 0.154088
0.291409 0.106803 0.271744
0.292061 0.107454 0.391293
0.292719 0.108113 0.512153
0.293383 0.108777 0.634021
0.294052 0.109445 0.756709
0.294724 0.110118 0.880091
0.295074 0.110467 0.944278
0.296436 0.227713 0.046331
0.297057 0.228334 0.160377
0.297698 0.228976 0.278033
0.298349 0.229627 0.397582
0.299008 0.230285 0.518442
0.299672 0.230949 0.640309
0.300340 0.231618 0.762998
0.301013 0.232290 0.886380
0.301362 0.232640 0.950567
0.302851 0.352339 0.052746
0.303472 0.352961 0.166792
0.304113 0.353602 0.284448
0.304765 0.354253 0.403997
0.305423 0.354912 0.524857
0.306087 0.355576 0.646724
0.306756 0.356244 0.769413
0.307428 0.356916 0.892795
0.307777 0.357266 0.956982
0.309347 0.478540 0.059243
0.309968 0.479161 0.173288
0.310609 0.479802 0.290944
0.311261 0.480454 0.410493
0.311919 0.481112 0.531353
0.312583 0.481776 0.653220
0.313252 0.482445 0.775909
0.313924 0.483117 0.899291
0.314274 0.483467 0.963478
0.315903 0.605909 0.065799
0.316524 0.606531 0.179844
0.317166 0.607172 0.297500
0.317817 0.607823 0.417049
0.318475 0.608482 0.537909
0.319139 0.609146 0.659777
0.319808 0.609814 0.782465
0.320480 0.610486 0.905847
0.320830 0.610836 0.970034
0.322507 0.734212 0.072403
0.323129 0.734833 0.186448
0.323770 0.735474 0.304105
0.324421 0.736125 0.423653
0.325080 0.736784 0.544513
0.325744 0.737448 0.666381
0.326412 0.738116 0.789070
0.327084 0.738789 0.912451
0.327434 0.739138 0.976639
0.329152 0.863291 0.079047
0.329773 0.863912 0.193093
0.330414 0.864553 0.310749
0.331065 0.865205 0.430298
0.331724 0.865863 0.551158
0.332388 0.866527 0.673025
0.333056 0.867196 0.795714
0.333729 0.867868 0.919096
0.334078 0.868217 0.983283
0.335396 0.984601 0.085292
0.336017 0.985222 0.199337
0.336658 0.985863 0.316993
0.337310 0.986514 0.436542
0.337968 0.987173 0.557402
0.338632 0.987837 0.679270
0.339301 0.988505 0.801958
0.339973 0.989178 0.925340
0.340323 0.989527 0.989527
0.406021 0.006608 0.036773
0.406642 0.007230 0.150819
0.407283 0.007871 0.268475
0.407935 0.008522 0.388024
0.408593 0.009181 0.508883
0.409257 0.009845 0.630751
0.409926 0.010513 0.753440
0.410598 0.011185 0.876821
0.410948 0.011535 0.941009
0.411212 0.107463 0.041965
0.411834 0.108084 0.156010
0.412475 0.108725 0.273666
0.413126 0.109376 0.393215
0.413785 0.110035 0.514075
0.414449 0.110699 0.635943
0.415117 0.111367 0.758631
0.415789 0.112040 0.882013
0.416139 0.112389 0.946200
0.417501 0.229635 0.048253
0.418123 0.230256 0.162299
0.418764 0.230897 0.279955
0.419415 0.231549 0.399504
0.420073 0.232207 0.520364
0.420737 0.232871 0.642231
0.421406 0.233540 0.764920
0.422078 0.234212 0.888302
0.422428 0.234562 0.952489
0.423916 0.354261 0.054668
0.424538 0.354883 0.168714
0.425179 0.355524 0.286370
0.425830 0.356175 0.405919
0.426489 0.356834 0.526779
0.427153 0.357498 0.648646
0.427821 0.358166 0.771335
0.428493 0.358838 0.894717
0.428843 0.359188 0.958904
0.430412 0.480462 0.061165
0.431034 0.481083 0.175210
0.431675 0.481724 0.292866
0.432326 0.482376 0.412415
0.432985 0.483034 0.533275
0.433649 0.483698 0.655142
0.434317 0.484367 0.777831
0.434989 0.485039 0.901213
0.435339 0.485389 0.965400
0.436969 0.607831 0.067721
0.437590 0.608453 0.181766
0.438231 0.609094 0.299422
0.438882 0.609745 0.418971
0.439541 0.610404 0.539831
0.440205 0.611068 0.661699
0.440873 0.611736 0.784387
0.441546 0.612408 0.907769
0.441895 0.612758 0.971956
0.443573 0.736134 0.074325
0.444194 0.736755 0.188370
0.444835 0.737396 0.306026
0.445487 0.738047 0.425575
0.446145 0.738706 0.546435
0.446809 0.739370 0.668303
0.447478 0.740038 0.790991
0.448150 0.740711 0.914373
0.448500 0.741060 0.978561
0.450217 0.865213 0.080969
0.450838 0.865834 0.195015
0.451480 0.866475 0.312671
0.452131 0.867127 0.432220
0.452789 0.867785 0.553079
0.453453 0.868449 0.674947
0.454122 0.869117 0.797636
0.454794 0.869790 0.921018
0.455144 0.870139 0.985205
0.456461 0.986523 0.087214
0.457083 0.987144 0.201259
0.457724 0.987785 0.318915
0.458375 0.988436 0.438464
0.459034 0.989095 0.559324
0.459698 0.989759 0.681192
0.460366 0.990427 0.803880
0.461038 0.991100 0.927262
0.461388 0.991449 0.991449
0.528348 0.008550 0.038715
0.528969 0.009172 0.152761
0.529610 0.009813 0.270417
0.530262 0.010464 0.389966
0.530920 0.011123 0.510825
0.531584 0.011787 0.632693
0.532252 0.012455 0.755382
0.532925 0.013127 0.878763
0.533274 0.013477 0.942951
0.533539 0.109405 0.043907
0.534160 0.110026 0.157952
0.534802 0.110667 0.275608
0.535453 0.111318 0.395157
0.536111 0.111977 0.516017
0.536775 0.112641 0.637885
0.537444 0.113309 0.760573
0.538116 0.113982 0.883955
0.538466 0.114331 0.948142
0.539828 0.231577 0.050195
0.540449 0.232198 0.164241
0.541090 0.232839 0.281897
0.541742 0.233491 0.401446
0.542400 0.234149 0.522306
0.543064 0.234813 0.644173
0.543733 0.235482 0.766862
0.544405 0.236154 0.890244
0.544755 0.236504 0.954431
0.546243 0.356203 0.056610
0.546864 0.356825 0.170656
0.547505 0.357466 0.288312
0.548157 0.358117 0.407861
0.548815 0.358776 0.528721
0.549479 0.359440 0.650588
0.550148 0.360108 0.773277
0.550820 0.360780 0.896659
0.551170 0.361130 0.960846
0.552739 0.482404 0.063107
0.553360 0.483025 0.177152
0.554001 0.483666 0.294808
0.554653 0.484318 0.414357
0.555311 0.484976 0.535217
0.555975 0.485640 0.657084
0.556644 0.486309 0.779773
0.557316 0.486981 0.903155
0.557666 0.487331 0.967342
0.559295 0.609773 0.069663
0.559917 0.610395 0.183708
0.560558 0.611036 0.301364
0.561209 0.611687 0.420913
0.561868 0.612346 0.541773
0.562532 0.613010 0.663641
0.563200 0.613678 0.786329
0.563872 0.614350 0.909711
0.564222 0.614700 0.973898
0.565900 0.738076 0.076267
0.566521 0.738697 0.190312
0.567162 0.739338 0.307968
0.567813 0.739989 0.427517
0.568472 0.740648 0.548377
0.569136 0.741312 0.670245
0.569804 0.741980 0.792933
0.570477 0.742653 0.916315
0.570826 0.743002 0.980503
0.572544 0.867155 0.082911
0.573165 0.867776 0.196957
0.573806 0.868417 0.314613
0.574458 0.869069 0.434162
0.575116 0.869727 0.555021
0.575780 0.870391 0.676889
0.576449 0.871059 0.799578
0.577121 0.871732 0.922960
0.577471 0.872081 0.987147
0.578788 0.988465 0.089156
0.579410 0.989086 0.203201
0.580051 0.989727 0.320857
0.580702 0.990378 0.440406
0.581360 0.991037 0.561266
0.582024 0.991701 0.683134
0.582693 0.992369 0.805822
0.583365 0.993042 0.929204
0.583715 0.993391 0.993391
0.651656 0.010508 0.040673
0.652277 0.011129 0.154718
0.652918 0.011770 0.272374
0.653569 0.012422 0.391923
0.654228 0.013080 0.512783
0.654892 0.013744 0.634651
0.655560 0.014413 0.757339
0.656233 0.015085 0.880721
0.656582 0.015435 0.944908
0.656847 0.111362 0.045864
0.657468 0.111983 0.159910
0.658109 0.112625 0.277566
0.658761 0.113276 0.397115
0.659419 0.113934 0.517974
0.660083 0.114598 0.639842
0.660752 0.115267 0.762531
0.661424 0.115939 0.885912
0.661774 0.116289 0.950100
0.663136 0.233535 0.052153
0.663757 0.234156 0.166198
0.664398 0.234797 0.283854
0.665050 0.235448 0.403403
0.665708 0.236107 0.524263
0.666372 0.236771 0.646131
0.667041 0.237439 0.768819
0.667713 0.238112 0.892201
0.668063 0.238461 0.956389
0.669551 0.358161 0.058568
0.670172 0.358782 0.172613
0.670813 0.359423 0.290269
0.671465 0.360075 0.409818
0.672123 0.360733 0.530678
0.672787 0.361397 0.652546
0.673456 0.362066 0.775234
0.674128 0.362738 0.898616
0.674478 0.363088 0.962804
0.676047 0.484361 0.065064
0.676668 0.484983 0.179109
0.677309 0.485624 0.296766
0.677961 0.486275 0.416314
0.678619 0.486934 0.537174
0.679283 0.487598 0.659042
0.679952 0.488266 0.781731
0.680624 0.488938 0.905112
0.680974 0.489288 0.969300
0.682603 0.611731 0.071620
0.683225 0.612352 0.185666
0.683866 0.612993 0.303322
0.684517 0.613645 0.422871
0.685176 0.614303 0.543731
0.685840 0.614967 0.665598
0.686508 0.615636 0.788287
0.687180 0.616308 0.911669
0.687530 0.616658 0.975856
0.689207 0.740033 0.078225
0.689829 0.740654 0.192270
0.690470 0.741296 0.309926
0.691121 0.741947 0.429475
0.691780 0.742605 0.550335
0.692444 0.743269 0.672203
0.693112 0.743938 0.794891
0.693784 0.744610 0.918273
0.694134 0.744960 0.982460
0.695852 0.869112 0.084869
0.696473 0.869734 0.198914
0.697114 0.870375 0.316570
0.697766 0.871026 0.436119
0.698424 0.871685 0.556979
0.699088 0.872349 0.678847
0.699757 0.873017 0.801535
0.700429 0.873689 0.924917
0.700778 0.874039 0.989105
0.702096 0.990422 0.091113
0.702717 0.991043 0.205159
0.703359 0.991685 0.322815
0.704010 0.992336 0.442364
0.704668 0.992994 0.563223
0.705332 0.993658 0.685091
0.706001 0.994327 0.807780
0.706673 0.994999 0.931161
0.707023 0.995349 0.995349
0.775768 0.012478 0.042643
0.776390 0.013100 0.156689
0.777031 0.013741 0.274345
0.777682 0.014392 0.393894
0.778341 0.015051 0.514753
0.779005 0.015715 0.636621
0.779673 0.016383 0.759310
0.780345 0.017055 0.882691
0.780695 0.017405 0.946879
0.780960 0.113332 0.047835
0.781581 0.113954 0.161880
0.782222 0.114595 0.279536
0.782874 0.115246 0.399085
0.783532 0.115905 0.519945
0.784196 0.116569 0.641812
0.784865 0.117237 0.764501
0.785537 0.117909 0.887883
0.785887 0.118259 0.952070
0.787249 0.235505 0.054123
0.787870 0.236126 0.168169
0.788511 0.236767 0.285825
0.789162 0.237419 0.405374
0.789821 0.238077 0.526233
0.790485 0.238741 0.648101
0.791153 0.239410 0.770790
0.791826 0.240082 0.894172
0.792175 0.240432 0.958359
0.793664 0.360131 0.060538
0.794285 0.360753 0.174584
0.794926 0.361394 0.292240
0.795577 0.362045 0.411789
0.796236 0.362703 0.532649
0.796900 0.363367 0.654516
0.797568 0.364036 0.777205
0.798241 0.364708 0.900587
0.798590 0.365058 0.964774
0.800160 0.486332 0.067034
0.800781 0.486953 0.181080
0.801422 0.487594 0.298736
0.802073 0.488246 0.418285
0.802732 0.488904 0.539145
0.803396 0.489568 0.661012
0.804064 0.490237 0.783701
0.804737 0.490909 0.907083
0.805086 0.491259 0.971270
0.806716 0.613701 0.073591
0.807337 0.614323 0.187636
0.807978 0.614964 0.305292
0.808630 0.615615 0.424841
0.809288 0.616274 0.545701
0.809952 0.616938 0.667569
0.810621 0.617606 0.790257
0.811293 0.618278 0.913639
0.811643 0.618628 0.977826
0.813320 0.742003 0.080195
0.813942 0.742625 0.194240
0.814583 0.743266 0.311896
0.815234 0.743917 0.431445
0.815892 0.744576 0.552305
0.816556 0.745240 0.674173
0.817225 0.745908 0.796861
0.817897 0.746580 0.920243
0.818247 0.746930 0.984431
0.819964 0.871083 0.086839
0.820586 0.871704 0.200885
0.821227 0.872345 0.318541
0.821878 0.872996 0.438090
0.822537 0.873655 0.558949
0.823201 0.874319 0.680817
0.823869 0.874987 0.803506
0.824541 0.875660 0.926887
0.824891 0.876009 0.991075
0.826209 0.992392 0.093084
0.826830 0.993014 0.207129
0.827471 0.993655 0.324785
0.828123 0.994306 0.444334
0.828781 0.994965 0.565194
0.829445 0.995629 0.687061
0.830114 0.996297 0.809750
0.830786 0.996969 0.933132
0.831136 0.997319 0.997319
0.900564 0.014460 0.044624
0.901185 0.015081 0.158670
0.901827 0.015722 0.276326
0.902478 0.016373 0.395875
0.903136 0.017032 0.516735
0.903800 0.017696 0.638602
0.904469 0.018364 0.761291
0.905141 0.019037 0.884673
0.905491 0.019386 0.948860
0.905756 0.115314 0.049816
0.906377 0.115935 0.163861
0.907018 0.116576 0.281517
0.907669 0.117227 0.401066
0.908328 0.117886 0.521926
0.908992 0.118550 0.643794
0.909660 0.119218 0.766482
0.910333 0.119891 0.889864
0.910682 0.120240 0.954051
0.912044 0.237486 0.056105
0.912666 0.238108 0.170150
0.913307 0.238749 0.287806
0.913958 0.239400 0.407355
0.914617 0.240058 0.528215
0.915281 0.240722 0.650082
0.915949 0.241391 0.772771
0.916621 0.242063 0.896153
0.916971 0.242413 0.960340
0.918459 0.362112 0.062520
0.919081 0.362734 0.176565
0.919722 0.363375 0.294221
0.920373 0.364026 0.413770
0.921032 0.364685 0.534630
0.921696 0.365349 0.656497
0.922364 0.366017 0.779186
0.923036 0.366689 0.902568
0.923386 0.367039 0.966755
0.924955 0.488313 0.069016
0.925577 0.488934 0.183061
0.926218 0.489575 0.300717
0.926869 0.490227 0.420266
0.927528 0.490885 0.541126
0.928192 0.491549 0.662994
0.928860 0.492218 0.785682
0.929532 0.492890 0.909064
0.929882 0.493240 0.973251
0.931512 0.615683 0.075572
0.932133 0.616304 0.189617
0.932774 0.616945 0.307273
0.933425 0.617596 0.426822
0.934084 0.618255 0.547682
0.934748 0.618919 0.669550
0.935416 0.619587 0.792238
0.936089 0.620260 0.915620
0.936438 0.620609 0.979808
0.938116 0.743985 0.082176
0.938737 0.744606 0.196222
0.939378 0.745247 0.313878
0.940030 0.745898 0.433427
0.940688 0.746557 0.554286
0.941352 0.747221 0.676154
0.942021 0.747889 0.798843
0.942693 0.748562 0.922224
0.943043 0.748911 0.986412
0.944760 0.873064 0.088820
0.945382 0.873685 0.202866
0.946023 0.874326 0.320522
0.946674 0.874978 0.440071
0.947333 0.875636 0.560931
0.947997 0.876300 0.682798
0.948665 0.876969 0.805487
0.949337 0.877641 0.928869
0.949687 0.877991 0.993056
0.951005 0.994374 0.095065
0.951626 0.994995 0.209110
0.952267 0.995636 0.326766
0.952918 0.996287 0.446315
0.953577 0.996946 0.567175
0.954241 0.997610 0.689043
0.954909 0.998278 0.811731
0.955582 0.998951 0.935113
0.955931 0.999300 0.999300
