skills/appstore-creatives-orchestrator/assets/grade/luts/cool_tech_v17.cube
TITLE "cool_tech_v17"
LUT_3D_SIZE 5
DOMAIN_MIN 0.0 0.0 0.0
DOMAIN_MAX 1.0 1.0 1.0
0.000165 0.000165 0.030330
0.001428 0.001428 0.262031
0.002738 0.002738 0.502440
0.004070 0.004070 0.746997
0.005092 0.005092 0.934566
0.011645 0.223192 0.041810
0.012908 0.224454 0.273512
0.014218 0.225764 0.513920
0.015550 0.227097 0.758477
0.016572 0.228119 0.946046
0.024557 0.474019 0.054721
0.025819 0.475281 0.286423
0.027129 0.476591 0.526832
0.028461 0.477923 0.771388
0.029483 0.478945 0.958957
0.037717 0.729690 0.067882
0.038979 0.730953 0.299583
0.040289 0.732263 0.539992
0.041622 0.733595 0.784548
0.042644 0.734617 0.972117
0.050606 0.980079 0.080770
0.051868 0.981342 0.312472
0.053178 0.982652 0.552881
0.054510 0.983984 0.797437
0.055532 0.985006 0.985006
0.165670 0.002793 0.032958
0.166932 0.004055 0.264659
0.168242 0.005365 0.505068
0.169574 0.006697 0.749624
0.170596 0.007719 0.937193
0.177150 0.225819 0.044438
0.178412 0.227082 0.276139
0.179722 0.228392 0.516548
0.181055 0.229724 0.761104
0.182077 0.230746 0.948673
0.190061 0.476646 0.057349
0.191323 0.477909 0.289050
0.192633 0.479218 0.529459
0.193966 0.480551 0.774015
0.194988 0.481573 0.961584
0.203221 0.732318 0.070509
0.204484 0.733580 0.302211
0.205794 0.734890 0.542620
0.207126 0.736223 0.787176
0.208148 0.737245 0.974745
0.216110 0.982707 0.083398
0.217372 0.983969 0.315099
0.218682 0.985279 0.555508
0.220015 0.986612 0.800064
0.221037 0.987634 0.987634
0.406021 0.006608 0.036773
0.407283 0.007871 0.268475
0.408593 0.009181 0.508883
0.409926 0.010513 0.753440
0.410948 0.011535 0.941009
0.417501 0.229635 0.048253
0.418764 0.230897 0.279955
0.420073 0.232207 0.520364
0.421406 0.233540 0.764920
0.422428 0.234562 0.952489
0.430412 0.480462 0.061165
0.431675 0.481724 0.292866
0.432985 0.483034 0.533275
0.434317 0.484367 0.777831
0.435339 0.485389 0.965400
0.443573 0.736134 0.074325
0.444835 0.737396 0.306026
0.446145 0.738706 0.546435
0.447478 0.740038 0.790991
0.448500 0.741060 0.978561
0.456461 0.986523 0.087214
0.457724 0.987785 0.318915
0.459034 0.989095 0.559324
0.460366 0.990427 0.803880
0.461388 0.991449 0.991449
0.651656 0.010508 0.040673
0.652918 0.011770 0.272374
0.654228 0.013080 0.512783
0.655560 0.014413 0.757339
0.656582 0.015435 0.944908
0.663136 0.233535 0.052153
0.664398 0.234797 0.283854
0.665708 0.236107 0.524263
0.667041 0.237439 0.768819
0.668063 0.238461 0.956389
0.676047 0.484361 0.065064
0.677309 0.485624 0.296766
0.678619 0.486934 0.537174
0.679952 0.488266 0.781731
0.680974 0.489288 0.969300
0.689207 0.740033 0.078225
0.690470 0.741296 0.309926
0.691780 0.742605 0.550335
0.693112 0.743938 0.794891
0.694134 0.744960 0.982460
0.702096 0.990422 0.091113
0.703359 0.991685 0.322815
0.704668 0.992994 0.563223
0.706001 0.994327 0.807780
0.707023 0.995349 0.995349
0.900564 0.014460 0.044624
0.901827 0.015722 0.276326
0.903136 0.017032 0.516735
0.904469 0.018364 0.761291
0.905491 0.019386 0.948860
0.912044 0.237486 0.056105
0.913307 0.238749 0.287806
0.914617 0.240058 0.528215
0.915949 0.241391 0.772771
0.916971 0.242413 0.960340
0.924955 0.488313 0.069016
0.926218 0.489575 0.300717
0.927528 0.490885 0.541126
0.928860 0.492218 0.785682
0.929882 0.493240 0.973251
0.938116 0.743985 0.082176
0.939378 0.745247 0.313878
0.940688 0.746557 0.554286
0.942021 0.747889 0.798843
0.943043 0.748911 0.986412
0.951005 0.994374 0.095065
0.952267 0.995636 0.326766
0.953577 0.996946 0.567175
0.954909 0.998278 0.811731
0.955931 0.999300 0.999300
