skills/appstore-creatives-orchestrator/assets/grade/luts/night_blue_v18.cube
TITLE "night_blue_v18"
LUT_3D_SIZE 17
DOMAIN_MIN 0.0 0.0 0.0
DOMAIN_MAX 1.0 1.0 1.0
0.000000 0.000000 0.000000
0.000362 0.000362 0.024930
0.001064 0.001064 0.073294
0.001812 0.001812 0.124774
0.002587 0.002587 0.178173
0.003383 0.003383 0.232985
0.004195 0.004195 0.288921
0.005021 0.005021 0.345796
0.005858 0.005858 0.403479
0.006706 0.006706 0.461872
0.007563 0.007563 0.520898
0.008428 0.008428 0.580499
0.009301 0.009301 0.640624
0.010181 0.010181 0.701231
0.011068 0.011068 0.762286
0.011960 0.011960 0.823760
0.012236 0.012236 0.842762
0.000000 0.000000 0.000000
0.000362 0.000362 0.024930
0.001064 0.001064 0.073294
0.001812 0.001812 0.124774
0.002587 0.002587 0.178173
0.003383 0.003383 0.232985
0.004195 0.004195 0.288921
0.005021 0.005021 0.345796
0.005858 0.005858 0.403479
0.006706 0.006706 0.461872
0.007563 0.007563 0.520898
0.008428 0.008428 0.580499
0.009301 0.009301 0.640624
0.010181 0.010181 0.701231
0.011068 0.011068 0.762286
0.011960 0.011960 0.823760
0.012236 0.012236 0.842762
0.002424 0.019032 0.002424
0.002786 0.019394 0.027354
0.003488 0.020096 0.075718
0.004235 0.020843 0.127198
0.005011 0.021619 0.180597
0.005806 0.022414 0.235408
0.006619 0.023227 0.291345
0.007444 0.024052 0.348220
0.008282 0.024890 0.405903
0.009130 0.025738 0.464295
0.009987 0.026595 0.523322
0.010852 0.027460 0.582923
0.011725 0.028333 0.643047
0.012605 0.029213 0.703655
0.013491 0.030099 0.764710
0.014384 0.030992 0.826183
0.014660 0.031268 0.845186
0.009255 0.072674 0.009255
0.009617 0.073036 0.034185
0.010319 0.073738 0.082549
0.011067 0.074485 0.134029
0.011842 0.075261 0.187429
0.012638 0.076057 0.242240
0.013450 0.076869 0.298176
0.014276 0.077694 0.355052
0.015113 0.078532 0.412734
0.015961 0.079380 0.471127
0.016818 0.080237 0.530154
0.017684 0.081102 0.589754
0.018556 0.081975 0.649879
0.019436 0.082855 0.710486
0.020323 0.083741 0.771542
0.021215 0.084634 0.833015
0.021491 0.084910 0.852018
0.016597 0.130322 0.016597
0.016959 0.130684 0.041527
0.017661 0.131386 0.089891
0.018409 0.132134 0.141371
0.019184 0.132909 0.194770
0.019980 0.133705 0.249582
0.020792 0.134517 0.305518
0.021618 0.135343 0.362393
0.022455 0.136180 0.420076
0.023303 0.137028 0.478469
0.024160 0.137885 0.537496
0.025025 0.138750 0.597096
0.025898 0.139623 0.657221
0.026778 0.140503 0.717828
0.027665 0.141390 0.778883
0.028557 0.142282 0.840357
0.028833 0.142558 0.859359
0.024234 0.190291 0.024234
0.024596 0.190653 0.049165
0.025299 0.191355 0.097528
0.026046 0.192103 0.149008
0.026821 0.192878 0.202408
0.027617 0.193674 0.257219
0.028429 0.194486 0.313156
0.029255 0.195312 0.370031
0.030093 0.196149 0.427713
0.030940 0.196997 0.486106
0.031797 0.197854 0.545133
0.032663 0.198719 0.604733
0.033536 0.199592 0.664858
0.034416 0.200472 0.725465
0.035302 0.201359 0.786521
0.036195 0.202251 0.847994
0.036470 0.202527 0.866997
0.032085 0.251933 0.032085
0.032447 0.252295 0.057015
0.033149 0.252997 0.105379
0.033896 0.253744 0.156859
0.034672 0.254520 0.210258
0.035467 0.255316 0.265069
0.036280 0.256128 0.321006
0.037105 0.256954 0.377881
0.037943 0.257791 0.435564
0.038791 0.258639 0.493956
0.039648 0.259496 0.552983
0.040513 0.260361 0.612584
0.041386 0.261234 0.672708
0.042266 0.262114 0.733316
0.043152 0.263000 0.794371
0.044045 0.263893 0.855844
0.044321 0.264169 0.874847
0.040103 0.314892 0.040103
0.040465 0.315254 0.065033
0.041167 0.315957 0.113397
0.041915 0.316704 0.164877
0.042690 0.317479 0.218276
0.043486 0.318275 0.273088
0.044298 0.319087 0.329024
0.045124 0.319913 0.385899
0.045961 0.320751 0.443582
0.046809 0.321598 0.501975
0.047666 0.322455 0.561001
0.048531 0.323321 0.620602
0.049404 0.324194 0.680726
0.050284 0.325074 0.741334
0.051171 0.325960 0.802389
0.052063 0.326853 0.863862
0.052339 0.327128 0.882865
0.048260 0.378944 0.048260
0.048622 0.379306 0.073190
0.049324 0.380008 0.121554
0.050072 0.380756 0.173034
0.050847 0.381531 0.226434
0.051643 0.382327 0.281245
0.052455 0.383139 0.337181
0.053281 0.383965 0.394056
0.054118 0.384802 0.451739
0.054966 0.385650 0.510132
0.055823 0.386507 0.569159
0.056688 0.387373 0.628759
0.057561 0.388245 0.688884
0.058441 0.389125 0.749491
0.059328 0.390012 0.810547
0.060220 0.390904 0.872020
0.060496 0.391180 0.891023
0.056537 0.443931 0.056537
0.056899 0.444293 0.081467
0.057601 0.444996 0.129831
0.058348 0.445743 0.181311
0.059124 0.446518 0.234710
0.059919 0.447314 0.289521
0.060731 0.448126 0.345458
0.061557 0.448952 0.402333
0.062395 0.449789 0.460016
0.063243 0.450637 0.518408
0.064100 0.451494 0.577435
0.064965 0.452360 0.637036
0.065838 0.453233 0.697160
0.066718 0.454113 0.757768
0.067604 0.454999 0.818823
0.068497 0.455892 0.880296
0.068773 0.456167 0.899299
0.064917 0.509738 0.064917
0.065279 0.510100 0.089848
0.065982 0.510802 0.138211
0.066729 0.511549 0.189691
0.067504 0.512325 0.243091
0.068300 0.513120 0.297902
0.069112 0.513933 0.353838
0.069938 0.514758 0.410714
0.070775 0.515596 0.468396
0.071623 0.516444 0.526789
0.072480 0.517301 0.585816
0.073346 0.518166 0.645416
0.074219 0.519039 0.705541
0.075099 0.519919 0.766148
0.075985 0.520805 0.827204
0.076877 0.521698 0.888677
0.077153 0.521974 0.907680
0.073391 0.576274 0.073391
0.073753 0.576636 0.098321
0.074455 0.577338 0.146685
0.075203 0.578086 0.198165
0.075978 0.578861 0.251564
0.076774 0.579657 0.306376
0.077586 0.580469 0.362312
0.078412 0.581295 0.419187
0.079249 0.582132 0.476870
0.080097 0.582980 0.535263
0.080954 0.583837 0.594290
0.081819 0.584702 0.653890
0.082692 0.585575 0.714015
0.083572 0.586455 0.774622
0.084459 0.587342 0.835677
0.085351 0.588234 0.897151
0.085627 0.588510 0.916153
0.081949 0.643470 0.081949
0.082311 0.643832 0.106879
0.083013 0.644534 0.155243
0.083760 0.645281 0.206723
0.084536 0.646057 0.260122
0.085331 0.646852 0.314933
0.086144 0.647665 0.370870
0.086969 0.648490 0.427745
0.087807 0.649328 0.485428
0.088655 0.650176 0.543820
0.089512 0.651033 0.602847
0.090377 0.651898 0.662448
0.091250 0.652771 0.722572
0.092130 0.653651 0.783180
0.093016 0.654537 0.844235
0.093909 0.655430 0.905708
0.094185 0.655706 0.924711
0.090583 0.711266 0.090583
0.090945 0.711628 0.115513
0.091647 0.712330 0.163877
0.092395 0.713078 0.215357
0.093170 0.713853 0.268756
0.093966 0.714649 0.323568
0.094778 0.715461 0.379504
0.095604 0.716287 0.436379
0.096441 0.717124 0.494062
0.097289 0.717972 0.552455
0.098146 0.718829 0.611481
0.099011 0.719695 0.671082
0.099884 0.720567 0.731206
0.100764 0.721447 0.791814
0.101651 0.722334 0.852869
0.102543 0.723226 0.914342
0.102819 0.723502 0.933345
0.099288 0.779616 0.099288
0.099650 0.779978 0.124218
0.100352 0.780680 0.172582
0.101099 0.781428 0.224062
0.101874 0.782203 0.277461
0.102670 0.782999 0.332272
0.103482 0.783811 0.388209
0.104308 0.784637 0.445084
0.105146 0.785474 0.502767
0.105993 0.786322 0.561159
0.106850 0.787179 0.620186
0.107716 0.788044 0.679786
0.108589 0.788917 0.739911
0.109469 0.789797 0.800519
0.110355 0.790684 0.861574
0.111248 0.791576 0.923047
0.111524 0.791852 0.942050
0.108057 0.848478 0.108057
0.108419 0.848840 0.132988
0.109122 0.849542 0.181352
0.109869 0.850290 0.232832
0.110644 0.851065 0.286231
0.111440 0.851861 0.341042
0.112252 0.852673 0.396979
0.113078 0.853499 0.453854
0.113916 0.854336 0.511536
0.114763 0.855184 0.569929
0.115620 0.856041 0.628956
0.116486 0.856906 0.688556
0.117359 0.857779 0.748681
0.118239 0.858659 0.809288
0.119125 0.859546 0.870344
0.120018 0.860438 0.931817
0.120293 0.860714 0.950820
0.116888 0.917818 0.116888
0.117250 0.918180 0.141818
0.117952 0.918882 0.190182
0.118700 0.919629 0.241662
0.119475 0.920405 0.295062
0.120271 0.921201 0.349873
0.121083 0.922013 0.405809
0.121909 0.922838 0.462684
0.122746 0.923676 0.520367
0.123594 0.924524 0.578760
0.124451 0.925381 0.637787
0.125316 0.926246 0.697387
0.126189 0.927119 0.757512
0.127069 0.927999 0.818119
0.127956 0.928885 0.879175
0.128848 0.929778 0.940648
0.129124 0.930054 0.959651
0.000000 0.000000 0.000000
0.000362 0.000362 0.024930
0.001064 0.001064 0.073294
0.001812 0.001812 0.124774
0.002587 0.002587 0.178173
0.003383 0.003383 0.232985
0.004195 0.004195 0.288921
0.005021 0.005021 0.345796
0.005858 0.005858 0.403479
0.006706 0.006706 0.461872
0.007563 0.007563 0.520898
0.008428 0.008428 0.580499
0.009301 0.009301 0.640624
0.010181 0.010181 0.701231
0.011068 0.011068 0.762286
0.011960 0.011960 0.823760
0.012236 0.012236 0.842762
0.000000 0.000000 0.000000
0.000362 0.000362 0.024930
0.001064 0.001064 0.073294
0.001812 0.001812 0.124774
0.002587 0.002587 0.178173
0.003383 0.003383 0.232985
0.004195 0.004195 0.288921
0.005021 0.005021 0.345796
0.005858 0.005858 0.403479
0.006706 0.006706 0.461872
0.007563 0.007563 0.520898
0.008428 0.008428 0.580499
0.009301 0.009301 0.640624
0.010181 0.010181 0.701231
0.011068 0.011068 0.762286
0.011960 0.011960 0.823760
0.012236 0.012236 0.842762
0.002424 0.019032 0.002424
0.002786 0.019394 0.027354
0.003488 0.020096 0.075718
0.004235 0.020843 0.127198
0.005011 0.021619 0.180597
0.005806 0.022414 0.235408
0.006619 0.023227 0.291345
0.007444 0.024052 0.348220
0.008282 0.024890 0.405903
0.009130 0.025738 0.464295
0.009987 0.026595 0.523322
0.010852 0.027460 0.582923
0.011725 0.028333 0.643047
0.012605 0.029213 0.703655
0.013491 0.030099 0.764710
0.014384 0.030992 0.826183
0.014660 0.031268 0.845186
0.009255 0.072674 0.009255
0.009617 0.073036 0.034185
0.010319 0.073738 0.082549
0.011067 0.074485 0.134029
0.011842 0.075261 0.187429
0.012638 0.076057 0.242240
0.013450 0.076869 0.298176
0.014276 0.077694 0.355052
0.015113 0.078532 0.412734
0.015961 0.079380 0.471127
0.016818 0.080237 0.530154
0.017684 0.081102 0.589754
0.018556 0.081975 0.649879
0.019436 0.082855 0.710486
0.020323 0.083741 0.771542
0.021215 0.084634 0.833015
0.021491 0.084910 0.852018
0.016597 0.130322 0.016597
0.016959 0.130684 0.041527
0.017661 0.131386 0.089891
0.018409 0.132134 0.141371
0.019184 0.132909 0.194770
0.019980 0.133705 0.249582
0.020792 0.134517 0.305518
0.021618 0.135343 0.362393
0.022455 0.136180 0.420076
0.023303 0.137028 0.478469
0.024160 0.137885 0.537496
0.025025 0.138750 0.597096
0.025898 0.139623 0.657221
0.026778 0.140503 0.717828
0.027665 0.141390 0.778883
0.028557 0.142282 0.840357
0.028833 0.142558 0.859359
0.024234 0.190291 0.024234
0.024596 0.190653 0.049165
0.025299 0.191355 0.097528
0.026046 0.192103 0.149008
0.026821 0.192878 0.202408
0.027617 0.193674 0.257219
0.028429 0.194486 0.313156
0.029255 0.195312 0.370031
0.030093 0.196149 0.427713
0.030940 0.196997 0.486106
0.031797 0.197854 0.545133
0.032663 0.198719 0.604733
0.033536 0.199592 0.664858
0.034416 0.200472 0.725465
0.035302 0.201359 0.786521
0.036195 0.202251 0.847994
0.036470 0.202527 0.866997
0.032085 0.251933 0.032085
0.032447 0.252295 0.057015
0.033149 0.252997 0.105379
0.033896 0.253744 0.156859
0.034672 0.254520 0.210258
0.035467 0.255316 0.265069
0.036280 0.256128 0.321006
0.037105 0.256954 0.377881
0.037943 0.257791 0.435564
0.038791 0.258639 0.493956
0.039648 0.259496 0.552983
0.040513 0.260361 0.612584
0.041386 0.261234 0.672708
0.042266 0.262114 0.733316
0.043152 0.263000 0.794371
0.044045 0.263893 0.855844
0.044321 0.264169 0.874847
0.040103 0.314892 0.040103
0.040465 0.315254 0.065033
0.041167 0.315957 0.113397
0.041915 0.316704 0.164877
0.042690 0.317479 0.218276
0.043486 0.318275 0.273088
0.044298 0.319087 0.329024
0.045124 0.319913 0.385899
0.045961 0.320751 0.443582
0.046809 0.321598 0.501975
0.047666 0.322455 0.561001
0.048531 0.323321 0.620602
0.049404 0.324194 0.680726
0.050284 0.325074 0.741334
0.051171 0.325960 0.802389
0.052063 0.326853 0.863862
0.052339 0.327128 0.882865
0.048260 0.378944 0.048260
0.048622 0.379306 0.073190
0.049324 0.380008 0.121554
0.050072 0.380756 0.173034
0.050847 0.381531 0.226434
0.051643 0.382327 0.281245
0.052455 0.383139 0.337181
0.053281 0.383965 0.394056
0.054118 0.384802 0.451739
0.054966 0.385650 0.510132
0.055823 0.386507 0.569159
0.056688 0.387373 0.628759
0.057561 0.388245 0.688884
0.058441 0.389125 0.749491
0.059328 0.390012 0.810547
0.060220 0.390904 0.872020
0.060496 0.391180 0.891023
0.056537 0.443931 0.056537
0.056899 0.444293 0.081467
0.057601 0.444996 0.129831
0.058348 0.445743 0.181311
0.059124 0.446518 0.234710
0.059919 0.447314 0.289521
0.060731 0.448126 0.345458
0.061557 0.448952 0.402333
0.062395 0.449789 0.460016
0.063243 0.450637 0.518408
0.064100 0.451494 0.577435
0.064965 0.452360 0.637036
0.065838 0.453233 0.697160
0.066718 0.454113 0.757768
0.067604 0.454999 0.818823
0.068497 0.455892 0.880296
0.068773 0.456167 0.899299
0.064917 0.509738 0.064917
0.065279 0.510100 0.089848
0.065982 0.510802 0.138211
0.066729 0.511549 0.189691
0.067504 0.512325 0.243091
0.068300 0.513120 0.297902
0.069112 0.513933 0.353838
0.069938 0.514758 0.410714
0.070775 0.515596 0.468396
0.071623 0.516444 0.526789
0.072480 0.517301 0.585816
0.073346 0.518166 0.645416
0.074219 0.519039 0.705541
0.075099 0.519919 0.766148
0.075985 0.520805 0.827204
0.076877 0.521698 0.888677
0.077153 0.521974 0.907680
0.073391 0.576274 0.073391
0.073753 0.576636 0.098321
0.074455 0.577338 0.146685
0.075203 0.578086 0.198165
0.075978 0.578861 0.251564
0.076774 0.579657 0.306376
0.077586 0.580469 0.362312
0.078412 0.581295 0.419187
0.079249 0.582132 0.476870
0.080097 0.582980 0.535263
0.080954 0.583837 0.594290
0.081819 0.584702 0.653890
0.082692 0.585575 0.714015
0.083572 0.586455 0.774622
0.084459 0.587342 0.835677
0.085351 0.588234 0.897151
0.085627 0.588510 0.916153
0.081949 0.643470 0.081949
0.082311 0.643832 0.106879
0.083013 0.644534 0.155243
0.083760 0.645281 0.206723
0.084536 0.646057 0.260122
0.085331 0.646852 0.314933
0.086144 0.647665 0.370870
0.086969 0.648490 0.427745
0.087807 0.649328 0.485428
0.088655 0.650176 0.543820
0.089512 0.651033 0.602847
0.090377 0.651898 0.662448
0.091250 0.652771 0.722572
0.092130 0.653651 0.783180
0.093016 0.654537 0.844235
0.093909 0.655430 0.905708
0.094185 0.655706 0.924711
0.090583 0.711266 0.090583
0.090945 0.711628 0.115513
0.091647 0.712330 0.163877
0.092395 0.713078 0.215357
0.093170 0.713853 0.268756
0.093966 0.714649 0.323568
0.094778 0.715461 0.379504
0.095604 0.716287 0.436379
0.096441 0.717124 0.494062
0.097289 0.717972 0.552455
0.098146 0.718829 0.611481
0.099011 0.719695 0.671082
0.099884 0.720567 0.731206
0.100764 0.721447 0.791814
0.101651 0.722334 0.852869
0.102543 0.723226 0.914342
0.102819 0.723502 0.933345
0.099288 0.779616 0.099288
0.099650 0.779978 0.124218
0.100352 0.780680 0.172582
0.101099 0.781428 0.224062
0.101874 0.782203 0.277461
0.102670 0.782999 0.332272
0.103482 0.783811 0.388209
0.104308 0.784637 0.445084
0.105146 0.785474 0.502767
0.105993 0.786322 0.561159
0.106850 0.787179 0.620186
0.107716 0.788044 0.679786
0.108589 0.788917 0.739911
0.109469 0.789797 0.800519
0.110355 0.790684 0.861574
0.111248 0.791576 0.923047
0.111524 0.791852 0.942050
0.108057 0.848478 0.108057
0.108419 0.848840 0.132988
0.109122 0.849542 0.181352
0.109869 0.850290 0.232832
0.110644 0.851065 0.286231
0.111440 0.851861 0.341042
0.112252 0.852673 0.396979
0.113078 0.853499 0.453854
0.113916 0.854336 0.511536
0.114763 0.855184 0.569929
0.115620 0.856041 0.628956
0.116486 0.856906 0.688556
0.117359 0.857779 0.748681
0.118239 0.858659 0.809288
0.119125 0.859546 0.870344
0.120018 0.860438 0.931817
0.120293 0.860714 0.950820
0.116888 0.917818 0.116888
0.117250 0.918180 0.141818
0.117952 0.918882 0.190182
0.118700 0.919629 0.241662
0.119475 0.920405 0.295062
0.120271 0.921201 0.349873
0.121083 0.922013 0.405809
0.121909 0.922838 0.462684
0.122746 0.923676 0.520367
0.123594 0.924524 0.578760
0.124451 0.925381 0.637787
0.125316 0.926246 0.697387
0.126189 0.927119 0.757512
0.127069 0.927999 0.818119
0.127956 0.928885 0.879175
0.128848 0.929778 0.940648
0.129124 0.930054 0.959651
0.000000 0.000000 0.000000
0.000362 0.000362 0.024930
0.001064 0.001064 0.073294
0.001812 0.001812 0.124774
0.002587 0.002587 0.178173
0.003383 0.003383 0.232985
0.004195 0.004195 0.288921
0.005021 0.005021 0.345796
0.005858 0.005858 0.403479
0.006706 0.006706 0.461872
0.007563 0.007563 0.520898
0.008428 0.008428 0.580499
0.009301 0.009301 0.640624
0.010181 0.010181 0.701231
0.011068 0.011068 0.762286
0.011960 0.011960 0.823760
0.012236 0.012236 0.842762
0.000000 0.000000 0.000000
0.000362 0.000362 0.024930
0.001064 0.001064 0.073294
0.001812 0.001812 0.124774
0.002587 0.002587 0.178173
0.003383 0.003383 0.232985
0.004195 0.004195 0.288921
0.005021 0.005021 0.345796
0.005858 0.005858 0.403479
0.006706 0.006706 0.461872
0.007563 0.007563 0.520898
0.008428 0.008428 0.580499
0.009301 0.009301 0.640624
0.010181 0.010181 0.701231
0.011068 0.011068 0.762286
0.011960 0.011960 0.823760
0.012236 0.012236 0.842762
0.002424 0.019032 0.002424
0.002786 0.019394 0.027354
0.003488 0.020096 0.075718
0.004235 0.020843 0.127198
0.005011 0.021619 0.180597
0.005806 0.022414 0.235408
0.006619 0.023227 0.291345
0.007444 0.024052 0.348220
0.008282 0.024890 0.405903
0.009130 0.025738 0.464295
0.009987 0.026595 0.523322
0.010852 0.027460 0.582923
0.011725 0.028333 0.643047
0.012605 0.029213 0.703655
0.013491 0.030099 0.764710
0.014384 0.030992 0.826183
0.014660 0.031268 0.845186
0.009255 0.072674 0.009255
0.009617 0.073036 0.034185
0.010319 0.073738 0.082549
0.011067 0.074485 0.134029
0.011842 0.075261 0.187429
0.012638 0.076057 0.242240
0.013450 0.076869 0.298176
0.014276 0.077694 0.355052
0.015113 0.078532 0.412734
0.015961 0.079380 0.471127
0.016818 0.080237 0.530154
0.017684 0.081102 0.589754
0.018556 0.081975 0.649879
0.019436 0.082855 0.710486
0.020323 0.083741 0.771542
0.021215 0.084634 0.833015
0.021491 0.084910 0.852018
0.016597 0.130322 0.016597
0.016959 0.130684 0.041527
0.017661 0.131386 0.089891
0.018409 0.132134 0.141371
0.019184 0.132909 0.194770
0.019980 0.133705 0.249582
0.020792 0.134517 0.305518
0.021618 0.135343 0.362393
0.022455 0.136180 0.420076
0.023303 0.137028 0.478469
0.024160 0.137885 0.537496
0.025025 0.138750 0.597096
0.025898 0.139623 0.657221
0.026778 0.140503 0.717828
0.027665 0.141390 0.778883
0.028557 0.142282 0.840357
0.028833 0.142558 0.859359
0.024234 0.190291 0.024234
0.024596 0.190653 0.049165
0.025299 0.191355 0.097528
0.026046 0.192103 0.149008
0.026821 0.192878 0.202408
0.027617 0.193674 0.257219
0.028429 0.194486 0.313156
0.029255 0.195312 0.370031
0.030093 0.196149 0.427713
0.030940 0.196997 0.486106
0.031797 0.197854 0.545133
0.032663 0.198719 0.604733
0.033536 0.199592 0.664858
0.034416 0.200472 0.725465
0.035302 0.201359 0.786521
0.036195 0.202251 0.847994
0.036470 0.202527 0.866997
0.032085 0.251933 0.032085
0.032447 0.252295 0.057015
0.033149 0.252997 0.105379
0.033896 0.253744 0.156859
0.034672 0.254520 0.210258
0.035467 0.255316 0.265069
0.036280 0.256128 0.321006
0.037105 0.256954 0.377881
0.037943 0.257791 0.435564
0.038791 0.258639 0.493956
0.039648 0.259496 0.552983
0.040513 0.260361 0.612584
0.041386 0.261234 0.672708
0.042266 0.262114 0.733316
0.043152 0.263000 0.794371
0.044045 0.263893 0.855844
0.044321 0.264169 0.874847
0.040103 0.314892 0.040103
0.040465 0.315254 0.065033
0.041167 0.315957 0.113397
0.041915 0.316704 0.164877
0.042690 0.317479 0.218276
0.043486 0.318275 0.273088
0.044298 0.319087 0.329024
0.045124 0.319913 0.385899
0.045961 0.320751 0.443582
0.046809 0.321598 0.501975
0.047666 0.322455 0.561001
0.048531 0.323321 0.620602
0.049404 0.324194 0.680726
0.050284 0.325074 0.741334
0.051171 0.325960 0.802389
0.052063 0.326853 0.863862
0.052339 0.327128 0.882865
0.048260 0.378944 0.048260
0.048622 0.379306 0.073190
0.049324 0.380008 0.121554
0.050072 0.380756 0.173034
0.050847 0.381531 0.226434
0.051643 0.382327 0.281245
0.052455 0.383139 0.337181
0.053281 0.383965 0.394056
0.054118 0.384802 0.451739
0.054966 0.385650 0.510132
0.055823 0.386507 0.569159
0.056688 0.387373 0.628759
0.057561 0.388245 0.688884
0.058441 0.389125 0.749491
0.059328 0.390012 0.810547
0.060220 0.390904 0.872020
0.060496 0.391180 0.891023
0.056537 0.443931 0.056537
0.056899 0.444293 0.081467
0.057601 0.444996 0.129831
0.058348 0.445743 0.181311
0.059124 0.446518 0.234710
0.059919 0.447314 0.289521
0.060731 0.448126 0.345458
0.061557 0.448952 0.402333
0.062395 0.449789 0.460016
0.063243 0.450637 0.518408
0.064100 0.451494 0.577435
0.064965 0.452360 0.637036
0.065838 0.453233 0.697160
0.066718 0.454113 0.757768
0.067604 0.454999 0.818823
0.068497 0.455892 0.880296
0.068773 0.456167 0.899299
0.064917 0.509738 0.064917
0.065279 0.510100 0.089848
0.065982 0.510802 0.138211
0.066729 0.511549 0.189691
0.067504 0.512325 0.243091
0.068300 0.513120 0.297902
0.069112 0.513933 0.353838
0.069938 0.514758 0.410714
0.070775 0.515596 0.468396
0.071623 0.516444 0.526789
0.072480 0.517301 0.585816
0.073346 0.518166 0.645416
0.074219 0.519039 0.705541
0.075099 0.519919 0.766148
0.075985 0.520805 0.827204
0.076877 0.521698 0.888677
0.077153 0.521974 0.907680
0.073391 0.576274 0.073391
0.073753 0.576636 0.098321
0.074455 0.577338 0.146685
0.075203 0.578086 0.198165
0.075978 0.578861 0.251564
0.076774 0.579657 0.306376
0.077586 0.580469 0.362312
0.078412 0.581295 0.419187
0.079249 0.582132 0.476870
0.080097 0.582980 0.535263
0.080954 0.583837 0.594290
0.081819 0.584702 0.653890
0.082692 0.585575 0.714015
0.083572 0.586455 0.774622
0.084459 0.587342 0.835677
0.085351 0.588234 0.897151
0.085627 0.588510 0.916153
0.081949 0.643470 0.081949
0.082311 0.643832 0.106879
0.083013 0.644534 0.155243
0.083760 0.645281 0.206723
0.084536 0.646057 0.260122
0.085331 0.646852 0.314933
0.086144 0.647665 0.370870
0.086969 0.648490 0.427745
0.087807 0.649328 0.485428
0.088655 0.650176 0.543820
0.089512 0.651033 0.602847
0.090377 0.651898 0.662448
0.091250 0.652771 0.722572
0.092130 0.653651 0.783180
0.093016 0.654537 0.844235
0.093909 0.655430 0.905708
0.094185 0.655706 0.924711
0.090583 0.711266 0.090583
0.090945 0.711628 0.115513
0.091647 0.712330 0.163877
0.092395 0.713078 0.215357
0.093170 0.713853 0.268756
0.093966 0.714649 0.323568
0.094778 0.715461 0.379504
0.095604 0.716287 0.436379
0.096441 0.717124 0.494062
0.097289 0.717972 0.552455
0.098146 0.718829 0.611481
0.099011 0.719695 0.671082
0.099884 0.720567 0.731206
0.100764 0.721447 0.791814
0.101651 0.722334 0.852869
0.102543 0.723226 0.914342
0.102819 0.723502 0.933345
0.099288 0.779616 0.099288
0.099650 0.779978 0.124218
0.100352 0.780680 0.172582
0.101099 0.781428 0.224062
0.101874 0.782203 0.277461
0.102670 0.782999 0.332272
0.103482 0.783811 0.388209
0.104308 0.784637 0.445084
0.105146 0.785474 0.502767
0.105993 0.786322 0.561159
0.106850 0.787179 0.620186
0.107716 0.788044 0.679786
0.108589 0.788917 0.739911
0.109469 0.789797 0.800519
0.110355 0.790684 0.861574
0.111248 0.791576 0.923047
0.111524 0.791852 0.942050
0.108057 0.848478 0.108057
0.108419 0.848840 0.132988
0.109122 0.849542 0.181352
0.109869 0.850290 0.232832
0.110644 0.851065 0.286231
0.111440 0.851861 0.341042
0.112252 0.852673 0.396979
0.113078 0.853499 0.453854
0.113916 0.854336 0.511536
0.114763 0.855184 0.569929
0.115620 0.856041 0.628956
0.116486 0.856906 0.688556
0.117359 0.857779 0.748681
0.118239 0.858659 0.809288
0.119125 0.859546 0.870344
0.120018 0.860438 0.931817
0.120293 0.860714 0.950820
0.116888 0.917818 0.116888
0.117250 0.918180 0.141818
0.117952 0.918882 0.190182
0.118700 0.919629 0.241662
0.119475 0.920405 0.295062
0.120271 0.921201 0.349873
0.121083 0.922013 0.405809
0.121909 0.922838 0.462684
0.122746 0.923676 0.520367
0.123594 0.924524 0.578760
0.124451 0.925381 0.637787
0.125316 0.926246 0.697387
0.126189 0.927119 0.757512
0.127069 0.927999 0.818119
0.127956 0.928885 0.879175
0.128848 0.929778 0.940648
0.129124 0.930054 0.959651
0.009358 0.000389 0.000389
0.009720 0.000751 0.025319
0.010422 0.001453 0.073683
0.011170 0.002201 0.125163
0.011945 0.002976 0.178562
0.012741 0.003772 0.233374
0.013553 0.004584 0.289310
0.014379 0.005410 0.346185
0.015216 0.006247 0.403868
0.016064 0.007095 0.462261
0.016921 0.007952 0.521288
0.017786 0.008817 0.580888
0.018659 0.009690 0.641013
0.019539 0.010570 0.701620
0.020426 0.011457 0.762675
0.021318 0.012349 0.824149
0.021594 0.012625 0.843151
0.009358 0.000389 0.000389
