skills/appstore-creatives-orchestrator/assets/grade/luts/night_blue_v18.cube
TITLE "night_blue_v18"
LUT_3D_SIZE 9
DOMAIN_MIN 0.0 0.0 0.0
DOMAIN_MAX 1.0 1.0 1.0
0.000000 0.000000 0.000000
0.001064 0.001064 0.073294
0.002587 0.002587 0.178173
0.004195 0.004195 0.288921
0.005858 0.005858 0.403479
0.007563 0.007563 0.520898
0.009301 0.009301 0.640624
0.011068 0.011068 0.762286
0.012236 0.012236 0.842762
0.002424 0.019032 0.002424
0.003488 0.020096 0.075718
0.005011 0.021619 0.180597
0.006619 0.023227 0.291345
0.008282 0.024890 0.405903
0.009987 0.026595 0.523322
0.011725 0.028333 0.643047
0.013491 0.030099 0.764710
0.014660 0.031268 0.845186
0.016597 0.130322 0.016597
0.017661 0.131386 0.089891
0.019184 0.132909 0.194770
0.020792 0.134517 0.305518
0.022455 0.136180 0.420076
0.024160 0.137885 0.537496
0.025898 0.139623 0.657221
0.027665 0.141390 0.778883
0.028833 0.142558 0.859359
0.032085 0.251933 0.032085
0.033149 0.252997 0.105379
0.034672 0.254520 0.210258
0.036280 0.256128 0.321006
0.037943 0.257791 0.435564
0.039648 0.259496 0.552983
0.041386 0.261234 0.672708
0.043152 0.263000 0.794371
0.044321 0.264169 0.874847
0.048260 0.378944 0.048260
0.049324 0.380008 0.121554
0.050847 0.381531 0.226434
0.052455 0.383139 0.337181
0.054118 0.384802 0.451739
0.055823 0.386507 0.569159
0.057561 0.388245 0.688884
0.059328 0.390012 0.810547
0.060496 0.391180 0.891023
0.064917 0.509738 0.064917
0.065982 0.510802 0.138211
0.067504 0.512325 0.243091
0.069112 0.513933 0.353838
0.070775 0.515596 0.468396
0.072480 0.517301 0.585816
0.074219 0.519039 0.705541
0.075985 0.520805 0.827204
0.077153 0.521974 0.907680
0.081949 0.643470 0.081949
0.083013 0.644534 0.155243
0.084536 0.646057 0.260122
0.086144 0.647665 0.370870
0.087807 0.649328 0.485428
0.089512 0.651033 0.602847
0.091250 0.652771 0.722572
0.093016 0.654537 0.844235
0.094185 0.655706 0.924711
0.099288 0.779616 0.099288
0.100352 0.780680 0.172582
0.101874 0.782203 0.277461
0.103482 0.783811 0.388209
0.105146 0.785474 0.502767
0.106850 0.787179 0.620186
0.108589 0.788917 0.739911
0.110355 0.790684 0.861574
0.111524 0.791852 0.942050
0.116888 0.917818 0.116888
0.117952 0.918882 0.190182
0.119475 0.920405 0.295062
0.121083 0.922013 0.405809
0.122746 0.923676 0.520367
0.124451 0.925381 0.637787
0.126189 0.927119 0.757512
0.127956 0.928885 0.879175
0.129124 0.930054 0.959651
0.000000 0.000000 0.000000
0.001064 0.001064 0.073294
0.002587 0.002587 0.178173
0.004195 0.004195 0.288921
0.005858 0.005858 0.403479
0.007563 0.007563 0.520898
0.009301 0.009301 0.640624
0.011068 0.011068 0.762286
0.012236 0.012236 0.842762
0.002424 0.019032 0.002424
0.003488 0.020096 0.075718
0.005011 0.021619 0.180597
0.006619 0.023227 0.291345
0.008282 0.024890 0.405903
0.009987 0.026595 0.523322
0.011725 0.028333 0.643047
0.013491 0.030099 0.764710
0.014660 0.031268 0.845186
0.016597 0.130322 0.016597
0.017661 0.131386 0.089891
0.019184 0.132909 0.194770
0.020792 0.134517 0.305518
0.022455 0.136180 0.420076
0.024160 0.137885 0.537496
0.025898 0.139623 0.657221
0.027665 0.141390 0.778883
0.028833 0.142558 0.859359
0.032085 0.251933 0.032085
0.033149 0.252997 0.105379
0.034672 0.254520 0.210258
0.036280 0.256128 0.321006
0.037943 0.257791 0.435564
0.039648 0.259496 0.552983
0.041386 0.261234 0.672708
0.043152 0.263000 0.794371
0.044321 0.264169 0.874847
0.048260 0.378944 0.048260
0.049324 0.380008 0.121554
0.050847 0.381531 0.226434
0.052455 0.383139 0.337181
0.054118 0.384802 0.451739
0.055823 0.386507 0.569159
0.057561 0.388245 0.688884
0.059328 0.390012 0.810547
0.060496 0.391180 0.891023
0.064917 0.509738 0.064917
0.065982 0.510802 0.138211
0.067504 0.512325 0.243091
0.069112 0.513933 0.353838
0.070775 0.515596 0.468396
0.072480 0.517301 0.585816
0.074219 0.519039 0.705541
0.075985 0.520805 0.827204
0.077153 0.521974 0.907680
0.081949 0.643470 0.081949
0.083013 0.644534 0.155243
0.084536 0.646057 0.260122
0.086144 0.647665 0.370870
0.087807 0.649328 0.485428
0.089512 0.651033 0.602847
0.091250 0.652771 0.722572
0.093016 0.654537 0.844235
0.094185 0.655706 0.924711
0.099288 0.779616 0.099288
0.100352 0.780680 0.172582
0.101874 0.782203 0.277461
0.103482 0.783811 0.388209
0.105146 0.785474 0.502767
0.106850 0.787179 0.620186
0.108589 0.788917 0.739911
0.110355 0.790684 0.861574
0.111524 0.791852 0.942050
0.116888 0.917818 0.116888
0.117952 0.918882 0.190182
0.119475 0.920405 0.295062
0.121083 0.922013 0.405809
0.122746 0.923676 0.520367
0.124451 0.925381 0.637787
0.126189 0.927119 0.757512
0.127956 0.928885 0.879175
0.129124 0.930054 0.959651
0.057083 0.002373 0.002373
0.058148 0.003438 0.075667
0.059670 0.004960 0.180547
0.061278 0.006568 0.291295
0.062941 0.008232 0.405852
0.064646 0.009936 0.523272
0.066385 0.011675 0.642997
0.068151 0.013441 0.764660
0.069319 0.014609 0.845136
0.059507 0.021405 0.004797
0.060571 0.022469 0.078091
0.062094 0.023992 0.182971
0.063702 0.025600 0.293718
0.065365 0.027263 0.408276
0.067070 0.028968 0.525696
0.068808 0.030706 0.645421
0.070575 0.032473 0.767084
0.071743 0.033641 0.847560
0.073680 0.132695 0.018971
0.074745 0.133760 0.092265
0.076267 0.135282 0.197144
0.077875 0.136890 0.307892
0.079539 0.138553 0.422450
0.081243 0.140258 0.539869
0.082982 0.141997 0.659594
0.084748 0.143763 0.781257
0.085916 0.144931 0.861733
0.089168 0.254306 0.034458
0.090232 0.255371 0.107752
0.091755 0.256893 0.212632
0.093363 0.258501 0.323379
0.095026 0.260164 0.437937
0.096731 0.261869 0.555357
0.098469 0.263608 0.675082
0.100236 0.265374 0.796745
0.101404 0.266542 0.877221
0.105344 0.381318 0.050634
0.106408 0.382382 0.123928
0.107931 0.383905 0.228807
0.109538 0.385513 0.339555
0.111202 0.387176 0.454113
0.112907 0.388881 0.571532
0.114645 0.390619 0.691257
0.116411 0.392385 0.812920
0.117580 0.393554 0.893396
0.122001 0.512111 0.067291
0.123065 0.513175 0.140585
0.124588 0.514698 0.245464
0.126196 0.516306 0.356212
0.127859 0.517969 0.470770
0.129564 0.519674 0.588189
0.131302 0.521412 0.707914
0.133068 0.523179 0.829577
0.134237 0.524347 0.910053
0.139032 0.645843 0.084322
0.140096 0.646907 0.157616
0.141619 0.648430 0.262496
0.143227 0.650038 0.373243
0.144890 0.651701 0.487801
0.146595 0.653406 0.605221
0.148333 0.655144 0.724946
0.150100 0.656911 0.846609
0.151268 0.658079 0.927085
0.156371 0.781989 0.101661
0.157435 0.783054 0.174955
0.158958 0.784576 0.279834
0.160566 0.786184 0.390582
0.162229 0.787848 0.505140
0.163934 0.789552 0.622559
0.165672 0.791291 0.742285
0.167439 0.793057 0.863947
0.168607 0.794225 0.944423
0.173972 0.920191 0.119262
0.175036 0.921255 0.192556
0.176558 0.922778 0.297435
0.178166 0.924386 0.408183
0.179830 0.926049 0.522741
0.181534 0.927754 0.640160
0.183273 0.929492 0.759885
0.185039 0.931259 0.881548
0.186208 0.932427 0.962024
0.163366 0.006793 0.006793
0.164430 0.007857 0.080087
0.165953 0.009379 0.184966
0.167561 0.010987 0.295714
0.169224 0.012651 0.410271
0.170929 0.014355 0.527691
0.172667 0.016094 0.647416
0.174433 0.017860 0.769079
0.175602 0.019029 0.849555
0.165790 0.025824 0.009216
0.166854 0.026888 0.082510
0.168376 0.028411 0.187390
0.169984 0.030019 0.298137
0.171648 0.031682 0.412695
0.173352 0.033387 0.530115
0.175091 0.035125 0.649840
0.176857 0.036892 0.771503
0.178026 0.038060 0.851979
0.179963 0.137114 0.023390
0.181027 0.138179 0.096684
0.182550 0.139701 0.201563
0.184158 0.141309 0.312311
0.185821 0.142973 0.426869
0.187526 0.144677 0.544288
0.189264 0.146416 0.664013
0.191030 0.148182 0.785676
0.192199 0.149350 0.866152
0.195451 0.258725 0.038877
0.196515 0.259790 0.112171
0.198037 0.261312 0.217051
0.199645 0.262920 0.327798
0.201309 0.264583 0.442356
0.203013 0.266288 0.559776
0.204752 0.268027 0.679501
0.206518 0.269793 0.801164
0.207687 0.270961 0.881640
0.211626 0.385737 0.055053
0.212690 0.386801 0.128347
0.214213 0.388324 0.233226
0.215821 0.389932 0.343974
0.217484 0.391595 0.458532
0.219189 0.393300 0.575951
0.220927 0.395038 0.695676
0.222694 0.396804 0.817339
0.223862 0.397973 0.897815
0.228283 0.516530 0.071710
0.229347 0.517594 0.145004
0.230870 0.519117 0.249883
0.232478 0.520725 0.360631
0.234141 0.522388 0.475189
0.235846 0.524093 0.592608
0.237584 0.525831 0.712333
0.239351 0.527598 0.833996
0.240519 0.528766 0.914472
0.245315 0.650262 0.088741
0.246379 0.651326 0.162035
0.247901 0.652849 0.266915
0.249509 0.654457 0.377662
0.251173 0.656120 0.492220
0.252877 0.657825 0.609640
0.254616 0.659563 0.729365
0.256382 0.661330 0.851028
0.257551 0.662498 0.931504
0.262653 0.786409 0.106080
0.263718 0.787473 0.179374
0.265240 0.788995 0.284253
0.266848 0.790603 0.395001
0.268511 0.792267 0.509559
0.270216 0.793971 0.626979
0.271955 0.795710 0.746704
0.273721 0.797476 0.868366
0.274889 0.798645 0.948842
0.280254 0.924610 0.123681
0.281318 0.925674 0.196975
0.282841 0.927197 0.301854
0.284449 0.928805 0.412602
0.286112 0.930468 0.527160
0.287817 0.932173 0.644579
0.289555 0.933911 0.764304
0.291322 0.935678 0.885967
0.292490 0.936846 0.966443
0.276374 0.011491 0.011491
0.277439 0.012555 0.084785
0.278961 0.014078 0.189665
0.280569 0.015686 0.300412
0.282232 0.017349 0.414970
0.283937 0.019054 0.532390
0.285676 0.020792 0.652115
0.287442 0.022559 0.773778
0.288610 0.023727 0.854254
0.278798 0.030523 0.013915
0.279862 0.031587 0.087209
0.281385 0.033110 0.192088
0.282993 0.034718 0.302836
0.284656 0.036381 0.417394
0.286361 0.038086 0.534813
0.288099 0.039824 0.654539
0.289866 0.041591 0.776201
0.291034 0.042759 0.856677
0.292971 0.141813 0.028088
0.294036 0.142877 0.101382
0.295558 0.144400 0.206262
0.297166 0.146008 0.317009
0.298830 0.147671 0.431567
0.300534 0.149376 0.548987
0.302273 0.151114 0.668712
0.304039 0.152881 0.790375
0.305207 0.154049 0.870851
0.308459 0.263424 0.043576
0.309523 0.264488 0.116870
0.311046 0.266011 0.221749
0.312654 0.267619 0.332497
0.314317 0.269282 0.447055
0.316022 0.270987 0.564474
0.317760 0.272725 0.684200
0.319527 0.274492 0.805862
0.320695 0.275660 0.886338
0.324635 0.390436 0.059751
0.325699 0.391500 0.133046
0.327222 0.393022 0.237925
0.328829 0.394630 0.348673
0.330493 0.396294 0.463230
0.332198 0.397998 0.580650
0.333936 0.399737 0.700375
0.335702 0.401503 0.822038
0.336871 0.402672 0.902514
0.341292 0.521229 0.076409
0.342356 0.522293 0.149703
0.343879 0.523816 0.254582
0.345487 0.525424 0.365330
0.347150 0.527087 0.479888
0.348855 0.528792 0.597307
0.350593 0.530530 0.717032
0.352359 0.532297 0.838695
0.353528 0.533465 0.919171
0.358323 0.654961 0.093440
0.359387 0.656025 0.166734
0.360910 0.657548 0.271613
0.362518 0.659156 0.382361
0.364181 0.660819 0.496919
0.365886 0.662524 0.614338
0.367624 0.664262 0.734063
0.369391 0.666028 0.855726
0.370559 0.667197 0.936202
0.375662 0.791107 0.110779
0.376726 0.792171 0.184073
0.378249 0.793694 0.288952
0.379857 0.795302 0.399700
0.381520 0.796965 0.514258
0.383225 0.798670 0.631677
0.384963 0.800408 0.751402
0.386730 0.802175 0.873065
0.387898 0.803343 0.953541
0.393263 0.929309 0.128379
0.394327 0.930373 0.201673
0.395850 0.931896 0.306553
0.397457 0.933504 0.417301
0.399121 0.935167 0.531858
0.400826 0.936872 0.649278
0.402564 0.938610 0.769003
0.404330 0.940377 0.890666
0.405499 0.941545 0.971142
0.393555 0.016363 0.016363
0.394619 0.017428 0.089657
0.396142 0.018950 0.194537
0.397750 0.020558 0.305284
0.399413 0.022221 0.419842
0.401118 0.023926 0.537262
0.402856 0.025665 0.656987
0.404622 0.027431 0.778650
0.405791 0.028599 0.859126
0.395979 0.035395 0.018787
0.397043 0.036459 0.092081
0.398566 0.037982 0.196961
0.400173 0.039590 0.307708
0.401837 0.041253 0.422266
0.403542 0.042958 0.539686
0.405280 0.044696 0.659411
0.407046 0.046463 0.781074
0.408215 0.047631 0.861550
0.410152 0.146685 0.032961
0.411216 0.147750 0.106255
0.412739 0.149272 0.211134
0.414347 0.150880 0.321882
0.416010 0.152543 0.436439
0.417715 0.154248 0.553859
0.419453 0.155987 0.673584
0.421220 0.157753 0.795247
0.422388 0.158921 0.875723
0.425640 0.268296 0.048448
0.426704 0.269360 0.121742
0.428227 0.270883 0.226622
0.429834 0.272491 0.337369
0.431498 0.274154 0.451927
0.433203 0.275859 0.569347
0.434941 0.277597 0.689072
0.436707 0.279364 0.810735
0.437876 0.280532 0.891211
0.441815 0.395308 0.064624
0.442879 0.396372 0.137918
0.444402 0.397895 0.242797
0.446010 0.399503 0.353545
0.447673 0.401166 0.468103
0.449378 0.402871 0.585522
0.451116 0.404609 0.705247
0.452883 0.406375 0.826910
0.454051 0.407544 0.907386
0.458472 0.526101 0.081281
0.459536 0.527165 0.154575
0.461059 0.528688 0.259454
0.462667 0.530296 0.370202
0.464330 0.531959 0.484760
0.466035 0.533664 0.602179
0.467773 0.535402 0.721904
0.469540 0.537169 0.843567
0.470708 0.538337 0.924043
0.475504 0.659833 0.098312
0.476568 0.660897 0.171606
0.478090 0.662420 0.276485
0.479698 0.664028 0.387233
0.481362 0.665691 0.501791
0.483066 0.667396 0.619211
0.484805 0.669134 0.738936
0.486571 0.670901 0.860599
0.487740 0.672069 0.941074
0.492842 0.795979 0.115651
0.493907 0.797044 0.188945
0.495429 0.798566 0.293824
0.497037 0.800174 0.404572
0.498701 0.801838 0.519130
0.500405 0.803542 0.636549
0.502144 0.805281 0.756275
0.503910 0.807047 0.877937
0.505078 0.808215 0.958413
0.510443 0.934181 0.133252
0.511507 0.935245 0.206546
0.513030 0.936768 0.311425
0.514638 0.938376 0.422173
0.516301 0.940039 0.536731
0.518006 0.941744 0.654150
0.519744 0.943482 0.773875
0.521511 0.945249 0.895538
0.522679 0.946417 0.976014
0.513813 0.021364 0.021364
0.514877 0.022428 0.094658
0.516400 0.023950 0.199537
0.518007 0.025558 0.310285
0.519671 0.027222 0.424843
0.521376 0.028926 0.542262
0.523114 0.030665 0.661987
0.524880 0.032431 0.783650
0.526049 0.033600 0.864126
0.516236 0.040395 0.023787
0.517301 0.041459 0.097081
0.518823 0.042982 0.201961
0.520431 0.044590 0.312708
0.522094 0.046253 0.427266
0.523799 0.047958 0.544686
0.525538 0.049696 0.664411
0.527304 0.051463 0.786074
0.528472 0.052631 0.866550
0.530410 0.151686 0.037961
0.531474 0.152750 0.111255
0.532997 0.154272 0.216134
0.534605 0.155880 0.326882
0.536268 0.157544 0.441440
0.537973 0.159248 0.558859
0.539711 0.160987 0.678584
0.541477 0.162753 0.800247
0.542646 0.163922 0.880723
0.545897 0.273296 0.053448
0.546962 0.274361 0.126742
0.548484 0.275883 0.231622
0.550092 0.277491 0.342369
0.551755 0.279155 0.456927
0.553460 0.280859 0.574347
0.555199 0.282598 0.694072
0.556965 0.284364 0.815735
0.558133 0.285532 0.896211
0.562073 0.400308 0.069624
0.563137 0.401372 0.142918
0.564660 0.402895 0.247797
0.566268 0.404503 0.358545
0.567931 0.406166 0.473103
0.569636 0.407871 0.590522
0.571374 0.409609 0.710247
0.573140 0.411375 0.831910
0.574309 0.412544 0.912386
0.578730 0.531101 0.086281
0.579794 0.532166 0.159575
0.581317 0.533688 0.264454
0.582925 0.535296 0.375202
0.584588 0.536959 0.489760
0.586293 0.538664 0.607179
0.588031 0.540403 0.726904
0.589798 0.542169 0.848567
0.590966 0.543337 0.929043
0.595761 0.664833 0.103312
0.596826 0.665897 0.176606
0.598348 0.667420 0.281486
0.599956 0.669028 0.392233
0.601619 0.670691 0.506791
0.603324 0.672396 0.624211
0.605063 0.674134 0.743936
0.606829 0.675901 0.865599
0.607997 0.677069 0.946075
0.613100 0.800980 0.120651
0.614164 0.802044 0.193945
0.615687 0.803566 0.298824
0.617295 0.805174 0.409572
0.618958 0.806838 0.524130
0.620663 0.808542 0.641550
0.622401 0.810281 0.761275
0.624168 0.812047 0.882937
0.625336 0.813216 0.963413
0.630701 0.939181 0.138252
0.631765 0.940246 0.211546
0.633288 0.941768 0.316425
0.634896 0.943376 0.427173
0.636559 0.945039 0.541731
0.638264 0.946744 0.659150
0.640002 0.948483 0.778875
0.641768 0.950249 0.900538
0.642937 0.951417 0.981014
0.636526 0.026466 0.026466
0.637590 0.027530 0.099760
0.639112 0.029053 0.204639
0.640720 0.030661 0.315387
0.642384 0.032324 0.429945
0.644088 0.034029 0.547364
0.645827 0.035767 0.667089
0.647593 0.037533 0.788752
0.648762 0.038702 0.869228
0.638949 0.045498 0.028890
0.640014 0.046562 0.102184
0.641536 0.048084 0.207063
0.643144 0.049692 0.317811
0.644807 0.051356 0.432369
0.646512 0.053060 0.549788
0.648251 0.054799 0.669513
0.650017 0.056565 0.791176
0.651185 0.057734 0.871652
0.653123 0.156788 0.043063
0.654187 0.157852 0.116357
0.655710 0.159375 0.221236
0.657318 0.160983 0.331984
0.658981 0.162646 0.446542
0.660686 0.164351 0.563961
0.662424 0.166089 0.683686
0.664190 0.167855 0.805349
0.665359 0.169024 0.885825
0.668610 0.278399 0.058551
0.669675 0.279463 0.131845
0.671197 0.280986 0.236724
0.672805 0.282594 0.347472
0.674468 0.284257 0.462030
0.676173 0.285962 0.579449
0.677912 0.287700 0.699174
0.679678 0.289466 0.820837
0.680846 0.290635 0.901313
0.684786 0.405410 0.074726
0.685850 0.406474 0.148020
0.687373 0.407997 0.252899
0.688981 0.409605 0.363647
0.690644 0.411268 0.478205
0.692349 0.412973 0.595624
0.694087 0.414711 0.715350
0.695853 0.416478 0.837012
0.697022 0.417646 0.917488
0.701443 0.536204 0.091383
0.702507 0.537268 0.164677
0.704030 0.538790 0.269557
0.705638 0.540398 0.380304
0.707301 0.542062 0.494862
0.709006 0.543766 0.612282
0.710744 0.545505 0.732007
0.712511 0.547271 0.853670
0.713679 0.548440 0.934145
0.718474 0.669935 0.108415
0.719539 0.671000 0.181709
0.721061 0.672522 0.286588
0.722669 0.674130 0.397336
0.724332 0.675794 0.511894
0.726037 0.677498 0.629313
0.727776 0.679237 0.749038
0.729542 0.681003 0.870701
0.730710 0.682171 0.951177
0.735813 0.806082 0.125753
0.736877 0.807146 0.199047
0.738400 0.808669 0.303927
0.740008 0.810277 0.414674
0.741671 0.811940 0.529232
0.743376 0.813645 0.646652
0.745114 0.815383 0.766377
0.746881 0.817149 0.888040
0.748049 0.818318 0.968516
0.753414 0.944284 0.143354
0.754478 0.945348 0.216648
0.756001 0.946870 0.321527
0.757609 0.948478 0.432275
0.759272 0.950142 0.546833
0.760977 0.951846 0.664252
0.762715 0.953585 0.783977
0.764481 0.955351 0.905640
0.765650 0.956520 0.986116
0.761289 0.031653 0.031653
0.762353 0.032717 0.104947
0.763876 0.034240 0.209827
0.765484 0.035848 0.320574
0.767147 0.037511 0.435132
0.768852 0.039216 0.552552
0.770590 0.040954 0.672277
0.772357 0.042721 0.793940
0.773525 0.043889 0.874416
0.763713 0.050685 0.034077
0.764777 0.051749 0.107371
0.766300 0.053272 0.212250
0.767908 0.054880 0.322998
0.769571 0.056543 0.437556
0.771276 0.058248 0.554975
0.773014 0.059986 0.674701
0.774780 0.061753 0.796363
0.775949 0.062921 0.876839
0.777886 0.161975 0.048250
0.778950 0.163039 0.121544
0.780473 0.164562 0.226424
0.782081 0.166170 0.337171
0.783744 0.167833 0.451729
0.785449 0.169538 0.569149
0.787187 0.171276 0.688874
0.788954 0.173043 0.810537
0.790122 0.174211 0.891013
0.793374 0.283586 0.063738
0.794438 0.284650 0.137032
0.795961 0.286173 0.241911
0.797569 0.287781 0.352659
0.799232 0.289444 0.467217
0.800937 0.291149 0.584636
0.802675 0.292887 0.704362
0.804441 0.294654 0.826024
0.805610 0.295822 0.906500
0.809549 0.410598 0.079914
0.810614 0.411662 0.153208
0.812136 0.413184 0.258087
0.813744 0.414792 0.368835
0.815407 0.416456 0.483392
0.817112 0.418160 0.600812
0.818851 0.419899 0.720537
0.820617 0.421665 0.842200
0.821785 0.422834 0.922676
0.826207 0.541391 0.096571
0.827271 0.542455 0.169865
0.828793 0.543978 0.274744
0.830401 0.545586 0.385492
0.832065 0.547249 0.500050
0.833769 0.548954 0.617469
0.835508 0.550692 0.737194
0.837274 0.552459 0.858857
0.838443 0.553627 0.939333
0.843238 0.675123 0.113602
0.844302 0.676187 0.186896
0.845825 0.677710 0.291775
0.847433 0.679318 0.402523
0.849096 0.680981 0.517081
0.850801 0.682686 0.634500
0.852539 0.684424 0.754226
0.854305 0.686191 0.875888
0.855474 0.687359 0.956364
0.860577 0.811269 0.130941
0.861641 0.812333 0.204235
0.863164 0.813856 0.309114
0.864772 0.815464 0.419862
0.866435 0.817127 0.534420
0.868140 0.818832 0.651839
0.869878 0.820570 0.771564
0.871644 0.822337 0.893227
0.872813 0.823505 0.973703
0.878177 0.949471 0.148541
0.879241 0.950535 0.221835
0.880764 0.952058 0.326715
0.882372 0.953666 0.437463
0.884035 0.955329 0.552020
0.885740 0.957034 0.669440
0.887479 0.958772 0.789165
0.889245 0.960539 0.910828
0.890413 0.961707 0.991304
