skills/appstore-creatives-orchestrator/assets/grade/luts/night_blue_v18.cube
TITLE "night_blue_v18"
LUT_3D_SIZE 5
DOMAIN_MIN 0.0 0.0 0.0
DOMAIN_MAX 1.0 1.0 1.0
0.000000 0.000000 0.000000
0.002587 0.002587 0.178173
0.005858 0.005858 0.403479
0.009301 0.009301 0.640624
0.012236 0.012236 0.842762
0.016597 0.130322 0.016597
0.019184 0.132909 0.194770
0.022455 0.136180 0.420076
0.025898 0.139623 0.657221
0.028833 0.142558 0.859359
0.048260 0.378944 0.048260
0.050847 0.381531 0.226434
0.054118 0.384802 0.451739
0.057561 0.388245 0.688884
0.060496 0.391180 0.891023
0.081949 0.643470 0.081949
0.084536 0.646057 0.260122
0.087807 0.649328 0.485428
0.091250 0.652771 0.722572
0.094185 0.655706 0.924711
0.116888 0.917818 0.116888
0.119475 0.920405 0.295062
0.122746 0.923676 0.520367
0.126189 0.927119 0.757512
0.129124 0.930054 0.959651
0.057083 0.002373 0.002373
0.059670 0.004960 0.180547
0.062941 0.008232 0.405852
0.066385 0.011675 0.642997
0.069319 0.014609 0.845136
0.073680 0.132695 0.018971
0.076267 0.135282 0.197144
0.079539 0.138553 0.422450
0.082982 0.141997 0.659594
0.085916 0.144931 0.861733
0.105344 0.381318 0.050634
0.107931 0.383905 0.228807
0.111202 0.387176 0.454113
0.114645 0.390619 0.691257
0.117580 0.393554 0.893396
0.139032 0.645843 0.084322
0.141619 0.648430 0.262496
0.144890 0.651701 0.487801
0.148333 0.655144 0.724946
0.151268 0.658079 0.927085
0.173972 0.920191 0.119262
0.176558 0.922778 0.297435
0.179830 0.926049 0.522741
0.183273 0.929492 0.759885
0.186208 0.932427 0.962024
0.276374 0.011491 0.011491
0.278961 0.014078 0.189665
0.282232 0.017349 0.414970
0.285676 0.020792 0.652115
0.288610 0.023727 0.854254
0.292971 0.141813 0.028088
0.295558 0.144400 0.206262
0.298830 0.147671 0.431567
0.302273 0.151114 0.668712
0.305207 0.154049 0.870851
0.324635 0.390436 0.059751
0.327222 0.393022 0.237925
0.330493 0.396294 0.463230
0.333936 0.399737 0.700375
0.336871 0.402672 0.902514
0.358323 0.654961 0.093440
0.360910 0.657548 0.271613
0.364181 0.660819 0.496919
0.367624 0.664262 0.734063
0.370559 0.667197 0.936202
0.393263 0.929309 0.128379
0.395850 0.931896 0.306553
0.399121 0.935167 0.531858
0.402564 0.938610 0.769003
0.405499 0.941545 0.971142
0.513813 0.021364 0.021364
0.516400 0.023950 0.199537
0.519671 0.027222 0.424843
0.523114 0.030665 0.661987
0.526049 0.033600 0.864126
0.530410 0.151686 0.037961
0.532997 0.154272 0.216134
0.536268 0.157544 0.441440
0.539711 0.160987 0.678584
0.542646 0.163922 0.880723
0.562073 0.400308 0.069624
0.564660 0.402895 0.247797
0.567931 0.406166 0.473103
0.571374 0.409609 0.710247
0.574309 0.412544 0.912386
0.595761 0.664833 0.103312
0.598348 0.667420 0.281486
0.601619 0.670691 0.506791
0.605063 0.674134 0.743936
0.607997 0.677069 0.946075
0.630701 0.939181 0.138252
0.633288 0.941768 0.316425
0.636559 0.945039 0.541731
0.640002 0.948483 0.778875
0.642937 0.951417 0.981014
0.761289 0.031653 0.031653
0.763876 0.034240 0.209827
0.767147 0.037511 0.435132
0.770590 0.040954 0.672277
0.773525 0.043889 0.874416
0.777886 0.161975 0.048250
0.780473 0.164562 0.226424
0.783744 0.167833 0.451729
0.787187 0.171276 0.688874
0.790122 0.174211 0.891013
0.809549 0.410598 0.079914
0.812136 0.413184 0.258087
0.815407 0.416456 0.483392
0.818851 0.419899 0.720537
0.821785 0.422834 0.922676
0.843238 0.675123 0.113602
0.845825 0.677710 0.291775
0.849096 0.680981 0.517081
0.852539 0.684424 0.754226
0.855474 0.687359 0.956364
0.878177 0.949471 0.148541
0.880764 0.952058 0.326715
0.884035 0.955329 0.552020
0.887479 0.958772 0.789165
0.890413 0.961707 0.991304
