skills/appstore-creatives-orchestrator/assets/grade/luts/product_clean_v14.cube
TITLE "product_clean_v14"
LUT_3D_SIZE 17
DOMAIN_MIN 0.0 0.0 0.0
DOMAIN_MAX 1.0 1.0 1.0
0.000000 0.000000 0.000000
0.000000 0.000000 0.049343
0.000000 0.000000 0.116443
0.000000 0.000000 0.183544
0.000000 0.000000 0.250644
0.000000 0.000000 0.317744
0.000000 0.000000 0.384844
0.000000 0.000000 0.451944
0.000000 0.000000 0.519044
0.000000 0.000000 0.586144
0.000000 0.000000 0.653245
0.000000 0.000000 0.720345
0.000000 0.000000 0.787445
0.000000 0.000000 0.854545
0.000000 0.000000 0.921645
0.000000 0.000000 0.988745
0.000000 0.000000 1.000000
0.000000 0.048089 0.000000
0.000000 0.047948 0.047948
0.000000 0.047756 0.115048
0.000000 0.047565 0.182148
0.000000 0.047373 0.249248
0.000000 0.047181 0.316348
0.000000 0.046990 0.383448
0.000000 0.046798 0.450549
0.000000 0.046607 0.517649
0.000000 0.046415 0.584749
0.000000 0.046223 0.651849
0.000000 0.046032 0.718949
0.000000 0.045840 0.786049
0.000000 0.045649 0.853149
0.000000 0.045457 0.920250
0.000000 0.045266 0.987350
0.000000 0.045125 1.000000
0.000000 0.113483 0.000000
0.000000 0.113342 0.046050
0.000000 0.113150 0.113150
0.000000 0.112958 0.180250
0.000000 0.112767 0.247350
0.000000 0.112575 0.314450
0.000000 0.112384 0.381551
0.000000 0.112192 0.448651
0.000000 0.112001 0.515751
0.000000 0.111809 0.582851
0.000000 0.111617 0.649951
0.000000 0.111426 0.717051
0.000000 0.111234 0.784151
0.000000 0.111043 0.851252
0.000000 0.110851 0.918352
0.000000 0.110659 0.985452
0.000000 0.110519 1.000000
0.000000 0.178876 0.000000
0.000000 0.178736 0.044152
0.000000 0.178544 0.111252
0.000000 0.178352 0.178352
0.000000 0.178161 0.245453
0.000000 0.177969 0.312553
0.000000 0.177778 0.379653
0.000000 0.177586 0.446753
0.000000 0.177394 0.513853
0.000000 0.177203 0.580953
0.000000 0.177011 0.648053
0.000000 0.176820 0.715153
0.000000 0.176628 0.782254
0.000000 0.176436 0.849354
0.000000 0.176245 0.916454
0.000000 0.176053 0.983554
0.000000 0.175912 1.000000
0.000000 0.244270 0.000000
0.000000 0.244129 0.042254
0.000000 0.243938 0.109354
0.000000 0.243746 0.176455
0.000000 0.243555 0.243555
0.000000 0.243363 0.310655
0.000000 0.243171 0.377755
0.000000 0.242980 0.444855
0.000000 0.242788 0.511955
0.000000 0.242597 0.579055
0.000000 0.242405 0.646155
0.000000 0.242214 0.713256
0.000000 0.242022 0.780356
0.000000 0.241830 0.847456
0.000000 0.241639 0.914556
0.000000 0.241447 0.981656
0.000000 0.241306 1.000000
0.000000 0.309664 0.000000
0.000000 0.309523 0.040356
0.000000 0.309332 0.107457
0.000000 0.309140 0.174557
0.000000 0.308949 0.241657
0.000000 0.308757 0.308757
0.000000 0.308565 0.375857
0.000000 0.308374 0.442957
0.000000 0.308182 0.510057
0.000000 0.307991 0.577158
0.000000 0.307799 0.644258
0.000000 0.307607 0.711358
0.000000 0.307416 0.778458
0.000000 0.307224 0.845558
0.000000 0.307033 0.912658
0.000000 0.306841 0.979758
0.000000 0.306700 1.000000
0.000000 0.375058 0.000000
0.000000 0.374917 0.038459
0.000000 0.374726 0.105559
0.000000 0.374534 0.172659
0.000000 0.374342 0.239759
0.000000 0.374151 0.306859
0.000000 0.373959 0.373959
0.000000 0.373768 0.441059
0.000000 0.373576 0.508160
0.000000 0.373385 0.575260
0.000000 0.373193 0.642360
0.000000 0.373001 0.709460
0.000000 0.372810 0.776560
0.000000 0.372618 0.843660
0.000000 0.372427 0.910760
0.000000 0.372235 0.977861
0.000000 0.372094 1.000000
0.000000 0.440452 0.000000
0.000000 0.440311 0.036561
0.000000 0.440120 0.103661
0.000000 0.439928 0.170761
0.000000 0.439736 0.237861
0.000000 0.439545 0.304961
0.000000 0.439353 0.372061
0.000000 0.439162 0.439162
0.000000 0.438970 0.506262
0.000000 0.438778 0.573362
0.000000 0.438587 0.640462
0.000000 0.438395 0.707562
0.000000 0.438204 0.774662
0.000000 0.438012 0.841762
0.000000 0.437820 0.908863
0.000000 0.437629 0.975963
0.000000 0.437488 1.000000
0.000000 0.505846 0.000000
0.000000 0.505705 0.034663
0.000000 0.505513 0.101763
0.000000 0.505322 0.168863
0.000000 0.505130 0.235963
0.000000 0.504939 0.303063
0.000000 0.504747 0.370164
0.000000 0.504555 0.437264
0.000000 0.504364 0.504364
0.000000 0.504172 0.571464
0.000000 0.503981 0.638564
0.000000 0.503789 0.705664
0.000000 0.503598 0.772764
0.000000 0.503406 0.839865
0.000000 0.503214 0.906965
0.000000 0.503023 0.974065
0.000000 0.502882 1.000000
0.000000 0.571240 0.000000
0.000000 0.571099 0.032765
0.000000 0.570907 0.099865
0.000000 0.570716 0.166965
0.000000 0.570524 0.234066
0.000000 0.570333 0.301166
0.000000 0.570141 0.368266
0.000000 0.569949 0.435366
0.000000 0.569758 0.502466
0.000000 0.569566 0.569566
0.000000 0.569375 0.636666
0.000000 0.569183 0.703766
0.000000 0.568991 0.770867
0.000000 0.568800 0.837967
0.000000 0.568608 0.905067
0.000000 0.568417 0.972167
0.000000 0.568276 1.000000
0.000000 0.636634 0.000000
0.000000 0.636493 0.030867
0.000000 0.636301 0.097967
0.000000 0.636110 0.165068
0.000000 0.635918 0.232168
0.000000 0.635726 0.299268
0.000000 0.635535 0.366368
0.000000 0.635343 0.433468
0.000000 0.635152 0.500568
0.000000 0.634960 0.567668
0.000000 0.634769 0.634769
0.000000 0.634577 0.701869
0.000000 0.634385 0.768969
0.000000 0.634194 0.836069
0.000000 0.634002 0.903169
0.000000 0.633811 0.970269
0.000000 0.633670 1.000000
0.000000 0.702028 0.000000
0.000000 0.701887 0.028969
0.000000 0.701695 0.096070
0.000000 0.701504 0.163170
0.000000 0.701312 0.230270
0.000000 0.701120 0.297370
0.000000 0.700929 0.364470
0.000000 0.700737 0.431570
0.000000 0.700546 0.498670
0.000000 0.700354 0.565771
0.000000 0.700162 0.632871
0.000000 0.699971 0.699971
0.000000 0.699779 0.767071
0.000000 0.699588 0.834171
0.000000 0.699396 0.901271
0.000000 0.699204 0.968371
0.000000 0.699064 1.000000
0.000000 0.767421 0.000000
0.000000 0.767281 0.027072
0.000000 0.767089 0.094172
0.000000 0.766897 0.161272
0.000000 0.766706 0.228372
0.000000 0.766514 0.295472
0.000000 0.766323 0.362572
0.000000 0.766131 0.429672
0.000000 0.765939 0.496773
0.000000 0.765748 0.563873
0.000000 0.765556 0.630973
0.000000 0.765365 0.698073
0.000000 0.765173 0.765173
0.000000 0.764982 0.832273
0.000000 0.764790 0.899373
0.000000 0.764598 0.966474
0.000000 0.764457 1.000000
0.000000 0.832815 0.000000
0.000000 0.832674 0.025174
0.000000 0.832483 0.092274
0.000000 0.832291 0.159374
0.000000 0.832100 0.226474
0.000000 0.831908 0.293574
0.000000 0.831717 0.360674
0.000000 0.831525 0.427775
0.000000 0.831333 0.494875
0.000000 0.831142 0.561975
0.000000 0.830950 0.629075
0.000000 0.830759 0.696175
0.000000 0.830567 0.763275
0.000000 0.830375 0.830375
0.000000 0.830184 0.897476
0.000000 0.829992 0.964576
0.000000 0.829851 1.000000
0.000000 0.898209 0.000000
0.000000 0.898068 0.023276
0.000000 0.897877 0.090376
0.000000 0.897685 0.157476
0.000000 0.897494 0.224576
0.000000 0.897302 0.291676
0.000000 0.897110 0.358777
0.000000 0.896919 0.425877
0.000000 0.896727 0.492977
0.000000 0.896536 0.560077
0.000000 0.896344 0.627177
0.000000 0.896152 0.694277
0.000000 0.895961 0.761377
0.000000 0.895769 0.828478
0.000000 0.895578 0.895578
0.000000 0.895386 0.962678
0.000000 0.895245 1.000000
0.000000 0.963603 0.000000
0.000000 0.963462 0.021378
0.000000 0.963271 0.088478
0.000000 0.963079 0.155578
0.000000 0.962888 0.222679
0.000000 0.962696 0.289779
0.000000 0.962504 0.356879
0.000000 0.962313 0.423979
0.000000 0.962121 0.491079
0.000000 0.961930 0.558179
0.000000 0.961738 0.625279
0.000000 0.961546 0.692379
0.000000 0.961355 0.759480
0.000000 0.961163 0.826580
0.000000 0.960972 0.893680
0.000000 0.960780 0.960780
0.000000 0.960639 1.000000
0.000000 1.000000 0.000000
0.000000 1.000000 0.019983
0.000000 1.000000 0.087083
0.000000 1.000000 0.154183
0.000000 1.000000 0.221283
0.000000 1.000000 0.288383
0.000000 1.000000 0.355483
0.000000 1.000000 0.422583
0.000000 1.000000 0.489683
0.000000 1.000000 0.556784
0.000000 1.000000 0.623884
0.000000 1.000000 0.690984
0.000000 1.000000 0.758084
0.000000 1.000000 0.825184
0.000000 1.000000 0.892284
0.000000 1.000000 0.959384
0.000000 1.000000 1.000000
0.049069 0.000000 0.000000
0.048929 0.000000 0.048929
0.048737 0.000000 0.116029
0.048545 0.000000 0.183129
0.048354 0.000000 0.250229
0.048162 0.000000 0.317329
0.047971 0.000000 0.384429
0.047779 0.000000 0.451529
0.047587 0.000000 0.518629
0.047396 0.000000 0.585730
0.047204 0.000000 0.652830
0.047013 0.000000 0.719930
0.046821 0.000000 0.787030
0.046629 0.000000 0.854130
0.046438 0.000000 0.921230
0.046246 0.000000 0.988330
0.046105 0.000000 1.000000
0.047674 0.047674 0.000000
0.047533 0.047533 0.047533
0.047341 0.047341 0.114633
0.047150 0.047150 0.181733
0.046958 0.046958 0.248833
0.046767 0.046767 0.315933
0.046575 0.046575 0.383034
0.046383 0.046383 0.450134
0.046192 0.046192 0.517234
0.046000 0.046000 0.584334
0.045809 0.045809 0.651434
0.045617 0.045617 0.718534
0.045425 0.045425 0.785634
0.045234 0.045234 0.852735
0.045042 0.045042 0.919835
0.044851 0.044851 0.986935
0.044710 0.044710 1.000000
0.045776 0.113068 0.000000
0.045635 0.112927 0.045635
0.045443 0.112735 0.112735
0.045252 0.112544 0.179835
0.045060 0.112352 0.246935
0.044869 0.112160 0.314036
0.044677 0.111969 0.381136
0.044486 0.111777 0.448236
0.044294 0.111586 0.515336
0.044102 0.111394 0.582436
0.043911 0.111203 0.649536
0.043719 0.111011 0.716636
0.043528 0.110819 0.783737
0.043336 0.110628 0.850837
0.043144 0.110436 0.917937
0.042953 0.110245 0.985037
0.042812 0.110104 1.000000
0.043878 0.178462 0.000000
0.043737 0.178321 0.043737
0.043546 0.178129 0.110837
0.043354 0.177938 0.177938
0.043162 0.177746 0.245038
0.042971 0.177554 0.312138
0.042779 0.177363 0.379238
0.042588 0.177171 0.446338
0.042396 0.176980 0.513438
0.042205 0.176788 0.580538
0.042013 0.176596 0.647638
0.041821 0.176405 0.714739
0.041630 0.176213 0.781839
0.041438 0.176022 0.848939
0.041247 0.175830 0.916039
0.041055 0.175638 0.983139
0.040914 0.175498 1.000000
0.041980 0.243855 0.000000
0.041839 0.243715 0.041839
0.041648 0.243523 0.108940
0.041456 0.243331 0.176040
0.041265 0.243140 0.243140
0.041073 0.242948 0.310240
0.040881 0.242757 0.377340
0.040690 0.242565 0.444440
0.040498 0.242373 0.511540
0.040307 0.242182 0.578640
0.040115 0.241990 0.645741
0.039924 0.241799 0.712841
0.039732 0.241607 0.779941
0.039540 0.241416 0.847041
0.039349 0.241224 0.914141
0.039157 0.241032 0.981241
0.039016 0.240891 1.000000
0.040082 0.309249 0.000000
0.039942 0.309108 0.039942
0.039750 0.308917 0.107042
0.039558 0.308725 0.174142
0.039367 0.308534 0.241242
0.039175 0.308342 0.308342
0.038984 0.308151 0.375442
0.038792 0.307959 0.442542
0.038600 0.307767 0.509643
0.038409 0.307576 0.576743
0.038217 0.307384 0.643843
0.038026 0.307193 0.710943
0.037834 0.307001 0.778043
0.037643 0.306809 0.845143
0.037451 0.306618 0.912243
0.037259 0.306426 0.979343
0.037118 0.306285 1.000000
0.038185 0.374643 0.000000
0.038044 0.374502 0.038044
0.037852 0.374311 0.105144
0.037661 0.374119 0.172244
0.037469 0.373928 0.239344
0.037277 0.373736 0.306444
0.037086 0.373544 0.373544
0.036894 0.373353 0.440645
0.036703 0.373161 0.507745
0.036511 0.372970 0.574845
0.036319 0.372778 0.641945
0.036128 0.372586 0.709045
0.035936 0.372395 0.776145
0.035745 0.372203 0.843245
0.035553 0.372012 0.910346
0.035362 0.371820 0.977446
0.035221 0.371679 1.000000
0.036287 0.440037 0.000000
0.036146 0.439896 0.036146
0.035954 0.439705 0.103246
0.035763 0.439513 0.170346
0.035571 0.439321 0.237446
0.035380 0.439130 0.304546
0.035188 0.438938 0.371647
0.034996 0.438747 0.438747
0.034805 0.438555 0.505847
0.034613 0.438364 0.572947
0.034422 0.438172 0.640047
0.034230 0.437980 0.707147
0.034038 0.437789 0.774247
0.033847 0.437597 0.841348
0.033655 0.437406 0.908448
0.033464 0.437214 0.975548
0.033323 0.437073 1.000000
0.034389 0.505431 0.000000
0.034248 0.505290 0.034248
0.034056 0.505099 0.101348
0.033865 0.504907 0.168448
0.033673 0.504715 0.235548
0.033482 0.504524 0.302649
0.033290 0.504332 0.369749
0.033099 0.504141 0.436849
0.032907 0.503949 0.503949
0.032715 0.503757 0.571049
0.032524 0.503566 0.638149
0.032332 0.503374 0.705249
0.032141 0.503183 0.772350
0.031949 0.502991 0.839450
0.031757 0.502800 0.906550
0.031566 0.502608 0.973650
0.031425 0.502467 1.000000
0.032491 0.570825 0.000000
0.032350 0.570684 0.032350
0.032159 0.570492 0.099450
0.031967 0.570301 0.166551
0.031775 0.570109 0.233651
0.031584 0.569918 0.300751
0.031392 0.569726 0.367851
0.031201 0.569535 0.434951
0.031009 0.569343 0.502051
0.030818 0.569151 0.569151
0.030626 0.568960 0.636251
0.030434 0.568768 0.703352
0.030243 0.568577 0.770452
0.030051 0.568385 0.837552
0.029860 0.568193 0.904652
0.029668 0.568002 0.971752
0.029527 0.567861 1.000000
0.030593 0.636219 0.000000
0.030452 0.636078 0.030452
0.030261 0.635886 0.097553
0.030069 0.635695 0.164653
0.029878 0.635503 0.231753
0.029686 0.635312 0.298853
0.029494 0.635120 0.365953
0.029303 0.634928 0.433053
0.029111 0.634737 0.500153
0.028920 0.634545 0.567254
0.028728 0.634354 0.634354
0.028537 0.634162 0.701454
0.028345 0.633970 0.768554
0.028153 0.633779 0.835654
0.027962 0.633587 0.902754
0.027770 0.633396 0.969854
0.027629 0.633255 1.000000
0.028695 0.701613 0.000000
0.028555 0.701472 0.028555
0.028363 0.701280 0.095655
0.028171 0.701089 0.162755
0.027980 0.700897 0.229855
0.027788 0.700705 0.296955
0.027597 0.700514 0.364055
0.027405 0.700322 0.431155
0.027213 0.700131 0.498256
0.027022 0.699939 0.565356
0.026830 0.699748 0.632456
0.026639 0.699556 0.699556
0.026447 0.699364 0.766656
0.026256 0.699173 0.833756
0.026064 0.698981 0.900856
0.025872 0.698790 0.967957
0.025731 0.698649 1.000000
0.026798 0.767007 0.000000
0.026657 0.766866 0.026657
0.026465 0.766674 0.093757
0.026274 0.766483 0.160857
0.026082 0.766291 0.227957
0.025890 0.766099 0.295057
0.025699 0.765908 0.362157
0.025507 0.765716 0.429258
0.025316 0.765525 0.496358
0.025124 0.765333 0.563458
0.024932 0.765141 0.630558
0.024741 0.764950 0.697658
0.024549 0.764758 0.764758
0.024358 0.764567 0.831858
0.024166 0.764375 0.898959
0.023975 0.764183 0.966059
0.023834 0.764043 1.000000
0.024900 0.832401 0.000000
0.024759 0.832260 0.024759
0.024567 0.832068 0.091859
0.024376 0.831876 0.158959
0.024184 0.831685 0.226059
0.023993 0.831493 0.293159
0.023801 0.831302 0.360260
0.023609 0.831110 0.427360
0.023418 0.830919 0.494460
0.023226 0.830727 0.561560
0.023035 0.830535 0.628660
0.022843 0.830344 0.695760
0.022651 0.830152 0.762860
0.022460 0.829961 0.829961
0.022268 0.829769 0.897061
0.022077 0.829577 0.964161
0.021936 0.829437 1.000000
0.023002 0.897794 0.000000
0.022861 0.897654 0.022861
0.022670 0.897462 0.089961
0.022478 0.897270 0.157061
0.022286 0.897079 0.224162
0.022095 0.896887 0.291262
0.021903 0.896696 0.358362
0.021712 0.896504 0.425462
0.021520 0.896312 0.492562
0.021328 0.896121 0.559662
0.021137 0.895929 0.626762
0.020945 0.895738 0.693862
0.020754 0.895546 0.760963
0.020562 0.895354 0.828063
0.020370 0.895163 0.895163
0.020179 0.894971 0.962263
0.020038 0.894830 1.000000
0.021104 0.963188 0.000000
0.020963 0.963047 0.020963
0.020772 0.962856 0.088063
0.020580 0.962664 0.155164
0.020389 0.962473 0.222264
0.020197 0.962281 0.289364
0.020005 0.962089 0.356464
0.019814 0.961898 0.423564
0.019622 0.961706 0.490664
0.019431 0.961515 0.557764
0.019239 0.961323 0.624864
0.019047 0.961132 0.691965
0.018856 0.960940 0.759065
0.018664 0.960748 0.826165
0.018473 0.960557 0.893265
0.018281 0.960365 0.960365
0.018140 0.960224 1.000000
0.019709 1.000000 0.000000
0.019568 1.000000 0.019568
0.019376 1.000000 0.086668
0.019184 1.000000 0.153768
0.018993 1.000000 0.220868
0.018801 1.000000 0.287968
0.018610 1.000000 0.355068
0.018418 1.000000 0.422168
0.018227 1.000000 0.489269
0.018035 1.000000 0.556369
0.017843 1.000000 0.623469
0.017652 1.000000 0.690569
0.017460 1.000000 0.757669
0.017269 1.000000 0.824769
0.017077 1.000000 0.891869
0.016885 1.000000 0.958970
0.016745 1.000000 1.000000
0.115797 0.000000 0.000000
0.115656 0.000000 0.048364
0.115464 0.000000 0.115464
0.115273 0.000000 0.182565
0.115081 0.000000 0.249665
0.114890 0.000000 0.316765
0.114698 0.000000 0.383865
0.114507 0.000000 0.450965
0.114315 0.000000 0.518065
0.114123 0.000000 0.585165
0.113932 0.000000 0.652266
0.113740 0.000000 0.719366
0.113549 0.000000 0.786466
0.113357 0.000000 0.853566
0.113165 0.000000 0.920666
0.112974 0.000000 0.987766
0.112833 0.000000 1.000000
0.114401 0.047110 0.000000
0.114260 0.046969 0.046969
0.114069 0.046777 0.114069
0.113877 0.046586 0.181169
0.113686 0.046394 0.248269
0.113494 0.046202 0.315369
0.113303 0.046011 0.382469
0.113111 0.045819 0.449570
0.112919 0.045628 0.516670
0.112728 0.045436 0.583770
0.112536 0.045244 0.650870
0.112345 0.045053 0.717970
0.112153 0.044861 0.785070
0.111961 0.044670 0.852170
0.111770 0.044478 0.919271
0.111578 0.044287 0.986371
0.111437 0.044146 1.000000
0.112504 0.112504 0.000000
0.112363 0.112363 0.045071
0.112171 0.112171 0.112171
0.111979 0.111979 0.179271
0.111788 0.111788 0.246371
0.111596 0.111596 0.313471
0.111405 0.111405 0.380572
0.111213 0.111213 0.447672
0.111022 0.111022 0.514772
0.110830 0.110830 0.581872
0.110638 0.110638 0.648972
0.110447 0.110447 0.716072
0.110255 0.110255 0.783172
0.110064 0.110064 0.850273
0.109872 0.109872 0.917373
0.109680 0.109680 0.984473
0.109540 0.109540 1.000000
0.110606 0.177897 0.000000
0.110465 0.177757 0.043173
0.110273 0.177565 0.110273
0.110082 0.177373 0.177373
0.109890 0.177182 0.244473
0.109698 0.176990 0.311574
0.109507 0.176799 0.378674
0.109315 0.176607 0.445774
0.109124 0.176415 0.512874
0.108932 0.176224 0.579974
0.108741 0.176032 0.647074
0.108549 0.175841 0.714174
0.108357 0.175649 0.781275
0.108166 0.175457 0.848375
0.107974 0.175266 0.915475
0.107783 0.175074 0.982575
0.107642 0.174933 1.000000
0.108708 0.243291 0.000000
0.108567 0.243150 0.041275
0.108375 0.242959 0.108375
0.108184 0.242767 0.175476
0.107992 0.242576 0.242576
0.107801 0.242384 0.309676
0.107609 0.242192 0.376776
0.107417 0.242001 0.443876
0.107226 0.241809 0.510976
0.107034 0.241618 0.578076
0.106843 0.241426 0.645176
0.106651 0.241235 0.712277
0.106460 0.241043 0.779377
0.106268 0.240851 0.846477
0.106076 0.240660 0.913577
0.105885 0.240468 0.980677
0.105744 0.240327 1.000000
0.106810 0.308685 0.000000
0.106669 0.308544 0.039377
0.106478 0.308353 0.106478
0.106286 0.308161 0.173578
0.106094 0.307970 0.240678
0.105903 0.307778 0.307778
0.105711 0.307586 0.374878
0.105520 0.307395 0.441978
0.105328 0.307203 0.509078
0.105136 0.307012 0.576179
0.104945 0.306820 0.643279
0.104753 0.306628 0.710379
0.104562 0.306437 0.777479
0.104370 0.306245 0.844579
0.104179 0.306054 0.911679
0.103987 0.305862 0.978779
0.103846 0.305721 1.000000
0.104912 0.374079 0.000000
0.104771 0.373938 0.037480
0.104580 0.373747 0.104580
0.104388 0.373555 0.171680
0.104197 0.373363 0.238780
0.104005 0.373172 0.305880
0.103813 0.372980 0.372980
0.103622 0.372789 0.440080
0.103430 0.372597 0.507181
0.103239 0.372406 0.574281
0.103047 0.372214 0.641381
0.102855 0.372022 0.708481
0.102664 0.371831 0.775581
0.102472 0.371639 0.842681
0.102281 0.371448 0.909781
0.102089 0.371256 0.976882
0.101948 0.371115 1.000000
0.103014 0.439473 0.000000
0.102873 0.439332 0.035582
0.102682 0.439141 0.102682
0.102490 0.438949 0.169782
0.102299 0.438757 0.236882
0.102107 0.438566 0.303982
0.101916 0.438374 0.371082
0.101724 0.438183 0.438183
0.101532 0.437991 0.505283
0.101341 0.437799 0.572383
0.101149 0.437608 0.639483
0.100958 0.437416 0.706583
0.100766 0.437225 0.773683
0.100574 0.437033 0.840783
0.100383 0.436841 0.907884
0.100191 0.436650 0.974984
0.100050 0.436509 1.000000
0.101117 0.504867 0.000000
0.100976 0.504726 0.033684
0.100784 0.504534 0.100784
0.100592 0.504343 0.167884
0.100401 0.504151 0.234984
0.100209 0.503960 0.302084
0.100018 0.503768 0.369185
0.099826 0.503576 0.436285
0.099635 0.503385 0.503385
0.099443 0.503193 0.570485
0.099251 0.503002 0.637585
0.099060 0.502810 0.704685
0.098868 0.502619 0.771785
0.098677 0.502427 0.838886
0.098485 0.502235 0.905986
0.098293 0.502044 0.973086
0.098153 0.501903 1.000000
0.099219 0.570261 0.000000
0.099078 0.570120 0.031786
0.098886 0.569928 0.098886
0.098695 0.569737 0.165986
0.098503 0.569545 0.233087
0.098311 0.569354 0.300187
0.098120 0.569162 0.367287
0.097928 0.568970 0.434387
0.097737 0.568779 0.501487
0.097545 0.568587 0.568587
0.097354 0.568396 0.635687
0.097162 0.568204 0.702787
0.096970 0.568012 0.769888
0.096779 0.567821 0.836988
0.096587 0.567629 0.904088
0.096396 0.567438 0.971188
0.096255 0.567297 1.000000
0.097321 0.635655 0.000000
0.097180 0.635514 0.029888
0.096988 0.635322 0.096988
0.096797 0.635131 0.164089
0.096605 0.634939 0.231189
0.096414 0.634747 0.298289
0.096222 0.634556 0.365389
0.096030 0.634364 0.432489
0.095839 0.634173 0.499589
0.095647 0.633981 0.566689
0.095456 0.633790 0.633790
0.095264 0.633598 0.700890
0.095073 0.633406 0.767990
0.094881 0.633215 0.835090
0.094689 0.633023 0.902190
0.094498 0.632832 0.969290
0.094357 0.632691 1.000000
0.095423 0.701049 0.000000
0.095282 0.700908 0.027990
0.095091 0.700716 0.095091
0.094899 0.700525 0.162191
0.094707 0.700333 0.229291
0.094516 0.700141 0.296391
0.094324 0.699950 0.363491
0.094133 0.699758 0.430591
0.093941 0.699567 0.497691
0.093749 0.699375 0.564792
0.093558 0.699183 0.631892
0.093366 0.698992 0.698992
0.093175 0.698800 0.766092
0.092983 0.698609 0.833192
0.092792 0.698417 0.900292
0.092600 0.698225 0.967392
0.092459 0.698085 1.000000
0.093525 0.766442 0.000000
0.093384 0.766302 0.026093
0.093193 0.766110 0.093193
0.093001 0.765918 0.160293
0.092810 0.765727 0.227393
0.092618 0.765535 0.294493
0.092426 0.765344 0.361593
0.092235 0.765152 0.428693
0.092043 0.764960 0.495794
0.091852 0.764769 0.562894
0.091660 0.764577 0.629994
0.091468 0.764386 0.697094
0.091277 0.764194 0.764194
0.091085 0.764003 0.831294
0.090894 0.763811 0.898394
0.090702 0.763619 0.965495
0.090561 0.763478 1.000000
0.091627 0.831836 0.000000
0.091487 0.831695 0.024195
0.091295 0.831504 0.091295
0.091103 0.831312 0.158395
0.090912 0.831121 0.225495
0.090720 0.830929 0.292595
0.090529 0.830738 0.359695
0.090337 0.830546 0.426796
0.090145 0.830354 0.493896
0.089954 0.830163 0.560996
0.089762 0.829971 0.628096
0.089571 0.829780 0.695196
0.089379 0.829588 0.762296
0.089187 0.829396 0.829396
0.088996 0.829205 0.896497
0.088804 0.829013 0.963597
0.088663 0.828872 1.000000
0.089730 0.897230 0.000000
0.089589 0.897089 0.022297
0.089397 0.896898 0.089397
0.089205 0.896706 0.156497
0.089014 0.896515 0.223597
0.088822 0.896323 0.290697
0.088631 0.896131 0.357798
0.088439 0.895940 0.424898
0.088248 0.895748 0.491998
0.088056 0.895557 0.559098
0.087864 0.895365 0.626198
0.087673 0.895173 0.693298
0.087481 0.894982 0.760398
0.087290 0.894790 0.827499
0.087098 0.894599 0.894599
0.086906 0.894407 0.961699
0.086766 0.894266 1.000000
0.087832 0.962624 0.000000
0.087691 0.962483 0.020399
0.087499 0.962292 0.087499
0.087308 0.962100 0.154599
0.087116 0.961908 0.221700
0.086924 0.961717 0.288800
0.086733 0.961525 0.355900
0.086541 0.961334 0.423000
0.086350 0.961142 0.490100
0.086158 0.960951 0.557200
0.085967 0.960759 0.624300
0.085775 0.960567 0.691400
0.085583 0.960376 0.758501
0.085392 0.960184 0.825601
0.085200 0.959993 0.892701
0.085009 0.959801 0.959801
0.084868 0.959660 1.000000
0.086436 1.000000 0.000000
0.086295 1.000000 0.019004
0.086104 1.000000 0.086104
0.085912 1.000000 0.153204
0.085720 1.000000 0.220304
0.085529 1.000000 0.287404
0.085337 1.000000 0.354504
0.085146 1.000000 0.421604
0.084954 1.000000 0.488704
0.084763 1.000000 0.555805
0.084571 1.000000 0.622905
0.084379 1.000000 0.690005
0.084188 1.000000 0.757105
0.083996 1.000000 0.824205
0.083805 1.000000 0.891305
0.083613 1.000000 0.958405
0.083472 1.000000 1.000000
0.182525 0.000000 0.000000
0.182384 0.000000 0.047800
0.182192 0.000000 0.114900
0.182000 0.000000 0.182000
0.181809 0.000000 0.249101
0.181617 0.000000 0.316201
0.181426 0.000000 0.383301
0.181234 0.000000 0.450401
0.181043 0.000000 0.517501
0.180851 0.000000 0.584601
0.180659 0.000000 0.651701
0.180468 0.000000 0.718802
0.180276 0.000000 0.785902
0.180085 0.000000 0.853002
0.179893 0.000000 0.920102
0.179701 0.000000 0.987202
0.179561 0.000000 1.000000
0.181129 0.046545 0.000000
