skills/appstore-creatives-orchestrator/assets/grade/luts/product_clean_v14.cube
TITLE "product_clean_v14"
LUT_3D_SIZE 5
DOMAIN_MIN 0.0 0.0 0.0
DOMAIN_MAX 1.0 1.0 1.0
0.000000 0.000000 0.000000
0.000000 0.000000 0.250644
0.000000 0.000000 0.519044
0.000000 0.000000 0.787445
0.000000 0.000000 1.000000
0.000000 0.244270 0.000000
0.000000 0.243555 0.243555
0.000000 0.242788 0.511955
0.000000 0.242022 0.780356
0.000000 0.241306 1.000000
0.000000 0.505846 0.000000
0.000000 0.505130 0.235963
0.000000 0.504364 0.504364
0.000000 0.503598 0.772764
0.000000 0.502882 1.000000
0.000000 0.767421 0.000000
0.000000 0.766706 0.228372
0.000000 0.765939 0.496773
0.000000 0.765173 0.765173
0.000000 0.764457 1.000000
0.000000 1.000000 0.000000
0.000000 1.000000 0.221283
0.000000 1.000000 0.489683
0.000000 1.000000 0.758084
0.000000 1.000000 1.000000
0.249252 0.000000 0.000000
0.248536 0.000000 0.248536
0.247770 0.000000 0.516937
0.247004 0.000000 0.785338
0.246288 0.000000 1.000000
0.242163 0.242163 0.000000
0.241447 0.241447 0.241447
0.240681 0.240681 0.509848
0.239915 0.239915 0.778248
0.239199 0.239199 1.000000
0.234572 0.503739 0.000000
0.233856 0.503023 0.233856
0.233090 0.502257 0.502257
0.232323 0.501490 0.770657
0.231608 0.500775 1.000000
0.226980 0.765314 0.000000
0.226265 0.764599 0.226265
0.225498 0.763832 0.494665
0.224732 0.763066 0.763066
0.224016 0.762350 1.000000
0.219891 1.000000 0.000000
0.219176 1.000000 0.219176
0.218409 1.000000 0.487576
0.217643 1.000000 0.755977
0.216927 1.000000 1.000000
0.516162 0.000000 0.000000
0.515447 0.000000 0.246280
0.514680 0.000000 0.514680
0.513914 0.000000 0.783081
0.513198 0.000000 1.000000
0.509073 0.239906 0.000000
0.508358 0.239191 0.239191
0.507591 0.238424 0.507591
0.506825 0.237658 0.775992
0.506109 0.236942 1.000000
0.501482 0.501482 0.000000
0.500766 0.500766 0.231599
0.500000 0.500000 0.500000
0.499234 0.499234 0.768401
0.498518 0.498518 1.000000
0.493891 0.763058 0.000000
0.493175 0.762342 0.224008
0.492409 0.761576 0.492409
0.491642 0.760809 0.760809
0.490927 0.760094 1.000000
0.486802 1.000000 0.000000
0.486086 1.000000 0.216919
0.485320 1.000000 0.485320
0.484553 1.000000 0.753720
0.483838 1.000000 1.000000
0.783073 0.000000 0.000000
0.782357 0.000000 0.244023
0.781591 0.000000 0.512424
0.780824 0.000000 0.780824
0.780109 0.000000 1.000000
0.775984 0.237650 0.000000
0.775268 0.236934 0.236934
0.774502 0.236168 0.505335
0.773735 0.235401 0.773735
0.773020 0.234686 1.000000
0.768392 0.499225 0.000000
0.767677 0.498510 0.229343
0.766910 0.497743 0.497743
0.766144 0.496977 0.766144
0.765428 0.496261 1.000000
0.760801 0.760801 0.000000
0.760085 0.760085 0.221752
0.759319 0.759319 0.490152
0.758553 0.758553 0.758553
0.757837 0.757837 1.000000
0.753712 1.000000 0.000000
0.752996 1.000000 0.214662
0.752230 1.000000 0.483063
0.751464 1.000000 0.751464
0.750748 1.000000 1.000000
1.000000 0.000000 0.000000
1.000000 0.000000 0.241916
1.000000 0.000000 0.510317
1.000000 0.000000 0.778717
1.000000 0.000000 1.000000
1.000000 0.235543 0.000000
1.000000 0.234827 0.234827
1.000000 0.234061 0.503227
1.000000 0.233294 0.771628
1.000000 0.232579 1.000000
1.000000 0.497118 0.000000
1.000000 0.496402 0.227236
1.000000 0.495636 0.495636
1.000000 0.494870 0.764037
1.000000 0.494154 1.000000
1.000000 0.758694 0.000000
1.000000 0.757978 0.219644
1.000000 0.757212 0.488045
1.000000 0.756445 0.756445
1.000000 0.755730 1.000000
1.000000 1.000000 0.000000
1.000000 1.000000 0.212555
1.000000 1.000000 0.480956
1.000000 1.000000 0.749356
1.000000 1.000000 1.000000
