skills/appstore-creatives-orchestrator/assets/grade/luts/product_clean_v14.cube
TITLE "product_clean_v14"
LUT_3D_SIZE 9
DOMAIN_MIN 0.0 0.0 0.0
DOMAIN_MAX 1.0 1.0 1.0
0.000000 0.000000 0.000000
0.000000 0.000000 0.116443
0.000000 0.000000 0.250644
0.000000 0.000000 0.384844
0.000000 0.000000 0.519044
0.000000 0.000000 0.653245
0.000000 0.000000 0.787445
0.000000 0.000000 0.921645
0.000000 0.000000 1.000000
0.000000 0.113483 0.000000
0.000000 0.113150 0.113150
0.000000 0.112767 0.247350
0.000000 0.112384 0.381551
0.000000 0.112001 0.515751
0.000000 0.111617 0.649951
0.000000 0.111234 0.784151
0.000000 0.110851 0.918352
0.000000 0.110519 1.000000
0.000000 0.244270 0.000000
0.000000 0.243938 0.109354
0.000000 0.243555 0.243555
0.000000 0.243171 0.377755
0.000000 0.242788 0.511955
0.000000 0.242405 0.646155
0.000000 0.242022 0.780356
0.000000 0.241639 0.914556
0.000000 0.241306 1.000000
0.000000 0.375058 0.000000
0.000000 0.374726 0.105559
0.000000 0.374342 0.239759
0.000000 0.373959 0.373959
0.000000 0.373576 0.508160
0.000000 0.373193 0.642360
0.000000 0.372810 0.776560
0.000000 0.372427 0.910760
0.000000 0.372094 1.000000
0.000000 0.505846 0.000000
0.000000 0.505513 0.101763
0.000000 0.505130 0.235963
0.000000 0.504747 0.370164
0.000000 0.504364 0.504364
0.000000 0.503981 0.638564
0.000000 0.503598 0.772764
0.000000 0.503214 0.906965
0.000000 0.502882 1.000000
0.000000 0.636634 0.000000
0.000000 0.636301 0.097967
0.000000 0.635918 0.232168
0.000000 0.635535 0.366368
0.000000 0.635152 0.500568
0.000000 0.634769 0.634769
0.000000 0.634385 0.768969
0.000000 0.634002 0.903169
0.000000 0.633670 1.000000
0.000000 0.767421 0.000000
0.000000 0.767089 0.094172
0.000000 0.766706 0.228372
0.000000 0.766323 0.362572
0.000000 0.765939 0.496773
0.000000 0.765556 0.630973
0.000000 0.765173 0.765173
0.000000 0.764790 0.899373
0.000000 0.764457 1.000000
0.000000 0.898209 0.000000
0.000000 0.897877 0.090376
0.000000 0.897494 0.224576
0.000000 0.897110 0.358777
0.000000 0.896727 0.492977
0.000000 0.896344 0.627177
0.000000 0.895961 0.761377
0.000000 0.895578 0.895578
0.000000 0.895245 1.000000
0.000000 1.000000 0.000000
0.000000 1.000000 0.087083
0.000000 1.000000 0.221283
0.000000 1.000000 0.355483
0.000000 1.000000 0.489683
0.000000 1.000000 0.623884
0.000000 1.000000 0.758084
0.000000 1.000000 0.892284
0.000000 1.000000 1.000000
0.115797 0.000000 0.000000
0.115464 0.000000 0.115464
0.115081 0.000000 0.249665
0.114698 0.000000 0.383865
0.114315 0.000000 0.518065
0.113932 0.000000 0.652266
0.113549 0.000000 0.786466
0.113165 0.000000 0.920666
0.112833 0.000000 1.000000
0.112504 0.112504 0.000000
0.112171 0.112171 0.112171
0.111788 0.111788 0.246371
0.111405 0.111405 0.380572
0.111022 0.111022 0.514772
0.110638 0.110638 0.648972
0.110255 0.110255 0.783172
0.109872 0.109872 0.917373
0.109540 0.109540 1.000000
0.108708 0.243291 0.000000
0.108375 0.242959 0.108375
0.107992 0.242576 0.242576
0.107609 0.242192 0.376776
0.107226 0.241809 0.510976
0.106843 0.241426 0.645176
0.106460 0.241043 0.779377
0.106076 0.240660 0.913577
0.105744 0.240327 1.000000
0.104912 0.374079 0.000000
0.104580 0.373747 0.104580
0.104197 0.373363 0.238780
0.103813 0.372980 0.372980
0.103430 0.372597 0.507181
0.103047 0.372214 0.641381
0.102664 0.371831 0.775581
0.102281 0.371448 0.909781
0.101948 0.371115 1.000000
0.101117 0.504867 0.000000
0.100784 0.504534 0.100784
0.100401 0.504151 0.234984
0.100018 0.503768 0.369185
0.099635 0.503385 0.503385
0.099251 0.503002 0.637585
0.098868 0.502619 0.771785
0.098485 0.502235 0.905986
0.098153 0.501903 1.000000
0.097321 0.635655 0.000000
0.096988 0.635322 0.096988
0.096605 0.634939 0.231189
0.096222 0.634556 0.365389
0.095839 0.634173 0.499589
0.095456 0.633790 0.633790
0.095073 0.633406 0.767990
0.094689 0.633023 0.902190
0.094357 0.632691 1.000000
0.093525 0.766442 0.000000
0.093193 0.766110 0.093193
0.092810 0.765727 0.227393
0.092426 0.765344 0.361593
0.092043 0.764960 0.495794
0.091660 0.764577 0.629994
0.091277 0.764194 0.764194
0.090894 0.763811 0.898394
0.090561 0.763478 1.000000
0.089730 0.897230 0.000000
0.089397 0.896898 0.089397
0.089014 0.896515 0.223597
0.088631 0.896131 0.357798
0.088248 0.895748 0.491998
0.087864 0.895365 0.626198
0.087481 0.894982 0.760398
0.087098 0.894599 0.894599
0.086766 0.894266 1.000000
0.086436 1.000000 0.000000
0.086104 1.000000 0.086104
0.085720 1.000000 0.220304
0.085337 1.000000 0.354504
0.084954 1.000000 0.488704
0.084571 1.000000 0.622905
0.084188 1.000000 0.757105
0.083805 1.000000 0.891305
0.083472 1.000000 1.000000
0.249252 0.000000 0.000000
0.248920 0.000000 0.114336
0.248536 0.000000 0.248536
0.248153 0.000000 0.382737
0.247770 0.000000 0.516937
0.247387 0.000000 0.651137
0.247004 0.000000 0.785338
0.246621 0.000000 0.919538
0.246288 0.000000 1.000000
0.245959 0.111375 0.000000
0.245626 0.111043 0.111043
0.245243 0.110660 0.245243
0.244860 0.110276 0.379443
0.244477 0.109893 0.513644
0.244094 0.109510 0.647844
0.243710 0.109127 0.782044
0.243327 0.108744 0.916244
0.242995 0.108411 1.000000
0.242163 0.242163 0.000000
0.241831 0.241831 0.107247
0.241447 0.241447 0.241447
0.241064 0.241064 0.375648
0.240681 0.240681 0.509848
0.240298 0.240298 0.644048
0.239915 0.239915 0.778248
0.239531 0.239531 0.912449
0.239199 0.239199 1.000000
0.238367 0.372951 0.000000
0.238035 0.372618 0.103451
0.237652 0.372235 0.237652
0.237269 0.371852 0.371852
0.236885 0.371469 0.506052
0.236502 0.371086 0.640253
0.236119 0.370702 0.774453
0.235736 0.370319 0.908653
0.235403 0.369987 1.000000
0.234572 0.503739 0.000000
0.234239 0.503406 0.099656
0.233856 0.503023 0.233856
0.233473 0.502640 0.368056
0.233090 0.502257 0.502257
0.232707 0.501873 0.636457
0.232323 0.501490 0.770657
0.231940 0.501107 0.904857
0.231608 0.500775 1.000000
0.230776 0.634526 0.000000
0.230444 0.634194 0.095860
0.230060 0.633811 0.230060
0.229677 0.633428 0.364261
0.229294 0.633044 0.498461
0.228911 0.632661 0.632661
0.228528 0.632278 0.766861
0.228145 0.631895 0.901062
0.227812 0.631562 1.000000
0.226980 0.765314 0.000000
0.226648 0.764982 0.092064
0.226265 0.764599 0.226265
0.225882 0.764215 0.360465
0.225498 0.763832 0.494665
0.225115 0.763449 0.628866
0.224732 0.763066 0.763066
0.224349 0.762683 0.897266
0.224016 0.762350 1.000000
0.223185 0.896102 0.000000
0.222852 0.895769 0.088269
0.222469 0.895386 0.222469
0.222086 0.895003 0.356669
0.221703 0.894620 0.490870
0.221320 0.894237 0.625070
0.220936 0.893854 0.759270
0.220553 0.893470 0.893470
0.220221 0.893138 1.000000
0.219891 1.000000 0.000000
0.219559 1.000000 0.084975
0.219176 1.000000 0.219176
0.218792 1.000000 0.353376
0.218409 1.000000 0.487576
0.218026 1.000000 0.621776
0.217643 1.000000 0.755977
0.217260 1.000000 0.890177
0.216927 1.000000 1.000000
0.382707 0.000000 0.000000
0.382375 0.000000 0.113208
0.381992 0.000000 0.247408
0.381608 0.000000 0.381608
0.381225 0.000000 0.515809
0.380842 0.000000 0.650009
0.380459 0.000000 0.784209
0.380076 0.000000 0.918410
0.379743 0.000000 1.000000
0.379414 0.110247 0.000000
0.379081 0.109914 0.109914
0.378698 0.109531 0.244115
0.378315 0.109148 0.378315
0.377932 0.108765 0.512515
0.377549 0.108382 0.646716
0.377165 0.107999 0.780916
0.376782 0.107615 0.915116
0.376450 0.107283 1.000000
0.375618 0.241035 0.000000
0.375286 0.240702 0.106119
0.374903 0.240319 0.240319
0.374519 0.239936 0.374519
0.374136 0.239553 0.508720
0.373753 0.239170 0.642920
0.373370 0.238786 0.777120
0.372987 0.238403 0.911320
0.372654 0.238071 1.000000
0.371823 0.371823 0.000000
0.371490 0.371490 0.102323
0.371107 0.371107 0.236523
0.370724 0.370724 0.370724
0.370341 0.370341 0.504924
0.369957 0.369957 0.639124
0.369574 0.369574 0.773325
0.369191 0.369191 0.907525
0.368859 0.368859 1.000000
0.368027 0.502610 0.000000
0.367694 0.502278 0.098527
0.367311 0.501895 0.232728
0.366928 0.501511 0.366928
0.366545 0.501128 0.501128
0.366162 0.500745 0.635329
0.365778 0.500362 0.769529
0.365395 0.499979 0.903729
0.365063 0.499646 1.000000
0.364231 0.633398 0.000000
0.363899 0.633066 0.094732
0.363516 0.632682 0.228932
0.363132 0.632299 0.363132
0.362749 0.631916 0.497333
0.362366 0.631533 0.631533
0.361983 0.631150 0.765733
0.361600 0.630767 0.899933
0.361267 0.630434 1.000000
0.360436 0.764186 0.000000
0.360103 0.763853 0.090936
0.359720 0.763470 0.225136
0.359337 0.763087 0.359337
0.358954 0.762704 0.493537
0.358570 0.762321 0.627737
0.358187 0.761938 0.761938
0.357804 0.761554 0.896138
0.357472 0.761222 1.000000
0.356640 0.894974 0.000000
0.356307 0.894641 0.087140
0.355924 0.894258 0.221341
0.355541 0.893875 0.355541
0.355158 0.893492 0.489741
0.354775 0.893108 0.623942
0.354392 0.892725 0.758142
0.354008 0.892342 0.892342
0.353676 0.892010 1.000000
0.353346 1.000000 0.000000
0.353014 1.000000 0.083847
0.352631 1.000000 0.218047
0.352248 1.000000 0.352248
0.351864 1.000000 0.486448
0.351481 1.000000 0.620648
0.351098 1.000000 0.754848
0.350715 1.000000 0.889049
0.350382 1.000000 1.000000
0.516162 0.000000 0.000000
0.515830 0.000000 0.112080
0.515447 0.000000 0.246280
0.515064 0.000000 0.380480
0.514680 0.000000 0.514680
0.514297 0.000000 0.648881
0.513914 0.000000 0.783081
0.513531 0.000000 0.917281
0.513198 0.000000 1.000000
0.512869 0.109119 0.000000
0.512537 0.108786 0.108786
0.512153 0.108403 0.242986
0.511770 0.108020 0.377187
0.511387 0.107637 0.511387
0.511004 0.107253 0.645587
0.510621 0.106870 0.779788
0.510237 0.106487 0.913988
0.509905 0.106155 1.000000
0.509073 0.239906 0.000000
0.508741 0.239574 0.104991
0.508358 0.239191 0.239191
0.507974 0.238808 0.373391
0.507591 0.238424 0.507591
0.507208 0.238041 0.641792
0.506825 0.237658 0.775992
0.506442 0.237275 0.910192
0.506109 0.236942 1.000000
0.505278 0.370694 0.000000
0.504945 0.370362 0.101195
0.504562 0.369979 0.235395
0.504179 0.369595 0.369595
0.503796 0.369212 0.503796
0.503412 0.368829 0.637996
0.503029 0.368446 0.772196
0.502646 0.368063 0.906396
0.502314 0.367730 1.000000
0.501482 0.501482 0.000000
0.501150 0.501150 0.097399
0.500766 0.500766 0.231599
0.500383 0.500383 0.365800
0.500000 0.500000 0.500000
0.499617 0.499617 0.634200
0.499234 0.499234 0.768401
0.498850 0.498850 0.902601
0.498518 0.498518 1.000000
0.497686 0.632270 0.000000
0.497354 0.631937 0.093604
0.496971 0.631554 0.227804
0.496588 0.631171 0.362004
0.496204 0.630788 0.496204
0.495821 0.630405 0.630405
0.495438 0.630021 0.764605
0.495055 0.629638 0.898805
0.494722 0.629306 1.000000
0.493891 0.763058 0.000000
0.493558 0.762725 0.089808
0.493175 0.762342 0.224008
0.492792 0.761959 0.358208
0.492409 0.761576 0.492409
0.492026 0.761192 0.626609
0.491642 0.760809 0.760809
0.491259 0.760426 0.895009
0.490927 0.760094 1.000000
0.490095 0.893845 0.000000
0.489763 0.893513 0.086012
0.489379 0.893130 0.220212
0.488996 0.892747 0.354413
0.488613 0.892363 0.488613
0.488230 0.891980 0.622813
0.487847 0.891597 0.757014
0.487463 0.891214 0.891214
0.487131 0.890881 1.000000
0.486802 1.000000 0.000000
0.486469 1.000000 0.082719
0.486086 1.000000 0.216919
0.485703 1.000000 0.351119
0.485320 1.000000 0.485320
0.484936 1.000000 0.619520
0.484553 1.000000 0.753720
0.484170 1.000000 0.887920
0.483838 1.000000 1.000000
0.649618 0.000000 0.000000
0.649285 0.000000 0.110951
0.648902 0.000000 0.245152
0.648519 0.000000 0.379352
0.648136 0.000000 0.513552
0.647752 0.000000 0.647752
0.647369 0.000000 0.781953
0.646986 0.000000 0.916153
0.646654 0.000000 1.000000
0.646324 0.107990 0.000000
0.645992 0.107658 0.107658
0.645608 0.107275 0.241858
0.645225 0.106892 0.376058
0.644842 0.106508 0.510259
0.644459 0.106125 0.644459
0.644076 0.105742 0.778659
0.643693 0.105359 0.912860
0.643360 0.105026 1.000000
0.642528 0.238778 0.000000
0.642196 0.238446 0.103862
0.641813 0.238062 0.238062
0.641430 0.237679 0.372263
0.641046 0.237296 0.506463
0.640663 0.236913 0.640663
0.640280 0.236530 0.774864
0.639897 0.236147 0.909064
0.639564 0.235814 1.000000
0.638733 0.369566 0.000000
0.638400 0.369233 0.100067
0.638017 0.368850 0.234267
0.637634 0.368467 0.368467
0.637251 0.368084 0.502667
0.636868 0.367701 0.636868
0.636484 0.367318 0.771068
0.636101 0.366934 0.905268
0.635769 0.366602 1.000000
0.634937 0.500354 0.000000
0.634605 0.500021 0.096271
0.634222 0.499638 0.230471
0.633838 0.499255 0.364671
0.633455 0.498872 0.498872
0.633072 0.498489 0.633072
0.632689 0.498105 0.767272
0.632306 0.497722 0.901473
0.631973 0.497390 1.000000
0.631141 0.631141 0.000000
0.630809 0.630809 0.092475
0.630426 0.630426 0.226675
0.630043 0.630043 0.360876
0.629659 0.629659 0.495076
0.629276 0.629276 0.629276
0.628893 0.628893 0.763477
0.628510 0.628510 0.897677
0.628177 0.628177 1.000000
0.627346 0.761929 0.000000
0.627013 0.761597 0.088680
0.626630 0.761214 0.222880
0.626247 0.760830 0.357080
0.625864 0.760447 0.491280
0.625481 0.760064 0.625481
0.625097 0.759681 0.759681
0.624714 0.759298 0.893881
0.624382 0.758965 1.000000
0.623550 0.892717 0.000000
0.623218 0.892385 0.084884
0.622835 0.892001 0.219084
0.622451 0.891618 0.353284
0.622068 0.891235 0.487485
0.621685 0.890852 0.621685
0.621302 0.890469 0.755885
0.620919 0.890086 0.890086
0.620586 0.889753 1.000000
0.620257 1.000000 0.000000
0.619924 1.000000 0.081590
0.619541 1.000000 0.215791
0.619158 1.000000 0.349991
0.618775 1.000000 0.484191
0.618392 1.000000 0.618392
0.618008 1.000000 0.752592
0.617625 1.000000 0.886792
0.617293 1.000000 1.000000
0.783073 0.000000 0.000000
0.782740 0.000000 0.109823
0.782357 0.000000 0.244023
0.781974 0.000000 0.378224
0.781591 0.000000 0.512424
0.781208 0.000000 0.646624
0.780824 0.000000 0.780824
0.780441 0.000000 0.915025
0.780109 0.000000 1.000000
0.779779 0.106862 0.000000
0.779447 0.106530 0.106530
0.779064 0.106146 0.240730
0.778680 0.105763 0.374930
0.778297 0.105380 0.509130
0.777914 0.104997 0.643331
0.777531 0.104614 0.777531
0.777148 0.104231 0.911731
0.776815 0.103898 1.000000
0.775984 0.237650 0.000000
0.775651 0.237317 0.102734
0.775268 0.236934 0.236934
0.774885 0.236551 0.371134
0.774502 0.236168 0.505335
0.774118 0.235785 0.639535
0.773735 0.235401 0.773735
0.773352 0.235018 0.907936
0.773020 0.234686 1.000000
0.772188 0.368438 0.000000
0.771855 0.368105 0.098938
0.771472 0.367722 0.233139
0.771089 0.367339 0.367339
0.770706 0.366956 0.501539
0.770323 0.366572 0.635739
0.769940 0.366189 0.769940
0.769556 0.365806 0.904140
0.769224 0.365474 1.000000
0.768392 0.499225 0.000000
0.768060 0.498893 0.095143
0.767677 0.498510 0.229343
0.767293 0.498127 0.363543
0.766910 0.497743 0.497743
0.766527 0.497360 0.631944
0.766144 0.496977 0.766144
0.765761 0.496594 0.900344
0.765428 0.496261 1.000000
0.764597 0.630013 0.000000
0.764264 0.629681 0.091347
0.763881 0.629298 0.225547
0.763498 0.628914 0.359747
0.763115 0.628531 0.493948
0.762731 0.628148 0.628148
0.762348 0.627765 0.762348
0.761965 0.627382 0.896549
0.761633 0.627049 1.000000
0.760801 0.760801 0.000000
0.760469 0.760469 0.087551
0.760085 0.760085 0.221752
0.759702 0.759702 0.355952
0.759319 0.759319 0.490152
0.758936 0.758936 0.624352
0.758553 0.758553 0.758553
0.758169 0.758169 0.892753
0.757837 0.757837 1.000000
0.757005 0.891589 0.000000
0.756673 0.891256 0.083756
0.756290 0.890873 0.217956
0.755906 0.890490 0.352156
0.755523 0.890107 0.486356
0.755140 0.889724 0.620557
0.754757 0.889340 0.754757
0.754374 0.888957 0.888957
0.754041 0.888625 1.000000
0.753712 1.000000 0.000000
0.753379 1.000000 0.080462
0.752996 1.000000 0.214662
0.752613 1.000000 0.348863
0.752230 1.000000 0.483063
0.751847 1.000000 0.617263
0.751464 1.000000 0.751464
0.751080 1.000000 0.885664
0.750748 1.000000 1.000000
0.916528 0.000000 0.000000
0.916195 0.000000 0.108695
0.915812 0.000000 0.242895
0.915429 0.000000 0.377095
0.915046 0.000000 0.511296
0.914663 0.000000 0.645496
0.914280 0.000000 0.779696
0.913896 0.000000 0.913896
0.913564 0.000000 1.000000
0.913234 0.105734 0.000000
0.912902 0.105401 0.105401
0.912519 0.105018 0.239602
0.912136 0.104635 0.373802
0.911752 0.104252 0.508002
0.911369 0.103869 0.642202
0.910986 0.103485 0.776403
0.910603 0.103102 0.910603
0.910270 0.102770 1.000000
0.909439 0.236522 0.000000
0.909106 0.236189 0.101606
0.908723 0.235806 0.235806
0.908340 0.235423 0.370006
0.907957 0.235040 0.504206
0.907574 0.234656 0.638407
0.907190 0.234273 0.772607
0.906807 0.233890 0.906807
0.906475 0.233558 1.000000
0.905643 0.367309 0.000000
0.905311 0.366977 0.097810
0.904927 0.366594 0.232010
0.904544 0.366210 0.366210
0.904161 0.365827 0.500411
0.903778 0.365444 0.634611
0.903395 0.365061 0.768811
0.903012 0.364678 0.903012
0.902679 0.364345 1.000000
0.901847 0.498097 0.000000
0.901515 0.497765 0.094014
0.901132 0.497381 0.228215
0.900749 0.496998 0.362415
0.900365 0.496615 0.496615
0.899982 0.496232 0.630815
0.899599 0.495849 0.765016
0.899216 0.495466 0.899216
0.898883 0.495133 1.000000
0.898052 0.628885 0.000000
0.897719 0.628552 0.090219
0.897336 0.628169 0.224419
0.896953 0.627786 0.358619
0.896570 0.627403 0.492819
0.896187 0.627020 0.627020
0.895803 0.626637 0.761220
0.895420 0.626253 0.895420
0.895088 0.625921 1.000000
0.894256 0.759673 0.000000
0.893924 0.759340 0.086423
0.893540 0.758957 0.220623
0.893157 0.758574 0.354824
0.892774 0.758191 0.489024
0.892391 0.757808 0.623224
0.892008 0.757424 0.757424
0.891625 0.757041 0.891625
0.891292 0.756709 1.000000
0.890460 0.890460 0.000000
0.890128 0.890128 0.082627
0.889745 0.889745 0.216828
0.889362 0.889362 0.351028
0.888978 0.888978 0.485228
0.888595 0.888595 0.619428
0.888212 0.888212 0.753629
0.887829 0.887829 0.887829
0.887496 0.887496 1.000000
0.887167 1.000000 0.000000
0.886835 1.000000 0.079334
0.886451 1.000000 0.213534
0.886068 1.000000 0.347734
0.885685 1.000000 0.481935
0.885302 1.000000 0.616135
0.884919 1.000000 0.750335
0.884536 1.000000 0.884536
0.884203 1.000000 1.000000
1.000000 0.000000 0.000000
1.000000 0.000000 0.107716
1.000000 0.000000 0.241916
1.000000 0.000000 0.376116
1.000000 0.000000 0.510317
1.000000 0.000000 0.644517
1.000000 0.000000 0.778717
1.000000 0.000000 0.912917
1.000000 0.000000 1.000000
1.000000 0.104755 0.000000
1.000000 0.104422 0.104422
1.000000 0.104039 0.238623
1.000000 0.103656 0.372823
1.000000 0.103273 0.507023
1.000000 0.102890 0.641223
1.000000 0.102506 0.775424
1.000000 0.102123 0.909624
1.000000 0.101791 1.000000
1.000000 0.235543 0.000000
1.000000 0.235210 0.100627
1.000000 0.234827 0.234827
1.000000 0.234444 0.369027
1.000000 0.234061 0.503227
1.000000 0.233677 0.637428
1.000000 0.233294 0.771628
1.000000 0.232911 0.905828
1.000000 0.232579 1.000000
1.000000 0.366330 0.000000
1.000000 0.365998 0.096831
1.000000 0.365615 0.231031
1.000000 0.365231 0.365231
1.000000 0.364848 0.499432
1.000000 0.364465 0.633632
1.000000 0.364082 0.767832
1.000000 0.363699 0.902033
1.000000 0.363366 1.000000
1.000000 0.497118 0.000000
1.000000 0.496786 0.093035
1.000000 0.496402 0.227236
1.000000 0.496019 0.361436
1.000000 0.495636 0.495636
1.000000 0.495253 0.629836
1.000000 0.494870 0.764037
1.000000 0.494487 0.898237
1.000000 0.494154 1.000000
1.000000 0.627906 0.000000
1.000000 0.627573 0.089240
1.000000 0.627190 0.223440
1.000000 0.626807 0.357640
1.000000 0.626424 0.491840
1.000000 0.626041 0.626041
1.000000 0.625658 0.760241
1.000000 0.625274 0.894441
1.000000 0.624942 1.000000
1.000000 0.758694 0.000000
1.000000 0.758361 0.085444
1.000000 0.757978 0.219644
1.000000 0.757595 0.353845
1.000000 0.757212 0.488045
1.000000 0.756829 0.622245
1.000000 0.756445 0.756445
1.000000 0.756062 0.890646
1.000000 0.755730 1.000000
1.000000 0.889481 0.000000
1.000000 0.889149 0.081648
1.000000 0.888766 0.215849
1.000000 0.888383 0.350049
1.000000 0.887999 0.484249
1.000000 0.887616 0.618449
1.000000 0.887233 0.752650
1.000000 0.886850 0.886850
1.000000 0.886517 1.000000
1.000000 1.000000 0.000000
1.000000 1.000000 0.078355
1.000000 1.000000 0.212555
1.000000 1.000000 0.346755
1.000000 1.000000 0.480956
1.000000 1.000000 0.615156
1.000000 1.000000 0.749356
1.000000 1.000000 0.883557
1.000000 1.000000 1.000000
