skills/appstore-creatives-orchestrator/assets/grade/luts/warm_skin_v18.cube
TITLE "warm_skin_v18"
LUT_3D_SIZE 17
DOMAIN_MIN 0.0 0.0 0.0
DOMAIN_MAX 1.0 1.0 1.0
0.051349 0.000000 0.000000
0.051333 0.000000 0.003979
0.051068 0.000000 0.078398
0.050815 0.000000 0.149551
0.050567 0.000000 0.219383
0.050322 0.000000 0.288361
0.050079 0.000000 0.356709
0.049838 0.000000 0.424558
0.049598 0.000000 0.491992
0.049360 0.000000 0.559075
0.049123 0.000000 0.625850
0.048886 0.000000 0.692354
0.048651 0.000000 0.758614
0.048416 0.000000 0.824653
0.048182 0.000000 0.890490
0.047949 0.000000 0.956142
0.047716 0.000000 1.000000
0.049047 0.062767 0.000000
0.049031 0.062751 0.001677
0.048767 0.062486 0.076096
0.048514 0.062234 0.147249
0.048266 0.061985 0.217081
0.048020 0.061740 0.286060
0.047778 0.061497 0.354408
0.047536 0.061256 0.422256
0.047297 0.061017 0.489691
0.047058 0.060778 0.556773
0.046821 0.060541 0.623548
0.046585 0.060304 0.690052
0.046349 0.060069 0.756312
0.046115 0.059834 0.822351
0.045881 0.059600 0.888189
0.045647 0.059367 0.953840
0.045415 0.059134 1.000000
0.046530 0.132009 0.000000
0.046514 0.131993 0.000000
0.046249 0.131728 0.073579
0.045997 0.131476 0.144732
0.045748 0.131227 0.214564
0.045503 0.130982 0.283542
0.045260 0.130739 0.351890
0.045019 0.130498 0.419739
0.044780 0.130259 0.487174
0.044541 0.130020 0.554256
0.044304 0.129783 0.621031
0.044067 0.129546 0.687535
0.043832 0.129311 0.753795
0.043597 0.129076 0.819834
0.043363 0.128842 0.885671
0.043130 0.128609 0.951323
0.042897 0.128376 1.000000
0.044065 0.199823 0.000000
0.044048 0.199807 0.000000
0.043784 0.199543 0.071114
0.043531 0.199290 0.142266
0.043283 0.199042 0.212098
0.043038 0.198797 0.281077
0.042795 0.198554 0.349425
0.042554 0.198313 0.417273
0.042314 0.198073 0.484708
0.042076 0.197835 0.551790
0.041838 0.197597 0.618566
0.041602 0.197361 0.685069
0.041367 0.197125 0.751329
0.041132 0.196891 0.817368
0.040898 0.196657 0.883206
0.040665 0.196423 0.948858
0.040432 0.196191 1.000000
0.041631 0.266753 0.000000
0.041615 0.266737 0.000000
0.041351 0.266473 0.068681
0.041098 0.266220 0.139833
0.040850 0.265972 0.209665
0.040605 0.265727 0.278644
0.040362 0.265484 0.346992
0.040121 0.265243 0.414840
0.039881 0.265003 0.482275
0.039642 0.264764 0.549357
0.039405 0.264527 0.616133
0.039169 0.264291 0.682636
0.038933 0.264055 0.748896
0.038699 0.263821 0.814935
0.038465 0.263587 0.880773
0.038231 0.263353 0.946424
0.037999 0.263121 1.000000
0.039221 0.333041 0.000000
0.039205 0.333025 0.000000
0.038941 0.332761 0.066271
0.038688 0.332508 0.137423
0.038440 0.332260 0.207255
0.038195 0.332014 0.276234
0.037952 0.331771 0.344582
0.037711 0.331530 0.412430
0.037471 0.331291 0.479865
0.037233 0.331052 0.546947
0.036995 0.330815 0.613723
0.036759 0.330579 0.680226
0.036523 0.330343 0.746486
0.036289 0.330108 0.812525
0.036055 0.329874 0.878363
0.035821 0.329641 0.944014
0.035589 0.329408 1.000000
0.036830 0.398825 0.000000
0.036814 0.398809 0.000000
0.036549 0.398545 0.063879
0.036296 0.398292 0.135032
0.036048 0.398044 0.204864
0.035803 0.397799 0.273842
0.035560 0.397556 0.342190
0.035319 0.397315 0.410039
0.035079 0.397075 0.477473
0.034841 0.396837 0.544556
0.034604 0.396599 0.611331
0.034367 0.396363 0.677835
0.034132 0.396127 0.744095
0.033897 0.395893 0.810134
0.033663 0.395659 0.875971
0.033430 0.395425 0.941623
0.033197 0.395193 1.000000
0.034453 0.464196 0.000000
0.034437 0.464180 0.000000
0.034173 0.463915 0.061502
0.033920 0.463662 0.132655
0.033672 0.463414 0.202487
0.033426 0.463169 0.271466
0.033184 0.462926 0.339814
0.032942 0.462685 0.407662
0.032703 0.462445 0.475097
0.032464 0.462207 0.542179
0.032227 0.461970 0.608954
0.031991 0.461733 0.675458
0.031755 0.461498 0.741718
0.031521 0.461263 0.807757
0.031287 0.461029 0.873595
0.031053 0.460796 0.939246
0.030821 0.460563 1.000000
0.032089 0.529215 0.000000
0.032073 0.529199 0.000000
0.031809 0.528935 0.059139
0.031556 0.528682 0.130291
0.031308 0.528433 0.200123
0.031063 0.528188 0.269102
0.030820 0.527945 0.337450
0.030579 0.527704 0.405298
0.030339 0.527465 0.472733
0.030101 0.527226 0.539815
0.029863 0.526989 0.606591
0.029627 0.526753 0.673094
0.029391 0.526517 0.739354
0.029157 0.526282 0.805393
0.028923 0.526048 0.871231
0.028689 0.525815 0.936882
0.028457 0.525582 1.000000
0.029737 0.593930 0.000000
0.029721 0.593914 0.000000
0.029456 0.593649 0.056786
0.029203 0.593396 0.127939
0.028955 0.593148 0.197770
0.028710 0.592903 0.266749
0.028467 0.592660 0.335097
0.028226 0.592419 0.402946
0.027986 0.592179 0.470380
0.027748 0.591941 0.537463
0.027511 0.591704 0.604238
0.027274 0.591467 0.670742
0.027039 0.591232 0.737001
0.026804 0.590997 0.803041
0.026570 0.590763 0.868878
0.026337 0.590530 0.934530
0.026104 0.590297 1.000000
0.027394 0.658376 0.000000
0.027378 0.658359 0.000000
0.027113 0.658095 0.054443
0.026860 0.657842 0.125596
0.026612 0.657594 0.195428
0.026367 0.657349 0.264406
0.026124 0.657106 0.332754
0.025883 0.656865 0.400603
0.025643 0.656625 0.468037
0.025405 0.656387 0.535120
0.025168 0.656149 0.601895
0.024931 0.655913 0.668399
0.024696 0.655678 0.734659
0.024461 0.655443 0.800698
0.024227 0.655209 0.866535
0.023994 0.654976 0.932187
0.023761 0.654743 0.997666
0.025060 0.722581 0.000000
0.025044 0.722565 0.000000
0.024779 0.722300 0.052109
0.024526 0.722047 0.123261
0.024278 0.721799 0.193093
0.024033 0.721554 0.262072
0.023790 0.721311 0.330420
0.023549 0.721070 0.398268
0.023309 0.720830 0.465703
0.023071 0.720592 0.532785
0.022833 0.720355 0.599561
0.022597 0.720118 0.666064
0.022362 0.719883 0.732324
0.022127 0.719648 0.798364
0.021893 0.719414 0.864201
0.021660 0.719181 0.929853
0.021427 0.718948 0.995332
0.022733 0.786568 0.000000
0.022717 0.786552 0.000000
0.022453 0.786288 0.049783
0.022200 0.786035 0.120935
0.021952 0.785787 0.190767
0.021707 0.785541 0.259746
0.021464 0.785299 0.328094
0.021223 0.785057 0.395942
0.020983 0.784818 0.463377
0.020744 0.784579 0.530459
0.020507 0.784342 0.597235
0.020271 0.784106 0.663738
0.020035 0.783870 0.729998
0.019801 0.783636 0.796037
0.019567 0.783402 0.861875
0.019333 0.783168 0.927526
0.019101 0.782936 0.993006
0.020414 0.850357 0.000000
0.020398 0.850341 0.000000
0.020134 0.850077 0.047463
0.019881 0.849824 0.118616
0.019633 0.849576 0.188448
0.019387 0.849330 0.257427
0.019145 0.849088 0.325775
0.018903 0.848846 0.393623
0.018664 0.848607 0.461058
0.018425 0.848368 0.528140
0.018188 0.848131 0.594915
0.017952 0.847895 0.661419
0.017716 0.847659 0.727679
0.017482 0.847425 0.793718
0.017248 0.847191 0.859556
0.017014 0.846957 0.925207
0.016782 0.846724 0.990687
0.018102 0.913964 0.000000
0.018086 0.913947 0.000000
0.017821 0.913683 0.045151
0.017568 0.913430 0.116304
0.017320 0.913182 0.186136
0.017075 0.912937 0.255114
0.016832 0.912694 0.323462
0.016591 0.912453 0.391311
0.016351 0.912213 0.458745
0.016113 0.911975 0.525828
0.015876 0.911737 0.592603
0.015639 0.911501 0.659107
0.015404 0.911266 0.725367
0.015169 0.911031 0.791406
0.014935 0.910797 0.857243
0.014702 0.910564 0.922895
0.014469 0.910331 0.988374
0.015796 0.977401 0.000000
0.015779 0.977385 0.000000
0.015515 0.977120 0.042845
0.015262 0.976868 0.113997
0.015014 0.976619 0.183829
0.014769 0.976374 0.252808
0.014526 0.976131 0.321156
0.014285 0.975890 0.389004
0.014045 0.975651 0.456439
0.013807 0.975412 0.523521
0.013569 0.975175 0.590297
0.013333 0.974939 0.656800
0.013098 0.974703 0.723060
0.012863 0.974468 0.789099
0.012629 0.974234 0.854937
0.012396 0.974001 0.920589
0.012163 0.973768 0.986068
0.014460 1.000000 0.000000
0.014443 1.000000 0.000000
0.014179 1.000000 0.041509
0.013926 1.000000 0.112661
0.013678 1.000000 0.182493
0.013433 1.000000 0.251472
0.013190 1.000000 0.319820
0.012949 1.000000 0.387668
0.012709 1.000000 0.455103
0.012471 1.000000 0.522185
0.012233 1.000000 0.588961
0.011997 1.000000 0.655464
0.011762 1.000000 0.721724
0.011527 1.000000 0.787764
0.011293 1.000000 0.853601
0.011060 1.000000 0.919253
0.010827 1.000000 0.984732
0.122770 0.000000 0.000000
0.122754 0.000000 0.003226
0.122489 0.000000 0.077645
0.122236 0.000000 0.148798
0.121988 0.000000 0.218630
0.121743 0.000000 0.287609
0.121500 0.000000 0.355957
0.121259 0.000000 0.423805
0.121019 0.000000 0.491240
0.120781 0.000000 0.558322
0.120544 0.000000 0.625097
0.120307 0.000000 0.691601
0.120072 0.000000 0.757861
0.119837 0.000000 0.823900
0.119603 0.000000 0.889738
0.119370 0.000000 0.955389
0.119137 0.000000 1.000000
0.120468 0.062014 0.000000
0.120452 0.061998 0.000925
0.120188 0.061734 0.075344
0.119935 0.061481 0.146497
0.119687 0.061233 0.216328
0.119441 0.060988 0.285307
0.119198 0.060745 0.353655
0.118957 0.060504 0.421503
0.118718 0.060264 0.488938
0.118479 0.060026 0.556021
0.118242 0.059788 0.622796
0.118006 0.059552 0.689299
0.117770 0.059316 0.755559
0.117535 0.059082 0.821599
0.117301 0.058848 0.887436
0.117068 0.058614 0.953088
0.116835 0.058382 1.000000
0.117951 0.131256 0.000000
0.117935 0.131240 0.000000
0.117670 0.130976 0.072827
0.117417 0.130723 0.143979
0.117169 0.130475 0.213811
0.116924 0.130230 0.282790
0.116681 0.129987 0.351138
0.116440 0.129746 0.418986
0.116200 0.129506 0.486421
0.115962 0.129267 0.553503
0.115725 0.129030 0.620279
0.115488 0.128794 0.686782
0.115253 0.128558 0.753042
0.115018 0.128324 0.819081
0.114784 0.128090 0.884919
0.114551 0.127856 0.950570
0.114318 0.127624 1.000000
0.115485 0.199071 0.000000
0.115469 0.199055 0.000000
0.115205 0.198790 0.070361
0.114952 0.198537 0.141514
0.114704 0.198289 0.211346
0.114459 0.198044 0.280324
0.114216 0.197801 0.348672
0.113975 0.197560 0.416521
0.113735 0.197320 0.483956
0.113497 0.197082 0.551038
0.113259 0.196845 0.617813
0.113023 0.196608 0.684317
0.112787 0.196373 0.750577
0.112553 0.196138 0.816616
0.112319 0.195904 0.882453
0.112085 0.195671 0.948105
0.111853 0.195438 1.000000
0.113052 0.266001 0.000000
0.113036 0.265985 0.000000
0.112772 0.265720 0.067928
0.112519 0.265467 0.139081
0.112271 0.265219 0.208912
0.112025 0.264974 0.277891
0.111783 0.264731 0.346239
0.111541 0.264490 0.414088
0.111302 0.264250 0.481522
0.111063 0.264012 0.548605
0.110826 0.263775 0.615380
0.110590 0.263538 0.681883
0.110354 0.263303 0.748143
0.110119 0.263068 0.814183
0.109886 0.262834 0.880020
0.109652 0.262601 0.945672
0.109419 0.262368 1.000000
0.110642 0.332288 0.000000
0.110626 0.332272 0.000000
0.110362 0.332008 0.065518
0.110109 0.331755 0.136671
0.109861 0.331507 0.206503
0.109616 0.331262 0.275481
0.109373 0.331019 0.343829
0.109131 0.330778 0.411678
0.108892 0.330538 0.479112
0.108653 0.330300 0.546195
0.108416 0.330062 0.612970
0.108180 0.329826 0.679474
0.107944 0.329591 0.745734
0.107710 0.329356 0.811773
0.107476 0.329122 0.877610
0.107242 0.328889 0.943262
0.107010 0.328656 1.000000
0.108251 0.398073 0.000000
0.108235 0.398057 0.000000
0.107970 0.397792 0.063126
0.107717 0.397539 0.134279
0.107469 0.397291 0.204111
0.107224 0.397046 0.273090
0.106981 0.396803 0.341438
0.106740 0.396562 0.409286
0.106500 0.396322 0.476721
0.106262 0.396084 0.543803
0.106025 0.395847 0.610578
0.105788 0.395610 0.677082
0.105553 0.395375 0.743342
0.105318 0.395140 0.809381
0.105084 0.394906 0.875218
0.104851 0.394673 0.940870
0.104618 0.394440 1.000000
0.105874 0.463443 0.000000
0.105858 0.463427 0.000000
0.105594 0.463163 0.060750
0.105341 0.462910 0.131903
0.105093 0.462662 0.201734
0.104847 0.462416 0.270713
0.104604 0.462173 0.339061
0.104363 0.461932 0.406909
0.104124 0.461693 0.474344
0.103885 0.461454 0.541427
0.103648 0.461217 0.608202
0.103412 0.460981 0.674705
0.103176 0.460745 0.740965
0.102941 0.460510 0.807005
0.102707 0.460276 0.872842
0.102474 0.460043 0.938494
0.102241 0.459810 1.000000
0.103510 0.528462 0.000000
0.103494 0.528446 0.000000
0.103230 0.528182 0.058386
0.102977 0.527929 0.129539
0.102729 0.527681 0.199371
0.102484 0.527436 0.268349
0.102241 0.527193 0.336697
0.102000 0.526952 0.404546
0.101760 0.526712 0.471980
0.101521 0.526474 0.539063
0.101284 0.526236 0.605838
0.101048 0.526000 0.672342
0.100812 0.525764 0.738602
0.100578 0.525530 0.804641
0.100344 0.525296 0.870478
0.100110 0.525062 0.936130
0.099878 0.524830 1.000000
0.101158 0.593177 0.000000
0.101142 0.593161 0.000000
0.100877 0.592897 0.056033
0.100624 0.592644 0.127186
0.100376 0.592396 0.197018
0.100131 0.592150 0.265997
0.099888 0.591907 0.334345
0.099647 0.591666 0.402193
0.099407 0.591427 0.469628
0.099169 0.591188 0.536710
0.098931 0.590951 0.603485
0.098695 0.590715 0.669989
0.098460 0.590479 0.736249
0.098225 0.590244 0.802288
0.097991 0.590010 0.868125
0.097758 0.589777 0.933777
0.097525 0.589544 0.999257
0.098815 0.657623 0.000000
0.098799 0.657607 0.000000
0.098534 0.657342 0.053690
0.098281 0.657089 0.124843
0.098033 0.656841 0.194675
0.097788 0.656596 0.263654
0.097545 0.656353 0.332002
0.097304 0.656112 0.399850
0.097064 0.655872 0.467285
0.096826 0.655634 0.534367
0.096589 0.655397 0.601142
0.096352 0.655160 0.667646
0.096117 0.654925 0.733906
0.095882 0.654690 0.799945
0.095648 0.654456 0.865782
0.095415 0.654223 0.931434
0.095182 0.653990 0.996914
0.096480 0.721828 0.000000
0.096464 0.721812 0.000000
0.096200 0.721548 0.051356
0.095947 0.721295 0.122509
0.095699 0.721046 0.192341
0.095454 0.720801 0.261319
0.095211 0.720558 0.329667
0.094970 0.720317 0.397516
0.094730 0.720078 0.464951
0.094492 0.719839 0.532033
0.094254 0.719602 0.598808
0.094018 0.719366 0.665312
0.093782 0.719130 0.731572
0.093548 0.718895 0.797611
0.093314 0.718661 0.863448
0.093080 0.718428 0.929100
0.092848 0.718195 0.994580
0.094154 0.785816 0.000000
0.094138 0.785800 0.000000
0.093874 0.785535 0.049030
0.093621 0.785282 0.120183
0.093373 0.785034 0.190014
0.093127 0.784789 0.258993
0.092885 0.784546 0.327341
0.092643 0.784305 0.395190
0.092404 0.784065 0.462624
0.092165 0.783827 0.529707
0.091928 0.783589 0.596482
0.091692 0.783353 0.662986
0.091456 0.783118 0.729245
0.091222 0.782883 0.795285
0.090988 0.782649 0.861122
0.090754 0.782416 0.926774
0.090521 0.782183 0.992253
0.091835 0.849605 0.000000
0.091819 0.849589 0.000000
0.091555 0.849324 0.046711
0.091302 0.849071 0.117864
0.091054 0.848823 0.187695
0.090808 0.848578 0.256674
0.090565 0.848335 0.325022
0.090324 0.848094 0.392870
0.090085 0.847854 0.460305
0.089846 0.847616 0.527388
0.089609 0.847378 0.594163
0.089373 0.847142 0.660666
0.089137 0.846907 0.726926
0.088902 0.846672 0.792966
0.088668 0.846438 0.858803
0.088435 0.846205 0.924455
0.088202 0.845972 0.989934
0.089523 0.913211 0.000000
0.089507 0.913195 0.000000
0.089242 0.912930 0.044398
0.088989 0.912678 0.115551
0.088741 0.912429 0.185383
0.088496 0.912184 0.254362
0.088253 0.911941 0.322710
0.088012 0.911700 0.390558
0.087772 0.911461 0.457993
0.087534 0.911222 0.525075
0.087297 0.910985 0.591850
0.087060 0.910748 0.658354
0.086825 0.910513 0.724614
0.086590 0.910278 0.790653
0.086356 0.910044 0.856491
0.086123 0.909811 0.922142
0.085890 0.909578 0.987622
0.087216 0.976648 0.000000
0.087200 0.976632 0.000000
0.086936 0.976368 0.042092
0.086683 0.976115 0.113245
0.086435 0.975867 0.183077
0.086190 0.975622 0.252055
0.085947 0.975379 0.320403
0.085706 0.975138 0.388252
0.085466 0.974898 0.455687
0.085228 0.974660 0.522769
0.084990 0.974422 0.589544
0.084754 0.974186 0.656048
0.084518 0.973950 0.722308
0.084284 0.973716 0.788347
0.084050 0.973482 0.854184
0.083816 0.973248 0.919836
0.083584 0.973016 0.985316
0.085880 1.000000 0.000000
0.085864 1.000000 0.000000
0.085600 1.000000 0.040756
0.085347 1.000000 0.111909
0.085099 1.000000 0.181741
0.084854 1.000000 0.250719
0.084611 1.000000 0.319067
0.084370 1.000000 0.386916
0.084130 1.000000 0.454351
0.083892 1.000000 0.521433
0.083654 1.000000 0.588208
0.083418 1.000000 0.654712
0.083182 1.000000 0.720972
0.082948 1.000000 0.787011
0.082714 1.000000 0.852848
0.082480 1.000000 0.918500
0.082248 1.000000 0.983980
0.192532 0.000000 0.000000
0.192516 0.000000 0.002491
0.192252 0.000000 0.076910
0.191999 0.000000 0.148063
0.191750 0.000000 0.217895
0.191505 0.000000 0.286874
0.191262 0.000000 0.355222
0.191021 0.000000 0.423070
0.190782 0.000000 0.490505
0.190543 0.000000 0.557587
0.190306 0.000000 0.624362
0.190070 0.000000 0.690866
0.189834 0.000000 0.757126
0.189599 0.000000 0.823165
0.189365 0.000000 0.889002
0.189132 0.000000 0.954654
0.188899 0.000000 1.000000
0.190230 0.061279 0.000000
0.190214 0.061263 0.000190
0.189950 0.060999 0.074609
0.189697 0.060746 0.145761
0.189449 0.060498 0.215593
0.189204 0.060253 0.284572
0.188961 0.060010 0.352920
0.188720 0.059768 0.420768
0.188480 0.059529 0.488203
0.188242 0.059290 0.555285
0.188004 0.059053 0.622061
0.187768 0.058817 0.688564
0.187533 0.058581 0.754824
0.187298 0.058347 0.820863
0.187064 0.058113 0.886701
0.186831 0.057879 0.952353
0.186598 0.057647 1.000000
0.187713 0.130521 0.000000
0.187697 0.130505 0.000000
0.187433 0.130241 0.072091
0.187180 0.129988 0.143244
0.186932 0.129740 0.213076
0.186686 0.129494 0.282055
0.186444 0.129252 0.350403
0.186202 0.129010 0.418251
0.185963 0.128771 0.485686
0.185724 0.128532 0.552768
0.185487 0.128295 0.619543
0.185251 0.128059 0.686047
0.185015 0.127823 0.752307
0.184781 0.127589 0.818346
0.184547 0.127355 0.884184
0.184313 0.127121 0.949835
0.184081 0.126889 1.000000
0.185248 0.198336 0.000000
0.185232 0.198320 0.000000
0.184967 0.198055 0.069626
0.184714 0.197802 0.140779
0.184466 0.197554 0.210611
0.184221 0.197309 0.279589
0.183978 0.197066 0.347937
0.183737 0.196825 0.415786
0.183497 0.196585 0.483220
0.183259 0.196347 0.550303
0.183022 0.196110 0.617078
0.182785 0.195873 0.683582
0.182550 0.195638 0.749842
0.182315 0.195403 0.815881
0.182081 0.195169 0.881718
0.181848 0.194936 0.947370
0.181615 0.194703 1.000000
0.182815 0.265266 0.000000
0.182798 0.265249 0.000000
0.182534 0.264985 0.067193
0.182281 0.264732 0.138345
0.182033 0.264484 0.208177
0.181788 0.264239 0.277156
0.181545 0.263996 0.345504
0.181304 0.263755 0.413352
0.181064 0.263515 0.480787
0.180826 0.263277 0.547869
0.180588 0.263039 0.614645
0.180352 0.262803 0.681148
0.180117 0.262568 0.747408
0.179882 0.262333 0.813447
0.179648 0.262099 0.879285
0.179415 0.261866 0.944937
0.179182 0.261633 1.000000
0.180405 0.331553 0.000000
0.180389 0.331537 0.000000
0.180124 0.331273 0.064783
0.179871 0.331020 0.135936
0.179623 0.330772 0.205767
0.179378 0.330527 0.274746
0.179135 0.330284 0.343094
0.178894 0.330043 0.410942
0.178654 0.329803 0.478377
0.178416 0.329565 0.545460
0.178178 0.329327 0.612235
0.177942 0.329091 0.678738
0.177707 0.328855 0.744998
0.177472 0.328621 0.811038
0.177238 0.328387 0.876875
0.177005 0.328153 0.942527
0.176772 0.327921 1.000000
0.178013 0.397338 0.000000
0.177997 0.397322 0.000000
0.177732 0.397057 0.062391
0.177480 0.396804 0.133544
0.177231 0.396556 0.203376
0.176986 0.396311 0.272354
0.176743 0.396068 0.340703
0.176502 0.395827 0.408551
0.176263 0.395587 0.475986
0.176024 0.395349 0.543068
0.175787 0.395111 0.609843
0.175551 0.394875 0.676347
0.175315 0.394640 0.742607
0.175080 0.394405 0.808646
0.174846 0.394171 0.874483
0.174613 0.393938 0.940135
0.174380 0.393705 1.000000
0.175636 0.462708 0.000000
0.175620 0.462692 0.000000
0.175356 0.462427 0.060015
0.175103 0.462175 0.131167
0.174855 0.461926 0.200999
0.174610 0.461681 0.269978
0.174367 0.461438 0.338326
0.174126 0.461197 0.406174
0.173886 0.460958 0.473609
0.173648 0.460719 0.540691
0.173410 0.460482 0.607467
0.173174 0.460245 0.673970
0.172938 0.460010 0.740230
0.172704 0.459775 0.806269
0.172470 0.459541 0.872107
0.172236 0.459308 0.937758
0.172004 0.459075 1.000000
0.173273 0.527727 0.000000
0.173257 0.527711 0.000000
0.172992 0.527447 0.057651
0.172739 0.527194 0.128804
0.172491 0.526946 0.198635
0.172246 0.526701 0.267614
0.172003 0.526458 0.335962
0.171762 0.526217 0.403811
0.171522 0.525977 0.471245
0.171284 0.525738 0.538328
0.171047 0.525501 0.605103
0.170810 0.525265 0.671607
0.170575 0.525029 0.737866
0.170340 0.524795 0.803906
0.170106 0.524561 0.869743
0.169873 0.524327 0.935395
0.169640 0.524095 1.000000
0.170920 0.592442 0.000000
0.170904 0.592426 0.000000
0.170639 0.592161 0.055298
0.170387 0.591909 0.126451
0.170138 0.591660 0.196283
0.169893 0.591415 0.265261
0.169650 0.591172 0.333609
0.169409 0.590931 0.401458
0.169170 0.590692 0.468893
0.168931 0.590453 0.535975
0.168694 0.590216 0.602750
0.168457 0.589980 0.669254
0.168222 0.589744 0.735514
0.167987 0.589509 0.801553
0.167753 0.589275 0.867390
0.167520 0.589042 0.933042
0.167287 0.588809 0.998522
0.168577 0.656888 0.000000
0.168561 0.656872 0.000000
0.168296 0.656607 0.052955
0.168044 0.656354 0.124108
0.167795 0.656106 0.193940
0.167550 0.655861 0.262918
0.167307 0.655618 0.331267
0.167066 0.655377 0.399115
0.166827 0.655137 0.466550
0.166588 0.654899 0.533632
0.166351 0.654662 0.600407
0.166115 0.654425 0.666911
0.165879 0.654190 0.733171
0.165644 0.653955 0.799210
0.165410 0.653721 0.865047
0.165177 0.653488 0.930699
0.164944 0.653255 0.996179
0.166243 0.721093 0.000000
0.166227 0.721077 0.000000
0.165962 0.720812 0.050621
0.165709 0.720560 0.121774
0.165461 0.720311 0.191606
0.165216 0.720066 0.260584
0.164973 0.719823 0.328932
0.164732 0.719582 0.396781
0.164492 0.719343 0.464215
0.164254 0.719104 0.531298
0.164017 0.718867 0.598073
0.163780 0.718630 0.664577
0.163545 0.718395 0.730837
0.163310 0.718160 0.796876
0.163076 0.717926 0.862713
0.162843 0.717693 0.928365
0.162610 0.717460 0.993844
0.163917 0.785080 0.000000
0.163900 0.785064 0.000000
0.163636 0.784800 0.048295
0.163383 0.784547 0.119447
0.163135 0.784299 0.189279
0.162890 0.784054 0.258258
0.162647 0.783811 0.326606
0.162406 0.783570 0.394454
0.162166 0.783330 0.461889
0.161928 0.783092 0.528971
0.161690 0.782854 0.595747
0.161454 0.782618 0.662250
0.161219 0.782383 0.728510
0.160984 0.782148 0.794549
0.160750 0.781914 0.860387
0.160517 0.781681 0.926039
0.160284 0.781448 0.991518
0.161597 0.848869 0.000000
0.161581 0.848853 0.000000
0.161317 0.848589 0.045976
0.161064 0.848336 0.117128
0.160816 0.848088 0.186960
0.160571 0.847843 0.255939
0.160328 0.847600 0.324287
0.160087 0.847359 0.392135
0.159847 0.847119 0.459570
0.159609 0.846881 0.526652
0.159371 0.846643 0.593428
0.159135 0.846407 0.659931
0.158900 0.846171 0.726191
0.158665 0.845937 0.792230
0.158431 0.845703 0.858068
0.158198 0.845469 0.923719
0.157965 0.845237 0.989199
0.159285 0.912476 0.000000
0.159269 0.912460 0.000000
0.159005 0.912195 0.043663
0.158752 0.911942 0.114816
0.158503 0.911694 0.184648
0.158258 0.911449 0.253626
0.158015 0.911206 0.321975
0.157774 0.910965 0.389823
0.157535 0.910725 0.457258
0.157296 0.910487 0.524340
0.157059 0.910250 0.591115
0.156823 0.910013 0.657619
0.156587 0.909778 0.723879
0.156352 0.909543 0.789918
0.156118 0.909309 0.855755
0.155885 0.909076 0.921407
0.155652 0.908843 0.986887
0.156979 0.975913 0.000000
0.156963 0.975897 0.000000
0.156698 0.975633 0.041357
0.156445 0.975380 0.112510
0.156197 0.975132 0.182342
0.155952 0.974887 0.251320
0.155709 0.974644 0.319668
0.155468 0.974402 0.387517
0.155228 0.974163 0.454951
0.154990 0.973924 0.522034
0.154753 0.973687 0.588809
0.154516 0.973451 0.655313
0.154281 0.973215 0.721573
0.154046 0.972981 0.787612
0.153812 0.972747 0.853449
0.153579 0.972513 0.919101
0.153346 0.972281 0.984580
0.155643 1.000000 0.000000
0.155627 1.000000 0.000000
0.155362 1.000000 0.040021
0.155109 1.000000 0.111174
0.154861 1.000000 0.181006
0.154616 1.000000 0.249984
0.154373 1.000000 0.318332
0.154132 1.000000 0.386181
0.153892 1.000000 0.453615
0.153654 1.000000 0.520698
0.153417 1.000000 0.587473
0.153180 1.000000 0.653977
0.152945 1.000000 0.720237
0.152710 1.000000 0.786276
0.152476 1.000000 0.852113
0.152243 1.000000 0.917765
0.152010 1.000000 0.983244
0.261318 0.000000 0.000000
0.261302 0.000000 0.001766
0.261037 0.000000 0.076185
0.260785 0.000000 0.147338
0.260536 0.000000 0.217170
0.260291 0.000000 0.286149
0.260048 0.000000 0.354497
0.259807 0.000000 0.422345
0.259568 0.000000 0.489780
0.259329 0.000000 0.556862
0.259092 0.000000 0.623637
0.258856 0.000000 0.690141
0.258620 0.000000 0.756401
0.258385 0.000000 0.822440
0.258151 0.000000 0.888278
0.257918 0.000000 0.953929
0.257685 0.000000 1.000000
0.259016 0.060554 0.000000
