skills/appstore-creatives-orchestrator/assets/grade/luts/warm_skin_v18.cube
TITLE "warm_skin_v18"
LUT_3D_SIZE 9
DOMAIN_MIN 0.0 0.0 0.0
DOMAIN_MAX 1.0 1.0 1.0
0.051349 0.000000 0.000000
0.051068 0.000000 0.078398
0.050567 0.000000 0.219383
0.050079 0.000000 0.356709
0.049598 0.000000 0.491992
0.049123 0.000000 0.625850
0.048651 0.000000 0.758614
0.048182 0.000000 0.890490
0.047716 0.000000 1.000000
0.046530 0.132009 0.000000
0.046249 0.131728 0.073579
0.045748 0.131227 0.214564
0.045260 0.130739 0.351890
0.044780 0.130259 0.487174
0.044304 0.129783 0.621031
0.043832 0.129311 0.753795
0.043363 0.128842 0.885671
0.042897 0.128376 1.000000
0.041631 0.266753 0.000000
0.041351 0.266473 0.068681
0.040850 0.265972 0.209665
0.040362 0.265484 0.346992
0.039881 0.265003 0.482275
0.039405 0.264527 0.616133
0.038933 0.264055 0.748896
0.038465 0.263587 0.880773
0.037999 0.263121 1.000000
0.036830 0.398825 0.000000
0.036549 0.398545 0.063879
0.036048 0.398044 0.204864
0.035560 0.397556 0.342190
0.035079 0.397075 0.477473
0.034604 0.396599 0.611331
0.034132 0.396127 0.744095
0.033663 0.395659 0.875971
0.033197 0.395193 1.000000
0.032089 0.529215 0.000000
0.031809 0.528935 0.059139
0.031308 0.528433 0.200123
0.030820 0.527945 0.337450
0.030339 0.527465 0.472733
0.029863 0.526989 0.606591
0.029391 0.526517 0.739354
0.028923 0.526048 0.871231
0.028457 0.525582 1.000000
0.027394 0.658376 0.000000
0.027113 0.658095 0.054443
0.026612 0.657594 0.195428
0.026124 0.657106 0.332754
0.025643 0.656625 0.468037
0.025168 0.656149 0.601895
0.024696 0.655678 0.734659
0.024227 0.655209 0.866535
0.023761 0.654743 0.997666
0.022733 0.786568 0.000000
0.022453 0.786288 0.049783
0.021952 0.785787 0.190767
0.021464 0.785299 0.328094
0.020983 0.784818 0.463377
0.020507 0.784342 0.597235
0.020035 0.783870 0.729998
0.019567 0.783402 0.861875
0.019101 0.782936 0.993006
0.018102 0.913964 0.000000
0.017821 0.913683 0.045151
0.017320 0.913182 0.186136
0.016832 0.912694 0.323462
0.016351 0.912213 0.458745
0.015876 0.911737 0.592603
0.015404 0.911266 0.725367
0.014935 0.910797 0.857243
0.014469 0.910331 0.988374
0.014460 1.000000 0.000000
0.014179 1.000000 0.041509
0.013678 1.000000 0.182493
0.013190 1.000000 0.319820
0.012709 1.000000 0.455103
0.012233 1.000000 0.588961
0.011762 1.000000 0.721724
0.011293 1.000000 0.853601
0.010827 1.000000 0.984732
0.192532 0.000000 0.000000
0.192252 0.000000 0.076910
0.191750 0.000000 0.217895
0.191262 0.000000 0.355222
0.190782 0.000000 0.490505
0.190306 0.000000 0.624362
0.189834 0.000000 0.757126
0.189365 0.000000 0.889002
0.188899 0.000000 1.000000
0.187713 0.130521 0.000000
0.187433 0.130241 0.072091
0.186932 0.129740 0.213076
0.186444 0.129252 0.350403
0.185963 0.128771 0.485686
0.185487 0.128295 0.619543
0.185015 0.127823 0.752307
0.184547 0.127355 0.884184
0.184081 0.126889 1.000000
0.182815 0.265266 0.000000
0.182534 0.264985 0.067193
0.182033 0.264484 0.208177
0.181545 0.263996 0.345504
0.181064 0.263515 0.480787
0.180588 0.263039 0.614645
0.180117 0.262568 0.747408
0.179648 0.262099 0.879285
0.179182 0.261633 1.000000
0.178013 0.397338 0.000000
0.177732 0.397057 0.062391
0.177231 0.396556 0.203376
0.176743 0.396068 0.340703
0.176263 0.395587 0.475986
0.175787 0.395111 0.609843
0.175315 0.394640 0.742607
0.174846 0.394171 0.874483
0.174380 0.393705 1.000000
0.173273 0.527727 0.000000
0.172992 0.527447 0.057651
0.172491 0.526946 0.198635
0.172003 0.526458 0.335962
0.171522 0.525977 0.471245
0.171047 0.525501 0.605103
0.170575 0.525029 0.737866
0.170106 0.524561 0.869743
0.169640 0.524095 1.000000
0.168577 0.656888 0.000000
0.168296 0.656607 0.052955
0.167795 0.656106 0.193940
0.167307 0.655618 0.331267
0.166827 0.655137 0.466550
0.166351 0.654662 0.600407
0.165879 0.654190 0.733171
0.165410 0.653721 0.865047
0.164944 0.653255 0.996179
0.163917 0.785080 0.000000
0.163636 0.784800 0.048295
0.163135 0.784299 0.189279
0.162647 0.783811 0.326606
0.162166 0.783330 0.461889
0.161690 0.782854 0.595747
0.161219 0.782383 0.728510
0.160750 0.781914 0.860387
0.160284 0.781448 0.991518
0.159285 0.912476 0.000000
0.159005 0.912195 0.043663
0.158503 0.911694 0.184648
0.158015 0.911206 0.321975
0.157535 0.910725 0.457258
0.157059 0.910250 0.591115
0.156587 0.909778 0.723879
0.156118 0.909309 0.855755
0.155652 0.908843 0.986887
0.155643 1.000000 0.000000
0.155362 1.000000 0.040021
0.154861 1.000000 0.181006
0.154373 1.000000 0.318332
0.153892 1.000000 0.453615
0.153417 1.000000 0.587473
0.152945 1.000000 0.720237
0.152476 1.000000 0.852113
0.152010 1.000000 0.983244
0.329410 0.000000 0.000000
0.329129 0.000000 0.075468
0.328628 0.000000 0.216452
0.328140 0.000000 0.353779
0.327659 0.000000 0.489062
0.327184 0.000000 0.622920
0.326712 0.000000 0.755683
0.326243 0.000000 0.887560
0.325777 0.000000 1.000000
0.324591 0.129079 0.000000
0.324310 0.128798 0.070649
0.323809 0.128297 0.211634
0.323321 0.127809 0.348960
0.322840 0.127328 0.484243
0.322365 0.126853 0.618101
0.321893 0.126381 0.750865
0.321424 0.125912 0.882741
0.320958 0.125446 1.000000
0.319692 0.263823 0.000000
0.319412 0.263543 0.065750
0.318911 0.263042 0.206735
0.318423 0.262554 0.344062
0.317942 0.262073 0.479345
0.317466 0.261597 0.613202
0.316994 0.261125 0.745966
0.316526 0.260657 0.877842
0.316060 0.260190 1.000000
0.314891 0.395895 0.000000
0.314610 0.395615 0.060949
0.314109 0.395114 0.201933
0.313621 0.394626 0.339260
0.313140 0.394145 0.474543
0.312665 0.393669 0.608401
0.312193 0.393197 0.741164
0.311724 0.392729 0.873041
0.311258 0.392263 1.000000
0.310150 0.526285 0.000000
0.309870 0.526004 0.056209
0.309369 0.525503 0.197193
0.308881 0.525015 0.334520
0.308400 0.524534 0.469803
0.307924 0.524059 0.603661
0.307452 0.523587 0.736424
0.306984 0.523118 0.868301
0.306518 0.522652 0.999432
0.305455 0.655445 0.000000
0.305174 0.655165 0.051513
0.304673 0.654664 0.192497
0.304185 0.654176 0.329824
0.303704 0.653695 0.465107
0.303229 0.653219 0.598965
0.302757 0.652747 0.731728
0.302288 0.652279 0.863605
0.301822 0.651813 0.994736
0.300794 0.783638 0.000000
0.300514 0.783358 0.046852
0.300013 0.782857 0.187837
0.299525 0.782368 0.325164
0.299044 0.781888 0.460447
0.298568 0.781412 0.594304
0.298096 0.780940 0.727068
0.297628 0.780471 0.858945
0.297162 0.780005 0.990076
0.296163 0.911033 0.000000
0.295882 0.910753 0.042221
0.295381 0.910252 0.183205
0.294893 0.909764 0.320532
0.294412 0.909283 0.455815
0.293937 0.908807 0.589673
0.293465 0.908335 0.722436
0.292996 0.907867 0.854313
0.292530 0.907401 0.985444
0.292521 1.000000 0.000000
0.292240 1.000000 0.038579
0.291739 1.000000 0.179563
0.291251 1.000000 0.316890
0.290770 1.000000 0.452173
0.290294 1.000000 0.586031
0.289823 1.000000 0.718794
0.289354 1.000000 0.850671
0.288888 1.000000 0.981802
0.464078 0.000000 0.000000
0.463797 0.000000 0.074049
0.463296 0.000000 0.215033
0.462808 0.000000 0.352360
0.462327 0.000000 0.487643
0.461852 0.000000 0.621501
0.461380 0.000000 0.754264
0.460911 0.000000 0.886141
0.460445 0.000000 1.000000
0.459259 0.127660 0.000000
0.458978 0.127379 0.069230
0.458477 0.126878 0.210214
0.457989 0.126390 0.347541
0.457509 0.125909 0.482824
0.457033 0.125434 0.616682
0.456561 0.124962 0.749445
0.456092 0.124493 0.881322
0.455626 0.124027 1.000000
0.454360 0.262404 0.000000
0.454080 0.262124 0.064331
0.453579 0.261622 0.205316
0.453091 0.261134 0.342643
0.452610 0.260654 0.477926
0.452134 0.260178 0.611783
0.451662 0.259706 0.744547
0.451194 0.259237 0.876423
0.450728 0.258771 1.000000
0.449559 0.394476 0.000000
0.449278 0.394196 0.059530
0.448777 0.393695 0.200514
0.448289 0.393206 0.337841
0.447808 0.392726 0.473124
0.447333 0.392250 0.606982
0.446861 0.391778 0.739745
0.446392 0.391309 0.871622
0.445926 0.390843 1.000000
0.444818 0.524866 0.000000
0.444538 0.524585 0.054789
0.444037 0.524084 0.195774
0.443549 0.523596 0.333101
0.443068 0.523115 0.468384
0.442592 0.522640 0.602241
0.442120 0.522168 0.735005
0.441652 0.521699 0.866882
0.441186 0.521233 0.998013
0.440123 0.654026 0.000000
0.439842 0.653746 0.050094
0.439341 0.653245 0.191078
0.438853 0.652757 0.328405
0.438372 0.652276 0.463688
0.437897 0.651800 0.597546
0.437425 0.651328 0.730309
0.436956 0.650860 0.862186
0.436490 0.650394 0.993317
0.435462 0.782219 0.000000
0.435182 0.781938 0.045433
0.434681 0.781437 0.186418
0.434193 0.780949 0.323745
0.433712 0.780469 0.459028
0.433236 0.779993 0.592885
0.432764 0.779521 0.725649
0.432296 0.779052 0.857525
0.431830 0.778586 0.988657
0.430831 0.909614 0.000000
0.430550 0.909334 0.040802
0.430049 0.908833 0.181786
0.429561 0.908345 0.319113
0.429080 0.907864 0.454396
0.428605 0.907388 0.588254
0.428133 0.906916 0.721017
0.427664 0.906448 0.852894
0.427198 0.905982 0.984025
0.427189 1.000000 0.000000
0.426908 1.000000 0.037160
0.426407 1.000000 0.178144
0.425919 1.000000 0.315471
0.425438 1.000000 0.450754
0.424962 1.000000 0.584612
0.424491 1.000000 0.717375
0.424022 1.000000 0.849252
0.423556 1.000000 0.980383
0.597245 0.000000 0.000000
0.596965 0.000000 0.072646
0.596464 0.000000 0.213630
0.595976 0.000000 0.350957
0.595495 0.000000 0.486240
0.595019 0.000000 0.620098
0.594547 0.000000 0.752861
0.594079 0.000000 0.884738
0.593613 0.000000 1.000000
0.592426 0.126256 0.000000
0.592146 0.125976 0.067827
0.591645 0.125475 0.208811
0.591157 0.124987 0.346138
0.590676 0.124506 0.481421
0.590200 0.124030 0.615279
0.589728 0.123558 0.748042
0.589260 0.123090 0.879919
0.588794 0.122624 1.000000
0.587528 0.261001 0.000000
0.587247 0.260720 0.062928
0.586746 0.260219 0.203913
0.586258 0.259731 0.341239
0.585777 0.259250 0.476522
0.585302 0.258775 0.610380
0.584830 0.258303 0.743144
0.584361 0.257834 0.875020
0.583895 0.257368 1.000000
0.582726 0.393073 0.000000
0.582446 0.392792 0.058127
0.581945 0.392291 0.199111
0.581457 0.391803 0.336438
0.580976 0.391322 0.471721
0.580500 0.390847 0.605579
0.580028 0.390375 0.738342
0.579560 0.389906 0.870219
0.579094 0.389440 1.000000
0.577986 0.523463 0.000000
0.577705 0.523182 0.053386
0.577204 0.522681 0.194371
0.576716 0.522193 0.331697
0.576235 0.521712 0.466981
0.575760 0.521236 0.600838
0.575288 0.520765 0.733602
0.574819 0.520296 0.865478
0.574353 0.519830 0.996610
0.573290 0.652623 0.000000
0.573010 0.652342 0.048691
0.572509 0.651841 0.189675
0.572021 0.651353 0.327002
0.571540 0.650873 0.462285
0.571064 0.650397 0.596142
0.570592 0.649925 0.728906
0.570124 0.649456 0.860783
0.569658 0.648990 0.991914
0.568630 0.780816 0.000000
0.568349 0.780535 0.044030
0.567848 0.780034 0.185015
0.567360 0.779546 0.322341
0.566879 0.779065 0.457624
0.566404 0.778590 0.591482
0.565932 0.778118 0.724246
0.565463 0.777649 0.856122
0.564997 0.777183 0.987253
0.563998 0.908211 0.000000
0.563718 0.907931 0.039399
0.563217 0.907429 0.180383
0.562729 0.906941 0.317710
0.562248 0.906461 0.452993
0.561772 0.905985 0.586851
0.561300 0.905513 0.719614
0.560832 0.905044 0.851491
0.560366 0.904578 0.982622
0.560356 1.000000 0.000000
0.560075 1.000000 0.035756
0.559574 1.000000 0.176741
0.559086 1.000000 0.314068
0.558606 1.000000 0.449351
0.558130 1.000000 0.583208
0.557658 1.000000 0.715972
0.557189 1.000000 0.847848
0.556723 1.000000 0.978980
0.729277 0.000000 0.000000
0.728996 0.000000 0.071254
0.728495 0.000000 0.212239
0.728007 0.000000 0.349566
0.727526 0.000000 0.484849
0.727050 0.000000 0.618706
0.726579 0.000000 0.751470
0.726110 0.000000 0.883346
0.725644 0.000000 1.000000
0.724458 0.124865 0.000000
0.724177 0.124585 0.066435
0.723676 0.124084 0.207420
0.723188 0.123595 0.344747
0.722707 0.123115 0.480030
0.722232 0.122639 0.613887
0.721760 0.122167 0.746651
0.721291 0.121698 0.878527
0.720825 0.121232 1.000000
0.719559 0.259609 0.000000
0.719278 0.259329 0.061537
0.718777 0.258828 0.202521
0.718289 0.258340 0.339848
0.717809 0.257859 0.475131
0.717333 0.257383 0.608989
0.716861 0.256912 0.741752
0.716392 0.256443 0.873629
0.715926 0.255977 1.000000
0.714758 0.391682 0.000000
0.714477 0.391401 0.056735
0.713976 0.390900 0.197720
0.713488 0.390412 0.335046
0.713007 0.389931 0.470330
0.712531 0.389455 0.604187
0.712060 0.388984 0.736951
0.711591 0.388515 0.868827
0.711125 0.388049 0.999959
0.710017 0.522071 0.000000
0.709737 0.521791 0.051995
0.709236 0.521290 0.192979
0.708748 0.520802 0.330306
0.708267 0.520321 0.465589
0.707791 0.519845 0.599447
0.707319 0.519373 0.732210
0.706851 0.518905 0.864087
0.706384 0.518439 0.995218
0.705322 0.651232 0.000000
0.705041 0.650951 0.047299
0.704540 0.650450 0.188284
0.704052 0.649962 0.325610
0.703571 0.649481 0.460894
0.703095 0.649006 0.594751
0.702624 0.648534 0.727515
0.702155 0.648065 0.859391
0.701689 0.647599 0.990523
0.700661 0.779424 0.000000
0.700381 0.779144 0.042639
0.699879 0.778643 0.183623
0.699391 0.778155 0.320950
0.698911 0.777674 0.456233
0.698435 0.777198 0.590091
0.697963 0.776726 0.722854
0.697494 0.776258 0.854731
0.697028 0.775792 0.985862
0.696030 0.906820 0.000000
0.695749 0.906539 0.038007
0.695248 0.906038 0.178992
0.694760 0.905550 0.316319
0.694279 0.905069 0.451602
0.693803 0.904594 0.585459
0.693332 0.904122 0.718223
0.692863 0.903653 0.850099
0.692397 0.903187 0.981231
0.692387 1.000000 0.000000
0.692107 1.000000 0.034365
0.691606 1.000000 0.175350
0.691118 1.000000 0.312676
0.690637 1.000000 0.447959
0.690161 1.000000 0.581817
0.689689 1.000000 0.714581
0.689221 1.000000 0.846457
0.688755 1.000000 0.977588
0.860395 0.000000 0.000000
0.860114 0.000000 0.069873
0.859613 0.000000 0.210857
0.859125 0.000000 0.348184
0.858644 0.000000 0.483467
0.858168 0.000000 0.617325
0.857697 0.000000 0.750088
0.857228 0.000000 0.881965
0.856762 0.000000 1.000000
0.855576 0.123483 0.000000
0.855295 0.123203 0.065054
0.854794 0.122702 0.206038
0.854306 0.122214 0.343365
0.853825 0.121733 0.478648
0.853350 0.121257 0.612506
0.852878 0.120785 0.745269
0.852409 0.120317 0.877146
0.851943 0.119851 1.000000
0.850677 0.258228 0.000000
0.850397 0.257947 0.060155
0.849895 0.257446 0.201140
0.849407 0.256958 0.338466
0.848927 0.256477 0.473749
0.848451 0.256002 0.607607
0.847979 0.255530 0.740371
0.847510 0.255061 0.872247
0.847044 0.254595 1.000000
0.845876 0.390300 0.000000
0.845595 0.390019 0.055354
0.845094 0.389518 0.196338
0.844606 0.389030 0.333665
0.844125 0.388549 0.468948
0.843649 0.388074 0.602806
0.843178 0.387602 0.735569
0.842709 0.387133 0.867446
0.842243 0.386667 0.998577
0.841135 0.520690 0.000000
0.840855 0.520409 0.050613
0.840354 0.519908 0.191598
0.839866 0.519420 0.328924
0.839385 0.518939 0.464208
0.838909 0.518463 0.598065
0.838437 0.517992 0.730829
0.837969 0.517523 0.862705
0.837503 0.517057 0.993837
0.836440 0.649850 0.000000
0.836159 0.649569 0.045918
0.835658 0.649068 0.186902
0.835170 0.648580 0.324229
0.834689 0.648100 0.459512
0.834213 0.647624 0.593370
0.833742 0.647152 0.726133
0.833273 0.646683 0.858010
0.832807 0.646217 0.989141
0.831779 0.778043 0.000000
0.831499 0.777762 0.041257
0.830997 0.777261 0.182242
0.830509 0.776773 0.319568
0.830029 0.776292 0.454851
0.829553 0.775817 0.588709
0.829081 0.775345 0.721473
0.828612 0.774876 0.853349
0.828146 0.774410 0.984480
0.827148 0.905438 0.000000
0.826867 0.905158 0.036626
0.826366 0.904656 0.177610
0.825878 0.904168 0.314937
0.825397 0.903688 0.450220
0.824921 0.903212 0.584078
0.824450 0.902740 0.716841
0.823981 0.902271 0.848718
0.823515 0.901805 0.979849
0.823505 1.000000 0.000000
0.823225 1.000000 0.032983
0.822724 1.000000 0.173968
0.822236 1.000000 0.311295
0.821755 1.000000 0.446578
0.821279 1.000000 0.580435
0.820807 1.000000 0.713199
0.820339 1.000000 0.845075
0.819873 1.000000 0.976207
0.990750 0.000000 0.000000
0.990469 0.000000 0.068499
0.989968 0.000000 0.209483
0.989480 0.000000 0.346810
0.988999 0.000000 0.482093
0.988523 0.000000 0.615951
0.988052 0.000000 0.748714
0.987583 0.000000 0.880591
0.987117 0.000000 1.000000
0.985931 0.122110 0.000000
0.985650 0.121829 0.063680
0.985149 0.121328 0.204665
0.984661 0.120840 0.341991
0.984180 0.120359 0.477274
0.983705 0.119884 0.611132
0.983233 0.119412 0.743896
0.982764 0.118943 0.875772
0.982298 0.118477 1.000000
0.981032 0.256854 0.000000
0.980752 0.256574 0.058781
0.980250 0.256073 0.199766
0.979762 0.255585 0.337093
0.979282 0.255104 0.472376
0.978806 0.254628 0.606233
0.978334 0.254156 0.738997
0.977865 0.253688 0.870873
0.977399 0.253221 1.000000
0.976231 0.388926 0.000000
0.975950 0.388646 0.053980
0.975449 0.388145 0.194964
0.974961 0.387657 0.332291
0.974480 0.387176 0.467574
0.974004 0.386700 0.601432
0.973533 0.386228 0.734195
0.973064 0.385760 0.866072
0.972598 0.385294 0.997203
0.971490 0.519316 0.000000
0.971210 0.519035 0.049240
0.970709 0.518534 0.190224
0.970221 0.518046 0.327551
0.969740 0.517565 0.462834
0.969264 0.517090 0.596692
0.968792 0.516618 0.729455
0.968324 0.516149 0.861332
0.967858 0.515683 0.992463
0.966795 0.648476 0.000000
0.966514 0.648196 0.044544
0.966013 0.647695 0.185528
0.965525 0.647207 0.322855
0.965044 0.646726 0.458138
0.964568 0.646250 0.591996
0.964097 0.645778 0.724759
0.963628 0.645310 0.856636
0.963162 0.644844 0.987767
0.962134 0.776669 0.000000
0.961854 0.776389 0.039883
0.961352 0.775888 0.180868
0.960864 0.775399 0.318195
0.960384 0.774919 0.453478
0.959908 0.774443 0.587335
0.959436 0.773971 0.720099
0.958967 0.773502 0.851975
0.958501 0.773036 0.983107
0.957503 0.904064 0.000000
0.957222 0.903784 0.035252
0.956721 0.903283 0.176236
0.956233 0.902795 0.313563
0.955752 0.902314 0.448846
0.955276 0.901838 0.582704
0.954805 0.901366 0.715467
0.954336 0.900898 0.847344
0.953870 0.900432 0.978475
0.953860 1.000000 0.000000
0.953580 1.000000 0.031610
0.953079 1.000000 0.172594
0.952591 1.000000 0.309921
0.952110 1.000000 0.445204
0.951634 1.000000 0.579062
0.951162 1.000000 0.711825
0.950694 1.000000 0.843702
0.950228 1.000000 0.974833
1.000000 0.000000 0.000000
1.000000 0.000000 0.067973
1.000000 0.000000 0.208958
1.000000 0.000000 0.346285
1.000000 0.000000 0.481568
1.000000 0.000000 0.615425
1.000000 0.000000 0.748189
1.000000 0.000000 0.880066
1.000000 0.000000 1.000000
1.000000 0.121584 0.000000
1.000000 0.121304 0.063155
1.000000 0.120803 0.204139
1.000000 0.120315 0.341466
1.000000 0.119834 0.476749
1.000000 0.119358 0.610607
1.000000 0.118886 0.743370
1.000000 0.118418 0.875247
1.000000 0.117952 1.000000
1.000000 0.256329 0.000000
1.000000 0.256048 0.058256
1.000000 0.255547 0.199240
1.000000 0.255059 0.336567
1.000000 0.254578 0.471850
1.000000 0.254103 0.605708
1.000000 0.253631 0.738471
1.000000 0.253162 0.870348
1.000000 0.252696 1.000000
1.000000 0.388401 0.000000
1.000000 0.388120 0.053454
1.000000 0.387619 0.194439
1.000000 0.387131 0.331766
1.000000 0.386650 0.467049
1.000000 0.386175 0.600906
1.000000 0.385703 0.733670
1.000000 0.385234 0.865547
1.000000 0.384768 0.996678
1.000000 0.518790 0.000000
1.000000 0.518510 0.048714
1.000000 0.518009 0.189699
1.000000 0.517521 0.327025
1.000000 0.517040 0.462308
1.000000 0.516564 0.596166
1.000000 0.516092 0.728930
1.000000 0.515624 0.860806
1.000000 0.515158 0.991937
1.000000 0.647951 0.000000
1.000000 0.647670 0.044018
1.000000 0.647169 0.185003
1.000000 0.646681 0.322330
1.000000 0.646201 0.457613
1.000000 0.645725 0.591470
1.000000 0.645253 0.724234
1.000000 0.644784 0.856111
1.000000 0.644318 0.987242
1.000000 0.776144 0.000000
1.000000 0.775863 0.039358
1.000000 0.775362 0.180342
1.000000 0.774874 0.317669
1.000000 0.774393 0.452952
1.000000 0.773917 0.586810
1.000000 0.773446 0.719573
1.000000 0.772977 0.851450
1.000000 0.772511 0.982581
1.000000 0.903539 0.000000
1.000000 0.903258 0.034726
1.000000 0.902757 0.175711
1.000000 0.902269 0.313038
1.000000 0.901789 0.448321
1.000000 0.901313 0.582178
1.000000 0.900841 0.714942
1.000000 0.900372 0.846819
1.000000 0.899906 0.977950
1.000000 1.000000 0.000000
1.000000 1.000000 0.031084
1.000000 1.000000 0.172069
1.000000 1.000000 0.309395
1.000000 1.000000 0.444679
1.000000 1.000000 0.578536
1.000000 1.000000 0.711300
1.000000 1.000000 0.843176
1.000000 1.000000 0.974308
