skills/appstore-creatives-orchestrator/assets/grade/luts/warm_skin_v18.cube
TITLE "warm_skin_v18"
LUT_3D_SIZE 5
DOMAIN_MIN 0.0 0.0 0.0
DOMAIN_MAX 1.0 1.0 1.0
0.051349 0.000000 0.000000
0.050567 0.000000 0.219383
0.049598 0.000000 0.491992
0.048651 0.000000 0.758614
0.047716 0.000000 1.000000
0.041631 0.266753 0.000000
0.040850 0.265972 0.209665
0.039881 0.265003 0.482275
0.038933 0.264055 0.748896
0.037999 0.263121 1.000000
0.032089 0.529215 0.000000
0.031308 0.528433 0.200123
0.030339 0.527465 0.472733
0.029391 0.526517 0.739354
0.028457 0.525582 1.000000
0.022733 0.786568 0.000000
0.021952 0.785787 0.190767
0.020983 0.784818 0.463377
0.020035 0.783870 0.729998
0.019101 0.782936 0.993006
0.014460 1.000000 0.000000
0.013678 1.000000 0.182493
0.012709 1.000000 0.455103
0.011762 1.000000 0.721724
0.010827 1.000000 0.984732
0.329410 0.000000 0.000000
0.328628 0.000000 0.216452
0.327659 0.000000 0.489062
0.326712 0.000000 0.755683
0.325777 0.000000 1.000000
0.319692 0.263823 0.000000
0.318911 0.263042 0.206735
0.317942 0.262073 0.479345
0.316994 0.261125 0.745966
0.316060 0.260190 1.000000
0.310150 0.526285 0.000000
0.309369 0.525503 0.197193
0.308400 0.524534 0.469803
0.307452 0.523587 0.736424
0.306518 0.522652 0.999432
0.300794 0.783638 0.000000
0.300013 0.782857 0.187837
0.299044 0.781888 0.460447
0.298096 0.780940 0.727068
0.297162 0.780005 0.990076
0.292521 1.000000 0.000000
0.291739 1.000000 0.179563
0.290770 1.000000 0.452173
0.289823 1.000000 0.718794
0.288888 1.000000 0.981802
0.597245 0.000000 0.000000
0.596464 0.000000 0.213630
0.595495 0.000000 0.486240
0.594547 0.000000 0.752861
0.593613 0.000000 1.000000
0.587528 0.261001 0.000000
0.586746 0.260219 0.203913
0.585777 0.259250 0.476522
0.584830 0.258303 0.743144
0.583895 0.257368 1.000000
0.577986 0.523463 0.000000
0.577204 0.522681 0.194371
0.576235 0.521712 0.466981
0.575288 0.520765 0.733602
0.574353 0.519830 0.996610
0.568630 0.780816 0.000000
0.567848 0.780034 0.185015
0.566879 0.779065 0.457624
0.565932 0.778118 0.724246
0.564997 0.777183 0.987253
0.560356 1.000000 0.000000
0.559574 1.000000 0.176741
0.558606 1.000000 0.449351
0.557658 1.000000 0.715972
0.556723 1.000000 0.978980
0.860395 0.000000 0.000000
0.859613 0.000000 0.210857
0.858644 0.000000 0.483467
0.857697 0.000000 0.750088
0.856762 0.000000 1.000000
0.850677 0.258228 0.000000
0.849895 0.257446 0.201140
0.848927 0.256477 0.473749
0.847979 0.255530 0.740371
0.847044 0.254595 1.000000
0.841135 0.520690 0.000000
0.840354 0.519908 0.191598
0.839385 0.518939 0.464208
0.838437 0.517992 0.730829
0.837503 0.517057 0.993837
0.831779 0.778043 0.000000
0.830997 0.777261 0.182242
0.830029 0.776292 0.454851
0.829081 0.775345 0.721473
0.828146 0.774410 0.984480
0.823505 1.000000 0.000000
0.822724 1.000000 0.173968
0.821755 1.000000 0.446578
0.820807 1.000000 0.713199
0.819873 1.000000 0.976207
1.000000 0.000000 0.000000
1.000000 0.000000 0.208958
1.000000 0.000000 0.481568
1.000000 0.000000 0.748189
1.000000 0.000000 1.000000
1.000000 0.256329 0.000000
1.000000 0.255547 0.199240
1.000000 0.254578 0.471850
1.000000 0.253631 0.738471
1.000000 0.252696 1.000000
1.000000 0.518790 0.000000
1.000000 0.518009 0.189699
1.000000 0.517040 0.462308
1.000000 0.516092 0.728930
1.000000 0.515158 0.991937
1.000000 0.776144 0.000000
1.000000 0.775362 0.180342
1.000000 0.774393 0.452952
1.000000 0.773446 0.719573
1.000000 0.772511 0.982581
1.000000 1.000000 0.000000
1.000000 1.000000 0.172069
1.000000 1.000000 0.444679
1.000000 1.000000 0.711300
1.000000 1.000000 0.974308
