skills/creativeops-director/assets/grade/luts/ad_warm_v08.cube
TITLE "ad_warm_v08"
LUT_3D_SIZE 5
DOMAIN_MIN 0.0 0.0 0.0
DOMAIN_MAX 1.0 1.0 1.0
0.024322 0.000000 0.000000
0.023369 0.000000 0.244091
0.022327 0.000000 0.511475
0.021297 0.000000 0.775734
0.020274 0.000000 1.000000
0.013855 0.261345 0.000000
0.012903 0.260392 0.233624
0.011860 0.259350 0.501009
0.010830 0.258320 0.765268
0.009807 0.257297 1.000000
0.003545 0.519055 0.000000
0.002593 0.518103 0.223315
0.001550 0.517060 0.490699
0.000520 0.516030 0.754958
0.000000 0.515007 1.000000
0.000000 0.773918 0.000000
0.000000 0.772966 0.213119
0.000000 0.771923 0.480503
0.000000 0.770893 0.744762
0.000000 0.769870 1.000000
0.000000 1.000000 0.000000
0.000000 1.000000 0.203438
0.000000 1.000000 0.470822
0.000000 1.000000 0.735081
0.000000 1.000000 0.997379
0.295388 0.000000 0.000000
0.294435 0.000000 0.240956
0.293393 0.000000 0.508340
0.292362 0.000000 0.772599
0.291340 0.000000 1.000000
0.284921 0.258210 0.000000
0.283968 0.257257 0.230489
0.282926 0.256215 0.497873
0.281896 0.255184 0.762132
0.280873 0.254162 1.000000
0.274611 0.515920 0.000000
0.273658 0.514967 0.220179
0.272616 0.513925 0.487563
0.271586 0.512895 0.751822
0.270563 0.511872 1.000000
0.264415 0.770783 0.000000
0.263462 0.769830 0.209983
0.262420 0.768788 0.477367
0.261390 0.767758 0.741626
0.260367 0.766735 1.000000
0.254734 1.000000 0.000000
0.253782 1.000000 0.200302
0.252739 1.000000 0.467686
0.251709 1.000000 0.731945
0.250686 1.000000 0.994243
0.559970 0.000000 0.000000
0.559017 0.000000 0.237895
0.557975 0.000000 0.505279
0.556944 0.000000 0.769538
0.555922 0.000000 1.000000
0.549503 0.255149 0.000000
0.548550 0.254197 0.227429
0.547508 0.253154 0.494813
0.546478 0.252124 0.759072
0.545455 0.251102 1.000000
0.539193 0.512859 0.000000
0.538240 0.511907 0.217119
0.537198 0.510864 0.484503
0.536168 0.509834 0.748762
0.535145 0.508812 1.000000
0.528997 0.767722 0.000000
0.528044 0.766770 0.206923
0.527002 0.765727 0.474307
0.525972 0.764697 0.738566
0.524949 0.763675 1.000000
0.519316 1.000000 0.000000
0.518363 1.000000 0.197242
0.517321 1.000000 0.464626
0.516291 1.000000 0.728885
0.515268 1.000000 0.991183
0.821780 0.000000 0.000000
0.820827 0.000000 0.234867
0.819785 0.000000 0.502251
0.818754 0.000000 0.766510
0.817732 0.000000 1.000000
0.811313 0.252121 0.000000
0.810360 0.251168 0.224400
0.809318 0.250126 0.491785
0.808288 0.249096 0.756043
0.807265 0.248073 1.000000
0.801003 0.509831 0.000000
0.800050 0.508878 0.214090
0.799008 0.507836 0.481475
0.797978 0.506806 0.745734
0.796955 0.505783 1.000000
0.790807 0.764694 0.000000
0.789854 0.763741 0.203894
0.788812 0.762699 0.471279
0.787782 0.761669 0.735538
0.786759 0.760646 0.997836
0.781126 1.000000 0.000000
0.780173 1.000000 0.194213
0.779131 1.000000 0.461598
0.778101 1.000000 0.725857
0.777078 1.000000 0.988155
1.000000 0.000000 0.000000
1.000000 0.000000 0.232288
1.000000 0.000000 0.499672
1.000000 0.000000 0.763931
1.000000 0.000000 1.000000
1.000000 0.249542 0.000000
1.000000 0.248589 0.221821
1.000000 0.247547 0.489205
1.000000 0.246517 0.753464
1.000000 0.245494 1.000000
1.000000 0.507252 0.000000
1.000000 0.506299 0.211511
1.000000 0.505257 0.478895
1.000000 0.504227 0.743154
1.000000 0.503204 1.000000
1.000000 0.762115 0.000000
1.000000 0.761162 0.201315
1.000000 0.760120 0.468699
1.000000 0.759090 0.732958
1.000000 0.758067 0.995256
1.000000 1.000000 0.000000
1.000000 1.000000 0.191634
1.000000 1.000000 0.459018
1.000000 1.000000 0.723277
1.000000 1.000000 0.985576
