skills/creativeops-director/assets/grade/luts/ad_warm_v08.cube
TITLE "ad_warm_v08"
LUT_3D_SIZE 9
DOMAIN_MIN 0.0 0.0 0.0
DOMAIN_MAX 1.0 1.0 1.0
0.024322 0.000000 0.000000
0.023899 0.000000 0.108177
0.023369 0.000000 0.244091
0.022846 0.000000 0.378302
0.022327 0.000000 0.511475
0.021811 0.000000 0.643898
0.021297 0.000000 0.775734
0.020785 0.000000 0.907088
0.020274 0.000000 1.000000
0.019087 0.130568 0.000000
0.018664 0.130145 0.102943
0.018134 0.129616 0.238856
0.017611 0.129092 0.373068
0.017092 0.128573 0.506240
0.016576 0.128057 0.638664
0.016062 0.127543 0.770499
0.015550 0.127031 0.901853
0.015039 0.126520 1.000000
0.013855 0.261345 0.000000
0.013432 0.260922 0.097711
0.012903 0.260392 0.233624
0.012379 0.259869 0.367836
0.011860 0.259350 0.501009
0.011344 0.258834 0.633432
0.010830 0.258320 0.765268
0.010318 0.257808 0.896621
0.009807 0.257297 1.000000
0.008682 0.390666 0.000000
0.008259 0.390243 0.092537
0.007729 0.389713 0.228451
0.007206 0.389190 0.362662
0.006687 0.388671 0.495835
0.006170 0.388154 0.628258
0.005656 0.387641 0.760094
0.005144 0.387128 0.891448
0.004634 0.386618 1.000000
0.003545 0.519055 0.000000
0.003123 0.518632 0.087401
0.002593 0.518103 0.223315
0.002069 0.517579 0.357526
0.001550 0.517060 0.490699
0.001034 0.516544 0.623122
0.000520 0.516030 0.754958
0.000008 0.515518 0.886311
0.000000 0.515007 1.000000
0.000000 0.646758 0.000000
0.000000 0.646336 0.082292
0.000000 0.645806 0.218206
0.000000 0.645283 0.352417
0.000000 0.644763 0.485590
0.000000 0.644247 0.618013
0.000000 0.643733 0.749849
0.000000 0.643221 0.881202
0.000000 0.642711 1.000000
0.000000 0.773918 0.000000
0.000000 0.773495 0.077205
0.000000 0.772966 0.213119
0.000000 0.772442 0.347330
0.000000 0.771923 0.480503
0.000000 0.771407 0.612926
0.000000 0.770893 0.744762
0.000000 0.770381 0.876115
0.000000 0.769870 1.000000
0.000000 0.900628 0.000000
0.000000 0.900206 0.072136
0.000000 0.899676 0.208049
0.000000 0.899152 0.342261
0.000000 0.898633 0.475434
0.000000 0.898117 0.607857
0.000000 0.897603 0.739693
0.000000 0.897091 0.871046
0.000000 0.896581 1.000000
0.000000 1.000000 0.000000
0.000000 1.000000 0.067524
0.000000 1.000000 0.203438
0.000000 1.000000 0.337649
0.000000 1.000000 0.470822
0.000000 1.000000 0.603245
0.000000 1.000000 0.735081
0.000000 1.000000 0.866434
0.000000 1.000000 0.997379
0.161304 0.000000 0.000000
0.160881 0.000000 0.106593
0.160351 0.000000 0.242507
0.159828 0.000000 0.376718
0.159309 0.000000 0.509891
0.158793 0.000000 0.642314
0.158279 0.000000 0.774150
0.157767 0.000000 0.905503
0.157256 0.000000 1.000000
0.156069 0.128984 0.000000
0.155646 0.128561 0.101358
0.155117 0.128031 0.237272
0.154593 0.127508 0.371483
0.154074 0.126989 0.504656
0.153558 0.126472 0.637079
0.153044 0.125959 0.768915
0.152532 0.125446 0.900269
0.152022 0.124936 1.000000
0.150837 0.259761 0.000000
0.150415 0.259338 0.096126
0.149885 0.258808 0.232040
0.149362 0.258285 0.366251
0.148842 0.257766 0.499424
0.148326 0.257249 0.631847
0.147812 0.256735 0.763683
0.147300 0.256223 0.895037
0.146790 0.255713 1.000000
0.145664 0.389081 0.000000
0.145241 0.388658 0.090953
0.144711 0.388129 0.226866
0.144188 0.387605 0.361078
0.143669 0.387086 0.494251
0.143153 0.386570 0.626674
0.142639 0.386056 0.758510
0.142127 0.385544 0.889863
0.141616 0.385034 1.000000
0.140528 0.517471 0.000000
0.140105 0.517048 0.085816
0.139575 0.516518 0.221730
0.139052 0.515995 0.355941
0.138533 0.515476 0.489114
0.138016 0.514959 0.621537
0.137502 0.514445 0.753373
0.136990 0.513933 0.884727
0.136480 0.513423 1.000000
0.135419 0.645174 0.000000
0.134996 0.644751 0.080707
0.134466 0.644221 0.216621
0.133943 0.643698 0.350832
0.133424 0.643179 0.484005
0.132907 0.642663 0.616428
0.132393 0.642149 0.748264
0.131881 0.641637 0.879618
0.131371 0.641126 1.000000
0.130332 0.772334 0.000000
0.129909 0.771911 0.075620
0.129379 0.771381 0.211534
0.128856 0.770858 0.345745
0.128336 0.770339 0.478918
0.127820 0.769822 0.611341
0.127306 0.769309 0.743177
0.126794 0.768796 0.874531
0.126284 0.768286 1.000000
0.125262 0.899044 0.000000
0.124840 0.898621 0.070551
0.124310 0.898091 0.206465
0.123787 0.897568 0.340676
0.123267 0.897049 0.473849
0.122751 0.896533 0.606272
0.122237 0.896019 0.738108
0.121725 0.895507 0.869462
0.121215 0.894996 1.000000
0.120651 1.000000 0.000000
0.120228 1.000000 0.065939
0.119698 1.000000 0.201853
0.119175 1.000000 0.336064
0.118656 1.000000 0.469237
0.118139 1.000000 0.601660
0.117625 1.000000 0.733496
0.117113 1.000000 0.864850
0.116603 1.000000 0.995794
0.295388 0.000000 0.000000
0.294965 0.000000 0.105042
0.294435 0.000000 0.240956
0.293912 0.000000 0.375167
0.293393 0.000000 0.508340
0.292876 0.000000 0.640763
0.292362 0.000000 0.772599
0.291850 0.000000 0.903952
0.291340 0.000000 1.000000
0.290153 0.127433 0.000000
0.289730 0.127010 0.099807
0.289200 0.126480 0.235721
0.288677 0.125957 0.369932
0.288158 0.125438 0.503105
0.287642 0.124922 0.635528
0.287128 0.124408 0.767364
0.286616 0.123896 0.898718
0.286105 0.123385 1.000000
0.284921 0.258210 0.000000
0.284498 0.257787 0.094575
0.283968 0.257257 0.230489
0.283445 0.256734 0.364700
0.282926 0.256215 0.497873
0.282410 0.255698 0.630296
0.281896 0.255184 0.762132
0.281384 0.254672 0.893486
0.280873 0.254162 1.000000
0.279747 0.387530 0.000000
0.279325 0.387108 0.089402
0.278795 0.386578 0.225315
0.278272 0.386054 0.359527
0.277752 0.385535 0.492700
0.277236 0.385019 0.625123
0.276722 0.384505 0.756959
0.276210 0.383993 0.888312
0.275700 0.383483 1.000000
0.274611 0.515920 0.000000
0.274188 0.515497 0.084265
0.273658 0.514967 0.220179
0.273135 0.514444 0.354390
0.272616 0.513925 0.487563
0.272100 0.513408 0.619986
0.271586 0.512895 0.751822
0.271074 0.512382 0.883176
0.270563 0.511872 1.000000
0.269502 0.643623 0.000000
0.269079 0.643200 0.079157
0.268550 0.642670 0.215070
0.268026 0.642147 0.349282
0.267507 0.641628 0.482454
0.266991 0.641112 0.614878
0.266477 0.640598 0.746713
0.265965 0.640086 0.878067
0.265455 0.639575 1.000000
0.264415 0.770783 0.000000
0.263992 0.770360 0.074069
0.263462 0.769830 0.209983
0.262939 0.769307 0.344194
0.262420 0.768788 0.477367
0.261904 0.768272 0.609790
0.261390 0.767758 0.741626
0.260878 0.767246 0.872980
0.260367 0.766735 1.000000
0.259346 0.897493 0.000000
0.258923 0.897070 0.069000
0.258393 0.896540 0.204914
0.257870 0.896017 0.339125
0.257351 0.895498 0.472298
0.256835 0.894982 0.604721
0.256321 0.894468 0.736557
0.255809 0.893956 0.867911
0.255298 0.893445 0.998855
0.254734 1.000000 0.000000
0.254311 1.000000 0.064388
0.253782 1.000000 0.200302
0.253258 1.000000 0.334513
0.252739 1.000000 0.467686
0.252223 1.000000 0.600109
0.251709 1.000000 0.731945
0.251197 1.000000 0.863299
0.250686 1.000000 0.994243
0.428126 0.000000 0.000000
0.427703 0.000000 0.103507
0.427173 0.000000 0.239420
0.426650 0.000000 0.373632
0.426131 0.000000 0.506804
0.425614 0.000000 0.639228
0.425100 0.000000 0.771063
0.424588 0.000000 0.902417
0.424078 0.000000 1.000000
0.422891 0.125897 0.000000
0.422468 0.125475 0.098272
0.421938 0.124945 0.234186
0.421415 0.124422 0.368397
0.420896 0.123902 0.501570
0.420380 0.123386 0.633993
0.419866 0.122872 0.765829
0.419354 0.122360 0.897182
0.418843 0.121850 1.000000
0.417659 0.256674 0.000000
0.417236 0.256252 0.093040
0.416706 0.255722 0.228954
0.416183 0.255198 0.363165
0.415664 0.254679 0.496338
0.415148 0.254163 0.628761
0.414634 0.253649 0.760597
0.414122 0.253137 0.891950
0.413611 0.252627 1.000000
0.412486 0.385995 0.000000
0.412063 0.385572 0.087866
0.411533 0.385042 0.223780
0.411010 0.384519 0.357991
0.410490 0.384000 0.491164
0.409974 0.383484 0.623587
0.409460 0.382970 0.755423
0.408948 0.382458 0.886777
0.408438 0.381947 1.000000
0.407349 0.514384 0.000000
0.406926 0.513962 0.082730
0.406397 0.513432 0.218644
0.405873 0.512909 0.352855
0.405354 0.512389 0.486028
0.404838 0.511873 0.618451
0.404324 0.511359 0.750287
0.403812 0.510847 0.881641
0.403301 0.510337 1.000000
0.402240 0.642088 0.000000
0.401818 0.641665 0.077621
0.401288 0.641135 0.213535
0.400764 0.640612 0.347746
0.400245 0.640093 0.480919
0.399729 0.639576 0.613342
0.399215 0.639062 0.745178
0.398703 0.638550 0.876532
0.398193 0.638040 1.000000
0.397153 0.769247 0.000000
0.396730 0.768825 0.072534
0.396201 0.768295 0.208448
0.395677 0.767772 0.342659
0.395158 0.767252 0.475832
0.394642 0.766736 0.608255
0.394128 0.766222 0.740091
0.393616 0.765710 0.871445
0.393105 0.765200 1.000000
0.392084 0.895958 0.000000
0.391661 0.895535 0.067465
0.391131 0.895005 0.203379
0.390608 0.894482 0.337590
0.390089 0.893963 0.470763
0.389573 0.893446 0.603186
0.389059 0.892932 0.735022
0.388547 0.892420 0.866375
0.388036 0.891910 0.997320
0.387472 1.000000 0.000000
0.387049 1.000000 0.062853
0.386520 1.000000 0.198767
0.385996 1.000000 0.332978
0.385477 1.000000 0.466151
0.384961 1.000000 0.598574
0.384447 1.000000 0.730410
0.383935 1.000000 0.861764
0.383424 1.000000 0.992708
0.559970 0.000000 0.000000
0.559547 0.000000 0.101982
0.559017 0.000000 0.237895
0.558494 0.000000 0.372106
0.557975 0.000000 0.505279
0.557458 0.000000 0.637702
0.556944 0.000000 0.769538
0.556432 0.000000 0.900892
0.555922 0.000000 1.000000
0.554735 0.124372 0.000000
0.554312 0.123950 0.096747
0.553782 0.123420 0.232661
0.553259 0.122897 0.366872
0.552740 0.122377 0.500045
0.552224 0.121861 0.632468
0.551710 0.121347 0.764304
0.551198 0.120835 0.895657
0.550687 0.120325 1.000000
0.549503 0.255149 0.000000
0.549080 0.254726 0.091515
0.548550 0.254197 0.227429
0.548027 0.253673 0.361640
0.547508 0.253154 0.494813
0.546992 0.252638 0.627236
0.546478 0.252124 0.759072
0.545966 0.251612 0.890425
0.545455 0.251102 1.000000
0.544329 0.384470 0.000000
0.543907 0.384047 0.086341
0.543377 0.383517 0.222255
0.542854 0.382994 0.356466
0.542334 0.382475 0.489639
0.541818 0.381959 0.622062
0.541304 0.381445 0.753898
0.540792 0.380933 0.885252
0.540282 0.380422 1.000000
0.539193 0.512859 0.000000
0.538770 0.512437 0.081205
0.538240 0.511907 0.217119
0.537717 0.511383 0.351330
0.537198 0.510864 0.484503
0.536682 0.510348 0.616926
0.536168 0.509834 0.748762
0.535656 0.509322 0.880116
0.535145 0.508812 1.000000
0.534084 0.640563 0.000000
0.533661 0.640140 0.076096
0.533132 0.639610 0.212010
0.532608 0.639087 0.346221
0.532089 0.638568 0.479394
0.531573 0.638051 0.611817
0.531059 0.637537 0.743653
0.530547 0.637025 0.875007
0.530036 0.636515 1.000000
0.528997 0.767722 0.000000
0.528574 0.767300 0.071009
0.528044 0.766770 0.206923
0.527521 0.766247 0.341134
0.527002 0.765727 0.474307
0.526486 0.765211 0.606730
0.525972 0.764697 0.738566
0.525460 0.764185 0.869920
0.524949 0.763675 1.000000
0.523928 0.894433 0.000000
0.523505 0.894010 0.065940
0.522975 0.893480 0.201854
0.522452 0.892957 0.336065
0.521933 0.892438 0.469238
0.521417 0.891921 0.601661
0.520903 0.891407 0.733497
0.520391 0.890895 0.864850
0.519880 0.890385 0.995795
0.519316 1.000000 0.000000
0.518893 1.000000 0.061328
0.518363 1.000000 0.197242
0.517840 1.000000 0.331453
0.517321 1.000000 0.464626
0.516805 1.000000 0.597049
0.516291 1.000000 0.728885
0.515779 1.000000 0.860239
0.515268 1.000000 0.991183
0.691143 0.000000 0.000000
0.690720 0.000000 0.100464
0.690190 0.000000 0.236378
0.689667 0.000000 0.370589
0.689148 0.000000 0.503762
0.688632 0.000000 0.636185
0.688118 0.000000 0.768021
0.687606 0.000000 0.899375
0.687095 0.000000 1.000000
0.685908 0.122855 0.000000
0.685485 0.122432 0.095230
0.684955 0.121902 0.231143
0.684432 0.121379 0.365354
0.683913 0.120860 0.498527
0.683397 0.120344 0.630950
0.682883 0.119830 0.762786
0.682371 0.119318 0.894140
0.681860 0.118807 1.000000
0.680676 0.253632 0.000000
0.680253 0.253209 0.089998
0.679724 0.252679 0.225911
0.679200 0.252156 0.360123
0.678681 0.251637 0.493296
0.678165 0.251121 0.625719
0.677651 0.250607 0.757555
0.677139 0.250095 0.888908
0.676629 0.249584 1.000000
0.675503 0.382953 0.000000
0.675080 0.382530 0.084824
0.674550 0.382000 0.220738
0.674027 0.381477 0.354949
0.673508 0.380958 0.488122
0.672991 0.380441 0.620545
0.672477 0.379927 0.752381
0.671965 0.379415 0.883735
0.671455 0.378905 1.000000
0.670366 0.511342 0.000000
0.669944 0.510919 0.079688
0.669414 0.510389 0.215602
0.668891 0.509866 0.349813
0.668371 0.509347 0.482986
0.667855 0.508831 0.615409
0.667341 0.508317 0.747245
0.666829 0.507805 0.878598
0.666319 0.507294 1.000000
0.665258 0.639045 0.000000
0.664835 0.638622 0.074579
0.664305 0.638093 0.210493
0.663782 0.637569 0.344704
0.663262 0.637050 0.477877
0.662746 0.636534 0.610300
0.662232 0.636020 0.742136
0.661720 0.635508 0.873489
0.661210 0.634998 1.000000
0.660170 0.766205 0.000000
0.659748 0.765782 0.069492
0.659218 0.765252 0.205405
0.658695 0.764729 0.339617
0.658175 0.764210 0.472790
0.657659 0.763694 0.605213
0.657145 0.763180 0.737049
0.656633 0.762668 0.868402
0.656123 0.762157 0.999347
0.655101 0.892915 0.000000
0.654678 0.892492 0.064423
0.654149 0.891963 0.200336
0.653625 0.891439 0.334548
0.653106 0.890920 0.467721
0.652590 0.890404 0.600144
0.652076 0.889890 0.731979
0.651564 0.889378 0.863333
0.651053 0.888868 0.994278
0.650489 1.000000 0.000000
0.650067 1.000000 0.059811
0.649537 1.000000 0.195725
0.649014 1.000000 0.329936
0.648494 1.000000 0.463109
0.647978 1.000000 0.595532
0.647464 1.000000 0.727368
0.646952 1.000000 0.858721
0.646442 1.000000 0.989666
0.821780 0.000000 0.000000
0.821357 0.000000 0.098953
0.820827 0.000000 0.234867
0.820304 0.000000 0.369078
0.819785 0.000000 0.502251
0.819268 0.000000 0.634674
0.818754 0.000000 0.766510
0.818242 0.000000 0.897864
0.817732 0.000000 1.000000
0.816545 0.121344 0.000000
0.816122 0.120921 0.093718
0.815592 0.120391 0.229632
0.815069 0.119868 0.363843
0.814550 0.119349 0.497016
0.814034 0.118833 0.629439
0.813520 0.118319 0.761275
0.813008 0.117807 0.892629
0.812497 0.117296 1.000000
0.811313 0.252121 0.000000
0.810890 0.251698 0.088487
0.810360 0.251168 0.224400
0.809837 0.250645 0.358612
0.809318 0.250126 0.491785
0.808802 0.249610 0.624208
0.808288 0.249096 0.756043
0.807776 0.248584 0.887397
0.807265 0.248073 1.000000
0.806139 0.381442 0.000000
0.805717 0.381019 0.083313
0.805187 0.380489 0.219227
0.804664 0.379966 0.353438
0.804144 0.379447 0.486611
0.803628 0.378930 0.619034
0.803114 0.378416 0.750870
0.802602 0.377904 0.882224
0.802092 0.377394 1.000000
0.801003 0.509831 0.000000
0.800580 0.509408 0.078177
0.800050 0.508878 0.214090
0.799527 0.508355 0.348302
0.799008 0.507836 0.481475
0.798492 0.507320 0.613898
0.797978 0.506806 0.745734
0.797466 0.506294 0.877087
0.796955 0.505783 1.000000
0.795894 0.637534 0.000000
0.795471 0.637111 0.073068
0.794942 0.636582 0.208982
0.794418 0.636058 0.343193
0.793899 0.635539 0.476366
0.793383 0.635023 0.608789
0.792869 0.634509 0.740625
0.792357 0.633997 0.871978
0.791846 0.633486 1.000000
0.790807 0.764694 0.000000
0.790384 0.764271 0.067981
0.789854 0.763741 0.203894
0.789331 0.763218 0.338106
0.788812 0.762699 0.471279
0.788296 0.762183 0.603702
0.787782 0.761669 0.735538
0.787270 0.761157 0.866891
0.786759 0.760646 0.997836
0.785738 0.891404 0.000000
0.785315 0.890981 0.062912
0.784785 0.890452 0.198825
0.784262 0.889928 0.333037
0.783743 0.889409 0.466209
0.783227 0.888893 0.598633
0.782713 0.888379 0.730468
0.782201 0.887867 0.861822
0.781690 0.887356 0.992767
0.781126 1.000000 0.000000
0.780703 1.000000 0.058300
0.780173 1.000000 0.194213
0.779650 1.000000 0.328425
0.779131 1.000000 0.461598
0.778615 1.000000 0.594021
0.778101 1.000000 0.725857
0.777589 1.000000 0.857210
0.777078 1.000000 0.988155
0.951969 0.000000 0.000000
0.951547 0.000000 0.097447
0.951017 0.000000 0.233361
0.950493 0.000000 0.367572
0.949974 0.000000 0.500745
0.949458 0.000000 0.633168
0.948944 0.000000 0.765004
0.948432 0.000000 0.896358
0.947922 0.000000 1.000000
0.946735 0.119838 0.000000
0.946312 0.119415 0.092213
0.945782 0.118886 0.228126
0.945259 0.118362 0.362338
0.944740 0.117843 0.495510
0.944223 0.117327 0.627934
0.943709 0.116813 0.759769
0.943197 0.116301 0.891123
0.942687 0.115790 1.000000
0.941503 0.250615 0.000000
0.941080 0.250192 0.086981
0.940550 0.249662 0.222894
0.940027 0.249139 0.357106
0.939508 0.248620 0.490279
0.938991 0.248104 0.622702
0.938478 0.247590 0.754538
0.937965 0.247078 0.885891
0.937455 0.246567 1.000000
0.936329 0.379936 0.000000
0.935906 0.379513 0.081807
0.935376 0.378983 0.217721
0.934853 0.378460 0.351932
0.934334 0.377941 0.485105
0.933818 0.377424 0.617528
0.933304 0.376910 0.749364
0.932792 0.376398 0.880718
0.932281 0.375888 1.000000
0.931193 0.508325 0.000000
0.930770 0.507902 0.076671
0.930240 0.507372 0.212585
0.929717 0.506849 0.346796
0.929198 0.506330 0.479969
0.928682 0.505814 0.612392
0.928168 0.505300 0.744228
0.927656 0.504788 0.875581
0.927145 0.504277 1.000000
0.926084 0.636028 0.000000
0.925661 0.635606 0.071562
0.925131 0.635076 0.207476
0.924608 0.634552 0.341687
0.924089 0.634033 0.474860
0.923573 0.633517 0.607283
0.923059 0.633003 0.739119
0.922547 0.632491 0.870472
0.922036 0.631981 1.000000
0.920997 0.763188 0.000000
0.920574 0.762765 0.066475
0.920044 0.762236 0.202389
0.919521 0.761712 0.336600
0.919002 0.761193 0.469773
0.918486 0.760677 0.602196
0.917972 0.760163 0.734032
0.917460 0.759651 0.865385
0.916949 0.759140 0.996330
0.915928 0.889898 0.000000
0.915505 0.889476 0.061406
0.914975 0.888946 0.197319
0.914452 0.888422 0.331531
0.913933 0.887903 0.464704
0.913416 0.887387 0.597127
0.912902 0.886873 0.728963
0.912390 0.886361 0.860316
0.911880 0.885851 0.991261
0.911316 1.000000 0.000000
0.910893 1.000000 0.056794
0.910363 1.000000 0.192708
0.909840 1.000000 0.326919
0.909321 1.000000 0.460092
0.908805 1.000000 0.592515
0.908291 1.000000 0.724351
0.907779 1.000000 0.855704
0.907268 1.000000 0.986649
1.000000 0.000000 0.000000
1.000000 0.000000 0.096374
1.000000 0.000000 0.232288
1.000000 0.000000 0.366499
1.000000 0.000000 0.499672
1.000000 0.000000 0.632095
1.000000 0.000000 0.763931
1.000000 0.000000 0.895285
1.000000 0.000000 1.000000
1.000000 0.118765 0.000000
1.000000 0.118342 0.091139
1.000000 0.117812 0.227053
1.000000 0.117289 0.361264
1.000000 0.116770 0.494437
1.000000 0.116254 0.626860
1.000000 0.115740 0.758696
1.000000 0.115228 0.890050
1.000000 0.114717 1.000000
1.000000 0.249542 0.000000
1.000000 0.249119 0.085907
1.000000 0.248589 0.221821
1.000000 0.248066 0.356032
1.000000 0.247547 0.489205
1.000000 0.247031 0.621628
1.000000 0.246517 0.753464
1.000000 0.246005 0.884818
1.000000 0.245494 1.000000
1.000000 0.378862 0.000000
1.000000 0.378440 0.080734
1.000000 0.377910 0.216648
1.000000 0.377387 0.350859
1.000000 0.376867 0.484032
1.000000 0.376351 0.616455
1.000000 0.375837 0.748291
1.000000 0.375325 0.879644
1.000000 0.374815 1.000000
1.000000 0.507252 0.000000
1.000000 0.506829 0.075598
1.000000 0.506299 0.211511
1.000000 0.505776 0.345722
1.000000 0.505257 0.478895
1.000000 0.504741 0.611318
1.000000 0.504227 0.743154
1.000000 0.503715 0.874508
1.000000 0.503204 1.000000
1.000000 0.634955 0.000000
1.000000 0.634532 0.070489
1.000000 0.634002 0.206402
1.000000 0.633479 0.340614
1.000000 0.632960 0.473787
1.000000 0.632444 0.606210
1.000000 0.631930 0.738046
1.000000 0.631418 0.869399
1.000000 0.630907 1.000000
1.000000 0.762115 0.000000
1.000000 0.761692 0.065402
1.000000 0.761162 0.201315
1.000000 0.760639 0.335526
1.000000 0.760120 0.468699
1.000000 0.759604 0.601122
1.000000 0.759090 0.732958
1.000000 0.758578 0.864312
1.000000 0.758067 0.995256
1.000000 0.888825 0.000000
1.000000 0.888402 0.060332
1.000000 0.887872 0.196246
1.000000 0.887349 0.330457
1.000000 0.886830 0.463630
1.000000 0.886314 0.596053
1.000000 0.885800 0.727889
1.000000 0.885288 0.859243
1.000000 0.884777 0.990187
1.000000 1.000000 0.000000
1.000000 1.000000 0.055721
1.000000 1.000000 0.191634
1.000000 1.000000 0.325846
1.000000 1.000000 0.459018
1.000000 1.000000 0.591442
1.000000 1.000000 0.723277
1.000000 1.000000 0.854631
1.000000 1.000000 0.985576
