skills/creativeops-director/assets/grade/luts/ad_warm_v08.cube
TITLE "ad_warm_v08"
LUT_3D_SIZE 17
DOMAIN_MIN 0.0 0.0 0.0
DOMAIN_MAX 1.0 1.0 1.0
0.024322 0.000000 0.000000
0.024169 0.000000 0.038916
0.023899 0.000000 0.108177
0.023633 0.000000 0.176423
0.023369 0.000000 0.244091
0.023107 0.000000 0.311353
0.022846 0.000000 0.378302
0.022586 0.000000 0.444996
0.022327 0.000000 0.511475
0.022068 0.000000 0.577768
0.021811 0.000000 0.643898
0.021553 0.000000 0.709882
0.021297 0.000000 0.775734
0.021040 0.000000 0.841466
0.020785 0.000000 0.907088
0.020529 0.000000 0.972607
0.020274 0.000000 1.000000
0.021743 0.064190 0.000000
0.021590 0.064037 0.036337
0.021320 0.063767 0.105598
0.021054 0.063501 0.173844
0.020790 0.063237 0.241512
0.020528 0.062975 0.308774
0.020267 0.062714 0.375723
0.020007 0.062454 0.442417
0.019748 0.062195 0.508896
0.019489 0.061936 0.575189
0.019231 0.061679 0.641319
0.018974 0.061421 0.707303
0.018717 0.061165 0.773155
0.018461 0.060908 0.838887
0.018205 0.060653 0.904509
0.017950 0.060397 0.970028
0.017695 0.060142 1.000000
0.019087 0.130568 0.000000
0.018934 0.130415 0.033681
0.018664 0.130145 0.102943
0.018398 0.129879 0.171188
0.018134 0.129616 0.238856
0.017872 0.129353 0.306119
0.017611 0.129092 0.373068
0.017351 0.128832 0.439762
0.017092 0.128573 0.506240
0.016834 0.128315 0.572534
0.016576 0.128057 0.638664
0.016319 0.127800 0.704647
0.016062 0.127543 0.770499
0.015806 0.127287 0.836231
0.015550 0.127031 0.901853
0.015294 0.126775 0.967373
0.015039 0.126520 1.000000
0.016462 0.196195 0.000000
0.016309 0.196043 0.031056
0.016039 0.195772 0.100317
0.015773 0.195506 0.168563
0.015509 0.195243 0.236231
0.015247 0.194980 0.303493
0.014986 0.194719 0.370442
0.014726 0.194459 0.437136
0.014467 0.194200 0.503615
0.014208 0.193942 0.569908
0.013950 0.193684 0.636038
0.013693 0.193427 0.702022
0.013436 0.193170 0.767874
0.013180 0.192914 0.833606
0.012924 0.192658 0.899228
0.012669 0.192403 0.964747
0.012414 0.192148 1.000000
0.013855 0.261345 0.000000
0.013702 0.261192 0.028449
0.013432 0.260922 0.097711
0.013166 0.260656 0.165956
0.012903 0.260392 0.233624
0.012640 0.260130 0.300887
0.012379 0.259869 0.367836
0.012119 0.259609 0.434530
0.011860 0.259350 0.501009
0.011602 0.259092 0.567302
0.011344 0.258834 0.633432
0.011087 0.258577 0.699416
0.010830 0.258320 0.765268
0.010574 0.258064 0.831000
0.010318 0.257808 0.896621
0.010063 0.257552 0.962141
0.009807 0.257297 1.000000
0.011263 0.326144 0.000000
0.011110 0.325991 0.025857
0.010840 0.325721 0.095118
0.010574 0.325455 0.163364
0.010310 0.325191 0.231032
0.010048 0.324929 0.298294
0.009787 0.324668 0.365243
0.009527 0.324408 0.431937
0.009268 0.324149 0.498416
0.009009 0.323891 0.564710
0.008752 0.323633 0.630839
0.008494 0.323376 0.696823
0.008238 0.323119 0.762675
0.007981 0.322863 0.828407
0.007726 0.322607 0.894029
0.007470 0.322351 0.959549
0.007215 0.322096 1.000000
0.008682 0.390666 0.000000
0.008529 0.390513 0.023276
0.008259 0.390243 0.092537
0.007993 0.389977 0.160783
0.007729 0.389713 0.228451
0.007467 0.389451 0.295713
0.007206 0.389190 0.362662
0.006946 0.388930 0.429356
0.006687 0.388671 0.495835
0.006428 0.388412 0.562128
0.006170 0.388154 0.628258
0.005913 0.387897 0.694242
0.005656 0.387641 0.760094
0.005400 0.387384 0.825826
0.005144 0.387128 0.891448
0.004889 0.386873 0.956967
0.004634 0.386618 1.000000
0.006110 0.454958 0.000000
0.005957 0.454805 0.020704
0.005687 0.454535 0.089965
0.005421 0.454269 0.158211
0.005157 0.454005 0.225879
0.004895 0.453743 0.293141
0.004634 0.453482 0.360090
0.004374 0.453222 0.426784
0.004115 0.452963 0.493263
0.003856 0.452705 0.559556
0.003598 0.452447 0.625686
0.003341 0.452190 0.691670
0.003084 0.451933 0.757522
0.002828 0.451677 0.823254
0.002572 0.451421 0.888876
0.002317 0.451165 0.954395
0.002062 0.450910 1.000000
0.003545 0.519055 0.000000
0.003393 0.518902 0.018139
0.003123 0.518632 0.087401
0.002856 0.518366 0.155646
0.002593 0.518103 0.223315
0.002330 0.517840 0.290577
0.002069 0.517579 0.357526
0.001809 0.517319 0.424220
0.001550 0.517060 0.490699
0.001292 0.516802 0.556992
0.001034 0.516544 0.623122
0.000777 0.516287 0.689106
0.000520 0.516030 0.754958
0.000264 0.515774 0.820690
0.000008 0.515518 0.886311
0.000000 0.515262 0.951831
0.000000 0.515007 1.000000
0.000988 0.582982 0.000000
0.000835 0.582829 0.015582
0.000565 0.582559 0.084843
0.000299 0.582293 0.153089
0.000035 0.582029 0.220757
0.000000 0.581767 0.288019
0.000000 0.581506 0.354968
0.000000 0.581246 0.421662
0.000000 0.580987 0.488141
0.000000 0.580729 0.554435
0.000000 0.580471 0.620564
0.000000 0.580214 0.686548
0.000000 0.579957 0.752400
0.000000 0.579701 0.818132
0.000000 0.579445 0.883754
0.000000 0.579189 0.949274
0.000000 0.578934 1.000000
0.000000 0.646758 0.000000
0.000000 0.646606 0.013030
0.000000 0.646336 0.082292
0.000000 0.646070 0.150537
0.000000 0.645806 0.218206
0.000000 0.645543 0.285468
0.000000 0.645283 0.352417
0.000000 0.645023 0.419111
0.000000 0.644763 0.485590
0.000000 0.644505 0.551883
0.000000 0.644247 0.618013
0.000000 0.643990 0.683997
0.000000 0.643733 0.749849
0.000000 0.643477 0.815581
0.000000 0.643221 0.881202
0.000000 0.642966 0.946722
0.000000 0.642711 1.000000
0.000000 0.710400 0.000000
0.000000 0.710247 0.010484
0.000000 0.709977 0.079746
0.000000 0.709711 0.147991
0.000000 0.709447 0.215660
0.000000 0.709185 0.282922
0.000000 0.708924 0.349871
0.000000 0.708664 0.416565
0.000000 0.708405 0.483044
0.000000 0.708146 0.549337
0.000000 0.707888 0.615467
0.000000 0.707631 0.681451
0.000000 0.707374 0.747303
0.000000 0.707118 0.813035
0.000000 0.706862 0.878656
0.000000 0.706607 0.944176
0.000000 0.706352 1.000000
0.000000 0.773918 0.000000
0.000000 0.773765 0.007943
0.000000 0.773495 0.077205
0.000000 0.773229 0.145450
0.000000 0.772966 0.213119
0.000000 0.772703 0.280381
0.000000 0.772442 0.347330
0.000000 0.772182 0.414024
0.000000 0.771923 0.480503
0.000000 0.771665 0.546796
0.000000 0.771407 0.612926
0.000000 0.771150 0.678910
0.000000 0.770893 0.744762
0.000000 0.770637 0.810494
0.000000 0.770381 0.876115
0.000000 0.770125 0.941635
0.000000 0.769870 1.000000
0.000000 0.837325 0.000000
0.000000 0.837172 0.005407
0.000000 0.836902 0.074668
0.000000 0.836636 0.142914
0.000000 0.836372 0.210582
0.000000 0.836110 0.277844
0.000000 0.835849 0.344793
0.000000 0.835589 0.411487
0.000000 0.835330 0.477966
0.000000 0.835071 0.544259
0.000000 0.834814 0.610389
0.000000 0.834556 0.676373
0.000000 0.834300 0.742225
0.000000 0.834043 0.807957
0.000000 0.833788 0.873579
0.000000 0.833532 0.939098
0.000000 0.833277 1.000000
0.000000 0.900628 0.000000
0.000000 0.900476 0.002874
0.000000 0.900206 0.072136
0.000000 0.899940 0.140381
0.000000 0.899676 0.208049
0.000000 0.899413 0.275312
0.000000 0.899152 0.342261
0.000000 0.898892 0.408955
0.000000 0.898633 0.475434
0.000000 0.898375 0.541727
0.000000 0.898117 0.607857
0.000000 0.897860 0.673840
0.000000 0.897603 0.739693
0.000000 0.897347 0.805425
0.000000 0.897091 0.871046
0.000000 0.896836 0.936566
0.000000 0.896581 1.000000
0.000000 0.963836 0.000000
0.000000 0.963683 0.000345
0.000000 0.963413 0.069607
0.000000 0.963147 0.137853
0.000000 0.962884 0.205521
0.000000 0.962621 0.272783
0.000000 0.962360 0.339732
0.000000 0.962100 0.406426
0.000000 0.961841 0.472905
0.000000 0.961583 0.539198
0.000000 0.961325 0.605328
0.000000 0.961068 0.671312
0.000000 0.960811 0.737164
0.000000 0.960555 0.802896
0.000000 0.960299 0.868517
0.000000 0.960044 0.934037
0.000000 0.959789 0.999462
0.000000 1.000000 0.000000
0.000000 1.000000 0.000000
0.000000 1.000000 0.067524
0.000000 1.000000 0.135769
0.000000 1.000000 0.203438
0.000000 1.000000 0.270700
0.000000 1.000000 0.337649
0.000000 1.000000 0.404343
0.000000 1.000000 0.470822
0.000000 1.000000 0.537115
0.000000 1.000000 0.603245
0.000000 1.000000 0.669229
0.000000 1.000000 0.735081
0.000000 1.000000 0.800813
0.000000 1.000000 0.866434
0.000000 1.000000 0.931954
0.000000 1.000000 0.997379
0.093419 0.000000 0.000000
0.093266 0.000000 0.038117
0.092996 0.000000 0.107378
0.092730 0.000000 0.175624
0.092466 0.000000 0.243292
0.092204 0.000000 0.310554
0.091943 0.000000 0.377503
0.091683 0.000000 0.444197
0.091424 0.000000 0.510676
0.091165 0.000000 0.576969
0.090908 0.000000 0.643099
0.090650 0.000000 0.709083
0.090394 0.000000 0.774935
0.090137 0.000000 0.840667
0.089882 0.000000 0.906289
0.089626 0.000000 0.971808
0.089371 0.000000 1.000000
0.090840 0.063391 0.000000
0.090687 0.063238 0.035537
0.090417 0.062968 0.104799
0.090151 0.062702 0.173044
0.089887 0.062438 0.240713
0.089625 0.062176 0.307975
0.089364 0.061915 0.374924
0.089104 0.061655 0.441618
0.088845 0.061396 0.508097
0.088586 0.061137 0.574390
0.088328 0.060879 0.640520
0.088071 0.060622 0.706504
0.087815 0.060365 0.772356
0.087558 0.060109 0.838088
0.087302 0.059853 0.903709
0.087047 0.059598 0.969229
0.086792 0.059343 1.000000
0.088184 0.129769 0.000000
0.088031 0.129616 0.032882
0.087761 0.129346 0.102143
0.087495 0.129080 0.170389
0.087232 0.128816 0.238057
0.086969 0.128554 0.305319
0.086708 0.128293 0.372268
0.086448 0.128033 0.438962
0.086189 0.127774 0.505441
0.085931 0.127515 0.571735
0.085673 0.127258 0.637864
0.085416 0.127000 0.703848
0.085159 0.126744 0.769700
0.084903 0.126487 0.835432
0.084647 0.126232 0.901054
0.084392 0.125976 0.966573
0.084136 0.125721 1.000000
0.085559 0.195396 0.000000
0.085406 0.195243 0.030256
0.085136 0.194973 0.099518
0.084870 0.194707 0.167763
0.084606 0.194443 0.235432
0.084344 0.194181 0.302694
0.084083 0.193920 0.369643
0.083823 0.193660 0.436337
0.083564 0.193401 0.502816
0.083305 0.193143 0.569109
0.083047 0.192885 0.635239
0.082790 0.192628 0.701223
0.082534 0.192371 0.767075
0.082277 0.192115 0.832807
0.082021 0.191859 0.898428
0.081766 0.191603 0.963948
0.081511 0.191348 1.000000
0.082952 0.260546 0.000000
0.082800 0.260393 0.027650
0.082530 0.260123 0.096911
0.082264 0.259857 0.165157
0.082000 0.259593 0.232825
0.081737 0.259331 0.300087
0.081477 0.259070 0.367036
0.081217 0.258810 0.433730
0.080957 0.258551 0.500209
0.080699 0.258292 0.566503
0.080441 0.258035 0.632632
0.080184 0.257777 0.698616
0.079927 0.257521 0.764468
0.079671 0.257264 0.830200
0.079415 0.257009 0.895822
0.079160 0.256753 0.961342
0.078905 0.256498 1.000000
0.080360 0.325345 0.000000
0.080207 0.325192 0.025058
0.079937 0.324922 0.094319
0.079671 0.324656 0.162565
0.079407 0.324392 0.230233
0.079145 0.324130 0.297495
0.078884 0.323869 0.364444
0.078624 0.323609 0.431138
0.078365 0.323350 0.497617
0.078107 0.323091 0.563910
0.077849 0.322834 0.630040
0.077592 0.322576 0.696024
0.077335 0.322320 0.761876
0.077079 0.322063 0.827608
0.076823 0.321808 0.893230
0.076567 0.321552 0.958749
0.076312 0.321297 1.000000
0.077779 0.389866 0.000000
0.077626 0.389714 0.022476
0.077356 0.389444 0.091738
0.077090 0.389178 0.159983
0.076826 0.388914 0.227652
0.076564 0.388652 0.294914
0.076303 0.388391 0.361863
0.076043 0.388131 0.428557
0.075784 0.387871 0.495036
0.075525 0.387613 0.561329
0.075268 0.387355 0.627459
0.075010 0.387098 0.693443
0.074754 0.386841 0.759295
0.074497 0.386585 0.825027
0.074242 0.386329 0.890648
0.073986 0.386074 0.956168
0.073731 0.385819 1.000000
0.075207 0.454159 0.000000
0.075054 0.454006 0.019904
0.074784 0.453736 0.089166
0.074518 0.453470 0.157411
0.074254 0.453206 0.225080
0.073992 0.452944 0.292342
0.073731 0.452683 0.359291
0.073471 0.452423 0.425985
0.073212 0.452164 0.492464
0.072953 0.451905 0.558757
0.072695 0.451648 0.624887
0.072438 0.451390 0.690871
0.072182 0.451134 0.756723
0.071925 0.450877 0.822455
0.071669 0.450622 0.888076
0.071414 0.450366 0.953596
0.071159 0.450111 1.000000
0.072642 0.518256 0.000000
0.072490 0.518103 0.017340
0.072220 0.517833 0.086602
0.071954 0.517567 0.154847
0.071690 0.517303 0.222515
0.071428 0.517041 0.289778
0.071167 0.516780 0.356727
0.070907 0.516520 0.423421
0.070647 0.516261 0.489900
0.070389 0.516002 0.556193
0.070131 0.515745 0.622323
0.069874 0.515487 0.688306
0.069617 0.515231 0.754158
0.069361 0.514974 0.819890
0.069105 0.514719 0.885512
0.068850 0.514463 0.951032
0.068595 0.514208 1.000000
0.070085 0.582183 0.000000
0.069932 0.582030 0.014783
0.069662 0.581760 0.084044
0.069396 0.581494 0.152290
0.069132 0.581230 0.219958
0.068870 0.580968 0.287220
0.068609 0.580707 0.354169
0.068349 0.580447 0.420863
0.068090 0.580188 0.487342
0.067832 0.579929 0.553635
0.067574 0.579672 0.619765
0.067317 0.579414 0.685749
0.067060 0.579158 0.751601
0.066804 0.578901 0.817333
0.066548 0.578646 0.882955
0.066292 0.578390 0.948474
0.066037 0.578135 1.000000
0.067534 0.645959 0.000000
0.067381 0.645806 0.012231
0.067111 0.645536 0.081493
0.066845 0.645270 0.149738
0.066581 0.645006 0.217406
0.066319 0.644744 0.284669
0.066058 0.644483 0.351618
0.065798 0.644223 0.418312
0.065539 0.643964 0.484791
0.065280 0.643706 0.551084
0.065022 0.643448 0.617214
0.064765 0.643191 0.683198
0.064508 0.642934 0.749050
0.064252 0.642678 0.814782
0.063996 0.642422 0.880403
0.063741 0.642166 0.945923
0.063486 0.641911 1.000000
0.064988 0.709600 0.000000
0.064835 0.709447 0.009685
0.064565 0.709177 0.078947
0.064299 0.708911 0.147192
0.064035 0.708648 0.214860
0.063773 0.708385 0.282123
0.063512 0.708124 0.349072
0.063252 0.707864 0.415766
0.062993 0.707605 0.482245
0.062734 0.707347 0.548538
0.062476 0.707089 0.614668
0.062219 0.706832 0.680652
0.061962 0.706575 0.746504
0.061706 0.706319 0.812236
0.061450 0.706063 0.877857
0.061195 0.705808 0.943377
0.060940 0.705553 1.000000
0.062446 0.773119 0.000000
0.062294 0.772966 0.007144
0.062024 0.772696 0.076406
0.061758 0.772430 0.144651
0.061494 0.772166 0.212319
0.061232 0.771904 0.279582
0.060971 0.771643 0.346531
0.060711 0.771383 0.413225
0.060451 0.771124 0.479704
0.060193 0.770865 0.545997
0.059935 0.770608 0.612127
0.059678 0.770350 0.678110
0.059421 0.770094 0.743962
0.059165 0.769837 0.809694
0.058909 0.769582 0.875316
0.058654 0.769326 0.940836
0.058399 0.769071 1.000000
0.059910 0.836526 0.000000
0.059757 0.836373 0.004607
0.059487 0.836103 0.073869
0.059221 0.835837 0.142114
0.058957 0.835573 0.209783
0.058695 0.835311 0.277045
0.058434 0.835050 0.343994
0.058174 0.834790 0.410688
0.057915 0.834531 0.477167
0.057656 0.834272 0.543460
0.057399 0.834014 0.609590
0.057141 0.833757 0.675574
0.056885 0.833500 0.741426
0.056628 0.833244 0.807158
0.056373 0.832988 0.872779
0.056117 0.832733 0.938299
0.055862 0.832478 1.000000
0.057377 0.899829 0.000000
0.057225 0.899676 0.002075
0.056955 0.899406 0.071336
0.056688 0.899140 0.139582
0.056425 0.898876 0.207250
0.056162 0.898614 0.274512
0.055901 0.898353 0.341461
0.055641 0.898093 0.408155
0.055382 0.897834 0.474634
0.055124 0.897576 0.540928
0.054866 0.897318 0.607057
0.054609 0.897061 0.673041
0.054352 0.896804 0.738893
0.054096 0.896548 0.804625
0.053840 0.896292 0.870247
0.053585 0.896036 0.935767
0.053330 0.895781 1.000000
0.054849 0.963037 0.000000
0.054696 0.962884 0.000000
0.054426 0.962614 0.068808
0.054160 0.962348 0.137053
0.053896 0.962084 0.204721
0.053634 0.961822 0.271984
0.053373 0.961561 0.338933
0.053113 0.961301 0.405627
0.052854 0.961042 0.472106
0.052595 0.960784 0.538399
0.052337 0.960526 0.604529
0.052080 0.960269 0.670513
0.051823 0.960012 0.736365
0.051567 0.959756 0.802097
0.051311 0.959500 0.867718
0.051056 0.959244 0.933238
0.050801 0.958989 0.998663
0.052765 1.000000 0.000000
0.052613 1.000000 0.000000
0.052343 1.000000 0.066725
0.052077 1.000000 0.134970
0.051813 1.000000 0.202638
0.051551 1.000000 0.269901
0.051290 1.000000 0.336850
0.051030 1.000000 0.403544
0.050770 1.000000 0.470023
0.050512 1.000000 0.536316
0.050254 1.000000 0.602446
0.049997 1.000000 0.668429
0.049740 1.000000 0.734281
0.049484 1.000000 0.800013
0.049228 1.000000 0.865635
0.048973 1.000000 0.931155
0.048718 1.000000 0.996580
0.161304 0.000000 0.000000
0.161151 0.000000 0.037331
0.160881 0.000000 0.106593
0.160615 0.000000 0.174838
0.160351 0.000000 0.242507
0.160089 0.000000 0.309769
0.159828 0.000000 0.376718
0.159568 0.000000 0.443412
0.159309 0.000000 0.509891
0.159051 0.000000 0.576184
0.158793 0.000000 0.642314
0.158536 0.000000 0.708298
0.158279 0.000000 0.774150
0.158023 0.000000 0.839882
0.157767 0.000000 0.905503
0.157511 0.000000 0.971023
0.157256 0.000000 1.000000
0.158725 0.062605 0.000000
0.158572 0.062453 0.034752
0.158302 0.062183 0.104014
0.158036 0.061917 0.172259
0.157772 0.061653 0.239927
0.157510 0.061391 0.307190
0.157249 0.061130 0.374139
0.156989 0.060870 0.440833
0.156730 0.060610 0.507312
0.156471 0.060352 0.573605
0.156214 0.060094 0.639735
0.155956 0.059837 0.705718
0.155700 0.059580 0.771571
0.155443 0.059324 0.837302
0.155188 0.059068 0.902924
0.154932 0.058813 0.968444
0.154677 0.058558 1.000000
0.156069 0.128984 0.000000
0.155916 0.128831 0.032097
0.155646 0.128561 0.101358
0.155380 0.128295 0.169604
0.155117 0.128031 0.237272
0.154854 0.127769 0.304534
0.154593 0.127508 0.371483
0.154333 0.127248 0.438177
0.154074 0.126989 0.504656
0.153816 0.126730 0.570949
0.153558 0.126472 0.637079
0.153301 0.126215 0.703063
0.153044 0.125959 0.768915
0.152788 0.125702 0.834647
0.152532 0.125446 0.900269
0.152277 0.125191 0.965788
0.152022 0.124936 1.000000
0.153444 0.194611 0.000000
0.153291 0.194458 0.029471
0.153021 0.194188 0.098733
0.152755 0.193922 0.166978
0.152491 0.193658 0.234646
0.152229 0.193396 0.301909
0.151968 0.193135 0.368858
0.151708 0.192875 0.435552
0.151449 0.192616 0.502031
0.151190 0.192357 0.568324
0.150933 0.192100 0.634454
0.150675 0.191842 0.700437
0.150419 0.191586 0.766290
0.150162 0.191329 0.832021
0.149907 0.191074 0.897643
0.149651 0.190818 0.963163
0.149396 0.190563 1.000000
0.150837 0.259761 0.000000
0.150685 0.259608 0.026865
0.150415 0.259338 0.096126
0.150149 0.259072 0.164372
0.149885 0.258808 0.232040
0.149623 0.258546 0.299302
0.149362 0.258285 0.366251
0.149102 0.258025 0.432945
0.148842 0.257766 0.499424
0.148584 0.257507 0.565717
0.148326 0.257249 0.631847
0.148069 0.256992 0.697831
0.147812 0.256735 0.763683
0.147556 0.256479 0.829415
0.147300 0.256223 0.895037
0.147045 0.255968 0.960556
0.146790 0.255713 1.000000
0.148245 0.324560 0.000000
0.148092 0.324407 0.024272
0.147822 0.324137 0.093534
0.147556 0.323871 0.161779
0.147292 0.323607 0.229448
0.147030 0.323345 0.296710
0.146769 0.323084 0.363659
0.146509 0.322824 0.430353
0.146250 0.322565 0.496832
0.145992 0.322306 0.563125
0.145734 0.322048 0.629255
0.145477 0.321791 0.695239
0.145220 0.321534 0.761091
0.144964 0.321278 0.826823
0.144708 0.321022 0.892444
0.144452 0.320767 0.957964
0.144197 0.320512 1.000000
0.145664 0.389081 0.000000
0.145511 0.388928 0.021691
0.145241 0.388658 0.090953
0.144975 0.388392 0.159198
0.144711 0.388129 0.226866
0.144449 0.387866 0.294129
0.144188 0.387605 0.361078
0.143928 0.387345 0.427772
0.143669 0.387086 0.494251
0.143410 0.386828 0.560544
0.143153 0.386570 0.626674
0.142895 0.386313 0.692658
0.142639 0.386056 0.758510
0.142382 0.385800 0.824242
0.142127 0.385544 0.889863
0.141871 0.385289 0.955383
0.141616 0.385034 1.000000
0.143092 0.453374 0.000000
0.142939 0.453221 0.019119
0.142669 0.452951 0.088381
0.142403 0.452685 0.156626
0.142139 0.452421 0.224294
0.141877 0.452159 0.291557
0.141616 0.451898 0.358506
0.141356 0.451638 0.425200
0.141097 0.451379 0.491679
0.140838 0.451120 0.557972
0.140581 0.450862 0.624102
0.140323 0.450605 0.690085
0.140067 0.450348 0.755938
0.139810 0.450092 0.821669
0.139554 0.449836 0.887291
0.139299 0.449581 0.952811
0.139044 0.449326 1.000000
0.140528 0.517471 0.000000
0.140375 0.517318 0.016555
0.140105 0.517048 0.085816
0.139839 0.516782 0.154062
0.139575 0.516518 0.221730
0.139313 0.516256 0.288992
0.139052 0.515995 0.355941
0.138792 0.515735 0.422635
0.138533 0.515476 0.489114
0.138274 0.515217 0.555408
0.138016 0.514959 0.621537
0.137759 0.514702 0.687521
0.137502 0.514445 0.753373
0.137246 0.514189 0.819105
0.136990 0.513933 0.884727
0.136735 0.513678 0.950247
0.136480 0.513423 1.000000
0.137970 0.581398 0.000000
0.137817 0.581245 0.013997
0.137547 0.580975 0.083259
0.137281 0.580709 0.151504
0.137017 0.580445 0.219173
0.136755 0.580183 0.286435
0.136494 0.579922 0.353384
0.136234 0.579662 0.420078
0.135975 0.579403 0.486557
0.135717 0.579144 0.552850
0.135459 0.578886 0.618980
0.135202 0.578629 0.684964
0.134945 0.578372 0.750816
0.134689 0.578116 0.816548
0.134433 0.577860 0.882169
0.134177 0.577605 0.947689
0.133922 0.577350 1.000000
0.135419 0.645174 0.000000
0.135266 0.645021 0.011446
0.134996 0.644751 0.080707
0.134730 0.644485 0.148953
0.134466 0.644221 0.216621
0.134204 0.643959 0.283883
0.133943 0.643698 0.350832
0.133683 0.643438 0.417526
0.133424 0.643179 0.484005
0.133165 0.642920 0.550299
0.132907 0.642663 0.616428
0.132650 0.642405 0.682412
0.132393 0.642149 0.748264
0.132137 0.641892 0.813996
0.131881 0.641637 0.879618
0.131626 0.641381 0.945138
0.131371 0.641126 1.000000
0.132873 0.708815 0.000000
0.132720 0.708662 0.008900
0.132450 0.708392 0.078161
0.132184 0.708126 0.146407
0.131920 0.707862 0.214075
0.131658 0.707600 0.281337
0.131397 0.707339 0.348286
0.131137 0.707079 0.414980
0.130878 0.706820 0.481459
0.130619 0.706562 0.547753
0.130361 0.706304 0.613882
0.130104 0.706047 0.679866
0.129847 0.705790 0.745718
0.129591 0.705534 0.811450
0.129335 0.705278 0.877072
0.129080 0.705022 0.942592
0.128825 0.704767 1.000000
0.130332 0.772334 0.000000
0.130179 0.772181 0.006359
0.129909 0.771911 0.075620
0.129643 0.771645 0.143866
0.129379 0.771381 0.211534
0.129117 0.771119 0.278796
0.128856 0.770858 0.345745
0.128596 0.770598 0.412439
0.128336 0.770339 0.478918
0.128078 0.770080 0.545212
0.127820 0.769822 0.611341
0.127563 0.769565 0.677325
0.127306 0.769309 0.743177
0.127050 0.769052 0.808909
0.126794 0.768796 0.874531
0.126539 0.768541 0.940051
0.126284 0.768286 1.000000
0.127795 0.835740 0.000000
0.127642 0.835588 0.003822
0.127372 0.835318 0.073084
0.127106 0.835052 0.141329
0.126842 0.834788 0.208997
0.126580 0.834526 0.276260
0.126319 0.834265 0.343209
0.126059 0.834005 0.409903
0.125800 0.833745 0.476382
0.125541 0.833487 0.542675
0.125284 0.833229 0.608805
0.125026 0.832972 0.674789
0.124770 0.832715 0.740641
0.124513 0.832459 0.806373
0.124258 0.832203 0.871994
0.124002 0.831948 0.937514
0.123747 0.831693 1.000000
0.125262 0.899044 0.000000
0.125110 0.898891 0.001290
0.124840 0.898621 0.070551
0.124574 0.898355 0.138797
0.124310 0.898091 0.206465
0.124048 0.897829 0.273727
0.123787 0.897568 0.340676
0.123527 0.897308 0.407370
0.123267 0.897049 0.473849
0.123009 0.896790 0.540142
0.122751 0.896533 0.606272
0.122494 0.896275 0.672256
0.122237 0.896019 0.738108
0.121981 0.895762 0.803840
0.121725 0.895507 0.869462
0.121470 0.895251 0.934981
0.121215 0.894996 1.000000
0.122734 0.962252 0.000000
0.122581 0.962099 0.000000
0.122311 0.961829 0.068023
0.122045 0.961563 0.136268
0.121781 0.961299 0.203936
0.121519 0.961037 0.271199
0.121258 0.960776 0.338147
0.120998 0.960516 0.404841
0.120739 0.960257 0.471320
0.120480 0.959998 0.537614
0.120222 0.959741 0.603743
0.119965 0.959483 0.669727
0.119708 0.959227 0.735579
0.119452 0.958970 0.801311
0.119196 0.958715 0.866933
0.118941 0.958459 0.932453
0.118686 0.958204 0.997878
0.120651 1.000000 0.000000
0.120498 1.000000 0.000000
0.120228 1.000000 0.065939
0.119962 1.000000 0.134185
0.119698 1.000000 0.201853
0.119436 1.000000 0.269115
0.119175 1.000000 0.336064
0.118915 1.000000 0.402758
0.118656 1.000000 0.469237
0.118397 1.000000 0.535531
0.118139 1.000000 0.601660
0.117882 1.000000 0.667644
0.117625 1.000000 0.733496
0.117369 1.000000 0.799228
0.117113 1.000000 0.864850
0.116858 1.000000 0.930370
0.116603 1.000000 0.995794
0.228561 0.000000 0.000000
0.228408 0.000000 0.036553
0.228138 0.000000 0.105815
0.227872 0.000000 0.174060
0.227608 0.000000 0.241729
0.227346 0.000000 0.308991
0.227085 0.000000 0.375940
0.226825 0.000000 0.442634
0.226565 0.000000 0.509113
0.226307 0.000000 0.575406
0.226049 0.000000 0.641536
0.225792 0.000000 0.707520
0.225535 0.000000 0.773372
0.225279 0.000000 0.839104
0.225023 0.000000 0.904725
0.224768 0.000000 0.970245
0.224513 0.000000 1.000000
0.225981 0.061828 0.000000
