skills/creativeops-director/assets/grade/luts/cool_tech_v14.cube
TITLE "cool_tech_v14"
LUT_3D_SIZE 9
DOMAIN_MIN 0.0 0.0 0.0
DOMAIN_MAX 1.0 1.0 1.0
0.000124 0.000124 0.026620
0.000662 0.000662 0.141741
0.001216 0.001216 0.260148
0.001777 0.001777 0.380233
0.002343 0.002343 0.501472
0.002914 0.002914 0.623593
0.003488 0.003488 0.746431
0.004065 0.004065 0.869874
0.004408 0.004408 0.943355
0.004775 0.104779 0.031270
0.005313 0.105316 0.146391
0.005866 0.105870 0.264799
0.006427 0.106431 0.384884
0.006994 0.106997 0.506122
0.007564 0.107568 0.628243
0.008138 0.108142 0.751082
0.008715 0.108719 0.874525
0.009059 0.109062 0.948006
0.010217 0.227233 0.036712
0.010754 0.227771 0.151833
0.011308 0.228325 0.270240
0.011869 0.228886 0.390325
0.012435 0.229452 0.511564
0.013006 0.230023 0.633685
0.013580 0.230597 0.756523
0.014157 0.231174 0.879966
0.014500 0.231517 0.953448
0.015751 0.351784 0.042247
0.016289 0.352322 0.157368
0.016842 0.352875 0.275775
0.017404 0.353436 0.395860
0.017970 0.354003 0.517098
0.018541 0.354573 0.639220
0.019115 0.355147 0.762058
0.019692 0.355724 0.885501
0.020035 0.356067 0.958982
0.021346 0.477683 0.047841
0.021884 0.478221 0.162962
0.022437 0.478774 0.281369
0.022998 0.479335 0.401455
0.023565 0.479902 0.522693
0.024135 0.480473 0.644814
0.024709 0.481047 0.767653
0.025286 0.481623 0.891096
0.025630 0.481967 0.964577
0.026985 0.604585 0.053480
0.027523 0.605123 0.168602
0.028076 0.605676 0.287009
0.028637 0.606237 0.407094
0.029204 0.606804 0.528332
0.029775 0.607374 0.650454
0.030349 0.607948 0.773292
0.030925 0.608525 0.896735
0.031269 0.608869 0.970216
0.032660 0.732287 0.059155
0.033198 0.732824 0.174276
0.033751 0.733378 0.292683
0.034312 0.733939 0.412769
0.034879 0.734505 0.534007
0.035449 0.735076 0.656128
0.036023 0.735650 0.778967
0.036600 0.736227 0.902409
0.036943 0.736570 0.975891
0.038364 0.860655 0.064859
0.038902 0.861193 0.179981
0.039455 0.861746 0.298388
0.040017 0.862307 0.418473
0.040583 0.862873 0.539711
0.041154 0.863444 0.661833
0.041728 0.864018 0.784671
0.042304 0.864595 0.908114
0.042648 0.864938 0.981595
0.043789 0.982737 0.070284
0.044327 0.983275 0.185406
0.044880 0.983828 0.303813
0.045442 0.984389 0.423898
0.046008 0.984955 0.545136
0.046579 0.985526 0.667258
0.047153 0.986100 0.790096
0.047729 0.986677 0.913539
0.048073 0.987020 0.987020
0.060382 0.000946 0.027441
0.060920 0.001484 0.142563
0.061473 0.002037 0.260970
0.062035 0.002598 0.381055
0.062601 0.003165 0.502293
0.063172 0.003735 0.624414
0.063746 0.004309 0.747253
0.064323 0.004886 0.870696
0.064666 0.005230 0.944177
0.065033 0.105600 0.032092
0.065571 0.106138 0.147213
0.066124 0.106691 0.265620
0.066685 0.107253 0.385705
0.067252 0.107819 0.506944
0.067822 0.108390 0.629065
0.068396 0.108964 0.751903
0.068973 0.109540 0.875346
0.069316 0.109884 0.948828
0.070474 0.228055 0.037533
0.071012 0.228593 0.152655
0.071566 0.229146 0.271062
0.072127 0.229707 0.391147
0.072693 0.230274 0.512385
0.073264 0.230844 0.634507
0.073838 0.231418 0.757345
0.074415 0.231995 0.880788
0.074758 0.232339 0.954269
0.076009 0.352605 0.043068
0.076547 0.353143 0.158189
0.077100 0.353697 0.276596
0.077661 0.354258 0.396682
0.078228 0.354824 0.517920
0.078799 0.355395 0.640041
0.079373 0.355969 0.762880
0.079949 0.356546 0.886322
0.080293 0.356889 0.959804
0.081604 0.478505 0.048663
0.082142 0.479043 0.163784
0.082695 0.479596 0.282191
0.083256 0.480157 0.402276
0.083823 0.480724 0.523515
0.084393 0.481294 0.645636
0.084967 0.481868 0.768474
0.085544 0.482445 0.891917
0.085887 0.482788 0.965399
0.087243 0.605407 0.054302
0.087781 0.605944 0.169423
0.088334 0.606498 0.287830
0.088895 0.607059 0.407916
0.089462 0.607625 0.529154
0.090032 0.608196 0.651275
0.090606 0.608770 0.774114
0.091183 0.609347 0.897556
0.091527 0.609690 0.971038
0.092918 0.733108 0.059977
0.093456 0.733646 0.175098
0.094009 0.734199 0.293505
0.094570 0.734760 0.413590
0.095137 0.735327 0.534829
0.095707 0.735898 0.656950
0.096281 0.736472 0.779788
0.096858 0.737048 0.903231
0.097201 0.737392 0.976712
0.098622 0.861476 0.065681
0.099160 0.862014 0.180802
0.099713 0.862567 0.299209
0.100274 0.863129 0.419295
0.100841 0.863695 0.540533
0.101412 0.864266 0.662654
0.101986 0.864840 0.785493
0.102562 0.865417 0.908935
0.102906 0.865760 0.982417
0.104047 0.983558 0.071106
0.104585 0.984096 0.186227
0.105138 0.984649 0.304634
0.105699 0.985211 0.424720
0.106266 0.985777 0.545958
0.106837 0.986348 0.668079
0.107411 0.986922 0.790918
0.107987 0.987498 0.914360
0.108331 0.987842 0.987842
0.177889 0.002548 0.029044
0.178427 0.003086 0.144165
0.178981 0.003639 0.262572
0.179542 0.004201 0.382657
0.180108 0.004767 0.503895
0.180679 0.005338 0.626017
0.181253 0.005912 0.748855
0.181830 0.006489 0.872298
0.182173 0.006832 0.945779
0.182540 0.107202 0.033694
0.183078 0.107740 0.148815
0.183631 0.108294 0.267222
0.184192 0.108855 0.387308
0.184759 0.109421 0.508546
0.185329 0.109992 0.630667
0.185903 0.110566 0.753506
0.186480 0.111143 0.876948
0.186824 0.111486 0.950430
0.187982 0.229657 0.039136
0.188519 0.230195 0.154257
0.189073 0.230748 0.272664
0.189634 0.231310 0.392749
0.190200 0.231876 0.513988
0.190771 0.232447 0.636109
0.191345 0.233021 0.758947
0.191922 0.233597 0.882390
0.192265 0.233941 0.955871
0.193516 0.354208 0.044670
0.194054 0.354746 0.159792
0.194607 0.355299 0.278199
0.195169 0.355860 0.398284
0.195735 0.356426 0.519522
0.196306 0.356997 0.641644
0.196880 0.357571 0.764482
0.197457 0.358148 0.887925
0.197800 0.358491 0.961406
0.199111 0.480107 0.050265
0.199649 0.480645 0.165386
0.200202 0.481198 0.283793
0.200763 0.481759 0.403879
0.201330 0.482326 0.525117
0.201900 0.482896 0.647238
0.202474 0.483470 0.770077
0.203051 0.484047 0.893519
0.203395 0.484391 0.967001
0.204750 0.607009 0.055904
0.205288 0.607547 0.171025
0.205841 0.608100 0.289433
0.206402 0.608661 0.409518
0.206969 0.609228 0.530756
0.207540 0.609798 0.652877
0.208114 0.610372 0.775716
0.208690 0.610949 0.899159
0.209034 0.611292 0.972640
0.210425 0.734710 0.061579
0.210963 0.735248 0.176700
0.211516 0.735802 0.295107
0.212077 0.736363 0.415192
0.212644 0.736929 0.536431
0.213214 0.737500 0.658552
0.213788 0.738074 0.781391
0.214365 0.738651 0.904833
0.214708 0.738994 0.978315
0.216129 0.863079 0.067283
0.216667 0.863616 0.182405
0.217220 0.864170 0.300812
0.217782 0.864731 0.420897
0.218348 0.865297 0.542135
0.218919 0.865868 0.664257
0.219493 0.866442 0.787095
0.220069 0.867019 0.910538
0.220413 0.867362 0.984019
0.221554 0.985160 0.072708
0.222092 0.985698 0.187830
0.222645 0.986252 0.306237
0.223207 0.986813 0.426322
0.223773 0.987379 0.547560
0.224344 0.987950 0.669682
0.224918 0.988524 0.792520
0.225495 0.989101 0.915963
0.225838 0.989444 0.989444
0.297952 0.004185 0.030681
0.298490 0.004723 0.145802
0.299044 0.005277 0.264209
0.299605 0.005838 0.384294
0.300171 0.006404 0.505532
0.300742 0.006975 0.627654
0.301316 0.007549 0.750492
0.301893 0.008126 0.873935
0.302236 0.008469 0.947416
0.302603 0.108840 0.035331
0.303141 0.109377 0.150452
0.303694 0.109931 0.268859
0.304255 0.110492 0.388945
0.304822 0.111058 0.510183
0.305392 0.111629 0.632304
0.305966 0.112203 0.755143
0.306543 0.112780 0.878586
0.306887 0.113123 0.952067
0.308045 0.231294 0.040773
0.308583 0.231832 0.155894
0.309136 0.232386 0.274301
0.309697 0.232947 0.394386
0.310263 0.233513 0.515625
0.310834 0.234084 0.637746
0.311408 0.234658 0.760584
0.311985 0.235235 0.884027
0.312328 0.235578 0.957508
0.313579 0.355845 0.046307
0.314117 0.356383 0.161429
0.314670 0.356936 0.279836
0.315232 0.357497 0.399921
0.315798 0.358064 0.521159
0.316369 0.358634 0.643281
0.316943 0.359208 0.766119
0.317520 0.359785 0.889562
0.317863 0.360128 0.963043
0.319174 0.481744 0.051902
0.319712 0.482282 0.167023
0.320265 0.482835 0.285430
0.320826 0.483396 0.405516
0.321393 0.483963 0.526754
0.321963 0.484534 0.648875
0.322537 0.485108 0.771714
0.323114 0.485684 0.895156
0.323458 0.486028 0.968638
0.324813 0.608646 0.057541
0.325351 0.609184 0.172663
0.325904 0.609737 0.291070
0.326465 0.610298 0.411155
0.327032 0.610865 0.532393
0.327603 0.611435 0.654515
0.328177 0.612009 0.777353
0.328753 0.612586 0.900796
0.329097 0.612929 0.974277
0.330488 0.736347 0.063216
0.331026 0.736885 0.178337
0.331579 0.737439 0.296744
0.332140 0.738000 0.416830
0.332707 0.738566 0.538068
0.333277 0.739137 0.660189
0.333851 0.739711 0.783028
0.334428 0.740288 0.906470
0.334771 0.740631 0.979952
0.336192 0.864716 0.068920
0.336730 0.865254 0.184042
0.337283 0.865807 0.302449
0.337845 0.866368 0.422534
0.338411 0.866934 0.543772
0.338982 0.867505 0.665894
0.339556 0.868079 0.788732
0.340133 0.868656 0.912175
0.340476 0.868999 0.985656
0.341617 0.986798 0.074345
0.342155 0.987335 0.189467
0.342708 0.987889 0.307874
0.343270 0.988450 0.427959
0.343836 0.989016 0.549197
0.344407 0.989587 0.671319
0.344981 0.990161 0.794157
0.345558 0.990738 0.917600
0.345901 0.991081 0.991081
0.419508 0.005843 0.032338
0.420046 0.006381 0.147459
0.420599 0.006934 0.265866
0.421160 0.007495 0.385952
0.421726 0.008062 0.507190
0.422297 0.008632 0.629311
0.422871 0.009206 0.752150
0.423448 0.009783 0.875592
0.423791 0.010126 0.949074
0.424158 0.110497 0.036989
0.424696 0.111035 0.152110
0.425249 0.111588 0.270517
0.425811 0.112149 0.390602
0.426377 0.112716 0.511840
0.426948 0.113286 0.633962
0.427522 0.113860 0.756800
0.428098 0.114437 0.880243
0.428442 0.114781 0.953724
0.429600 0.232952 0.042430
0.430138 0.233490 0.157551
0.430691 0.234043 0.275959
0.431252 0.234604 0.396044
0.431819 0.235171 0.517282
0.432389 0.235741 0.639403
0.432963 0.236315 0.762242
0.433540 0.236892 0.885685
0.433883 0.237235 0.959166
0.435135 0.357502 0.047965
0.435672 0.358040 0.163086
0.436226 0.358593 0.281493
0.436787 0.359155 0.401578
0.437353 0.359721 0.522817
0.437924 0.360292 0.644938
0.438498 0.360866 0.767776
0.439075 0.361442 0.891219
0.439418 0.361786 0.964701
0.440729 0.483402 0.053560
0.441267 0.483939 0.168681
0.441820 0.484493 0.287088
0.442382 0.485054 0.407173
0.442948 0.485620 0.528411
0.443519 0.486191 0.650533
0.444093 0.486765 0.773371
0.444669 0.487342 0.896814
0.445013 0.487685 0.970295
0.446368 0.610303 0.059199
0.446906 0.610841 0.174320
0.447460 0.611394 0.292727
0.448021 0.611956 0.412812
0.448587 0.612522 0.534051
0.449158 0.613093 0.656172
0.449732 0.613667 0.779010
0.450309 0.614244 0.902453
0.450652 0.614587 0.975934
0.452043 0.738005 0.064874
0.452581 0.738543 0.179995
0.453134 0.739096 0.298402
0.453695 0.739657 0.418487
0.454262 0.740224 0.539725
0.454833 0.740794 0.661847
0.455407 0.741368 0.784685
0.455983 0.741945 0.908128
0.456327 0.742289 0.981609
0.457747 0.866373 0.070578
0.458285 0.866911 0.185699
0.458839 0.867464 0.304106
0.459400 0.868025 0.424191
0.459966 0.868592 0.545430
0.460537 0.869163 0.667551
0.461111 0.869736 0.790389
0.461688 0.870313 0.913832
0.462031 0.870657 0.987314
0.463173 0.988455 0.076003
0.463710 0.988993 0.191124
0.464264 0.989546 0.309531
0.464825 0.990107 0.429616
0.465391 0.990674 0.550855
0.465962 0.991244 0.672976
0.466536 0.991818 0.795814
0.467113 0.992395 0.919257
0.467456 0.992739 0.992739
0.542130 0.007515 0.034010
0.542668 0.008053 0.149131
0.543222 0.008606 0.267538
0.543783 0.009167 0.387624
0.544349 0.009734 0.508862
0.544920 0.010304 0.630983
0.545494 0.010878 0.753822
0.546071 0.011455 0.877264
0.546414 0.011798 0.950746
0.546781 0.112169 0.038661
0.547319 0.112707 0.153782
0.547872 0.113260 0.272189
0.548433 0.113821 0.392274
0.549000 0.114388 0.513512
0.549570 0.114958 0.635634
0.550144 0.115532 0.758472
0.550721 0.116109 0.881915
0.551065 0.116453 0.955396
0.552223 0.234624 0.044102
0.552760 0.235162 0.159223
0.553314 0.235715 0.277631
0.553875 0.236276 0.397716
0.554441 0.236843 0.518954
0.555012 0.237413 0.641075
0.555586 0.237987 0.763914
0.556163 0.238564 0.887357
0.556506 0.238907 0.960838
0.557757 0.359174 0.049637
0.558295 0.359712 0.164758
0.558848 0.360265 0.283165
0.559410 0.360826 0.403250
0.559976 0.361393 0.524489
0.560547 0.361964 0.646610
0.561121 0.362538 0.769448
0.561698 0.363114 0.892891
0.562041 0.363458 0.966373
0.563352 0.485074 0.055232
0.563890 0.485611 0.170353
0.564443 0.486165 0.288760
0.565004 0.486726 0.408845
0.565571 0.487292 0.530083
0.566141 0.487863 0.652205
0.566715 0.488437 0.775043
0.567292 0.489014 0.898486
0.567636 0.489357 0.971967
0.568991 0.611975 0.060871
0.569529 0.612513 0.175992
0.570082 0.613066 0.294399
0.570643 0.613628 0.414484
0.571210 0.614194 0.535723
0.571781 0.614765 0.657844
0.572355 0.615339 0.780682
0.572931 0.615916 0.904125
0.573275 0.616259 0.977606
0.574666 0.739677 0.066546
0.575204 0.740215 0.181667
0.575757 0.740768 0.300074
0.576318 0.741329 0.420159
0.576885 0.741896 0.541397
0.577455 0.742466 0.663519
0.578029 0.743040 0.786357
0.578606 0.743617 0.909800
0.578949 0.743961 0.983281
0.580370 0.868045 0.072250
0.580908 0.868583 0.187371
0.581461 0.869136 0.305778
0.582023 0.869697 0.425863
0.582589 0.870264 0.547102
0.583160 0.870835 0.669223
0.583734 0.871408 0.792061
0.584310 0.871985 0.915504
0.584654 0.872329 0.988986
0.585795 0.990127 0.077675
0.586333 0.990665 0.192796
0.586886 0.991218 0.311203
0.587448 0.991779 0.431288
0.588014 0.992346 0.552527
0.588585 0.992916 0.674648
0.589159 0.993490 0.797486
0.589736 0.994067 0.920929
0.590079 0.994411 0.994411
0.665587 0.009198 0.035693
0.666125 0.009736 0.150815
0.666679 0.010289 0.269222
0.667240 0.010850 0.389307
0.667806 0.011417 0.510545
0.668377 0.011988 0.632667
0.668951 0.012562 0.755505
0.669528 0.013138 0.878948
0.669871 0.013482 0.952429
0.670238 0.113852 0.040344
0.670776 0.114390 0.155465
0.671329 0.114944 0.273872
0.671890 0.115505 0.393957
0.672457 0.116071 0.515196
0.673027 0.116642 0.637317
0.673601 0.117216 0.760156
0.674178 0.117793 0.883598
0.674522 0.118136 0.957080
0.675680 0.236307 0.045786
0.676218 0.236845 0.160907
0.676771 0.237398 0.279314
0.677332 0.237959 0.399399
0.677898 0.238526 0.520637
0.678469 0.239097 0.642759
0.679043 0.239671 0.765597
0.679620 0.240247 0.889040
0.679963 0.240591 0.962521
0.681214 0.360858 0.051320
0.681752 0.361395 0.166442
0.682306 0.361949 0.284849
0.682867 0.362510 0.404934
0.683433 0.363076 0.526172
0.684004 0.363647 0.648293
0.684578 0.364221 0.771132
0.685155 0.364798 0.894575
0.685498 0.365141 0.968056
0.686809 0.486757 0.056915
0.687347 0.487295 0.172036
0.687900 0.487848 0.290443
0.688461 0.488409 0.410528
0.689028 0.488976 0.531767
0.689598 0.489546 0.653888
0.690172 0.490120 0.776727
0.690749 0.490697 0.900169
0.691093 0.491041 0.973651
0.692448 0.613659 0.062554
0.692986 0.614197 0.177675
0.693539 0.614750 0.296082
0.694101 0.615311 0.416168
0.694667 0.615877 0.537406
0.695238 0.616448 0.659527
0.695812 0.617022 0.782366
0.696388 0.617599 0.905808
0.696732 0.617942 0.979290
0.698123 0.741360 0.068229
0.698661 0.741898 0.183350
0.699214 0.742451 0.301757
0.699775 0.743013 0.421842
0.700342 0.743579 0.543081
0.700912 0.744150 0.665202
0.701486 0.744724 0.788040
0.702063 0.745301 0.911483
0.702407 0.745644 0.984965
0.703827 0.869728 0.073933
0.704365 0.870266 0.189054
0.704918 0.870820 0.307462
0.705480 0.871381 0.427547
0.706046 0.871947 0.548785
0.706617 0.872518 0.670906
0.707191 0.873092 0.793745
0.707768 0.873669 0.917188
0.708111 0.874012 0.990669
0.709252 0.991810 0.079358
0.709790 0.992348 0.194480
0.710344 0.992902 0.312887
0.710905 0.993463 0.432972
0.711471 0.994029 0.554210
0.712042 0.994600 0.676331
0.712616 0.995174 0.799170
0.713193 0.995751 0.922613
0.713536 0.996094 0.996094
0.789731 0.010891 0.037386
0.790268 0.011429 0.152507
0.790822 0.011982 0.270914
0.791383 0.012543 0.391000
0.791949 0.013110 0.512238
0.792520 0.013680 0.634359
0.793094 0.014254 0.757198
0.793671 0.014831 0.880640
0.794014 0.015174 0.954122
0.794381 0.115545 0.042037
0.794919 0.116083 0.157158
0.795472 0.116636 0.275565
0.796033 0.117197 0.395650
0.796600 0.117764 0.516889
0.797171 0.118335 0.639010
0.797745 0.118909 0.761848
0.798321 0.119485 0.885291
0.798665 0.119829 0.958772
0.799823 0.238000 0.047478
0.800361 0.238538 0.162600
0.800914 0.239091 0.281007
0.801475 0.239652 0.401092
0.802042 0.240219 0.522330
0.802612 0.240789 0.644451
0.803186 0.241363 0.767290
0.803763 0.241940 0.890733
0.804106 0.242283 0.964214
0.805357 0.362550 0.053013
0.805895 0.363088 0.168134
0.806449 0.363641 0.286541
0.807010 0.364203 0.406627
0.807576 0.364769 0.527865
0.808147 0.365340 0.649986
0.808721 0.365914 0.772825
0.809298 0.366491 0.896267
0.809641 0.366834 0.969749
0.810952 0.488450 0.058608
0.811490 0.488988 0.173729
0.812043 0.489541 0.292136
0.812604 0.490102 0.412221
0.813171 0.490668 0.533460
0.813742 0.491239 0.655581
0.814316 0.491813 0.778419
0.814892 0.492390 0.901862
0.815236 0.492733 0.975343
0.816591 0.615351 0.064247
0.817129 0.615889 0.179368
0.817682 0.616443 0.297775
0.818244 0.617004 0.417860
0.818810 0.617570 0.539099
0.819381 0.618141 0.661220
0.819955 0.618715 0.784058
0.820532 0.619292 0.907501
0.820875 0.619635 0.980983
0.822266 0.743053 0.069922
0.822804 0.743591 0.185043
0.823357 0.744144 0.303450
0.823918 0.744705 0.423535
0.824485 0.745272 0.544773
0.825055 0.745842 0.666895
0.825629 0.746416 0.789733
0.826206 0.746993 0.913176
0.826550 0.747337 0.986657
0.827970 0.871421 0.075626
0.828508 0.871959 0.190747
0.829062 0.872512 0.309154
0.829623 0.873073 0.429239
0.830189 0.873640 0.550478
0.830760 0.874211 0.672599
0.831334 0.874785 0.795438
0.831911 0.875361 0.918880
0.832254 0.875705 0.992362
0.833395 0.993503 0.081051
0.833933 0.994041 0.196172
0.834487 0.994594 0.314579
0.835048 0.995155 0.434664
0.835614 0.995722 0.555903
0.836185 0.996293 0.678024
0.836759 0.996867 0.800863
0.837336 0.997443 0.924305
0.837679 0.997787 0.997787
0.914457 0.012592 0.039087
0.914995 0.013129 0.154208
0.915548 0.013683 0.272615
0.916109 0.014244 0.392700
0.916676 0.014810 0.513939
0.917246 0.015381 0.636060
0.917820 0.015955 0.758898
0.918397 0.016532 0.882341
0.918740 0.016875 0.955823
0.919107 0.117246 0.043737
0.919645 0.117784 0.158859
0.920199 0.118337 0.277266
0.920760 0.118898 0.397351
0.921326 0.119465 0.518589
0.921897 0.120035 0.640711
0.922471 0.120609 0.763549
0.923048 0.121186 0.886992
0.923391 0.121529 0.960473
0.924549 0.239701 0.049179
0.925087 0.240238 0.164300
0.925640 0.240792 0.282707
0.926201 0.241353 0.402792
0.926768 0.241919 0.524031
0.927338 0.242490 0.646152
0.927912 0.243064 0.768991
0.928489 0.243641 0.892433
0.928833 0.243984 0.965915
0.930084 0.364251 0.054714
0.930622 0.364789 0.169835
0.931175 0.365342 0.288242
0.931736 0.365903 0.408327
0.932303 0.366470 0.529566
0.932873 0.367040 0.651687
0.933447 0.367614 0.774525
0.934024 0.368191 0.897968
0.934367 0.368535 0.971449
0.935678 0.490150 0.060308
0.936216 0.490688 0.175430
0.936770 0.491242 0.293837
0.937331 0.491803 0.413922
0.937897 0.492369 0.535160
0.938468 0.492940 0.657282
0.939042 0.493514 0.780120
0.939619 0.494091 0.903563
0.939962 0.494434 0.977044
0.941318 0.617052 0.065948
0.941855 0.617590 0.181069
0.942409 0.618143 0.299476
0.942970 0.618704 0.419561
0.943536 0.619271 0.540799
0.944107 0.619842 0.662921
0.944681 0.620416 0.785759
0.945258 0.620992 0.909202
0.945601 0.621336 0.982683
0.946992 0.744754 0.071622
0.947530 0.745292 0.186744
0.948083 0.745845 0.305151
0.948645 0.746406 0.425236
0.949211 0.746973 0.546474
0.949782 0.747543 0.668595
0.950356 0.748117 0.791434
0.950933 0.748694 0.914877
0.951276 0.749037 0.988358
0.952697 0.873122 0.077327
0.953235 0.873660 0.192448
0.953788 0.874213 0.310855
0.954349 0.874774 0.430940
0.954915 0.875341 0.552179
0.955486 0.875911 0.674300
0.956060 0.876485 0.797138
0.956637 0.877062 0.920581
0.956980 0.877405 0.994062
0.958122 0.995204 0.082752
0.958660 0.995742 0.197873
0.959213 0.996295 0.316280
0.959774 0.996856 0.436365
0.960341 0.997423 0.557604
0.960911 0.997993 0.679725
0.961485 0.998567 0.802563
0.962062 0.999144 0.926006
0.962405 0.999487 0.999487
