skills/creativeops-director/assets/grade/luts/cool_tech_v03.cube
TITLE "cool_tech_v03"
LUT_3D_SIZE 17
DOMAIN_MIN 0.0 0.0 0.0
DOMAIN_MAX 1.0 1.0 1.0
0.000024 0.000024 0.012169
0.000139 0.000139 0.071579
0.000257 0.000257 0.131745
0.000374 0.000374 0.192283
0.000493 0.000493 0.253074
0.000612 0.000612 0.314058
0.000731 0.000731 0.375196
0.000850 0.000850 0.436465
0.000970 0.000970 0.497846
0.001089 0.001089 0.559325
0.001209 0.001209 0.620893
0.001329 0.001329 0.682540
0.001449 0.001449 0.744260
0.001570 0.001570 0.806047
0.001690 0.001690 0.867895
0.001811 0.001811 0.929800
0.001900 0.001900 0.975584
0.001123 0.057982 0.013268
0.001238 0.058098 0.072678
0.001356 0.058215 0.132844
0.001474 0.058333 0.193382
0.001592 0.058451 0.254173
0.001711 0.058570 0.315157
0.001830 0.058689 0.376295
0.001949 0.058808 0.437564
0.002069 0.058928 0.498945
0.002188 0.059048 0.560425
0.002308 0.059168 0.621992
0.002428 0.059288 0.683640
0.002549 0.059408 0.745359
0.002669 0.059528 0.807146
0.002789 0.059649 0.868994
0.002910 0.059769 0.930899
0.002999 0.059858 0.976683
0.002281 0.119063 0.014426
0.002397 0.119179 0.073836
0.002514 0.119296 0.134002
0.002632 0.119414 0.194540
0.002750 0.119532 0.255332
0.002869 0.119651 0.316315
0.002988 0.119770 0.377453
0.003107 0.119890 0.438722
0.003227 0.120009 0.500103
0.003347 0.120129 0.561583
0.003467 0.120249 0.623151
0.003587 0.120369 0.684798
0.003707 0.120489 0.746518
0.003827 0.120609 0.808304
0.003948 0.120730 0.870152
0.004068 0.120850 0.932057
0.004157 0.120940 0.977842
0.003448 0.180574 0.015593
0.003563 0.180690 0.075002
0.003680 0.180807 0.135168
0.003798 0.180925 0.195707
0.003917 0.181044 0.256498
0.004035 0.181162 0.317481
0.004155 0.181281 0.378620
0.004274 0.181401 0.439889
0.004393 0.181520 0.501270
0.004513 0.181640 0.562749
0.004633 0.181760 0.624317
0.004753 0.181880 0.685964
0.004873 0.182000 0.747684
0.004994 0.182120 0.809470
0.005114 0.182241 0.871318
0.005235 0.182361 0.933224
0.005324 0.182451 0.979008
0.004619 0.242364 0.016765
0.004735 0.242480 0.076174
0.004852 0.242597 0.136340
0.004970 0.242715 0.196879
0.005088 0.242833 0.257670
0.005207 0.242952 0.318653
0.005326 0.243071 0.379792
0.005446 0.243191 0.441060
0.005565 0.243310 0.502441
0.005685 0.243430 0.563921
0.005805 0.243550 0.625489
0.005925 0.243670 0.687136
0.006045 0.243790 0.748856
0.006165 0.243910 0.810642
0.006286 0.244031 0.872490
0.006406 0.244151 0.934395
0.006496 0.244241 0.980180
0.005795 0.304362 0.017940
0.005911 0.304477 0.077350
0.006028 0.304595 0.137516
0.006146 0.304712 0.198054
0.006264 0.304831 0.258846
0.006383 0.304950 0.319829
0.006502 0.305069 0.380967
0.006621 0.305188 0.442236
0.006741 0.305308 0.503617
0.006861 0.305427 0.565097
0.006980 0.305547 0.626664
0.007100 0.305667 0.688312
0.007221 0.305787 0.750031
0.007341 0.305908 0.811818
0.007461 0.306028 0.873666
0.007582 0.306149 0.935571
0.007671 0.306238 0.981355
0.006974 0.366525 0.019119
0.007089 0.366640 0.078529
0.007207 0.366758 0.138695
0.007325 0.366876 0.199233
0.007443 0.366994 0.260024
0.007562 0.367113 0.321008
0.007681 0.367232 0.382146
0.007800 0.367351 0.443415
0.007920 0.367471 0.504796
0.008039 0.367590 0.566276
0.008159 0.367710 0.627843
0.008279 0.367830 0.689490
0.008400 0.367951 0.751210
0.008520 0.368071 0.812997
0.008640 0.368191 0.874845
0.008761 0.368312 0.936750
0.008850 0.368401 0.982534
0.008155 0.428826 0.020301
0.008271 0.428941 0.079710
0.008388 0.429059 0.139876
0.008506 0.429176 0.200415
0.008624 0.429295 0.261206
0.008743 0.429414 0.322189
0.008862 0.429533 0.383328
0.008981 0.429652 0.444596
0.009101 0.429772 0.505977
0.009221 0.429891 0.567457
0.009341 0.430011 0.629025
0.009461 0.430131 0.690672
0.009581 0.430251 0.752392
0.009701 0.430372 0.814178
0.009822 0.430492 0.876026
0.009942 0.430613 0.937931
0.010031 0.430702 0.983716
0.009339 0.491245 0.021484
0.009455 0.491361 0.080894
0.009572 0.491478 0.141060
0.009690 0.491596 0.201598
0.009808 0.491714 0.262389
0.009927 0.491833 0.323373
0.010046 0.491952 0.384511
0.010165 0.492071 0.445780
0.010285 0.492191 0.507161
0.010404 0.492310 0.568641
0.010524 0.492430 0.630208
0.010644 0.492550 0.691856
0.010765 0.492671 0.753575
0.010885 0.492791 0.815362
0.011005 0.492911 0.877210
0.011126 0.493032 0.939115
0.011215 0.493121 0.984899
0.010524 0.553767 0.022670
0.010640 0.553883 0.082079
0.010757 0.554000 0.142245
0.010875 0.554118 0.202784
0.010994 0.554237 0.263575
0.011112 0.554355 0.324558
0.011231 0.554474 0.385697
0.011351 0.554594 0.446966
0.011470 0.554713 0.508347
0.011590 0.554833 0.569826
0.011710 0.554953 0.631394
0.011830 0.555073 0.693041
0.011950 0.555193 0.754761
0.012071 0.555314 0.816547
0.012191 0.555434 0.878395
0.012312 0.555555 0.940301
0.012401 0.555644 0.986085
0.011712 0.616382 0.023857
0.011828 0.616498 0.083267
0.011945 0.616615 0.143433
0.012063 0.616733 0.203971
0.012181 0.616851 0.264762
0.012300 0.616970 0.325746
0.012419 0.617089 0.386884
0.012538 0.617208 0.448153
0.012658 0.617328 0.509534
0.012777 0.617448 0.571014
0.012897 0.617567 0.632581
0.013017 0.617688 0.694229
0.013138 0.617808 0.755948
0.013258 0.617928 0.817735
0.013378 0.618049 0.879583
0.013499 0.618169 0.941488
0.013588 0.618258 0.987272
0.012901 0.679079 0.025046
0.013016 0.679195 0.084456
0.013134 0.679312 0.144622
0.013252 0.679430 0.205160
0.013370 0.679549 0.265951
0.013489 0.679667 0.326935
0.013608 0.679786 0.388073
0.013727 0.679906 0.449342
0.013847 0.680025 0.510723
0.013966 0.680145 0.572203
0.014086 0.680265 0.633770
0.014206 0.680385 0.695418
0.014327 0.680505 0.757137
0.014447 0.680626 0.818924
0.014567 0.680746 0.880772
0.014688 0.680867 0.942677
0.014777 0.680956 0.988461
0.014091 0.741852 0.026236
0.014207 0.741968 0.085646
0.014324 0.742085 0.145812
0.014442 0.742203 0.206350
0.014560 0.742321 0.267142
0.014679 0.742440 0.328125
0.014798 0.742559 0.389264
0.014917 0.742679 0.450532
0.015037 0.742798 0.511913
0.015157 0.742918 0.573393
0.015277 0.743038 0.634961
0.015397 0.743158 0.696608
0.015517 0.743278 0.758328
0.015637 0.743398 0.820114
0.015758 0.743519 0.881962
0.015878 0.743639 0.943867
0.015967 0.743729 0.989652
0.015283 0.804694 0.027428
0.015399 0.804810 0.086838
0.015516 0.804927 0.147004
0.015634 0.805045 0.207542
0.015752 0.805163 0.268333
0.015871 0.805282 0.329317
0.015990 0.805401 0.390455
0.016109 0.805521 0.451724
0.016229 0.805640 0.513105
0.016348 0.805760 0.574585
0.016468 0.805880 0.636152
0.016588 0.806000 0.697800
0.016709 0.806120 0.759519
0.016829 0.806240 0.821306
0.016949 0.806361 0.883154
0.017070 0.806481 0.945059
0.017159 0.806571 0.990843
0.016476 0.867600 0.028621
0.016591 0.867716 0.088031
0.016709 0.867833 0.148197
0.016826 0.867951 0.208735
0.016945 0.868069 0.269526
0.017064 0.868188 0.330510
0.017183 0.868307 0.391648
0.017302 0.868426 0.452917
0.017422 0.868546 0.514298
0.017541 0.868666 0.575777
0.017661 0.868786 0.637345
0.017781 0.868906 0.698992
0.017901 0.869026 0.760712
0.018022 0.869146 0.822499
0.018142 0.869267 0.884347
0.018263 0.869387 0.946252
0.018352 0.869476 0.992036
0.017670 0.930565 0.029815
0.017785 0.930681 0.089225
0.017903 0.930798 0.149391
0.018021 0.930916 0.209929
0.018139 0.931034 0.270720
0.018258 0.931153 0.331704
0.018377 0.931272 0.392842
0.018496 0.931392 0.454111
0.018616 0.931511 0.515492
0.018735 0.931631 0.576972
0.018855 0.931751 0.638539
0.018975 0.931871 0.700186
0.019096 0.931991 0.761906
0.019216 0.932111 0.823693
0.019336 0.932232 0.885541
0.019457 0.932352 0.947446
0.019546 0.932441 0.993230
0.018845 0.992529 0.030990
0.018960 0.992645 0.090400
0.019078 0.992762 0.150566
0.019196 0.992880 0.211104
0.019314 0.992998 0.271895
0.019433 0.993117 0.332879
0.019552 0.993236 0.394017
0.019671 0.993355 0.455286
0.019791 0.993475 0.516667
0.019910 0.993595 0.578147
0.020030 0.993714 0.639714
0.020150 0.993835 0.701362
0.020271 0.993955 0.763081
0.020391 0.994075 0.824868
0.020511 0.994196 0.886716
0.020632 0.994316 0.948621
0.020721 0.994405 0.994405
0.042595 0.000267 0.012412
0.042711 0.000383 0.071822
0.042828 0.000500 0.131988
0.042946 0.000618 0.192526
0.043064 0.000736 0.253318
0.043183 0.000855 0.314301
0.043302 0.000974 0.375439
0.043421 0.001093 0.436708
0.043541 0.001213 0.498089
0.043661 0.001333 0.559569
0.043781 0.001452 0.621136
0.043901 0.001572 0.682784
0.044021 0.001693 0.744503
0.044141 0.001813 0.806290
0.044262 0.001933 0.868138
0.044382 0.002054 0.930043
0.044471 0.002143 0.975827
0.043694 0.058225 0.013511
0.043810 0.058341 0.072921
0.043927 0.058458 0.133087
0.044045 0.058576 0.193625
0.044163 0.058694 0.254417
0.044282 0.058813 0.315400
0.044401 0.058932 0.376538
0.044521 0.059052 0.437807
0.044640 0.059171 0.499188
0.044760 0.059291 0.560668
0.044880 0.059411 0.622236
0.045000 0.059531 0.683883
0.045120 0.059651 0.745602
0.045240 0.059771 0.807389
0.045361 0.059892 0.869237
0.045481 0.060012 0.931142
0.045571 0.060102 0.976927
0.044853 0.119306 0.014670
0.044968 0.119422 0.074079
0.045085 0.119539 0.134245
0.045203 0.119657 0.194784
0.045322 0.119776 0.255575
0.045440 0.119894 0.316558
0.045560 0.120014 0.377697
0.045679 0.120133 0.438965
0.045798 0.120252 0.500346
0.045918 0.120372 0.561826
0.046038 0.120492 0.623394
0.046158 0.120612 0.685041
0.046278 0.120732 0.746761
0.046399 0.120853 0.808547
0.046519 0.120973 0.870395
0.046640 0.121094 0.932300
0.046729 0.121183 0.978085
0.046019 0.180818 0.015836
0.046135 0.180933 0.075246
0.046252 0.181050 0.135412
0.046370 0.181168 0.195950
0.046488 0.181287 0.256741
0.046607 0.181405 0.317725
0.046726 0.181525 0.378863
0.046845 0.181644 0.440132
0.046965 0.181763 0.501513
0.047085 0.181883 0.562993
0.047204 0.182003 0.624560
0.047325 0.182123 0.686207
0.047445 0.182243 0.747927
0.047565 0.182364 0.809714
0.047686 0.182484 0.871562
0.047806 0.182605 0.933467
0.047895 0.182694 0.979251
0.047191 0.242607 0.017008
0.047306 0.242723 0.076417
0.047424 0.242840 0.136583
0.047541 0.242958 0.197122
0.047660 0.243077 0.257913
0.047779 0.243195 0.318896
0.047898 0.243314 0.380035
0.048017 0.243434 0.441304
0.048137 0.243553 0.502685
0.048256 0.243673 0.564164
0.048376 0.243793 0.625732
0.048496 0.243913 0.687379
0.048616 0.244033 0.749099
0.048737 0.244154 0.810885
0.048857 0.244274 0.872733
0.048978 0.244395 0.934639
0.049067 0.244484 0.980423
0.048366 0.304605 0.018183
0.048482 0.304721 0.077593
0.048599 0.304838 0.137759
0.048717 0.304956 0.198297
0.048836 0.305074 0.259089
0.048954 0.305193 0.320072
0.049073 0.305312 0.381211
0.049193 0.305431 0.442479
0.049312 0.305551 0.503860
0.049432 0.305671 0.565340
0.049552 0.305790 0.626908
0.049672 0.305911 0.688555
0.049792 0.306031 0.750275
0.049912 0.306151 0.812061
0.050033 0.306271 0.873909
0.050154 0.306392 0.935814
0.050243 0.306481 0.981599
0.049545 0.366768 0.019362
0.049661 0.366884 0.078772
0.049778 0.367001 0.138938
0.049896 0.367119 0.199476
0.050014 0.367237 0.260268
0.050133 0.367356 0.321251
0.050252 0.367475 0.382389
0.050372 0.367594 0.443658
0.050491 0.367714 0.505039
0.050611 0.367834 0.566519
0.050731 0.367953 0.628086
0.050851 0.368074 0.689734
0.050971 0.368194 0.751453
0.051091 0.368314 0.813240
0.051212 0.368435 0.875088
0.051332 0.368555 0.936993
0.051421 0.368644 0.982777
0.050727 0.429069 0.020544
0.050842 0.429185 0.079953
0.050959 0.429302 0.140119
0.051077 0.429420 0.200658
0.051196 0.429538 0.261449
0.051315 0.429657 0.322432
0.051434 0.429776 0.383571
0.051553 0.429895 0.444840
0.051672 0.430015 0.506220
0.051792 0.430135 0.567700
0.051912 0.430254 0.629268
0.052032 0.430374 0.690915
0.052152 0.430495 0.752635
0.052273 0.430615 0.814421
0.052393 0.430735 0.876269
0.052514 0.430856 0.938175
0.052603 0.430945 0.983959
0.051910 0.491488 0.021727
0.052026 0.491604 0.081137
0.052143 0.491721 0.141303
0.052261 0.491839 0.201841
0.052379 0.491957 0.262633
0.052498 0.492076 0.323616
0.052617 0.492195 0.384754
0.052737 0.492314 0.446023
0.052856 0.492434 0.507404
0.052976 0.492554 0.568884
0.053096 0.492674 0.630452
0.053216 0.492794 0.692099
0.053336 0.492914 0.753819
0.053456 0.493034 0.815605
0.053577 0.493155 0.877453
0.053697 0.493275 0.939358
0.053787 0.493364 0.985143
0.053096 0.554011 0.022913
0.053212 0.554126 0.082323
0.053329 0.554243 0.142489
0.053447 0.554361 0.203027
0.053565 0.554480 0.263818
0.053684 0.554599 0.324802
0.053803 0.554718 0.385940
0.053922 0.554837 0.447209
0.054042 0.554956 0.508590
0.054162 0.555076 0.570069
0.054281 0.555196 0.631637
0.054401 0.555316 0.693284
0.054522 0.555436 0.755004
0.054642 0.555557 0.816791
0.054762 0.555677 0.878638
0.054883 0.555798 0.940544
0.054972 0.555887 0.986328
0.054283 0.616625 0.024100
0.054399 0.616741 0.083510
0.054516 0.616858 0.143676
0.054634 0.616976 0.204214
0.054752 0.617094 0.265006
0.054871 0.617213 0.325989
0.054990 0.617332 0.387127
0.055110 0.617452 0.448396
0.055229 0.617571 0.509777
0.055349 0.617691 0.571257
0.055469 0.617811 0.632825
0.055589 0.617931 0.694472
0.055709 0.618051 0.756192
0.055829 0.618171 0.817978
0.055950 0.618292 0.879826
0.056070 0.618412 0.941731
0.056160 0.618501 0.987516
0.055472 0.679323 0.025289
0.055588 0.679438 0.084699
0.055705 0.679556 0.144865
0.055823 0.679673 0.205403
0.055941 0.679792 0.266195
0.056060 0.679911 0.327178
0.056179 0.680030 0.388316
0.056299 0.680149 0.449585
0.056418 0.680269 0.510966
0.056538 0.680388 0.572446
0.056658 0.680508 0.634013
0.056778 0.680628 0.695661
0.056898 0.680748 0.757380
0.057018 0.680869 0.819167
0.057139 0.680989 0.881015
0.057259 0.681110 0.942920
0.057349 0.681199 0.988704
0.056663 0.742095 0.026480
0.056778 0.742211 0.085889
0.056895 0.742328 0.146055
0.057013 0.742446 0.206594
0.057132 0.742565 0.267385
0.057251 0.742683 0.328368
0.057370 0.742802 0.389507
0.057489 0.742922 0.450775
0.057608 0.743041 0.512156
0.057728 0.743161 0.573636
0.057848 0.743281 0.635204
0.057968 0.743401 0.696851
0.058088 0.743521 0.758571
0.058209 0.743642 0.820357
0.058329 0.743762 0.882205
0.058450 0.743883 0.944111
0.058539 0.743972 0.989895
0.057854 0.804937 0.027671
0.057970 0.805053 0.087081
0.058087 0.805170 0.147247
0.058205 0.805288 0.207785
0.058323 0.805407 0.268577
0.058442 0.805525 0.329560
0.058561 0.805644 0.390698
0.058681 0.805764 0.451967
0.058800 0.805883 0.513348
0.058920 0.806003 0.574828
0.059040 0.806123 0.636396
0.059160 0.806243 0.698043
0.059280 0.806363 0.759763
0.059400 0.806484 0.821549
0.059521 0.806604 0.883397
0.059641 0.806725 0.945302
0.059731 0.806814 0.991087
0.059047 0.867843 0.028864
0.059163 0.867959 0.088274
0.059280 0.868076 0.148440
0.059398 0.868194 0.208978
0.059516 0.868312 0.269770
0.059635 0.868431 0.330753
0.059754 0.868550 0.391891
0.059873 0.868670 0.453160
0.059993 0.868789 0.514541
0.060113 0.868909 0.576021
0.060233 0.869029 0.637588
0.060353 0.869149 0.699236
0.060473 0.869269 0.760955
0.060593 0.869389 0.822742
0.060714 0.869510 0.884590
0.060834 0.869630 0.946495
0.060923 0.869720 0.992279
0.060241 0.930808 0.030058
0.060357 0.930924 0.089468
0.060474 0.931041 0.149634
0.060592 0.931159 0.210172
0.060710 0.931278 0.270964
0.060829 0.931396 0.331947
0.060948 0.931515 0.393085
0.061068 0.931635 0.454354
0.061187 0.931754 0.515735
0.061307 0.931874 0.577215
0.061427 0.931994 0.638782
0.061547 0.932114 0.700430
0.061667 0.932234 0.762149
0.061787 0.932355 0.823936
0.061908 0.932475 0.885784
0.062028 0.932596 0.947689
0.062117 0.932685 0.993473
0.061416 0.992772 0.031233
0.061532 0.992888 0.090643
0.061649 0.993005 0.150809
0.061767 0.993123 0.211347
0.061885 0.993241 0.272139
0.062004 0.993360 0.333122
0.062123 0.993479 0.394260
0.062243 0.993599 0.455529
0.062362 0.993718 0.516910
0.062482 0.993838 0.578390
0.062602 0.993958 0.639957
0.062722 0.994078 0.701605
0.062842 0.994198 0.763324
0.062962 0.994318 0.825111
0.063083 0.994439 0.886959
0.063203 0.994559 0.948864
0.063293 0.994648 0.994648
0.102711 0.000610 0.012756
0.102827 0.000726 0.072165
0.102944 0.000843 0.132331
0.103062 0.000961 0.192870
0.103180 0.001080 0.253661
0.103299 0.001198 0.314644
0.103418 0.001317 0.375783
0.103537 0.001437 0.437052
0.103657 0.001556 0.498432
0.103776 0.001676 0.559912
0.103896 0.001796 0.621480
0.104016 0.001916 0.683127
0.104137 0.002036 0.744847
0.104257 0.002156 0.806633
0.104377 0.002277 0.868481
0.104498 0.002397 0.930387
0.104587 0.002487 0.976171
0.103810 0.058569 0.013855
0.103926 0.058684 0.073264
0.104043 0.058802 0.133430
0.104161 0.058919 0.193969
0.104279 0.059038 0.254760
0.104398 0.059157 0.315743
0.104517 0.059276 0.376882
0.104636 0.059395 0.438151
0.104756 0.059515 0.499532
0.104876 0.059634 0.561011
0.104995 0.059754 0.622579
0.105116 0.059874 0.684226
0.105236 0.059994 0.745946
0.105356 0.060115 0.807732
0.105476 0.060235 0.869580
0.105597 0.060356 0.931486
0.105686 0.060445 0.977270
0.104968 0.119650 0.015013
0.105084 0.119766 0.074423
0.105201 0.119883 0.134589
0.105319 0.120001 0.195127
0.105437 0.120119 0.255918
0.105556 0.120238 0.316902
0.105675 0.120357 0.378040
0.105795 0.120476 0.439309
0.105914 0.120596 0.500690
0.106034 0.120716 0.562170
0.106154 0.120835 0.623737
0.106274 0.120956 0.685384
0.106394 0.121076 0.747104
0.106514 0.121196 0.808891
0.106635 0.121317 0.870739
0.106755 0.121437 0.932644
0.106845 0.121526 0.978428
0.106135 0.181161 0.016180
0.106250 0.181277 0.075589
0.106368 0.181394 0.135755
0.106485 0.181512 0.196294
0.106604 0.181630 0.257085
0.106723 0.181749 0.318068
0.106842 0.181868 0.379207
0.106961 0.181987 0.440475
0.107081 0.182107 0.501856
0.107200 0.182227 0.563336
0.107320 0.182347 0.624904
0.107440 0.182467 0.686551
0.107560 0.182587 0.748271
0.107681 0.182707 0.810057
0.107801 0.182828 0.871905
0.107922 0.182948 0.933810
0.108011 0.183037 0.979595
0.107306 0.242951 0.017351
0.107422 0.243067 0.076761
0.107539 0.243184 0.136927
0.107657 0.243302 0.197465
0.107776 0.243420 0.258257
0.107894 0.243539 0.319240
0.108013 0.243658 0.380378
0.108133 0.243777 0.441647
0.108252 0.243897 0.503028
0.108372 0.244017 0.564508
0.108492 0.244136 0.626075
0.108612 0.244256 0.687723
0.108732 0.244377 0.749442
0.108853 0.244497 0.811229
0.108973 0.244617 0.873077
0.109094 0.244738 0.934982
0.109183 0.244827 0.980766
0.108482 0.304948 0.018527
0.108598 0.305064 0.077936
0.108715 0.305181 0.138102
0.108833 0.305299 0.198641
0.108951 0.305418 0.259432
0.109070 0.305536 0.320416
0.109189 0.305655 0.381554
0.109308 0.305775 0.442823
0.109428 0.305894 0.504204
0.109548 0.306014 0.565683
0.109668 0.306134 0.627251
0.109788 0.306254 0.688898
0.109908 0.306374 0.750618
0.110028 0.306494 0.812404
0.110149 0.306615 0.874252
0.110269 0.306736 0.936158
0.110358 0.306825 0.981942
0.109661 0.367111 0.019706
0.109777 0.367227 0.079115
0.109894 0.367344 0.139281
0.110012 0.367462 0.199820
0.110130 0.367581 0.260611
0.110249 0.367699 0.321594
0.110368 0.367818 0.382733
0.110487 0.367938 0.444002
0.110607 0.368057 0.505383
0.110726 0.368177 0.566862
0.110846 0.368297 0.628430
0.110966 0.368417 0.690077
0.111087 0.368537 0.751797
0.111207 0.368658 0.813583
0.111327 0.368778 0.875431
0.111448 0.368899 0.937337
0.111537 0.368988 0.983121
0.110842 0.429412 0.020887
0.110958 0.429528 0.080297
0.111075 0.429645 0.140463
0.111193 0.429763 0.201001
0.111311 0.429882 0.261792
0.111430 0.430000 0.322776
0.111549 0.430119 0.383914
0.111669 0.430239 0.445183
0.111788 0.430358 0.506564
0.111908 0.430478 0.568044
0.112028 0.430598 0.629611
0.112148 0.430718 0.691259
0.112268 0.430838 0.752978
0.112388 0.430958 0.814765
0.112509 0.431079 0.876613
0.112629 0.431199 0.938518
0.112719 0.431289 0.984302
0.112026 0.491831 0.022071
0.112142 0.491947 0.081480
0.112259 0.492064 0.141646
0.112377 0.492182 0.202185
0.112495 0.492301 0.262976
0.112614 0.492419 0.323959
0.112733 0.492538 0.385098
0.112852 0.492658 0.446367
0.112972 0.492777 0.507748
0.113092 0.492897 0.569227
0.113211 0.493017 0.630795
0.113332 0.493137 0.692442
0.113452 0.493257 0.754162
0.113572 0.493378 0.815948
0.113693 0.493498 0.877796
0.113813 0.493619 0.939702
0.113902 0.493708 0.985486
0.113212 0.554354 0.023256
0.113327 0.554470 0.082666
0.113444 0.554587 0.142832
0.113562 0.554705 0.203370
0.113681 0.554823 0.264162
0.113800 0.554942 0.325145
0.113919 0.555061 0.386284
0.114038 0.555180 0.447552
0.114157 0.555300 0.508933
0.114277 0.555420 0.570413
0.114397 0.555540 0.631981
0.114517 0.555660 0.693628
0.114637 0.555780 0.755348
0.114758 0.555900 0.817134
0.114878 0.556021 0.878982
0.114999 0.556141 0.940887
0.115088 0.556230 0.986672
0.114399 0.616969 0.024444
0.114515 0.617084 0.083853
0.114632 0.617202 0.144019
0.114750 0.617319 0.204558
0.114868 0.617438 0.265349
0.114987 0.617557 0.326332
0.115106 0.617676 0.387471
0.115225 0.617795 0.448740
0.115345 0.617915 0.510121
0.115465 0.618034 0.571600
0.115584 0.618154 0.633168
0.115705 0.618274 0.694815
0.115825 0.618394 0.756535
0.115945 0.618515 0.818321
0.116066 0.618635 0.880169
0.116186 0.618756 0.942075
0.116275 0.618845 0.987859
0.115588 0.679666 0.025633
0.115704 0.679782 0.085042
0.115821 0.679899 0.145208
0.115939 0.680017 0.205747
0.116057 0.680135 0.266538
0.116176 0.680254 0.327521
0.116295 0.680373 0.388660
0.116414 0.680492 0.449929
0.116534 0.680612 0.511310
0.116654 0.680732 0.572789
0.116773 0.680852 0.634357
0.116893 0.680972 0.696004
0.117014 0.681092 0.757724
0.117134 0.681212 0.819510
0.117254 0.681333 0.881358
0.117375 0.681453 0.943264
0.117464 0.681542 0.989048
0.116778 0.742439 0.026823
0.116894 0.742555 0.086233
0.117011 0.742672 0.146399
0.117129 0.742790 0.206937
0.117247 0.742908 0.267728
0.117366 0.743027 0.328712
0.117485 0.743146 0.389850
0.117605 0.743265 0.451119
0.117724 0.743385 0.512500
0.117844 0.743505 0.573980
0.117964 0.743624 0.635547
0.118084 0.743744 0.697195
0.118204 0.743865 0.758914
0.118324 0.743985 0.820701
0.118445 0.744105 0.882549
0.118565 0.744226 0.944454
0.118655 0.744315 0.990238
0.117970 0.805281 0.028015
0.118086 0.805397 0.087424
0.118203 0.805514 0.147590
0.118321 0.805632 0.208129
0.118439 0.805750 0.268920
0.118558 0.805869 0.329903
0.118677 0.805988 0.391042
0.118796 0.806107 0.452311
0.118916 0.806227 0.513692
0.119036 0.806346 0.575171
0.119155 0.806466 0.636739
0.119276 0.806586 0.698386
0.119396 0.806707 0.760106
0.119516 0.806827 0.821892
0.119637 0.806947 0.883740
0.119757 0.807068 0.945646
0.119846 0.807157 0.991430
0.119163 0.868187 0.029208
0.119279 0.868302 0.088617
0.119396 0.868420 0.148783
0.119514 0.868537 0.209322
0.119632 0.868656 0.270113
0.119751 0.868775 0.331096
0.119870 0.868894 0.392235
0.119989 0.869013 0.453504
0.120109 0.869133 0.514884
0.120228 0.869252 0.576364
0.120348 0.869372 0.637932
0.120468 0.869492 0.699579
0.120589 0.869612 0.761299
0.120709 0.869733 0.823085
0.120829 0.869853 0.884933
0.120950 0.869974 0.946839
0.121039 0.870063 0.992623
0.120357 0.931152 0.030402
0.120473 0.931268 0.089811
0.120590 0.931385 0.149977
0.120708 0.931503 0.210516
0.120826 0.931621 0.271307
0.120945 0.931740 0.332290
0.121064 0.931859 0.393429
0.121183 0.931978 0.454698
0.121303 0.932098 0.516079
0.121422 0.932217 0.577558
0.121542 0.932337 0.639126
0.121662 0.932457 0.700773
0.121783 0.932578 0.762493
0.121903 0.932698 0.824279
0.122023 0.932818 0.886127
0.122144 0.932939 0.948033
0.122233 0.933028 0.993817
0.121532 0.993116 0.031577
0.121648 0.993231 0.090986
0.121765 0.993349 0.151152
0.121883 0.993466 0.211691
0.122001 0.993585 0.272482
0.122120 0.993704 0.333465
0.122239 0.993823 0.394604
0.122358 0.993942 0.455873
0.122478 0.994062 0.517254
0.122598 0.994181 0.578733
0.122717 0.994301 0.640301
0.122837 0.994421 0.701948
0.122958 0.994541 0.763668
0.123078 0.994662 0.825454
0.123198 0.994782 0.887302
0.123319 0.994903 0.949208
0.123408 0.994992 0.994992
0.163318 0.000957 0.013102
0.163433 0.001072 0.072512
0.163551 0.001189 0.132678
0.163668 0.001307 0.193216
0.163787 0.001426 0.254007
0.163906 0.001545 0.314991
0.164025 0.001664 0.376129
0.164144 0.001783 0.437398
0.164264 0.001902 0.498779
0.164383 0.002022 0.560258
0.164503 0.002142 0.621826
0.164623 0.002262 0.683473
0.164743 0.002382 0.745193
0.164864 0.002503 0.806979
0.164984 0.002623 0.868827
0.165105 0.002744 0.930733
0.165194 0.002833 0.976517
0.164417 0.058915 0.014201
