skills/creativeops-director/assets/grade/luts/cool_tech_v03.cube
TITLE "cool_tech_v03"
LUT_3D_SIZE 9
DOMAIN_MIN 0.0 0.0 0.0
DOMAIN_MAX 1.0 1.0 1.0
0.000024 0.000024 0.012169
0.000257 0.000257 0.131745
0.000493 0.000493 0.253074
0.000731 0.000731 0.375196
0.000970 0.000970 0.497846
0.001209 0.001209 0.620893
0.001449 0.001449 0.744260
0.001690 0.001690 0.867895
0.001900 0.001900 0.975584
0.002281 0.119063 0.014426
0.002514 0.119296 0.134002
0.002750 0.119532 0.255332
0.002988 0.119770 0.377453
0.003227 0.120009 0.500103
0.003467 0.120249 0.623151
0.003707 0.120489 0.746518
0.003948 0.120730 0.870152
0.004157 0.120940 0.977842
0.004619 0.242364 0.016765
0.004852 0.242597 0.136340
0.005088 0.242833 0.257670
0.005326 0.243071 0.379792
0.005565 0.243310 0.502441
0.005805 0.243550 0.625489
0.006045 0.243790 0.748856
0.006286 0.244031 0.872490
0.006496 0.244241 0.980180
0.006974 0.366525 0.019119
0.007207 0.366758 0.138695
0.007443 0.366994 0.260024
0.007681 0.367232 0.382146
0.007920 0.367471 0.504796
0.008159 0.367710 0.627843
0.008400 0.367951 0.751210
0.008640 0.368191 0.874845
0.008850 0.368401 0.982534
0.009339 0.491245 0.021484
0.009572 0.491478 0.141060
0.009808 0.491714 0.262389
0.010046 0.491952 0.384511
0.010285 0.492191 0.507161
0.010524 0.492430 0.630208
0.010765 0.492671 0.753575
0.011005 0.492911 0.877210
0.011215 0.493121 0.984899
0.011712 0.616382 0.023857
0.011945 0.616615 0.143433
0.012181 0.616851 0.264762
0.012419 0.617089 0.386884
0.012658 0.617328 0.509534
0.012897 0.617567 0.632581
0.013138 0.617808 0.755948
0.013378 0.618049 0.879583
0.013588 0.618258 0.987272
0.014091 0.741852 0.026236
0.014324 0.742085 0.145812
0.014560 0.742321 0.267142
0.014798 0.742559 0.389264
0.015037 0.742798 0.511913
0.015277 0.743038 0.634961
0.015517 0.743278 0.758328
0.015758 0.743519 0.881962
0.015967 0.743729 0.989652
0.016476 0.867600 0.028621
0.016709 0.867833 0.148197
0.016945 0.868069 0.269526
0.017183 0.868307 0.391648
0.017422 0.868546 0.514298
0.017661 0.868786 0.637345
0.017901 0.869026 0.760712
0.018142 0.869267 0.884347
0.018352 0.869476 0.992036
0.018845 0.992529 0.030990
0.019078 0.992762 0.150566
0.019314 0.992998 0.271895
0.019552 0.993236 0.394017
0.019791 0.993475 0.516667
0.020030 0.993714 0.639714
0.020271 0.993955 0.763081
0.020511 0.994196 0.886716
0.020721 0.994405 0.994405
0.102711 0.000610 0.012756
0.102944 0.000843 0.132331
0.103180 0.001080 0.253661
0.103418 0.001317 0.375783
0.103657 0.001556 0.498432
0.103896 0.001796 0.621480
0.104137 0.002036 0.744847
0.104377 0.002277 0.868481
0.104587 0.002487 0.976171
0.104968 0.119650 0.015013
0.105201 0.119883 0.134589
0.105437 0.120119 0.255918
0.105675 0.120357 0.378040
0.105914 0.120596 0.500690
0.106154 0.120835 0.623737
0.106394 0.121076 0.747104
0.106635 0.121317 0.870739
0.106845 0.121526 0.978428
0.107306 0.242951 0.017351
0.107539 0.243184 0.136927
0.107776 0.243420 0.258257
0.108013 0.243658 0.380378
0.108252 0.243897 0.503028
0.108492 0.244136 0.626075
0.108732 0.244377 0.749442
0.108973 0.244617 0.873077
0.109183 0.244827 0.980766
0.109661 0.367111 0.019706
0.109894 0.367344 0.139281
0.110130 0.367581 0.260611
0.110368 0.367818 0.382733
0.110607 0.368057 0.505383
0.110846 0.368297 0.628430
0.111087 0.368537 0.751797
0.111327 0.368778 0.875431
0.111537 0.368988 0.983121
0.112026 0.491831 0.022071
0.112259 0.492064 0.141646
0.112495 0.492301 0.262976
0.112733 0.492538 0.385098
0.112972 0.492777 0.507748
0.113211 0.493017 0.630795
0.113452 0.493257 0.754162
0.113693 0.493498 0.877796
0.113902 0.493708 0.985486
0.114399 0.616969 0.024444
0.114632 0.617202 0.144019
0.114868 0.617438 0.265349
0.115106 0.617676 0.387471
0.115345 0.617915 0.510121
0.115584 0.618154 0.633168
0.115825 0.618394 0.756535
0.116066 0.618635 0.880169
0.116275 0.618845 0.987859
0.116778 0.742439 0.026823
0.117011 0.742672 0.146399
0.117247 0.742908 0.267728
0.117485 0.743146 0.389850
0.117724 0.743385 0.512500
0.117964 0.743624 0.635547
0.118204 0.743865 0.758914
0.118445 0.744105 0.882549
0.118655 0.744315 0.990238
0.119163 0.868187 0.029208
0.119396 0.868420 0.148783
0.119632 0.868656 0.270113
0.119870 0.868894 0.392235
0.120109 0.869133 0.514884
0.120348 0.869372 0.637932
0.120589 0.869612 0.761299
0.120829 0.869853 0.884933
0.121039 0.870063 0.992623
0.121532 0.993116 0.031577
0.121765 0.993349 0.151152
0.122001 0.993585 0.272482
0.122239 0.993823 0.394604
0.122478 0.994062 0.517254
0.122717 0.994301 0.640301
0.122958 0.994541 0.763668
0.123198 0.994782 0.887302
0.123408 0.994992 0.994992
0.224225 0.001305 0.013450
0.224458 0.001537 0.133025
0.224694 0.001774 0.254355
0.224932 0.002012 0.376477
0.225171 0.002250 0.499127
0.225411 0.002490 0.622174
0.225651 0.002730 0.745541
0.225892 0.002971 0.869175
0.226101 0.003181 0.976865
0.226483 0.120344 0.015707
0.226715 0.120577 0.135283
0.226952 0.120813 0.256613
0.227190 0.121051 0.378734
0.227428 0.121290 0.501384
0.227668 0.121530 0.624431
0.227908 0.121770 0.747798
0.228149 0.122011 0.871433
0.228359 0.122220 0.979122
0.228821 0.243645 0.018045
0.229054 0.243878 0.137621
0.229290 0.244114 0.258951
0.229528 0.244352 0.381073
0.229767 0.244591 0.503722
0.230006 0.244831 0.626770
0.230247 0.245071 0.750137
0.230487 0.245312 0.873771
0.230697 0.245521 0.981461
0.231175 0.367806 0.020400
0.231408 0.368039 0.139975
0.231644 0.368275 0.261305
0.231882 0.368513 0.383427
0.232121 0.368752 0.506077
0.232361 0.368991 0.629124
0.232601 0.369231 0.752491
0.232842 0.369472 0.876125
0.233052 0.369682 0.983815
0.233540 0.492526 0.022765
0.233773 0.492759 0.142341
0.234009 0.492995 0.263670
0.234247 0.493233 0.385792
0.234486 0.493472 0.508442
0.234726 0.493711 0.631489
0.234966 0.493951 0.754856
0.235207 0.494192 0.878491
0.235417 0.494402 0.986180
0.235913 0.617663 0.025138
0.236146 0.617896 0.144714
0.236382 0.618132 0.266043
0.236620 0.618370 0.388165
0.236859 0.618609 0.510815
0.237099 0.618848 0.633862
0.237339 0.619089 0.757229
0.237580 0.619329 0.880864
0.237790 0.619539 0.988553
0.238293 0.743133 0.027517
0.238525 0.743366 0.147093
0.238762 0.743602 0.268423
0.239000 0.743840 0.390544
0.239238 0.744079 0.513194
0.239478 0.744319 0.636242
0.239718 0.744559 0.759609
0.239959 0.744800 0.883243
0.240169 0.745009 0.990933
0.240677 0.868881 0.029902
0.240910 0.869114 0.149477
0.241146 0.869350 0.270807
0.241384 0.869588 0.392929
0.241623 0.869827 0.515579
0.241863 0.870066 0.638626
0.242103 0.870307 0.761993
0.242344 0.870547 0.885627
0.242553 0.870757 0.993317
0.243046 0.993810 0.032271
0.243279 0.994043 0.151847
0.243515 0.994279 0.273176
0.243753 0.994517 0.395298
0.243992 0.994756 0.517948
0.244232 0.994995 0.640995
0.244472 0.995236 0.764362
0.244713 0.995476 0.887996
0.244923 0.995686 0.995686
0.346649 0.002004 0.014149
0.346882 0.002237 0.133725
0.347118 0.002473 0.255055
0.347356 0.002711 0.377176
0.347595 0.002950 0.499826
0.347834 0.003190 0.622874
0.348074 0.003430 0.746241
0.348315 0.003671 0.869875
0.348525 0.003880 0.977565
0.348906 0.121044 0.016407
0.349139 0.121276 0.135982
0.349375 0.121513 0.257312
0.349613 0.121751 0.379434
0.349852 0.121989 0.502083
0.350092 0.122229 0.625131
0.350332 0.122469 0.748498
0.350573 0.122710 0.872132
0.350782 0.122920 0.979822
0.351244 0.244345 0.018745
0.351477 0.244577 0.138320
0.351713 0.244814 0.259650
0.351951 0.245052 0.381772
0.352190 0.245290 0.504422
0.352430 0.245530 0.627469
0.352670 0.245770 0.750836
0.352911 0.246011 0.874470
0.353121 0.246221 0.982160
0.353599 0.368505 0.021099
0.353832 0.368738 0.140675
0.354068 0.368974 0.262005
0.354306 0.369212 0.384126
0.354545 0.369451 0.506776
0.354784 0.369691 0.629824
0.355024 0.369931 0.753191
0.355265 0.370172 0.876825
0.355475 0.370381 0.984515
0.355964 0.493225 0.023464
0.356197 0.493458 0.143040
0.356433 0.493694 0.264370
0.356671 0.493932 0.386492
0.356910 0.494171 0.509141
0.357149 0.494411 0.632189
0.357390 0.494651 0.755556
0.357630 0.494892 0.879190
0.357840 0.495101 0.986880
0.358337 0.618362 0.025837
0.358570 0.618595 0.145413
0.358806 0.618831 0.266743
0.359044 0.619069 0.388865
0.359283 0.619308 0.511514
0.359522 0.619548 0.634562
0.359763 0.619788 0.757929
0.360003 0.620029 0.881563
0.360213 0.620239 0.989253
0.360716 0.743833 0.028217
0.360949 0.744065 0.147792
0.361185 0.744302 0.269122
0.361423 0.744540 0.391244
0.361662 0.744778 0.513894
0.361902 0.745018 0.636941
0.362142 0.745258 0.760308
0.362383 0.745499 0.883942
0.362592 0.745709 0.991632
0.363101 0.869580 0.030601
0.363334 0.869813 0.150177
0.363570 0.870050 0.271507
0.363808 0.870287 0.393628
0.364047 0.870526 0.516278
0.364286 0.870766 0.639326
0.364526 0.871006 0.762693
0.364767 0.871247 0.886327
0.364977 0.871457 0.994017
0.365470 0.994509 0.032970
0.365703 0.994742 0.152546
0.365939 0.994978 0.273876
0.366177 0.995216 0.395997
0.366416 0.995455 0.518647
0.366655 0.995695 0.641695
0.366896 0.995935 0.765062
0.367136 0.996176 0.888696
0.367346 0.996386 0.996386
0.469649 0.002707 0.014852
0.469881 0.002940 0.134428
0.470118 0.003176 0.255757
0.470356 0.003414 0.377879
0.470594 0.003653 0.500529
0.470834 0.003892 0.623576
0.471074 0.004133 0.746943
0.471315 0.004373 0.870578
0.471525 0.004583 0.978267
0.471906 0.121746 0.017109
0.472139 0.121979 0.136685
0.472375 0.122215 0.258015
0.472613 0.122453 0.380137
0.472852 0.122692 0.502786
0.473091 0.122932 0.625834
0.473332 0.123172 0.749201
0.473572 0.123413 0.872835
0.473782 0.123623 0.980525
0.474244 0.245047 0.019448
0.474477 0.245280 0.139023
0.474713 0.245516 0.260353
0.474951 0.245754 0.382475
0.475190 0.245993 0.505124
0.475430 0.246233 0.628172
0.475670 0.246473 0.751539
0.475911 0.246714 0.875173
0.476120 0.246924 0.982863
0.476599 0.369208 0.021802
0.476831 0.369441 0.141378
0.477068 0.369677 0.262707
0.477306 0.369915 0.384829
0.477544 0.370154 0.507479
0.477784 0.370393 0.630526
0.478024 0.370634 0.753893
0.478265 0.370874 0.877528
0.478475 0.371084 0.985217
0.478964 0.493928 0.024167
0.479197 0.494161 0.143743
0.479433 0.494397 0.265072
0.479671 0.494635 0.387194
0.479910 0.494874 0.509844
0.480149 0.495113 0.632891
0.480389 0.495354 0.756258
0.480630 0.495594 0.879893
0.480840 0.495804 0.987582
0.481337 0.619065 0.026540
0.481570 0.619298 0.146116
0.481806 0.619534 0.267445
0.482044 0.619772 0.389567
0.482283 0.620011 0.512217
0.482522 0.620251 0.635264
0.482762 0.620491 0.758631
0.483003 0.620732 0.882266
0.483213 0.620941 0.989955
0.483716 0.744535 0.028920
0.483949 0.744768 0.148495
0.484185 0.745004 0.269825
0.484423 0.745242 0.391947
0.484662 0.745481 0.514596
0.484901 0.745721 0.637644
0.485142 0.745961 0.761011
0.485383 0.746202 0.884645
0.485592 0.746412 0.992335
0.486101 0.870283 0.031304
0.486333 0.870516 0.150880
0.486570 0.870752 0.272209
0.486808 0.870990 0.394331
0.487046 0.871229 0.516981
0.487286 0.871469 0.640028
0.487526 0.871709 0.763395
0.487767 0.871950 0.887030
0.487977 0.872159 0.994719
0.488470 0.995212 0.033673
0.488702 0.995445 0.153249
0.488939 0.995681 0.274578
0.489177 0.995919 0.396700
0.489415 0.996158 0.519350
0.489655 0.996398 0.642397
0.489895 0.996638 0.765764
0.490136 0.996879 0.889399
0.490346 0.997088 0.997088
0.593073 0.003412 0.015557
0.593306 0.003645 0.135133
0.593542 0.003881 0.256462
0.593780 0.004119 0.378584
0.594019 0.004358 0.501234
0.594259 0.004597 0.624281
0.594499 0.004838 0.747648
0.594740 0.005078 0.871283
0.594949 0.005288 0.978972
0.595330 0.122451 0.017815
0.595563 0.122684 0.137390
0.595800 0.122921 0.258720
0.596037 0.123158 0.380842
0.596276 0.123397 0.503491
0.596516 0.123637 0.626539
0.596756 0.123877 0.749906
0.596997 0.124118 0.873540
0.597207 0.124328 0.981230
0.597669 0.245752 0.020153
0.597901 0.245985 0.139728
0.598138 0.246222 0.261058
0.598376 0.246459 0.383180
0.598614 0.246698 0.505830
0.598854 0.246938 0.628877
0.599094 0.247178 0.752244
0.599335 0.247419 0.875878
0.599545 0.247629 0.983568
0.600023 0.369913 0.022507
0.600256 0.370146 0.142083
0.600492 0.370382 0.263412
0.600730 0.370620 0.385534
0.600969 0.370859 0.508184
0.601209 0.371098 0.631231
0.601449 0.371339 0.754598
0.601690 0.371579 0.878233
0.601899 0.371789 0.985922
0.602388 0.494633 0.024872
0.602621 0.494866 0.144448
0.602857 0.495102 0.265778
0.603095 0.495340 0.387899
0.603334 0.495579 0.510549
0.603574 0.495818 0.633596
0.603814 0.496059 0.756963
0.604055 0.496300 0.880598
0.604264 0.496509 0.988287
0.604761 0.619770 0.027245
0.604994 0.620003 0.146821
0.605230 0.620239 0.268151
0.605468 0.620477 0.390272
0.605707 0.620716 0.512922
0.605947 0.620956 0.635969
0.606187 0.621196 0.759336
0.606428 0.621437 0.882971
0.606637 0.621646 0.990660
0.607140 0.745240 0.029625
0.607373 0.745473 0.149200
0.607610 0.745710 0.270530
0.607847 0.745947 0.392652
0.608086 0.746186 0.515301
0.608326 0.746426 0.638349
0.608566 0.746666 0.761716
0.608807 0.746907 0.885350
0.609017 0.747117 0.993040
0.609525 0.870988 0.032009
0.609758 0.871221 0.151585
0.609994 0.871457 0.272914
0.610232 0.871695 0.395036
0.610471 0.871934 0.517686
0.610711 0.872174 0.640733
0.610951 0.872414 0.764100
0.611192 0.872655 0.887735
0.611401 0.872864 0.995424
0.611894 0.995917 0.034378
0.612127 0.996150 0.153954
0.612363 0.996386 0.275284
0.612601 0.996624 0.397405
0.612840 0.996863 0.520055
0.613080 0.997103 0.643102
0.613320 0.997343 0.766469
0.613561 0.997584 0.890104
0.613770 0.997793 0.997793
0.716834 0.004119 0.016264
0.717067 0.004352 0.135840
0.717304 0.004588 0.257170
0.717541 0.004826 0.379291
0.717780 0.005065 0.501941
0.718020 0.005304 0.624988
0.718260 0.005545 0.748355
0.718501 0.005785 0.871990
0.718711 0.005995 0.979679
0.719092 0.123159 0.018522
0.719325 0.123391 0.138097
0.719561 0.123628 0.259427
0.719799 0.123866 0.381549
0.720038 0.124104 0.504198
0.720277 0.124344 0.627246
0.720518 0.124584 0.750613
0.720758 0.124825 0.874247
0.720968 0.125035 0.981937
0.721430 0.246459 0.020860
0.721663 0.246692 0.140435
0.721899 0.246929 0.261765
0.722137 0.247166 0.383887
0.722376 0.247405 0.506537
0.722616 0.247645 0.629584
0.722856 0.247885 0.752951
0.723097 0.248126 0.876585
0.723306 0.248336 0.984275
0.723785 0.370620 0.023214
0.724017 0.370853 0.142790
0.724254 0.371089 0.264120
0.724492 0.371327 0.386241
0.724730 0.371566 0.508891
0.724970 0.371805 0.631938
0.725210 0.372046 0.755305
0.725451 0.372287 0.878940
0.725661 0.372496 0.986629
0.726150 0.495340 0.025579
0.726382 0.495573 0.145155
0.726619 0.495809 0.266485
0.726857 0.496047 0.388606
0.727095 0.496286 0.511256
0.727335 0.496526 0.634304
0.727575 0.496766 0.757671
0.727816 0.497007 0.881305
0.728026 0.497216 0.988995
0.728523 0.620477 0.027952
0.728755 0.620710 0.147528
0.728992 0.620946 0.268858
0.729230 0.621184 0.390979
0.729468 0.621423 0.513629
0.729708 0.621663 0.636677
0.729948 0.621903 0.760044
0.730189 0.622144 0.883678
0.730399 0.622354 0.991368
0.730902 0.745947 0.030332
0.731135 0.746180 0.149907
0.731371 0.746417 0.271237
0.731609 0.746654 0.393359
0.731848 0.746893 0.516008
0.732087 0.747133 0.639056
0.732328 0.747373 0.762423
0.732568 0.747614 0.886057
0.732778 0.747824 0.993747
0.733286 0.871695 0.032716
0.733519 0.871928 0.152292
0.733756 0.872164 0.273622
0.733993 0.872402 0.395743
0.734232 0.872641 0.518393
0.734472 0.872881 0.641440
0.734712 0.873121 0.764807
0.734953 0.873362 0.888442
0.735163 0.873572 0.996131
0.735656 0.996624 0.035085
0.735888 0.996857 0.154661
0.736125 0.997093 0.275991
0.736363 0.997331 0.398112
0.736601 0.997570 0.520762
0.736841 0.997810 0.643809
0.737081 0.998050 0.767176
0.737322 0.998291 0.890811
0.737532 0.998500 0.998500
0.840875 0.004828 0.016973
0.841108 0.005060 0.136548
0.841345 0.005297 0.257878
0.841582 0.005535 0.380000
0.841821 0.005773 0.502650
0.842061 0.006013 0.625697
0.842301 0.006253 0.749064
0.842542 0.006494 0.872698
0.842752 0.006704 0.980388
0.843133 0.123867 0.019230
0.843366 0.124100 0.138806
0.843602 0.124336 0.260136
0.843840 0.124574 0.382257
0.844079 0.124813 0.504907
0.844318 0.125053 0.627954
0.844559 0.125293 0.751321
0.844799 0.125534 0.874956
0.845009 0.125743 0.982645
0.845471 0.247168 0.021568
0.845704 0.247401 0.141144
0.845940 0.247637 0.262474
0.846178 0.247875 0.384596
0.846417 0.248114 0.507245
0.846656 0.248354 0.630293
0.846897 0.248594 0.753660
0.847138 0.248835 0.877294
0.847347 0.249044 0.984984
0.847825 0.371329 0.023923
0.848058 0.371562 0.143498
0.848295 0.371798 0.264828
0.848532 0.372036 0.386950
0.848771 0.372275 0.509600
0.849011 0.372514 0.632647
0.849251 0.372754 0.756014
0.849492 0.372995 0.879648
0.849702 0.373205 0.987338
0.850191 0.496049 0.026288
0.850423 0.496282 0.145864
0.850660 0.496518 0.267193
0.850898 0.496756 0.389315
0.851136 0.496995 0.511965
0.851376 0.497234 0.635012
0.851616 0.497474 0.758379
0.851857 0.497715 0.882014
0.852067 0.497925 0.989703
0.852564 0.621186 0.028661
0.852796 0.621419 0.148237
0.853033 0.621655 0.269566
0.853271 0.621893 0.391688
0.853509 0.622132 0.514338
0.853749 0.622371 0.637385
0.853989 0.622612 0.760752
0.854230 0.622852 0.884387
0.854440 0.623062 0.992076
0.854943 0.746656 0.031040
0.855176 0.746889 0.150616
0.855412 0.747125 0.271946
0.855650 0.747363 0.394067
0.855889 0.747602 0.516717
0.856128 0.747842 0.639765
0.856369 0.748082 0.763132
0.856609 0.748323 0.886766
0.856819 0.748532 0.994456
0.857327 0.872404 0.033425
0.857560 0.872637 0.153000
0.857797 0.872873 0.274330
0.858034 0.873111 0.396452
0.858273 0.873350 0.519102
0.858513 0.873589 0.642149
0.858753 0.873830 0.765516
0.858994 0.874070 0.889150
0.859204 0.874280 0.996840
0.859696 0.997333 0.035794
0.859929 0.997566 0.155370
0.860166 0.997802 0.276699
0.860403 0.998040 0.398821
0.860642 0.998279 0.521471
0.860882 0.998518 0.644518
0.861122 0.998759 0.767885
0.861363 0.998999 0.891519
0.861573 0.999209 0.999209
0.965155 0.005538 0.017683
0.965388 0.005770 0.137258
0.965625 0.006007 0.258588
0.965862 0.006245 0.380710
0.966101 0.006483 0.503360
0.966341 0.006723 0.626407
0.966581 0.006963 0.749774
0.966822 0.007204 0.873408
0.967032 0.007414 0.981098
0.967413 0.124577 0.019940
0.967646 0.124810 0.139516
0.967882 0.125046 0.260846
0.968120 0.125284 0.382967
0.968359 0.125523 0.505617
0.968598 0.125763 0.628664
0.968838 0.126003 0.752031
0.969079 0.126244 0.875666
0.969289 0.126453 0.983355
0.969751 0.247878 0.022279
0.969984 0.248111 0.141854
0.970220 0.248347 0.263184
0.970458 0.248585 0.385306
0.970697 0.248824 0.507955
0.970936 0.249064 0.631003
0.971177 0.249304 0.754370
0.971417 0.249545 0.878004
0.971627 0.249754 0.985694
0.972105 0.372039 0.024633
0.972338 0.372272 0.144209
0.972575 0.372508 0.265538
0.972812 0.372746 0.387660
0.973051 0.372985 0.510310
0.973291 0.373224 0.633357
0.973531 0.373464 0.756724
0.973772 0.373705 0.880358
0.973982 0.373915 0.988048
0.974470 0.496759 0.026998
0.974703 0.496992 0.146574
0.974940 0.497228 0.267903
0.975177 0.497466 0.390025
0.975416 0.497705 0.512675
0.975656 0.497944 0.635722
0.975896 0.498185 0.759089
0.976137 0.498425 0.882724
0.976347 0.498635 0.990413
0.976843 0.621896 0.029371
0.977076 0.622129 0.148947
0.977313 0.622365 0.270276
0.977550 0.622603 0.392398
0.977789 0.622842 0.515048
0.978029 0.623081 0.638095
0.978269 0.623322 0.761462
0.978510 0.623562 0.885097
0.978720 0.623772 0.992786
0.979223 0.747366 0.031750
0.979456 0.747599 0.151326
0.979692 0.747835 0.272656
0.979930 0.748073 0.394777
0.980169 0.748312 0.517427
0.980408 0.748552 0.640475
0.980649 0.748792 0.763842
0.980889 0.749033 0.887476
0.981099 0.749242 0.995166
0.981607 0.873114 0.034135
0.981840 0.873347 0.153710
0.982077 0.873583 0.275040
0.982314 0.873821 0.397162
0.982553 0.874060 0.519812
0.982793 0.874299 0.642859
0.983033 0.874540 0.766226
0.983274 0.874781 0.889860
0.983484 0.874990 0.997550
0.983976 0.998043 0.036504
0.984209 0.998276 0.156080
0.984446 0.998512 0.277409
0.984683 0.998750 0.399531
0.984922 0.998989 0.522181
0.985162 0.999228 0.645228
0.985402 0.999469 0.768595
0.985643 0.999709 0.892230
0.985853 0.999919 0.999919
