skills/creativeops-director/assets/grade/luts/cool_tech_v14.cube
TITLE "cool_tech_v14"
LUT_3D_SIZE 17
DOMAIN_MIN 0.0 0.0 0.0
DOMAIN_MAX 1.0 1.0 1.0
0.000124 0.000124 0.026620
0.000390 0.000390 0.083538
0.000662 0.000662 0.141741
0.000938 0.000938 0.200682
0.001216 0.001216 0.260148
0.001495 0.001495 0.320023
0.001777 0.001777 0.380233
0.002059 0.002059 0.440728
0.002343 0.002343 0.501472
0.002628 0.002628 0.562434
0.002914 0.002914 0.623593
0.003200 0.003200 0.684930
0.003488 0.003488 0.746431
0.003776 0.003776 0.808083
0.004065 0.004065 0.869874
0.004354 0.004354 0.931796
0.004408 0.004408 0.943355
0.002118 0.044988 0.028613
0.002384 0.045254 0.085531
0.002656 0.045526 0.143735
0.002931 0.045801 0.202676
0.003209 0.046079 0.262142
0.003489 0.046359 0.322016
0.003770 0.046640 0.382227
0.004053 0.046923 0.442722
0.004337 0.047207 0.503465
0.004622 0.047491 0.564427
0.004907 0.047777 0.625586
0.005194 0.048064 0.686924
0.005481 0.048351 0.748425
0.005770 0.048639 0.810076
0.006058 0.048928 0.871868
0.006348 0.049217 0.933789
0.006402 0.049271 0.945349
0.004775 0.104779 0.031270
0.005041 0.105045 0.088188
0.005313 0.105316 0.146391
0.005588 0.105592 0.205333
0.005866 0.105870 0.264799
0.006146 0.106150 0.324673
0.006427 0.106431 0.384884
0.006710 0.106714 0.445379
0.006994 0.106997 0.506122
0.007279 0.107282 0.567084
0.007564 0.107568 0.628243
0.007851 0.107855 0.689581
0.008138 0.108142 0.751082
0.008426 0.108430 0.812733
0.008715 0.108719 0.874525
0.009005 0.109008 0.936446
0.009059 0.109062 0.948006
0.007481 0.165663 0.033976
0.007746 0.165929 0.090894
0.008018 0.166201 0.149097
0.008294 0.166476 0.208038
0.008572 0.166754 0.267504
0.008851 0.167034 0.327379
0.009133 0.167315 0.387589
0.009416 0.167598 0.448085
0.009699 0.167882 0.508828
0.009984 0.168167 0.569790
0.010270 0.168452 0.630949
0.010557 0.168739 0.692286
0.010844 0.169026 0.753787
0.011132 0.169314 0.815439
0.011421 0.169603 0.877230
0.011710 0.169892 0.939152
0.011764 0.169946 0.950711
0.010217 0.227233 0.036712
0.010483 0.227499 0.093630
0.010754 0.227771 0.151833
0.011030 0.228047 0.210774
0.011308 0.228325 0.270240
0.011588 0.228604 0.330115
0.011869 0.228886 0.390325
0.012152 0.229168 0.450821
0.012435 0.229452 0.511564
0.012720 0.229737 0.572526
0.013006 0.230023 0.633685
0.013293 0.230309 0.695023
0.013580 0.230597 0.756523
0.013868 0.230885 0.818175
0.014157 0.231174 0.879966
0.014446 0.231463 0.941888
0.014500 0.231517 0.953448
0.012975 0.289308 0.039470
0.013241 0.289574 0.096388
0.013513 0.289846 0.154592
0.013788 0.290122 0.213533
0.014066 0.290400 0.272999
0.014346 0.290679 0.332873
0.014627 0.290961 0.393084
0.014910 0.291243 0.453579
0.015194 0.291527 0.514322
0.015479 0.291812 0.575284
0.015764 0.292098 0.636443
0.016051 0.292385 0.697781
0.016338 0.292672 0.759282
0.016627 0.292960 0.820933
0.016915 0.293249 0.882725
0.017205 0.293538 0.944646
0.017259 0.293592 0.956206
0.015751 0.351784 0.042247
0.016017 0.352050 0.099164
0.016289 0.352322 0.157368
0.016565 0.352597 0.216309
0.016842 0.352875 0.275775
0.017122 0.353155 0.335650
0.017404 0.353436 0.395860
0.017686 0.353719 0.456355
0.017970 0.354003 0.517098
0.018255 0.354287 0.578061
0.018541 0.354573 0.639220
0.018827 0.354860 0.700557
0.019115 0.355147 0.762058
0.019403 0.355435 0.823710
0.019692 0.355724 0.885501
0.019981 0.356013 0.947423
0.020035 0.356067 0.958982
0.018542 0.414591 0.045038
0.018808 0.414857 0.101955
0.019080 0.415129 0.160159
0.019356 0.415405 0.219100
0.019633 0.415683 0.278566
0.019913 0.415962 0.338441
0.020195 0.416244 0.398651
0.020477 0.416526 0.459146
0.020761 0.416810 0.519889
0.021046 0.417095 0.580852
0.021332 0.417381 0.642011
0.021618 0.417667 0.703348
0.021906 0.417955 0.764849
0.022194 0.418243 0.826501
0.022483 0.418532 0.888292
0.022772 0.418821 0.950214
0.022826 0.418875 0.961773
0.021346 0.477683 0.047841
0.021612 0.477949 0.104759
0.021884 0.478221 0.162962
0.022159 0.478496 0.221904
0.022437 0.478774 0.281369
0.022717 0.479054 0.341244
0.022998 0.479335 0.401455
0.023281 0.479618 0.461950
0.023565 0.479902 0.522693
0.023850 0.480187 0.583655
0.024135 0.480473 0.644814
0.024422 0.480759 0.706152
0.024709 0.481047 0.767653
0.024997 0.481335 0.829304
0.025286 0.481623 0.891096
0.025576 0.481913 0.953017
0.025630 0.481967 0.964577
0.024161 0.541024 0.050656
0.024427 0.541289 0.107574
0.024699 0.541561 0.165777
0.024974 0.541837 0.224718
0.025252 0.542115 0.284184
0.025532 0.542395 0.344059
0.025813 0.542676 0.404269
0.026096 0.542959 0.464765
0.026379 0.543242 0.525508
0.026664 0.543527 0.586470
0.026950 0.543813 0.647629
0.027237 0.544100 0.708967
0.027524 0.544387 0.770467
0.027812 0.544675 0.832119
0.028101 0.544964 0.893910
0.028390 0.545253 0.955832
0.028444 0.545307 0.967392
0.026985 0.604585 0.053480
0.027251 0.604851 0.110398
0.027523 0.605123 0.168602
0.027798 0.605398 0.227543
0.028076 0.605676 0.287009
0.028356 0.605956 0.346883
0.028637 0.606237 0.407094
0.028920 0.606520 0.467589
0.029204 0.606804 0.528332
0.029489 0.607089 0.589295
0.029775 0.607374 0.650454
0.030061 0.607661 0.711791
0.030349 0.607948 0.773292
0.030637 0.608236 0.834943
0.030925 0.608525 0.896735
0.031215 0.608814 0.958656
0.031269 0.608869 0.970216
0.029818 0.668345 0.056314
0.030084 0.668611 0.113232
0.030356 0.668883 0.171435
0.030632 0.669159 0.230376
0.030910 0.669436 0.289842
0.031189 0.669716 0.349717
0.031471 0.669998 0.409927
0.031753 0.670280 0.470423
0.032037 0.670564 0.531166
0.032322 0.670849 0.592128
0.032608 0.671135 0.653287
0.032895 0.671421 0.714624
0.033182 0.671709 0.776125
0.033470 0.671997 0.837777
0.033759 0.672285 0.899568
0.034048 0.672575 0.961490
0.034102 0.672629 0.973049
0.032660 0.732287 0.059155
0.032926 0.732552 0.116073
0.033198 0.732824 0.174276
0.033473 0.733100 0.233217
0.033751 0.733378 0.292683
0.034031 0.733657 0.352558
0.034312 0.733939 0.412769
0.034595 0.734222 0.473264
0.034879 0.734505 0.534007
0.035164 0.734790 0.594969
0.035449 0.735076 0.656128
0.035736 0.735363 0.717466
0.036023 0.735650 0.778967
0.036311 0.735938 0.840618
0.036600 0.736227 0.902409
0.036889 0.736516 0.964331
0.036943 0.736570 0.975891
0.035509 0.796394 0.062004
0.035775 0.796660 0.118922
0.036047 0.796932 0.177125
0.036322 0.797207 0.236066
0.036600 0.797485 0.295532
0.036880 0.797765 0.355407
0.037161 0.798046 0.415617
0.037444 0.798329 0.476113
0.037727 0.798613 0.536856
0.038012 0.798898 0.597818
0.038298 0.799183 0.658977
0.038585 0.799470 0.720315
0.038872 0.799757 0.781815
0.039160 0.800045 0.843467
0.039449 0.800334 0.905258
0.039738 0.800623 0.967180
0.039792 0.800677 0.978740
0.038364 0.860655 0.064859
0.038630 0.860921 0.121777
0.038902 0.861193 0.179981
0.039178 0.861468 0.238922
0.039455 0.861746 0.298388
0.039735 0.862026 0.358263
0.040017 0.862307 0.418473
0.040299 0.862590 0.478968
0.040583 0.862873 0.539711
0.040868 0.863158 0.600674
0.041154 0.863444 0.661833
0.041440 0.863731 0.723170
0.041728 0.864018 0.784671
0.042016 0.864306 0.846323
0.042304 0.864595 0.908114
0.042594 0.864884 0.970035
0.042648 0.864938 0.981595
0.041226 0.925058 0.067721
0.041492 0.925324 0.124639
0.041764 0.925596 0.182843
0.042039 0.925871 0.241784
0.042317 0.926149 0.301250
0.042597 0.926429 0.361124
0.042878 0.926710 0.421335
0.043161 0.926993 0.481830
0.043445 0.927277 0.542573
0.043730 0.927562 0.603536
0.044016 0.927847 0.664695
0.044302 0.928134 0.726032
0.044590 0.928421 0.787533
0.044878 0.928710 0.849184
0.045166 0.928998 0.910976
0.045456 0.929288 0.972897
0.045510 0.929342 0.984457
0.043789 0.982737 0.070284
0.044055 0.983003 0.127202
0.044327 0.983275 0.185406
0.044603 0.983550 0.244347
0.044880 0.983828 0.303813
0.045160 0.984108 0.363688
0.045442 0.984389 0.423898
0.045724 0.984672 0.484393
0.046008 0.984955 0.545136
0.046293 0.985240 0.606099
0.046579 0.985526 0.667258
0.046865 0.985813 0.728595
0.047153 0.986100 0.790096
0.047441 0.986388 0.851748
0.047729 0.986677 0.913539
0.048019 0.986966 0.975461
0.048073 0.987020 0.987020
0.004099 0.000179 0.026674
0.004364 0.000445 0.083592
0.004636 0.000716 0.141795
0.004912 0.000992 0.200736
0.005190 0.001270 0.260202
0.005470 0.001550 0.320077
0.005751 0.001831 0.380287
0.006034 0.002114 0.440783
0.006317 0.002397 0.501526
0.006602 0.002682 0.562488
0.006888 0.002968 0.623647
0.007175 0.003255 0.684985
0.007462 0.003542 0.746485
0.007750 0.003830 0.808137
0.008039 0.004119 0.869928
0.008328 0.004408 0.931850
0.008382 0.004462 0.943410
0.006092 0.045042 0.028667
0.006358 0.045308 0.085585
0.006630 0.045580 0.143789
0.006905 0.045855 0.202730
0.007183 0.046133 0.262196
0.007463 0.046413 0.322071
0.007744 0.046694 0.382281
0.008027 0.046977 0.442776
0.008311 0.047261 0.503519
0.008596 0.047546 0.564482
0.008882 0.047831 0.625641
0.009168 0.048118 0.686978
0.009456 0.048405 0.748479
0.009744 0.048693 0.810131
0.010032 0.048982 0.871922
0.010322 0.049271 0.933843
0.010376 0.049325 0.945403
0.008749 0.104833 0.031324
0.009015 0.105099 0.088242
0.009287 0.105371 0.146446
0.009562 0.105646 0.205387
0.009840 0.105924 0.264853
0.010120 0.106204 0.324728
0.010401 0.106485 0.384938
0.010684 0.106768 0.445433
0.010968 0.107052 0.506176
0.011253 0.107336 0.567139
0.011539 0.107622 0.628298
0.011825 0.107909 0.689635
0.012113 0.108196 0.751136
0.012401 0.108484 0.812787
0.012689 0.108773 0.874579
0.012979 0.109062 0.936500
0.013033 0.109116 0.948060
0.011455 0.165717 0.034030
0.011721 0.165983 0.090948
0.011993 0.166255 0.149151
0.012268 0.166530 0.208092
0.012546 0.166808 0.267558
0.012826 0.167088 0.327433
0.013107 0.167369 0.387643
0.013390 0.167652 0.448139
0.013673 0.167936 0.508882
0.013958 0.168221 0.569844
0.014244 0.168506 0.631003
0.014531 0.168793 0.692341
0.014818 0.169080 0.753842
0.015106 0.169369 0.815493
0.015395 0.169657 0.877284
0.015684 0.169947 0.939206
0.015738 0.170001 0.950766
0.014191 0.227288 0.036766
0.014457 0.227554 0.093684
0.014729 0.227825 0.151887
0.015004 0.228101 0.210828
0.015282 0.228379 0.270294
0.015562 0.228659 0.330169
0.015843 0.228940 0.390379
0.016126 0.229223 0.450875
0.016410 0.229506 0.511618
0.016694 0.229791 0.572580
0.016980 0.230077 0.633739
0.017267 0.230364 0.695077
0.017554 0.230651 0.756578
0.017842 0.230939 0.818229
0.018131 0.231228 0.880020
0.018420 0.231517 0.941942
0.018474 0.231571 0.953502
0.016949 0.289363 0.039524
0.017215 0.289629 0.096442
0.017487 0.289901 0.154646
0.017762 0.290176 0.213587
0.018040 0.290454 0.273053
0.018320 0.290734 0.332928
0.018601 0.291015 0.393138
0.018884 0.291298 0.453633
0.019168 0.291581 0.514376
0.019453 0.291866 0.575339
0.019739 0.292152 0.636498
0.020025 0.292439 0.697835
0.020313 0.292726 0.759336
0.020601 0.293014 0.820988
0.020889 0.293303 0.882779
0.021179 0.293592 0.944700
0.021233 0.293646 0.956260
0.019725 0.351838 0.042301
0.019991 0.352104 0.099219
0.020263 0.352376 0.157422
0.020539 0.352651 0.216363
0.020817 0.352929 0.275829
0.021096 0.353209 0.335704
0.021378 0.353490 0.395914
0.021660 0.353773 0.456410
0.021944 0.354057 0.517153
0.022229 0.354342 0.578115
0.022515 0.354627 0.639274
0.022801 0.354914 0.700611
0.023089 0.355201 0.762112
0.023377 0.355489 0.823764
0.023666 0.355778 0.885555
0.023955 0.356068 0.947477
0.024009 0.356122 0.959036
0.022516 0.414646 0.045092
0.022782 0.414911 0.102010
0.023054 0.415183 0.160213
0.023330 0.415459 0.219154
0.023608 0.415737 0.278620
0.023887 0.416016 0.338495
0.024169 0.416298 0.398705
0.024451 0.416581 0.459201
0.024735 0.416864 0.519944
0.025020 0.417149 0.580906
0.025306 0.417435 0.642065
0.025592 0.417722 0.703402
0.025880 0.418009 0.764903
0.026168 0.418297 0.826555
0.026457 0.418586 0.888346
0.026746 0.418875 0.950268
0.026800 0.418929 0.961827
0.025320 0.477737 0.047895
0.025586 0.478003 0.104813
0.025858 0.478275 0.163017
0.026133 0.478551 0.221958
0.026411 0.478829 0.281424
0.026691 0.479108 0.341298
0.026972 0.479390 0.401509
0.027255 0.479672 0.462004
0.027539 0.479956 0.522747
0.027824 0.480241 0.583710
0.028110 0.480527 0.644869
0.028396 0.480813 0.706206
0.028684 0.481101 0.767707
0.028972 0.481389 0.829358
0.029260 0.481678 0.891150
0.029550 0.481967 0.953071
0.029604 0.482021 0.964631
0.028135 0.541078 0.050710
0.028401 0.541344 0.107628
0.028673 0.541616 0.165831
0.028948 0.541891 0.224772
0.029226 0.542169 0.284238
0.029506 0.542449 0.344113
0.029787 0.542730 0.404324
0.030070 0.543013 0.464819
0.030354 0.543297 0.525562
0.030638 0.543581 0.586524
0.030924 0.543867 0.647683
0.031211 0.544154 0.709021
0.031498 0.544441 0.770522
0.031786 0.544729 0.832173
0.032075 0.545018 0.893964
0.032364 0.545307 0.955886
0.032418 0.545361 0.967446
0.030959 0.604639 0.053535
0.031225 0.604905 0.110453
0.031497 0.605177 0.168656
0.031773 0.605452 0.227597
0.032050 0.605730 0.287063
0.032330 0.606010 0.346938
0.032612 0.606291 0.407148
0.032894 0.606574 0.467643
0.033178 0.606858 0.528386
0.033463 0.607143 0.589349
0.033749 0.607429 0.650508
0.034035 0.607715 0.711845
0.034323 0.608003 0.773346
0.034611 0.608291 0.834998
0.034900 0.608579 0.896789
0.035189 0.608869 0.958711
0.035243 0.608923 0.970270
0.033793 0.668399 0.056368
0.034059 0.668665 0.113286
0.034331 0.668937 0.171489
0.034606 0.669213 0.230430
0.034884 0.669491 0.289896
0.035164 0.669770 0.349771
0.035445 0.670052 0.409981
0.035728 0.670334 0.470477
0.036011 0.670618 0.531220
0.036296 0.670903 0.592182
0.036582 0.671189 0.653341
0.036869 0.671475 0.714679
0.037156 0.671763 0.776179
0.037444 0.672051 0.837831
0.037733 0.672340 0.899622
0.038022 0.672629 0.961544
0.038076 0.672683 0.973104
0.036634 0.732341 0.059209
0.036900 0.732607 0.116127
0.037172 0.732879 0.174331
0.037447 0.733154 0.233272
0.037725 0.733432 0.292738
0.038005 0.733712 0.352612
0.038286 0.733993 0.412823
0.038569 0.734276 0.473318
0.038853 0.734560 0.534061
0.039138 0.734844 0.595023
0.039423 0.735130 0.656182
0.039710 0.735417 0.717520
0.039997 0.735704 0.779021
0.040286 0.735992 0.840672
0.040574 0.736281 0.902464
0.040864 0.736570 0.964385
0.040918 0.736624 0.975945
0.039483 0.796448 0.062058
0.039749 0.796714 0.118976
0.040021 0.796986 0.177179
0.040296 0.797261 0.236120
0.040574 0.797539 0.295586
0.040854 0.797819 0.355461
0.041135 0.798100 0.415672
0.041418 0.798383 0.476167
0.041702 0.798667 0.536910
0.041986 0.798952 0.597872
0.042272 0.799238 0.659031
0.042559 0.799524 0.720369
0.042846 0.799812 0.781870
0.043134 0.800100 0.843521
0.043423 0.800388 0.905312
0.043712 0.800678 0.967234
0.043766 0.800732 0.978794
0.042338 0.860709 0.064914
0.042604 0.860975 0.121832
0.042876 0.861247 0.180035
0.043152 0.861522 0.238976
0.043430 0.861800 0.298442
0.043709 0.862080 0.358317
0.043991 0.862361 0.418527
0.044273 0.862644 0.479022
0.044557 0.862928 0.539766
0.044842 0.863213 0.600728
0.045128 0.863498 0.661887
0.045414 0.863785 0.723224
0.045702 0.864072 0.784725
0.045990 0.864360 0.846377
0.046279 0.864649 0.908168
0.046568 0.864938 0.970090
0.046622 0.864992 0.981649
0.045200 0.925112 0.067776
0.045466 0.925378 0.124694
0.045738 0.925650 0.182897
0.046014 0.925926 0.241838
0.046291 0.926203 0.301304
0.046571 0.926483 0.361179
0.046853 0.926765 0.421389
0.047135 0.927047 0.481884
0.047419 0.927331 0.542627
0.047704 0.927616 0.603590
0.047990 0.927902 0.664749
0.048276 0.928188 0.726086
0.048564 0.928476 0.787587
0.048852 0.928764 0.849239
0.049141 0.929052 0.911030
0.049430 0.929342 0.972952
0.049484 0.929396 0.984511
0.047763 0.982791 0.070339
0.048029 0.983057 0.127257
0.048301 0.983329 0.185460
0.048577 0.983604 0.244401
0.048855 0.983882 0.303867
0.049134 0.984162 0.363742
0.049416 0.984443 0.423952
0.049698 0.984726 0.484447
0.049982 0.985010 0.545191
0.050267 0.985294 0.606153
0.050553 0.985580 0.667312
0.050839 0.985867 0.728649
0.051127 0.986154 0.790150
0.051415 0.986442 0.851802
0.051704 0.986731 0.913593
0.051993 0.987020 0.975515
0.052047 0.987074 0.987074
0.060382 0.000946 0.027441
0.060648 0.001212 0.084359
0.060920 0.001484 0.142563
0.061196 0.001759 0.201504
0.061473 0.002037 0.260970
0.061753 0.002317 0.320844
0.062035 0.002598 0.381055
0.062317 0.002881 0.441550
0.062601 0.003165 0.502293
0.062886 0.003450 0.563255
0.063172 0.003735 0.624414
0.063458 0.004022 0.685752
0.063746 0.004309 0.747253
0.064034 0.004598 0.808904
0.064323 0.004886 0.870696
0.064612 0.005176 0.932617
0.064666 0.005230 0.944177
0.062376 0.045809 0.029435
0.062642 0.046075 0.086353
0.062914 0.046347 0.144556
0.063189 0.046623 0.203497
0.063467 0.046901 0.262963
0.063747 0.047180 0.322838
0.064028 0.047462 0.383048
0.064311 0.047744 0.443544
0.064595 0.048028 0.504287
0.064880 0.048313 0.565249
0.065165 0.048599 0.626408
0.065452 0.048885 0.687746
0.065739 0.049173 0.749246
0.066027 0.049461 0.810898
0.066316 0.049750 0.872689
0.066605 0.050039 0.934611
0.066659 0.050093 0.946171
0.065033 0.105600 0.032092
0.065299 0.105866 0.089010
0.065571 0.106138 0.147213
0.065846 0.106414 0.206154
0.066124 0.106691 0.265620
0.066404 0.106971 0.325495
0.066685 0.107253 0.385705
0.066968 0.107535 0.446201
0.067252 0.107819 0.506944
0.067537 0.108104 0.567906
0.067822 0.108390 0.629065
0.068109 0.108676 0.690403
0.068396 0.108964 0.751903
0.068684 0.109252 0.813555
0.068973 0.109540 0.875346
0.069262 0.109830 0.937268
0.069316 0.109884 0.948828
0.067738 0.166484 0.034797
0.068004 0.166750 0.091715
0.068276 0.167022 0.149919
0.068552 0.167298 0.208860
0.068830 0.167576 0.268326
0.069109 0.167855 0.328200
0.069391 0.168137 0.388411
0.069673 0.168419 0.448906
0.069957 0.168703 0.509649
0.070242 0.168988 0.570612
0.070528 0.169274 0.631771
0.070814 0.169561 0.693108
0.071102 0.169848 0.754609
0.071390 0.170136 0.816260
0.071679 0.170425 0.878052
0.071968 0.170714 0.939973
0.072022 0.170768 0.951533
0.070474 0.228055 0.037533
0.070740 0.228321 0.094451
0.071012 0.228593 0.152655
0.071288 0.228868 0.211596
0.071566 0.229146 0.271062
0.071845 0.229426 0.330937
0.072127 0.229707 0.391147
0.072409 0.229990 0.451642
0.072693 0.230274 0.512385
0.072978 0.230559 0.573348
0.073264 0.230844 0.634507
0.073550 0.231131 0.695844
0.073838 0.231418 0.757345
0.074126 0.231707 0.818997
0.074415 0.231995 0.880788
0.074704 0.232285 0.942709
0.074758 0.232339 0.954269
0.073233 0.290130 0.040292
0.073499 0.290396 0.097210
0.073771 0.290668 0.155413
0.074046 0.290943 0.214354
0.074324 0.291221 0.273820
0.074604 0.291501 0.333695
0.074885 0.291782 0.393905
0.075168 0.292065 0.454401
0.075452 0.292349 0.515144
0.075737 0.292634 0.576106
0.076022 0.292920 0.637265
0.076309 0.293206 0.698603
0.076596 0.293494 0.760103
0.076884 0.293782 0.821755
0.077173 0.294070 0.883546
0.077462 0.294360 0.945468
0.077516 0.294414 0.957028
0.076009 0.352605 0.043068
0.076275 0.352871 0.099986
0.076547 0.353143 0.158189
0.076822 0.353419 0.217131
0.077100 0.353697 0.276596
0.077380 0.353976 0.336471
0.077661 0.354258 0.396682
0.077944 0.354540 0.457177
0.078228 0.354824 0.517920
0.078513 0.355109 0.578882
0.078799 0.355395 0.640041
0.079085 0.355681 0.701379
0.079373 0.355969 0.762880
0.079661 0.356257 0.824531
0.079949 0.356546 0.886322
0.080239 0.356835 0.948244
0.080293 0.356889 0.959804
0.078800 0.415413 0.045859
0.079066 0.415679 0.102777
0.079338 0.415951 0.160980
0.079613 0.416226 0.219922
0.079891 0.416504 0.279387
0.080171 0.416784 0.339262
0.080452 0.417065 0.399473
0.080735 0.417348 0.459968
0.081019 0.417632 0.520711
0.081304 0.417917 0.581673
0.081590 0.418202 0.642832
0.081876 0.418489 0.704170
0.082164 0.418776 0.765671
0.082452 0.419064 0.827322
0.082740 0.419353 0.889113
0.083030 0.419643 0.951035
0.083084 0.419697 0.962595
0.081604 0.478505 0.048663
0.081870 0.478771 0.105581
0.082142 0.479043 0.163784
0.082417 0.479318 0.222725
0.082695 0.479596 0.282191
0.082975 0.479876 0.342066
0.083256 0.480157 0.402276
0.083539 0.480440 0.462772
0.083823 0.480724 0.523515
0.084107 0.481008 0.584477
0.084393 0.481294 0.645636
0.084680 0.481581 0.706974
0.084967 0.481868 0.768474
0.085255 0.482156 0.830126
0.085544 0.482445 0.891917
0.085833 0.482734 0.953839
0.085887 0.482788 0.965399
0.084418 0.541845 0.051477
0.084684 0.542111 0.108395
0.084956 0.542383 0.166599
0.085232 0.542659 0.225540
0.085510 0.542936 0.285006
0.085789 0.543216 0.344881
0.086071 0.543497 0.405091
0.086353 0.543780 0.465586
0.086637 0.544064 0.526329
0.086922 0.544349 0.587292
0.087208 0.544635 0.648451
0.087495 0.544921 0.709788
0.087782 0.545209 0.771289
0.088070 0.545497 0.832941
0.088359 0.545785 0.894732
0.088648 0.546075 0.956654
0.088702 0.546129 0.968213
0.087243 0.605407 0.054302
0.087509 0.605672 0.111220
0.087781 0.605944 0.169423
0.088056 0.606220 0.228364
0.088334 0.606498 0.287830
0.088614 0.606777 0.347705
0.088895 0.607059 0.407916
0.089178 0.607342 0.468411
0.089462 0.607625 0.529154
0.089747 0.607910 0.590116
0.090032 0.608196 0.651275
0.090319 0.608483 0.712613
0.090606 0.608770 0.774114
0.090894 0.609058 0.835765
0.091183 0.609347 0.897556
0.091473 0.609636 0.959478
0.091527 0.609690 0.971038
0.090076 0.669167 0.057135
0.090342 0.669433 0.114053
0.090614 0.669705 0.172257
0.090890 0.669980 0.231198
0.091168 0.670258 0.290664
0.091447 0.670538 0.350538
0.091729 0.670819 0.410749
0.092011 0.671102 0.471244
0.092295 0.671386 0.531987
0.092580 0.671671 0.592950
0.092866 0.671956 0.654109
0.093152 0.672243 0.715446
0.093440 0.672530 0.776947
0.093728 0.672818 0.838598
0.094017 0.673107 0.900390
0.094306 0.673396 0.962311
0.094360 0.673450 0.973871
0.092918 0.733108 0.059977
0.093184 0.733374 0.116895
0.093456 0.733646 0.175098
0.093731 0.733921 0.234039
0.094009 0.734199 0.293505
0.094289 0.734479 0.353380
0.094570 0.734760 0.413590
0.094853 0.735043 0.474086
0.095137 0.735327 0.534829
0.095421 0.735612 0.595791
0.095707 0.735898 0.656950
0.095994 0.736184 0.718287
0.096281 0.736472 0.779788
0.096569 0.736760 0.841440
0.096858 0.737048 0.903231
0.097147 0.737338 0.965153
0.097201 0.737392 0.976712
0.095766 0.797216 0.062826
0.096032 0.797481 0.119743
0.096304 0.797753 0.177947
0.096580 0.798029 0.236888
0.096858 0.798307 0.296354
0.097137 0.798586 0.356229
0.097419 0.798868 0.416439
0.097701 0.799150 0.476934
0.097985 0.799434 0.537677
0.098270 0.799719 0.598640
0.098556 0.800005 0.659799
0.098843 0.800292 0.721136
0.099130 0.800579 0.782637
0.099418 0.800867 0.844289
0.099707 0.801156 0.906080
0.099996 0.801445 0.968002
0.100050 0.801499 0.979561
0.098622 0.861476 0.065681
0.098888 0.861742 0.122599
0.099160 0.862014 0.180802
0.099435 0.862290 0.239743
0.099713 0.862567 0.299209
0.099993 0.862847 0.359084
0.100274 0.863129 0.419295
0.100557 0.863411 0.479790
0.100841 0.863695 0.540533
0.101126 0.863980 0.601495
0.101412 0.864266 0.662654
0.101698 0.864552 0.723992
0.101986 0.864840 0.785493
0.102274 0.865128 0.847144
0.102562 0.865417 0.908935
0.102852 0.865706 0.970857
0.102906 0.865760 0.982417
0.101484 0.925880 0.068543
0.101750 0.926146 0.125461
0.102022 0.926418 0.183664
0.102297 0.926693 0.242605
0.102575 0.926971 0.302071
0.102855 0.927251 0.361946
0.103136 0.927532 0.422157
0.103419 0.927815 0.482652
0.103703 0.928098 0.543395
0.103988 0.928383 0.604357
0.104273 0.928669 0.665516
0.104560 0.928956 0.726854
0.104847 0.929243 0.788355
0.105136 0.929531 0.850006
0.105424 0.929820 0.911797
0.105714 0.930109 0.973719
0.105768 0.930163 0.985279
0.104047 0.983558 0.071106
0.104313 0.983824 0.128024
0.104585 0.984096 0.186227
0.104860 0.984372 0.245169
0.105138 0.984649 0.304634
0.105418 0.984929 0.364509
0.105699 0.985211 0.424720
0.105982 0.985493 0.485215
0.106266 0.985777 0.545958
0.106551 0.986062 0.606920
0.106837 0.986348 0.668079
0.107123 0.986634 0.729417
0.107411 0.986922 0.790918
0.107699 0.987210 0.852569
0.107987 0.987498 0.914360
0.108277 0.987788 0.976282
0.108331 0.987842 0.987842
0.118686 0.001741 0.028236
0.118952 0.002007 0.085154
0.119224 0.002279 0.143358
0.119499 0.002554 0.202299
0.119777 0.002832 0.261765
0.120057 0.003112 0.321639
0.120338 0.003393 0.381850
0.120621 0.003676 0.442345
0.120905 0.003960 0.503088
0.121190 0.004245 0.564050
0.121475 0.004530 0.625209
0.121762 0.004817 0.686547
0.122049 0.005104 0.748048
0.122337 0.005393 0.809699
0.122626 0.005681 0.871491
0.122916 0.005971 0.933412
0.122970 0.006025 0.944972
0.120680 0.046604 0.030230
