skills/creativeops-director/assets/grade/luts/cool_tech_v14.cube
TITLE "cool_tech_v14"
LUT_3D_SIZE 5
DOMAIN_MIN 0.0 0.0 0.0
DOMAIN_MAX 1.0 1.0 1.0
0.000124 0.000124 0.026620
0.001216 0.001216 0.260148
0.002343 0.002343 0.501472
0.003488 0.003488 0.746431
0.004408 0.004408 0.943355
0.010217 0.227233 0.036712
0.011308 0.228325 0.270240
0.012435 0.229452 0.511564
0.013580 0.230597 0.756523
0.014500 0.231517 0.953448
0.021346 0.477683 0.047841
0.022437 0.478774 0.281369
0.023565 0.479902 0.522693
0.024709 0.481047 0.767653
0.025630 0.481967 0.964577
0.032660 0.732287 0.059155
0.033751 0.733378 0.292683
0.034879 0.734505 0.534007
0.036023 0.735650 0.778967
0.036943 0.736570 0.975891
0.043789 0.982737 0.070284
0.044880 0.983828 0.303813
0.046008 0.984955 0.545136
0.047153 0.986100 0.790096
0.048073 0.987020 0.987020
0.177889 0.002548 0.029044
0.178981 0.003639 0.262572
0.180108 0.004767 0.503895
0.181253 0.005912 0.748855
0.182173 0.006832 0.945779
0.187982 0.229657 0.039136
0.189073 0.230748 0.272664
0.190200 0.231876 0.513988
0.191345 0.233021 0.758947
0.192265 0.233941 0.955871
0.199111 0.480107 0.050265
0.200202 0.481198 0.283793
0.201330 0.482326 0.525117
0.202474 0.483470 0.770077
0.203395 0.484391 0.967001
0.210425 0.734710 0.061579
0.211516 0.735802 0.295107
0.212644 0.736929 0.536431
0.213788 0.738074 0.781391
0.214708 0.738994 0.978315
0.221554 0.985160 0.072708
0.222645 0.986252 0.306237
0.223773 0.987379 0.547560
0.224918 0.988524 0.792520
0.225838 0.989444 0.989444
0.419508 0.005843 0.032338
0.420599 0.006934 0.265866
0.421726 0.008062 0.507190
0.422871 0.009206 0.752150
0.423791 0.010126 0.949074
0.429600 0.232952 0.042430
0.430691 0.234043 0.275959
0.431819 0.235171 0.517282
0.432963 0.236315 0.762242
0.433883 0.237235 0.959166
0.440729 0.483402 0.053560
0.441820 0.484493 0.287088
0.442948 0.485620 0.528411
0.444093 0.486765 0.773371
0.445013 0.487685 0.970295
0.452043 0.738005 0.064874
0.453134 0.739096 0.298402
0.454262 0.740224 0.539725
0.455407 0.741368 0.784685
0.456327 0.742289 0.981609
0.463173 0.988455 0.076003
0.464264 0.989546 0.309531
0.465391 0.990674 0.550855
0.466536 0.991818 0.795814
0.467456 0.992739 0.992739
0.665587 0.009198 0.035693
0.666679 0.010289 0.269222
0.667806 0.011417 0.510545
0.668951 0.012562 0.755505
0.669871 0.013482 0.952429
0.675680 0.236307 0.045786
0.676771 0.237398 0.279314
0.677898 0.238526 0.520637
0.679043 0.239671 0.765597
0.679963 0.240591 0.962521
0.686809 0.486757 0.056915
0.687900 0.487848 0.290443
0.689028 0.488976 0.531767
0.690172 0.490120 0.776727
0.691093 0.491041 0.973651
0.698123 0.741360 0.068229
0.699214 0.742451 0.301757
0.700342 0.743579 0.543081
0.701486 0.744724 0.788040
0.702407 0.745644 0.984965
0.709252 0.991810 0.079358
0.710344 0.992902 0.312887
0.711471 0.994029 0.554210
0.712616 0.995174 0.799170
0.713536 0.996094 0.996094
0.914457 0.012592 0.039087
0.915548 0.013683 0.272615
0.916676 0.014810 0.513939
0.917820 0.015955 0.758898
0.918740 0.016875 0.955823
0.924549 0.239701 0.049179
0.925640 0.240792 0.282707
0.926768 0.241919 0.524031
0.927912 0.243064 0.768991
0.928833 0.243984 0.965915
0.935678 0.490150 0.060308
0.936770 0.491242 0.293837
0.937897 0.492369 0.535160
0.939042 0.493514 0.780120
0.939962 0.494434 0.977044
0.946992 0.744754 0.071622
0.948083 0.745845 0.305151
0.949211 0.746973 0.546474
0.950356 0.748117 0.791434
0.951276 0.749037 0.988358
0.958122 0.995204 0.082752
0.959213 0.996295 0.316280
0.960341 0.997423 0.557604
0.961485 0.998567 0.802563
0.962405 0.999487 0.999487
