skills/creativeops-director/assets/grade/luts/cool_tech_v09.cube
TITLE "cool_tech_v09"
LUT_3D_SIZE 17
DOMAIN_MIN 0.0 0.0 0.0
DOMAIN_MAX 1.0 1.0 1.0
0.000069 0.000069 0.020229
0.000267 0.000267 0.078204
0.000468 0.000468 0.137264
0.000672 0.000672 0.196910
0.000877 0.000877 0.256965
0.001083 0.001083 0.317334
0.001289 0.001289 0.377961
0.001497 0.001497 0.438805
0.001705 0.001705 0.499836
0.001914 0.001914 0.561033
0.002123 0.002123 0.622379
0.002333 0.002333 0.683858
0.002543 0.002543 0.745461
0.002753 0.002753 0.807177
0.002964 0.002964 0.868997
0.003176 0.003176 0.930915
0.003268 0.003268 0.958005
0.001731 0.050761 0.021891
0.001929 0.050959 0.079867
0.002131 0.051160 0.138926
0.002334 0.051364 0.198572
0.002539 0.051569 0.258627
0.002745 0.051775 0.318997
0.002952 0.051982 0.379623
0.003159 0.052189 0.440467
0.003368 0.052397 0.501498
0.003576 0.052606 0.562696
0.003786 0.052815 0.624041
0.003995 0.053025 0.685521
0.004205 0.053235 0.747123
0.004416 0.053446 0.808839
0.004627 0.053657 0.870659
0.004838 0.053868 0.932577
0.004930 0.053960 0.959667
0.003713 0.111175 0.023872
0.003910 0.111372 0.081848
0.004112 0.111574 0.140907
0.004315 0.111777 0.200553
0.004520 0.111982 0.260608
0.004726 0.112188 0.320978
0.004933 0.112395 0.381605
0.005141 0.112603 0.442448
0.005349 0.112811 0.503480
0.005558 0.113020 0.564677
0.005767 0.113229 0.626022
0.005977 0.113439 0.687502
0.006187 0.113649 0.749105
0.006397 0.113859 0.810820
0.006608 0.114070 0.872641
0.006819 0.114281 0.934558
0.006912 0.114374 0.961649
0.005719 0.172365 0.025879
0.005917 0.172563 0.083855
0.006119 0.172764 0.142914
0.006322 0.172968 0.202560
0.006527 0.173173 0.262615
0.006733 0.173378 0.322985
0.006940 0.173585 0.383611
0.007147 0.173793 0.444455
0.007356 0.174001 0.505486
0.007564 0.174210 0.566684
0.007774 0.174419 0.628029
0.007983 0.174629 0.689509
0.008193 0.174839 0.751111
0.008404 0.175049 0.812827
0.008615 0.175260 0.874647
0.008826 0.175472 0.936565
0.008918 0.175564 0.963655
0.007742 0.234051 0.027902
0.007940 0.234248 0.085878
0.008142 0.234450 0.144937
0.008345 0.234653 0.204583
0.008550 0.234858 0.264638
0.008756 0.235064 0.325008
0.008963 0.235271 0.385634
0.009170 0.235478 0.446478
0.009378 0.235687 0.507509
0.009587 0.235895 0.568706
0.009797 0.236105 0.630052
0.010006 0.236314 0.691532
0.010216 0.236524 0.753134
0.010427 0.236735 0.814850
0.010638 0.236946 0.876670
0.010849 0.237157 0.938588
0.010941 0.237250 0.965678
0.009777 0.296102 0.029937
0.009975 0.296300 0.087913
0.010177 0.296502 0.146972
0.010380 0.296705 0.206618
0.010585 0.296910 0.266673
0.010791 0.297116 0.327043
0.010998 0.297323 0.387669
0.011205 0.297530 0.448513
0.011413 0.297738 0.509544
0.011622 0.297947 0.570741
0.011831 0.298156 0.632087
0.012041 0.298366 0.693567
0.012251 0.298576 0.755169
0.012462 0.298787 0.816885
0.012673 0.298998 0.878705
0.012884 0.299209 0.940623
0.012976 0.299301 0.967713
0.011822 0.358445 0.031982
0.012020 0.358643 0.089957
0.012221 0.358845 0.149017
0.012425 0.359048 0.208663
0.012630 0.359253 0.268717
0.012835 0.359459 0.329087
0.013042 0.359666 0.389714
0.013250 0.359873 0.450557
0.013458 0.360081 0.511589
0.013667 0.360290 0.572786
0.013876 0.360499 0.634132
0.014086 0.360709 0.695611
0.014296 0.360919 0.757214
0.014506 0.361130 0.818929
0.014717 0.361341 0.880750
0.014929 0.361552 0.942668
0.015021 0.361644 0.969758
0.013874 0.421031 0.034034
0.014072 0.421228 0.092010
0.014274 0.421430 0.151069
0.014477 0.421633 0.210715
0.014682 0.421838 0.270770
0.014888 0.422044 0.331140
0.015095 0.422251 0.391766
0.015302 0.422458 0.452610
0.015510 0.422667 0.513641
0.015719 0.422875 0.574838
0.015929 0.423085 0.636184
0.016138 0.423294 0.697664
0.016348 0.423505 0.759266
0.016559 0.423715 0.820982
0.016770 0.423926 0.882802
0.016981 0.424137 0.944720
0.017073 0.424230 0.971810
0.015934 0.483823 0.036093
0.016131 0.484021 0.094069
0.016333 0.484222 0.153128
0.016536 0.484426 0.212774
0.016741 0.484631 0.272829
0.016947 0.484837 0.333199
0.017154 0.485043 0.393826
0.017362 0.485251 0.454669
0.017570 0.485459 0.515701
0.017779 0.485668 0.576898
0.017988 0.485877 0.638243
0.018198 0.486087 0.699723
0.018408 0.486297 0.761326
0.018618 0.486508 0.823041
0.018829 0.486719 0.884862
0.019040 0.486930 0.946779
0.019133 0.487022 0.973870
0.017999 0.546797 0.038159
0.018197 0.546995 0.096134
0.018398 0.547196 0.155194
0.018602 0.547400 0.214840
0.018807 0.547605 0.274894
0.019012 0.547811 0.335264
0.019219 0.548017 0.395891
0.019427 0.548225 0.456734
0.019635 0.548433 0.517766
0.019844 0.548642 0.578963
0.020053 0.548851 0.640309
0.020263 0.549061 0.701788
0.020473 0.549271 0.763391
0.020683 0.549482 0.825106
0.020894 0.549692 0.886927
0.021106 0.549904 0.948845
0.021198 0.549996 0.975935
0.020069 0.609932 0.040229
0.020267 0.610130 0.098205
0.020469 0.610332 0.157264
0.020672 0.610535 0.216910
0.020877 0.610740 0.276965
0.021083 0.610946 0.337335
0.021290 0.611153 0.397961
0.021497 0.611360 0.458805
0.021706 0.611568 0.519836
0.021914 0.611777 0.581034
0.022124 0.611986 0.642379
0.022333 0.612196 0.703859
0.022543 0.612406 0.765461
0.022754 0.612617 0.827177
0.022965 0.612828 0.888997
0.023176 0.613039 0.950915
0.023268 0.613131 0.978005
0.022145 0.673213 0.042304
0.022343 0.673411 0.100280
0.022544 0.673612 0.159340
0.022747 0.673816 0.218985
0.022952 0.674020 0.279040
0.023158 0.674226 0.339410
0.023365 0.674433 0.400037
0.023573 0.674641 0.460880
0.023781 0.674849 0.521912
0.023990 0.675058 0.583109
0.024199 0.675267 0.644454
0.024409 0.675477 0.705934
0.024619 0.675687 0.767537
0.024829 0.675897 0.829252
0.025040 0.676108 0.891073
0.025251 0.676319 0.952990
0.025344 0.676412 0.980081
0.024224 0.736625 0.044384
0.024422 0.736823 0.102360
0.024624 0.737025 0.161419
0.024827 0.737228 0.221065
0.025032 0.737433 0.281120
0.025238 0.737639 0.341490
0.025445 0.737846 0.402116
0.025652 0.738053 0.462960
0.025860 0.738261 0.523991
0.026069 0.738470 0.585188
0.026278 0.738679 0.646534
0.026488 0.738889 0.708014
0.026698 0.739099 0.769616
0.026909 0.739310 0.831332
0.027120 0.739521 0.893152
0.027331 0.739732 0.955070
0.027423 0.739824 0.982160
0.026308 0.800159 0.046468
0.026506 0.800357 0.104443
0.026707 0.800558 0.163503
0.026911 0.800762 0.223149
0.027116 0.800967 0.283203
0.027321 0.801173 0.343573
0.027528 0.801380 0.404200
0.027736 0.801587 0.465043
0.027944 0.801795 0.526075
0.028153 0.802004 0.587272
0.028362 0.802213 0.648618
0.028572 0.802423 0.710097
0.028782 0.802633 0.771700
0.028992 0.802844 0.833415
0.029203 0.803055 0.895236
0.029415 0.803266 0.957154
0.029507 0.803358 0.984244
0.028395 0.863805 0.048555
0.028593 0.864003 0.106530
0.028794 0.864204 0.165590
0.028998 0.864408 0.225236
0.029203 0.864613 0.285291
0.029409 0.864818 0.345661
0.029616 0.865025 0.406287
0.029823 0.865233 0.467131
0.030031 0.865441 0.528162
0.030240 0.865650 0.589359
0.030449 0.865859 0.650705
0.030659 0.866069 0.712185
0.030869 0.866279 0.773787
0.031080 0.866489 0.835503
0.031291 0.866700 0.897323
0.031502 0.866912 0.959241
0.031594 0.867004 0.986331
0.030486 0.927555 0.050645
0.030684 0.927753 0.108621
0.030885 0.927954 0.167681
0.031089 0.928157 0.227327
0.031293 0.928362 0.287381
0.031499 0.928568 0.347751
0.031706 0.928775 0.408378
0.031914 0.928983 0.469221
0.032122 0.929191 0.530253
0.032331 0.929400 0.591450
0.032540 0.929609 0.652795
0.032750 0.929819 0.714275
0.032960 0.930029 0.775878
0.033170 0.930239 0.837593
0.033381 0.930450 0.899414
0.033592 0.930661 0.961332
0.033685 0.930754 0.988422
0.032441 0.987178 0.052601
0.032639 0.987376 0.110576
0.032840 0.987577 0.169636
0.033044 0.987781 0.229282
0.033249 0.987986 0.289337
0.033455 0.988192 0.349707
0.033662 0.988398 0.410333
0.033869 0.988606 0.471177
0.034077 0.988814 0.532208
0.034286 0.989023 0.593405
0.034495 0.989232 0.654751
0.034705 0.989442 0.716231
0.034915 0.989652 0.777833
0.035126 0.989863 0.839549
0.035337 0.990073 0.901369
0.035548 0.990285 0.963287
0.035640 0.990377 0.990377
0.020794 0.000276 0.020435
0.020992 0.000474 0.078411
0.021193 0.000675 0.137471
0.021396 0.000879 0.197117
0.021601 0.001083 0.257171
0.021807 0.001289 0.317541
0.022014 0.001496 0.378168
0.022222 0.001704 0.439011
0.022430 0.001912 0.500043
0.022639 0.002121 0.561240
0.022848 0.002330 0.622585
0.023058 0.002540 0.684065
0.023268 0.002750 0.745668
0.023478 0.002960 0.807383
0.023689 0.003171 0.869204
0.023900 0.003382 0.931121
0.023993 0.003475 0.958212
0.022456 0.050968 0.022098
0.022654 0.051166 0.080073
0.022855 0.051367 0.139133
0.023059 0.051571 0.198779
0.023264 0.051776 0.258834
0.023470 0.051982 0.319204
0.023677 0.052188 0.379830
0.023884 0.052396 0.440674
0.024092 0.052604 0.501705
0.024301 0.052813 0.562902
0.024510 0.053022 0.624248
0.024720 0.053232 0.685728
0.024930 0.053442 0.747330
0.025141 0.053652 0.809046
0.025352 0.053863 0.870866
0.025563 0.054075 0.932784
0.025655 0.054167 0.959874
0.024437 0.111381 0.024079
0.024635 0.111579 0.082055
0.024837 0.111781 0.141114
0.025040 0.111984 0.200760
0.025245 0.112189 0.260815
0.025451 0.112395 0.321185
0.025658 0.112602 0.381812
0.025865 0.112809 0.442655
0.026074 0.113018 0.503686
0.026282 0.113226 0.564884
0.026492 0.113436 0.626229
0.026701 0.113645 0.687709
0.026911 0.113855 0.749312
0.027122 0.114066 0.811027
0.027333 0.114277 0.872847
0.027544 0.114488 0.934765
0.027636 0.114580 0.961855
0.026444 0.172572 0.026086
0.026642 0.172770 0.084061
0.026843 0.172971 0.143121
0.027047 0.173174 0.202767
0.027252 0.173379 0.262822
0.027458 0.173585 0.323192
0.027665 0.173792 0.383818
0.027872 0.174000 0.444662
0.028080 0.174208 0.505693
0.028289 0.174417 0.566890
0.028498 0.174626 0.628236
0.028708 0.174836 0.689716
0.028918 0.175046 0.751318
0.029129 0.175256 0.813034
0.029340 0.175467 0.874854
0.029551 0.175678 0.936772
0.029643 0.175771 0.963862
0.028467 0.234257 0.028109
0.028665 0.234455 0.086084
0.028866 0.234657 0.145144
0.029070 0.234860 0.204790
0.029275 0.235065 0.264845
0.029481 0.235271 0.325215
0.029688 0.235478 0.385841
0.029895 0.235685 0.446685
0.030103 0.235893 0.507716
0.030312 0.236102 0.568913
0.030521 0.236311 0.630259
0.030731 0.236521 0.691739
0.030941 0.236731 0.753341
0.031152 0.236942 0.815057
0.031363 0.237153 0.876877
0.031574 0.237364 0.938795
0.031666 0.237456 0.965885
0.030502 0.296309 0.030144
0.030700 0.296507 0.088119
0.030901 0.296708 0.147179
0.031105 0.296912 0.206825
0.031310 0.297117 0.266880
0.031516 0.297323 0.327250
0.031723 0.297529 0.387876
0.031930 0.297737 0.448720
0.032138 0.297945 0.509751
0.032347 0.298154 0.570948
0.032556 0.298363 0.632294
0.032766 0.298573 0.693774
0.032976 0.298783 0.755376
0.033187 0.298994 0.817092
0.033398 0.299204 0.878912
0.033609 0.299416 0.940830
0.033701 0.299508 0.967920
0.032547 0.358652 0.032188
0.032744 0.358850 0.090164
0.032946 0.359051 0.149224
0.033149 0.359255 0.208870
0.033354 0.359460 0.268924
0.033560 0.359666 0.329294
0.033767 0.359872 0.389921
0.033975 0.360080 0.450764
0.034183 0.360288 0.511796
0.034392 0.360497 0.572993
0.034601 0.360706 0.634338
0.034811 0.360916 0.695818
0.035021 0.361126 0.757421
0.035231 0.361337 0.819136
0.035442 0.361548 0.880957
0.035653 0.361759 0.942874
0.035746 0.361851 0.969965
0.034599 0.421237 0.034241
0.034797 0.421435 0.092216
0.034998 0.421637 0.151276
0.035202 0.421840 0.210922
0.035407 0.422045 0.270977
0.035613 0.422251 0.331347
0.035820 0.422458 0.391973
0.036027 0.422665 0.452817
0.036235 0.422873 0.513848
0.036444 0.423082 0.575045
0.036653 0.423291 0.636391
0.036863 0.423501 0.697871
0.037073 0.423711 0.759473
0.037284 0.423922 0.821189
0.037495 0.424133 0.883009
0.037706 0.424344 0.944927
0.037798 0.424436 0.972017
0.036658 0.484030 0.036300
0.036856 0.484228 0.094276
0.037058 0.484429 0.153335
0.037261 0.484633 0.212981
0.037466 0.484838 0.273036
0.037672 0.485043 0.333406
0.037879 0.485250 0.394033
0.038086 0.485458 0.454876
0.038295 0.485666 0.515907
0.038503 0.485875 0.577105
0.038713 0.486084 0.638450
0.038922 0.486294 0.699930
0.039132 0.486504 0.761533
0.039343 0.486714 0.823248
0.039554 0.486925 0.885068
0.039765 0.487137 0.946986
0.039857 0.487229 0.974076
0.038724 0.547004 0.038365
0.038921 0.547202 0.096341
0.039123 0.547403 0.155401
0.039326 0.547607 0.215047
0.039531 0.547811 0.275101
0.039737 0.548017 0.335471
0.039944 0.548224 0.396098
0.040152 0.548432 0.456941
0.040360 0.548640 0.517973
0.040569 0.548849 0.579170
0.040778 0.549058 0.640515
0.040988 0.549268 0.701995
0.041198 0.549478 0.763598
0.041408 0.549688 0.825313
0.041619 0.549899 0.887134
0.041830 0.550110 0.949051
0.041923 0.550203 0.976142
0.040794 0.610139 0.040436
0.040992 0.610337 0.098411
0.041193 0.610538 0.157471
0.041397 0.610742 0.217117
0.041602 0.610947 0.277172
0.041808 0.611153 0.337542
0.042015 0.611359 0.398168
0.042222 0.611567 0.459012
0.042430 0.611775 0.520043
0.042639 0.611984 0.581240
0.042848 0.612193 0.642586
0.043058 0.612403 0.704066
0.043268 0.612613 0.765668
0.043479 0.612824 0.827384
0.043690 0.613035 0.889204
0.043901 0.613246 0.951122
0.043993 0.613338 0.978212
0.042870 0.673420 0.042511
0.043067 0.673617 0.100487
0.043269 0.673819 0.159546
0.043472 0.674022 0.219192
0.043677 0.674227 0.279247
0.043883 0.674433 0.339617
0.044090 0.674640 0.400244
0.044297 0.674847 0.461087
0.044506 0.675056 0.522118
0.044714 0.675264 0.583316
0.044924 0.675474 0.644661
0.045133 0.675683 0.706141
0.045343 0.675894 0.767744
0.045554 0.676104 0.829459
0.045765 0.676315 0.891279
0.045976 0.676526 0.953197
0.046069 0.676619 0.980287
0.044949 0.736832 0.044591
0.045147 0.737030 0.102566
0.045348 0.737231 0.161626
0.045552 0.737435 0.221272
0.045757 0.737640 0.281327
0.045963 0.737846 0.341697
0.046169 0.738053 0.402323
0.046377 0.738260 0.463167
0.046585 0.738468 0.524198
0.046794 0.738677 0.585395
0.047003 0.738886 0.646741
0.047213 0.739096 0.708221
0.047423 0.739306 0.769823
0.047634 0.739517 0.831539
0.047844 0.739728 0.893359
0.048056 0.739939 0.955277
0.048148 0.740031 0.982367
0.047033 0.800366 0.046674
0.047230 0.800564 0.104650
0.047432 0.800765 0.163710
0.047635 0.800969 0.223356
0.047840 0.801174 0.283410
0.048046 0.801379 0.343780
0.048253 0.801586 0.404407
0.048461 0.801794 0.465250
0.048669 0.802002 0.526282
0.048878 0.802211 0.587479
0.049087 0.802420 0.648824
0.049297 0.802630 0.710304
0.049507 0.802840 0.771907
0.049717 0.803050 0.833622
0.049928 0.803261 0.895443
0.050139 0.803473 0.957360
0.050232 0.803565 0.984451
0.049120 0.864012 0.048762
0.049318 0.864210 0.106737
0.049519 0.864411 0.165797
0.049723 0.864614 0.225443
0.049928 0.864819 0.285498
0.050133 0.865025 0.345867
0.050340 0.865232 0.406494
0.050548 0.865440 0.467338
0.050756 0.865648 0.528369
0.050965 0.865857 0.589566
0.051174 0.866066 0.650912
0.051384 0.866276 0.712391
0.051594 0.866486 0.773994
0.051804 0.866696 0.835710
0.052015 0.866907 0.897530
0.052227 0.867118 0.959448
0.052319 0.867211 0.986538
0.051211 0.927762 0.050852
0.051408 0.927959 0.108828
0.051610 0.928161 0.167887
0.051813 0.928364 0.227533
0.052018 0.928569 0.287588
0.052224 0.928775 0.347958
0.052431 0.928982 0.408585
0.052639 0.929189 0.469428
0.052847 0.929398 0.530460
0.053055 0.929606 0.591657
0.053265 0.929816 0.653002
0.053474 0.930025 0.714482
0.053685 0.930235 0.776085
0.053895 0.930446 0.837800
0.054106 0.930657 0.899620
0.054317 0.930868 0.961538
0.054410 0.930961 0.988629
0.053166 0.987385 0.052808
0.053364 0.987583 0.110783
0.053565 0.987784 0.169843
0.053769 0.987988 0.229489
0.053974 0.988192 0.289544
0.054179 0.988398 0.349913
0.054386 0.988605 0.410540
0.054594 0.988813 0.471384
0.054802 0.989021 0.532415
0.055011 0.989230 0.593612
0.055220 0.989439 0.654958
0.055430 0.989649 0.716437
0.055640 0.989859 0.778040
0.055850 0.990069 0.839756
0.056061 0.990280 0.901576
0.056273 0.990491 0.963494
0.056365 0.990584 0.990584
0.079165 0.000858 0.021018
0.079363 0.001056 0.078994
0.079564 0.001258 0.138053
0.079768 0.001461 0.197699
0.079973 0.001666 0.257754
0.080178 0.001872 0.318124
0.080385 0.002079 0.378750
0.080593 0.002286 0.439594
0.080801 0.002494 0.500625
0.081010 0.002703 0.561822
0.081219 0.002912 0.623168
0.081429 0.003122 0.684648
0.081639 0.003332 0.746250
0.081849 0.003543 0.807966
0.082060 0.003754 0.869786
0.082272 0.003965 0.931704
0.082364 0.004057 0.958794
0.080827 0.051550 0.022680
0.081025 0.051748 0.080656
0.081227 0.051950 0.139715
0.081430 0.052153 0.199361
0.081635 0.052358 0.259416
0.081841 0.052564 0.319786
0.082048 0.052771 0.380413
0.082255 0.052978 0.441256
0.082463 0.053187 0.502288
0.082672 0.053395 0.563485
0.082882 0.053605 0.624830
0.083091 0.053814 0.686310
0.083301 0.054024 0.747913
0.083512 0.054235 0.809628
0.083723 0.054446 0.871449
0.083934 0.054657 0.933366
0.084026 0.054749 0.960457
0.082809 0.111964 0.024662
0.083006 0.112162 0.082637
0.083208 0.112363 0.141697
0.083411 0.112567 0.201343
0.083616 0.112772 0.261398
0.083822 0.112977 0.321767
0.084029 0.113184 0.382394
0.084237 0.113392 0.443238
0.084445 0.113600 0.504269
0.084654 0.113809 0.565466
0.084863 0.114018 0.626812
0.085072 0.114228 0.688291
0.085283 0.114438 0.749894
0.085493 0.114648 0.811610
0.085704 0.114859 0.873430
0.085915 0.115071 0.935348
0.086008 0.115163 0.962438
0.084815 0.173154 0.026668
0.085013 0.173352 0.084644
0.085215 0.173553 0.143703
0.085418 0.173757 0.203349
0.085623 0.173962 0.263404
0.085829 0.174168 0.323774
0.086036 0.174375 0.384401
0.086243 0.174582 0.445244
0.086451 0.174790 0.506276
0.086660 0.174999 0.567473
0.086870 0.175208 0.628818
0.087079 0.175418 0.690298
0.087289 0.175628 0.751901
0.087500 0.175839 0.813616
0.087711 0.176050 0.875437
0.087922 0.176261 0.937354
0.088014 0.176353 0.964445
0.086838 0.234840 0.028691
0.087036 0.235038 0.086667
0.087238 0.235239 0.145726
0.087441 0.235442 0.205372
0.087646 0.235647 0.265427
0.087852 0.235853 0.325797
0.088059 0.236060 0.386424
0.088266 0.236268 0.447267
0.088474 0.236476 0.508299
0.088683 0.236685 0.569496
0.088892 0.236894 0.630841
0.089102 0.237104 0.692321
0.089312 0.237314 0.753924
0.089523 0.237524 0.815639
0.089734 0.237735 0.877459
0.089945 0.237946 0.939377
0.090037 0.238039 0.966468
0.088873 0.296892 0.030726
0.089071 0.297089 0.088702
0.089273 0.297291 0.147761
0.089476 0.297494 0.207407
0.089681 0.297699 0.267462
0.089887 0.297905 0.327832
0.090094 0.298112 0.388459
0.090301 0.298319 0.449302
0.090509 0.298528 0.510334
0.090718 0.298736 0.571531
0.090927 0.298946 0.632876
0.091137 0.299155 0.694356
0.091347 0.299366 0.755959
0.091558 0.299576 0.817674
0.091769 0.299787 0.879494
0.091980 0.299998 0.941412
0.092072 0.300091 0.968503
0.090918 0.359235 0.032771
0.091116 0.359432 0.090746
0.091317 0.359634 0.149806
0.091521 0.359837 0.209452
0.091725 0.360042 0.269507
0.091931 0.360248 0.329877
0.092138 0.360455 0.390503
0.092346 0.360663 0.451347
0.092554 0.360871 0.512378
0.092763 0.361079 0.573575
0.092972 0.361289 0.634921
0.093182 0.361498 0.696401
0.093392 0.361709 0.758003
0.093602 0.361919 0.819719
0.093813 0.362130 0.881539
0.094024 0.362341 0.943457
0.094117 0.362434 0.970547
0.092970 0.421820 0.034823
0.093168 0.422018 0.092799
0.093370 0.422219 0.151858
0.093573 0.422423 0.211504
0.093778 0.422627 0.271559
0.093984 0.422833 0.331929
0.094191 0.423040 0.392556
0.094398 0.423248 0.453399
0.094606 0.423456 0.514431
0.094815 0.423665 0.575628
0.095024 0.423874 0.636973
0.095234 0.424084 0.698453
0.095444 0.424294 0.760056
0.095655 0.424504 0.821771
0.095866 0.424715 0.883592
0.096077 0.424926 0.945509
0.096169 0.425019 0.972600
0.095030 0.484612 0.036883
0.095227 0.484810 0.094858
0.095429 0.485012 0.153918
0.095632 0.485215 0.213564
0.095837 0.485420 0.273619
0.096043 0.485626 0.333988
0.096250 0.485833 0.394615
0.096458 0.486040 0.455459
0.096666 0.486248 0.516490
0.096874 0.486457 0.577687
0.097084 0.486666 0.639033
0.097293 0.486876 0.700512
0.097504 0.487086 0.762115
0.097714 0.487297 0.823831
0.097925 0.487508 0.885651
0.098136 0.487719 0.947569
0.098229 0.487811 0.974659
0.097095 0.547586 0.038948
0.097293 0.547784 0.096923
0.097494 0.547986 0.155983
0.097698 0.548189 0.215629
0.097902 0.548394 0.275684
0.098108 0.548600 0.336054
0.098315 0.548807 0.396680
0.098523 0.549014 0.457524
0.098731 0.549222 0.518555
0.098940 0.549431 0.579752
0.099149 0.549640 0.641098
0.099359 0.549850 0.702578
0.099569 0.550060 0.764180
0.099779 0.550271 0.825896
0.099990 0.550482 0.887716
0.100201 0.550693 0.949634
0.100294 0.550785 0.976724
0.099165 0.610722 0.041018
0.099363 0.610919 0.098994
0.099565 0.611121 0.158053
0.099768 0.611324 0.217699
0.099973 0.611529 0.277754
0.100179 0.611735 0.338124
0.100386 0.611942 0.398751
0.100593 0.612149 0.459594
0.100801 0.612358 0.520626
0.101010 0.612566 0.581823
0.101220 0.612776 0.643168
0.101429 0.612985 0.704648
0.101639 0.613196 0.766251
0.101850 0.613406 0.827966
0.102061 0.613617 0.889787
0.102272 0.613828 0.951704
0.102364 0.613921 0.978795
0.101241 0.674002 0.043094
0.101438 0.674200 0.101069
0.101640 0.674401 0.160129
0.101843 0.674605 0.219775
0.102048 0.674810 0.279830
0.102254 0.675016 0.340199
0.102461 0.675222 0.400826
0.102669 0.675430 0.461670
0.102877 0.675638 0.522701
0.103086 0.675847 0.583898
0.103295 0.676056 0.645244
0.103505 0.676266 0.706723
0.103715 0.676476 0.768326
0.103925 0.676687 0.830042
0.104136 0.676897 0.891862
0.104347 0.677109 0.953780
0.104440 0.677201 0.980870
0.103320 0.737415 0.045173
0.103518 0.737612 0.103149
0.103720 0.737814 0.162208
0.103923 0.738017 0.221854
0.104128 0.738222 0.281909
0.104334 0.738428 0.342279
0.104541 0.738635 0.402906
0.104748 0.738843 0.463749
0.104956 0.739051 0.524781
0.105165 0.739259 0.585978
0.105374 0.739469 0.647323
0.105584 0.739678 0.708803
0.105794 0.739889 0.770406
0.106005 0.740099 0.832121
0.106216 0.740310 0.893941
0.106427 0.740521 0.955859
0.106519 0.740614 0.982949
0.105404 0.800948 0.047257
0.105602 0.801146 0.105232
0.105803 0.801348 0.164292
0.106007 0.801551 0.223938
0.106211 0.801756 0.283993
0.106417 0.801962 0.344363
0.106624 0.802169 0.404989
0.106832 0.802376 0.465833
0.107040 0.802585 0.526864
0.107249 0.802793 0.588061
0.107458 0.803003 0.649407
0.107668 0.803212 0.710887
0.107878 0.803422 0.772489
0.108088 0.803633 0.834205
0.108299 0.803844 0.896025
0.108510 0.804055 0.957943
0.108603 0.804147 0.985033
0.107491 0.864594 0.049344
0.107689 0.864792 0.107320
0.107890 0.864993 0.166379
0.108094 0.865197 0.226025
0.108299 0.865402 0.286080
0.108505 0.865608 0.346450
0.108711 0.865815 0.407076
0.108919 0.866022 0.467920
0.109127 0.866230 0.528951
0.109336 0.866439 0.590149
0.109545 0.866648 0.651494
0.109755 0.866858 0.712974
0.109965 0.867068 0.774576
0.110176 0.867279 0.836292
0.110387 0.867490 0.898112
0.110598 0.867701 0.960030
0.110690 0.867793 0.987120
0.109582 0.928344 0.051435
0.109780 0.928542 0.109410
0.109981 0.928743 0.168470
0.110185 0.928947 0.228116
0.110389 0.929152 0.288171
0.110595 0.929358 0.348541
0.110802 0.929564 0.409167
0.111010 0.929772 0.470011
0.111218 0.929980 0.531042
0.111427 0.930189 0.592239
0.111636 0.930398 0.653585
0.111846 0.930608 0.715065
0.112056 0.930818 0.776667
0.112266 0.931028 0.838383
0.112477 0.931239 0.900203
0.112688 0.931451 0.962121
0.112781 0.931543 0.989211
0.111537 0.987967 0.053390
0.111735 0.988165 0.111366
0.111936 0.988367 0.170425
0.112140 0.988570 0.230071
0.112345 0.988775 0.290126
0.112551 0.988981 0.350496
0.112758 0.989188 0.411123
0.112965 0.989395 0.471966
0.113173 0.989603 0.532997
0.113382 0.989812 0.594195
0.113591 0.990021 0.655540
0.113801 0.990231 0.717020
0.114011 0.990441 0.778622
0.114222 0.990652 0.840338
0.114433 0.990863 0.902158
0.114644 0.991074 0.964076
0.114736 0.991166 0.991166
0.138621 0.001452 0.021611
0.138819 0.001649 0.079587
0.139020 0.001851 0.138646
0.139224 0.002054 0.198292
0.139429 0.002259 0.258347
0.139634 0.002465 0.318717
0.139841 0.002672 0.379344
0.140049 0.002879 0.440187
0.140257 0.003088 0.501218
0.140466 0.003296 0.562416
0.140675 0.003506 0.623761
0.140885 0.003715 0.685241
0.141095 0.003926 0.746844
0.141305 0.004136 0.808559
0.141516 0.004347 0.870379
0.141728 0.004558 0.932297
0.141820 0.004651 0.959387
0.140283 0.052144 0.023274
