skills/creativeops-director/assets/grade/luts/cool_tech_v03.cube
TITLE "cool_tech_v03"
LUT_3D_SIZE 5
DOMAIN_MIN 0.0 0.0 0.0
DOMAIN_MAX 1.0 1.0 1.0
0.000024 0.000024 0.012169
0.000493 0.000493 0.253074
0.000970 0.000970 0.497846
0.001449 0.001449 0.744260
0.001900 0.001900 0.975584
0.004619 0.242364 0.016765
0.005088 0.242833 0.257670
0.005565 0.243310 0.502441
0.006045 0.243790 0.748856
0.006496 0.244241 0.980180
0.009339 0.491245 0.021484
0.009808 0.491714 0.262389
0.010285 0.492191 0.507161
0.010765 0.492671 0.753575
0.011215 0.493121 0.984899
0.014091 0.741852 0.026236
0.014560 0.742321 0.267142
0.015037 0.742798 0.511913
0.015517 0.743278 0.758328
0.015967 0.743729 0.989652
0.018845 0.992529 0.030990
0.019314 0.992998 0.271895
0.019791 0.993475 0.516667
0.020271 0.993955 0.763081
0.020721 0.994405 0.994405
0.224225 0.001305 0.013450
0.224694 0.001774 0.254355
0.225171 0.002250 0.499127
0.225651 0.002730 0.745541
0.226101 0.003181 0.976865
0.228821 0.243645 0.018045
0.229290 0.244114 0.258951
0.229767 0.244591 0.503722
0.230247 0.245071 0.750137
0.230697 0.245521 0.981461
0.233540 0.492526 0.022765
0.234009 0.492995 0.263670
0.234486 0.493472 0.508442
0.234966 0.493951 0.754856
0.235417 0.494402 0.986180
0.238293 0.743133 0.027517
0.238762 0.743602 0.268423
0.239238 0.744079 0.513194
0.239718 0.744559 0.759609
0.240169 0.745009 0.990933
0.243046 0.993810 0.032271
0.243515 0.994279 0.273176
0.243992 0.994756 0.517948
0.244472 0.995236 0.764362
0.244923 0.995686 0.995686
0.469649 0.002707 0.014852
0.470118 0.003176 0.255757
0.470594 0.003653 0.500529
0.471074 0.004133 0.746943
0.471525 0.004583 0.978267
0.474244 0.245047 0.019448
0.474713 0.245516 0.260353
0.475190 0.245993 0.505124
0.475670 0.246473 0.751539
0.476120 0.246924 0.982863
0.478964 0.493928 0.024167
0.479433 0.494397 0.265072
0.479910 0.494874 0.509844
0.480389 0.495354 0.756258
0.480840 0.495804 0.987582
0.483716 0.744535 0.028920
0.484185 0.745004 0.269825
0.484662 0.745481 0.514596
0.485142 0.745961 0.761011
0.485592 0.746412 0.992335
0.488470 0.995212 0.033673
0.488939 0.995681 0.274578
0.489415 0.996158 0.519350
0.489895 0.996638 0.765764
0.490346 0.997088 0.997088
0.716834 0.004119 0.016264
0.717304 0.004588 0.257170
0.717780 0.005065 0.501941
0.718260 0.005545 0.748355
0.718711 0.005995 0.979679
0.721430 0.246459 0.020860
0.721899 0.246929 0.261765
0.722376 0.247405 0.506537
0.722856 0.247885 0.752951
0.723306 0.248336 0.984275
0.726150 0.495340 0.025579
0.726619 0.495809 0.266485
0.727095 0.496286 0.511256
0.727575 0.496766 0.757671
0.728026 0.497216 0.988995
0.730902 0.745947 0.030332
0.731371 0.746417 0.271237
0.731848 0.746893 0.516008
0.732328 0.747373 0.762423
0.732778 0.747824 0.993747
0.735656 0.996624 0.035085
0.736125 0.997093 0.275991
0.736601 0.997570 0.520762
0.737081 0.998050 0.767176
0.737532 0.998500 0.998500
0.965155 0.005538 0.017683
0.965625 0.006007 0.258588
0.966101 0.006483 0.503360
0.966581 0.006963 0.749774
0.967032 0.007414 0.981098
0.969751 0.247878 0.022279
0.970220 0.248347 0.263184
0.970697 0.248824 0.507955
0.971177 0.249304 0.754370
0.971627 0.249754 0.985694
0.974470 0.496759 0.026998
0.974940 0.497228 0.267903
0.975416 0.497705 0.512675
0.975896 0.498185 0.759089
0.976347 0.498635 0.990413
0.979223 0.747366 0.031750
0.979692 0.747835 0.272656
0.980169 0.748312 0.517427
0.980649 0.748792 0.763842
0.981099 0.749242 0.995166
0.983976 0.998043 0.036504
0.984446 0.998512 0.277409
0.984922 0.998989 0.522181
0.985402 0.999469 0.768595
0.985853 0.999919 0.999919
