skills/creativeops-director/assets/grade/luts/cool_tech_v09.cube
TITLE "cool_tech_v09"
LUT_3D_SIZE 5
DOMAIN_MIN 0.0 0.0 0.0
DOMAIN_MAX 1.0 1.0 1.0
0.000069 0.000069 0.020229
0.000877 0.000877 0.256965
0.001705 0.001705 0.499836
0.002543 0.002543 0.745461
0.003268 0.003268 0.958005
0.007742 0.234051 0.027902
0.008550 0.234858 0.264638
0.009378 0.235687 0.507509
0.010216 0.236524 0.753134
0.010941 0.237250 0.965678
0.015934 0.483823 0.036093
0.016741 0.484631 0.272829
0.017570 0.485459 0.515701
0.018408 0.486297 0.761326
0.019133 0.487022 0.973870
0.024224 0.736625 0.044384
0.025032 0.737433 0.281120
0.025860 0.738261 0.523991
0.026698 0.739099 0.769616
0.027423 0.739824 0.982160
0.032441 0.987178 0.052601
0.033249 0.987986 0.289337
0.034077 0.988814 0.532208
0.034915 0.989652 0.777833
0.035640 0.990377 0.990377
0.198666 0.002051 0.022210
0.199473 0.002858 0.258946
0.200302 0.003687 0.501818
0.201140 0.004525 0.747443
0.201865 0.005250 0.959987
0.206339 0.236032 0.029884
0.207147 0.236840 0.266620
0.207975 0.237668 0.509491
0.208813 0.238506 0.755116
0.209538 0.239231 0.967660
0.214530 0.485805 0.038075
0.215338 0.486612 0.274811
0.216166 0.487441 0.517682
0.217004 0.488279 0.763307
0.217729 0.489004 0.975851
0.222821 0.738607 0.046366
0.223629 0.739415 0.283102
0.224457 0.740243 0.525973
0.225295 0.741081 0.771598
0.226020 0.741806 0.984142
0.231038 0.989160 0.054583
0.231845 0.989967 0.291318
0.232674 0.990796 0.534190
0.233512 0.991634 0.779815
0.234237 0.992359 0.992359
0.442172 0.004481 0.024640
0.442979 0.005288 0.261376
0.443808 0.006117 0.504247
0.444646 0.006955 0.749873
0.445371 0.007680 0.962416
0.449845 0.238462 0.032314
0.450653 0.239270 0.269050
0.451481 0.240098 0.511921
0.452319 0.240936 0.757546
0.453044 0.241661 0.970090
0.458037 0.488235 0.040505
0.458844 0.489042 0.277241
0.459673 0.489871 0.520112
0.460510 0.490709 0.765737
0.461236 0.491434 0.978281
0.466327 0.741037 0.048795
0.467135 0.741845 0.285531
0.467963 0.742673 0.528403
0.468801 0.743511 0.774028
0.469526 0.744236 0.986572
0.474544 0.991590 0.057012
0.475352 0.992397 0.293748
0.476180 0.993226 0.536620
0.477018 0.994064 0.782245
0.477743 0.994789 0.994789
0.688855 0.006942 0.027102
0.689663 0.007750 0.263838
0.690491 0.008578 0.506709
0.691329 0.009416 0.752334
0.692054 0.010141 0.964878
0.696529 0.240924 0.034775
0.697336 0.241731 0.271511
0.698165 0.242560 0.514382
0.699002 0.243398 0.760008
0.699728 0.244123 0.972551
0.704720 0.490696 0.042966
0.705527 0.491504 0.279702
0.706356 0.492332 0.522574
0.707194 0.493170 0.768199
0.707919 0.493895 0.980743
0.713010 0.743499 0.051257
0.713818 0.744306 0.287993
0.714647 0.745135 0.530864
0.715484 0.745972 0.776489
0.716209 0.746698 0.989033
0.721227 0.994051 0.059474
0.722035 0.994859 0.296210
0.722863 0.995687 0.539081
0.723701 0.996525 0.784706
0.724426 0.997250 0.997250
0.937553 0.009424 0.029583
0.938360 0.010231 0.266319
0.939189 0.011060 0.509191
0.940027 0.011898 0.754816
0.940752 0.012623 0.967360
0.945226 0.243405 0.037257
0.946034 0.244213 0.273993
0.946862 0.245041 0.516864
0.947700 0.245879 0.762489
0.948425 0.246604 0.975033
0.953418 0.493178 0.045448
0.954225 0.493985 0.282184
0.955054 0.494814 0.525055
0.955891 0.495652 0.770680
0.956617 0.496377 0.983224
0.961708 0.745980 0.053739
0.962516 0.746788 0.290475
0.963344 0.747616 0.533346
0.964182 0.748454 0.778971
0.964907 0.749179 0.991515
0.969925 0.996533 0.061956
0.970733 0.997340 0.298692
0.971561 0.998169 0.541563
0.972399 0.999007 0.787188
0.973124 0.999732 0.999732
