skills/creativeops-director/assets/grade/luts/cool_tech_v09.cube
TITLE "cool_tech_v09"
LUT_3D_SIZE 9
DOMAIN_MIN 0.0 0.0 0.0
DOMAIN_MAX 1.0 1.0 1.0
0.000069 0.000069 0.020229
0.000468 0.000468 0.137264
0.000877 0.000877 0.256965
0.001289 0.001289 0.377961
0.001705 0.001705 0.499836
0.002123 0.002123 0.622379
0.002543 0.002543 0.745461
0.002964 0.002964 0.868997
0.003268 0.003268 0.958005
0.003713 0.111175 0.023872
0.004112 0.111574 0.140907
0.004520 0.111982 0.260608
0.004933 0.112395 0.381605
0.005349 0.112811 0.503480
0.005767 0.113229 0.626022
0.006187 0.113649 0.749105
0.006608 0.114070 0.872641
0.006912 0.114374 0.961649
0.007742 0.234051 0.027902
0.008142 0.234450 0.144937
0.008550 0.234858 0.264638
0.008963 0.235271 0.385634
0.009378 0.235687 0.507509
0.009797 0.236105 0.630052
0.010216 0.236524 0.753134
0.010638 0.236946 0.876670
0.010941 0.237250 0.965678
0.011822 0.358445 0.031982
0.012221 0.358845 0.149017
0.012630 0.359253 0.268717
0.013042 0.359666 0.389714
0.013458 0.360081 0.511589
0.013876 0.360499 0.634132
0.014296 0.360919 0.757214
0.014717 0.361341 0.880750
0.015021 0.361644 0.969758
0.015934 0.483823 0.036093
0.016333 0.484222 0.153128
0.016741 0.484631 0.272829
0.017154 0.485043 0.393826
0.017570 0.485459 0.515701
0.017988 0.485877 0.638243
0.018408 0.486297 0.761326
0.018829 0.486719 0.884862
0.019133 0.487022 0.973870
0.020069 0.609932 0.040229
0.020469 0.610332 0.157264
0.020877 0.610740 0.276965
0.021290 0.611153 0.397961
0.021706 0.611568 0.519836
0.022124 0.611986 0.642379
0.022543 0.612406 0.765461
0.022965 0.612828 0.888997
0.023268 0.613131 0.978005
0.024224 0.736625 0.044384
0.024624 0.737025 0.161419
0.025032 0.737433 0.281120
0.025445 0.737846 0.402116
0.025860 0.738261 0.523991
0.026278 0.738679 0.646534
0.026698 0.739099 0.769616
0.027120 0.739521 0.893152
0.027423 0.739824 0.982160
0.028395 0.863805 0.048555
0.028794 0.864204 0.165590
0.029203 0.864613 0.285291
0.029616 0.865025 0.406287
0.030031 0.865441 0.528162
0.030449 0.865859 0.650705
0.030869 0.866279 0.773787
0.031291 0.866700 0.897323
0.031594 0.867004 0.986331
0.032441 0.987178 0.052601
0.032840 0.987577 0.169636
0.033249 0.987986 0.289337
0.033662 0.988398 0.410333
0.034077 0.988814 0.532208
0.034495 0.989232 0.654751
0.034915 0.989652 0.777833
0.035337 0.990073 0.901369
0.035640 0.990377 0.990377
0.079165 0.000858 0.021018
0.079564 0.001258 0.138053
0.079973 0.001666 0.257754
0.080385 0.002079 0.378750
0.080801 0.002494 0.500625
0.081219 0.002912 0.623168
0.081639 0.003332 0.746250
0.082060 0.003754 0.869786
0.082364 0.004057 0.958794
0.082809 0.111964 0.024662
0.083208 0.112363 0.141697
0.083616 0.112772 0.261398
0.084029 0.113184 0.382394
0.084445 0.113600 0.504269
0.084863 0.114018 0.626812
0.085283 0.114438 0.749894
0.085704 0.114859 0.873430
0.086008 0.115163 0.962438
0.086838 0.234840 0.028691
0.087238 0.235239 0.145726
0.087646 0.235647 0.265427
0.088059 0.236060 0.386424
0.088474 0.236476 0.508299
0.088892 0.236894 0.630841
0.089312 0.237314 0.753924
0.089734 0.237735 0.877459
0.090037 0.238039 0.966468
0.090918 0.359235 0.032771
0.091317 0.359634 0.149806
0.091725 0.360042 0.269507
0.092138 0.360455 0.390503
0.092554 0.360871 0.512378
0.092972 0.361289 0.634921
0.093392 0.361709 0.758003
0.093813 0.362130 0.881539
0.094117 0.362434 0.970547
0.095030 0.484612 0.036883
0.095429 0.485012 0.153918
0.095837 0.485420 0.273619
0.096250 0.485833 0.394615
0.096666 0.486248 0.516490
0.097084 0.486666 0.639033
0.097504 0.487086 0.762115
0.097925 0.487508 0.885651
0.098229 0.487811 0.974659
0.099165 0.610722 0.041018
0.099565 0.611121 0.158053
0.099973 0.611529 0.277754
0.100386 0.611942 0.398751
0.100801 0.612358 0.520626
0.101220 0.612776 0.643168
0.101639 0.613196 0.766251
0.102061 0.613617 0.889787
0.102364 0.613921 0.978795
0.103320 0.737415 0.045173
0.103720 0.737814 0.162208
0.104128 0.738222 0.281909
0.104541 0.738635 0.402906
0.104956 0.739051 0.524781
0.105374 0.739469 0.647323
0.105794 0.739889 0.770406
0.106216 0.740310 0.893941
0.106519 0.740614 0.982949
0.107491 0.864594 0.049344
0.107890 0.864993 0.166379
0.108299 0.865402 0.286080
0.108711 0.865815 0.407076
0.109127 0.866230 0.528951
0.109545 0.866648 0.651494
0.109965 0.867068 0.774576
0.110387 0.867490 0.898112
0.110690 0.867793 0.987120
0.111537 0.987967 0.053390
0.111936 0.988367 0.170425
0.112345 0.988775 0.290126
0.112758 0.989188 0.411123
0.113173 0.989603 0.532997
0.113591 0.990021 0.655540
0.114011 0.990441 0.778622
0.114433 0.990863 0.902158
0.114736 0.991166 0.991166
0.198666 0.002051 0.022210
0.199065 0.002450 0.139245
0.199473 0.002858 0.258946
0.199886 0.003271 0.379943
0.200302 0.003687 0.501818
0.200720 0.004105 0.624360
0.201140 0.004525 0.747443
0.201561 0.004946 0.870979
0.201865 0.005250 0.959987
0.202309 0.113156 0.025854
0.202709 0.113556 0.142889
0.203117 0.113964 0.262590
0.203530 0.114377 0.383586
0.203945 0.114792 0.505461
0.204363 0.115210 0.628004
0.204783 0.115630 0.751086
0.205205 0.116052 0.874622
0.205508 0.116355 0.963630
0.206339 0.236032 0.029884
0.206738 0.236431 0.146919
0.207147 0.236840 0.266620
0.207559 0.237253 0.387616
0.207975 0.237668 0.509491
0.208393 0.238086 0.632034
0.208813 0.238506 0.755116
0.209234 0.238928 0.878652
0.209538 0.239231 0.967660
0.210419 0.360427 0.033963
0.210818 0.360826 0.150998
0.211226 0.361235 0.270699
0.211639 0.361647 0.391696
0.212055 0.362063 0.513571
0.212473 0.362481 0.636113
0.212893 0.362901 0.759196
0.213314 0.363322 0.882731
0.213618 0.363626 0.971739
0.214530 0.485805 0.038075
0.214930 0.486204 0.155110
0.215338 0.486612 0.274811
0.215751 0.487025 0.395807
0.216166 0.487441 0.517682
0.216584 0.487859 0.640225
0.217004 0.488279 0.763307
0.217426 0.488700 0.886843
0.217729 0.489004 0.975851
0.218666 0.611914 0.042211
0.219065 0.612313 0.159246
0.219474 0.612722 0.278947
0.219886 0.613134 0.399943
0.220302 0.613550 0.521818
0.220720 0.613968 0.644361
0.221140 0.614388 0.767443
0.221561 0.614809 0.890979
0.221865 0.615113 0.979987
0.222821 0.738607 0.046366
0.223220 0.739006 0.163401
0.223629 0.739415 0.283102
0.224041 0.739827 0.404098
0.224457 0.740243 0.525973
0.224875 0.740661 0.648516
0.225295 0.741081 0.771598
0.225716 0.741502 0.895134
0.226020 0.741806 0.984142
0.226992 0.865787 0.050536
0.227391 0.866186 0.167572
0.227799 0.866594 0.287272
0.228212 0.867007 0.408269
0.228628 0.867423 0.530144
0.229046 0.867841 0.652686
0.229466 0.868261 0.775769
0.229887 0.868682 0.899305
0.230191 0.868986 0.988313
0.231038 0.989160 0.054583
0.231437 0.989559 0.171618
0.231845 0.989967 0.291318
0.232258 0.990380 0.412315
0.232674 0.990796 0.534190
0.233092 0.991214 0.656733
0.233512 0.991634 0.779815
0.233933 0.992055 0.903351
0.234237 0.992359 0.992359
0.319893 0.003260 0.023420
0.320292 0.003660 0.140455
0.320701 0.004068 0.260156
0.321113 0.004481 0.381152
0.321529 0.004896 0.503027
0.321947 0.005314 0.625570
0.322367 0.005734 0.748652
0.322789 0.006156 0.872188
0.323092 0.006459 0.961196
0.323537 0.114366 0.027064
0.323936 0.114765 0.144099
0.324344 0.115174 0.263800
0.324757 0.115586 0.384796
0.325173 0.116002 0.506671
0.325591 0.116420 0.629214
0.326011 0.116840 0.752296
0.326432 0.117261 0.875832
0.326736 0.117565 0.964840
0.327567 0.237242 0.031093
0.327966 0.237641 0.148129
0.328374 0.238049 0.267829
0.328787 0.238462 0.388826
0.329203 0.238878 0.510701
0.329621 0.239296 0.633243
0.330041 0.239716 0.756326
0.330462 0.240137 0.879862
0.330766 0.240441 0.968870
0.331646 0.361637 0.035173
0.332045 0.362036 0.152208
0.332454 0.362444 0.271909
0.332866 0.362857 0.392905
0.333282 0.363273 0.514780
0.333700 0.363691 0.637323
0.334120 0.364111 0.760405
0.334541 0.364532 0.883941
0.334845 0.364836 0.972949
0.335758 0.487015 0.039285
0.336157 0.487414 0.156320
0.336565 0.487822 0.276021
0.336978 0.488235 0.397017
0.337394 0.488651 0.518892
0.337812 0.489069 0.641435
0.338232 0.489488 0.764517
0.338653 0.489910 0.888053
0.338957 0.490214 0.977061
0.339894 0.613124 0.043420
0.340293 0.613523 0.160456
0.340701 0.613931 0.280156
0.341114 0.614344 0.401153
0.341530 0.614760 0.523028
0.341948 0.615178 0.645570
0.342368 0.615598 0.768653
0.342789 0.616019 0.892189
0.343093 0.616323 0.981197
0.344048 0.739817 0.047575
0.344448 0.740216 0.164611
0.344856 0.740624 0.284311
0.345269 0.741037 0.405308
0.345685 0.741453 0.527183
0.346103 0.741871 0.649725
0.346522 0.742291 0.772808
0.346944 0.742712 0.896344
0.347247 0.743016 0.985352
0.348219 0.866996 0.051746
0.348619 0.867396 0.168781
0.349027 0.867804 0.288482
0.349440 0.868217 0.409479
0.349855 0.868632 0.531354
0.350273 0.869050 0.653896
0.350693 0.869470 0.776979
0.351115 0.869892 0.900514
0.351418 0.870195 0.989522
0.352265 0.990369 0.055792
0.352665 0.990769 0.172827
0.353073 0.991177 0.292528
0.353486 0.991590 0.413525
0.353901 0.992006 0.535400
0.354319 0.992424 0.657942
0.354739 0.992843 0.781025
0.355161 0.993265 0.904560
0.355464 0.993568 0.993568
0.442172 0.004481 0.024640
0.442571 0.004880 0.141675
0.442979 0.005288 0.261376
0.443392 0.005701 0.382373
0.443808 0.006117 0.504247
0.444226 0.006535 0.626790
0.444646 0.006955 0.749873
0.445067 0.007376 0.873408
0.445371 0.007680 0.962416
0.445816 0.115586 0.028284
0.446215 0.115985 0.145319
0.446623 0.116394 0.265020
0.447036 0.116807 0.386016
0.447452 0.117222 0.507891
0.447870 0.117640 0.630434
0.448289 0.118060 0.753516
0.448711 0.118482 0.877052
0.449015 0.118785 0.966060
0.449845 0.238462 0.032314
0.450244 0.238861 0.149349
0.450653 0.239270 0.269050
0.451066 0.239682 0.390046
0.451481 0.240098 0.511921
0.451899 0.240516 0.634464
0.452319 0.240936 0.757546
0.452741 0.241357 0.881082
0.453044 0.241661 0.970090
0.453925 0.362857 0.036393
0.454324 0.363256 0.153428
0.454732 0.363664 0.273129
0.455145 0.364077 0.394126
0.455561 0.364493 0.516000
0.455979 0.364911 0.638543
0.456399 0.365331 0.761625
0.456820 0.365752 0.885161
0.457124 0.366056 0.974169
0.458037 0.488235 0.040505
0.458436 0.488634 0.157540
0.458844 0.489042 0.277241
0.459257 0.489455 0.398237
0.459673 0.489871 0.520112
0.460091 0.490289 0.642655
0.460510 0.490709 0.765737
0.460932 0.491130 0.889273
0.461236 0.491434 0.978281
0.462172 0.614344 0.044641
0.462572 0.614743 0.161676
0.462980 0.615151 0.281377
0.463393 0.615564 0.402373
0.463808 0.615980 0.524248
0.464226 0.616398 0.646791
0.464646 0.616818 0.769873
0.465068 0.617239 0.893409
0.465371 0.617543 0.982417
0.466327 0.741037 0.048795
0.466726 0.741436 0.165831
0.467135 0.741845 0.285531
0.467547 0.742257 0.406528
0.467963 0.742673 0.528403
0.468381 0.743091 0.650945
0.468801 0.743511 0.774028
0.469223 0.743932 0.897564
0.469526 0.744236 0.986572
0.470498 0.868216 0.052966
0.470897 0.868616 0.170002
0.471306 0.869024 0.289702
0.471718 0.869437 0.410699
0.472134 0.869853 0.532574
0.472552 0.870271 0.655116
0.472972 0.870690 0.778199
0.473393 0.871112 0.901735
0.473697 0.871415 0.990743
0.474544 0.991590 0.057012
0.474943 0.991989 0.174048
0.475352 0.992397 0.293748
0.475764 0.992810 0.414745
0.476180 0.993226 0.536620
0.476598 0.993644 0.659162
0.477018 0.994064 0.782245
0.477439 0.994485 0.905781
0.477743 0.994789 0.994789
0.565213 0.005708 0.025868
0.565612 0.006108 0.142903
0.566021 0.006516 0.262604
0.566434 0.006929 0.383600
0.566849 0.007344 0.505475
0.567267 0.007762 0.628018
0.567687 0.008182 0.751100
0.568109 0.008604 0.874636
0.568412 0.008907 0.963644
0.568857 0.116814 0.029512
0.569256 0.117213 0.146547
0.569665 0.117622 0.266248
0.570077 0.118034 0.387244
0.570493 0.118450 0.509119
0.570911 0.118868 0.631662
0.571331 0.119288 0.754744
0.571752 0.119709 0.878280
0.572056 0.120013 0.967288
0.572887 0.239690 0.033541
0.573286 0.240089 0.150577
0.573694 0.240497 0.270277
0.574107 0.240910 0.391274
0.574523 0.241326 0.513149
0.574941 0.241744 0.635691
0.575361 0.242164 0.758774
0.575782 0.242585 0.882310
0.576086 0.242889 0.971318
0.576966 0.364085 0.037621
0.577365 0.364484 0.154656
0.577774 0.364892 0.274357
0.578187 0.365305 0.395353
0.578602 0.365721 0.517228
0.579020 0.366139 0.639771
0.579440 0.366559 0.762853
0.579862 0.366980 0.886389
0.580165 0.367284 0.975397
0.581078 0.489462 0.041733
0.581477 0.489862 0.158768
0.581886 0.490270 0.278469
0.582298 0.490683 0.399465
0.582714 0.491099 0.521340
0.583132 0.491517 0.643883
0.583552 0.491936 0.766965
0.583973 0.492358 0.890501
0.584277 0.492661 0.979509
0.585214 0.615572 0.045868
0.585613 0.615971 0.162904
0.586021 0.616379 0.282604
0.586434 0.616792 0.403601
0.586850 0.617208 0.525476
0.587268 0.617626 0.648018
0.587688 0.618046 0.771101
0.588109 0.618467 0.894637
0.588413 0.618771 0.983645
0.589369 0.742265 0.050023
0.589768 0.742664 0.167058
0.590176 0.743072 0.286759
0.590589 0.743485 0.407756
0.591005 0.743901 0.529631
0.591423 0.744319 0.652173
0.591843 0.744739 0.775256
0.592264 0.745160 0.898791
0.592568 0.745464 0.987800
0.593539 0.869444 0.054194
0.593939 0.869844 0.171229
0.594347 0.870252 0.290930
0.594760 0.870665 0.411927
0.595176 0.871080 0.533801
0.595594 0.871498 0.656344
0.596013 0.871918 0.779427
0.596435 0.872340 0.902962
0.596738 0.872643 0.991970
0.597585 0.992817 0.058240
0.597985 0.993217 0.175275
0.598393 0.993625 0.294976
0.598806 0.994038 0.415973
0.599222 0.994453 0.537847
0.599640 0.994871 0.660390
0.600059 0.995291 0.783473
0.600481 0.995713 0.907008
0.600784 0.996016 0.996016
0.688855 0.006942 0.027102
0.689254 0.007341 0.144137
0.689663 0.007750 0.263838
0.690075 0.008162 0.384834
0.690491 0.008578 0.506709
0.690909 0.008996 0.629252
0.691329 0.009416 0.752334
0.691750 0.009837 0.875870
0.692054 0.010141 0.964878
0.692499 0.118048 0.030745
0.692898 0.118447 0.147781
0.693306 0.118855 0.267481
0.693719 0.119268 0.388478
0.694135 0.119684 0.510353
0.694553 0.120102 0.632895
0.694973 0.120522 0.755978
0.695394 0.120943 0.879514
0.695698 0.121247 0.968522
0.696529 0.240924 0.034775
0.696928 0.241323 0.151810
0.697336 0.241731 0.271511
0.697749 0.242144 0.392508
0.698165 0.242560 0.514382
0.698583 0.242978 0.636925
0.699002 0.243398 0.760008
0.699424 0.243819 0.883543
0.699728 0.244123 0.972551
0.700608 0.365318 0.038855
0.701007 0.365718 0.155890
0.701416 0.366126 0.275591
0.701828 0.366539 0.396587
0.702244 0.366955 0.518462
0.702662 0.367373 0.641005
0.703082 0.367792 0.764087
0.703503 0.368214 0.887623
0.703807 0.368517 0.976631
0.704720 0.490696 0.042966
0.705119 0.491095 0.160002
0.705527 0.491504 0.279702
0.705940 0.491917 0.400699
0.706356 0.492332 0.522574
0.706774 0.492750 0.645116
0.707194 0.493170 0.768199
0.707615 0.493592 0.891735
0.707919 0.493895 0.980743
0.708856 0.616805 0.047102
0.709255 0.617205 0.164137
0.709663 0.617613 0.283838
0.710076 0.618026 0.404835
0.710492 0.618442 0.526709
0.710910 0.618860 0.649252
0.711330 0.619279 0.772335
0.711751 0.619701 0.895870
0.712055 0.620004 0.984878
0.713010 0.743499 0.051257
0.713410 0.743898 0.168292
0.713818 0.744306 0.287993
0.714231 0.744719 0.408989
0.714647 0.745135 0.530864
0.715065 0.745553 0.653407
0.715484 0.745972 0.776489
0.715906 0.746394 0.900025
0.716209 0.746698 0.989033
0.717181 0.870678 0.055428
0.717581 0.871077 0.172463
0.717989 0.871486 0.292164
0.718402 0.871898 0.413160
0.718817 0.872314 0.535035
0.719235 0.872732 0.657578
0.719655 0.873152 0.780660
0.720077 0.873573 0.904196
0.720380 0.873877 0.993204
0.721227 0.994051 0.059474
0.721627 0.994450 0.176509
0.722035 0.994859 0.296210
0.722448 0.995271 0.417206
0.722863 0.995687 0.539081
0.723281 0.996105 0.661624
0.723701 0.996525 0.784706
0.724123 0.996947 0.908242
0.724426 0.997250 0.997250
0.812993 0.008181 0.028340
0.813392 0.008580 0.145376
0.813800 0.008988 0.265076
0.814213 0.009401 0.386073
0.814629 0.009817 0.507948
0.815047 0.010235 0.630490
0.815467 0.010655 0.753573
0.815888 0.011076 0.877109
0.816192 0.011380 0.966117
0.816636 0.119287 0.031984
0.817036 0.119686 0.149019
0.817444 0.120094 0.268720
0.817857 0.120507 0.389717
0.818272 0.120923 0.511591
0.818690 0.121341 0.634134
0.819110 0.121760 0.757217
0.819532 0.122182 0.880752
0.819835 0.122486 0.969760
0.820666 0.242162 0.036014
0.821065 0.242562 0.153049
0.821474 0.242970 0.272750
0.821886 0.243383 0.393746
0.822302 0.243798 0.515621
0.822720 0.244216 0.638164
0.823140 0.244636 0.761246
0.823561 0.245058 0.884782
0.823865 0.245361 0.973790
0.824746 0.366557 0.040093
0.825145 0.366956 0.157129
0.825553 0.367365 0.276829
0.825966 0.367778 0.397826
0.826382 0.368193 0.519701
0.826800 0.368611 0.642243
0.827220 0.369031 0.765326
0.827641 0.369453 0.888862
0.827945 0.369756 0.977870
0.828857 0.491935 0.044205
0.829257 0.492334 0.161240
0.829665 0.492743 0.280941
0.830078 0.493155 0.401938
0.830493 0.493571 0.523812
0.830911 0.493989 0.646355
0.831331 0.494409 0.769438
0.831753 0.494830 0.892973
0.832056 0.495134 0.981981
0.832993 0.618044 0.048341
0.833392 0.618443 0.165376
0.833801 0.618852 0.285077
0.834213 0.619264 0.406073
0.834629 0.619680 0.527948
0.835047 0.620098 0.650491
0.835467 0.620518 0.773573
0.835889 0.620940 0.897109
0.836192 0.621243 0.986117
0.837148 0.744737 0.052496
0.837547 0.745136 0.169531
0.837956 0.745545 0.289232
0.838368 0.745958 0.410228
0.838784 0.746373 0.532103
0.839202 0.746791 0.654646
0.839622 0.747211 0.777728
0.840043 0.747633 0.901264
0.840347 0.747936 0.990272
0.841319 0.871917 0.056667
0.841718 0.872316 0.173702
0.842126 0.872724 0.293403
0.842539 0.873137 0.414399
0.842955 0.873553 0.536274
0.843373 0.873971 0.658817
0.843793 0.874391 0.781899
0.844214 0.874812 0.905435
0.844518 0.875116 0.994443
0.845365 0.995290 0.060713
0.845764 0.995689 0.177748
0.846172 0.996097 0.297449
0.846585 0.996510 0.418445
0.847001 0.996926 0.540320
0.847419 0.997344 0.662863
0.847839 0.997764 0.785945
0.848260 0.998185 0.909481
0.848564 0.998489 0.998489
0.937553 0.009424 0.029583
0.937952 0.009823 0.146619
0.938360 0.010231 0.266319
0.938773 0.010644 0.387316
0.939189 0.011060 0.509191
0.939607 0.011478 0.631733
0.940027 0.011898 0.754816
0.940448 0.012319 0.878352
0.940752 0.012623 0.967360
0.941197 0.120529 0.033227
0.941596 0.120929 0.150262
0.942004 0.121337 0.269963
0.942417 0.121750 0.390959
0.942833 0.122166 0.512834
0.943251 0.122584 0.635377
0.943670 0.123003 0.758459
0.944092 0.123425 0.881995
0.944396 0.123728 0.971003
0.945226 0.243405 0.037257
0.945625 0.243805 0.154292
0.946034 0.244213 0.273993
0.946447 0.244626 0.394989
0.946862 0.245041 0.516864
0.947280 0.245459 0.639407
0.947700 0.245879 0.762489
0.948122 0.246301 0.886025
0.948425 0.246604 0.975033
0.949306 0.367800 0.041336
0.949705 0.368199 0.158371
0.950113 0.368608 0.278072
0.950526 0.369020 0.399069
0.950942 0.369436 0.520944
0.951360 0.369854 0.643486
0.951780 0.370274 0.766569
0.952201 0.370695 0.890105
0.952505 0.370999 0.979113
0.953418 0.493178 0.045448
0.953817 0.493577 0.162483
0.954225 0.493985 0.282184
0.954638 0.494398 0.403180
0.955054 0.494814 0.525055
0.955472 0.495232 0.647598
0.955891 0.495652 0.770680
0.956313 0.496073 0.894216
0.956617 0.496377 0.983224
0.957553 0.619287 0.049584
0.957953 0.619686 0.166619
0.958361 0.620095 0.286320
0.958774 0.620507 0.407316
0.959189 0.620923 0.529191
0.959607 0.621341 0.651734
0.960027 0.621761 0.774816
0.960449 0.622182 0.898352
0.960752 0.622486 0.987360
0.961708 0.745980 0.053739
0.962107 0.746379 0.170774
0.962516 0.746788 0.290475
0.962928 0.747200 0.411471
0.963344 0.747616 0.533346
0.963762 0.748034 0.655889
0.964182 0.748454 0.778971
0.964604 0.748876 0.902507
0.964907 0.749179 0.991515
0.965879 0.873160 0.057910
0.966278 0.873559 0.174945
0.966687 0.873967 0.294646
0.967099 0.874380 0.415642
0.967515 0.874796 0.537517
0.967933 0.875214 0.660060
0.968353 0.875634 0.783142
0.968774 0.876055 0.906678
0.969078 0.876359 0.995686
0.969925 0.996533 0.061956
0.970324 0.996932 0.178991
0.970733 0.997340 0.298692
0.971145 0.997753 0.419688
0.971561 0.998169 0.541563
0.971979 0.998587 0.664106
0.972399 0.999007 0.787188
0.972820 0.999428 0.910724
0.973124 0.999732 0.999732
