skills/creativeops-director/assets/grade/luts/product_clean_v19.cube
TITLE "product_clean_v19"
LUT_3D_SIZE 17
DOMAIN_MIN 0.0 0.0 0.0
DOMAIN_MAX 1.0 1.0 1.0
0.000000 0.000000 0.000000
0.000000 0.000000 0.043980
0.000000 0.000000 0.112892
0.000000 0.000000 0.181805
0.000000 0.000000 0.250718
0.000000 0.000000 0.319631
0.000000 0.000000 0.388543
0.000000 0.000000 0.457456
0.000000 0.000000 0.526369
0.000000 0.000000 0.595282
0.000000 0.000000 0.664195
0.000000 0.000000 0.733107
0.000000 0.000000 0.802020
0.000000 0.000000 0.870933
0.000000 0.000000 0.939846
0.000000 0.000000 1.000000
0.000000 0.000000 1.000000
0.000000 0.042453 0.000000
0.000000 0.042281 0.042281
0.000000 0.042013 0.111194
0.000000 0.041744 0.180107
0.000000 0.041475 0.249020
0.000000 0.041207 0.317932
0.000000 0.040938 0.386845
0.000000 0.040669 0.455758
0.000000 0.040401 0.524671
0.000000 0.040132 0.593583
0.000000 0.039863 0.662496
0.000000 0.039595 0.731409
0.000000 0.039326 0.800322
0.000000 0.039057 0.869235
0.000000 0.038789 0.938147
0.000000 0.038520 1.000000
0.000000 0.038349 1.000000
0.000000 0.108973 0.000000
0.000000 0.108801 0.039620
0.000000 0.108533 0.108533
0.000000 0.108264 0.177446
0.000000 0.107995 0.246358
0.000000 0.107727 0.315271
0.000000 0.107458 0.384184
0.000000 0.107190 0.453097
0.000000 0.106921 0.522010
0.000000 0.106652 0.590922
0.000000 0.106384 0.659835
0.000000 0.106115 0.728748
0.000000 0.105846 0.797661
0.000000 0.105578 0.866573
0.000000 0.105309 0.935486
0.000000 0.105040 1.000000
0.000000 0.104869 1.000000
0.000000 0.175493 0.000000
0.000000 0.175322 0.036959
0.000000 0.175053 0.105872
0.000000 0.174784 0.174784
0.000000 0.174516 0.243697
0.000000 0.174247 0.312610
0.000000 0.173978 0.381523
0.000000 0.173710 0.450436
0.000000 0.173441 0.519348
0.000000 0.173172 0.588261
0.000000 0.172904 0.657174
0.000000 0.172635 0.726087
0.000000 0.172367 0.794999
0.000000 0.172098 0.863912
0.000000 0.171829 0.932825
0.000000 0.171561 1.000000
0.000000 0.171389 1.000000
0.000000 0.242013 0.000000
0.000000 0.241842 0.034298
0.000000 0.241573 0.103210
0.000000 0.241305 0.172123
0.000000 0.241036 0.241036
0.000000 0.240767 0.309949
0.000000 0.240499 0.378862
0.000000 0.240230 0.447774
0.000000 0.239961 0.516687
0.000000 0.239693 0.585600
0.000000 0.239424 0.654513
0.000000 0.239155 0.723425
0.000000 0.238887 0.792338
0.000000 0.238618 0.861251
0.000000 0.238349 0.930164
0.000000 0.238081 0.999077
0.000000 0.237909 1.000000
0.000000 0.308534 0.000000
0.000000 0.308362 0.031636
0.000000 0.308093 0.100549
0.000000 0.307825 0.169462
0.000000 0.307556 0.238375
0.000000 0.307288 0.307288
0.000000 0.307019 0.376200
0.000000 0.306750 0.445113
0.000000 0.306482 0.514026
0.000000 0.306213 0.582939
0.000000 0.305944 0.651851
0.000000 0.305676 0.720764
0.000000 0.305407 0.789677
0.000000 0.305138 0.858590
0.000000 0.304870 0.927503
0.000000 0.304601 0.996415
0.000000 0.304430 1.000000
0.000000 0.375054 0.000000
0.000000 0.374882 0.028975
0.000000 0.374614 0.097888
0.000000 0.374345 0.166801
0.000000 0.374076 0.235714
0.000000 0.373808 0.304626
0.000000 0.373539 0.373539
0.000000 0.373270 0.442452
0.000000 0.373002 0.511365
0.000000 0.372733 0.580278
0.000000 0.372465 0.649190
0.000000 0.372196 0.718103
0.000000 0.371927 0.787016
0.000000 0.371659 0.855929
0.000000 0.371390 0.924841
0.000000 0.371121 0.993754
0.000000 0.370950 1.000000
0.000000 0.441574 0.000000
0.000000 0.441403 0.026314
0.000000 0.441134 0.095227
0.000000 0.440865 0.164140
0.000000 0.440597 0.233052
0.000000 0.440328 0.301965
0.000000 0.440059 0.370878
0.000000 0.439791 0.439791
0.000000 0.439522 0.508704
0.000000 0.439253 0.577616
0.000000 0.438985 0.646529
0.000000 0.438716 0.715442
0.000000 0.438447 0.784355
0.000000 0.438179 0.853267
0.000000 0.437910 0.922180
0.000000 0.437642 0.991093
0.000000 0.437470 1.000000
0.000000 0.508094 0.000000
0.000000 0.507923 0.023653
0.000000 0.507654 0.092566
0.000000 0.507386 0.161478
0.000000 0.507117 0.230391
0.000000 0.506848 0.299304
0.000000 0.506580 0.368217
0.000000 0.506311 0.437130
0.000000 0.506042 0.506042
0.000000 0.505774 0.574955
0.000000 0.505505 0.643868
0.000000 0.505236 0.712781
0.000000 0.504968 0.781693
0.000000 0.504699 0.850606
0.000000 0.504430 0.919519
0.000000 0.504162 0.988432
0.000000 0.503990 1.000000
0.000000 0.574615 0.000000
0.000000 0.574443 0.020992
0.000000 0.574174 0.089904
0.000000 0.573906 0.158817
0.000000 0.573637 0.227730
0.000000 0.573369 0.296643
0.000000 0.573100 0.365556
0.000000 0.572831 0.434468
0.000000 0.572563 0.503381
0.000000 0.572294 0.572294
0.000000 0.572025 0.641207
0.000000 0.571757 0.710119
0.000000 0.571488 0.779032
0.000000 0.571219 0.847945
0.000000 0.570951 0.916858
0.000000 0.570682 0.985771
0.000000 0.570511 1.000000
0.000000 0.641135 0.000000
0.000000 0.640963 0.018330
0.000000 0.640695 0.087243
0.000000 0.640426 0.156156
0.000000 0.640157 0.225069
0.000000 0.639889 0.293982
0.000000 0.639620 0.362894
0.000000 0.639351 0.431807
0.000000 0.639083 0.500720
0.000000 0.638814 0.569633
0.000000 0.638546 0.638546
0.000000 0.638277 0.707458
0.000000 0.638008 0.776371
0.000000 0.637740 0.845284
0.000000 0.637471 0.914197
0.000000 0.637202 0.983109
0.000000 0.637031 1.000000
0.000000 0.707655 0.000000
0.000000 0.707484 0.015669
0.000000 0.707215 0.084582
0.000000 0.706946 0.153495
0.000000 0.706678 0.222408
0.000000 0.706409 0.291320
0.000000 0.706140 0.360233
0.000000 0.705872 0.429146
0.000000 0.705603 0.498059
0.000000 0.705334 0.566972
0.000000 0.705066 0.635884
0.000000 0.704797 0.704797
0.000000 0.704528 0.773710
0.000000 0.704260 0.842623
0.000000 0.703991 0.911535
0.000000 0.703722 0.980448
0.000000 0.703551 1.000000
0.000000 0.774175 0.000000
0.000000 0.774004 0.013008
0.000000 0.773735 0.081921
0.000000 0.773467 0.150834
0.000000 0.773198 0.219746
0.000000 0.772929 0.288659
0.000000 0.772661 0.357572
0.000000 0.772392 0.426485
0.000000 0.772123 0.495398
0.000000 0.771855 0.564310
0.000000 0.771586 0.633223
0.000000 0.771317 0.702136
0.000000 0.771049 0.771049
0.000000 0.770780 0.839961
0.000000 0.770511 0.908874
0.000000 0.770243 0.977787
0.000000 0.770071 1.000000
0.000000 0.840696 0.000000
0.000000 0.840524 0.010347
0.000000 0.840255 0.079260
0.000000 0.839987 0.148172
0.000000 0.839718 0.217085
0.000000 0.839449 0.285998
0.000000 0.839181 0.354911
0.000000 0.838912 0.423824
0.000000 0.838644 0.492736
0.000000 0.838375 0.561649
0.000000 0.838106 0.630562
0.000000 0.837838 0.699475
0.000000 0.837569 0.768387
0.000000 0.837300 0.837300
0.000000 0.837032 0.906213
0.000000 0.836763 0.975126
0.000000 0.836592 1.000000
0.000000 0.907216 0.000000
0.000000 0.907044 0.007686
0.000000 0.906776 0.076598
0.000000 0.906507 0.145511
0.000000 0.906238 0.214424
0.000000 0.905970 0.283337
0.000000 0.905701 0.352250
0.000000 0.905432 0.421162
0.000000 0.905164 0.490075
0.000000 0.904895 0.558988
0.000000 0.904626 0.627901
0.000000 0.904358 0.696814
0.000000 0.904089 0.765726
0.000000 0.903821 0.834639
0.000000 0.903552 0.903552
0.000000 0.903283 0.972465
0.000000 0.903112 1.000000
0.000000 0.973736 0.000000
0.000000 0.973565 0.005024
0.000000 0.973296 0.073937
0.000000 0.973027 0.142850
0.000000 0.972759 0.211763
0.000000 0.972490 0.280676
0.000000 0.972221 0.349588
0.000000 0.971953 0.418501
0.000000 0.971684 0.487414
0.000000 0.971415 0.556327
0.000000 0.971147 0.625240
0.000000 0.970878 0.694152
0.000000 0.970609 0.763065
0.000000 0.970341 0.831978
0.000000 0.970072 0.900891
0.000000 0.969803 0.969803
0.000000 0.969632 1.000000
0.000000 1.000000 0.000000
0.000000 1.000000 0.003326
0.000000 1.000000 0.072239
0.000000 1.000000 0.141152
0.000000 1.000000 0.210064
0.000000 1.000000 0.278977
0.000000 1.000000 0.347890
0.000000 1.000000 0.416803
0.000000 1.000000 0.485716
0.000000 1.000000 0.554628
0.000000 1.000000 0.623541
0.000000 1.000000 0.692454
0.000000 1.000000 0.761367
0.000000 1.000000 0.830280
0.000000 1.000000 0.899192
0.000000 1.000000 0.968105
0.000000 1.000000 1.000000
0.043646 0.000000 0.000000
0.043475 0.000000 0.043475
0.043206 0.000000 0.112387
0.042937 0.000000 0.181300
0.042669 0.000000 0.250213
0.042400 0.000000 0.319126
0.042131 0.000000 0.388039
0.041863 0.000000 0.456951
0.041594 0.000000 0.525864
0.041325 0.000000 0.594777
0.041057 0.000000 0.663690
0.040788 0.000000 0.732603
0.040520 0.000000 0.801515
0.040251 0.000000 0.870428
0.039982 0.000000 0.939341
0.039714 0.000000 1.000000
0.039542 0.000000 1.000000
0.041948 0.041948 0.000000
0.041776 0.041776 0.041776
0.041508 0.041508 0.110689
0.041239 0.041239 0.179602
0.040970 0.040970 0.248515
0.040702 0.040702 0.317427
0.040433 0.040433 0.386340
0.040164 0.040164 0.455253
0.039896 0.039896 0.524166
0.039627 0.039627 0.593079
0.039358 0.039358 0.661991
0.039090 0.039090 0.730904
0.038821 0.038821 0.799817
0.038553 0.038553 0.868730
0.038284 0.038284 0.937643
0.038015 0.038015 1.000000
0.037844 0.037844 1.000000
0.039287 0.108468 0.000000
0.039115 0.108297 0.039115
0.038846 0.108028 0.108028
0.038578 0.107759 0.176941
0.038309 0.107491 0.245853
0.038041 0.107222 0.314766
0.037772 0.106953 0.383679
0.037503 0.106685 0.452592
0.037235 0.106416 0.521505
0.036966 0.106147 0.590417
0.036697 0.105879 0.659330
0.036429 0.105610 0.728243
0.036160 0.105341 0.797156
0.035891 0.105073 0.866069
0.035623 0.104804 0.934981
0.035354 0.104535 1.000000
0.035183 0.104364 1.000000
0.036625 0.174988 0.000000
0.036454 0.174817 0.036454
0.036185 0.174548 0.105367
0.035917 0.174280 0.174280
0.035648 0.174011 0.243192
0.035379 0.173742 0.312105
0.035111 0.173474 0.381018
0.034842 0.173205 0.449931
0.034573 0.172936 0.518843
0.034305 0.172668 0.587756
0.034036 0.172399 0.656669
0.033767 0.172130 0.725582
0.033499 0.171862 0.794495
0.033230 0.171593 0.863407
0.032961 0.171324 0.932320
0.032693 0.171056 1.000000
0.032521 0.170884 1.000000
0.033964 0.241508 0.000000
0.033793 0.241337 0.033793
0.033524 0.241068 0.102706
0.033255 0.240800 0.171618
0.032987 0.240531 0.240531
0.032718 0.240262 0.309444
0.032449 0.239994 0.378357
0.032181 0.239725 0.447269
0.031912 0.239456 0.516182
0.031644 0.239188 0.585095
0.031375 0.238919 0.654008
0.031106 0.238651 0.722921
0.030838 0.238382 0.791833
0.030569 0.238113 0.860746
0.030300 0.237845 0.929659
0.030032 0.237576 0.998572
0.029860 0.237404 1.000000
0.031303 0.308029 0.000000
0.031132 0.307857 0.031132
0.030863 0.307589 0.100044
0.030594 0.307320 0.168957
0.030326 0.307051 0.237870
0.030057 0.306783 0.306783
0.029788 0.306514 0.375695
0.029520 0.306245 0.444608
0.029251 0.305977 0.513521
0.028982 0.305708 0.582434
0.028714 0.305439 0.651347
0.028445 0.305171 0.720259
0.028176 0.304902 0.789172
0.027908 0.304633 0.858085
0.027639 0.304365 0.926998
0.027370 0.304096 0.995911
0.027199 0.303925 1.000000
0.028642 0.374549 0.000000
0.028470 0.374378 0.028470
0.028202 0.374109 0.097383
0.027933 0.373840 0.166296
0.027664 0.373572 0.235209
0.027396 0.373303 0.304121
0.027127 0.373034 0.373034
0.026858 0.372766 0.441947
0.026590 0.372497 0.510860
0.026321 0.372228 0.579773
0.026052 0.371960 0.648685
0.025784 0.371691 0.717598
0.025515 0.371422 0.786511
0.025247 0.371154 0.855424
0.024978 0.370885 0.924337
0.024709 0.370616 0.993249
0.024538 0.370445 1.000000
0.025981 0.441069 0.000000
0.025809 0.440898 0.025809
0.025540 0.440629 0.094722
0.025272 0.440360 0.163635
0.025003 0.440092 0.232548
0.024735 0.439823 0.301460
0.024466 0.439555 0.370373
0.024197 0.439286 0.439286
0.023929 0.439017 0.508199
0.023660 0.438749 0.577111
0.023391 0.438480 0.646024
0.023123 0.438211 0.714937
0.022854 0.437943 0.783850
0.022585 0.437674 0.852763
0.022317 0.437405 0.921675
0.022048 0.437137 0.990588
0.021877 0.436965 1.000000
0.023319 0.507589 0.000000
0.023148 0.507418 0.023148
0.022879 0.507149 0.092061
0.022611 0.506881 0.160974
0.022342 0.506612 0.229886
0.022073 0.506343 0.298799
0.021805 0.506075 0.367712
0.021536 0.505806 0.436625
0.021267 0.505537 0.505537
0.020999 0.505269 0.574450
0.020730 0.505000 0.643363
0.020461 0.504732 0.712276
0.020193 0.504463 0.781189
0.019924 0.504194 0.850101
0.019655 0.503926 0.919014
0.019387 0.503657 0.987927
0.019215 0.503485 1.000000
0.020658 0.574110 0.000000
0.020487 0.573938 0.020487
0.020218 0.573670 0.089400
0.019949 0.573401 0.158312
0.019681 0.573132 0.227225
0.019412 0.572864 0.296138
0.019143 0.572595 0.365051
0.018875 0.572326 0.433963
0.018606 0.572058 0.502876
0.018338 0.571789 0.571789
0.018069 0.571520 0.640702
0.017800 0.571252 0.709615
0.017532 0.570983 0.778527
0.017263 0.570714 0.847440
0.016994 0.570446 0.916353
0.016726 0.570177 0.985266
0.016554 0.570006 1.000000
0.017997 0.640630 0.000000
0.017826 0.640458 0.017826
0.017557 0.640190 0.086738
0.017288 0.639921 0.155651
0.017020 0.639653 0.224564
0.016751 0.639384 0.293477
0.016482 0.639115 0.362389
0.016214 0.638847 0.431302
0.015945 0.638578 0.500215
0.015676 0.638309 0.569128
0.015408 0.638041 0.638041
0.015139 0.637772 0.706953
0.014870 0.637503 0.775866
0.014602 0.637235 0.844779
0.014333 0.636966 0.913692
0.014064 0.636697 0.982605
0.013893 0.636526 1.000000
0.015336 0.707150 0.000000
0.015164 0.706979 0.015164
0.014896 0.706710 0.084077
0.014627 0.706441 0.152990
0.014358 0.706173 0.221903
0.014090 0.705904 0.290815
0.013821 0.705635 0.359728
0.013552 0.705367 0.428641
0.013284 0.705098 0.497554
0.013015 0.704830 0.566467
0.012746 0.704561 0.635379
0.012478 0.704292 0.704292
0.012209 0.704024 0.773205
0.011941 0.703755 0.842118
0.011672 0.703486 0.911031
0.011403 0.703218 0.979943
0.011232 0.703046 1.000000
0.012675 0.773670 0.000000
0.012503 0.773499 0.012503
0.012234 0.773230 0.081416
0.011966 0.772962 0.150329
0.011697 0.772693 0.219242
0.011429 0.772424 0.288154
0.011160 0.772156 0.357067
0.010891 0.771887 0.425980
0.010623 0.771618 0.494893
0.010354 0.771350 0.563805
0.010085 0.771081 0.632718
0.009817 0.770812 0.701631
0.009548 0.770544 0.770544
0.009279 0.770275 0.839457
0.009011 0.770007 0.908369
0.008742 0.769738 0.977282
0.008571 0.769566 1.000000
0.010013 0.840191 0.000000
0.009842 0.840019 0.009842
0.009573 0.839751 0.078755
0.009305 0.839482 0.147668
0.009036 0.839213 0.216580
0.008767 0.838945 0.285493
0.008499 0.838676 0.354406
0.008230 0.838407 0.423319
0.007961 0.838139 0.492231
0.007693 0.837870 0.561144
0.007424 0.837601 0.630057
0.007155 0.837333 0.698970
0.006887 0.837064 0.767883
0.006618 0.836795 0.836795
0.006349 0.836527 0.905708
0.006081 0.836258 0.974621
0.005909 0.836087 1.000000
0.007352 0.906711 0.000000
0.007181 0.906539 0.007181
0.006912 0.906271 0.076094
0.006643 0.906002 0.145006
0.006375 0.905734 0.213919
0.006106 0.905465 0.282832
0.005837 0.905196 0.351745
0.005569 0.904928 0.420657
0.005300 0.904659 0.489570
0.005032 0.904390 0.558483
0.004763 0.904122 0.627396
0.004494 0.903853 0.696309
0.004226 0.903584 0.765221
0.003957 0.903316 0.834134
0.003688 0.903047 0.903047
0.003420 0.902778 0.971960
0.003248 0.902607 1.000000
0.004691 0.973231 0.000000
0.004520 0.973060 0.004520
0.004251 0.972791 0.073432
0.003982 0.972522 0.142345
0.003714 0.972254 0.211258
0.003445 0.971985 0.280171
0.003176 0.971716 0.349083
0.002908 0.971448 0.417996
0.002639 0.971179 0.486909
0.002370 0.970911 0.555822
0.002102 0.970642 0.624735
0.001833 0.970373 0.693647
0.001564 0.970105 0.762560
0.001296 0.969836 0.831473
0.001027 0.969567 0.900386
0.000758 0.969299 0.969299
0.000587 0.969127 1.000000
0.002993 1.000000 0.000000
0.002821 1.000000 0.002821
0.002553 1.000000 0.071734
0.002284 1.000000 0.140647
0.002015 1.000000 0.209560
0.001747 1.000000 0.278472
0.001478 1.000000 0.347385
0.001209 1.000000 0.416298
0.000941 1.000000 0.485211
0.000672 1.000000 0.554124
0.000403 1.000000 0.623036
0.000135 1.000000 0.691949
0.000000 1.000000 0.760862
0.000000 1.000000 0.829775
0.000000 1.000000 0.898687
0.000000 1.000000 0.967600
0.000000 1.000000 1.000000
0.112036 0.000000 0.000000
0.111865 0.000000 0.042684
0.111596 0.000000 0.111596
0.111328 0.000000 0.180509
0.111059 0.000000 0.249422
0.110790 0.000000 0.318335
0.110522 0.000000 0.387248
0.110253 0.000000 0.456160
0.109984 0.000000 0.525073
0.109716 0.000000 0.593986
0.109447 0.000000 0.662899
0.109179 0.000000 0.731812
0.108910 0.000000 0.800724
0.108641 0.000000 0.869637
0.108373 0.000000 0.938550
0.108104 0.000000 1.000000
0.107932 0.000000 1.000000
0.110338 0.041157 0.000000
0.110167 0.040985 0.040985
0.109898 0.040717 0.109898
0.109629 0.040448 0.178811
0.109361 0.040179 0.247724
0.109092 0.039911 0.316636
0.108823 0.039642 0.385549
0.108555 0.039373 0.454462
0.108286 0.039105 0.523375
0.108017 0.038836 0.592288
0.107749 0.038567 0.661200
0.107480 0.038299 0.730113
0.107212 0.038030 0.799026
0.106943 0.037761 0.867939
0.106674 0.037493 0.936852
0.106406 0.037224 1.000000
0.106234 0.037053 1.000000
0.107677 0.107677 0.000000
0.107505 0.107505 0.038324
0.107237 0.107237 0.107237
0.106968 0.106968 0.176150
0.106700 0.106700 0.245062
0.106431 0.106431 0.313975
0.106162 0.106162 0.382888
0.105894 0.105894 0.451801
0.105625 0.105625 0.520714
0.105356 0.105356 0.589626
0.105088 0.105088 0.658539
0.104819 0.104819 0.727452
0.104550 0.104550 0.796365
0.104282 0.104282 0.865278
0.104013 0.104013 0.934190
0.103744 0.103744 1.000000
0.103573 0.103573 1.000000
0.105016 0.174197 0.000000
0.104844 0.174026 0.035663
0.104576 0.173757 0.104576
0.104307 0.173488 0.173488
0.104038 0.173220 0.242401
0.103770 0.172951 0.311314
0.103501 0.172682 0.380227
0.103232 0.172414 0.449140
0.102964 0.172145 0.518052
0.102695 0.171877 0.586965
0.102426 0.171608 0.655878
0.102158 0.171339 0.724791
0.101889 0.171071 0.793704
0.101620 0.170802 0.862616
0.101352 0.170533 0.931529
0.101083 0.170265 1.000000
0.100912 0.170093 1.000000
0.102355 0.240717 0.000000
0.102183 0.240546 0.033002
0.101914 0.240277 0.101914
0.101646 0.240009 0.170827
0.101377 0.239740 0.239740
0.101108 0.239471 0.308653
0.100840 0.239203 0.377566
0.100571 0.238934 0.446478
0.100303 0.238665 0.515391
0.100034 0.238397 0.584304
0.099765 0.238128 0.653217
0.099497 0.237859 0.722130
0.099228 0.237591 0.791042
0.098959 0.237322 0.859955
0.098691 0.237054 0.928868
0.098422 0.236785 0.997781
0.098251 0.236613 1.000000
0.099693 0.307238 0.000000
0.099522 0.307066 0.030340
0.099253 0.306798 0.099253
0.098985 0.306529 0.168166
0.098716 0.306260 0.237079
0.098447 0.305992 0.305992
0.098179 0.305723 0.374904
0.097910 0.305454 0.443817
0.097641 0.305186 0.512730
0.097373 0.304917 0.581643
0.097104 0.304648 0.650556
0.096835 0.304380 0.719468
0.096567 0.304111 0.788381
0.096298 0.303842 0.857294
0.096029 0.303574 0.926207
0.095761 0.303305 0.995120
0.095589 0.303134 1.000000
0.097032 0.373758 0.000000
0.096861 0.373586 0.027679
0.096592 0.373318 0.096592
0.096323 0.373049 0.165505
0.096055 0.372781 0.234418
0.095786 0.372512 0.303330
0.095517 0.372243 0.372243
0.095249 0.371975 0.441156
0.094980 0.371706 0.510069
0.094712 0.371437 0.578982
0.094443 0.371169 0.647894
0.094174 0.370900 0.716807
0.093906 0.370631 0.785720
0.093637 0.370363 0.854633
0.093368 0.370094 0.923546
0.093100 0.369825 0.992458
0.092928 0.369654 1.000000
0.094371 0.440278 0.000000
0.094200 0.440107 0.025018
0.093931 0.439838 0.093931
0.093662 0.439569 0.162844
0.093394 0.439301 0.231756
0.093125 0.439032 0.300669
0.092856 0.438763 0.369582
0.092588 0.438495 0.438495
0.092319 0.438226 0.507408
0.092050 0.437958 0.576320
0.091782 0.437689 0.645233
0.091513 0.437420 0.714146
0.091244 0.437152 0.783059
0.090976 0.436883 0.851972
0.090707 0.436614 0.920884
0.090438 0.436346 0.989797
0.090267 0.436174 1.000000
0.091710 0.506798 0.000000
0.091538 0.506627 0.022357
0.091270 0.506358 0.091270
0.091001 0.506090 0.160182
0.090732 0.505821 0.229095
0.090464 0.505552 0.298008
0.090195 0.505284 0.366921
0.089926 0.505015 0.435834
0.089658 0.504746 0.504746
0.089389 0.504478 0.573659
0.089120 0.504209 0.642572
0.088852 0.503940 0.711485
0.088583 0.503672 0.780398
0.088315 0.503403 0.849310
0.088046 0.503134 0.918223
0.087777 0.502866 0.987136
0.087606 0.502694 1.000000
0.089049 0.573319 0.000000
0.088877 0.573147 0.019696
0.088608 0.572879 0.088608
0.088340 0.572610 0.157521
0.088071 0.572341 0.226434
0.087803 0.572073 0.295347
0.087534 0.571804 0.364260
0.087265 0.571535 0.433172
0.086997 0.571267 0.502085
0.086728 0.570998 0.570998
0.086459 0.570729 0.639911
0.086191 0.570461 0.708824
0.085922 0.570192 0.777736
0.085653 0.569923 0.846649
0.085385 0.569655 0.915562
0.085116 0.569386 0.984475
0.084945 0.569215 1.000000
0.086387 0.639839 0.000000
0.086216 0.639667 0.017034
0.085947 0.639399 0.085947
0.085679 0.639130 0.154860
0.085410 0.638861 0.223773
0.085141 0.638593 0.292686
0.084873 0.638324 0.361598
0.084604 0.638056 0.430511
0.084335 0.637787 0.499424
0.084067 0.637518 0.568337
0.083798 0.637250 0.637250
0.083529 0.636981 0.706162
0.083261 0.636712 0.775075
0.082992 0.636444 0.843988
0.082723 0.636175 0.912901
0.082455 0.635906 0.981814
0.082283 0.635735 1.000000
0.083726 0.706359 0.000000
0.083555 0.706188 0.014373
0.083286 0.705919 0.083286
0.083017 0.705650 0.152199
0.082749 0.705382 0.221112
0.082480 0.705113 0.290024
0.082211 0.704844 0.358937
0.081943 0.704576 0.427850
0.081674 0.704307 0.496763
0.081406 0.704038 0.565676
0.081137 0.703770 0.634588
0.080868 0.703501 0.703501
0.080600 0.703233 0.772414
0.080331 0.702964 0.841327
0.080062 0.702695 0.910240
0.079794 0.702427 0.979152
0.079622 0.702255 1.000000
0.081065 0.772879 0.000000
0.080894 0.772708 0.011712
0.080625 0.772439 0.080625
0.080356 0.772171 0.149538
0.080088 0.771902 0.218450
0.079819 0.771633 0.287363
0.079550 0.771365 0.356276
0.079282 0.771096 0.425189
0.079013 0.770827 0.494102
0.078744 0.770559 0.563014
0.078476 0.770290 0.631927
0.078207 0.770021 0.700840
0.077938 0.769753 0.769753
0.077670 0.769484 0.838666
0.077401 0.769215 0.907578
0.077132 0.768947 0.976491
0.076961 0.768775 1.000000
0.078404 0.839400 0.000000
0.078232 0.839228 0.009051
0.077964 0.838960 0.077964
0.077695 0.838691 0.146876
0.077426 0.838422 0.215789
0.077158 0.838154 0.284702
0.076889 0.837885 0.353615
0.076620 0.837616 0.422528
0.076352 0.837348 0.491440
0.076083 0.837079 0.560353
0.075814 0.836810 0.629266
0.075546 0.836542 0.698179
0.075277 0.836273 0.767092
0.075009 0.836004 0.836004
0.074740 0.835736 0.904917
0.074471 0.835467 0.973830
0.074300 0.835296 1.000000
0.075743 0.905920 0.000000
0.075571 0.905748 0.006390
0.075302 0.905480 0.075302
0.075034 0.905211 0.144215
0.074765 0.904942 0.213128
0.074497 0.904674 0.282041
0.074228 0.904405 0.350954
0.073959 0.904137 0.419866
0.073691 0.903868 0.488779
0.073422 0.903599 0.557692
0.073153 0.903331 0.626605
0.072885 0.903062 0.695518
0.072616 0.902793 0.764430
0.072347 0.902525 0.833343
0.072079 0.902256 0.902256
0.071810 0.901987 0.971169
0.071639 0.901816 1.000000
0.073081 0.972440 0.000000
0.072910 0.972269 0.003728
0.072641 0.972000 0.072641
0.072373 0.971731 0.141554
0.072104 0.971463 0.210467
0.071835 0.971194 0.279380
0.071567 0.970925 0.348292
0.071298 0.970657 0.417205
0.071029 0.970388 0.486118
0.070761 0.970119 0.555031
0.070492 0.969851 0.623944
0.070223 0.969582 0.692856
0.069955 0.969313 0.761769
0.069686 0.969045 0.830682
0.069417 0.968776 0.899595
0.069149 0.968508 0.968508
0.068977 0.968336 1.000000
0.071383 1.000000 0.000000
0.071212 1.000000 0.002030
0.070943 1.000000 0.070943
0.070674 1.000000 0.139856
0.070406 1.000000 0.208768
0.070137 1.000000 0.277681
0.069868 1.000000 0.346594
0.069600 1.000000 0.415507
0.069331 1.000000 0.484420
0.069062 1.000000 0.553332
0.068794 1.000000 0.622245
0.068525 1.000000 0.691158
0.068256 1.000000 0.760071
0.067988 1.000000 0.828984
0.067719 1.000000 0.897896
0.067450 1.000000 0.966809
0.067279 1.000000 1.000000
0.180427 0.000000 0.000000
0.180255 0.000000 0.041893
0.179987 0.000000 0.110805
0.179718 0.000000 0.179718
0.179449 0.000000 0.248631
0.179181 0.000000 0.317544
0.178912 0.000000 0.386456
0.178644 0.000000 0.455369
0.178375 0.000000 0.524282
0.178106 0.000000 0.593195
0.177838 0.000000 0.662108
0.177569 0.000000 0.731020
0.177300 0.000000 0.799933
0.177032 0.000000 0.868846
0.176763 0.000000 0.937759
0.176494 0.000000 1.000000
0.176323 0.000000 1.000000
0.178729 0.040366 0.000000
