skills/creativeops-director/assets/grade/luts/product_clean_v19.cube
TITLE "product_clean_v19"
LUT_3D_SIZE 9
DOMAIN_MIN 0.0 0.0 0.0
DOMAIN_MAX 1.0 1.0 1.0
0.000000 0.000000 0.000000
0.000000 0.000000 0.112892
0.000000 0.000000 0.250718
0.000000 0.000000 0.388543
0.000000 0.000000 0.526369
0.000000 0.000000 0.664195
0.000000 0.000000 0.802020
0.000000 0.000000 0.939846
0.000000 0.000000 1.000000
0.000000 0.108973 0.000000
0.000000 0.108533 0.108533
0.000000 0.107995 0.246358
0.000000 0.107458 0.384184
0.000000 0.106921 0.522010
0.000000 0.106384 0.659835
0.000000 0.105846 0.797661
0.000000 0.105309 0.935486
0.000000 0.104869 1.000000
0.000000 0.242013 0.000000
0.000000 0.241573 0.103210
0.000000 0.241036 0.241036
0.000000 0.240499 0.378862
0.000000 0.239961 0.516687
0.000000 0.239424 0.654513
0.000000 0.238887 0.792338
0.000000 0.238349 0.930164
0.000000 0.237909 1.000000
0.000000 0.375054 0.000000
0.000000 0.374614 0.097888
0.000000 0.374076 0.235714
0.000000 0.373539 0.373539
0.000000 0.373002 0.511365
0.000000 0.372465 0.649190
0.000000 0.371927 0.787016
0.000000 0.371390 0.924841
0.000000 0.370950 1.000000
0.000000 0.508094 0.000000
0.000000 0.507654 0.092566
0.000000 0.507117 0.230391
0.000000 0.506580 0.368217
0.000000 0.506042 0.506042
0.000000 0.505505 0.643868
0.000000 0.504968 0.781693
0.000000 0.504430 0.919519
0.000000 0.503990 1.000000
0.000000 0.641135 0.000000
0.000000 0.640695 0.087243
0.000000 0.640157 0.225069
0.000000 0.639620 0.362894
0.000000 0.639083 0.500720
0.000000 0.638546 0.638546
0.000000 0.638008 0.776371
0.000000 0.637471 0.914197
0.000000 0.637031 1.000000
0.000000 0.774175 0.000000
0.000000 0.773735 0.081921
0.000000 0.773198 0.219746
0.000000 0.772661 0.357572
0.000000 0.772123 0.495398
0.000000 0.771586 0.633223
0.000000 0.771049 0.771049
0.000000 0.770511 0.908874
0.000000 0.770071 1.000000
0.000000 0.907216 0.000000
0.000000 0.906776 0.076598
0.000000 0.906238 0.214424
0.000000 0.905701 0.352250
0.000000 0.905164 0.490075
0.000000 0.904626 0.627901
0.000000 0.904089 0.765726
0.000000 0.903552 0.903552
0.000000 0.903112 1.000000
0.000000 1.000000 0.000000
0.000000 1.000000 0.072239
0.000000 1.000000 0.210064
0.000000 1.000000 0.347890
0.000000 1.000000 0.485716
0.000000 1.000000 0.623541
0.000000 1.000000 0.761367
0.000000 1.000000 0.899192
0.000000 1.000000 1.000000
0.112036 0.000000 0.000000
0.111596 0.000000 0.111596
0.111059 0.000000 0.249422
0.110522 0.000000 0.387248
0.109984 0.000000 0.525073
0.109447 0.000000 0.662899
0.108910 0.000000 0.800724
0.108373 0.000000 0.938550
0.107932 0.000000 1.000000
0.107677 0.107677 0.000000
0.107237 0.107237 0.107237
0.106700 0.106700 0.245062
0.106162 0.106162 0.382888
0.105625 0.105625 0.520714
0.105088 0.105088 0.658539
0.104550 0.104550 0.796365
0.104013 0.104013 0.934190
0.103573 0.103573 1.000000
0.102355 0.240717 0.000000
0.101914 0.240277 0.101914
0.101377 0.239740 0.239740
0.100840 0.239203 0.377566
0.100303 0.238665 0.515391
0.099765 0.238128 0.653217
0.099228 0.237591 0.791042
0.098691 0.237054 0.928868
0.098251 0.236613 1.000000
0.097032 0.373758 0.000000
0.096592 0.373318 0.096592
0.096055 0.372781 0.234418
0.095517 0.372243 0.372243
0.094980 0.371706 0.510069
0.094443 0.371169 0.647894
0.093906 0.370631 0.785720
0.093368 0.370094 0.923546
0.092928 0.369654 1.000000
0.091710 0.506798 0.000000
0.091270 0.506358 0.091270
0.090732 0.505821 0.229095
0.090195 0.505284 0.366921
0.089658 0.504746 0.504746
0.089120 0.504209 0.642572
0.088583 0.503672 0.780398
0.088046 0.503134 0.918223
0.087606 0.502694 1.000000
0.086387 0.639839 0.000000
0.085947 0.639399 0.085947
0.085410 0.638861 0.223773
0.084873 0.638324 0.361598
0.084335 0.637787 0.499424
0.083798 0.637250 0.637250
0.083261 0.636712 0.775075
0.082723 0.636175 0.912901
0.082283 0.635735 1.000000
0.081065 0.772879 0.000000
0.080625 0.772439 0.080625
0.080088 0.771902 0.218450
0.079550 0.771365 0.356276
0.079013 0.770827 0.494102
0.078476 0.770290 0.631927
0.077938 0.769753 0.769753
0.077401 0.769215 0.907578
0.076961 0.768775 1.000000
0.075743 0.905920 0.000000
0.075302 0.905480 0.075302
0.074765 0.904942 0.213128
0.074228 0.904405 0.350954
0.073691 0.903868 0.488779
0.073153 0.903331 0.626605
0.072616 0.902793 0.764430
0.072079 0.902256 0.902256
0.071639 0.901816 1.000000
0.071383 1.000000 0.000000
0.070943 1.000000 0.070943
0.070406 1.000000 0.208768
0.069868 1.000000 0.346594
0.069331 1.000000 0.484420
0.068794 1.000000 0.622245
0.068256 1.000000 0.760071
0.067719 1.000000 0.897896
0.067279 1.000000 1.000000
0.248817 0.000000 0.000000
0.248377 0.000000 0.110014
0.247840 0.000000 0.247840
0.247303 0.000000 0.385665
0.246765 0.000000 0.523491
0.246228 0.000000 0.661317
0.245691 0.000000 0.799142
0.245153 0.000000 0.936968
0.244713 0.000000 1.000000
0.244458 0.106095 0.000000
0.244018 0.105655 0.105655
0.243480 0.105117 0.243480
0.242943 0.104580 0.381306
0.242406 0.104043 0.519131
0.241868 0.103506 0.656957
0.241331 0.102968 0.794783
0.240794 0.102431 0.932608
0.240354 0.101991 1.000000
0.239135 0.239135 0.000000
0.238695 0.238695 0.100332
0.238158 0.238158 0.238158
0.237621 0.237621 0.375983
0.237083 0.237083 0.513809
0.236546 0.236546 0.651635
0.236009 0.236009 0.789460
0.235471 0.235471 0.927286
0.235031 0.235031 1.000000
0.233813 0.372176 0.000000
0.233373 0.371736 0.095010
0.232835 0.371198 0.232835
0.232298 0.370661 0.370661
0.231761 0.370124 0.508487
0.231224 0.369586 0.646312
0.230686 0.369049 0.784138
0.230149 0.368512 0.921963
0.229709 0.368072 1.000000
0.228491 0.505216 0.000000
0.228050 0.504776 0.089688
0.227513 0.504239 0.227513
0.226976 0.503702 0.365339
0.226439 0.503164 0.503164
0.225901 0.502627 0.640990
0.225364 0.502090 0.778815
0.224827 0.501552 0.916641
0.224387 0.501112 1.000000
0.223168 0.638257 0.000000
0.222728 0.637817 0.084365
0.222191 0.637279 0.222191
0.221653 0.636742 0.360016
0.221116 0.636205 0.497842
0.220579 0.635667 0.635667
0.220042 0.635130 0.773493
0.219504 0.634593 0.911319
0.219064 0.634153 1.000000
0.217846 0.771297 0.000000
0.217406 0.770857 0.079043
0.216868 0.770320 0.216868
0.216331 0.769783 0.354694
0.215794 0.769245 0.492519
0.215256 0.768708 0.630345
0.214719 0.768171 0.768171
0.214182 0.767633 0.905996
0.213742 0.767193 1.000000
0.212523 0.904338 0.000000
0.212083 0.903898 0.073720
0.211546 0.903360 0.211546
0.211009 0.902823 0.349371
0.210471 0.902286 0.487197
0.209934 0.901748 0.625023
0.209397 0.901211 0.762848
0.208859 0.900674 0.900674
0.208419 0.900234 1.000000
0.208164 1.000000 0.000000
0.207724 1.000000 0.069361
0.207186 1.000000 0.207186
0.206649 1.000000 0.345012
0.206112 1.000000 0.482838
0.205574 1.000000 0.620663
0.205037 1.000000 0.758489
0.204500 1.000000 0.896314
0.204060 1.000000 1.000000
0.385598 0.000000 0.000000
0.385158 0.000000 0.108432
0.384621 0.000000 0.246258
0.384083 0.000000 0.384083
0.383546 0.000000 0.521909
0.383009 0.000000 0.659734
0.382471 0.000000 0.797560
0.381934 0.000000 0.935386
0.381494 0.000000 1.000000
0.381238 0.104513 0.000000
0.380798 0.104073 0.104073
0.380261 0.103535 0.241898
0.379724 0.102998 0.379724
0.379186 0.102461 0.517549
0.378649 0.101923 0.655375
0.378112 0.101386 0.793200
0.377575 0.100849 0.931026
0.377134 0.100409 1.000000
0.375916 0.237553 0.000000
0.375476 0.237113 0.098750
0.374939 0.236576 0.236576
0.374401 0.236038 0.374401
0.373864 0.235501 0.512227
0.373327 0.234964 0.650053
0.372789 0.234427 0.787878
0.372252 0.233889 0.925704
0.371812 0.233449 1.000000
0.370594 0.370594 0.000000
0.370154 0.370154 0.093428
0.369616 0.369616 0.231253
0.369079 0.369079 0.369079
0.368542 0.368542 0.506905
0.368004 0.368004 0.644730
0.367467 0.367467 0.782556
0.366930 0.366930 0.920381
0.366490 0.366490 1.000000
0.365271 0.503634 0.000000
0.364831 0.503194 0.088105
0.364294 0.502657 0.225931
0.363757 0.502119 0.363757
0.363219 0.501582 0.501582
0.362682 0.501045 0.639408
0.362145 0.500508 0.777233
0.361607 0.499970 0.915059
0.361167 0.499530 1.000000
0.359949 0.636675 0.000000
0.359509 0.636235 0.082783
0.358971 0.635697 0.220609
0.358434 0.635160 0.358434
0.357897 0.634623 0.496260
0.357360 0.634085 0.634085
0.356822 0.633548 0.771911
0.356285 0.633011 0.909736
0.355845 0.632571 1.000000
0.354626 0.769715 0.000000
0.354186 0.769275 0.077461
0.353649 0.768738 0.215286
0.353112 0.768200 0.353112
0.352574 0.767663 0.490937
0.352037 0.767126 0.628763
0.351500 0.766589 0.766589
0.350963 0.766051 0.904414
0.350522 0.765611 1.000000
0.349304 0.902756 0.000000
0.348864 0.902315 0.072138
0.348327 0.901778 0.209964
0.347789 0.901241 0.347789
0.347252 0.900704 0.485615
0.346715 0.900166 0.623441
0.346177 0.899629 0.761266
0.345640 0.899092 0.899092
0.345200 0.898652 1.000000
0.344945 1.000000 0.000000
0.344504 1.000000 0.067779
0.343967 1.000000 0.205604
0.343430 1.000000 0.343430
0.342893 1.000000 0.481255
0.342355 1.000000 0.619081
0.341818 1.000000 0.756907
0.341281 1.000000 0.894732
0.340841 1.000000 1.000000
0.522379 0.000000 0.000000
0.521939 0.000000 0.106850
0.521401 0.000000 0.244676
0.520864 0.000000 0.382501
0.520327 0.000000 0.520327
0.519789 0.000000 0.658152
0.519252 0.000000 0.795978
0.518715 0.000000 0.933803
0.518275 0.000000 1.000000
0.518019 0.102931 0.000000
0.517579 0.102490 0.102490
0.517042 0.101953 0.240316
0.516504 0.101416 0.378142
0.515967 0.100879 0.515967
0.515430 0.100341 0.653793
0.514893 0.099804 0.791618
0.514355 0.099267 0.929444
0.513915 0.098827 1.000000
0.512697 0.235971 0.000000
0.512257 0.235531 0.097168
0.511719 0.234994 0.234994
0.511182 0.234456 0.372819
0.510645 0.233919 0.510645
0.510107 0.233382 0.648470
0.509570 0.232844 0.786296
0.509033 0.232307 0.924122
0.508593 0.231867 1.000000
0.507374 0.369012 0.000000
0.506934 0.368571 0.091846
0.506397 0.368034 0.229671
0.505860 0.367497 0.367497
0.505322 0.366960 0.505322
0.504785 0.366422 0.643148
0.504248 0.365885 0.780974
0.503710 0.365348 0.918799
0.503270 0.364908 1.000000
0.502052 0.502052 0.000000
0.501612 0.501612 0.086523
0.501075 0.501075 0.224349
0.500537 0.500537 0.362174
0.500000 0.500000 0.500000
0.499463 0.499463 0.637826
0.498925 0.498925 0.775651
0.498388 0.498388 0.913477
0.497948 0.497948 1.000000
0.496730 0.635092 0.000000
0.496290 0.634652 0.081201
0.495752 0.634115 0.219026
0.495215 0.633578 0.356852
0.494678 0.633040 0.494678
0.494140 0.632503 0.632503
0.493603 0.631966 0.770329
0.493066 0.631429 0.908154
0.492626 0.630988 1.000000
0.491407 0.768133 0.000000
0.490967 0.767693 0.075878
0.490430 0.767156 0.213704
0.489893 0.766618 0.351530
0.489355 0.766081 0.489355
0.488818 0.765544 0.627181
0.488281 0.765006 0.765006
0.487743 0.764469 0.902832
0.487303 0.764029 1.000000
0.486085 0.901173 0.000000
0.485645 0.900733 0.070556
0.485107 0.900196 0.208382
0.484570 0.899659 0.346207
0.484033 0.899121 0.484033
0.483496 0.898584 0.621858
0.482958 0.898047 0.759684
0.482421 0.897510 0.897510
0.481981 0.897069 1.000000
0.481725 1.000000 0.000000
0.481285 1.000000 0.066197
0.480748 1.000000 0.204022
0.480211 1.000000 0.341848
0.479673 1.000000 0.479673
0.479136 1.000000 0.617499
0.478599 1.000000 0.755324
0.478061 1.000000 0.893150
0.477621 1.000000 1.000000
0.659159 0.000000 0.000000
0.658719 0.000000 0.105268
0.658182 0.000000 0.243093
0.657645 0.000000 0.380919
0.657107 0.000000 0.518745
0.656570 0.000000 0.656570
0.656033 0.000000 0.794396
0.655496 0.000000 0.932221
0.655055 0.000000 1.000000
0.654800 0.101348 0.000000
0.654360 0.100908 0.100908
0.653823 0.100371 0.238734
0.653285 0.099834 0.376559
0.652748 0.099296 0.514385
0.652211 0.098759 0.652211
0.651673 0.098222 0.790036
0.651136 0.097685 0.927862
0.650696 0.097244 1.000000
0.649478 0.234389 0.000000
0.649037 0.233949 0.095586
0.648500 0.233411 0.233411
0.647963 0.232874 0.371237
0.647426 0.232337 0.509063
0.646888 0.231800 0.646888
0.646351 0.231262 0.784714
0.645814 0.230725 0.922539
0.645374 0.230285 1.000000
0.644155 0.367429 0.000000
0.643715 0.366989 0.090264
0.643178 0.366452 0.228089
0.642640 0.365915 0.365915
0.642103 0.365377 0.503740
0.641566 0.364840 0.641566
0.641029 0.364303 0.779391
0.640491 0.363765 0.917217
0.640051 0.363325 1.000000
0.638833 0.500470 0.000000
0.638393 0.500030 0.084941
0.637855 0.499492 0.222767
0.637318 0.498955 0.360592
0.636781 0.498418 0.498418
0.636243 0.497881 0.636243
0.635706 0.497343 0.774069
0.635169 0.496806 0.911895
0.634729 0.496366 1.000000
0.633510 0.633510 0.000000
0.633070 0.633070 0.079619
0.632533 0.632533 0.217444
0.631996 0.631996 0.355270
0.631458 0.631458 0.493095
0.630921 0.630921 0.630921
0.630384 0.630384 0.768747
0.629846 0.629846 0.906572
0.629406 0.629406 1.000000
0.628188 0.766551 0.000000
0.627748 0.766111 0.074296
0.627211 0.765573 0.212122
0.626673 0.765036 0.349947
0.626136 0.764499 0.487773
0.625599 0.763962 0.625599
0.625061 0.763424 0.763424
0.624524 0.762887 0.901250
0.624084 0.762447 1.000000
0.622866 0.899591 0.000000
0.622425 0.899151 0.068974
0.621888 0.898614 0.206800
0.621351 0.898077 0.344625
0.620814 0.897539 0.482451
0.620276 0.897002 0.620276
0.619739 0.896465 0.758102
0.619202 0.895927 0.895927
0.618762 0.895487 1.000000
0.618506 1.000000 0.000000
0.618066 1.000000 0.064614
0.617529 1.000000 0.202440
0.616991 1.000000 0.340266
0.616454 1.000000 0.478091
0.615917 1.000000 0.615917
0.615379 1.000000 0.753742
0.614842 1.000000 0.891568
0.614402 1.000000 1.000000
0.795940 0.000000 0.000000
0.795500 0.000000 0.103686
0.794963 0.000000 0.241511
0.794426 0.000000 0.379337
0.793888 0.000000 0.517162
0.793351 0.000000 0.654988
0.792814 0.000000 0.792814
0.792276 0.000000 0.930639
0.791836 0.000000 1.000000
0.791581 0.099766 0.000000
0.791141 0.099326 0.099326
0.790603 0.098789 0.237152
0.790066 0.098252 0.374977
0.789529 0.097714 0.512803
0.788991 0.097177 0.650629
0.788454 0.096640 0.788454
0.787917 0.096102 0.926280
0.787477 0.095662 1.000000
0.786258 0.232807 0.000000
0.785818 0.232367 0.094004
0.785281 0.231829 0.231829
0.784744 0.231292 0.369655
0.784206 0.230755 0.507481
0.783669 0.230217 0.645306
0.783132 0.229680 0.783132
0.782594 0.229143 0.920957
0.782154 0.228703 1.000000
0.780936 0.365847 0.000000
0.780496 0.365407 0.088681
0.779958 0.364870 0.226507
0.779421 0.364333 0.364333
0.778884 0.363795 0.502158
0.778347 0.363258 0.639984
0.777809 0.362721 0.777809
0.777272 0.362183 0.915635
0.776832 0.361743 1.000000
0.775613 0.498888 0.000000
0.775173 0.498448 0.083359
0.774636 0.497910 0.221185
0.774099 0.497373 0.359010
0.773561 0.496836 0.496836
0.773024 0.496298 0.634661
0.772487 0.495761 0.772487
0.771950 0.495224 0.910312
0.771509 0.494784 1.000000
0.770291 0.631928 0.000000
0.769851 0.631488 0.078037
0.769314 0.630951 0.215862
0.768776 0.630414 0.353688
0.768239 0.629876 0.491513
0.767702 0.629339 0.629339
0.767165 0.628802 0.767165
0.766627 0.628264 0.904990
0.766187 0.627824 1.000000
0.764969 0.764969 0.000000
0.764529 0.764529 0.072714
0.763991 0.763991 0.210540
0.763454 0.763454 0.348365
0.762917 0.762917 0.486191
0.762379 0.762379 0.624017
0.761842 0.761842 0.761842
0.761305 0.761305 0.899668
0.760865 0.760865 1.000000
0.759646 0.898009 0.000000
0.759206 0.897569 0.067392
0.758669 0.897032 0.205217
0.758132 0.896494 0.343043
0.757594 0.895957 0.480869
0.757057 0.895420 0.618694
0.756520 0.894883 0.756520
0.755982 0.894345 0.894345
0.755542 0.893905 1.000000
0.755287 1.000000 0.000000
0.754847 1.000000 0.063032
0.754309 1.000000 0.200858
0.753772 1.000000 0.338683
0.753235 1.000000 0.476509
0.752697 1.000000 0.614335
0.752160 1.000000 0.752160
0.751623 1.000000 0.889986
0.751183 1.000000 1.000000
0.932721 0.000000 0.000000
0.932281 0.000000 0.102104
0.931744 0.000000 0.239929
0.931206 0.000000 0.377755
0.930669 0.000000 0.515580
0.930132 0.000000 0.653406
0.929594 0.000000 0.791232
0.929057 0.000000 0.929057
0.928617 0.000000 1.000000
0.928361 0.098184 0.000000
0.927921 0.097744 0.097744
0.927384 0.097207 0.235570
0.926847 0.096669 0.373395
0.926309 0.096132 0.511221
0.925772 0.095595 0.649046
0.925235 0.095058 0.786872
0.924698 0.094520 0.924698
0.924257 0.094080 1.000000
0.923039 0.231225 0.000000
0.922599 0.230785 0.092422
0.922062 0.230247 0.230247
0.921524 0.229710 0.368073
0.920987 0.229173 0.505898
0.920450 0.228635 0.643724
0.919912 0.228098 0.781550
0.919375 0.227561 0.919375
0.918935 0.227121 1.000000
0.917717 0.364265 0.000000
0.917277 0.363825 0.087099
0.916739 0.363288 0.224925
0.916202 0.362750 0.362750
0.915665 0.362213 0.500576
0.915127 0.361676 0.638402
0.914590 0.361139 0.776227
0.914053 0.360601 0.914053
0.913613 0.360161 1.000000
0.912394 0.497306 0.000000
0.911954 0.496866 0.081777
0.911417 0.496328 0.219602
0.910880 0.495791 0.357428
0.910342 0.495254 0.495254
0.909805 0.494716 0.633079
0.909268 0.494179 0.770905
0.908730 0.493642 0.908730
0.908290 0.493202 1.000000
0.907072 0.630346 0.000000
0.906632 0.629906 0.076454
0.906094 0.629369 0.214280
0.905557 0.628831 0.352106
0.905020 0.628294 0.489931
0.904483 0.627757 0.627757
0.903945 0.627219 0.765582
0.903408 0.626682 0.903408
0.902968 0.626242 1.000000
0.901749 0.763387 0.000000
0.901309 0.762946 0.071132
0.900772 0.762409 0.208958
0.900235 0.761872 0.346783
0.899697 0.761335 0.484609
0.899160 0.760797 0.622434
0.898623 0.760260 0.760260
0.898086 0.759723 0.898086
0.897645 0.759283 1.000000
0.896427 0.896427 0.000000
0.895987 0.895987 0.065810
0.895450 0.895450 0.203635
0.894912 0.894912 0.341461
0.894375 0.894375 0.479286
0.893838 0.893838 0.617112
0.893300 0.893300 0.754938
0.892763 0.892763 0.892763
0.892323 0.892323 1.000000
0.892068 1.000000 0.000000
0.891627 1.000000 0.061450
0.891090 1.000000 0.199276
0.890553 1.000000 0.337101
0.890016 1.000000 0.474927
0.889478 1.000000 0.612752
0.888941 1.000000 0.750578
0.888404 1.000000 0.888404
0.887964 1.000000 1.000000
1.000000 0.000000 0.000000
1.000000 0.000000 0.100808
1.000000 0.000000 0.238633
1.000000 0.000000 0.376459
1.000000 0.000000 0.514284
1.000000 0.000000 0.652110
1.000000 0.000000 0.789936
1.000000 0.000000 0.927761
1.000000 0.000000 1.000000
1.000000 0.096888 0.000000
1.000000 0.096448 0.096448
1.000000 0.095911 0.234274
1.000000 0.095374 0.372099
1.000000 0.094836 0.509925
1.000000 0.094299 0.647750
1.000000 0.093762 0.785576
1.000000 0.093224 0.923402
1.000000 0.092784 1.000000
1.000000 0.229929 0.000000
1.000000 0.229489 0.091126
1.000000 0.228951 0.228951
1.000000 0.228414 0.366777
1.000000 0.227877 0.504602
1.000000 0.227339 0.642428
1.000000 0.226802 0.780254
1.000000 0.226265 0.918079
1.000000 0.225825 1.000000
1.000000 0.362969 0.000000
1.000000 0.362529 0.085803
1.000000 0.361992 0.223629
1.000000 0.361454 0.361454
1.000000 0.360917 0.499280
1.000000 0.360380 0.637106
1.000000 0.359843 0.774931
1.000000 0.359305 0.912757
1.000000 0.358865 1.000000
1.000000 0.496010 0.000000
1.000000 0.495570 0.080481
1.000000 0.495032 0.218307
1.000000 0.494495 0.356132
1.000000 0.493958 0.493958
1.000000 0.493420 0.631783
1.000000 0.492883 0.769609
1.000000 0.492346 0.907434
1.000000 0.491906 1.000000
1.000000 0.629050 0.000000
1.000000 0.628610 0.075159
1.000000 0.628073 0.212984
1.000000 0.627535 0.350810
1.000000 0.626998 0.488635
1.000000 0.626461 0.626461
1.000000 0.625924 0.764286
1.000000 0.625386 0.902112
1.000000 0.624946 1.000000
1.000000 0.762091 0.000000
1.000000 0.761651 0.069836
1.000000 0.761113 0.207662
1.000000 0.760576 0.345487
1.000000 0.760039 0.483313
1.000000 0.759501 0.621138
1.000000 0.758964 0.758964
1.000000 0.758427 0.896790
1.000000 0.757987 1.000000
1.000000 0.895131 0.000000
1.000000 0.894691 0.064514
1.000000 0.894154 0.202339
1.000000 0.893616 0.340165
1.000000 0.893079 0.477990
1.000000 0.892542 0.615816
1.000000 0.892005 0.753642
1.000000 0.891467 0.891467
1.000000 0.891027 1.000000
1.000000 1.000000 0.000000
1.000000 1.000000 0.060154
1.000000 1.000000 0.197980
1.000000 1.000000 0.335805
1.000000 1.000000 0.473631
1.000000 1.000000 0.611457
1.000000 1.000000 0.749282
1.000000 1.000000 0.887108
1.000000 1.000000 1.000000
