skills/creativeops-director/assets/grade/luts/product_clean_v04.cube
TITLE "product_clean_v04"
LUT_3D_SIZE 5
DOMAIN_MIN 0.0 0.0 0.0
DOMAIN_MAX 1.0 1.0 1.0
0.000000 0.000000 0.000000
0.000000 0.000000 0.250206
0.000000 0.000000 0.504395
0.000000 0.000000 0.758583
0.000000 0.000000 1.000000
0.000000 0.248696 0.000000
0.000000 0.248526 0.248526
0.000000 0.248354 0.502714
0.000000 0.248181 0.756903
0.000000 0.248012 1.000000
0.000000 0.501349 0.000000
0.000000 0.501179 0.246819
0.000000 0.501007 0.501007
0.000000 0.500835 0.755196
0.000000 0.500665 1.000000
0.000000 0.754003 0.000000
0.000000 0.753833 0.245111
0.000000 0.753661 0.499300
0.000000 0.753488 0.753488
0.000000 0.753319 1.000000
0.000000 1.000000 0.000000
0.000000 1.000000 0.243431
0.000000 1.000000 0.497619
0.000000 1.000000 0.751808
0.000000 1.000000 1.000000
0.249876 0.000000 0.000000
0.249707 0.000000 0.249707
0.249534 0.000000 0.503895
0.249362 0.000000 0.758084
0.249192 0.000000 1.000000
0.248196 0.248196 0.000000
0.248026 0.248026 0.248026
0.247854 0.247854 0.502215
0.247682 0.247682 0.756403
0.247512 0.247512 1.000000
0.246489 0.500850 0.000000
0.246319 0.500680 0.246319
0.246147 0.500508 0.500508
0.245974 0.500335 0.754696
0.245805 0.500166 1.000000
0.244781 0.753503 0.000000
0.244612 0.753333 0.244612
0.244439 0.753161 0.498800
0.244267 0.752989 0.752989
0.244097 0.752819 1.000000
0.243101 1.000000 0.000000
0.242931 1.000000 0.242931
0.242759 1.000000 0.497120
0.242587 1.000000 0.751308
0.242417 1.000000 1.000000
0.503730 0.000000 0.000000
0.503560 0.000000 0.249199
0.503388 0.000000 0.503388
0.503215 0.000000 0.757576
0.503046 0.000000 1.000000
0.502049 0.247688 0.000000
0.501880 0.247519 0.247519
0.501707 0.247346 0.501707
0.501535 0.247174 0.755896
0.501365 0.247004 1.000000
0.500342 0.500342 0.000000
0.500172 0.500172 0.245812
0.500000 0.500000 0.500000
0.499828 0.499828 0.754188
0.499658 0.499658 1.000000
0.498635 0.752996 0.000000
0.498465 0.752826 0.244104
0.498293 0.752654 0.498293
0.498120 0.752481 0.752481
0.497951 0.752312 1.000000
0.496954 1.000000 0.000000
0.496785 1.000000 0.242424
0.496612 1.000000 0.496612
0.496440 1.000000 0.750801
0.496270 1.000000 1.000000
0.757583 0.000000 0.000000
0.757413 0.000000 0.248692
0.757241 0.000000 0.502880
0.757069 0.000000 0.757069
0.756899 0.000000 1.000000
0.755903 0.247181 0.000000
0.755733 0.247011 0.247011
0.755561 0.246839 0.501200
0.755388 0.246667 0.755388
0.755219 0.246497 1.000000
0.754195 0.499834 0.000000
0.754026 0.499665 0.245304
0.753853 0.499492 0.499492
0.753681 0.499320 0.753681
0.753511 0.499150 1.000000
0.752488 0.752488 0.000000
0.752318 0.752318 0.243597
0.752146 0.752146 0.497785
0.751974 0.751974 0.751974
0.751804 0.751804 1.000000
0.750808 1.000000 0.000000
0.750638 1.000000 0.241916
0.750466 1.000000 0.496105
0.750293 1.000000 0.750293
0.750124 1.000000 1.000000
1.000000 0.000000 0.000000
1.000000 0.000000 0.248192
1.000000 0.000000 0.502381
1.000000 0.000000 0.756569
1.000000 0.000000 1.000000
1.000000 0.246681 0.000000
1.000000 0.246512 0.246512
1.000000 0.246339 0.500700
1.000000 0.246167 0.754889
1.000000 0.245997 1.000000
1.000000 0.499335 0.000000
1.000000 0.499165 0.244804
1.000000 0.498993 0.498993
1.000000 0.498821 0.753181
1.000000 0.498651 1.000000
1.000000 0.751988 0.000000
1.000000 0.751819 0.243097
1.000000 0.751646 0.497286
1.000000 0.751474 0.751474
1.000000 0.751304 1.000000
1.000000 1.000000 0.000000
1.000000 1.000000 0.241417
1.000000 1.000000 0.495605
1.000000 1.000000 0.749794
1.000000 1.000000 1.000000
