skills/creativeops-director/assets/grade/luts/product_clean_v04.cube
TITLE "product_clean_v04"
LUT_3D_SIZE 9
DOMAIN_MIN 0.0 0.0 0.0
DOMAIN_MAX 1.0 1.0 1.0
0.000000 0.000000 0.000000
0.000000 0.000000 0.123112
0.000000 0.000000 0.250206
0.000000 0.000000 0.377301
0.000000 0.000000 0.504395
0.000000 0.000000 0.631489
0.000000 0.000000 0.758583
0.000000 0.000000 0.885678
0.000000 0.000000 1.000000
0.000000 0.122369 0.000000
0.000000 0.122285 0.122285
0.000000 0.122199 0.249380
0.000000 0.122113 0.376474
0.000000 0.122027 0.503568
0.000000 0.121941 0.630662
0.000000 0.121854 0.757756
0.000000 0.121768 0.884851
0.000000 0.121685 1.000000
0.000000 0.248696 0.000000
0.000000 0.248612 0.121432
0.000000 0.248526 0.248526
0.000000 0.248440 0.375620
0.000000 0.248354 0.502714
0.000000 0.248267 0.629809
0.000000 0.248181 0.756903
0.000000 0.248095 0.883997
0.000000 0.248012 1.000000
0.000000 0.375022 0.000000
0.000000 0.374939 0.120578
0.000000 0.374853 0.247672
0.000000 0.374766 0.374766
0.000000 0.374680 0.501861
0.000000 0.374594 0.628955
0.000000 0.374508 0.756049
0.000000 0.374422 0.883143
0.000000 0.374338 1.000000
0.000000 0.501349 0.000000
0.000000 0.501266 0.119724
0.000000 0.501179 0.246819
0.000000 0.501093 0.373913
0.000000 0.501007 0.501007
0.000000 0.500921 0.628101
0.000000 0.500835 0.755196
0.000000 0.500749 0.882290
0.000000 0.500665 1.000000
0.000000 0.627676 0.000000
0.000000 0.627592 0.118871
0.000000 0.627506 0.245965
0.000000 0.627420 0.373059
0.000000 0.627334 0.500153
0.000000 0.627248 0.627248
0.000000 0.627161 0.754342
0.000000 0.627075 0.881436
0.000000 0.626992 1.000000
0.000000 0.754003 0.000000
0.000000 0.753919 0.118017
0.000000 0.753833 0.245111
0.000000 0.753747 0.372206
0.000000 0.753661 0.499300
0.000000 0.753574 0.626394
0.000000 0.753488 0.753488
0.000000 0.753402 0.880582
0.000000 0.753319 1.000000
0.000000 0.880329 0.000000
0.000000 0.880246 0.117163
0.000000 0.880160 0.244258
0.000000 0.880074 0.371352
0.000000 0.879987 0.498446
0.000000 0.879901 0.625540
0.000000 0.879815 0.752635
0.000000 0.879729 0.879729
0.000000 0.879645 1.000000
0.000000 1.000000 0.000000
0.000000 1.000000 0.116337
0.000000 1.000000 0.243431
0.000000 1.000000 0.370525
0.000000 1.000000 0.497619
0.000000 1.000000 0.624713
0.000000 1.000000 0.751808
0.000000 1.000000 0.878902
0.000000 1.000000 1.000000
0.122950 0.000000 0.000000
0.122866 0.000000 0.122866
0.122780 0.000000 0.249961
0.122694 0.000000 0.377055
0.122608 0.000000 0.504149
0.122522 0.000000 0.631243
0.122435 0.000000 0.758337
0.122349 0.000000 0.885432
0.122266 0.000000 1.000000
0.122123 0.122123 0.000000
0.122039 0.122039 0.122039
0.121953 0.121953 0.249134
0.121867 0.121867 0.376228
0.121781 0.121781 0.503322
0.121695 0.121695 0.630416
0.121609 0.121609 0.757511
0.121522 0.121522 0.884605
0.121439 0.121439 1.000000
0.121269 0.248450 0.000000
0.121186 0.248366 0.121186
0.121100 0.248280 0.248280
0.121013 0.248194 0.375374
0.120927 0.248108 0.502469
0.120841 0.248022 0.629563
0.120755 0.247935 0.756657
0.120669 0.247849 0.883751
0.120585 0.247766 1.000000
0.120416 0.374776 0.000000
0.120332 0.374693 0.120332
0.120246 0.374607 0.247426
0.120160 0.374521 0.374521
0.120074 0.374434 0.501615
0.119988 0.374348 0.628709
0.119901 0.374262 0.755803
0.119815 0.374176 0.882898
0.119732 0.374092 1.000000
0.119562 0.501103 0.000000
0.119479 0.501020 0.119479
0.119392 0.500934 0.246573
0.119306 0.500847 0.373667
0.119220 0.500761 0.500761
0.119134 0.500675 0.627855
0.119048 0.500589 0.754950
0.118962 0.500503 0.882044
0.118878 0.500419 1.000000
0.118708 0.627430 0.000000
0.118625 0.627347 0.118625
0.118539 0.627260 0.245719
0.118453 0.627174 0.372813
0.118366 0.627088 0.499908
0.118280 0.627002 0.627002
0.118194 0.626916 0.754096
0.118108 0.626829 0.881190
0.118024 0.626746 1.000000
0.117855 0.753757 0.000000
0.117771 0.753673 0.117771
0.117685 0.753587 0.244866
0.117599 0.753501 0.371960
0.117513 0.753415 0.499054
0.117427 0.753329 0.626148
0.117340 0.753242 0.753242
0.117254 0.753156 0.880337
0.117171 0.753073 1.000000
0.117001 0.880084 0.000000
0.116918 0.880000 0.116918
0.116831 0.879914 0.244012
0.116745 0.879828 0.371106
0.116659 0.879742 0.498200
0.116573 0.879655 0.625295
0.116487 0.879569 0.752389
0.116401 0.879483 0.879483
0.116317 0.879400 1.000000
0.116174 1.000000 0.000000
0.116091 1.000000 0.116091
0.116005 1.000000 0.243185
0.115918 1.000000 0.370279
0.115832 1.000000 0.497373
0.115746 1.000000 0.624468
0.115660 1.000000 0.751562
0.115574 1.000000 0.878656
0.115490 1.000000 1.000000
0.249876 0.000000 0.000000
0.249793 0.000000 0.122613
0.249707 0.000000 0.249707
0.249621 0.000000 0.376801
0.249534 0.000000 0.503895
0.249448 0.000000 0.630990
0.249362 0.000000 0.758084
0.249276 0.000000 0.885178
0.249192 0.000000 1.000000
0.249050 0.121869 0.000000
0.248966 0.121786 0.121786
0.248880 0.121700 0.248880
0.248794 0.121613 0.375974
0.248708 0.121527 0.503068
0.248621 0.121441 0.630163
0.248535 0.121355 0.757257
0.248449 0.121269 0.884351
0.248366 0.121185 1.000000
0.248196 0.248196 0.000000
0.248112 0.248112 0.120932
0.248026 0.248026 0.248026
0.247940 0.247940 0.375121
0.247854 0.247854 0.502215
0.247768 0.247768 0.629309
0.247682 0.247682 0.756403
0.247595 0.247595 0.883497
0.247512 0.247512 1.000000
0.247342 0.374523 0.000000
0.247259 0.374439 0.120078
0.247173 0.374353 0.247173
0.247087 0.374267 0.374267
0.247000 0.374181 0.501361
0.246914 0.374095 0.628455
0.246828 0.374008 0.755550
0.246742 0.373922 0.882644
0.246658 0.373839 1.000000
0.246489 0.500850 0.000000
0.246405 0.500766 0.119225
0.246319 0.500680 0.246319
0.246233 0.500594 0.373413
0.246147 0.500508 0.500508
0.246061 0.500421 0.627602
0.245974 0.500335 0.754696
0.245888 0.500249 0.881790
0.245805 0.500166 1.000000
0.245635 0.627176 0.000000
0.245552 0.627093 0.118371
0.245465 0.627007 0.245465
0.245379 0.626920 0.372560
0.245293 0.626834 0.499654
0.245207 0.626748 0.626748
0.245121 0.626662 0.753842
0.245035 0.626576 0.880937
0.244951 0.626492 1.000000
0.244781 0.753503 0.000000
0.244698 0.753420 0.117518
0.244612 0.753333 0.244612
0.244526 0.753247 0.371706
0.244439 0.753161 0.498800
0.244353 0.753075 0.625894
0.244267 0.752989 0.752989
0.244181 0.752903 0.880083
0.244097 0.752819 1.000000
0.243928 0.879830 0.000000
0.243844 0.879746 0.116664
0.243758 0.879660 0.243758
0.243672 0.879574 0.370852
0.243586 0.879488 0.497947
0.243500 0.879402 0.625041
0.243413 0.879315 0.752135
0.243327 0.879229 0.879229
0.243244 0.879146 1.000000
0.243101 1.000000 0.000000
0.243017 1.000000 0.115837
0.242931 1.000000 0.242931
0.242845 1.000000 0.370025
0.242759 1.000000 0.497120
0.242673 1.000000 0.624214
0.242587 1.000000 0.751308
0.242500 1.000000 0.878402
0.242417 1.000000 1.000000
0.376803 0.000000 0.000000
0.376720 0.000000 0.122359
0.376633 0.000000 0.249453
0.376547 0.000000 0.376547
0.376461 0.000000 0.503642
0.376375 0.000000 0.630736
0.376289 0.000000 0.757830
0.376203 0.000000 0.884924
0.376119 0.000000 1.000000
0.375976 0.121615 0.000000
0.375893 0.121532 0.121532
0.375807 0.121446 0.248626
0.375720 0.121360 0.375720
0.375634 0.121273 0.502815
0.375548 0.121187 0.629909
0.375462 0.121101 0.757003
0.375376 0.121015 0.884097
0.375292 0.120931 1.000000
0.375123 0.247942 0.000000
0.375039 0.247859 0.120678
0.374953 0.247773 0.247773
0.374867 0.247686 0.374867
0.374781 0.247600 0.501961
0.374694 0.247514 0.629055
0.374608 0.247428 0.756149
0.374522 0.247342 0.883244
0.374439 0.247258 1.000000
0.374269 0.374269 0.000000
0.374186 0.374186 0.119825
0.374099 0.374099 0.246919
0.374013 0.374013 0.374013
0.373927 0.373927 0.501107
0.373841 0.373841 0.628202
0.373755 0.373755 0.755296
0.373668 0.373668 0.882390
0.373585 0.373585 1.000000
0.373415 0.500596 0.000000
0.373332 0.500512 0.118971
0.373246 0.500426 0.246065
0.373160 0.500340 0.373160
0.373073 0.500254 0.500254
0.372987 0.500168 0.627348
0.372901 0.500081 0.754442
0.372815 0.499995 0.881536
0.372731 0.499912 1.000000
0.372562 0.626923 0.000000
0.372478 0.626839 0.118117
0.372392 0.626753 0.245212
0.372306 0.626667 0.372306
0.372220 0.626581 0.499400
0.372134 0.626494 0.626494
0.372047 0.626408 0.753589
0.371961 0.626322 0.880683
0.371878 0.626239 1.000000
0.371708 0.753249 0.000000
0.371625 0.753166 0.117264
0.371538 0.753080 0.244358
0.371452 0.752993 0.371452
0.371366 0.752907 0.498546
0.371280 0.752821 0.625641
0.371194 0.752735 0.752735
0.371108 0.752649 0.879829
0.371024 0.752565 1.000000
0.370854 0.879576 0.000000
0.370771 0.879493 0.116410
0.370685 0.879406 0.243504
0.370599 0.879320 0.370599
0.370512 0.879234 0.497693
0.370426 0.879148 0.624787
0.370340 0.879062 0.751881
0.370254 0.878976 0.878976
0.370170 0.878892 1.000000
0.370028 1.000000 0.000000
0.369944 1.000000 0.115583
0.369858 1.000000 0.242678
0.369772 1.000000 0.369772
0.369686 1.000000 0.496866
0.369599 1.000000 0.623960
0.369513 1.000000 0.751054
0.369427 1.000000 0.878149
0.369344 1.000000 1.000000
0.503730 0.000000 0.000000
0.503646 0.000000 0.122105
0.503560 0.000000 0.249199
0.503474 0.000000 0.376294
0.503388 0.000000 0.503388
0.503302 0.000000 0.630482
0.503215 0.000000 0.757576
0.503129 0.000000 0.884670
0.503046 0.000000 1.000000
0.502903 0.121362 0.000000
0.502819 0.121278 0.121278
0.502733 0.121192 0.248372
0.502647 0.121106 0.375467
0.502561 0.121020 0.502561
0.502475 0.120934 0.629655
0.502389 0.120847 0.756749
0.502302 0.120761 0.883844
0.502219 0.120678 1.000000
0.502049 0.247688 0.000000
0.501966 0.247605 0.120425
0.501880 0.247519 0.247519
0.501793 0.247433 0.374613
0.501707 0.247346 0.501707
0.501621 0.247260 0.628801
0.501535 0.247174 0.755896
0.501449 0.247088 0.882990
0.501365 0.247004 1.000000
0.501196 0.374015 0.000000
0.501112 0.373932 0.119571
0.501026 0.373846 0.246665
0.500940 0.373759 0.373759
0.500854 0.373673 0.500854
0.500767 0.373587 0.627948
0.500681 0.373501 0.755042
0.500595 0.373415 0.882136
0.500512 0.373331 1.000000
0.500342 0.500342 0.000000
0.500259 0.500259 0.118717
0.500172 0.500172 0.245812
0.500086 0.500086 0.372906
0.500000 0.500000 0.500000
0.499914 0.499914 0.627094
0.499828 0.499828 0.754188
0.499741 0.499741 0.881283
0.499658 0.499658 1.000000
0.499488 0.626669 0.000000
0.499405 0.626585 0.117864
0.499319 0.626499 0.244958
0.499233 0.626413 0.372052
0.499146 0.626327 0.499146
0.499060 0.626241 0.626241
0.498974 0.626154 0.753335
0.498888 0.626068 0.880429
0.498804 0.625985 1.000000
0.498635 0.752996 0.000000
0.498551 0.752912 0.117010
0.498465 0.752826 0.244104
0.498379 0.752740 0.371199
0.498293 0.752654 0.498293
0.498207 0.752567 0.625387
0.498120 0.752481 0.752481
0.498034 0.752395 0.879575
0.497951 0.752312 1.000000
0.497781 0.879322 0.000000
0.497698 0.879239 0.116156
0.497611 0.879153 0.243251
0.497525 0.879066 0.370345
0.497439 0.878980 0.497439
0.497353 0.878894 0.624533
0.497267 0.878808 0.751628
0.497181 0.878722 0.878722
0.497097 0.878638 1.000000
0.496954 1.000000 0.000000
0.496871 1.000000 0.115330
0.496785 1.000000 0.242424
0.496698 1.000000 0.369518
0.496612 1.000000 0.496612
0.496526 1.000000 0.623706
0.496440 1.000000 0.750801
0.496354 1.000000 0.877895
0.496270 1.000000 1.000000
0.630656 0.000000 0.000000
0.630573 0.000000 0.121851
0.630487 0.000000 0.248946
0.630401 0.000000 0.376040
0.630314 0.000000 0.503134
0.630228 0.000000 0.630228
0.630142 0.000000 0.757322
0.630056 0.000000 0.884417
0.629972 0.000000 1.000000
0.629830 0.121108 0.000000
0.629746 0.121024 0.121024
0.629660 0.120938 0.248119
0.629574 0.120852 0.375213
0.629488 0.120766 0.502307
0.629401 0.120680 0.629401
0.629315 0.120594 0.756496
0.629229 0.120507 0.883590
0.629146 0.120424 1.000000
0.628976 0.247435 0.000000
0.628892 0.247351 0.120171
0.628806 0.247265 0.247265
0.628720 0.247179 0.374359
0.628634 0.247093 0.501454
0.628548 0.247007 0.628548
0.628462 0.246920 0.755642
0.628375 0.246834 0.882736
0.628292 0.246751 1.000000
0.628122 0.373761 0.000000
0.628039 0.373678 0.119317
0.627953 0.373592 0.246411
0.627866 0.373506 0.373506
0.627780 0.373419 0.500600
0.627694 0.373333 0.627694
0.627608 0.373247 0.754788
0.627522 0.373161 0.881883
0.627438 0.373077 1.000000
0.627269 0.500088 0.000000
0.627185 0.500005 0.118464
0.627099 0.499919 0.245558
0.627013 0.499832 0.372652
0.626927 0.499746 0.499746
0.626840 0.499660 0.626840
0.626754 0.499574 0.753935
0.626668 0.499488 0.881029
0.626585 0.499404 1.000000
0.626415 0.626415 0.000000
0.626332 0.626332 0.117610
0.626245 0.626245 0.244704
0.626159 0.626159 0.371798
0.626073 0.626073 0.498893
0.625987 0.625987 0.625987
0.625901 0.625901 0.753081
0.625814 0.625814 0.880175
0.625731 0.625731 1.000000
0.625561 0.752742 0.000000
0.625478 0.752658 0.116756
0.625392 0.752572 0.243851
0.625306 0.752486 0.370945
0.625219 0.752400 0.498039
0.625133 0.752314 0.625133
0.625047 0.752227 0.752227
0.624961 0.752141 0.879322
0.624877 0.752058 1.000000
0.624708 0.879069 0.000000
0.624624 0.878985 0.115903
0.624538 0.878899 0.242997
0.624452 0.878813 0.370091
0.624366 0.878727 0.497185
0.624280 0.878640 0.624280
0.624193 0.878554 0.751374
0.624107 0.878468 0.878468
0.624024 0.878385 1.000000
0.623881 1.000000 0.000000
0.623797 1.000000 0.115076
0.623711 1.000000 0.242170
0.623625 1.000000 0.369264
0.623539 1.000000 0.496358
0.623453 1.000000 0.623453
0.623367 1.000000 0.750547
0.623280 1.000000 0.877641
0.623197 1.000000 1.000000
0.757583 0.000000 0.000000
0.757500 0.000000 0.121598
0.757413 0.000000 0.248692
0.757327 0.000000 0.375786
0.757241 0.000000 0.502880
0.757155 0.000000 0.629975
0.757069 0.000000 0.757069
0.756983 0.000000 0.884163
0.756899 0.000000 1.000000
0.756756 0.120854 0.000000
0.756673 0.120771 0.120771
0.756587 0.120685 0.247865
0.756500 0.120598 0.374959
0.756414 0.120512 0.502053
0.756328 0.120426 0.629148
0.756242 0.120340 0.756242
0.756156 0.120254 0.883336
0.756072 0.120170 1.000000
0.755903 0.247181 0.000000
0.755819 0.247097 0.119917
0.755733 0.247011 0.247011
0.755647 0.246925 0.374106
0.755561 0.246839 0.501200
0.755474 0.246753 0.628294
0.755388 0.246667 0.755388
0.755302 0.246580 0.882482
0.755219 0.246497 1.000000
0.755049 0.373508 0.000000
0.754965 0.373424 0.119063
0.754879 0.373338 0.246158
0.754793 0.373252 0.373252
0.754707 0.373166 0.500346
0.754621 0.373080 0.627440
0.754535 0.372993 0.754535
0.754448 0.372907 0.881629
0.754365 0.372824 1.000000
0.754195 0.499834 0.000000
0.754112 0.499751 0.118210
0.754026 0.499665 0.245304
0.753939 0.499579 0.372398
0.753853 0.499492 0.499492
0.753767 0.499406 0.626587
0.753681 0.499320 0.753681
0.753595 0.499234 0.880775
0.753511 0.499150 1.000000
0.753342 0.626161 0.000000
0.753258 0.626078 0.117356
0.753172 0.625992 0.244450
0.753086 0.625905 0.371545
0.753000 0.625819 0.498639
0.752913 0.625733 0.625733
0.752827 0.625647 0.752827
0.752741 0.625561 0.879922
0.752658 0.625477 1.000000
0.752488 0.752488 0.000000
0.752405 0.752405 0.116503
0.752318 0.752318 0.243597
0.752232 0.752232 0.370691
0.752146 0.752146 0.497785
0.752060 0.752060 0.624879
0.751974 0.751974 0.751974
0.751888 0.751888 0.879068
0.751804 0.751804 1.000000
0.751634 0.878815 0.000000
0.751551 0.878731 0.115649
0.751465 0.878645 0.242743
0.751379 0.878559 0.369837
0.751292 0.878473 0.496932
0.751206 0.878387 0.624026
0.751120 0.878300 0.751120
0.751034 0.878214 0.878214
0.750950 0.878131 1.000000
0.750808 1.000000 0.000000
0.750724 1.000000 0.114822
0.750638 1.000000 0.241916
0.750552 1.000000 0.369010
0.750466 1.000000 0.496105
0.750379 1.000000 0.623199
0.750293 1.000000 0.750293
0.750207 1.000000 0.877387
0.750124 1.000000 1.000000
0.884510 0.000000 0.000000
0.884426 0.000000 0.121344
0.884340 0.000000 0.248438
0.884254 0.000000 0.375532
0.884168 0.000000 0.502627
0.884082 0.000000 0.629721
0.883995 0.000000 0.756815
0.883909 0.000000 0.883909
0.883826 0.000000 1.000000
0.883683 0.120600 0.000000
0.883599 0.120517 0.120517
0.883513 0.120431 0.247611
0.883427 0.120345 0.374705
0.883341 0.120258 0.501800
0.883255 0.120172 0.628894
0.883169 0.120086 0.755988
0.883082 0.120000 0.883082
0.882999 0.119916 1.000000
0.882829 0.246927 0.000000
0.882746 0.246844 0.119663
0.882660 0.246758 0.246758
0.882573 0.246671 0.373852
0.882487 0.246585 0.500946
0.882401 0.246499 0.628040
0.882315 0.246413 0.755134
0.882229 0.246327 0.882229
0.882145 0.246243 1.000000
0.881976 0.373254 0.000000
0.881892 0.373171 0.118810
0.881806 0.373084 0.245904
0.881720 0.372998 0.372998
0.881634 0.372912 0.500092
0.881547 0.372826 0.627187
0.881461 0.372740 0.754281
0.881375 0.372653 0.881375
0.881292 0.372570 1.000000
0.881122 0.499581 0.000000
0.881038 0.499497 0.117956
0.880952 0.499411 0.245050
0.880866 0.499325 0.372145
0.880780 0.499239 0.499239
0.880694 0.499153 0.626333
0.880608 0.499066 0.753427
0.880521 0.498980 0.880521
0.880438 0.498897 1.000000
0.880268 0.625908 0.000000
0.880185 0.625824 0.117102
0.880099 0.625738 0.244197
0.880012 0.625652 0.371291
0.879926 0.625566 0.498385
0.879840 0.625479 0.625479
0.879754 0.625393 0.752574
0.879668 0.625307 0.879668
0.879584 0.625224 1.000000
0.879415 0.752234 0.000000
0.879331 0.752151 0.116249
0.879245 0.752065 0.243343
0.879159 0.751978 0.370437
0.879073 0.751892 0.497531
0.878987 0.751806 0.624626
0.878900 0.751720 0.751720
0.878814 0.751634 0.878814
0.878731 0.751550 1.000000
0.878561 0.878561 0.000000
0.878478 0.878478 0.115395
0.878391 0.878391 0.242489
0.878305 0.878305 0.369584
0.878219 0.878219 0.496678
0.878133 0.878133 0.623772
0.878047 0.878047 0.750866
0.877961 0.877961 0.877961
0.877877 0.877877 1.000000
0.877734 1.000000 0.000000
0.877651 1.000000 0.114568
0.877565 1.000000 0.241663
0.877478 1.000000 0.368757
0.877392 1.000000 0.495851
0.877306 1.000000 0.622945
0.877220 1.000000 0.750039
0.877134 1.000000 0.877134
0.877050 1.000000 1.000000
1.000000 0.000000 0.000000
1.000000 0.000000 0.121098
1.000000 0.000000 0.248192
1.000000 0.000000 0.375287
1.000000 0.000000 0.502381
1.000000 0.000000 0.629475
1.000000 0.000000 0.756569
1.000000 0.000000 0.883663
1.000000 0.000000 1.000000
1.000000 0.120355 0.000000
1.000000 0.120271 0.120271
1.000000 0.120185 0.247365
1.000000 0.120099 0.374460
1.000000 0.120013 0.501554
1.000000 0.119926 0.628648
1.000000 0.119840 0.755742
1.000000 0.119754 0.882837
1.000000 0.119671 1.000000
1.000000 0.246681 0.000000
1.000000 0.246598 0.119418
1.000000 0.246512 0.246512
1.000000 0.246426 0.373606
1.000000 0.246339 0.500700
1.000000 0.246253 0.627794
1.000000 0.246167 0.754889
1.000000 0.246081 0.881983
1.000000 0.245997 1.000000
1.000000 0.373008 0.000000
1.000000 0.372925 0.118564
1.000000 0.372839 0.245658
1.000000 0.372752 0.372752
1.000000 0.372666 0.499847
1.000000 0.372580 0.626941
1.000000 0.372494 0.754035
1.000000 0.372408 0.881129
1.000000 0.372324 1.000000
1.000000 0.499335 0.000000
1.000000 0.499251 0.117710
1.000000 0.499165 0.244804
1.000000 0.499079 0.371899
1.000000 0.498993 0.498993
1.000000 0.498907 0.626087
1.000000 0.498821 0.753181
1.000000 0.498734 0.880276
1.000000 0.498651 1.000000
1.000000 0.625662 0.000000
1.000000 0.625578 0.116857
1.000000 0.625492 0.243951
1.000000 0.625406 0.371045
1.000000 0.625320 0.498139
1.000000 0.625234 0.625234
1.000000 0.625147 0.752328
1.000000 0.625061 0.879422
1.000000 0.624978 1.000000
1.000000 0.751988 0.000000
1.000000 0.751905 0.116003
1.000000 0.751819 0.243097
1.000000 0.751733 0.370191
1.000000 0.751646 0.497286
1.000000 0.751560 0.624380
1.000000 0.751474 0.751474
1.000000 0.751388 0.878568
1.000000 0.751304 1.000000
1.000000 0.878315 0.000000
1.000000 0.878232 0.115149
1.000000 0.878146 0.242244
1.000000 0.878059 0.369338
1.000000 0.877973 0.496432
1.000000 0.877887 0.623526
1.000000 0.877801 0.750620
1.000000 0.877715 0.877715
1.000000 0.877631 1.000000
1.000000 1.000000 0.000000
1.000000 1.000000 0.114322
1.000000 1.000000 0.241417
1.000000 1.000000 0.368511
1.000000 1.000000 0.495605
1.000000 1.000000 0.622699
1.000000 1.000000 0.749794
1.000000 1.000000 0.876888
1.000000 1.000000 1.000000
