skills/creativeops-director/assets/grade/luts/product_clean_v04.cube
TITLE "product_clean_v04"
LUT_3D_SIZE 17
DOMAIN_MIN 0.0 0.0 0.0
DOMAIN_MAX 1.0 1.0 1.0
0.000000 0.000000 0.000000
0.000000 0.000000 0.059565
0.000000 0.000000 0.123112
0.000000 0.000000 0.186659
0.000000 0.000000 0.250206
0.000000 0.000000 0.313754
0.000000 0.000000 0.377301
0.000000 0.000000 0.440848
0.000000 0.000000 0.504395
0.000000 0.000000 0.567942
0.000000 0.000000 0.631489
0.000000 0.000000 0.695036
0.000000 0.000000 0.758583
0.000000 0.000000 0.822130
0.000000 0.000000 0.885678
0.000000 0.000000 0.949225
0.000000 0.000000 1.000000
0.000000 0.059205 0.000000
0.000000 0.059165 0.059165
0.000000 0.059122 0.122712
0.000000 0.059079 0.186259
0.000000 0.059036 0.249806
0.000000 0.058993 0.313353
0.000000 0.058950 0.376901
0.000000 0.058906 0.440448
0.000000 0.058863 0.503995
0.000000 0.058820 0.567542
0.000000 0.058777 0.631089
0.000000 0.058734 0.694636
0.000000 0.058691 0.758183
0.000000 0.058648 0.821730
0.000000 0.058605 0.885277
0.000000 0.058562 0.948825
0.000000 0.058521 1.000000
0.000000 0.122369 0.000000
0.000000 0.122328 0.058738
0.000000 0.122285 0.122285
0.000000 0.122242 0.185832
0.000000 0.122199 0.249380
0.000000 0.122156 0.312927
0.000000 0.122113 0.376474
0.000000 0.122070 0.440021
0.000000 0.122027 0.503568
0.000000 0.121984 0.567115
0.000000 0.121941 0.630662
0.000000 0.121897 0.694209
0.000000 0.121854 0.757756
0.000000 0.121811 0.821304
0.000000 0.121768 0.884851
0.000000 0.121725 0.948398
0.000000 0.121685 1.000000
0.000000 0.185532 0.000000
0.000000 0.185492 0.058311
0.000000 0.185449 0.121858
0.000000 0.185406 0.185406
0.000000 0.185362 0.248953
0.000000 0.185319 0.312500
0.000000 0.185276 0.376047
0.000000 0.185233 0.439594
0.000000 0.185190 0.503141
0.000000 0.185147 0.566688
0.000000 0.185104 0.630235
0.000000 0.185061 0.693782
0.000000 0.185018 0.757330
0.000000 0.184975 0.820877
0.000000 0.184932 0.884424
0.000000 0.184889 0.947971
0.000000 0.184848 1.000000
0.000000 0.248696 0.000000
0.000000 0.248655 0.057885
0.000000 0.248612 0.121432
0.000000 0.248569 0.184979
0.000000 0.248526 0.248526
0.000000 0.248483 0.312073
0.000000 0.248440 0.375620
0.000000 0.248397 0.439167
0.000000 0.248354 0.502714
0.000000 0.248310 0.566261
0.000000 0.248267 0.629809
0.000000 0.248224 0.693356
0.000000 0.248181 0.756903
0.000000 0.248138 0.820450
0.000000 0.248095 0.883997
0.000000 0.248052 0.947544
0.000000 0.248012 1.000000
0.000000 0.311859 0.000000
0.000000 0.311819 0.057458
0.000000 0.311775 0.121005
0.000000 0.311732 0.184552
0.000000 0.311689 0.248099
0.000000 0.311646 0.311646
0.000000 0.311603 0.375193
0.000000 0.311560 0.438740
0.000000 0.311517 0.502288
0.000000 0.311474 0.565835
0.000000 0.311431 0.629382
0.000000 0.311388 0.692929
0.000000 0.311345 0.756476
0.000000 0.311301 0.820023
0.000000 0.311258 0.883570
0.000000 0.311215 0.947117
0.000000 0.311175 1.000000
0.000000 0.375022 0.000000
0.000000 0.374982 0.057031
0.000000 0.374939 0.120578
0.000000 0.374896 0.184125
0.000000 0.374853 0.247672
0.000000 0.374810 0.311219
0.000000 0.374766 0.374766
0.000000 0.374723 0.438314
0.000000 0.374680 0.501861
0.000000 0.374637 0.565408
0.000000 0.374594 0.628955
0.000000 0.374551 0.692502
0.000000 0.374508 0.756049
0.000000 0.374465 0.819596
0.000000 0.374422 0.883143
0.000000 0.374379 0.946690
0.000000 0.374338 1.000000
0.000000 0.438186 0.000000
0.000000 0.438145 0.056604
0.000000 0.438102 0.120151
0.000000 0.438059 0.183698
0.000000 0.438016 0.247245
0.000000 0.437973 0.310793
0.000000 0.437930 0.374340
0.000000 0.437887 0.437887
0.000000 0.437844 0.501434
0.000000 0.437801 0.564981
0.000000 0.437757 0.628528
0.000000 0.437714 0.692075
0.000000 0.437671 0.755622
0.000000 0.437628 0.819169
0.000000 0.437585 0.882717
0.000000 0.437542 0.946264
0.000000 0.437502 1.000000
0.000000 0.501349 0.000000
0.000000 0.501309 0.056177
0.000000 0.501266 0.119724
0.000000 0.501222 0.183271
0.000000 0.501179 0.246819
0.000000 0.501136 0.310366
0.000000 0.501093 0.373913
0.000000 0.501050 0.437460
0.000000 0.501007 0.501007
0.000000 0.500964 0.564554
0.000000 0.500921 0.628101
0.000000 0.500878 0.691648
0.000000 0.500835 0.755196
0.000000 0.500792 0.818743
0.000000 0.500749 0.882290
0.000000 0.500705 0.945837
0.000000 0.500665 1.000000
0.000000 0.564512 0.000000
0.000000 0.564472 0.055750
0.000000 0.564429 0.119298
0.000000 0.564386 0.182845
0.000000 0.564343 0.246392
0.000000 0.564300 0.309939
0.000000 0.564257 0.373486
0.000000 0.564214 0.437033
0.000000 0.564170 0.500580
0.000000 0.564127 0.564127
0.000000 0.564084 0.627674
0.000000 0.564041 0.691222
0.000000 0.563998 0.754769
0.000000 0.563955 0.818316
0.000000 0.563912 0.881863
0.000000 0.563869 0.945410
0.000000 0.563828 1.000000
0.000000 0.627676 0.000000
0.000000 0.627635 0.055324
0.000000 0.627592 0.118871
0.000000 0.627549 0.182418
0.000000 0.627506 0.245965
0.000000 0.627463 0.309512
0.000000 0.627420 0.373059
0.000000 0.627377 0.436606
0.000000 0.627334 0.500153
0.000000 0.627291 0.563701
0.000000 0.627248 0.627248
0.000000 0.627205 0.690795
0.000000 0.627161 0.754342
0.000000 0.627118 0.817889
0.000000 0.627075 0.881436
0.000000 0.627032 0.944983
0.000000 0.626992 1.000000
0.000000 0.690839 0.000000
0.000000 0.690799 0.054897
0.000000 0.690756 0.118444
0.000000 0.690713 0.181991
0.000000 0.690670 0.245538
0.000000 0.690626 0.309085
0.000000 0.690583 0.372632
0.000000 0.690540 0.436179
0.000000 0.690497 0.499727
0.000000 0.690454 0.563274
0.000000 0.690411 0.626821
0.000000 0.690368 0.690368
0.000000 0.690325 0.753915
0.000000 0.690282 0.817462
0.000000 0.690239 0.881009
0.000000 0.690196 0.944556
0.000000 0.690155 1.000000
0.000000 0.754003 0.000000
0.000000 0.753962 0.054470
0.000000 0.753919 0.118017
0.000000 0.753876 0.181564
0.000000 0.753833 0.245111
0.000000 0.753790 0.308658
0.000000 0.753747 0.372206
0.000000 0.753704 0.435753
0.000000 0.753661 0.499300
0.000000 0.753618 0.562847
0.000000 0.753574 0.626394
0.000000 0.753531 0.689941
0.000000 0.753488 0.753488
0.000000 0.753445 0.817035
0.000000 0.753402 0.880582
0.000000 0.753359 0.944130
0.000000 0.753319 1.000000
0.000000 0.817166 0.000000
0.000000 0.817126 0.054043
0.000000 0.817082 0.117590
0.000000 0.817039 0.181137
0.000000 0.816996 0.244685
0.000000 0.816953 0.308232
0.000000 0.816910 0.371779
0.000000 0.816867 0.435326
0.000000 0.816824 0.498873
0.000000 0.816781 0.562420
0.000000 0.816738 0.625967
0.000000 0.816695 0.689514
0.000000 0.816652 0.753061
0.000000 0.816609 0.816609
0.000000 0.816565 0.880156
0.000000 0.816522 0.943703
0.000000 0.816482 1.000000
0.000000 0.880329 0.000000
0.000000 0.880289 0.053616
0.000000 0.880246 0.117163
0.000000 0.880203 0.180711
0.000000 0.880160 0.244258
0.000000 0.880117 0.307805
0.000000 0.880074 0.371352
0.000000 0.880030 0.434899
0.000000 0.879987 0.498446
0.000000 0.879944 0.561993
0.000000 0.879901 0.625540
0.000000 0.879858 0.689087
0.000000 0.879815 0.752635
0.000000 0.879772 0.816182
0.000000 0.879729 0.879729
0.000000 0.879686 0.943276
0.000000 0.879645 1.000000
0.000000 0.943493 0.000000
0.000000 0.943452 0.053190
0.000000 0.943409 0.116737
0.000000 0.943366 0.180284
0.000000 0.943323 0.243831
0.000000 0.943280 0.307378
0.000000 0.943237 0.370925
0.000000 0.943194 0.434472
0.000000 0.943151 0.498019
0.000000 0.943108 0.561566
0.000000 0.943065 0.625114
0.000000 0.943021 0.688661
0.000000 0.942978 0.752208
0.000000 0.942935 0.815755
0.000000 0.942892 0.879302
0.000000 0.942849 0.942849
0.000000 0.942809 1.000000
0.000000 1.000000 0.000000
0.000000 1.000000 0.052789
0.000000 1.000000 0.116337
0.000000 1.000000 0.179884
0.000000 1.000000 0.243431
0.000000 1.000000 0.306978
0.000000 1.000000 0.370525
0.000000 1.000000 0.434072
0.000000 1.000000 0.497619
0.000000 1.000000 0.561166
0.000000 1.000000 0.624713
0.000000 1.000000 0.688261
0.000000 1.000000 0.751808
0.000000 1.000000 0.815355
0.000000 1.000000 0.878902
0.000000 1.000000 0.942449
0.000000 1.000000 1.000000
0.059487 0.000000 0.000000
0.059446 0.000000 0.059446
0.059403 0.000000 0.122993
0.059360 0.000000 0.186540
0.059317 0.000000 0.250087
0.059274 0.000000 0.313635
0.059231 0.000000 0.377182
0.059188 0.000000 0.440729
0.059145 0.000000 0.504276
0.059101 0.000000 0.567823
0.059058 0.000000 0.631370
0.059015 0.000000 0.694917
0.058972 0.000000 0.758464
0.058929 0.000000 0.822011
0.058886 0.000000 0.885559
0.058843 0.000000 0.949106
0.058803 0.000000 1.000000
0.059086 0.059086 0.000000
0.059046 0.059046 0.059046
0.059003 0.059003 0.122593
0.058960 0.058960 0.186140
0.058917 0.058917 0.249687
0.058874 0.058874 0.313235
0.058831 0.058831 0.376782
0.058788 0.058788 0.440329
0.058744 0.058744 0.503876
0.058701 0.058701 0.567423
0.058658 0.058658 0.630970
0.058615 0.058615 0.694517
0.058572 0.058572 0.758064
0.058529 0.058529 0.821611
0.058486 0.058486 0.885159
0.058443 0.058443 0.948706
0.058402 0.058402 1.000000
0.058660 0.122250 0.000000
0.058619 0.122209 0.058619
0.058576 0.122166 0.122166
0.058533 0.122123 0.185713
0.058490 0.122080 0.249261
0.058447 0.122037 0.312808
0.058404 0.121994 0.376355
0.058361 0.121951 0.439902
0.058318 0.121908 0.503449
0.058275 0.121865 0.566996
0.058231 0.121822 0.630543
0.058188 0.121779 0.694090
0.058145 0.121735 0.757637
0.058102 0.121692 0.821185
0.058059 0.121649 0.884732
0.058016 0.121606 0.948279
0.057976 0.121566 1.000000
0.058233 0.185413 0.000000
0.058192 0.185373 0.058192
0.058149 0.185330 0.121740
0.058106 0.185287 0.185287
0.058063 0.185244 0.248834
0.058020 0.185200 0.312381
0.057977 0.185157 0.375928
0.057934 0.185114 0.439475
0.057891 0.185071 0.503022
0.057848 0.185028 0.566569
0.057805 0.184985 0.630116
0.057762 0.184942 0.693664
0.057718 0.184899 0.757211
0.057675 0.184856 0.820758
0.057632 0.184813 0.884305
0.057589 0.184770 0.947852
0.057549 0.184729 1.000000
0.057806 0.248577 0.000000
0.057766 0.248536 0.057766
0.057723 0.248493 0.121313
0.057679 0.248450 0.184860
0.057636 0.248407 0.248407
0.057593 0.248364 0.311954
0.057550 0.248321 0.375501
0.057507 0.248278 0.439048
0.057464 0.248235 0.502595
0.057421 0.248192 0.566143
0.057378 0.248148 0.629690
0.057335 0.248105 0.693237
0.057292 0.248062 0.756784
0.057249 0.248019 0.820331
0.057205 0.247976 0.883878
0.057162 0.247933 0.947425
0.057122 0.247893 1.000000
0.057379 0.311740 0.000000
0.057339 0.311700 0.057339
0.057296 0.311657 0.120886
0.057253 0.311613 0.184433
0.057210 0.311570 0.247980
0.057166 0.311527 0.311527
0.057123 0.311484 0.375074
0.057080 0.311441 0.438621
0.057037 0.311398 0.502169
0.056994 0.311355 0.565716
0.056951 0.311312 0.629263
0.056908 0.311269 0.692810
0.056865 0.311226 0.756357
0.056822 0.311183 0.819904
0.056779 0.311139 0.883451
0.056736 0.311096 0.946998
0.056695 0.311056 1.000000
0.056952 0.374903 0.000000
0.056912 0.374863 0.056912
0.056869 0.374820 0.120459
0.056826 0.374777 0.184006
0.056783 0.374734 0.247553
0.056740 0.374691 0.311100
0.056697 0.374648 0.374648
0.056653 0.374604 0.438195
0.056610 0.374561 0.501742
0.056567 0.374518 0.565289
0.056524 0.374475 0.628836
0.056481 0.374432 0.692383
0.056438 0.374389 0.755930
0.056395 0.374346 0.819477
0.056352 0.374303 0.883024
0.056309 0.374260 0.946572
0.056268 0.374219 1.000000
0.056526 0.438067 0.000000
0.056485 0.438026 0.056485
0.056442 0.437983 0.120032
0.056399 0.437940 0.183579
0.056356 0.437897 0.247126
0.056313 0.437854 0.310674
0.056270 0.437811 0.374221
0.056227 0.437768 0.437768
0.056184 0.437725 0.501315
0.056140 0.437682 0.564862
0.056097 0.437639 0.628409
0.056054 0.437595 0.691956
0.056011 0.437552 0.755503
0.055968 0.437509 0.819051
0.055925 0.437466 0.882598
0.055882 0.437423 0.946145
0.055842 0.437383 1.000000
0.056099 0.501230 0.000000
0.056058 0.501190 0.056058
0.056015 0.501147 0.119605
0.055972 0.501104 0.183153
0.055929 0.501060 0.246700
0.055886 0.501017 0.310247
0.055843 0.500974 0.373794
0.055800 0.500931 0.437341
0.055757 0.500888 0.500888
0.055714 0.500845 0.564435
0.055671 0.500802 0.627982
0.055627 0.500759 0.691529
0.055584 0.500716 0.755077
0.055541 0.500673 0.818624
0.055498 0.500630 0.882171
0.055455 0.500587 0.945718
0.055415 0.500546 1.000000
0.055672 0.564394 0.000000
0.055632 0.564353 0.055632
0.055588 0.564310 0.119179
0.055545 0.564267 0.182726
0.055502 0.564224 0.246273
0.055459 0.564181 0.309820
0.055416 0.564138 0.373367
0.055373 0.564095 0.436914
0.055330 0.564052 0.500461
0.055287 0.564008 0.564008
0.055244 0.563965 0.627556
0.055201 0.563922 0.691103
0.055158 0.563879 0.754650
0.055114 0.563836 0.818197
0.055071 0.563793 0.881744
0.055028 0.563750 0.945291
0.054988 0.563710 1.000000
0.055245 0.627557 0.000000
0.055205 0.627517 0.055205
0.055162 0.627473 0.118752
0.055119 0.627430 0.182299
0.055075 0.627387 0.245846
0.055032 0.627344 0.309393
0.054989 0.627301 0.372940
0.054946 0.627258 0.436487
0.054903 0.627215 0.500034
0.054860 0.627172 0.563582
0.054817 0.627129 0.627129
0.054774 0.627086 0.690676
0.054731 0.627043 0.754223
0.054688 0.626999 0.817770
0.054645 0.626956 0.881317
0.054601 0.626913 0.944864
0.054561 0.626873 1.000000
0.054818 0.690720 0.000000
0.054778 0.690680 0.054778
0.054735 0.690637 0.118325
0.054692 0.690594 0.181872
0.054649 0.690551 0.245419
0.054606 0.690508 0.308966
0.054562 0.690464 0.372513
0.054519 0.690421 0.436061
0.054476 0.690378 0.499608
0.054433 0.690335 0.563155
0.054390 0.690292 0.626702
0.054347 0.690249 0.690249
0.054304 0.690206 0.753796
0.054261 0.690163 0.817343
0.054218 0.690120 0.880890
0.054175 0.690077 0.944437
0.054134 0.690036 1.000000
0.054391 0.753884 0.000000
0.054351 0.753843 0.054351
0.054308 0.753800 0.117898
0.054265 0.753757 0.181445
0.054222 0.753714 0.244992
0.054179 0.753671 0.308540
0.054136 0.753628 0.372087
0.054093 0.753585 0.435634
0.054049 0.753542 0.499181
0.054006 0.753499 0.562728
0.053963 0.753455 0.626275
0.053920 0.753412 0.689822
0.053877 0.753369 0.753369
0.053834 0.753326 0.816916
0.053791 0.753283 0.880464
0.053748 0.753240 0.944011
0.053707 0.753200 1.000000
0.053965 0.817047 0.000000
0.053924 0.817007 0.053924
0.053881 0.816964 0.117471
0.053838 0.816920 0.181018
0.053795 0.816877 0.244566
0.053752 0.816834 0.308113
0.053709 0.816791 0.371660
0.053666 0.816748 0.435207
0.053623 0.816705 0.498754
0.053580 0.816662 0.562301
0.053536 0.816619 0.625848
0.053493 0.816576 0.689395
0.053450 0.816533 0.752942
0.053407 0.816490 0.816490
0.053364 0.816447 0.880037
0.053321 0.816403 0.943584
0.053281 0.816363 1.000000
0.053538 0.880210 0.000000
0.053497 0.880170 0.053497
0.053454 0.880127 0.117045
0.053411 0.880084 0.180592
0.053368 0.880041 0.244139
0.053325 0.879998 0.307686
0.053282 0.879955 0.371233
0.053239 0.879912 0.434780
0.053196 0.879868 0.498327
0.053153 0.879825 0.561874
0.053110 0.879782 0.625421
0.053067 0.879739 0.688969
0.053023 0.879696 0.752516
0.052980 0.879653 0.816063
0.052937 0.879610 0.879610
0.052894 0.879567 0.943157
0.052854 0.879526 1.000000
0.053111 0.943374 0.000000
0.053071 0.943333 0.053071
0.053028 0.943290 0.116618
0.052984 0.943247 0.180165
0.052941 0.943204 0.243712
0.052898 0.943161 0.307259
0.052855 0.943118 0.370806
0.052812 0.943075 0.434353
0.052769 0.943032 0.497900
0.052726 0.942989 0.561448
0.052683 0.942946 0.624995
0.052640 0.942903 0.688542
0.052597 0.942859 0.752089
0.052554 0.942816 0.815636
0.052510 0.942773 0.879183
0.052467 0.942730 0.942730
0.052427 0.942690 1.000000
0.052711 1.000000 0.000000
0.052671 1.000000 0.052671
0.052627 1.000000 0.116218
0.052584 1.000000 0.179765
0.052541 1.000000 0.243312
0.052498 1.000000 0.306859
0.052455 1.000000 0.370406
0.052412 1.000000 0.433953
0.052369 1.000000 0.497500
0.052326 1.000000 0.561047
0.052283 1.000000 0.624595
0.052240 1.000000 0.688142
0.052197 1.000000 0.751689
0.052153 1.000000 0.815236
0.052110 1.000000 0.878783
0.052067 1.000000 0.942330
0.052027 1.000000 1.000000
0.122950 0.000000 0.000000
0.122909 0.000000 0.059319
0.122866 0.000000 0.122866
0.122823 0.000000 0.186413
0.122780 0.000000 0.249961
0.122737 0.000000 0.313508
0.122694 0.000000 0.377055
0.122651 0.000000 0.440602
0.122608 0.000000 0.504149
0.122565 0.000000 0.567696
0.122522 0.000000 0.631243
0.122479 0.000000 0.694790
0.122435 0.000000 0.758337
0.122392 0.000000 0.821885
0.122349 0.000000 0.885432
0.122306 0.000000 0.948979
0.122266 0.000000 1.000000
0.122550 0.058960 0.000000
0.122509 0.058919 0.058919
0.122466 0.058876 0.122466
0.122423 0.058833 0.186013
0.122380 0.058790 0.249561
0.122337 0.058747 0.313108
0.122294 0.058704 0.376655
0.122251 0.058661 0.440202
0.122208 0.058618 0.503749
0.122165 0.058574 0.567296
0.122122 0.058531 0.630843
0.122079 0.058488 0.694390
0.122035 0.058445 0.757937
0.121992 0.058402 0.821485
0.121949 0.058359 0.885032
0.121906 0.058316 0.948579
0.121866 0.058276 1.000000
0.122123 0.122123 0.000000
0.122083 0.122083 0.058492
0.122039 0.122039 0.122039
0.121996 0.121996 0.185587
0.121953 0.121953 0.249134
0.121910 0.121910 0.312681
0.121867 0.121867 0.376228
0.121824 0.121824 0.439775
0.121781 0.121781 0.503322
0.121738 0.121738 0.566869
0.121695 0.121695 0.630416
0.121652 0.121652 0.693963
0.121609 0.121609 0.757511
0.121566 0.121566 0.821058
0.121522 0.121522 0.884605
0.121479 0.121479 0.948152
0.121439 0.121439 1.000000
0.121696 0.185286 0.000000
0.121656 0.185246 0.058066
0.121613 0.185203 0.121613
0.121570 0.185160 0.185160
0.121526 0.185117 0.248707
0.121483 0.185074 0.312254
0.121440 0.185031 0.375801
0.121397 0.184987 0.439348
0.121354 0.184944 0.502895
0.121311 0.184901 0.566442
0.121268 0.184858 0.629990
0.121225 0.184815 0.693537
0.121182 0.184772 0.757084
0.121139 0.184729 0.820631
0.121096 0.184686 0.884178
0.121053 0.184643 0.947725
0.121012 0.184602 1.000000
0.121269 0.248450 0.000000
0.121229 0.248409 0.057639
0.121186 0.248366 0.121186
0.121143 0.248323 0.184733
0.121100 0.248280 0.248280
0.121057 0.248237 0.311827
0.121013 0.248194 0.375374
0.120970 0.248151 0.438921
0.120927 0.248108 0.502469
0.120884 0.248065 0.566016
0.120841 0.248022 0.629563
0.120798 0.247978 0.693110
0.120755 0.247935 0.756657
0.120712 0.247892 0.820204
0.120669 0.247849 0.883751
0.120626 0.247806 0.947298
0.120585 0.247766 1.000000
0.120842 0.311613 0.000000
0.120802 0.311573 0.057212
0.120759 0.311530 0.120759
0.120716 0.311487 0.184306
0.120673 0.311443 0.247853
0.120630 0.311400 0.311400
0.120587 0.311357 0.374947
0.120544 0.311314 0.438495
0.120500 0.311271 0.502042
0.120457 0.311228 0.565589
0.120414 0.311185 0.629136
0.120371 0.311142 0.692683
0.120328 0.311099 0.756230
0.120285 0.311056 0.819777
0.120242 0.311013 0.883324
0.120199 0.310969 0.946871
0.120158 0.310929 1.000000
0.120416 0.374776 0.000000
0.120375 0.374736 0.056785
0.120332 0.374693 0.120332
0.120289 0.374650 0.183879
0.120246 0.374607 0.247426
0.120203 0.374564 0.310974
0.120160 0.374521 0.374521
0.120117 0.374478 0.438068
0.120074 0.374434 0.501615
0.120031 0.374391 0.565162
0.119988 0.374348 0.628709
0.119944 0.374305 0.692256
0.119901 0.374262 0.755803
0.119858 0.374219 0.819350
0.119815 0.374176 0.882898
0.119772 0.374133 0.946445
0.119732 0.374092 1.000000
0.119989 0.437940 0.000000
0.119948 0.437899 0.056358
0.119905 0.437856 0.119905
0.119862 0.437813 0.183453
0.119819 0.437770 0.247000
0.119776 0.437727 0.310547
0.119733 0.437684 0.374094
0.119690 0.437641 0.437641
0.119647 0.437598 0.501188
0.119604 0.437555 0.564735
0.119561 0.437512 0.628282
0.119518 0.437469 0.691829
0.119475 0.437426 0.755377
0.119431 0.437382 0.818924
0.119388 0.437339 0.882471
0.119345 0.437296 0.946018
0.119305 0.437256 1.000000
0.119562 0.501103 0.000000
0.119522 0.501063 0.055931
0.119479 0.501020 0.119479
0.119435 0.500977 0.183026
0.119392 0.500934 0.246573
0.119349 0.500891 0.310120
0.119306 0.500847 0.373667
0.119263 0.500804 0.437214
0.119220 0.500761 0.500761
0.119177 0.500718 0.564308
0.119134 0.500675 0.627855
0.119091 0.500632 0.691403
0.119048 0.500589 0.754950
0.119005 0.500546 0.818497
0.118962 0.500503 0.882044
0.118918 0.500460 0.945591
0.118878 0.500419 1.000000
0.119135 0.564267 0.000000
0.119095 0.564226 0.055505
0.119052 0.564183 0.119052
0.119009 0.564140 0.182599
0.118966 0.564097 0.246146
0.118922 0.564054 0.309693
0.118879 0.564011 0.373240
0.118836 0.563968 0.436787
0.118793 0.563925 0.500334
0.118750 0.563882 0.563882
0.118707 0.563838 0.627429
0.118664 0.563795 0.690976
0.118621 0.563752 0.754523
0.118578 0.563709 0.818070
0.118535 0.563666 0.881617
0.118492 0.563623 0.945164
0.118451 0.563583 1.000000
0.118708 0.627430 0.000000
0.118668 0.627390 0.055078
0.118625 0.627347 0.118625
0.118582 0.627303 0.182172
0.118539 0.627260 0.245719
0.118496 0.627217 0.309266
0.118453 0.627174 0.372813
0.118410 0.627131 0.436361
0.118366 0.627088 0.499908
0.118323 0.627045 0.563455
0.118280 0.627002 0.627002
0.118237 0.626959 0.690549
0.118194 0.626916 0.754096
0.118151 0.626873 0.817643
0.118108 0.626829 0.881190
0.118065 0.626786 0.944737
0.118024 0.626746 1.000000
0.118282 0.690593 0.000000
0.118241 0.690553 0.054651
0.118198 0.690510 0.118198
0.118155 0.690467 0.181745
0.118112 0.690424 0.245292
0.118069 0.690381 0.308839
0.118026 0.690338 0.372387
0.117983 0.690294 0.435934
0.117940 0.690251 0.499481
0.117897 0.690208 0.563028
0.117853 0.690165 0.626575
0.117810 0.690122 0.690122
0.117767 0.690079 0.753669
0.117724 0.690036 0.817216
0.117681 0.689993 0.880763
0.117638 0.689950 0.944311
0.117598 0.689909 1.000000
0.117855 0.753757 0.000000
0.117814 0.753716 0.054224
0.117771 0.753673 0.117771
0.117728 0.753630 0.181318
0.117685 0.753587 0.244866
0.117642 0.753544 0.308413
0.117599 0.753501 0.371960
0.117556 0.753458 0.435507
0.117513 0.753415 0.499054
0.117470 0.753372 0.562601
0.117427 0.753329 0.626148
0.117384 0.753286 0.689695
0.117340 0.753242 0.753242
0.117297 0.753199 0.816790
0.117254 0.753156 0.880337
0.117211 0.753113 0.943884
0.117171 0.753073 1.000000
0.117428 0.816920 0.000000
0.117388 0.816880 0.053797
0.117344 0.816837 0.117344
0.117301 0.816794 0.180892
0.117258 0.816751 0.244439
0.117215 0.816707 0.307986
0.117172 0.816664 0.371533
0.117129 0.816621 0.435080
0.117086 0.816578 0.498627
0.117043 0.816535 0.562174
0.117000 0.816492 0.625721
0.116957 0.816449 0.689269
0.116914 0.816406 0.752816
0.116871 0.816363 0.816363
0.116827 0.816320 0.879910
0.116784 0.816277 0.943457
0.116744 0.816236 1.000000
0.117001 0.880084 0.000000
0.116961 0.880043 0.053371
0.116918 0.880000 0.116918
0.116875 0.879957 0.180465
0.116831 0.879914 0.244012
0.116788 0.879871 0.307559
0.116745 0.879828 0.371106
0.116702 0.879785 0.434653
0.116659 0.879742 0.498200
0.116616 0.879698 0.561747
0.116573 0.879655 0.625295
0.116530 0.879612 0.688842
0.116487 0.879569 0.752389
0.116444 0.879526 0.815936
0.116401 0.879483 0.879483
0.116358 0.879440 0.943030
0.116317 0.879400 1.000000
0.116574 0.943247 0.000000
0.116534 0.943207 0.052944
0.116491 0.943163 0.116491
0.116448 0.943120 0.180038
0.116405 0.943077 0.243585
0.116362 0.943034 0.307132
0.116319 0.942991 0.370679
0.116275 0.942948 0.434226
0.116232 0.942905 0.497774
0.116189 0.942862 0.561321
0.116146 0.942819 0.624868
0.116103 0.942776 0.688415
0.116060 0.942733 0.751962
0.116017 0.942690 0.815509
0.115974 0.942646 0.879056
0.115931 0.942603 0.942603
0.115890 0.942563 1.000000
0.116174 1.000000 0.000000
0.116134 1.000000 0.052544
0.116091 1.000000 0.116091
0.116048 1.000000 0.179638
0.116005 1.000000 0.243185
0.115962 1.000000 0.306732
0.115918 1.000000 0.370279
0.115875 1.000000 0.433826
0.115832 1.000000 0.497373
0.115789 1.000000 0.560921
0.115746 1.000000 0.624468
0.115703 1.000000 0.688015
0.115660 1.000000 0.751562
0.115617 1.000000 0.815109
0.115574 1.000000 0.878656
0.115531 1.000000 0.942203
0.115490 1.000000 1.000000
0.186413 0.000000 0.000000
0.186373 0.000000 0.059192
0.186330 0.000000 0.122739
0.186287 0.000000 0.186287
0.186244 0.000000 0.249834
0.186200 0.000000 0.313381
0.186157 0.000000 0.376928
0.186114 0.000000 0.440475
0.186071 0.000000 0.504022
0.186028 0.000000 0.567569
0.185985 0.000000 0.631116
0.185942 0.000000 0.694664
0.185899 0.000000 0.758211
0.185856 0.000000 0.821758
0.185813 0.000000 0.885305
0.185770 0.000000 0.948852
0.185729 0.000000 1.000000
0.186013 0.058833 0.000000
