skills/creativeops-director/assets/grade/luts/product_clean_v19.cube
TITLE "product_clean_v19"
LUT_3D_SIZE 5
DOMAIN_MIN 0.0 0.0 0.0
DOMAIN_MAX 1.0 1.0 1.0
0.000000 0.000000 0.000000
0.000000 0.000000 0.250718
0.000000 0.000000 0.526369
0.000000 0.000000 0.802020
0.000000 0.000000 1.000000
0.000000 0.242013 0.000000
0.000000 0.241036 0.241036
0.000000 0.239961 0.516687
0.000000 0.238887 0.792338
0.000000 0.237909 1.000000
0.000000 0.508094 0.000000
0.000000 0.507117 0.230391
0.000000 0.506042 0.506042
0.000000 0.504968 0.781693
0.000000 0.503990 1.000000
0.000000 0.774175 0.000000
0.000000 0.773198 0.219746
0.000000 0.772123 0.495398
0.000000 0.771049 0.771049
0.000000 0.770071 1.000000
0.000000 1.000000 0.000000
0.000000 1.000000 0.210064
0.000000 1.000000 0.485716
0.000000 1.000000 0.761367
0.000000 1.000000 1.000000
0.248817 0.000000 0.000000
0.247840 0.000000 0.247840
0.246765 0.000000 0.523491
0.245691 0.000000 0.799142
0.244713 0.000000 1.000000
0.239135 0.239135 0.000000
0.238158 0.238158 0.238158
0.237083 0.237083 0.513809
0.236009 0.236009 0.789460
0.235031 0.235031 1.000000
0.228491 0.505216 0.000000
0.227513 0.504239 0.227513
0.226439 0.503164 0.503164
0.225364 0.502090 0.778815
0.224387 0.501112 1.000000
0.217846 0.771297 0.000000
0.216868 0.770320 0.216868
0.215794 0.769245 0.492519
0.214719 0.768171 0.768171
0.213742 0.767193 1.000000
0.208164 1.000000 0.000000
0.207186 1.000000 0.207186
0.206112 1.000000 0.482838
0.205037 1.000000 0.758489
0.204060 1.000000 1.000000
0.522379 0.000000 0.000000
0.521401 0.000000 0.244676
0.520327 0.000000 0.520327
0.519252 0.000000 0.795978
0.518275 0.000000 1.000000
0.512697 0.235971 0.000000
0.511719 0.234994 0.234994
0.510645 0.233919 0.510645
0.509570 0.232844 0.786296
0.508593 0.231867 1.000000
0.502052 0.502052 0.000000
0.501075 0.501075 0.224349
0.500000 0.500000 0.500000
0.498925 0.498925 0.775651
0.497948 0.497948 1.000000
0.491407 0.768133 0.000000
0.490430 0.767156 0.213704
0.489355 0.766081 0.489355
0.488281 0.765006 0.765006
0.487303 0.764029 1.000000
0.481725 1.000000 0.000000
0.480748 1.000000 0.204022
0.479673 1.000000 0.479673
0.478599 1.000000 0.755324
0.477621 1.000000 1.000000
0.795940 0.000000 0.000000
0.794963 0.000000 0.241511
0.793888 0.000000 0.517162
0.792814 0.000000 0.792814
0.791836 0.000000 1.000000
0.786258 0.232807 0.000000
0.785281 0.231829 0.231829
0.784206 0.230755 0.507481
0.783132 0.229680 0.783132
0.782154 0.228703 1.000000
0.775613 0.498888 0.000000
0.774636 0.497910 0.221185
0.773561 0.496836 0.496836
0.772487 0.495761 0.772487
0.771509 0.494784 1.000000
0.764969 0.764969 0.000000
0.763991 0.763991 0.210540
0.762917 0.762917 0.486191
0.761842 0.761842 0.761842
0.760865 0.760865 1.000000
0.755287 1.000000 0.000000
0.754309 1.000000 0.200858
0.753235 1.000000 0.476509
0.752160 1.000000 0.752160
0.751183 1.000000 1.000000
1.000000 0.000000 0.000000
1.000000 0.000000 0.238633
1.000000 0.000000 0.514284
1.000000 0.000000 0.789936
1.000000 0.000000 1.000000
1.000000 0.229929 0.000000
1.000000 0.228951 0.228951
1.000000 0.227877 0.504602
1.000000 0.226802 0.780254
1.000000 0.225825 1.000000
1.000000 0.496010 0.000000
1.000000 0.495032 0.218307
1.000000 0.493958 0.493958
1.000000 0.492883 0.769609
1.000000 0.491906 1.000000
1.000000 0.762091 0.000000
1.000000 0.761113 0.207662
1.000000 0.760039 0.483313
1.000000 0.758964 0.758964
1.000000 0.757987 1.000000
1.000000 1.000000 0.000000
1.000000 1.000000 0.197980
1.000000 1.000000 0.473631
1.000000 1.000000 0.749282
1.000000 1.000000 1.000000
