skills/creativeops-director/assets/grade/luts/soft_pastel_v18.cube
TITLE "soft_pastel_v18"
LUT_3D_SIZE 17
DOMAIN_MIN 0.0 0.0 0.0
DOMAIN_MAX 1.0 1.0 1.0
0.084872 0.077419 0.069913
0.085729 0.078276 0.122277
0.086562 0.079109 0.173125
0.087379 0.079926 0.223014
0.088184 0.080731 0.272203
0.088981 0.081528 0.320842
0.089770 0.082317 0.369027
0.090553 0.083099 0.416828
0.091330 0.083877 0.464296
0.092102 0.084649 0.511469
0.092870 0.085417 0.558379
0.093635 0.086181 0.605051
0.094395 0.086942 0.651507
0.095153 0.087699 0.697763
0.095907 0.088454 0.743835
0.096659 0.089205 0.789735
0.097408 0.089954 0.835476
0.093321 0.137101 0.078361
0.094178 0.137959 0.130726
0.095011 0.138791 0.181573
0.095828 0.139608 0.231463
0.096633 0.140414 0.280652
0.097429 0.141210 0.329290
0.098218 0.141999 0.377476
0.099001 0.142782 0.425277
0.099778 0.143559 0.472744
0.100551 0.144331 0.519918
0.101319 0.145100 0.566828
0.102083 0.145864 0.613500
0.102844 0.146625 0.659955
0.103601 0.147382 0.706212
0.104356 0.148136 0.752283
0.105107 0.148888 0.798184
0.105856 0.149637 0.843925
0.101542 0.195180 0.086583
0.102400 0.196038 0.138947
0.103232 0.196870 0.189795
0.104049 0.197687 0.239684
0.104855 0.198493 0.288874
0.105651 0.199289 0.337512
0.106440 0.200078 0.385697
0.107223 0.200861 0.433498
0.108000 0.201638 0.480966
0.108773 0.202411 0.528139
0.109541 0.203179 0.575049
0.110305 0.203943 0.621722
0.111066 0.204704 0.668177
0.111823 0.205461 0.714433
0.112577 0.206215 0.760505
0.113329 0.206967 0.806406
0.114078 0.207716 0.852146
0.109616 0.252216 0.094657
0.110474 0.253073 0.147021
0.111306 0.253906 0.197869
0.112123 0.254723 0.247758
0.112929 0.255528 0.296947
0.113725 0.256325 0.345586
0.114514 0.257114 0.393771
0.115297 0.257897 0.441572
0.116074 0.258674 0.489040
0.116847 0.259446 0.536213
0.117615 0.260214 0.583123
0.118379 0.260979 0.629796
0.119140 0.261739 0.676251
0.119897 0.262497 0.722507
0.120651 0.263251 0.768579
0.121403 0.264003 0.814480
0.122152 0.264752 0.860220
0.117581 0.308479 0.102622
0.118438 0.309337 0.154986
0.119271 0.310169 0.205834
0.120088 0.310986 0.255723
0.120893 0.311792 0.304912
0.121690 0.312588 0.353551
0.122479 0.313377 0.401736
0.123261 0.314160 0.449537
0.124039 0.314937 0.497005
0.124811 0.315710 0.544178
0.125579 0.316478 0.591088
0.126344 0.317242 0.637760
0.127104 0.318003 0.684216
0.127862 0.318760 0.730472
0.128616 0.319514 0.776544
0.129368 0.320266 0.822444
0.130117 0.321015 0.868185
0.125459 0.364130 0.110500
0.126316 0.364988 0.162864
0.127149 0.365820 0.213712
0.127966 0.366637 0.263601
0.128771 0.367443 0.312790
0.129568 0.368239 0.361429
0.130357 0.369028 0.409614
0.131139 0.369811 0.457415
0.131917 0.370588 0.504883
0.132689 0.371361 0.552056
0.133457 0.372129 0.598966
0.134221 0.372893 0.645638
0.134982 0.373654 0.692094
0.135740 0.374411 0.738350
0.136494 0.375166 0.784422
0.137246 0.375917 0.830322
0.137995 0.376666 0.876063
0.133265 0.419275 0.118306
0.134123 0.420133 0.170670
0.134955 0.420965 0.221518
0.135772 0.421782 0.271407
0.136578 0.422588 0.320596
0.137374 0.423384 0.369235
0.138163 0.424173 0.417420
0.138946 0.424956 0.465221
0.139723 0.425733 0.512689
0.140495 0.426506 0.559862
0.141264 0.427274 0.606772
0.142028 0.428038 0.653445
0.142788 0.428799 0.699900
0.143546 0.429556 0.746156
0.144300 0.430310 0.792228
0.145052 0.431062 0.838129
0.145801 0.431811 0.883869
0.141010 0.473989 0.126051
0.141868 0.474847 0.178415
0.142700 0.475679 0.229263
0.143517 0.476496 0.279153
0.144323 0.477302 0.328342
0.145119 0.478098 0.376980
0.145908 0.478887 0.425166
0.146691 0.479670 0.472967
0.147468 0.480447 0.520434
0.148241 0.481220 0.567607
0.149009 0.481988 0.614518
0.149773 0.482752 0.661190
0.150534 0.483513 0.707645
0.151291 0.484270 0.753901
0.152046 0.485024 0.799973
0.152797 0.485776 0.845874
0.153546 0.486525 0.891614
0.148703 0.528328 0.133743
0.149560 0.529186 0.186108
0.150393 0.530018 0.236955
0.151210 0.530835 0.286845
0.152015 0.531641 0.336034
0.152811 0.532437 0.384672
0.153601 0.533226 0.432858
0.154383 0.534009 0.480659
0.155160 0.534786 0.528126
0.155933 0.535558 0.575300
0.156701 0.536327 0.622210
0.157465 0.537091 0.668882
0.158226 0.537852 0.715338
0.158983 0.538609 0.761594
0.159738 0.539363 0.807665
0.160489 0.540115 0.853566
0.161238 0.540864 0.899307
0.156348 0.582336 0.141389
0.157205 0.583193 0.193753
0.158038 0.584026 0.244601
0.158855 0.584842 0.294490
0.159660 0.585648 0.343679
0.160457 0.586444 0.392318
0.161246 0.587233 0.440503
0.162029 0.588016 0.488304
0.162806 0.588793 0.535772
0.163578 0.589566 0.582945
0.164346 0.590334 0.629855
0.165111 0.591098 0.676527
0.165871 0.591859 0.722983
0.166629 0.592616 0.769239
0.167383 0.593371 0.815311
0.168135 0.594122 0.861211
0.168884 0.594871 0.906952
0.163951 0.636046 0.148992
0.164809 0.636903 0.201356
0.165641 0.637736 0.252204
0.166458 0.638553 0.302093
0.167264 0.639358 0.351282
0.168060 0.640155 0.399921
0.168849 0.640944 0.448106
0.169632 0.641726 0.495907
0.170409 0.642504 0.543375
0.171181 0.643276 0.590548
0.171950 0.644044 0.637458
0.172714 0.644809 0.684131
0.173474 0.645569 0.730586
0.174232 0.646327 0.776842
0.174986 0.647081 0.822914
0.175738 0.647833 0.868815
0.176487 0.648582 0.914555
0.171516 0.689487 0.156557
0.172374 0.690345 0.208921
0.173206 0.691177 0.259769
0.174023 0.691994 0.309658
0.174829 0.692800 0.358848
0.175625 0.693596 0.407486
0.176414 0.694385 0.455671
0.177197 0.695168 0.503473
0.177974 0.695945 0.550940
0.178747 0.696718 0.598113
0.179515 0.697486 0.645024
0.180279 0.698250 0.691696
0.181040 0.699011 0.738151
0.181797 0.699768 0.784407
0.182552 0.700523 0.830479
0.183303 0.701274 0.876380
0.184052 0.702023 0.922120
0.179047 0.742683 0.164087
0.179904 0.743541 0.216452
0.180737 0.744373 0.267300
0.181554 0.745190 0.317189
0.182359 0.745996 0.366378
0.183156 0.746792 0.415016
0.183945 0.747581 0.463202
0.184727 0.748364 0.511003
0.185505 0.749141 0.558471
0.186277 0.749914 0.605644
0.187045 0.750682 0.652554
0.187809 0.751446 0.699226
0.188570 0.752207 0.745682
0.189328 0.752964 0.791938
0.190082 0.753719 0.838010
0.190834 0.754470 0.883910
0.191583 0.755219 0.929651
0.186545 0.795654 0.171586
0.187403 0.796511 0.223950
0.188235 0.797344 0.274798
0.189052 0.798161 0.324687
0.189858 0.798966 0.373876
0.190654 0.799763 0.422515
0.191443 0.800552 0.470700
0.192226 0.801334 0.518501
0.193003 0.802112 0.565969
0.193776 0.802884 0.613142
0.194544 0.803652 0.660052
0.195308 0.804416 0.706725
0.196069 0.805177 0.753180
0.196826 0.805935 0.799436
0.197580 0.806689 0.845508
0.198332 0.807441 0.891409
0.199081 0.808190 0.937149
0.194014 0.848415 0.179055
0.194872 0.849273 0.231419
0.195704 0.850105 0.282267
0.196521 0.850922 0.332156
0.197327 0.851728 0.381345
0.198123 0.852524 0.429984
0.198912 0.853313 0.478169
0.199695 0.854096 0.525970
0.200472 0.854873 0.573438
0.201244 0.855646 0.620611
0.202013 0.856414 0.667521
0.202777 0.857178 0.714194
0.203537 0.857939 0.760649
0.204295 0.858696 0.806905
0.205049 0.859450 0.852977
0.205801 0.860202 0.898878
0.206550 0.860951 0.944618
0.201456 0.900982 0.186496
0.202313 0.901840 0.238860
0.203146 0.902673 0.289708
0.203963 0.903489 0.339598
0.204768 0.904295 0.388787
0.205564 0.905091 0.437425
0.206353 0.905880 0.485611
0.207136 0.906663 0.533412
0.207913 0.907440 0.580879
0.208686 0.908213 0.628053
0.209454 0.908981 0.674963
0.210218 0.909745 0.721635
0.210979 0.910506 0.768090
0.211736 0.911263 0.814347
0.212491 0.912018 0.860418
0.213242 0.912769 0.906319
0.213991 0.913518 0.952060
0.208536 0.950996 0.193576
0.209393 0.951854 0.245940
0.210226 0.952686 0.296788
0.211042 0.953503 0.346678
0.211848 0.954309 0.395867
0.212644 0.955105 0.444505
0.213433 0.955894 0.492691
0.214216 0.956677 0.540492
0.214993 0.957454 0.587959
0.215766 0.958227 0.635133
0.216534 0.958995 0.682043
0.217298 0.959759 0.728715
0.218059 0.960520 0.775170
0.218816 0.961277 0.821426
0.219571 0.962031 0.867498
0.220322 0.962783 0.913399
0.221071 0.963532 0.959139
0.138358 0.079918 0.072412
0.139215 0.080775 0.124776
0.140048 0.081608 0.175624
0.140865 0.082425 0.225513
0.141670 0.083230 0.274703
0.142467 0.084027 0.323341
0.143256 0.084816 0.371526
0.144038 0.085599 0.419327
0.144816 0.086376 0.466795
0.145588 0.087148 0.513968
0.146356 0.087916 0.560878
0.147121 0.088681 0.607551
0.147881 0.089441 0.654006
0.148639 0.090199 0.700262
0.149393 0.090953 0.746334
0.150145 0.091705 0.792235
0.150894 0.092454 0.837975
0.146807 0.139600 0.080861
0.147664 0.140458 0.133225
0.148497 0.141291 0.184073
0.149313 0.142107 0.233962
0.150119 0.142913 0.283151
0.150915 0.143709 0.331790
0.151704 0.144498 0.379975
0.152487 0.145281 0.427776
0.153264 0.146058 0.475244
0.154037 0.146831 0.522417
0.154805 0.147599 0.569327
0.155569 0.148363 0.615999
0.156330 0.149124 0.662455
0.157087 0.149881 0.708711
0.157842 0.150636 0.754783
0.158593 0.151387 0.800683
0.159342 0.152136 0.846424
0.155028 0.197680 0.089082
0.155886 0.198537 0.141447
0.156718 0.199370 0.192294
0.157535 0.200187 0.242184
0.158341 0.200992 0.291373
0.159137 0.201788 0.340011
0.159926 0.202577 0.388197
0.160709 0.203360 0.435998
0.161486 0.204137 0.483465
0.162258 0.204910 0.530639
0.163027 0.205678 0.577549
0.163791 0.206442 0.624221
0.164552 0.207203 0.670676
0.165309 0.207960 0.716933
0.166063 0.208715 0.763004
0.166815 0.209466 0.808905
0.167564 0.210215 0.854646
0.163102 0.254715 0.097156
0.163960 0.255573 0.149520
0.164792 0.256405 0.200368
0.165609 0.257222 0.250258
0.166415 0.258028 0.299447
0.167211 0.258824 0.348085
0.168000 0.259613 0.396271
0.168783 0.260396 0.444072
0.169560 0.261173 0.491539
0.170332 0.261946 0.538713
0.171101 0.262714 0.585623
0.171865 0.263478 0.632295
0.172626 0.264239 0.678750
0.173383 0.264996 0.725007
0.174137 0.265750 0.771078
0.174889 0.266502 0.816979
0.175638 0.267251 0.862720
0.171067 0.310979 0.105121
0.171924 0.311836 0.157485
0.172757 0.312669 0.208333
0.173574 0.313486 0.258222
0.174379 0.314291 0.307411
0.175176 0.315087 0.356050
0.175965 0.315876 0.404235
0.176747 0.316659 0.452036
0.177525 0.317436 0.499504
0.178297 0.318209 0.546677
0.179065 0.318977 0.593587
0.179829 0.319741 0.640260
0.180590 0.320502 0.686715
0.181348 0.321259 0.732971
0.182102 0.322014 0.779043
0.182854 0.322765 0.824944
0.183603 0.323514 0.870684
0.178945 0.366630 0.112999
0.179802 0.367487 0.165363
0.180635 0.368320 0.216211
0.181452 0.369137 0.266100
0.182257 0.369942 0.315289
0.183054 0.370739 0.363928
0.183843 0.371528 0.412113
0.184625 0.372310 0.459914
0.185403 0.373088 0.507382
0.186175 0.373860 0.554555
0.186943 0.374628 0.601465
0.187707 0.375392 0.648138
0.188468 0.376153 0.694593
0.189226 0.376910 0.740849
0.189980 0.377665 0.786921
0.190732 0.378416 0.832822
0.191481 0.379165 0.878562
0.186751 0.421775 0.120805
0.187609 0.422632 0.173169
0.188441 0.423465 0.224017
0.189258 0.424282 0.273907
0.190063 0.425087 0.323096
0.190860 0.425883 0.371734
0.191649 0.426673 0.419920
0.192432 0.427455 0.467721
0.193209 0.428232 0.515188
0.193981 0.429005 0.562362
0.194749 0.429773 0.609272
0.195514 0.430537 0.655944
0.196274 0.431298 0.702399
0.197032 0.432055 0.748655
0.197786 0.432810 0.794727
0.198538 0.433561 0.840628
0.199287 0.434310 0.886368
0.194496 0.476489 0.128550
0.195354 0.477346 0.180915
0.196186 0.478179 0.231763
0.197003 0.478996 0.281652
0.197809 0.479801 0.330841
0.198605 0.480597 0.379479
0.199394 0.481386 0.427665
0.200177 0.482169 0.475466
0.200954 0.482946 0.522934
0.201727 0.483719 0.570107
0.202495 0.484487 0.617017
0.203259 0.485251 0.663689
0.204020 0.486012 0.710145
0.204777 0.486769 0.756401
0.205532 0.487524 0.802473
0.206283 0.488275 0.848373
0.207032 0.489024 0.894114
0.202189 0.530827 0.136243
0.203046 0.531685 0.188607
0.203879 0.532518 0.239455
0.204696 0.533334 0.289344
0.205501 0.534140 0.338533
0.206297 0.534936 0.387172
0.207086 0.535725 0.435357
0.207869 0.536508 0.483158
0.208646 0.537285 0.530626
0.209419 0.538058 0.577799
0.210187 0.538826 0.624709
0.210951 0.539590 0.671381
0.211712 0.540351 0.717837
0.212469 0.541108 0.764093
0.213224 0.541863 0.810165
0.213975 0.542614 0.856065
0.214724 0.543363 0.901806
0.209834 0.584835 0.143888
0.210691 0.585692 0.196252
0.211524 0.586525 0.247100
0.212341 0.587342 0.296989
0.213146 0.588147 0.346178
0.213943 0.588944 0.394817
0.214732 0.589733 0.443002
0.215514 0.590515 0.490803
0.216292 0.591293 0.538271
0.217064 0.592065 0.585444
0.217832 0.592833 0.632354
0.218597 0.593597 0.679027
0.219357 0.594358 0.725482
0.220115 0.595116 0.771738
0.220869 0.595870 0.817810
0.221621 0.596622 0.863711
0.222370 0.597371 0.909451
0.217437 0.638545 0.151491
0.218295 0.639403 0.203855
0.219127 0.640235 0.254703
0.219944 0.641052 0.304593
0.220749 0.641858 0.353782
0.221546 0.642654 0.402420
0.222335 0.643443 0.450606
0.223118 0.644226 0.498407
0.223895 0.645003 0.545874
0.224667 0.645775 0.593048
0.225435 0.646544 0.639958
0.226200 0.647308 0.686630
0.226960 0.648069 0.733085
0.227718 0.648826 0.779341
0.228472 0.649580 0.825413
0.229224 0.650332 0.871314
0.229973 0.651081 0.917054
0.225002 0.691987 0.159056
0.225860 0.692844 0.211421
0.226692 0.693677 0.262268
0.227509 0.694494 0.312158
0.228315 0.695299 0.361347
0.229111 0.696096 0.409985
0.229900 0.696885 0.458171
0.230683 0.697667 0.505972
0.231460 0.698445 0.553439
0.232233 0.699217 0.600613
0.233001 0.699985 0.647523
0.233765 0.700749 0.694195
0.234526 0.701510 0.740651
0.235283 0.702267 0.786907
0.236037 0.703022 0.832978
0.236789 0.703773 0.878879
0.237538 0.704522 0.924620
0.232533 0.745183 0.166587
0.233390 0.746040 0.218951
0.234223 0.746873 0.269799
0.235040 0.747690 0.319688
0.235845 0.748495 0.368877
0.236642 0.749292 0.417516
0.237431 0.750081 0.465701
0.238213 0.750863 0.513502
0.238991 0.751641 0.560970
0.239763 0.752413 0.608143
0.240531 0.753181 0.655053
0.241295 0.753945 0.701726
0.242056 0.754706 0.748181
0.242813 0.755464 0.794437
0.243568 0.756218 0.840509
0.244319 0.756970 0.886409
0.245068 0.757719 0.932150
0.240031 0.798153 0.174085
0.240889 0.799011 0.226450
0.241721 0.799843 0.277297
0.242538 0.800660 0.327187
0.243344 0.801466 0.376376
0.244140 0.802262 0.425014
0.244929 0.803051 0.473200
0.245712 0.803834 0.521001
0.246489 0.804611 0.568468
0.247261 0.805383 0.615642
0.248030 0.806152 0.662552
0.248794 0.806916 0.709224
0.249555 0.807676 0.755679
0.250312 0.808434 0.801936
0.251066 0.809188 0.848007
0.251818 0.809940 0.893908
0.252567 0.810689 0.939649
0.247500 0.850915 0.181554
0.248358 0.851772 0.233918
0.249190 0.852605 0.284766
0.250007 0.853422 0.334656
0.250812 0.854227 0.383845
0.251609 0.855023 0.432483
0.252398 0.855812 0.480669
0.253181 0.856595 0.528470
0.253958 0.857372 0.575937
0.254730 0.858145 0.623111
0.255498 0.858913 0.670021
0.256263 0.859677 0.716693
0.257023 0.860438 0.763148
0.257781 0.861195 0.809404
0.258535 0.861950 0.855476
0.259287 0.862701 0.901377
0.260036 0.863450 0.947117
0.254941 0.903482 0.188996
0.255799 0.904339 0.241360
0.256632 0.905172 0.292208
0.257448 0.905989 0.342097
0.258254 0.906794 0.391286
0.259050 0.907591 0.439925
0.259839 0.908380 0.488110
0.260622 0.909162 0.535911
0.261399 0.909940 0.583379
0.262172 0.910712 0.630552
0.262940 0.911480 0.677462
0.263704 0.912244 0.724134
0.264465 0.913005 0.770590
0.265222 0.913763 0.816846
0.265977 0.914517 0.862918
0.266728 0.915269 0.908818
0.267477 0.916018 0.954559
0.262021 0.953496 0.196076
0.262879 0.954353 0.248440
0.263711 0.955186 0.299288
0.264528 0.956003 0.349177
0.265334 0.956808 0.398366
0.266130 0.957604 0.447005
0.266919 0.958393 0.495190
0.267702 0.959176 0.542991
0.268479 0.959953 0.590459
0.269252 0.960726 0.637632
0.270020 0.961494 0.684542
0.270784 0.962258 0.731214
0.271545 0.963019 0.777670
0.272302 0.963776 0.823926
0.273057 0.964531 0.869998
0.273808 0.965282 0.915898
0.274557 0.966031 0.961639
0.190503 0.082355 0.074849
0.191361 0.083212 0.127213
0.192193 0.084045 0.178061
0.193010 0.084862 0.227950
0.193816 0.085667 0.277139
0.194612 0.086464 0.325778
0.195401 0.087253 0.373963
0.196184 0.088035 0.421764
0.196961 0.088813 0.469232
0.197733 0.089585 0.516405
0.198502 0.090353 0.563315
0.199266 0.091117 0.609987
0.200026 0.091878 0.656443
0.200784 0.092635 0.702699
0.201538 0.093390 0.748771
0.202290 0.094141 0.794671
0.203039 0.094890 0.840412
0.198952 0.142037 0.083297
0.199809 0.142895 0.135662
0.200642 0.143727 0.186509
0.201459 0.144544 0.236399
0.202264 0.145350 0.285588
0.203061 0.146146 0.334226
0.203850 0.146935 0.382412
0.204632 0.147718 0.430213
0.205410 0.148495 0.477680
0.206182 0.149267 0.524854
0.206950 0.150036 0.571764
0.207714 0.150800 0.618436
0.208475 0.151561 0.664891
0.209233 0.152318 0.711148
0.209987 0.153072 0.757219
0.210739 0.153824 0.803120
0.211488 0.154573 0.848861
0.207173 0.200116 0.091519
0.208031 0.200974 0.143883
0.208863 0.201806 0.194731
0.209680 0.202623 0.244620
0.210486 0.203429 0.293810
0.211282 0.204225 0.342448
0.212071 0.205014 0.390633
0.212854 0.205797 0.438434
0.213631 0.206574 0.485902
0.214404 0.207347 0.533075
0.215172 0.208115 0.579985
0.215936 0.208879 0.626658
0.216697 0.209640 0.673113
0.217454 0.210397 0.719369
0.218209 0.211151 0.765441
0.218960 0.211903 0.811342
0.219709 0.212652 0.857082
0.215247 0.257152 0.099593
0.216105 0.258009 0.151957
0.216937 0.258842 0.202805
0.217754 0.259659 0.252694
0.218560 0.260464 0.301883
0.219356 0.261261 0.350522
0.220145 0.262050 0.398707
0.220928 0.262833 0.446508
0.221705 0.263610 0.493976
0.222478 0.264382 0.541149
0.223246 0.265150 0.588059
0.224010 0.265915 0.634732
0.224771 0.266675 0.681187
0.225528 0.267433 0.727443
0.226283 0.268187 0.773515
0.227034 0.268939 0.819416
0.227783 0.269688 0.865156
0.223212 0.313415 0.107558
0.224069 0.314273 0.159922
0.224902 0.315105 0.210770
0.225719 0.315922 0.260659
0.226524 0.316728 0.309848
0.227321 0.317524 0.358487
0.228110 0.318313 0.406672
0.228893 0.319096 0.454473
0.229670 0.319873 0.501941
0.230442 0.320645 0.549114
0.231210 0.321414 0.596024
0.231975 0.322178 0.642696
0.232735 0.322939 0.689152
0.233493 0.323696 0.735408
0.234247 0.324450 0.781480
0.234999 0.325202 0.827380
0.235748 0.325951 0.873121
0.231090 0.369066 0.115435
0.231947 0.369924 0.167800
0.232780 0.370756 0.218648
0.233597 0.371573 0.268537
0.234402 0.372379 0.317726
0.235199 0.373175 0.366365
0.235988 0.373964 0.414550
0.236771 0.374747 0.462351
0.237548 0.375524 0.509819
0.238320 0.376297 0.556992
0.239088 0.377065 0.603902
0.239853 0.377829 0.650574
0.240613 0.378590 0.697030
0.241371 0.379347 0.743286
0.242125 0.380102 0.789358
0.242877 0.380853 0.835258
0.243626 0.381602 0.880999
0.238896 0.424211 0.123242
0.239754 0.425069 0.175606
0.240586 0.425901 0.226454
0.241403 0.426718 0.276343
0.242209 0.427524 0.325532
0.243005 0.428320 0.374171
0.243794 0.429109 0.422356
0.244577 0.429892 0.470157
0.245354 0.430669 0.517625
0.246127 0.431442 0.564798
0.246895 0.432210 0.611708
0.247659 0.432974 0.658381
0.248420 0.433735 0.704836
0.249177 0.434492 0.751092
0.249931 0.435246 0.797164
0.250683 0.435998 0.843065
0.251432 0.436747 0.888805
0.246642 0.478925 0.130987
0.247499 0.479783 0.183351
0.248332 0.480615 0.234199
0.249149 0.481432 0.284089
0.249954 0.482238 0.333278
0.250750 0.483034 0.381916
0.251539 0.483823 0.430102
0.252322 0.484606 0.477903
0.253099 0.485383 0.525370
0.253872 0.486156 0.572543
0.254640 0.486924 0.619454
0.255404 0.487688 0.666126
0.256165 0.488449 0.712581
0.256922 0.489206 0.758837
0.257677 0.489960 0.804909
0.258428 0.490712 0.850810
0.259177 0.491461 0.896550
0.254334 0.533264 0.138679
0.255191 0.534122 0.191044
0.256024 0.534954 0.241891
0.256841 0.535771 0.291781
0.257646 0.536577 0.340970
0.258443 0.537373 0.389608
0.259232 0.538162 0.437794
0.260014 0.538945 0.485595
0.260792 0.539722 0.533062
0.261564 0.540494 0.580236
0.262332 0.541263 0.627146
0.263096 0.542027 0.673818
0.263857 0.542788 0.720274
0.264615 0.543545 0.766530
0.265369 0.544299 0.812601
0.266121 0.545051 0.858502
0.266870 0.545800 0.904243
0.261979 0.587272 0.146325
0.262837 0.588129 0.198689
0.263669 0.588962 0.249537
0.264486 0.589778 0.299426
0.265292 0.590584 0.348615
0.266088 0.591380 0.397254
0.266877 0.592169 0.445439
0.267660 0.592952 0.493240
0.268437 0.593729 0.540708
0.269209 0.594502 0.587881
0.269978 0.595270 0.634791
0.270742 0.596034 0.681463
0.271502 0.596795 0.727919
0.272260 0.597552 0.774175
0.273014 0.598307 0.820247
0.273766 0.599058 0.866147
0.274515 0.599807 0.911888
0.269582 0.640982 0.153928
0.270440 0.641839 0.206292
0.271272 0.642672 0.257140
0.272089 0.643489 0.307029
0.272895 0.644294 0.356218
0.273691 0.645091 0.404857
0.274480 0.645880 0.453042
0.275263 0.646662 0.500843
0.276040 0.647440 0.548311
0.276813 0.648212 0.595484
0.277581 0.648980 0.642394
0.278345 0.649745 0.689067
0.279106 0.650505 0.735522
0.279863 0.651263 0.781778
0.280618 0.652017 0.827850
0.281369 0.652769 0.873751
0.282118 0.653518 0.919491
0.277147 0.694423 0.161493
0.278005 0.695281 0.213857
0.278838 0.696113 0.264705
0.279654 0.696930 0.314594
0.280460 0.697736 0.363784
0.281256 0.698532 0.412422
0.282045 0.699321 0.460607
0.282828 0.700104 0.508409
0.283605 0.700881 0.555876
0.284378 0.701654 0.603049
0.285146 0.702422 0.649960
0.285910 0.703186 0.696632
0.286671 0.703947 0.743087
0.287428 0.704704 0.789343
0.288183 0.705459 0.835415
0.288934 0.706210 0.881316
0.289683 0.706959 0.927056
0.284678 0.747619 0.169023
0.285535 0.748477 0.221388
0.286368 0.749309 0.272236
0.287185 0.750126 0.322125
0.287990 0.750932 0.371314
0.288787 0.751728 0.419952
0.289576 0.752517 0.468138
0.290359 0.753300 0.515939
0.291136 0.754077 0.563406
0.291908 0.754850 0.610580
0.292676 0.755618 0.657490
0.293441 0.756382 0.704162
0.294201 0.757143 0.750618
0.294959 0.757900 0.796874
0.295713 0.758655 0.842946
0.296465 0.759406 0.888846
0.297214 0.760155 0.934587
0.292176 0.800590 0.176522
0.293034 0.801447 0.228886
0.293866 0.802280 0.279734
0.294683 0.803097 0.329623
0.295489 0.803902 0.378812
0.296285 0.804699 0.427451
0.297074 0.805488 0.475636
0.297857 0.806270 0.523437
0.298634 0.807048 0.570905
0.299407 0.807820 0.618078
0.300175 0.808588 0.664988
0.300939 0.809352 0.711661
0.301700 0.810113 0.758116
0.302457 0.810871 0.804372
0.303212 0.811625 0.850444
0.303963 0.812377 0.896345
0.304712 0.813126 0.942085
0.299645 0.853351 0.183991
0.300503 0.854209 0.236355
0.301335 0.855041 0.287203
0.302152 0.855858 0.337092
0.302958 0.856664 0.386281
0.303754 0.857460 0.434920
0.304543 0.858249 0.483105
0.305326 0.859032 0.530906
0.306103 0.859809 0.578374
0.306876 0.860582 0.625547
0.307644 0.861350 0.672457
0.308408 0.862114 0.719130
0.309169 0.862875 0.765585
0.309926 0.863632 0.811841
0.310680 0.864386 0.857913
0.311432 0.865138 0.903814
0.312181 0.865887 0.949554
0.307087 0.905918 0.191432
0.307944 0.906776 0.243796
0.308777 0.907609 0.294644
0.309594 0.908425 0.344534
0.310399 0.909231 0.393723
0.311196 0.910027 0.442361
0.311985 0.910816 0.490547
0.312767 0.911599 0.538348
0.313545 0.912376 0.585815
0.314317 0.913149 0.632989
0.315085 0.913917 0.679899
0.315849 0.914681 0.726571
0.316610 0.915442 0.773026
0.317367 0.916199 0.819283
0.318122 0.916954 0.865354
0.318874 0.917705 0.911255
0.319622 0.918454 0.956996
0.314167 0.955932 0.198512
0.315024 0.956790 0.250876
0.315857 0.957622 0.301724
0.316674 0.958439 0.351614
0.317479 0.959245 0.400803
0.318276 0.960041 0.449441
0.319065 0.960830 0.497627
0.319847 0.961613 0.545428
0.320625 0.962390 0.592895
0.321397 0.963163 0.640069
0.322165 0.963931 0.686979
0.322929 0.964695 0.733651
0.323690 0.965456 0.780106
0.324447 0.966213 0.826362
0.325202 0.966967 0.872434
0.325953 0.967719 0.918335
0.326702 0.968468 0.964075
0.241754 0.084750 0.077243
0.242611 0.085607 0.129608
0.243444 0.086440 0.180456
0.244261 0.087257 0.230345
0.245066 0.088062 0.279534
0.245862 0.088858 0.328173
0.246651 0.089647 0.376358
0.247434 0.090430 0.424159
0.248211 0.091207 0.471627
0.248984 0.091980 0.518800
0.249752 0.092748 0.565710
0.250516 0.093512 0.612382
0.251277 0.094273 0.658838
0.252034 0.095030 0.705094
0.252789 0.095785 0.751166
0.253540 0.096536 0.797066
0.254289 0.097285 0.842807
0.250202 0.144432 0.085692
