skills/creativeops-director/assets/grade/luts/soft_pastel_v09.cube
TITLE "soft_pastel_v09"
LUT_3D_SIZE 5
DOMAIN_MIN 0.0 0.0 0.0
DOMAIN_MAX 1.0 1.0 1.0
0.048361 0.044537 0.040697
0.050717 0.046892 0.260385
0.052983 0.049159 0.471744
0.055210 0.051385 0.679363
0.057408 0.053583 0.884403
0.071666 0.284900 0.064002
0.074022 0.287256 0.283690
0.076288 0.289522 0.495049
0.078514 0.291748 0.702668
0.080713 0.293947 0.907708
0.094107 0.516353 0.086443
0.096463 0.518709 0.306131
0.098729 0.520975 0.517490
0.100955 0.523201 0.725109
0.103154 0.525400 0.930149
0.116154 0.743744 0.108490
0.118510 0.746099 0.328178
0.120776 0.748366 0.539537
0.123002 0.750592 0.747156
0.125201 0.752790 0.952196
0.137564 0.964559 0.129899
0.139919 0.966915 0.349587
0.142186 0.969181 0.560947
0.144412 0.971407 0.768565
0.146610 0.973606 0.973606
0.272078 0.051456 0.047616
0.274434 0.053811 0.267304
0.276700 0.056078 0.478664
0.278926 0.058304 0.686282
0.281125 0.060503 0.891323
0.295383 0.291819 0.070921
0.297739 0.294175 0.290609
0.300005 0.296441 0.501968
0.302231 0.298667 0.709587
0.304430 0.300866 0.914628
0.317824 0.523272 0.093362
0.320180 0.525628 0.313050
0.322446 0.527894 0.524409
0.324672 0.530120 0.732028
0.326871 0.532319 0.937068
0.339871 0.750663 0.115409
0.342227 0.753019 0.335097
0.344493 0.755285 0.546456
0.346719 0.757511 0.754075
0.348918 0.759710 0.959116
0.361281 0.971478 0.136819
0.363636 0.973834 0.356507
0.365903 0.976100 0.567866
0.368129 0.978327 0.775485
0.370327 0.980525 0.980525
0.487678 0.058124 0.054285
0.490034 0.060480 0.273973
0.492300 0.062746 0.485332
0.494526 0.064972 0.692950
0.496725 0.067171 0.897991
0.510983 0.298488 0.077589
0.513339 0.300843 0.297277
0.515605 0.303109 0.508637
0.517831 0.305336 0.716255
0.520030 0.307534 0.921296
0.533424 0.529940 0.100030
0.535780 0.532296 0.319718
0.538046 0.534562 0.531078
0.540272 0.536789 0.738696
0.542471 0.538987 0.943737
0.555471 0.757331 0.122077
0.557827 0.759687 0.341765
0.560093 0.761953 0.553125
0.562319 0.764179 0.760743
0.564518 0.766378 0.965784
0.576881 0.978147 0.143487
0.579236 0.980502 0.363175
0.581503 0.982769 0.574534
0.583729 0.984995 0.782153
0.585927 0.987193 0.987193
0.699526 0.064676 0.060837
0.701882 0.067032 0.280525
0.704148 0.069298 0.491884
0.706374 0.071524 0.699503
0.708573 0.073723 0.904543
0.722831 0.305040 0.084142
0.725186 0.307395 0.303830
0.727453 0.309662 0.515189
0.729679 0.311888 0.722807
0.731878 0.314086 0.927848
0.745272 0.536493 0.106582
0.747627 0.538848 0.326270
0.749894 0.541114 0.537630
0.752120 0.543341 0.745248
0.754318 0.545539 0.950289
0.767319 0.763883 0.128630
0.769674 0.766239 0.348318
0.771941 0.768505 0.559677
0.774167 0.770731 0.767295
0.776365 0.772930 0.972336
0.788728 0.984699 0.150039
0.791084 0.987054 0.369727
0.793350 0.989321 0.581086
0.795576 0.991547 0.788705
0.797775 0.993745 0.993745
0.901751 0.070931 0.067091
0.904107 0.073286 0.286779
0.906373 0.075553 0.498139
0.908599 0.077779 0.705757
0.910798 0.079977 0.910798
0.925056 0.311294 0.090396
0.927411 0.313650 0.310084
0.929678 0.315916 0.521443
0.931904 0.318142 0.729062
0.934103 0.320341 0.934103
0.947497 0.542747 0.112837
0.949852 0.545103 0.332525
0.952119 0.547369 0.543884
0.954345 0.549595 0.751503
0.956543 0.551794 0.956543
0.969544 0.770138 0.134884
0.971899 0.772494 0.354572
0.974166 0.774760 0.565931
0.976392 0.776986 0.773550
0.978590 0.779185 0.978590
0.990953 0.990953 0.156294
0.993309 0.993309 0.375982
0.995575 0.995575 0.587341
0.997801 0.997801 0.794959
1.000000 1.000000 1.000000
