skills/creativeops-director/assets/grade/luts/soft_pastel_v03.cube
TITLE "soft_pastel_v03"
LUT_3D_SIZE 17
DOMAIN_MIN 0.0 0.0 0.0
DOMAIN_MAX 1.0 1.0 1.0
0.024188 0.023182 0.022175
0.024620 0.023614 0.081214
0.025043 0.024037 0.139049
0.025461 0.024455 0.196266
0.025877 0.024871 0.253061
0.026290 0.025284 0.309537
0.026702 0.025696 0.365754
0.027111 0.026105 0.421756
0.027520 0.026514 0.477573
0.027927 0.026921 0.533227
0.028333 0.027327 0.588737
0.028738 0.027732 0.644116
0.029143 0.028137 0.699377
0.029546 0.028540 0.754530
0.029949 0.028943 0.809582
0.030351 0.029345 0.864541
0.030728 0.029722 0.916069
0.028464 0.086033 0.026451
0.028896 0.086465 0.085491
0.029320 0.086888 0.143326
0.029738 0.087306 0.200543
0.030154 0.087722 0.257338
0.030567 0.088135 0.313813
0.030978 0.088547 0.370031
0.031388 0.088956 0.426033
0.031796 0.089365 0.481850
0.032204 0.089772 0.537504
0.032610 0.090178 0.593014
0.033015 0.090583 0.648393
0.033419 0.090988 0.703654
0.033823 0.091391 0.758806
0.034226 0.091794 0.813859
0.034628 0.092196 0.868818
0.035005 0.092573 0.920346
0.032655 0.147623 0.030642
0.033087 0.148055 0.089682
0.033510 0.148478 0.147517
0.033929 0.148897 0.204734
0.034345 0.149312 0.261529
0.034758 0.149725 0.318004
0.035169 0.150137 0.374222
0.035579 0.150547 0.430224
0.035987 0.150955 0.486041
0.036395 0.151362 0.541695
0.036801 0.151768 0.597204
0.037206 0.152173 0.652584
0.037610 0.152578 0.707845
0.038014 0.152981 0.762997
0.038417 0.153384 0.818050
0.038819 0.153786 0.873009
0.039196 0.154163 0.924537
0.036802 0.208559 0.034789
0.037234 0.208991 0.093828
0.037657 0.209414 0.151663
0.038075 0.209833 0.208880
0.038491 0.210248 0.265675
0.038904 0.210662 0.322151
0.039316 0.211073 0.378368
0.039725 0.211483 0.434370
0.040134 0.211891 0.490187
0.040541 0.212298 0.545841
0.040947 0.212704 0.601351
0.041352 0.213110 0.656730
0.041757 0.213514 0.711991
0.042160 0.213918 0.767144
0.042563 0.214320 0.822196
0.042965 0.214722 0.877155
0.043342 0.215099 0.928683
0.040918 0.269049 0.038905
0.041350 0.269481 0.097944
0.041773 0.269904 0.155780
0.042192 0.270322 0.212996
0.042607 0.270738 0.269791
0.043020 0.271151 0.326267
0.043432 0.271563 0.382484
0.043841 0.271972 0.438486
0.044250 0.272381 0.494303
0.044657 0.272788 0.549957
0.045063 0.273194 0.605467
0.045468 0.273599 0.660846
0.045873 0.274004 0.716107
0.046276 0.274407 0.771260
0.046679 0.274810 0.826312
0.047081 0.275212 0.881271
0.047458 0.275589 0.932799
0.045011 0.329199 0.042998
0.045443 0.329631 0.102037
0.045866 0.330054 0.159872
0.046284 0.330473 0.217089
0.046700 0.330888 0.273884
0.047113 0.331301 0.330360
0.047525 0.331713 0.386577
0.047934 0.332123 0.442579
0.048343 0.332531 0.498396
0.048750 0.332938 0.554050
0.049156 0.333344 0.609560
0.049561 0.333750 0.664939
0.049966 0.334154 0.720200
0.050369 0.334557 0.775353
0.050772 0.334960 0.830405
0.051174 0.335362 0.885364
0.051551 0.335739 0.936892
0.049085 0.389076 0.047072
0.049517 0.389508 0.106111
0.049940 0.389931 0.163947
0.050359 0.390349 0.221163
0.050774 0.390765 0.277959
0.051188 0.391178 0.334434
0.051599 0.391590 0.390652
0.052009 0.391999 0.446654
0.052417 0.392408 0.502470
0.052824 0.392815 0.558124
0.053230 0.393221 0.613634
0.053636 0.393626 0.669014
0.054040 0.394031 0.724275
0.054444 0.394434 0.779427
0.054846 0.394837 0.834479
0.055248 0.395239 0.889439
0.055625 0.395616 0.940967
0.053144 0.448723 0.051131
0.053576 0.449155 0.110170
0.053999 0.449578 0.168006
0.054418 0.449997 0.225222
0.054833 0.450413 0.282017
0.055246 0.450826 0.338493
0.055658 0.451237 0.394710
0.056067 0.451647 0.450712
0.056476 0.452055 0.506529
0.056883 0.452463 0.562183
0.057289 0.452869 0.617693
0.057694 0.453274 0.673072
0.058099 0.453678 0.728333
0.058502 0.454082 0.783486
0.058905 0.454485 0.838538
0.059307 0.454887 0.893497
0.059684 0.455264 0.945025
0.057189 0.508174 0.055176
0.057621 0.508606 0.114215
0.058044 0.509029 0.172051
0.058463 0.509448 0.229268
0.058878 0.509863 0.286063
0.059292 0.510277 0.342538
0.059703 0.510688 0.398756
0.060113 0.511098 0.454758
0.060521 0.511506 0.510574
0.060928 0.511913 0.566229
0.061335 0.512319 0.621738
0.061740 0.512725 0.677118
0.062144 0.513129 0.732379
0.062548 0.513533 0.787531
0.062950 0.513935 0.842583
0.063353 0.514337 0.897543
0.063730 0.514715 0.949071
0.061223 0.567452 0.059210
0.061655 0.567884 0.118249
0.062078 0.568307 0.176084
0.062496 0.568726 0.233301
0.062912 0.569141 0.290096
0.063325 0.569555 0.346572
0.063737 0.569966 0.402789
0.064146 0.570376 0.458791
0.064555 0.570784 0.514608
0.064962 0.571191 0.570262
0.065368 0.571598 0.625772
0.065773 0.572003 0.681151
0.066178 0.572407 0.736412
0.066581 0.572811 0.791565
0.066984 0.573213 0.846617
0.067386 0.573616 0.901576
0.067763 0.573993 0.953104
0.065246 0.626576 0.063233
0.065678 0.627008 0.122272
0.066101 0.627432 0.180108
0.066520 0.627850 0.237324
0.066935 0.628266 0.294119
0.067348 0.628679 0.350595
0.067760 0.629090 0.406812
0.068169 0.629500 0.462814
0.068578 0.629908 0.518631
0.068985 0.630316 0.574285
0.069391 0.630722 0.629795
0.069796 0.631127 0.685174
0.070201 0.631531 0.740435
0.070604 0.631935 0.795588
0.071007 0.632338 0.850640
0.071409 0.632740 0.905599
0.071786 0.633117 0.957127
0.069259 0.685562 0.067246
0.069691 0.685994 0.126286
0.070115 0.686417 0.184121
0.070533 0.686836 0.241338
0.070949 0.687252 0.298133
0.071362 0.687665 0.354608
0.071773 0.688076 0.410826
0.072183 0.688486 0.466828
0.072592 0.688894 0.522645
0.072999 0.689302 0.578299
0.073405 0.689708 0.633809
0.073810 0.690113 0.689188
0.074214 0.690517 0.744449
0.074618 0.690921 0.799602
0.075021 0.691324 0.854654
0.075423 0.691726 0.909613
0.075800 0.692103 0.961141
0.073265 0.744422 0.071251
0.073697 0.744854 0.130291
0.074120 0.745277 0.188126
0.074538 0.745696 0.245343
0.074954 0.746112 0.302138
0.075367 0.746525 0.358614
0.075779 0.746936 0.414831
0.076188 0.747346 0.470833
0.076597 0.747754 0.526650
0.077004 0.748162 0.582304
0.077410 0.748568 0.637814
0.077815 0.748973 0.693193
0.078220 0.749377 0.748454
0.078623 0.749781 0.803607
0.079026 0.750184 0.858659
0.079428 0.750586 0.913618
0.079805 0.750963 0.965146
0.077262 0.803167 0.075249
0.077694 0.803599 0.134288
0.078117 0.804022 0.192124
0.078536 0.804441 0.249340
0.078951 0.804856 0.306136
0.079364 0.805269 0.362611
0.079776 0.805681 0.418829
0.080186 0.806090 0.474831
0.080594 0.806499 0.530647
0.081001 0.806906 0.586301
0.081407 0.807312 0.641811
0.081813 0.807717 0.697191
0.082217 0.808122 0.752452
0.082620 0.808525 0.807604
0.083023 0.808928 0.862656
0.083425 0.809330 0.917616
0.083802 0.809707 0.969144
0.081252 0.861805 0.079239
0.081684 0.862237 0.138278
0.082107 0.862660 0.196114
0.082526 0.863078 0.253330
0.082941 0.863494 0.310126
0.083355 0.863907 0.366601
0.083766 0.864319 0.422819
0.084176 0.864728 0.478821
0.084584 0.865137 0.534637
0.084991 0.865544 0.590291
0.085397 0.865950 0.645801
0.085803 0.866355 0.701181
0.086207 0.866760 0.756442
0.086610 0.867163 0.811594
0.087013 0.867566 0.866646
0.087415 0.867968 0.921606
0.087792 0.868345 0.973134
0.085235 0.920344 0.083222
0.085667 0.920776 0.142262
0.086090 0.921199 0.200097
0.086509 0.921617 0.257314
0.086925 0.922033 0.314109
0.087338 0.922446 0.370584
0.087749 0.922857 0.426802
0.088159 0.923267 0.482804
0.088567 0.923676 0.538621
0.088975 0.924083 0.594275
0.089381 0.924489 0.649784
0.089786 0.924894 0.705164
0.090190 0.925299 0.760425
0.090594 0.925702 0.815577
0.090997 0.926105 0.870630
0.091399 0.926507 0.925589
0.091776 0.926884 0.977117
0.088903 0.974244 0.086890
0.089335 0.974676 0.145929
0.089758 0.975099 0.203765
0.090177 0.975518 0.260981
0.090592 0.975933 0.317777
0.091006 0.976347 0.374252
0.091417 0.976758 0.430470
0.091827 0.977168 0.486472
0.092235 0.977576 0.542288
0.092642 0.977983 0.597942
0.093048 0.978390 0.653452
0.093454 0.978795 0.708832
0.093858 0.979199 0.764093
0.094261 0.979603 0.819245
0.094664 0.980005 0.874297
0.095066 0.980408 0.929257
0.095443 0.980785 0.980785
0.084000 0.024452 0.023445
0.084432 0.024884 0.082485
0.084855 0.025307 0.140320
0.085274 0.025726 0.197537
0.085690 0.026142 0.254332
0.086103 0.026555 0.310807
0.086514 0.026966 0.367025
0.086924 0.027376 0.423027
0.087332 0.027784 0.478844
0.087740 0.028192 0.534498
0.088146 0.028598 0.590007
0.088551 0.029003 0.645387
0.088955 0.029407 0.700648
0.089359 0.029811 0.755800
0.089762 0.030214 0.810853
0.090164 0.030616 0.865812
0.090541 0.030993 0.917340
0.088277 0.087303 0.027722
0.088709 0.087735 0.086761
0.089132 0.088158 0.144597
0.089551 0.088577 0.201813
0.089966 0.088993 0.258609
0.090380 0.089406 0.315084
0.090791 0.089817 0.371302
0.091201 0.090227 0.427304
0.091609 0.090635 0.483120
0.092016 0.091043 0.538774
0.092422 0.091449 0.594284
0.092828 0.091854 0.649664
0.093232 0.092258 0.704925
0.093635 0.092662 0.760077
0.094038 0.093065 0.815129
0.094440 0.093467 0.870089
0.094817 0.093844 0.921617
0.092468 0.148893 0.031913
0.092900 0.149325 0.090952
0.093323 0.149749 0.148788
0.093742 0.150167 0.206004
0.094157 0.150583 0.262799
0.094570 0.150996 0.319275
0.094982 0.151407 0.375492
0.095392 0.151817 0.431494
0.095800 0.152225 0.487311
0.096207 0.152633 0.542965
0.096613 0.153039 0.598475
0.097019 0.153444 0.653854
0.097423 0.153848 0.709116
0.097826 0.154252 0.764268
0.098229 0.154655 0.819320
0.098631 0.155057 0.874280
0.099008 0.155434 0.925808
0.096614 0.209830 0.036059
0.097046 0.210262 0.095099
0.097469 0.210685 0.152934
0.097888 0.211103 0.210151
0.098304 0.211519 0.266946
0.098717 0.211932 0.323421
0.099128 0.212343 0.379639
0.099538 0.212753 0.435641
0.099946 0.213162 0.491458
0.100354 0.213569 0.547112
0.100760 0.213975 0.602621
0.101165 0.214380 0.658001
0.101569 0.214785 0.713262
0.101973 0.215188 0.768414
0.102376 0.215591 0.823467
0.102778 0.215993 0.878426
0.103155 0.216370 0.929954
0.100730 0.270319 0.040175
0.101162 0.270751 0.099215
0.101585 0.271174 0.157050
0.102004 0.271593 0.214267
0.102420 0.272009 0.271062
0.102833 0.272422 0.327537
0.103244 0.272833 0.383755
0.103654 0.273243 0.439757
0.104062 0.273651 0.495574
0.104470 0.274058 0.551228
0.104876 0.274465 0.606737
0.105281 0.274870 0.662117
0.105685 0.275274 0.717378
0.106089 0.275678 0.772530
0.106492 0.276081 0.827583
0.106894 0.276483 0.882542
0.107271 0.276860 0.934070
0.104823 0.330469 0.044268
0.105255 0.330901 0.103308
0.105678 0.331325 0.161143
0.106097 0.331743 0.218360
0.106513 0.332159 0.275155
0.106926 0.332572 0.331630
0.107337 0.332983 0.387848
0.107747 0.333393 0.443850
0.108155 0.333802 0.499667
0.108563 0.334209 0.555321
0.108969 0.334615 0.610830
0.109374 0.335020 0.666210
0.109778 0.335424 0.721471
0.110182 0.335828 0.776623
0.110585 0.336231 0.831676
0.110987 0.336633 0.886635
0.111364 0.337010 0.938163
0.108898 0.390346 0.048342
0.109330 0.390778 0.107382
0.109753 0.391201 0.165217
0.110171 0.391620 0.222434
0.110587 0.392036 0.279229
0.111000 0.392449 0.335705
0.111412 0.392860 0.391922
0.111821 0.393270 0.447924
0.112230 0.393678 0.503741
0.112637 0.394086 0.559395
0.113043 0.394492 0.614905
0.113448 0.394897 0.670284
0.113853 0.395301 0.725545
0.114256 0.395705 0.780698
0.114659 0.396108 0.835750
0.115061 0.396510 0.890709
0.115438 0.396887 0.942237
0.112956 0.449994 0.052401
0.113388 0.450426 0.111441
0.113811 0.450849 0.169276
0.114230 0.451268 0.226493
0.114646 0.451683 0.283288
0.115059 0.452096 0.339763
0.115470 0.452508 0.395981
0.115880 0.452918 0.451983
0.116288 0.453326 0.507800
0.116696 0.453733 0.563454
0.117102 0.454139 0.618963
0.117507 0.454545 0.674343
0.117911 0.454949 0.729604
0.118315 0.455352 0.784756
0.118718 0.455755 0.839809
0.119120 0.456157 0.894768
0.119497 0.456534 0.946296
0.117002 0.509445 0.056447
0.117434 0.509877 0.115486
0.117857 0.510300 0.173321
0.118275 0.510718 0.230538
0.118691 0.511134 0.287333
0.119104 0.511547 0.343809
0.119516 0.511959 0.400026
0.119925 0.512368 0.456028
0.120334 0.512777 0.511845
0.120741 0.513184 0.567499
0.121147 0.513590 0.623009
0.121552 0.513995 0.678388
0.121957 0.514400 0.733649
0.122360 0.514803 0.788802
0.122763 0.515206 0.843854
0.123165 0.515608 0.898813
0.123542 0.515985 0.950341
0.121035 0.568723 0.060480
0.121467 0.569155 0.119520
0.121890 0.569578 0.177355
0.122309 0.569996 0.234572
0.122725 0.570412 0.291367
0.123138 0.570825 0.347842
0.123549 0.571237 0.404060
0.123959 0.571646 0.460062
0.124367 0.572055 0.515879
0.124775 0.572462 0.571533
0.125181 0.572868 0.627042
0.125586 0.573273 0.682422
0.125990 0.573678 0.737683
0.126394 0.574081 0.792835
0.126797 0.574484 0.847888
0.127199 0.574886 0.902847
0.127576 0.575263 0.954375
0.125058 0.627847 0.064503
0.125490 0.628279 0.123543
0.125914 0.628702 0.181378
0.126332 0.629121 0.238595
0.126748 0.629536 0.295390
0.127161 0.629950 0.351865
0.127572 0.630361 0.408083
0.127982 0.630771 0.464085
0.128390 0.631179 0.519902
0.128798 0.631586 0.575556
0.129204 0.631992 0.631066
0.129609 0.632398 0.686445
0.130013 0.632802 0.741706
0.130417 0.633206 0.796859
0.130820 0.633608 0.851911
0.131222 0.634010 0.906870
0.131599 0.634387 0.958398
0.129072 0.686833 0.068517
0.129504 0.687265 0.127556
0.129927 0.687688 0.185392
0.130346 0.688107 0.242609
0.130761 0.688522 0.299404
0.131175 0.688935 0.355879
0.131586 0.689347 0.412097
0.131996 0.689757 0.468099
0.132404 0.690165 0.523915
0.132811 0.690572 0.579570
0.133218 0.690978 0.635079
0.133623 0.691384 0.690459
0.134027 0.691788 0.745720
0.134431 0.692191 0.800872
0.134833 0.692594 0.855925
0.135236 0.692996 0.910884
0.135613 0.693373 0.962412
0.133077 0.745693 0.072522
0.133509 0.746125 0.131562
0.133932 0.746548 0.189397
0.134351 0.746967 0.246614
0.134767 0.747382 0.303409
0.135180 0.747795 0.359884
0.135591 0.748207 0.416102
0.136001 0.748617 0.472104
0.136409 0.749025 0.527921
0.136817 0.749432 0.583575
0.137223 0.749838 0.639084
0.137628 0.750243 0.694464
0.138032 0.750648 0.749725
0.138436 0.751051 0.804877
0.138839 0.751454 0.859930
0.139241 0.751856 0.914889
0.139618 0.752233 0.966417
0.137075 0.804437 0.076519
0.137507 0.804869 0.135559
0.137930 0.805292 0.193394
0.138348 0.805711 0.250611
0.138764 0.806127 0.307406
0.139177 0.806540 0.363881
0.139588 0.806951 0.420099
0.139998 0.807361 0.476101
0.140407 0.807769 0.531918
0.140814 0.808177 0.587572
0.141220 0.808583 0.643082
0.141625 0.808988 0.698461
0.142029 0.809392 0.753722
0.142433 0.809796 0.808875
0.142836 0.810199 0.863927
0.143238 0.810601 0.918886
0.143615 0.810978 0.970414
0.141065 0.863075 0.080509
0.141497 0.863507 0.139549
0.141920 0.863930 0.197384
0.142338 0.864349 0.254601
0.142754 0.864765 0.311396
0.143167 0.865178 0.367871
0.143578 0.865589 0.424089
0.143988 0.865999 0.480091
0.144397 0.866407 0.535908
0.144804 0.866815 0.591562
0.145210 0.867221 0.647072
0.145615 0.867626 0.702451
0.146020 0.868030 0.757712
0.146423 0.868434 0.812865
0.146826 0.868837 0.867917
0.147228 0.869239 0.922876
0.147605 0.869616 0.974404
0.145048 0.921614 0.084493
0.145480 0.922046 0.143532
0.145903 0.922469 0.201368
0.146322 0.922888 0.258584
0.146737 0.923304 0.315379
0.147150 0.923717 0.371855
0.147562 0.924128 0.428072
0.147972 0.924538 0.484074
0.148380 0.924946 0.539891
0.148787 0.925353 0.595545
0.149193 0.925760 0.651055
0.149598 0.926165 0.706434
0.150003 0.926569 0.761695
0.150406 0.926973 0.816848
0.150809 0.927375 0.871900
0.151211 0.927778 0.926860
0.151588 0.928155 0.978388
0.148716 0.975515 0.088160
0.149148 0.975947 0.147200
0.149571 0.976370 0.205035
0.149989 0.976789 0.262252
0.150405 0.977204 0.319047
0.150818 0.977617 0.375522
0.151229 0.978029 0.431740
0.151639 0.978438 0.487742
0.152048 0.978847 0.543559
0.152455 0.979254 0.599213
0.152861 0.979660 0.654723
0.153266 0.980065 0.710102
0.153671 0.980470 0.765363
0.154074 0.980873 0.820516
0.154477 0.981276 0.875568
0.154879 0.981678 0.930527
0.155256 0.982055 0.982055
0.142632 0.025698 0.024691
0.143064 0.026130 0.083730
0.143487 0.026553 0.141566
0.143906 0.026972 0.198782
0.144321 0.027387 0.255577
0.144735 0.027800 0.312053
0.145146 0.028212 0.368270
0.145556 0.028621 0.424272
0.145964 0.029030 0.480089
0.146371 0.029437 0.535743
0.146777 0.029843 0.591253
0.147183 0.030248 0.646632
0.147587 0.030653 0.701893
0.147991 0.031056 0.757046
0.148393 0.031459 0.812098
0.148796 0.031861 0.867057
0.149173 0.032238 0.918585
0.146909 0.088549 0.028967
0.147341 0.088981 0.088007
0.147764 0.089404 0.145842
0.148183 0.089823 0.203059
0.148598 0.090238 0.259854
0.149011 0.090651 0.316329
0.149423 0.091063 0.372547
0.149832 0.091472 0.428549
0.150241 0.091881 0.484366
0.150648 0.092288 0.540020
0.151054 0.092694 0.595530
0.151459 0.093099 0.650909
0.151864 0.093504 0.706170
0.152267 0.093907 0.761323
0.152670 0.094310 0.816375
0.153072 0.094712 0.871334
0.153449 0.095089 0.922862
0.151100 0.150139 0.033158
0.151532 0.150571 0.092198
0.151955 0.150994 0.150033
0.152373 0.151413 0.207250
0.152789 0.151828 0.264045
0.153202 0.152242 0.320520
0.153614 0.152653 0.376738
0.154023 0.153063 0.432740
0.154432 0.153471 0.488557
0.154839 0.153878 0.544211
0.155245 0.154284 0.599721
0.155650 0.154690 0.655100
0.156055 0.155094 0.710361
0.156458 0.155497 0.765514
0.156861 0.155900 0.820566
0.157263 0.156302 0.875525
0.157640 0.156679 0.927053
0.155246 0.211075 0.037305
0.155678 0.211507 0.096344
0.156101 0.211930 0.154180
0.156520 0.212349 0.211396
0.156935 0.212764 0.268191
0.157349 0.213178 0.324667
0.157760 0.213589 0.380884
0.158170 0.213999 0.436886
0.158578 0.214407 0.492703
0.158985 0.214814 0.548357
0.159392 0.215221 0.603867
0.159797 0.215626 0.659246
0.160201 0.216030 0.714507
0.160605 0.216434 0.769660
0.161007 0.216836 0.824712
0.161410 0.217239 0.879671
0.161787 0.217616 0.931199
0.159362 0.271565 0.041421
0.159794 0.271997 0.100460
0.160217 0.272420 0.158296
0.160636 0.272838 0.215512
0.161051 0.273254 0.272307
0.161465 0.273667 0.328783
0.161876 0.274079 0.385000
0.162286 0.274488 0.441002
0.162694 0.274897 0.496819
0.163101 0.275304 0.552473
0.163508 0.275710 0.607983
0.163913 0.276115 0.663362
0.164317 0.276520 0.718623
0.164721 0.276923 0.773776
0.165123 0.277326 0.828828
0.165526 0.277728 0.883788
0.165903 0.278105 0.935316
0.163455 0.331715 0.045514
0.163887 0.332147 0.104553
0.164310 0.332570 0.162389
0.164729 0.332989 0.219605
0.165144 0.333404 0.276400
0.165558 0.333818 0.332876
0.165969 0.334229 0.389093
0.166379 0.334639 0.445095
0.166787 0.335047 0.500912
0.167194 0.335454 0.556566
0.167600 0.335860 0.612076
0.168006 0.336266 0.667455
0.168410 0.336670 0.722716
0.168814 0.337074 0.777869
0.169216 0.337476 0.832921
0.169619 0.337878 0.887880
0.169996 0.338255 0.939408
0.167529 0.391592 0.049588
0.167961 0.392024 0.108627
0.168385 0.392447 0.166463
0.168803 0.392866 0.223680
0.169219 0.393281 0.280475
0.169632 0.393694 0.336950
0.170043 0.394106 0.393168
0.170453 0.394515 0.449170
0.170861 0.394924 0.504986
0.171269 0.395331 0.560641
0.171675 0.395737 0.616150
0.172080 0.396142 0.671530
0.172484 0.396547 0.726791
0.172888 0.396950 0.781943
0.173291 0.397353 0.836996
0.173693 0.397755 0.891955
0.174070 0.398132 0.943483
0.171588 0.451239 0.053647
0.172020 0.451671 0.112686
0.172443 0.452095 0.170522
0.172862 0.452513 0.227738
0.173277 0.452929 0.284533
0.173691 0.453342 0.341009
0.174102 0.453753 0.397226
0.174512 0.454163 0.453228
0.174920 0.454571 0.509045
0.175327 0.454979 0.564699
0.175734 0.455385 0.620209
0.176139 0.455790 0.675588
0.176543 0.456194 0.730849
0.176947 0.456598 0.786002
0.177349 0.457001 0.841054
0.177752 0.457403 0.896014
0.178129 0.457780 0.947542
0.175633 0.510690 0.057692
0.176065 0.511122 0.116731
0.176489 0.511545 0.174567
0.176907 0.511964 0.231784
0.177323 0.512379 0.288579
0.177736 0.512793 0.345054
0.178147 0.513204 0.401272
0.178557 0.513614 0.457274
0.178966 0.514022 0.513090
0.179373 0.514429 0.568745
0.179779 0.514836 0.624254
0.180184 0.515241 0.679634
0.180588 0.515645 0.734895
0.180992 0.516049 0.790047
0.181395 0.516451 0.845100
0.181797 0.516854 0.900059
0.182174 0.517231 0.951587
0.179667 0.569968 0.061726
0.180099 0.570400 0.120765
0.180522 0.570823 0.178601
0.180941 0.571242 0.235817
0.181356 0.571658 0.292612
0.181770 0.572071 0.349088
0.182181 0.572482 0.405305
0.182591 0.572892 0.461307
0.182999 0.573300 0.517124
0.183406 0.573707 0.572778
0.183812 0.574114 0.628288
0.184218 0.574519 0.683667
0.184622 0.574923 0.738928
0.185026 0.575327 0.794081
0.185428 0.575730 0.849133
0.185831 0.576132 0.904092
0.186208 0.576509 0.955620
0.183690 0.629093 0.065749
0.184122 0.629524 0.124788
0.184545 0.629948 0.182624
0.184964 0.630366 0.239840
0.185380 0.630782 0.296636
0.185793 0.631195 0.353111
0.186204 0.631606 0.409328
0.186614 0.632016 0.465330
0.187022 0.632425 0.521147
0.187429 0.632832 0.576801
0.187836 0.633238 0.632311
0.188241 0.633643 0.687690
0.188645 0.634047 0.742952
0.189049 0.634451 0.798104
0.189452 0.634854 0.853156
0.189854 0.635256 0.908116
0.190231 0.635633 0.959644
0.187704 0.688078 0.069762
0.188136 0.688510 0.128802
0.188559 0.688934 0.186637
0.188978 0.689352 0.243854
0.189393 0.689768 0.300649
0.189806 0.690181 0.357125
0.190218 0.690592 0.413342
0.190628 0.691002 0.469344
0.191036 0.691410 0.525161
0.191443 0.691818 0.580815
0.191849 0.692224 0.636325
0.192255 0.692629 0.691704
0.192659 0.693033 0.746965
0.193062 0.693437 0.802118
0.193465 0.693840 0.857170
0.193867 0.694242 0.912129
0.194244 0.694619 0.963657
0.191709 0.746938 0.073768
0.192141 0.747370 0.132807
0.192564 0.747794 0.190643
0.192983 0.748212 0.247859
0.193398 0.748628 0.304654
0.193812 0.749041 0.361130
0.194223 0.749452 0.417347
0.194633 0.749862 0.473349
0.195041 0.750270 0.529166
0.195448 0.750678 0.584820
0.195854 0.751084 0.640330
0.196260 0.751489 0.695709
0.196664 0.751893 0.750970
0.197068 0.752297 0.806123
0.197470 0.752700 0.861175
0.197872 0.753102 0.916134
0.198250 0.753479 0.967662
0.195706 0.805683 0.077765
0.196138 0.806115 0.136804
0.196561 0.806538 0.194640
0.196980 0.806957 0.251856
0.197396 0.807372 0.308652
0.197809 0.807785 0.365127
0.198220 0.808197 0.421345
0.198630 0.808607 0.477347
0.199038 0.809015 0.533163
0.199446 0.809422 0.588818
0.199852 0.809828 0.644327
0.200257 0.810233 0.699707
0.200661 0.810638 0.754968
0.201065 0.811041 0.810120
0.201468 0.811444 0.865172
0.201870 0.811846 0.920132
0.202247 0.812223 0.971660
0.199696 0.864321 0.081755
0.200128 0.864753 0.140794
0.200551 0.865176 0.198630
0.200970 0.865595 0.255846
0.201386 0.866010 0.312642
0.201799 0.866423 0.369117
0.202210 0.866835 0.425335
0.202620 0.867244 0.481337
0.203028 0.867653 0.537153
0.203436 0.868060 0.592808
0.203842 0.868466 0.648317
0.204247 0.868871 0.703697
0.204651 0.869276 0.758958
0.205055 0.869679 0.814110
0.205458 0.870082 0.869162
0.205860 0.870484 0.924122
0.206237 0.870861 0.975650
0.203680 0.922860 0.085738
0.204112 0.923292 0.144778
0.204535 0.923715 0.202613
0.204953 0.924133 0.259830
0.205369 0.924549 0.316625
0.205782 0.924962 0.373100
0.206194 0.925374 0.429318
0.206603 0.925783 0.485320
0.207012 0.926192 0.541137
0.207419 0.926599 0.596791
0.207825 0.927005 0.652300
0.208230 0.927410 0.707680
0.208635 0.927815 0.762941
0.209038 0.928218 0.818093
0.209441 0.928621 0.873146
0.209843 0.929023 0.928105
0.210220 0.929400 0.979633
0.207347 0.976760 0.089406
0.207779 0.977192 0.148445
0.208202 0.977615 0.206281
0.208621 0.978034 0.263497
0.209037 0.978450 0.320293
0.209450 0.978863 0.376768
0.209861 0.979274 0.432986
0.210271 0.979684 0.488988
0.210679 0.980092 0.544804
0.211087 0.980500 0.600459
0.211493 0.980906 0.655968
0.211898 0.981311 0.711348
0.212302 0.981715 0.766609
0.212706 0.982119 0.821761
0.213109 0.982522 0.876813
0.213511 0.982924 0.931773
0.213888 0.983301 0.983301
0.200646 0.026930 0.025923
0.201078 0.027362 0.084962
0.201501 0.027785 0.142798
0.201920 0.028204 0.200015
0.202335 0.028620 0.256810
0.202749 0.029033 0.313285
0.203160 0.029444 0.369503
0.203570 0.029854 0.425505
0.203978 0.030262 0.481321
0.204385 0.030669 0.536976
0.204791 0.031076 0.592485
0.205197 0.031481 0.647865
0.205601 0.031885 0.703126
0.206004 0.032289 0.758278
0.206407 0.032691 0.813331
0.206809 0.033094 0.868290
0.207186 0.033471 0.919818
0.204923 0.089781 0.030200
