skills/creativeops-director/assets/grade/luts/soft_pastel_v08.cube
TITLE "soft_pastel_v08"
LUT_3D_SIZE 9
DOMAIN_MIN 0.0 0.0 0.0
DOMAIN_MAX 1.0 1.0 1.0
0.044315 0.040939 0.037551
0.045456 0.042079 0.150077
0.046561 0.043185 0.259134
0.047649 0.044273 0.366478
0.048726 0.045349 0.472670
0.049793 0.046417 0.577993
0.050854 0.047477 0.682620
0.051908 0.048532 0.786667
0.052951 0.049575 0.889569
0.055596 0.163433 0.048832
0.056737 0.164573 0.161358
0.057842 0.165679 0.270415
0.058930 0.166767 0.377759
0.060007 0.167843 0.483951
0.061074 0.168911 0.589274
0.062135 0.169971 0.693901
0.063189 0.171026 0.797948
0.064232 0.172069 0.900850
0.066540 0.282265 0.059775
0.067680 0.283405 0.172301
0.068786 0.284511 0.281359
0.069874 0.285599 0.388703
0.070950 0.286675 0.494894
0.072018 0.287743 0.600218
0.073078 0.288803 0.704845
0.074133 0.289858 0.808892
0.075176 0.290901 0.911794
0.077314 0.399255 0.070549
0.078454 0.400396 0.183075
0.079560 0.401501 0.292133
0.080648 0.402589 0.399477
0.081724 0.403666 0.505668
0.082792 0.404733 0.610992
0.083852 0.405794 0.715619
0.084907 0.406848 0.819666
0.085950 0.407891 0.922568
0.087973 0.515001 0.081209
0.089114 0.516142 0.193735
0.090219 0.517247 0.302792
0.091307 0.518335 0.410136
0.092384 0.519412 0.516328
0.093451 0.520479 0.621651
0.094512 0.521540 0.726278
0.095566 0.522594 0.830325
0.096609 0.523637 0.933227
0.098546 0.629808 0.091781
0.099687 0.630948 0.204307
0.100792 0.632054 0.313365
0.101880 0.633142 0.420709
0.102957 0.634218 0.526900
0.104024 0.635286 0.632224
0.105085 0.636346 0.736851
0.106139 0.637401 0.840898
0.107182 0.638444 0.943800
0.109050 0.743859 0.102285
0.110190 0.745000 0.214811
0.111296 0.746105 0.323868
0.112384 0.747193 0.431212
0.113460 0.748270 0.537404
0.114528 0.749337 0.642727
0.115588 0.750398 0.747355
0.116643 0.751453 0.851402
0.117686 0.752496 0.954304
0.119495 0.857282 0.112730
0.120636 0.858422 0.225256
0.121741 0.859528 0.334314
0.122829 0.860616 0.441658
0.123905 0.861692 0.547849
0.124973 0.862760 0.653173
0.126033 0.863820 0.757800
0.127088 0.864875 0.861847
0.128131 0.865918 0.964749
0.129520 0.966138 0.122755
0.130660 0.967278 0.235281
0.131766 0.968384 0.344339
0.132854 0.969472 0.451683
0.133930 0.970548 0.557874
0.134998 0.971616 0.663198
0.136058 0.972676 0.767825
0.137113 0.973731 0.871872
0.138156 0.974774 0.974774
0.158713 0.044287 0.040899
0.159854 0.045428 0.153425
0.160959 0.046533 0.262483
0.162048 0.047621 0.369827
0.163124 0.048698 0.476018
0.164191 0.049765 0.581341
0.165252 0.050826 0.685969
0.166307 0.051880 0.790016
0.167350 0.052923 0.892918
0.169994 0.166781 0.052180
0.171135 0.167922 0.164706
0.172240 0.169027 0.273763
0.173328 0.170115 0.381107
0.174405 0.171192 0.487299
0.175472 0.172259 0.592622
0.176533 0.173320 0.697250
0.177587 0.174374 0.801297
0.178631 0.175417 0.904199
0.180938 0.285613 0.063124
0.182079 0.286754 0.175650
0.183184 0.287859 0.284707
0.184272 0.288947 0.392051
0.185348 0.290024 0.498243
0.186416 0.291091 0.603566
0.187476 0.292152 0.708193
0.188531 0.293206 0.812240
0.189574 0.294249 0.915142
0.191712 0.402604 0.073898
0.192853 0.403744 0.186424
0.193958 0.404850 0.295481
0.195046 0.405938 0.402825
0.196122 0.407014 0.509017
0.197190 0.408082 0.614340
0.198250 0.409142 0.718967
0.199305 0.410197 0.823014
0.200348 0.411240 0.925916
0.202371 0.518350 0.084557
0.203512 0.519490 0.197083
0.204617 0.520596 0.306141
0.205705 0.521684 0.413484
0.206782 0.522760 0.519676
0.207849 0.523828 0.624999
0.208910 0.524888 0.729627
0.209965 0.525943 0.833674
0.211008 0.526986 0.936576
0.212944 0.633156 0.095130
0.214085 0.634297 0.207656
0.215190 0.635402 0.316713
0.216278 0.636490 0.424057
0.217355 0.637566 0.530249
0.218422 0.638634 0.635572
0.219483 0.639694 0.740200
0.220537 0.640749 0.844247
0.221580 0.641792 0.947149
0.223448 0.747208 0.105633
0.224588 0.748348 0.218159
0.225694 0.749454 0.327217
0.226782 0.750542 0.434561
0.227858 0.751618 0.540752
0.228926 0.752686 0.646076
0.229986 0.753746 0.750703
0.231041 0.754801 0.854750
0.232084 0.755844 0.957652
0.233893 0.860630 0.116079
0.235034 0.861771 0.228605
0.236139 0.862876 0.337662
0.237227 0.863964 0.445006
0.238304 0.865040 0.551198
0.239371 0.866108 0.656521
0.240432 0.867169 0.761148
0.241486 0.868223 0.865195
0.242529 0.869266 0.968097
0.243918 0.969486 0.126104
0.245059 0.970627 0.238630
0.246164 0.971732 0.347687
0.247252 0.972820 0.455031
0.248328 0.973897 0.561223
0.249396 0.974964 0.666546
0.250457 0.976025 0.771173
0.251511 0.977079 0.875220
0.252554 0.978122 0.978122
0.269791 0.047538 0.044150
0.270931 0.048679 0.156676
0.272037 0.049784 0.265734
0.273125 0.050872 0.373078
0.274201 0.051949 0.479269
0.275269 0.053016 0.584593
0.276329 0.054077 0.689220
0.277384 0.055132 0.793267
0.278427 0.056175 0.896169
0.281072 0.170032 0.055431
0.282212 0.171173 0.167957
0.283318 0.172278 0.277015
0.284406 0.173366 0.384359
0.285482 0.174443 0.490550
0.286550 0.175510 0.595874
0.287610 0.176571 0.700501
0.288665 0.177625 0.804548
0.289708 0.178669 0.907450
0.292015 0.288864 0.066375
0.293156 0.290005 0.178901
0.294261 0.291110 0.287958
0.295349 0.292199 0.395302
0.296426 0.293275 0.501494
0.297493 0.294342 0.606817
0.298554 0.295403 0.711445
0.299608 0.296458 0.815492
0.300651 0.297501 0.918394
0.302789 0.405855 0.077149
0.303930 0.406995 0.189675
0.305035 0.408101 0.298732
0.306123 0.409189 0.406076
0.307200 0.410265 0.512268
0.308267 0.411333 0.617591
0.309328 0.412393 0.722219
0.310382 0.413448 0.826266
0.311425 0.414491 0.929168
0.313449 0.521601 0.087808
0.314589 0.522741 0.200334
0.315695 0.523847 0.309392
0.316783 0.524935 0.416736
0.317859 0.526011 0.522927
0.318927 0.527079 0.628251
0.319987 0.528139 0.732878
0.321042 0.529194 0.836925
0.322085 0.530237 0.939827
0.324022 0.636407 0.098381
0.325162 0.637548 0.210907
0.326268 0.638653 0.319965
0.327356 0.639741 0.427309
0.328432 0.640818 0.533500
0.329500 0.641885 0.638823
0.330560 0.642946 0.743451
0.331615 0.644000 0.847498
0.332658 0.645043 0.950400
0.334525 0.750459 0.108885
0.335666 0.751600 0.221411
0.336771 0.752705 0.330468
0.337859 0.753793 0.437812
0.338935 0.754869 0.544003
0.340003 0.755937 0.649327
0.341063 0.756998 0.753954
0.342118 0.758052 0.858001
0.343161 0.759095 0.960903
0.344970 0.863881 0.119330
0.346111 0.865022 0.231856
0.347216 0.866127 0.340913
0.348304 0.867215 0.448257
0.349381 0.868292 0.554449
0.350448 0.869359 0.659772
0.351509 0.870420 0.764400
0.352563 0.871474 0.868447
0.353607 0.872517 0.971349
0.354995 0.972737 0.129355
0.356136 0.973878 0.241881
0.357241 0.974983 0.350938
0.358329 0.976071 0.458282
0.359406 0.977148 0.564474
0.360473 0.978215 0.669797
0.361534 0.979276 0.774425
0.362588 0.980331 0.878472
0.363631 0.981374 0.981374
0.379170 0.050740 0.047352
0.380310 0.051880 0.159878
0.381416 0.052986 0.268935
0.382504 0.054074 0.376279
0.383580 0.055150 0.482471
0.384648 0.056218 0.587794
0.385708 0.057278 0.692422
0.386763 0.058333 0.796469
0.387806 0.059376 0.899371
0.390450 0.173234 0.058633
0.391591 0.174374 0.171159
0.392696 0.175480 0.280216
0.393784 0.176568 0.387560
0.394861 0.177644 0.493752
0.395928 0.178712 0.599075
0.396989 0.179772 0.703702
0.398044 0.180827 0.807749
0.399087 0.181870 0.910651
0.401394 0.292066 0.069576
0.402535 0.293207 0.182102
0.403640 0.294312 0.291160
0.404728 0.295400 0.398504
0.405804 0.296476 0.504695
0.406872 0.297544 0.610019
0.407933 0.298604 0.714646
0.408987 0.299659 0.818693
0.410030 0.300702 0.921595
0.412168 0.409056 0.080350
0.413309 0.410197 0.192876
0.414414 0.411302 0.301934
0.415502 0.412390 0.409278
0.416578 0.413467 0.515469
0.417646 0.414534 0.620793
0.418707 0.415595 0.725420
0.419761 0.416649 0.829467
0.420804 0.417692 0.932369
0.422827 0.524802 0.091010
0.423968 0.525943 0.203536
0.425073 0.527048 0.312593
0.426161 0.528136 0.419937
0.427238 0.529213 0.526129
0.428305 0.530280 0.631452
0.429366 0.531341 0.736079
0.430421 0.532395 0.840126
0.431464 0.533439 0.943028
0.433400 0.639609 0.101583
0.434541 0.640749 0.214109
0.435646 0.641855 0.323166
0.436734 0.642943 0.430510
0.437811 0.644019 0.536702
0.438878 0.645087 0.642025
0.439939 0.646147 0.746652
0.440993 0.647202 0.850699
0.442036 0.648245 0.953601
0.443904 0.753661 0.112086
0.445044 0.754801 0.224612
0.446150 0.755907 0.333670
0.447238 0.756995 0.441013
0.448314 0.758071 0.547205
0.449382 0.759139 0.652528
0.450442 0.760199 0.757156
0.451497 0.761254 0.861203
0.452540 0.762297 0.964105
0.454349 0.867083 0.122531
0.455490 0.868223 0.235057
0.456595 0.869329 0.344115
0.457683 0.870417 0.451459
0.458760 0.871493 0.557650
0.459827 0.872561 0.662974
0.460888 0.873621 0.767601
0.461942 0.874676 0.871648
0.462985 0.875719 0.974550
0.464374 0.975939 0.132556
0.465515 0.977080 0.245082
0.466620 0.978185 0.354140
0.467708 0.979273 0.461484
0.468784 0.980349 0.567675
0.469852 0.981417 0.672999
0.470913 0.982477 0.777626
0.471967 0.983532 0.881673
0.473010 0.984575 0.984575
0.487396 0.053908 0.050520
0.488536 0.055048 0.163046
0.489642 0.056154 0.272103
0.490730 0.057242 0.379447
0.491806 0.058318 0.485639
0.492874 0.059386 0.590962
0.493934 0.060446 0.695589
0.494989 0.061501 0.799636
0.496032 0.062544 0.902538
0.498676 0.176402 0.061800
0.499817 0.177542 0.174326
0.500922 0.178648 0.283384
0.502010 0.179736 0.390728
0.503087 0.180812 0.496919
0.504154 0.181880 0.602243
0.505215 0.182940 0.706870
0.506270 0.183995 0.810917
0.507313 0.185038 0.913819
0.509620 0.295234 0.072744
0.510761 0.296374 0.185270
0.511866 0.297480 0.294328
0.512954 0.298568 0.401671
0.514030 0.299644 0.507863
0.515098 0.300712 0.613186
0.516159 0.301772 0.717814
0.517213 0.302827 0.821861
0.518256 0.303870 0.924763
0.520394 0.412224 0.083518
0.521535 0.413365 0.196044
0.522640 0.414470 0.305102
0.523728 0.415558 0.412445
0.524804 0.416635 0.518637
0.525872 0.417702 0.623960
0.526933 0.418763 0.728588
0.527987 0.419817 0.832635
0.529030 0.420860 0.935537
0.531053 0.527970 0.094178
0.532194 0.529111 0.206703
0.533299 0.530216 0.315761
0.534388 0.531304 0.423105
0.535464 0.532381 0.529296
0.536531 0.533448 0.634620
0.537592 0.534509 0.739247
0.538647 0.535563 0.843294
0.539690 0.536606 0.946196
0.541626 0.642776 0.104750
0.542767 0.643917 0.217276
0.543872 0.645022 0.326334
0.544960 0.646110 0.433678
0.546037 0.647187 0.539869
0.547104 0.648254 0.645193
0.548165 0.649315 0.749820
0.549219 0.650370 0.853867
0.550262 0.651413 0.956769
0.552130 0.756828 0.115254
0.553270 0.757969 0.227780
0.554376 0.759074 0.336837
0.555464 0.760162 0.444181
0.556540 0.761239 0.550373
0.557608 0.762306 0.655696
0.558668 0.763367 0.760324
0.559723 0.764421 0.864370
0.560766 0.765464 0.967273
0.562575 0.870251 0.125699
0.563716 0.871391 0.238225
0.564821 0.872497 0.347283
0.565909 0.873585 0.454627
0.566986 0.874661 0.560818
0.568053 0.875729 0.666142
0.569114 0.876789 0.770769
0.570168 0.877844 0.874816
0.571211 0.878887 0.977718
0.572600 0.979107 0.135724
0.573741 0.980247 0.248250
0.574846 0.981353 0.357308
0.575934 0.982441 0.464651
0.577010 0.983517 0.570843
0.578078 0.984585 0.676166
0.579139 0.985645 0.780794
0.580193 0.986700 0.884841
0.581236 0.987743 0.987743
0.594749 0.057050 0.053662
0.595890 0.058190 0.166188
0.596995 0.059296 0.275245
0.598083 0.060384 0.382589
0.599159 0.061460 0.488781
0.600227 0.062528 0.594104
0.601287 0.063588 0.698732
0.602342 0.064643 0.802779
0.603385 0.065686 0.905681
0.606030 0.179544 0.064943
0.607170 0.180684 0.177469
0.608276 0.181790 0.286526
0.609364 0.182878 0.393870
0.610440 0.183954 0.500062
0.611508 0.185022 0.605385
0.612568 0.186082 0.710012
0.613623 0.187137 0.814059
0.614666 0.188180 0.916961
0.616973 0.298376 0.075886
0.618114 0.299517 0.188412
0.619219 0.300622 0.297470
0.620307 0.301710 0.404814
0.621384 0.302786 0.511005
0.622451 0.303854 0.616329
0.623512 0.304914 0.720956
0.624567 0.305969 0.825003
0.625610 0.307012 0.927905
0.627747 0.415366 0.086660
0.628888 0.416507 0.199186
0.629993 0.417612 0.308244
0.631081 0.418700 0.415588
0.632158 0.419777 0.521779
0.633225 0.420844 0.627103
0.634286 0.421905 0.731730
0.635341 0.422959 0.835777
0.636384 0.424002 0.938679
0.638407 0.531112 0.097320
0.639547 0.532253 0.209846
0.640653 0.533358 0.318903
0.641741 0.534446 0.426247
0.642817 0.535523 0.532439
0.643885 0.536590 0.637762
0.644945 0.537651 0.742389
0.646000 0.538705 0.846436
0.647043 0.539749 0.949338
0.648980 0.645919 0.107893
0.650120 0.647059 0.220419
0.651226 0.648165 0.329476
0.652314 0.649253 0.436820
0.653390 0.650329 0.543012
0.654458 0.651397 0.648335
0.655518 0.652457 0.752962
0.656573 0.653512 0.857009
0.657616 0.654555 0.959911
0.659483 0.759971 0.118396
0.660624 0.761111 0.230922
0.661729 0.762217 0.339980
0.662817 0.763305 0.447323
0.663894 0.764381 0.553515
0.664961 0.765449 0.658838
0.666022 0.766509 0.763466
0.667076 0.767564 0.867513
0.668119 0.768607 0.970415
0.669929 0.873393 0.128841
0.671069 0.874533 0.241367
0.672175 0.875639 0.350425
0.673263 0.876727 0.457769
0.674339 0.877803 0.563960
0.675407 0.878871 0.669284
0.676467 0.879931 0.773911
0.677522 0.880986 0.877958
0.678565 0.882029 0.980860
0.679953 0.982249 0.138866
0.681094 0.983389 0.251392
0.682199 0.984495 0.360450
0.683288 0.985583 0.467794
0.684364 0.986659 0.573985
0.685431 0.987727 0.679309
0.686492 0.988787 0.783936
0.687547 0.989842 0.887983
0.688590 0.990885 0.990885
0.701401 0.060172 0.056783
0.702541 0.061312 0.169309
0.703647 0.062418 0.278367
0.704735 0.063506 0.385711
0.705811 0.064582 0.491902
0.706879 0.065650 0.597226
0.707939 0.066710 0.701853
0.708994 0.067765 0.805900
0.710037 0.068808 0.908802
0.712682 0.182666 0.068064
0.713822 0.183806 0.180590
0.714928 0.184912 0.289648
0.716016 0.186000 0.396992
0.717092 0.187076 0.503183
0.718160 0.188143 0.608507
0.719220 0.189204 0.713134
0.720275 0.190259 0.817181
0.721318 0.191302 0.920083
0.723625 0.301498 0.079008
0.724766 0.302638 0.191534
0.725871 0.303744 0.300592
0.726959 0.304832 0.407935
0.728036 0.305908 0.514127
0.729103 0.306976 0.619450
0.730164 0.308036 0.724078
0.731218 0.309091 0.828125
0.732262 0.310134 0.931027
0.734399 0.418488 0.089782
0.735540 0.419629 0.202308
0.736645 0.420734 0.311366
0.737733 0.421822 0.418709
0.738810 0.422898 0.524901
0.739877 0.423966 0.630224
0.740938 0.425026 0.734852
0.741992 0.426081 0.838899
0.743036 0.427124 0.941801
0.745059 0.534234 0.100441
0.746199 0.535375 0.212967
0.747305 0.536480 0.322025
0.748393 0.537568 0.429369
0.749469 0.538644 0.535560
0.750537 0.539712 0.640884
0.751597 0.540773 0.745511
0.752652 0.541827 0.849558
0.753695 0.542870 0.952460
0.755632 0.649040 0.111014
0.756772 0.650181 0.223540
0.757878 0.651286 0.332598
0.758966 0.652374 0.439942
0.760042 0.653451 0.546133
0.761110 0.654518 0.651457
0.762170 0.655579 0.756084
0.763225 0.656633 0.860131
0.764268 0.657676 0.963033
0.766135 0.763092 0.121518
0.767276 0.764233 0.234044
0.768381 0.765338 0.343101
0.769469 0.766426 0.450445
0.770545 0.767503 0.556637
0.771613 0.768570 0.661960
0.772674 0.769631 0.766587
0.773728 0.770685 0.870634
0.774771 0.771728 0.973536
0.776580 0.876514 0.131963
0.777721 0.877655 0.244489
0.778826 0.878760 0.353547
0.779915 0.879848 0.460890
0.780991 0.880925 0.567082
0.782058 0.881992 0.672405
0.783119 0.883053 0.777033
0.784174 0.884108 0.881080
0.785217 0.885151 0.983982
0.786605 0.985371 0.141988
0.787746 0.986511 0.254514
0.788851 0.987617 0.363572
0.789939 0.988705 0.470915
0.791016 0.989781 0.577107
0.792083 0.990849 0.682430
0.793144 0.991909 0.787058
0.794199 0.992964 0.891105
0.795242 0.994007 0.994007
0.807467 0.063276 0.059888
0.808607 0.064417 0.172414
0.809713 0.065522 0.281472
0.810801 0.066610 0.388815
0.811877 0.067687 0.495007
0.812945 0.068754 0.600330
0.814005 0.069815 0.704958
0.815060 0.070869 0.809005
0.816103 0.071912 0.911907
0.818748 0.185770 0.071169
0.819888 0.186911 0.183695
0.820994 0.188016 0.292752
0.822082 0.189104 0.400096
0.823158 0.190180 0.506288
0.824226 0.191248 0.611611
0.825286 0.192309 0.716239
0.826341 0.193363 0.820286
0.827384 0.194406 0.923188
0.829691 0.304602 0.082113
0.830832 0.305743 0.194638
0.831937 0.306848 0.303696
0.833025 0.307936 0.411040
0.834102 0.309013 0.517231
0.835169 0.310080 0.622555
0.836230 0.311141 0.727182
0.837284 0.312195 0.831229
0.838327 0.313238 0.934131
0.840465 0.421593 0.092887
0.841606 0.422733 0.205413
0.842711 0.423839 0.314470
0.843799 0.424927 0.421814
0.844876 0.426003 0.528005
0.845943 0.427071 0.633329
0.847004 0.428131 0.737956
0.848058 0.429186 0.842003
0.849101 0.430229 0.944905
0.851125 0.537339 0.103546
0.852265 0.538479 0.216072
0.853371 0.539585 0.325129
0.854459 0.540673 0.432473
0.855535 0.541749 0.538665
0.856603 0.542817 0.643988
0.857663 0.543877 0.748616
0.858718 0.544932 0.852663
0.859761 0.545975 0.955565
0.861697 0.652145 0.114119
0.862838 0.653285 0.226645
0.863943 0.654391 0.335702
0.865032 0.655479 0.443046
0.866108 0.656555 0.549238
0.867175 0.657623 0.654561
0.868236 0.658683 0.759189
0.869291 0.659738 0.863236
0.870334 0.660781 0.966138
0.872201 0.766197 0.124622
0.873341 0.767337 0.237148
0.874447 0.768443 0.346206
0.875535 0.769531 0.453550
0.876611 0.770607 0.559741
0.877679 0.771675 0.665065
0.878739 0.772735 0.769692
0.879794 0.773790 0.873739
0.880837 0.774833 0.976641
0.882646 0.879619 0.135068
0.883787 0.880760 0.247594
0.884892 0.881865 0.356651
0.885980 0.882953 0.463995
0.887057 0.884029 0.570187
0.888124 0.885097 0.675510
0.889185 0.886157 0.780137
0.890239 0.887212 0.884184
0.891282 0.888255 0.987086
0.892671 0.988475 0.145093
0.893812 0.989616 0.257619
0.894917 0.990721 0.366676
0.896005 0.991809 0.474020
0.897082 0.992886 0.580212
0.898149 0.993953 0.685535
0.899210 0.995014 0.790162
0.900264 0.996068 0.894209
0.901307 0.997111 0.997111
0.906159 0.066165 0.062777
0.907300 0.067305 0.175303
0.908405 0.068411 0.284360
0.909493 0.069499 0.391704
0.910570 0.070575 0.497896
0.911637 0.071643 0.603219
0.912698 0.072703 0.707846
0.913752 0.073758 0.811893
0.914795 0.074801 0.914795
0.917440 0.188659 0.074058
0.918581 0.189799 0.186584
0.919686 0.190905 0.295641
0.920774 0.191993 0.402985
0.921851 0.193069 0.509177
0.922918 0.194137 0.614500
0.923979 0.195197 0.719127
0.925033 0.196252 0.823174
0.926076 0.197295 0.926076
0.928384 0.307491 0.085001
0.929524 0.308631 0.197527
0.930630 0.309737 0.306585
0.931718 0.310825 0.413929
0.932794 0.311901 0.520120
0.933862 0.312969 0.625444
0.934922 0.314029 0.730071
0.935977 0.315084 0.834118
0.937020 0.316127 0.937020
0.939158 0.424481 0.095775
0.940298 0.425622 0.208301
0.941404 0.426727 0.317359
0.942492 0.427815 0.424703
0.943568 0.428892 0.530894
0.944636 0.429959 0.636218
0.945696 0.431020 0.740845
0.946751 0.432074 0.844892
0.947794 0.433117 0.947794
0.949817 0.540227 0.106435
0.950958 0.541368 0.218961
0.952063 0.542473 0.328018
0.953151 0.543561 0.435362
0.954228 0.544638 0.541554
0.955295 0.545705 0.646877
0.956356 0.546766 0.751504
0.957410 0.547820 0.855551
0.958453 0.548863 0.958453
0.960390 0.655034 0.117008
0.961531 0.656174 0.229534
0.962636 0.657280 0.338591
0.963724 0.658368 0.445935
0.964801 0.659444 0.552127
0.965868 0.660512 0.657450
0.966929 0.661572 0.762077
0.967983 0.662627 0.866124
0.969026 0.663670 0.969026
0.970894 0.769085 0.127511
0.972034 0.770226 0.240037
0.973140 0.771331 0.349094
0.974228 0.772420 0.456438
0.975304 0.773496 0.562630
0.976372 0.774563 0.667953
0.977432 0.775624 0.772581
0.978487 0.776679 0.876628
0.979530 0.777722 0.979530
0.981339 0.882508 0.137956
0.982480 0.883648 0.250482
0.983585 0.884754 0.359540
0.984673 0.885842 0.466884
0.985749 0.886918 0.573075
0.986817 0.887986 0.678399
0.987877 0.889046 0.783026
0.988932 0.890101 0.887073
0.989975 0.891144 0.989975
0.991364 0.991364 0.147981
0.992504 0.992504 0.260507
0.993610 0.993610 0.369565
0.994698 0.994698 0.476909
0.995774 0.995774 0.583100
0.996842 0.996842 0.688424
0.997902 0.997902 0.793051
0.998957 0.998957 0.897098
1.000000 1.000000 1.000000
