skills/creativeops-director/assets/grade/luts/soft_pastel_v03.cube
TITLE "soft_pastel_v03"
LUT_3D_SIZE 5
DOMAIN_MIN 0.0 0.0 0.0
DOMAIN_MAX 1.0 1.0 1.0
0.024188 0.023182 0.022175
0.025877 0.024871 0.253061
0.027520 0.026514 0.477573
0.029143 0.028137 0.699377
0.030728 0.029722 0.916069
0.040918 0.269049 0.038905
0.042607 0.270738 0.269791
0.044250 0.272381 0.494303
0.045873 0.274004 0.716107
0.047458 0.275589 0.932799
0.057189 0.508174 0.055176
0.058878 0.509863 0.286063
0.060521 0.511506 0.510574
0.062144 0.513129 0.732379
0.063730 0.514715 0.949071
0.073265 0.744422 0.071251
0.074954 0.746112 0.302138
0.076597 0.747754 0.526650
0.078220 0.749377 0.748454
0.079805 0.750963 0.965146
0.088903 0.974244 0.086890
0.090592 0.975933 0.317777
0.092235 0.977576 0.542288
0.093858 0.979199 0.764093
0.095443 0.980785 0.980785
0.258237 0.028154 0.027146
0.259926 0.029843 0.258033
0.261569 0.031486 0.482545
0.263192 0.033109 0.704349
0.264777 0.034694 0.921041
0.274967 0.274020 0.043876
0.276656 0.275710 0.274763
0.278299 0.277353 0.499275
0.279922 0.278975 0.721079
0.281507 0.280561 0.937771
0.291238 0.513146 0.060148
0.292928 0.514835 0.291035
0.294570 0.516478 0.515546
0.296193 0.518101 0.737351
0.297779 0.519686 0.954043
0.307314 0.749394 0.076223
0.309003 0.751083 0.307110
0.310646 0.752726 0.531622
0.312269 0.754349 0.753426
0.313854 0.755935 0.970118
0.322952 0.979216 0.091862
0.324642 0.980905 0.322748
0.326284 0.982548 0.547260
0.327907 0.984171 0.769064
0.329493 0.985756 0.985756
0.485913 0.032990 0.031983
0.487602 0.034679 0.262870
0.489245 0.036322 0.487381
0.490868 0.037945 0.709186
0.492453 0.039531 0.925878
0.502643 0.278857 0.048713
0.504332 0.280546 0.279600
0.505975 0.282189 0.504111
0.507598 0.283812 0.725916
0.509183 0.285397 0.942608
0.518914 0.517982 0.064984
0.520603 0.519672 0.295871
0.522246 0.521314 0.520383
0.523869 0.522937 0.742187
0.525455 0.524523 0.958879
0.534990 0.754231 0.081060
0.536679 0.755920 0.311947
0.538322 0.757563 0.536458
0.539945 0.759186 0.758263
0.541530 0.760771 0.974955
0.550628 0.984052 0.096698
0.552317 0.985742 0.327585
0.553960 0.987385 0.552097
0.555583 0.989007 0.773901
0.557168 0.990593 0.990593
0.710855 0.037768 0.036761
0.712544 0.039458 0.267648
0.714187 0.041101 0.492160
0.715810 0.042723 0.713964
0.717395 0.044309 0.930656
0.727585 0.283635 0.053491
0.729274 0.285325 0.284378
0.730917 0.286967 0.508890
0.732540 0.288590 0.730694
0.734126 0.290176 0.947386
0.743856 0.522761 0.069763
0.745546 0.524450 0.300649
0.747188 0.526093 0.525161
0.748811 0.527716 0.746966
0.750397 0.529301 0.963658
0.759932 0.759009 0.085838
0.761621 0.760698 0.316725
0.763264 0.762341 0.541237
0.764887 0.763964 0.763041
0.766472 0.765550 0.979733
0.775570 0.988831 0.101477
0.777260 0.990520 0.332363
0.778902 0.992163 0.556875
0.780525 0.993786 0.778679
0.782111 0.995371 0.995371
0.928744 0.042397 0.041390
0.930434 0.044086 0.272277
0.932076 0.045729 0.496788
0.933699 0.047352 0.718593
0.935285 0.048938 0.935285
0.945474 0.288264 0.058120
0.947164 0.289953 0.289007
0.948806 0.291596 0.513518
0.950429 0.293219 0.735323
0.952015 0.294804 0.952015
0.961746 0.527389 0.074391
0.963435 0.529079 0.305278
0.965078 0.530722 0.529790
0.966701 0.532344 0.751594
0.968286 0.533930 0.968286
0.977821 0.763638 0.090467
0.979511 0.765327 0.321354
0.981153 0.766970 0.545865
0.982776 0.768593 0.767670
0.984362 0.770178 0.984362
0.993460 0.993460 0.106105
0.995149 0.995149 0.336992
0.996792 0.996792 0.561504
0.998415 0.998415 0.783308
1.000000 1.000000 1.000000
