skills/creativeops-director/assets/grade/luts/soft_pastel_v01.cube
TITLE "soft_pastel_v01"
LUT_3D_SIZE 5
DOMAIN_MIN 0.0 0.0 0.0
DOMAIN_MAX 1.0 1.0 1.0
0.016208 0.016208 0.016208
0.017671 0.017671 0.250714
0.019099 0.019099 0.479658
0.020513 0.020513 0.706293
0.021890 0.021890 0.926979
0.030701 0.263745 0.030701
0.032164 0.265208 0.265208
0.033593 0.266636 0.494151
0.035007 0.268050 0.720787
0.036383 0.269427 0.941472
0.044851 0.505409 0.044851
0.046314 0.506873 0.279357
0.047742 0.508301 0.508301
0.049156 0.509715 0.734936
0.050533 0.511092 0.955622
0.058857 0.744637 0.058857
0.060320 0.746100 0.293364
0.061749 0.747529 0.522308
0.063163 0.748943 0.748943
0.064540 0.750320 0.969629
0.072496 0.977585 0.072496
0.073960 0.979048 0.307003
0.075388 0.980477 0.535947
0.076802 0.981891 0.762582
0.078179 0.983268 0.983268
0.253560 0.020516 0.020516
0.255023 0.021979 0.255023
0.256451 0.023408 0.483966
0.257865 0.024822 0.710602
0.259242 0.026198 0.931287
0.268053 0.268053 0.035009
0.269516 0.269516 0.269516
0.270944 0.270944 0.498460
0.272358 0.272358 0.725095
0.273735 0.273735 0.945781
0.282202 0.509718 0.049159
0.283665 0.511181 0.283665
0.285094 0.512609 0.512609
0.286508 0.514023 0.739244
0.287885 0.515400 0.959930
0.296209 0.748946 0.063166
0.297672 0.750409 0.297672
0.299101 0.751837 0.526616
0.300515 0.753251 0.753251
0.301892 0.754628 0.973937
0.309848 0.981894 0.076805
0.311311 0.983357 0.311311
0.312740 0.984785 0.540255
0.314154 0.986199 0.766890
0.315531 0.987576 0.987576
0.485281 0.024722 0.024722
0.486744 0.026185 0.259229
0.488172 0.027614 0.488172
0.489586 0.029028 0.714808
0.490963 0.030404 0.935493
0.499774 0.272259 0.039215
0.501237 0.273722 0.273722
0.502666 0.275150 0.502666
0.504080 0.276564 0.729301
0.505457 0.277941 0.949987
0.513924 0.513924 0.053365
0.515387 0.515387 0.287872
0.516815 0.516815 0.516815
0.518229 0.518229 0.743450
0.519606 0.519606 0.964136
0.527931 0.753152 0.067372
0.529394 0.754615 0.301878
0.530822 0.756043 0.530822
0.532236 0.757457 0.757457
0.533613 0.758834 0.978143
0.541570 0.986100 0.081011
0.543033 0.987563 0.315517
0.544461 0.988991 0.544461
0.545875 0.990405 0.771096
0.547252 0.991782 0.991782
0.714666 0.028886 0.028886
0.716129 0.030349 0.263392
0.717557 0.031777 0.492336
0.718971 0.033191 0.718971
0.720348 0.034568 0.939657
0.729159 0.276423 0.043379
0.730622 0.277886 0.277886
0.732051 0.279314 0.506829
0.733465 0.280728 0.733465
0.734841 0.282105 0.954150
0.743308 0.518087 0.057528
0.744772 0.519550 0.292035
0.746200 0.520979 0.520979
0.747614 0.522393 0.747614
0.748991 0.523770 0.968300
0.757315 0.757315 0.071535
0.758778 0.758778 0.306042
0.760207 0.760207 0.534986
0.761621 0.761621 0.761621
0.762998 0.762998 0.982307
0.770954 0.990263 0.085174
0.772418 0.991726 0.319681
0.773846 0.993155 0.548625
0.775260 0.994569 0.775260
0.776637 0.995946 0.995946
0.938029 0.032940 0.032940
0.939492 0.034403 0.267447
0.940920 0.035832 0.496390
0.942334 0.037246 0.723026
0.943711 0.038622 0.943711
0.952522 0.280477 0.047433
0.953985 0.281940 0.281940
0.955414 0.283368 0.510884
0.956828 0.284782 0.737519
0.958205 0.286159 0.958205
0.966672 0.522142 0.061583
0.968135 0.523605 0.296090
0.969563 0.525033 0.525033
0.970977 0.526447 0.751668
0.972354 0.527824 0.972354
0.980679 0.761370 0.075590
0.982142 0.762833 0.310096
0.983570 0.764261 0.539040
0.984984 0.765675 0.765675
0.986361 0.767052 0.986361
0.994318 0.994318 0.089229
0.995781 0.995781 0.323735
0.997209 0.997209 0.552679
0.998623 0.998623 0.779314
1.000000 1.000000 1.000000
