skills/creativeops-director/assets/grade/luts/soft_pastel_v18.cube
TITLE "soft_pastel_v18"
LUT_3D_SIZE 9
DOMAIN_MIN 0.0 0.0 0.0
DOMAIN_MAX 1.0 1.0 1.0
0.084872 0.077419 0.069913
0.086562 0.079109 0.173125
0.088184 0.080731 0.272203
0.089770 0.082317 0.369027
0.091330 0.083877 0.464296
0.092870 0.085417 0.558379
0.094395 0.086942 0.651507
0.095907 0.088454 0.743835
0.097408 0.089954 0.835476
0.101542 0.195180 0.086583
0.103232 0.196870 0.189795
0.104855 0.198493 0.288874
0.106440 0.200078 0.385697
0.108000 0.201638 0.480966
0.109541 0.203179 0.575049
0.111066 0.204704 0.668177
0.112577 0.206215 0.760505
0.114078 0.207716 0.852146
0.117581 0.308479 0.102622
0.119271 0.310169 0.205834
0.120893 0.311792 0.304912
0.122479 0.313377 0.401736
0.124039 0.314937 0.497005
0.125579 0.316478 0.591088
0.127104 0.318003 0.684216
0.128616 0.319514 0.776544
0.130117 0.321015 0.868185
0.133265 0.419275 0.118306
0.134955 0.420965 0.221518
0.136578 0.422588 0.320596
0.138163 0.424173 0.417420
0.139723 0.425733 0.512689
0.141264 0.427274 0.606772
0.142788 0.428799 0.699900
0.144300 0.430310 0.792228
0.145801 0.431811 0.883869
0.148703 0.528328 0.133743
0.150393 0.530018 0.236955
0.152015 0.531641 0.336034
0.153601 0.533226 0.432858
0.155160 0.534786 0.528126
0.156701 0.536327 0.622210
0.158226 0.537852 0.715338
0.159738 0.539363 0.807665
0.161238 0.540864 0.899307
0.163951 0.636046 0.148992
0.165641 0.637736 0.252204
0.167264 0.639358 0.351282
0.168849 0.640944 0.448106
0.170409 0.642504 0.543375
0.171950 0.644044 0.637458
0.173474 0.645569 0.730586
0.174986 0.647081 0.822914
0.176487 0.648582 0.914555
0.179047 0.742683 0.164087
0.180737 0.744373 0.267300
0.182359 0.745996 0.366378
0.183945 0.747581 0.463202
0.185505 0.749141 0.558471
0.187045 0.750682 0.652554
0.188570 0.752207 0.745682
0.190082 0.753719 0.838010
0.191583 0.755219 0.929651
0.194014 0.848415 0.179055
0.195704 0.850105 0.282267
0.197327 0.851728 0.381345
0.198912 0.853313 0.478169
0.200472 0.854873 0.573438
0.202013 0.856414 0.667521
0.203537 0.857939 0.760649
0.205049 0.859450 0.852977
0.206550 0.860951 0.944618
0.208536 0.950996 0.193576
0.210226 0.952686 0.296788
0.211848 0.954309 0.395867
0.213433 0.955894 0.492691
0.214993 0.957454 0.587959
0.216534 0.958995 0.682043
0.218059 0.960520 0.775170
0.219571 0.962031 0.867498
0.221071 0.963532 0.959139
0.190503 0.082355 0.074849
0.192193 0.084045 0.178061
0.193816 0.085667 0.277139
0.195401 0.087253 0.373963
0.196961 0.088813 0.469232
0.198502 0.090353 0.563315
0.200026 0.091878 0.656443
0.201538 0.093390 0.748771
0.203039 0.094890 0.840412
0.207173 0.200116 0.091519
0.208863 0.201806 0.194731
0.210486 0.203429 0.293810
0.212071 0.205014 0.390633
0.213631 0.206574 0.485902
0.215172 0.208115 0.579985
0.216697 0.209640 0.673113
0.218209 0.211151 0.765441
0.219709 0.212652 0.857082
0.223212 0.313415 0.107558
0.224902 0.315105 0.210770
0.226524 0.316728 0.309848
0.228110 0.318313 0.406672
0.229670 0.319873 0.501941
0.231210 0.321414 0.596024
0.232735 0.322939 0.689152
0.234247 0.324450 0.781480
0.235748 0.325951 0.873121
0.238896 0.424211 0.123242
0.240586 0.425901 0.226454
0.242209 0.427524 0.325532
0.243794 0.429109 0.422356
0.245354 0.430669 0.517625
0.246895 0.432210 0.611708
0.248420 0.433735 0.704836
0.249931 0.435246 0.797164
0.251432 0.436747 0.888805
0.254334 0.533264 0.138679
0.256024 0.534954 0.241891
0.257646 0.536577 0.340970
0.259232 0.538162 0.437794
0.260792 0.539722 0.533062
0.262332 0.541263 0.627146
0.263857 0.542788 0.720274
0.265369 0.544299 0.812601
0.266870 0.545800 0.904243
0.269582 0.640982 0.153928
0.271272 0.642672 0.257140
0.272895 0.644294 0.356218
0.274480 0.645880 0.453042
0.276040 0.647440 0.548311
0.277581 0.648980 0.642394
0.279106 0.650505 0.735522
0.280618 0.652017 0.827850
0.282118 0.653518 0.919491
0.284678 0.747619 0.169023
0.286368 0.749309 0.272236
0.287990 0.750932 0.371314
0.289576 0.752517 0.468138
0.291136 0.754077 0.563406
0.292676 0.755618 0.657490
0.294201 0.757143 0.750618
0.295713 0.758655 0.842946
0.297214 0.760155 0.934587
0.299645 0.853351 0.183991
0.301335 0.855041 0.287203
0.302958 0.856664 0.386281
0.304543 0.858249 0.483105
0.306103 0.859809 0.578374
0.307644 0.861350 0.672457
0.309169 0.862875 0.765585
0.310680 0.864386 0.857913
0.312181 0.865887 0.949554
0.314167 0.955932 0.198512
0.315857 0.957622 0.301724
0.317479 0.959245 0.400803
0.319065 0.960830 0.497627
0.320625 0.962390 0.592895
0.322165 0.963931 0.686979
0.323690 0.965456 0.780106
0.325202 0.966967 0.872434
0.326702 0.968468 0.964075
0.292334 0.087113 0.079607
0.294024 0.088803 0.182819
0.295646 0.090426 0.281898
0.297231 0.092011 0.378721
0.298791 0.093571 0.473990
0.300332 0.095112 0.568074
0.301857 0.096636 0.661201
0.303369 0.098148 0.753529
0.304869 0.099649 0.845170
0.309004 0.204875 0.096277
0.310694 0.206565 0.199489
0.312316 0.208187 0.298568
0.313902 0.209772 0.395392
0.315462 0.211332 0.490660
0.317002 0.212873 0.584744
0.318527 0.214398 0.677872
0.320039 0.215910 0.770199
0.321540 0.217410 0.861841
0.325042 0.318174 0.112316
0.326732 0.319864 0.215528
0.328355 0.321486 0.314606
0.329940 0.323071 0.411430
0.331500 0.324631 0.506699
0.333041 0.326172 0.600782
0.334566 0.327697 0.693910
0.336078 0.329209 0.786238
0.337578 0.330709 0.877879
0.340727 0.428970 0.128000
0.342417 0.430660 0.231212
0.344039 0.432282 0.330291
0.345625 0.433868 0.427115
0.347185 0.435428 0.522383
0.348725 0.436968 0.616467
0.350250 0.438493 0.709594
0.351762 0.440005 0.801922
0.353262 0.441505 0.893564
0.356164 0.538023 0.143438
0.357854 0.539713 0.246650
0.359477 0.541335 0.345728
0.361062 0.542920 0.442552
0.362622 0.544480 0.537821
0.364163 0.546021 0.631904
0.365688 0.547546 0.725032
0.367199 0.549058 0.817360
0.368700 0.550558 0.909001
0.371413 0.645740 0.158686
0.373103 0.647430 0.261898
0.374725 0.649053 0.360977
0.376311 0.650638 0.457801
0.377871 0.652198 0.553069
0.379411 0.653739 0.647153
0.380936 0.655264 0.740280
0.382448 0.656775 0.832608
0.383948 0.658276 0.924250
0.386508 0.752378 0.173782
0.388198 0.754068 0.276994
0.389821 0.755690 0.376072
0.391406 0.757276 0.472896
0.392966 0.758836 0.568165
0.394507 0.760376 0.662248
0.396032 0.761901 0.755376
0.397544 0.763413 0.847704
0.399044 0.764914 0.939345
0.401476 0.858110 0.188749
0.403166 0.859800 0.291961
0.404788 0.861422 0.391040
0.406374 0.863008 0.487864
0.407934 0.864568 0.583132
0.409474 0.866108 0.677216
0.410999 0.867633 0.770343
0.412511 0.869145 0.862671
0.414011 0.870645 0.954313
0.415997 0.960691 0.203271
0.417687 0.962381 0.306483
0.419309 0.964003 0.405561
0.420895 0.965589 0.502385
0.422455 0.967149 0.597654
0.423996 0.968689 0.691737
0.425520 0.970214 0.784865
0.427032 0.971726 0.877193
0.428533 0.973226 0.968834
0.391978 0.091769 0.084263
0.393668 0.093459 0.187475
0.395291 0.095082 0.286554
0.396876 0.096667 0.383378
0.398436 0.098227 0.478646
0.399977 0.099768 0.572730
0.401501 0.101293 0.665857
0.403013 0.102805 0.758185
0.404514 0.104305 0.849827
0.408648 0.209531 0.100934
0.410338 0.211221 0.204146
0.411961 0.212843 0.303224
0.413546 0.214429 0.400048
0.415106 0.215989 0.495317
0.416647 0.217529 0.589400
0.418172 0.219054 0.682528
0.419684 0.220566 0.774856
0.421184 0.222067 0.866497
0.424687 0.322830 0.116972
0.426377 0.324520 0.220184
0.427999 0.326142 0.319263
0.429585 0.327728 0.416087
0.431145 0.329288 0.511355
0.432685 0.330828 0.605439
0.434210 0.332353 0.698566
0.435722 0.333865 0.790894
0.437223 0.335366 0.882535
0.440371 0.433626 0.132656
0.442061 0.435316 0.235869
0.443684 0.436938 0.334947
0.445269 0.438524 0.431771
0.446829 0.440084 0.527040
0.448370 0.441624 0.621123
0.449895 0.443149 0.714251
0.451406 0.444661 0.806579
0.452907 0.446162 0.898220
0.455809 0.542679 0.148094
0.457499 0.544369 0.251306
0.459121 0.545991 0.350385
0.460707 0.547577 0.447208
0.462267 0.549137 0.542477
0.463807 0.550677 0.636560
0.465332 0.552202 0.729688
0.466844 0.553714 0.822016
0.468345 0.555215 0.913657
0.471057 0.650396 0.163342
0.472747 0.652087 0.266555
0.474370 0.653709 0.365633
0.475955 0.655294 0.462457
0.477515 0.656854 0.557726
0.479056 0.658395 0.651809
0.480581 0.659920 0.744937
0.482092 0.661432 0.837265
0.483593 0.662932 0.928906
0.486153 0.757034 0.178438
0.487843 0.758724 0.281650
0.489465 0.760346 0.380729
0.491051 0.761932 0.477553
0.492611 0.763492 0.572821
0.494151 0.765032 0.666905
0.495676 0.766557 0.760032
0.497188 0.768069 0.852360
0.498689 0.769570 0.944001
0.501120 0.862766 0.193405
0.502810 0.864456 0.296618
0.504433 0.866078 0.395696
0.506018 0.867664 0.492520
0.507578 0.869224 0.587789
0.509119 0.870764 0.681872
0.510644 0.872289 0.775000
0.512155 0.873801 0.867328
0.513656 0.875302 0.958969
0.515642 0.965347 0.207927
0.517332 0.967037 0.311139
0.518954 0.968659 0.410217
0.520540 0.970245 0.507041
0.522100 0.971805 0.602310
0.523640 0.973345 0.696393
0.525165 0.974870 0.789521
0.526677 0.976382 0.881849
0.528177 0.977883 0.973490
0.490086 0.096354 0.088848
0.491776 0.098044 0.192060
0.493399 0.099666 0.291138
0.494984 0.101252 0.387962
0.496544 0.102812 0.483231
0.498085 0.104352 0.577314
0.499610 0.105877 0.670442
0.501122 0.107389 0.762770
0.502622 0.108890 0.854411
0.506757 0.214115 0.105518
0.508447 0.215805 0.208730
0.510069 0.217428 0.307809
0.511655 0.219013 0.404632
0.513215 0.220573 0.499901
0.514755 0.222114 0.593985
0.516280 0.223639 0.687112
0.517792 0.225151 0.779440
0.519292 0.226651 0.871081
0.522795 0.327414 0.121557
0.524485 0.329104 0.224769
0.526108 0.330727 0.323847
0.527693 0.332312 0.420671
0.529253 0.333872 0.515940
0.530794 0.335413 0.610023
0.532319 0.336938 0.703151
0.533830 0.338449 0.795479
0.535331 0.339950 0.887120
0.538480 0.438210 0.137241
0.540170 0.439900 0.240453
0.541792 0.441523 0.339531
0.543377 0.443108 0.436355
0.544937 0.444668 0.531624
0.546478 0.446209 0.625707
0.548003 0.447734 0.718835
0.549515 0.449246 0.811163
0.551015 0.450746 0.902804
0.553917 0.547263 0.152678
0.555607 0.548953 0.255891
0.557229 0.550576 0.354969
0.558815 0.552161 0.451793
0.560375 0.553721 0.547061
0.561915 0.555262 0.641145
0.563440 0.556787 0.734273
0.564952 0.558298 0.826601
0.566453 0.559799 0.918242
0.569166 0.654981 0.167927
0.570856 0.656671 0.271139
0.572478 0.658293 0.370217
0.574063 0.659879 0.467041
0.575623 0.661439 0.562310
0.577164 0.662979 0.656393
0.578689 0.664504 0.749521
0.580201 0.666016 0.841849
0.581701 0.667517 0.933490
0.584261 0.761619 0.183023
0.585951 0.763309 0.286235
0.587574 0.764931 0.385313
0.589159 0.766516 0.482137
0.590719 0.768076 0.577406
0.592260 0.769617 0.671489
0.593784 0.771142 0.764617
0.595296 0.772654 0.856945
0.596797 0.774154 0.948586
0.599229 0.867350 0.197990
0.600919 0.869040 0.301202
0.602541 0.870663 0.400280
0.604126 0.872248 0.497104
0.605686 0.873808 0.592373
0.607227 0.875349 0.686456
0.608752 0.876874 0.779584
0.610264 0.878386 0.871912
0.611764 0.879886 0.963553
0.613750 0.969931 0.212511
0.615440 0.971621 0.315723
0.617062 0.973244 0.414802
0.618648 0.974829 0.511626
0.620208 0.976389 0.606894
0.621748 0.977930 0.700978
0.623273 0.979455 0.794105
0.624785 0.980967 0.886433
0.626286 0.982467 0.978075
0.587012 0.100883 0.093377
0.588702 0.102573 0.196589
0.590325 0.104195 0.295668
0.591910 0.105781 0.392491
0.593470 0.107341 0.487760
0.595011 0.108881 0.581843
0.596536 0.110406 0.674971
0.598047 0.111918 0.767299
0.599548 0.113419 0.858940
0.603682 0.218645 0.110047
0.605373 0.220335 0.213259
0.606995 0.221957 0.312338
0.608580 0.223542 0.409162
0.610140 0.225102 0.504430
0.611681 0.226643 0.598514
0.613206 0.228168 0.691641
0.614718 0.229680 0.783969
0.616218 0.231180 0.875611
0.619721 0.331944 0.126086
0.621411 0.333634 0.229298
0.623033 0.335256 0.328376
0.624619 0.336841 0.425200
0.626179 0.338401 0.520469
0.627719 0.339942 0.614552
0.629244 0.341467 0.707680
0.630756 0.342979 0.800008
0.632257 0.344479 0.891649
0.635405 0.442740 0.141770
0.637095 0.444430 0.244982
0.638718 0.446052 0.344061
0.640303 0.447637 0.440885
0.641863 0.449197 0.536153
0.643404 0.450738 0.630237
0.644929 0.452263 0.723364
0.646441 0.453775 0.815692
0.647941 0.455275 0.907333
0.650843 0.551792 0.157208
0.652533 0.553483 0.260420
0.654155 0.555105 0.359498
0.655741 0.556690 0.456322
0.657301 0.558250 0.551591
0.658841 0.559791 0.645674
0.660366 0.561316 0.738802
0.661878 0.562828 0.831130
0.663379 0.564328 0.922771
0.666091 0.659510 0.172456
0.667781 0.661200 0.275668
0.669404 0.662823 0.374747
0.670989 0.664408 0.471571
0.672549 0.665968 0.566839
0.674090 0.667509 0.660923
0.675615 0.669034 0.754050
0.677127 0.670545 0.846378
0.678627 0.672046 0.938019
0.681187 0.766148 0.187552
0.682877 0.767838 0.290764
0.684499 0.769460 0.389842
0.686085 0.771046 0.486666
0.687645 0.772606 0.581935
0.689185 0.774146 0.676018
0.690710 0.775671 0.769146
0.692222 0.777183 0.861474
0.693723 0.778683 0.953115
0.696154 0.871880 0.202519
0.697844 0.873570 0.305731
0.699467 0.875192 0.404810
0.701052 0.876777 0.501634
0.702612 0.878337 0.596902
0.704153 0.879878 0.690986
0.705678 0.881403 0.784113
0.707190 0.882915 0.876441
0.708690 0.884415 0.968082
0.710676 0.974461 0.217040
0.712366 0.976151 0.320253
0.713988 0.977773 0.419331
0.715574 0.979358 0.516155
0.717134 0.980918 0.611424
0.718674 0.982459 0.705507
0.720199 0.983984 0.798635
0.721711 0.985496 0.890963
0.723211 0.986996 0.982604
0.682978 0.105367 0.097861
0.684669 0.107057 0.201073
0.686291 0.108680 0.300152
0.687876 0.110265 0.396976
0.689436 0.111825 0.492244
0.690977 0.113366 0.586328
0.692502 0.114891 0.679455
0.694014 0.116403 0.771783
0.695514 0.117903 0.863425
0.699649 0.223129 0.114532
0.701339 0.224819 0.217744
0.702961 0.226441 0.316822
0.704547 0.228027 0.413646
0.706107 0.229587 0.508915
0.707647 0.231127 0.602998
0.709172 0.232652 0.696126
0.710684 0.234164 0.788454
0.712185 0.235665 0.880095
0.715687 0.336428 0.130570
0.717377 0.338118 0.233782
0.719000 0.339740 0.332861
0.720585 0.341326 0.429685
0.722145 0.342886 0.524953
0.723686 0.344426 0.619037
0.725211 0.345951 0.712164
0.726723 0.347463 0.804492
0.728223 0.348964 0.896134
0.731372 0.447224 0.146254
0.733062 0.448914 0.249467
0.734684 0.450536 0.348545
0.736270 0.452122 0.445369
0.737830 0.453682 0.540638
0.739370 0.455222 0.634721
0.740895 0.456747 0.727849
0.742407 0.458259 0.820177
0.743907 0.459760 0.911818
0.746809 0.556277 0.161692
0.748499 0.557967 0.264904
0.750122 0.559589 0.363983
0.751707 0.561175 0.460806
0.753267 0.562735 0.556075
0.754808 0.564275 0.650159
0.756333 0.565800 0.743286
0.757844 0.567312 0.835614
0.759345 0.568813 0.927255
0.762058 0.663995 0.176940
0.763748 0.665685 0.280153
0.765370 0.667307 0.379231
0.766956 0.668892 0.476055
0.768516 0.670452 0.571324
0.770056 0.671993 0.665407
0.771581 0.673518 0.758535
0.773093 0.675030 0.850863
0.774593 0.676530 0.942504
0.777153 0.770632 0.192036
0.778843 0.772322 0.295248
0.780466 0.773945 0.394327
0.782051 0.775530 0.491151
0.783611 0.777090 0.586419
0.785152 0.778631 0.680503
0.786677 0.780155 0.773630
0.788188 0.781667 0.865958
0.789689 0.783168 0.957599
0.792121 0.876364 0.207003
0.793811 0.878054 0.310216
0.795433 0.879676 0.409294
0.797019 0.881262 0.506118
0.798579 0.882822 0.601387
0.800119 0.884362 0.695470
0.801644 0.885887 0.788598
0.803156 0.887399 0.880926
0.804656 0.888900 0.972567
0.806642 0.978945 0.221525
0.808332 0.980635 0.324737
0.809954 0.982257 0.423815
0.811540 0.983843 0.520639
0.813100 0.985403 0.615908
0.814640 0.986943 0.709991
0.816165 0.988468 0.803119
0.817677 0.989980 0.895447
0.819178 0.991481 0.987088
0.778139 0.109814 0.102308
0.779829 0.111504 0.205520
0.781451 0.113126 0.304599
0.783036 0.114712 0.401422
0.784596 0.116272 0.496691
0.786137 0.117813 0.590775
0.787662 0.119337 0.683902
0.789174 0.120849 0.776230
0.790674 0.122350 0.867871
0.794809 0.227576 0.118978
0.796499 0.229266 0.222190
0.798121 0.230888 0.321269
0.799707 0.232473 0.418093
0.801267 0.234033 0.513361
0.802807 0.235574 0.607445
0.804332 0.237099 0.700572
0.805844 0.238611 0.792900
0.807345 0.240111 0.884542
0.810847 0.340875 0.135017
0.812537 0.342565 0.238229
0.814160 0.344187 0.337307
0.815745 0.345772 0.434131
0.817305 0.347332 0.529400
0.818846 0.348873 0.623483
0.820371 0.350398 0.716611
0.821883 0.351910 0.808939
0.823383 0.353410 0.900580
0.826532 0.451671 0.150701
0.828222 0.453361 0.253913
0.829844 0.454983 0.352992
0.831430 0.456569 0.449816
0.832990 0.458129 0.545084
0.834530 0.459669 0.639168
0.836055 0.461194 0.732295
0.837567 0.462706 0.824623
0.839067 0.464206 0.916264
0.841969 0.560724 0.166139
0.843659 0.562414 0.269351
0.845282 0.564036 0.368429
0.846867 0.565621 0.465253
0.848427 0.567181 0.560522
0.849968 0.568722 0.654605
0.851493 0.570247 0.747733
0.853004 0.571759 0.840061
0.854505 0.573259 0.931702
0.857218 0.668441 0.181387
0.858908 0.670131 0.284599
0.860530 0.671754 0.383678
0.862116 0.673339 0.480502
0.863676 0.674899 0.575770
0.865216 0.676440 0.669854
0.866741 0.677965 0.762981
0.868253 0.679476 0.855309
0.869753 0.680977 0.946951
0.872313 0.775079 0.196483
0.874003 0.776769 0.299695
0.875626 0.778391 0.398773
0.877211 0.779977 0.495597
0.878771 0.781537 0.590866
0.880312 0.783077 0.684949
0.881837 0.784602 0.778077
0.883348 0.786114 0.870405
0.884849 0.787615 0.962046
0.887281 0.880811 0.211450
0.888971 0.882501 0.314662
0.890593 0.884123 0.413741
0.892179 0.885709 0.510565
0.893739 0.887268 0.605833
0.895279 0.888809 0.699917
0.896804 0.890334 0.793044
0.898316 0.891846 0.885372
0.899816 0.893346 0.977013
0.901802 0.983392 0.225972
0.903492 0.985082 0.329184
0.905114 0.986704 0.428262
0.906700 0.988290 0.525086
0.908260 0.989850 0.620355
0.909800 0.991390 0.714438
0.911325 0.992915 0.807566
0.912837 0.994427 0.899894
0.914338 0.995927 0.991535
0.863728 0.113814 0.106307
0.865418 0.115504 0.209520
0.867040 0.117126 0.308598
0.868625 0.118711 0.405422
0.870185 0.120271 0.500691
0.871726 0.121812 0.594774
0.873251 0.123337 0.687902
0.874763 0.124849 0.780230
0.876263 0.126349 0.871871
0.880398 0.231575 0.122978
0.882088 0.233265 0.226190
0.883710 0.234887 0.325268
0.885296 0.236473 0.422092
0.886856 0.238033 0.517361
0.888396 0.239573 0.611444
0.889921 0.241098 0.704572
0.891433 0.242610 0.796900
0.892934 0.244111 0.888541
0.896436 0.344874 0.139016
0.898127 0.346564 0.242228
0.899749 0.348186 0.341307
0.901334 0.349772 0.438131
0.902894 0.351332 0.533399
0.904435 0.352872 0.627483
0.905960 0.354397 0.720611
0.907472 0.355909 0.812938
0.908972 0.357410 0.904580
0.912121 0.455670 0.154701
0.913811 0.457360 0.257913
0.915433 0.458983 0.356991
0.917019 0.460568 0.453815
0.918579 0.462128 0.549084
0.920119 0.463669 0.643167
0.921644 0.465193 0.736295
0.923156 0.466705 0.828623
0.924657 0.468206 0.920264
0.927558 0.564723 0.170138
0.929248 0.566413 0.273350
0.930871 0.568035 0.372429
0.932456 0.569621 0.469253
0.934016 0.571181 0.564521
0.935557 0.572721 0.658605
0.937082 0.574246 0.751732
0.938593 0.575758 0.844060
0.940094 0.577259 0.935701
0.942807 0.672441 0.185387
0.944497 0.674131 0.288599
0.946119 0.675753 0.387677
0.947705 0.677339 0.484501
0.949265 0.678899 0.579770
0.950805 0.680439 0.673853
0.952330 0.681964 0.766981
0.953842 0.683476 0.859309
0.955343 0.684976 0.950950
0.957902 0.779078 0.200482
0.959592 0.780768 0.303694
0.961215 0.782391 0.402773
0.962800 0.783976 0.499597
0.964360 0.785536 0.594865
0.965901 0.787077 0.688949
0.967426 0.788602 0.782076
0.968938 0.790113 0.874404
0.970438 0.791614 0.966046
0.972870 0.884810 0.215450
0.974560 0.886500 0.318662
0.976182 0.888123 0.417740
0.977768 0.889708 0.514564
0.979328 0.891268 0.609833
0.980868 0.892809 0.703916
0.982393 0.894333 0.797044
0.983905 0.895845 0.889372
0.985406 0.897346 0.981013
0.987391 0.987391 0.229971
0.989081 0.989081 0.333183
0.990704 0.990704 0.432262
0.992289 0.992289 0.529085
0.993849 0.993849 0.624354
0.995390 0.995390 0.718438
0.996914 0.996914 0.811565
0.998426 0.998426 0.903893
0.999927 0.999927 0.995534
