skills/creativeops-director/assets/grade/luts/soft_pastel_v01.cube
TITLE "soft_pastel_v01"
LUT_3D_SIZE 17
DOMAIN_MIN 0.0 0.0 0.0
DOMAIN_MAX 1.0 1.0 1.0
0.016208 0.016208 0.016208
0.016581 0.016581 0.076024
0.016947 0.016947 0.134736
0.017310 0.017310 0.192907
0.017671 0.017671 0.250714
0.018030 0.018030 0.308247
0.018387 0.018387 0.365560
0.018744 0.018744 0.422688
0.019099 0.019099 0.479658
0.019454 0.019454 0.536490
0.019808 0.019808 0.593198
0.020161 0.020161 0.649796
0.020513 0.020513 0.706293
0.020865 0.020865 0.762698
0.021217 0.021217 0.819017
0.021567 0.021567 0.875258
0.021890 0.021890 0.926979
0.019905 0.079347 0.019905
0.020278 0.079720 0.079720
0.020644 0.080087 0.138432
0.021007 0.080450 0.196604
0.021368 0.080810 0.254411
0.021727 0.081169 0.311944
0.022084 0.081527 0.369257
0.022441 0.081883 0.426385
0.022796 0.082239 0.483355
0.023151 0.082593 0.540187
0.023504 0.082947 0.596895
0.023858 0.083300 0.653493
0.024210 0.083653 0.709990
0.024562 0.084005 0.766395
0.024913 0.084356 0.822714
0.025264 0.084707 0.878955
0.025587 0.085030 0.930676
0.023533 0.141322 0.023533
0.023906 0.141695 0.083349
0.024273 0.142061 0.142061
0.024636 0.142424 0.200232
0.024996 0.142785 0.258040
0.025355 0.143144 0.315573
0.025713 0.143501 0.372885
0.026069 0.143858 0.430013
0.026425 0.144213 0.486984
0.026779 0.144568 0.543815
0.027133 0.144921 0.600524
0.027486 0.145275 0.657122
0.027839 0.145627 0.713619
0.028191 0.145979 0.770023
0.028542 0.146330 0.826343
0.028893 0.146681 0.882583
0.029216 0.147004 0.934304
0.027128 0.202725 0.027128
0.027502 0.203098 0.086944
0.027868 0.203465 0.145656
0.028231 0.203828 0.203828
0.028591 0.204188 0.261635
0.028950 0.204547 0.319168
0.029308 0.204905 0.376480
0.029664 0.205261 0.433609
0.030020 0.205617 0.490579
0.030374 0.205971 0.547410
0.030728 0.206325 0.604119
0.031081 0.206678 0.660717
0.031434 0.207031 0.717214
0.031786 0.207383 0.773619
0.032137 0.207734 0.829938
0.032488 0.208085 0.886178
0.032811 0.208407 0.937900
0.030701 0.263745 0.030701
0.031074 0.264118 0.090517
0.031441 0.264484 0.149229
0.031803 0.264847 0.207400
0.032164 0.265208 0.265208
0.032523 0.265567 0.322741
0.032881 0.265924 0.380053
0.033237 0.266281 0.437181
0.033593 0.266636 0.494151
0.033947 0.266991 0.550983
0.034301 0.267345 0.607692
0.034654 0.267698 0.664290
0.035007 0.268050 0.720787
0.035358 0.268402 0.777191
0.035710 0.268753 0.833511
0.036061 0.269104 0.889751
0.036383 0.269427 0.941472
0.034257 0.324474 0.034257
0.034630 0.324848 0.094073
0.034996 0.325214 0.152785
0.035359 0.325577 0.210956
0.035720 0.325937 0.268763
0.036079 0.326296 0.326296
0.036436 0.326654 0.383609
0.036793 0.327010 0.440737
0.037148 0.327366 0.497707
0.037503 0.327720 0.554539
0.037857 0.328074 0.611247
0.038210 0.328427 0.667845
0.038562 0.328780 0.724342
0.038914 0.329132 0.780747
0.039266 0.329483 0.837066
0.039616 0.329834 0.893307
0.039939 0.330157 0.945028
0.037799 0.384971 0.037799
0.038172 0.385344 0.097615
0.038538 0.385711 0.156327
0.038901 0.386074 0.214498
0.039262 0.386434 0.272306
0.039621 0.386793 0.329838
0.039978 0.387151 0.387151
0.040335 0.387507 0.444279
0.040690 0.387863 0.501249
0.041045 0.388217 0.558081
0.041399 0.388571 0.614790
0.041752 0.388924 0.671387
0.042104 0.389277 0.727884
0.042456 0.389629 0.784289
0.042808 0.389980 0.840609
0.043159 0.390331 0.896849
0.043481 0.390654 0.948570
0.041330 0.445274 0.041330
0.041703 0.445647 0.101145
0.042069 0.446013 0.159857
0.042432 0.446376 0.218029
0.042793 0.446737 0.275836
0.043152 0.447096 0.333369
0.043509 0.447453 0.390682
0.043866 0.447810 0.447810
0.044221 0.448165 0.504780
0.044576 0.448520 0.561612
0.044929 0.448874 0.618320
0.045283 0.449227 0.674918
0.045635 0.449579 0.731415
0.045987 0.449931 0.787820
0.046338 0.450283 0.844139
0.046689 0.450633 0.900380
0.047012 0.450956 0.952101
0.044851 0.505409 0.044851
0.045224 0.505783 0.104666
0.045590 0.506149 0.163378
0.045953 0.506512 0.221550
0.046314 0.506873 0.279357
0.046673 0.507231 0.336890
0.047030 0.507589 0.394203
0.047387 0.507945 0.451331
0.047742 0.508301 0.508301
0.048097 0.508655 0.565133
0.048450 0.509009 0.621841
0.048804 0.509362 0.678439
0.049156 0.509715 0.734936
0.049508 0.510067 0.791341
0.049859 0.510418 0.847660
0.050210 0.510769 0.903901
0.050533 0.511092 0.955622
0.048363 0.565399 0.048363
0.048736 0.565772 0.108179
0.049102 0.566138 0.166891
0.049465 0.566501 0.225062
0.049826 0.566862 0.282870
0.050185 0.567221 0.340403
0.050543 0.567579 0.397715
0.050899 0.567935 0.454843
0.051254 0.568290 0.511813
0.051609 0.568645 0.568645
0.051963 0.568999 0.625354
0.052316 0.569352 0.681951
0.052668 0.569704 0.738448
0.053020 0.570056 0.794853
0.053372 0.570408 0.851173
0.053723 0.570759 0.907413
0.054045 0.571081 0.959134
0.051868 0.625258 0.051868
0.052241 0.625632 0.111684
0.052607 0.625998 0.170396
0.052970 0.626361 0.228567
0.053331 0.626722 0.286374
0.053690 0.627081 0.343907
0.054047 0.627438 0.401220
0.054404 0.627795 0.458348
0.054759 0.628150 0.515318
0.055114 0.628505 0.572150
0.055468 0.628858 0.628858
0.055821 0.629211 0.685456
0.056173 0.629564 0.741953
0.056525 0.629916 0.798358
0.056876 0.630267 0.854677
0.057227 0.630618 0.910918
0.057550 0.630941 0.962639
0.055366 0.685001 0.055366
0.055739 0.685374 0.115181
0.056105 0.685741 0.173893
0.056468 0.686104 0.232065
0.056829 0.686464 0.289872
0.057188 0.686823 0.347405
0.057545 0.687181 0.404718
0.057902 0.687537 0.461846
0.058257 0.687893 0.518816
0.058612 0.688247 0.575648
0.058965 0.688601 0.632356
0.059319 0.688954 0.688954
0.059671 0.689307 0.745451
0.060023 0.689658 0.801856
0.060374 0.690010 0.858175
0.060725 0.690361 0.914416
0.061048 0.690683 0.966137
0.058857 0.744637 0.058857
0.059230 0.745011 0.118673
0.059597 0.745377 0.177385
0.059960 0.745740 0.235557
0.060320 0.746100 0.293364
0.060679 0.746459 0.350897
0.061037 0.746817 0.408209
0.061393 0.747173 0.465338
0.061749 0.747529 0.522308
0.062103 0.747883 0.579139
0.062457 0.748237 0.635848
0.062810 0.748590 0.692446
0.063163 0.748943 0.748943
0.063515 0.749295 0.805348
0.063866 0.749646 0.861667
0.064217 0.749997 0.917907
0.064540 0.750320 0.969629
0.062343 0.804176 0.062343
0.062716 0.804549 0.122159
0.063083 0.804916 0.180871
0.063446 0.805279 0.239043
0.063806 0.805639 0.296850
0.064165 0.805998 0.354383
0.064523 0.806356 0.411695
0.064879 0.806712 0.468824
0.065235 0.807068 0.525794
0.065589 0.807422 0.582625
0.065943 0.807776 0.639334
0.066296 0.808129 0.695932
0.066649 0.808482 0.752429
0.067001 0.808834 0.808834
0.067352 0.809185 0.865153
0.067703 0.809536 0.921393
0.068026 0.809858 0.973115
0.065824 0.863625 0.065824
0.066197 0.863998 0.125640
0.066564 0.864364 0.184352
0.066926 0.864727 0.242523
0.067287 0.865088 0.300331
0.067646 0.865447 0.357864
0.068004 0.865805 0.415176
0.068360 0.866161 0.472304
0.068716 0.866516 0.529274
0.069070 0.866871 0.586106
0.069424 0.867225 0.642815
0.069777 0.867578 0.699413
0.070130 0.867930 0.755910
0.070481 0.868282 0.812314
0.070833 0.868634 0.868634
0.071184 0.868985 0.924874
0.071506 0.869307 0.976595
0.069300 0.922990 0.069300
0.069673 0.923363 0.129116
0.070039 0.923730 0.187828
0.070402 0.924093 0.245999
0.070763 0.924453 0.303807
0.071122 0.924812 0.361339
0.071479 0.925170 0.418652
0.071836 0.925526 0.475780
0.072191 0.925882 0.532750
0.072546 0.926236 0.589582
0.072900 0.926590 0.646291
0.073253 0.926943 0.702888
0.073605 0.927296 0.759385
0.073957 0.927648 0.815790
0.074309 0.927999 0.872110
0.074660 0.928350 0.928350
0.074982 0.928673 0.980071
0.072496 0.977585 0.072496
0.072870 0.977958 0.132312
0.073236 0.978325 0.191024
0.073599 0.978688 0.249196
0.073960 0.979048 0.307003
0.074318 0.979407 0.364536
0.074676 0.979765 0.421848
0.075032 0.980121 0.478977
0.075388 0.980477 0.535947
0.075742 0.980831 0.592779
0.076096 0.981185 0.649487
0.076449 0.981538 0.706085
0.076802 0.981891 0.762582
0.077154 0.982243 0.818987
0.077505 0.982594 0.875306
0.077856 0.982945 0.931546
0.078179 0.983268 0.983268
0.076749 0.017307 0.017307
0.077123 0.017680 0.077123
0.077489 0.018046 0.135835
0.077852 0.018409 0.194006
0.078212 0.018770 0.251813
0.078571 0.019129 0.309346
0.078929 0.019486 0.366659
0.079285 0.019843 0.423787
0.079641 0.020198 0.480757
0.079995 0.020553 0.537589
0.080349 0.020907 0.594297
0.080702 0.021260 0.650895
0.081055 0.021612 0.707392
0.081407 0.021964 0.763797
0.081758 0.022315 0.820116
0.082109 0.022666 0.876357
0.082432 0.022989 0.928078
0.080446 0.080446 0.021003
0.080819 0.080819 0.080819
0.081186 0.081186 0.139531
0.081549 0.081549 0.197703
0.081909 0.081909 0.255510
0.082268 0.082268 0.313043
0.082626 0.082626 0.370356
0.082982 0.082982 0.427484
0.083338 0.083338 0.484454
0.083692 0.083692 0.541286
0.084046 0.084046 0.597994
0.084399 0.084399 0.654592
0.084752 0.084752 0.711089
0.085104 0.085104 0.767494
0.085455 0.085455 0.823813
0.085806 0.085806 0.880054
0.086129 0.086129 0.931775
0.084075 0.142420 0.024632
0.084448 0.142794 0.084448
0.084814 0.143160 0.143160
0.085177 0.143523 0.201331
0.085538 0.143884 0.259139
0.085897 0.144243 0.316672
0.086254 0.144600 0.373984
0.086611 0.144957 0.431112
0.086966 0.145312 0.488082
0.087321 0.145667 0.544914
0.087675 0.146020 0.601623
0.088028 0.146373 0.658221
0.088380 0.146726 0.714718
0.088732 0.147078 0.771122
0.089084 0.147429 0.827442
0.089434 0.147780 0.883682
0.089757 0.148103 0.935403
0.087670 0.203824 0.028227
0.088043 0.204197 0.088043
0.088409 0.204564 0.146755
0.088772 0.204926 0.204926
0.089133 0.205287 0.262734
0.089492 0.205646 0.320267
0.089850 0.206004 0.377579
0.090206 0.206360 0.434708
0.090561 0.206716 0.491678
0.090916 0.207070 0.548509
0.091270 0.207424 0.605218
0.091623 0.207777 0.661816
0.091975 0.208130 0.718313
0.092327 0.208481 0.774717
0.092679 0.208833 0.831037
0.093030 0.209184 0.887277
0.093352 0.209506 0.938999
0.091243 0.264844 0.031800
0.091616 0.265217 0.091616
0.091982 0.265583 0.150328
0.092345 0.265946 0.208499
0.092706 0.266307 0.266307
0.093065 0.266666 0.323840
0.093422 0.267023 0.381152
0.093779 0.267380 0.438280
0.094134 0.267735 0.495250
0.094489 0.268090 0.552082
0.094843 0.268443 0.608791
0.095196 0.268797 0.665388
0.095548 0.269149 0.721885
0.095900 0.269501 0.778290
0.096251 0.269852 0.834610
0.096602 0.270203 0.890850
0.096925 0.270526 0.942571
0.094798 0.325573 0.035356
0.095172 0.325946 0.095172
0.095538 0.326313 0.153884
0.095901 0.326676 0.212055
0.096261 0.327036 0.269862
0.096620 0.327395 0.327395
0.096978 0.327753 0.384708
0.097334 0.328109 0.441836
0.097690 0.328465 0.498806
0.098044 0.328819 0.555638
0.098398 0.329173 0.612346
0.098751 0.329526 0.668944
0.099104 0.329879 0.725441
0.099456 0.330231 0.781846
0.099807 0.330582 0.838165
0.100158 0.330933 0.894406
0.100481 0.331256 0.946127
0.098340 0.386070 0.038898
0.098714 0.386443 0.098714
0.099080 0.386810 0.157426
0.099443 0.387173 0.215597
0.099804 0.387533 0.273404
0.100163 0.387892 0.330937
0.100520 0.388250 0.388250
0.100877 0.388606 0.445378
0.101232 0.388962 0.502348
0.101587 0.389316 0.559180
0.101940 0.389670 0.615888
0.102293 0.390023 0.672486
0.102646 0.390376 0.728983
0.102998 0.390728 0.785388
0.103349 0.391079 0.841707
0.103700 0.391430 0.897948
0.104023 0.391753 0.949669
0.101871 0.446373 0.042428
0.102244 0.446746 0.102244
0.102611 0.447112 0.160956
0.102974 0.447475 0.219128
0.103334 0.447836 0.276935
0.103693 0.448195 0.334468
0.104051 0.448552 0.391780
0.104407 0.448909 0.448909
0.104763 0.449264 0.505879
0.105117 0.449619 0.562711
0.105471 0.449973 0.619419
0.105824 0.450326 0.676017
0.106177 0.450678 0.732514
0.106529 0.451030 0.788919
0.106880 0.451381 0.845238
0.107231 0.451732 0.901479
0.107554 0.452055 0.953200
0.105392 0.506508 0.045949
0.105765 0.506882 0.105765
0.106132 0.507248 0.164477
0.106495 0.507611 0.222649
0.106855 0.507971 0.280456
0.107214 0.508330 0.337989
0.107572 0.508688 0.395301
0.107928 0.509044 0.452430
0.108284 0.509400 0.509400
0.108638 0.509754 0.566232
0.108992 0.510108 0.622940
0.109345 0.510461 0.679538
0.109698 0.510814 0.736035
0.110050 0.511166 0.792440
0.110401 0.511517 0.848759
0.110752 0.511868 0.904999
0.111074 0.512191 0.956721
0.108904 0.566498 0.049462
0.109278 0.566871 0.109278
0.109644 0.567237 0.167990
0.110007 0.567600 0.226161
0.110368 0.567961 0.283969
0.110727 0.568320 0.341501
0.111084 0.568677 0.398814
0.111441 0.569034 0.455942
0.111796 0.569389 0.512912
0.112151 0.569744 0.569744
0.112504 0.570098 0.626453
0.112858 0.570451 0.683050
0.113210 0.570803 0.739547
0.113562 0.571155 0.795952
0.113913 0.571507 0.852271
0.114264 0.571858 0.908512
0.114587 0.572180 0.960233
0.112409 0.626357 0.052967
0.112782 0.626731 0.112782
0.113149 0.627097 0.171494
0.113512 0.627460 0.229666
0.113872 0.627821 0.287473
0.114231 0.628179 0.345006
0.114589 0.628537 0.402319
0.114945 0.628893 0.459447
0.115301 0.629249 0.516417
0.115655 0.629603 0.573249
0.116009 0.629957 0.629957
0.116362 0.630310 0.686555
0.116715 0.630663 0.743052
0.117067 0.631015 0.799457
0.117418 0.631366 0.855776
0.117769 0.631717 0.912017
0.118092 0.632040 0.963738
0.115907 0.686100 0.056465
0.116280 0.686473 0.116280
0.116647 0.686839 0.174992
0.117010 0.687202 0.233164
0.117370 0.687563 0.290971
0.117729 0.687922 0.348504
0.118087 0.688280 0.405817
0.118443 0.688636 0.462945
0.118799 0.688991 0.519915
0.119153 0.689346 0.576747
0.119507 0.689700 0.633455
0.119860 0.690053 0.690053
0.120213 0.690405 0.746550
0.120565 0.690757 0.802955
0.120916 0.691109 0.859274
0.121267 0.691460 0.915515
0.121590 0.691782 0.967236
0.119399 0.745736 0.059956
0.119772 0.746109 0.119772
0.120138 0.746476 0.178484
0.120501 0.746839 0.236655
0.120862 0.747199 0.294463
0.121221 0.747558 0.351996
0.121579 0.747916 0.409308
0.121935 0.748272 0.466436
0.122290 0.748628 0.523407
0.122645 0.748982 0.580238
0.122999 0.749336 0.636947
0.123352 0.749689 0.693545
0.123704 0.750042 0.750042
0.124056 0.750394 0.806446
0.124408 0.750745 0.862766
0.124759 0.751096 0.919006
0.125081 0.751419 0.970727
0.122885 0.805275 0.063442
0.123258 0.805648 0.123258
0.123624 0.806015 0.181970
0.123987 0.806377 0.240141
0.124348 0.806738 0.297949
0.124707 0.807097 0.355482
0.125065 0.807455 0.412794
0.125421 0.807811 0.469922
0.125776 0.808167 0.526893
0.126131 0.808521 0.583724
0.126485 0.808875 0.640433
0.126838 0.809228 0.697031
0.127190 0.809581 0.753528
0.127542 0.809932 0.809932
0.127894 0.810284 0.866252
0.128245 0.810635 0.922492
0.128567 0.810957 0.974213
0.126366 0.864724 0.066923
0.126739 0.865097 0.126739
0.127105 0.865463 0.185451
0.127468 0.865826 0.243622
0.127829 0.866187 0.301430
0.128188 0.866546 0.358963
0.128545 0.866903 0.416275
0.128902 0.867260 0.473403
0.129257 0.867615 0.530373
0.129612 0.867970 0.587205
0.129966 0.868324 0.643914
0.130319 0.868677 0.700511
0.130671 0.869029 0.757008
0.131023 0.869381 0.813413
0.131374 0.869733 0.869733
0.131725 0.870084 0.925973
0.132048 0.870406 0.977694
0.129841 0.924089 0.070399
0.130215 0.924462 0.130215
0.130581 0.924829 0.188927
0.130944 0.925192 0.247098
0.131305 0.925552 0.304905
0.131664 0.925911 0.362438
0.132021 0.926269 0.419751
0.132378 0.926625 0.476879
0.132733 0.926981 0.533849
0.133088 0.927335 0.590681
0.133441 0.927689 0.647389
0.133794 0.928042 0.703987
0.134147 0.928395 0.760484
0.134499 0.928747 0.816889
0.134850 0.929098 0.873208
0.135201 0.929449 0.929449
0.135524 0.929772 0.981170
0.133038 0.978684 0.073595
0.133411 0.979057 0.133411
0.133778 0.979424 0.192123
0.134140 0.979787 0.250295
0.134501 0.980147 0.308102
0.134860 0.980506 0.365635
0.135218 0.980864 0.422947
0.135574 0.981220 0.480076
0.135930 0.981576 0.537046
0.136284 0.981930 0.593877
0.136638 0.982284 0.650586
0.136991 0.982637 0.707184
0.137344 0.982990 0.763681
0.137695 0.983342 0.820086
0.138047 0.983693 0.876405
0.138398 0.984044 0.932645
0.138720 0.984367 0.984367
0.136174 0.018385 0.018385
0.136547 0.018758 0.078201
0.136913 0.019125 0.136913
0.137276 0.019488 0.195085
0.137637 0.019848 0.252892
0.137996 0.020207 0.310425
0.138353 0.020565 0.367737
0.138710 0.020921 0.424866
0.139065 0.021277 0.481836
0.139420 0.021631 0.538667
0.139774 0.021985 0.595376
0.140127 0.022338 0.651974
0.140479 0.022691 0.708471
0.140831 0.023043 0.764876
0.141182 0.023394 0.821195
0.141533 0.023745 0.877435
0.141856 0.024068 0.929157
0.139870 0.081525 0.022082
0.140244 0.081898 0.081898
0.140610 0.082264 0.140610
0.140973 0.082627 0.198781
0.141334 0.082988 0.256589
0.141693 0.083347 0.314122
0.142050 0.083704 0.371434
0.142407 0.084061 0.428562
0.142762 0.084416 0.485533
0.143117 0.084771 0.542364
0.143470 0.085125 0.599073
0.143824 0.085478 0.655671
0.144176 0.085830 0.712168
0.144528 0.086182 0.768572
0.144879 0.086534 0.824892
0.145230 0.086884 0.881132
0.145553 0.087207 0.932853
0.143499 0.143499 0.025711
0.143872 0.143872 0.085527
0.144239 0.144239 0.144239
0.144602 0.144602 0.202410
0.144962 0.144962 0.260217
0.145321 0.145321 0.317750
0.145679 0.145679 0.375063
0.146035 0.146035 0.432191
0.146391 0.146391 0.489161
0.146745 0.146745 0.545993
0.147099 0.147099 0.602701
0.147452 0.147452 0.659299
0.147805 0.147805 0.715796
0.148157 0.148157 0.772201
0.148508 0.148508 0.828520
0.148859 0.148859 0.884761
0.149181 0.149181 0.936482
0.147094 0.204903 0.029306
0.147467 0.205276 0.089122
0.147834 0.205642 0.147834
0.148197 0.206005 0.206005
0.148557 0.206366 0.263813
0.148916 0.206725 0.321345
0.149274 0.207082 0.378658
0.149630 0.207439 0.435786
0.149986 0.207794 0.492756
0.150340 0.208149 0.549588
0.150694 0.208503 0.606297
0.151047 0.208856 0.662894
0.151400 0.209208 0.719391
0.151752 0.209560 0.775796
0.152103 0.209911 0.832116
0.152454 0.210262 0.888356
0.152777 0.210585 0.940077
0.150667 0.265922 0.032879
0.151040 0.266295 0.092694
0.151406 0.266662 0.151406
0.151769 0.267025 0.209578
0.152130 0.267385 0.267385
0.152489 0.267744 0.324918
0.152847 0.268102 0.382231
0.153203 0.268458 0.439359
0.153558 0.268814 0.496329
0.153913 0.269168 0.553161
0.154267 0.269522 0.609869
0.154620 0.269875 0.666467
0.154972 0.270228 0.722964
0.155324 0.270580 0.779369
0.155676 0.270931 0.835688
0.156027 0.271282 0.891929
0.156349 0.271605 0.943650
0.154223 0.326652 0.036434
0.154596 0.327025 0.096250
0.154962 0.327391 0.154962
0.155325 0.327754 0.213134
0.155686 0.328115 0.270941
0.156045 0.328474 0.328474
0.156402 0.328831 0.385786
0.156759 0.329188 0.442915
0.157114 0.329543 0.499885
0.157469 0.329898 0.556716
0.157823 0.330252 0.613425
0.158176 0.330605 0.670023
0.158528 0.330957 0.726520
0.158880 0.331309 0.782925
0.159231 0.331661 0.839244
0.159582 0.332012 0.895484
0.159905 0.332334 0.947206
0.157765 0.387149 0.039976
0.158138 0.387522 0.099792
0.158504 0.387888 0.158504
0.158867 0.388251 0.216676
0.159228 0.388612 0.274483
0.159587 0.388971 0.332016
0.159944 0.389328 0.389328
0.160301 0.389685 0.446457
0.160656 0.390040 0.503427
0.161011 0.390395 0.560259
0.161365 0.390749 0.616967
0.161718 0.391102 0.673565
0.162070 0.391454 0.730062
0.162422 0.391806 0.786467
0.162774 0.392158 0.842786
0.163124 0.392508 0.899026
0.163447 0.392831 0.950748
0.161295 0.447451 0.043507
0.161669 0.447824 0.103323
0.162035 0.448191 0.162035
0.162398 0.448554 0.220206
0.162759 0.448914 0.278014
0.163118 0.449273 0.335547
0.163475 0.449631 0.392859
0.163832 0.449987 0.449987
0.164187 0.450343 0.506958
0.164542 0.450697 0.563789
0.164895 0.451051 0.620498
0.165249 0.451404 0.677096
0.165601 0.451757 0.733593
0.165953 0.452109 0.789997
0.166304 0.452460 0.846317
0.166655 0.452811 0.902557
0.166978 0.453134 0.954278
0.164816 0.507587 0.047028
0.165190 0.507960 0.106844
0.165556 0.508326 0.165556
0.165919 0.508689 0.223727
0.166280 0.509050 0.281535
0.166638 0.509409 0.339068
0.166996 0.509767 0.396380
0.167352 0.510123 0.453508
0.167708 0.510478 0.510478
0.168063 0.510833 0.567310
0.168416 0.511187 0.624019
0.168769 0.511540 0.680617
0.169122 0.511892 0.737114
0.169474 0.512244 0.793518
0.169825 0.512596 0.849838
0.170176 0.512947 0.906078
0.170499 0.513269 0.957799
0.168329 0.567576 0.050540
0.168702 0.567950 0.110356
0.169068 0.568316 0.169068
0.169431 0.568679 0.227240
0.169792 0.569040 0.285047
0.170151 0.569399 0.342580
0.170508 0.569756 0.399892
0.170865 0.570113 0.457021
0.171220 0.570468 0.513991
0.171575 0.570823 0.570823
0.171929 0.571176 0.627531
0.172282 0.571529 0.684129
0.172634 0.571882 0.740626
0.172986 0.572234 0.797031
0.173338 0.572585 0.853350
0.173689 0.572936 0.909590
0.174011 0.573259 0.961312
0.171834 0.627436 0.054045
0.172207 0.627809 0.113861
0.172573 0.628176 0.172573
0.172936 0.628538 0.230744
0.173297 0.628899 0.288552
0.173656 0.629258 0.346085
0.174013 0.629616 0.403397
0.174370 0.629972 0.460525
0.174725 0.630328 0.517496
0.175080 0.630682 0.574327
0.175433 0.631036 0.631036
0.175787 0.631389 0.687634
0.176139 0.631742 0.744131
0.176491 0.632093 0.800535
0.176842 0.632445 0.856855
0.177193 0.632796 0.913095
0.177516 0.633118 0.964816
0.175332 0.687179 0.057543
0.175705 0.687552 0.117359
0.176071 0.687918 0.176071
0.176434 0.688281 0.234242
0.176795 0.688642 0.292050
0.177154 0.689001 0.349583
0.177511 0.689358 0.406895
0.177868 0.689715 0.464023
0.178223 0.690070 0.520994
0.178578 0.690425 0.577825
0.178931 0.690779 0.634534
0.179285 0.691132 0.691132
0.179637 0.691484 0.747629
0.179989 0.691836 0.804033
0.180340 0.692187 0.860353
0.180691 0.692538 0.916593
0.181014 0.692861 0.968314
0.178823 0.746815 0.061035
0.179196 0.747188 0.120851
0.179563 0.747554 0.179563
0.179926 0.747917 0.237734
0.180286 0.748278 0.295542
0.180645 0.748637 0.353074
0.181003 0.748994 0.410387
0.181359 0.749351 0.467515
0.181715 0.749706 0.524485
0.182069 0.750061 0.581317
0.182423 0.750415 0.638026
0.182776 0.750768 0.694623
0.183129 0.751120 0.751120
0.183481 0.751472 0.807525
0.183832 0.751824 0.863845
0.184183 0.752175 0.920085
0.184506 0.752497 0.971806
0.182309 0.806354 0.064521
0.182682 0.806727 0.124337
0.183049 0.807093 0.183049
0.183412 0.807456 0.241220
0.183772 0.807817 0.299028
0.184131 0.808176 0.356560
0.184489 0.808533 0.413873
0.184845 0.808890 0.471001
0.185201 0.809245 0.527971
0.185555 0.809600 0.584803
0.185909 0.809954 0.641512
0.186262 0.810307 0.698109
0.186615 0.810659 0.754606
0.186967 0.811011 0.811011
0.187318 0.811362 0.867331
0.187669 0.811713 0.923571
0.187992 0.812036 0.975292
0.185790 0.865802 0.068002
0.186163 0.866176 0.127817
0.186529 0.866542 0.186529
0.186892 0.866905 0.244701
0.187253 0.867266 0.302508
0.187612 0.867625 0.360041
0.187970 0.867982 0.417354
0.188326 0.868339 0.474482
0.188681 0.868694 0.531452
0.189036 0.869049 0.588284
0.189390 0.869402 0.644992
0.189743 0.869755 0.701590
0.190095 0.870108 0.758087
0.190447 0.870460 0.814492
0.190799 0.870811 0.870811
0.191150 0.871162 0.927052
0.191472 0.871485 0.978773
0.189266 0.925168 0.071477
0.189639 0.925541 0.131293
0.190005 0.925907 0.190005
0.190368 0.926270 0.248177
0.190729 0.926631 0.305984
0.191088 0.926990 0.363517
0.191445 0.927347 0.420829
0.191802 0.927704 0.477958
0.192157 0.928059 0.534928
0.192512 0.928414 0.591760
0.192866 0.928768 0.648468
0.193219 0.929121 0.705066
0.193571 0.929473 0.761563
0.193923 0.929825 0.817968
0.194275 0.930177 0.874287
0.194625 0.930527 0.930527
0.194948 0.930850 0.982249
0.192462 0.979763 0.074674
0.192836 0.980136 0.134490
0.193202 0.980502 0.193202
0.193565 0.980865 0.251373
0.193925 0.981226 0.309181
0.194284 0.981585 0.366714
0.194642 0.981942 0.424026
0.194998 0.982299 0.481154
0.195354 0.982654 0.538124
0.195708 0.983009 0.594956
0.196062 0.983363 0.651665
0.196415 0.983716 0.708262
0.196768 0.984068 0.764759
0.197120 0.984420 0.821164
0.197471 0.984772 0.877484
0.197822 0.985123 0.933724
0.198145 0.985445 0.985445
0.195051 0.019454 0.019454
0.195424 0.019827 0.079270
0.195790 0.020193 0.137982
0.196153 0.020556 0.196153
0.196514 0.020917 0.253961
0.196873 0.021276 0.311494
0.197230 0.021634 0.368806
0.197587 0.021990 0.425934
0.197942 0.022346 0.482904
0.198297 0.022700 0.539736
0.198651 0.023054 0.596445
0.199004 0.023407 0.653042
0.199356 0.023759 0.709540
0.199708 0.024111 0.765944
0.200060 0.024463 0.822264
0.200410 0.024814 0.878504
0.200733 0.025136 0.930225
0.198748 0.082594 0.023151
