skills/creativeops-director/assets/grade/luts/soft_pastel_v18.cube
TITLE "soft_pastel_v18"
LUT_3D_SIZE 5
DOMAIN_MIN 0.0 0.0 0.0
DOMAIN_MAX 1.0 1.0 1.0
0.084872 0.077419 0.069913
0.088184 0.080731 0.272203
0.091330 0.083877 0.464296
0.094395 0.086942 0.651507
0.097408 0.089954 0.835476
0.117581 0.308479 0.102622
0.120893 0.311792 0.304912
0.124039 0.314937 0.497005
0.127104 0.318003 0.684216
0.130117 0.321015 0.868185
0.148703 0.528328 0.133743
0.152015 0.531641 0.336034
0.155160 0.534786 0.528126
0.158226 0.537852 0.715338
0.161238 0.540864 0.899307
0.179047 0.742683 0.164087
0.182359 0.745996 0.366378
0.185505 0.749141 0.558471
0.188570 0.752207 0.745682
0.191583 0.755219 0.929651
0.208536 0.950996 0.193576
0.211848 0.954309 0.395867
0.214993 0.957454 0.587959
0.218059 0.960520 0.775170
0.221071 0.963532 0.959139
0.292334 0.087113 0.079607
0.295646 0.090426 0.281898
0.298791 0.093571 0.473990
0.301857 0.096636 0.661201
0.304869 0.099649 0.845170
0.325042 0.318174 0.112316
0.328355 0.321486 0.314606
0.331500 0.324631 0.506699
0.334566 0.327697 0.693910
0.337578 0.330709 0.877879
0.356164 0.538023 0.143438
0.359477 0.541335 0.345728
0.362622 0.544480 0.537821
0.365688 0.547546 0.725032
0.368700 0.550558 0.909001
0.386508 0.752378 0.173782
0.389821 0.755690 0.376072
0.392966 0.758836 0.568165
0.396032 0.761901 0.755376
0.399044 0.764914 0.939345
0.415997 0.960691 0.203271
0.419309 0.964003 0.405561
0.422455 0.967149 0.597654
0.425520 0.970214 0.784865
0.428533 0.973226 0.968834
0.490086 0.096354 0.088848
0.493399 0.099666 0.291138
0.496544 0.102812 0.483231
0.499610 0.105877 0.670442
0.502622 0.108890 0.854411
0.522795 0.327414 0.121557
0.526108 0.330727 0.323847
0.529253 0.333872 0.515940
0.532319 0.336938 0.703151
0.535331 0.339950 0.887120
0.553917 0.547263 0.152678
0.557229 0.550576 0.354969
0.560375 0.553721 0.547061
0.563440 0.556787 0.734273
0.566453 0.559799 0.918242
0.584261 0.761619 0.183023
0.587574 0.764931 0.385313
0.590719 0.768076 0.577406
0.593784 0.771142 0.764617
0.596797 0.774154 0.948586
0.613750 0.969931 0.212511
0.617062 0.973244 0.414802
0.620208 0.976389 0.606894
0.623273 0.979455 0.794105
0.626286 0.982467 0.978075
0.682978 0.105367 0.097861
0.686291 0.108680 0.300152
0.689436 0.111825 0.492244
0.692502 0.114891 0.679455
0.695514 0.117903 0.863425
0.715687 0.336428 0.130570
0.719000 0.339740 0.332861
0.722145 0.342886 0.524953
0.725211 0.345951 0.712164
0.728223 0.348964 0.896134
0.746809 0.556277 0.161692
0.750122 0.559589 0.363983
0.753267 0.562735 0.556075
0.756333 0.565800 0.743286
0.759345 0.568813 0.927255
0.777153 0.770632 0.192036
0.780466 0.773945 0.394327
0.783611 0.777090 0.586419
0.786677 0.780155 0.773630
0.789689 0.783168 0.957599
0.806642 0.978945 0.221525
0.809954 0.982257 0.423815
0.813100 0.985403 0.615908
0.816165 0.988468 0.803119
0.819178 0.991481 0.987088
0.863728 0.113814 0.106307
0.867040 0.117126 0.308598
0.870185 0.120271 0.500691
0.873251 0.123337 0.687902
0.876263 0.126349 0.871871
0.896436 0.344874 0.139016
0.899749 0.348186 0.341307
0.902894 0.351332 0.533399
0.905960 0.354397 0.720611
0.908972 0.357410 0.904580
0.927558 0.564723 0.170138
0.930871 0.568035 0.372429
0.934016 0.571181 0.564521
0.937082 0.574246 0.751732
0.940094 0.577259 0.935701
0.957902 0.779078 0.200482
0.961215 0.782391 0.402773
0.964360 0.785536 0.594865
0.967426 0.788602 0.782076
0.970438 0.791614 0.966046
0.987391 0.987391 0.229971
0.990704 0.990704 0.432262
0.993849 0.993849 0.624354
0.996914 0.996914 0.811565
0.999927 0.999927 0.995534
