skills/creativeops-director/assets/grade/luts/soft_pastel_v09.cube
TITLE "soft_pastel_v09"
LUT_3D_SIZE 9
DOMAIN_MIN 0.0 0.0 0.0
DOMAIN_MAX 1.0 1.0 1.0
0.048361 0.044537 0.040697
0.049558 0.045733 0.152323
0.050717 0.046892 0.260385
0.051857 0.048032 0.366665
0.052983 0.049159 0.471744
0.054100 0.050275 0.575917
0.055210 0.051385 0.679363
0.056312 0.052487 0.782202
0.057408 0.053583 0.884403
0.060197 0.166602 0.052532
0.061393 0.167799 0.164158
0.062552 0.168958 0.272220
0.063692 0.170097 0.378500
0.064818 0.171224 0.483579
0.065935 0.172341 0.587752
0.067045 0.173450 0.691198
0.068147 0.174553 0.794037
0.069243 0.175649 0.896239
0.071666 0.284900 0.064002
0.072863 0.286097 0.175628
0.074022 0.287256 0.283690
0.075162 0.288395 0.389970
0.076288 0.289522 0.495049
0.077405 0.290639 0.599222
0.078514 0.291748 0.702668
0.079617 0.292851 0.805507
0.080713 0.293947 0.907708
0.082950 0.401277 0.075286
0.084147 0.402474 0.186911
0.085306 0.403633 0.294974
0.086445 0.404773 0.401254
0.087572 0.405899 0.506333
0.088689 0.407016 0.610506
0.089798 0.408126 0.713951
0.090901 0.409228 0.816791
0.091997 0.410324 0.918992
0.094107 0.516353 0.086443
0.095304 0.517550 0.198069
0.096463 0.518709 0.306131
0.097602 0.519848 0.412411
0.098729 0.520975 0.517490
0.099846 0.522092 0.621663
0.100955 0.523201 0.725109
0.102058 0.524304 0.827948
0.103154 0.525400 0.930149
0.105169 0.630444 0.097505
0.106366 0.631641 0.209131
0.107525 0.632799 0.317193
0.108664 0.633939 0.423473
0.109791 0.635066 0.528552
0.110908 0.636183 0.632725
0.112017 0.637292 0.736171
0.113120 0.638395 0.839010
0.114216 0.639491 0.941211
0.116154 0.743744 0.108490
0.117351 0.744941 0.220116
0.118510 0.746099 0.328178
0.119650 0.747239 0.434458
0.120776 0.748366 0.539537
0.121893 0.749483 0.643710
0.123002 0.750592 0.747156
0.124105 0.751695 0.849995
0.125201 0.752790 0.952196
0.127075 0.856383 0.119411
0.128272 0.857580 0.231037
0.129431 0.858739 0.339099
0.130571 0.859878 0.445379
0.131697 0.861005 0.550458
0.132814 0.862122 0.654631
0.133924 0.863231 0.758077
0.135026 0.864334 0.860916
0.136122 0.865430 0.963117
0.137564 0.964559 0.129899
0.138761 0.965756 0.241525
0.139919 0.966915 0.349587
0.141059 0.968054 0.455868
0.142186 0.969181 0.560947
0.143303 0.970298 0.665119
0.144412 0.971407 0.768565
0.145515 0.972510 0.871405
0.146610 0.973606 0.973606
0.161917 0.048049 0.044209
0.163114 0.049246 0.155835
0.164272 0.050404 0.263897
0.165412 0.051544 0.370178
0.166539 0.052671 0.475256
0.167656 0.053788 0.579429
0.168765 0.054897 0.682875
0.169868 0.056000 0.785714
0.170963 0.057095 0.887916
0.173752 0.170114 0.056044
0.174949 0.171311 0.167670
0.176107 0.172470 0.275732
0.177247 0.173609 0.382013
0.178374 0.174736 0.487092
0.179491 0.175853 0.591264
0.180600 0.176962 0.694710
0.181703 0.178065 0.797550
0.182799 0.179161 0.899751
0.185222 0.288412 0.067514
0.186419 0.289609 0.179140
0.187577 0.290768 0.287202
0.188717 0.291907 0.393482
0.189844 0.293034 0.498561
0.190961 0.294151 0.602734
0.192070 0.295260 0.706180
0.193172 0.296363 0.809019
0.194268 0.297459 0.911220
0.196505 0.404790 0.078798
0.197702 0.405986 0.190424
0.198861 0.407145 0.298486
0.200000 0.408285 0.404766
0.201127 0.409411 0.509845
0.202244 0.410528 0.614018
0.203353 0.411638 0.717463
0.204456 0.412740 0.820303
0.205552 0.413836 0.922504
0.207663 0.519865 0.089955
0.208859 0.521062 0.201581
0.210018 0.522221 0.309643
0.211158 0.523360 0.415923
0.212284 0.524487 0.521002
0.213401 0.525604 0.625175
0.214511 0.526713 0.728621
0.215613 0.527816 0.831460
0.216709 0.528912 0.933661
0.218724 0.633956 0.101017
0.219921 0.635153 0.212643
0.221080 0.636312 0.320705
0.222220 0.637451 0.426985
0.223346 0.638578 0.532064
0.224463 0.639695 0.636237
0.225573 0.640804 0.739683
0.226675 0.641907 0.842522
0.227771 0.643003 0.944723
0.229710 0.747256 0.112002
0.230907 0.748453 0.223628
0.232065 0.749611 0.331690
0.233205 0.750751 0.437970
0.234332 0.751878 0.543049
0.235449 0.752995 0.647222
0.236558 0.754104 0.750668
0.237660 0.755207 0.853507
0.238756 0.756303 0.955708
0.240631 0.859895 0.122923
0.241828 0.861092 0.234549
0.242986 0.862251 0.342611
0.244126 0.863390 0.448891
0.245253 0.864517 0.553970
0.246370 0.865634 0.658143
0.247479 0.866743 0.761589
0.248582 0.867846 0.864428
0.249677 0.868942 0.966630
0.251119 0.968071 0.133412
0.252316 0.969268 0.245037
0.253475 0.970427 0.353100
0.254614 0.971566 0.459380
0.255741 0.972693 0.564459
0.256858 0.973810 0.668632
0.257967 0.974919 0.772077
0.259070 0.976022 0.874917
0.260166 0.977118 0.977118
0.272078 0.051456 0.047616
0.273275 0.052653 0.159242
0.274434 0.053811 0.267304
0.275573 0.054951 0.373585
0.276700 0.056078 0.478664
0.277817 0.057195 0.582836
0.278926 0.058304 0.686282
0.280029 0.059407 0.789122
0.281125 0.060503 0.891323
0.283913 0.173521 0.059451
0.285110 0.174718 0.171077
0.286269 0.175877 0.279139
0.287409 0.177017 0.385420
0.288535 0.178143 0.490499
0.289652 0.179260 0.594671
0.290761 0.180370 0.698117
0.291864 0.181472 0.800957
0.292960 0.182568 0.903158
0.295383 0.291819 0.070921
0.296580 0.293016 0.182547
0.297739 0.294175 0.290609
0.298878 0.295315 0.396890
0.300005 0.296441 0.501968
0.301122 0.297558 0.606141
0.302231 0.298667 0.709587
0.303334 0.299770 0.812426
0.304430 0.300866 0.914628
0.306667 0.408197 0.082205
0.307864 0.409394 0.193831
0.309022 0.410552 0.301893
0.310162 0.411692 0.408173
0.311289 0.412819 0.513252
0.312406 0.413936 0.617425
0.313515 0.415045 0.720871
0.314617 0.416147 0.823710
0.315713 0.417243 0.925911
0.317824 0.523272 0.093362
0.319021 0.524469 0.204988
0.320180 0.525628 0.313050
0.321319 0.526767 0.419330
0.322446 0.527894 0.524409
0.323563 0.529011 0.628582
0.324672 0.530120 0.732028
0.325775 0.531223 0.834867
0.326871 0.532319 0.937068
0.328886 0.637363 0.104424
0.330083 0.638560 0.216050
0.331242 0.639719 0.324112
0.332381 0.640858 0.430392
0.333508 0.641985 0.535471
0.334625 0.643102 0.639644
0.335734 0.644211 0.743090
0.336837 0.645314 0.845929
0.337933 0.646410 0.948130
0.339871 0.750663 0.115409
0.341068 0.751860 0.227035
0.342227 0.753019 0.335097
0.343366 0.754158 0.441377
0.344493 0.755285 0.546456
0.345610 0.756402 0.650629
0.346719 0.757511 0.754075
0.347822 0.758614 0.856914
0.348918 0.759710 0.959116
0.350792 0.863302 0.126330
0.351989 0.864499 0.237956
0.353148 0.865658 0.346018
0.354287 0.866797 0.452299
0.355414 0.867924 0.557378
0.356531 0.869041 0.661550
0.357640 0.870150 0.764996
0.358743 0.871253 0.867836
0.359839 0.872349 0.970037
0.361281 0.971478 0.136819
0.362478 0.972675 0.248445
0.363636 0.973834 0.356507
0.364776 0.974974 0.462787
0.365903 0.976100 0.567866
0.367020 0.977217 0.672039
0.368129 0.978327 0.775485
0.369231 0.979429 0.878324
0.370327 0.980525 0.980525
0.380478 0.054809 0.050969
0.381675 0.056005 0.162595
0.382834 0.057164 0.270657
0.383974 0.058304 0.376937
0.385100 0.059430 0.482016
0.386217 0.060547 0.586189
0.387326 0.061657 0.689635
0.388429 0.062759 0.792474
0.389525 0.063855 0.894675
0.392313 0.176874 0.062804
0.393510 0.178071 0.174430
0.394669 0.179230 0.282492
0.395809 0.180369 0.388772
0.396935 0.181496 0.493851
0.398052 0.182613 0.598024
0.399162 0.183722 0.701470
0.400264 0.184825 0.804309
0.401360 0.185921 0.906510
0.403783 0.295172 0.074274
0.404980 0.296369 0.185900
0.406139 0.297528 0.293962
0.407278 0.298667 0.400242
0.408405 0.299794 0.505321
0.409522 0.300911 0.609494
0.410631 0.302020 0.712940
0.411734 0.303123 0.815779
0.412830 0.304219 0.917980
0.415067 0.411549 0.085557
0.416264 0.412746 0.197183
0.417422 0.413905 0.305245
0.418562 0.415045 0.411526
0.419689 0.416171 0.516605
0.420806 0.417288 0.620777
0.421915 0.418397 0.724223
0.423018 0.419500 0.827063
0.424113 0.420596 0.929264
0.426224 0.526625 0.096715
0.427421 0.527822 0.208341
0.428580 0.528980 0.316403
0.429719 0.530120 0.422683
0.430846 0.531247 0.527762
0.431963 0.532364 0.631935
0.433072 0.533473 0.735381
0.434175 0.534576 0.838220
0.435271 0.535672 0.940421
0.437286 0.640716 0.107777
0.438483 0.641913 0.219403
0.439642 0.643071 0.327465
0.440781 0.644211 0.433745
0.441908 0.645338 0.538824
0.443025 0.646455 0.642997
0.444134 0.647564 0.746442
0.445237 0.648667 0.849282
0.446333 0.649762 0.951483
0.448271 0.754016 0.118762
0.449468 0.755213 0.230388
0.450627 0.756371 0.338450
0.451766 0.757511 0.444730
0.452893 0.758638 0.549809
0.454010 0.759755 0.653982
0.455119 0.760864 0.757428
0.456222 0.761966 0.860267
0.457318 0.763062 0.962468
0.459192 0.866655 0.129683
0.460389 0.867852 0.241309
0.461548 0.869011 0.349371
0.462688 0.870150 0.455651
0.463814 0.871277 0.560730
0.464931 0.872394 0.664903
0.466040 0.873503 0.768349
0.467143 0.874606 0.871188
0.468239 0.875702 0.973389
0.469681 0.974831 0.140171
0.470878 0.976028 0.251797
0.472036 0.977187 0.359859
0.473176 0.978326 0.466140
0.474303 0.979453 0.571219
0.475420 0.980570 0.675391
0.476529 0.981679 0.778837
0.477632 0.982782 0.881677
0.478727 0.983878 0.983878
0.487678 0.058124 0.054285
0.488875 0.059321 0.165910
0.490034 0.060480 0.273973
0.491174 0.061619 0.380253
0.492300 0.062746 0.485332
0.493417 0.063863 0.589505
0.494526 0.064972 0.692950
0.495629 0.066075 0.795790
0.496725 0.067171 0.897991
0.499513 0.180190 0.066120
0.500710 0.181387 0.177746
0.501869 0.182545 0.285808
0.503009 0.183685 0.392088
0.504135 0.184812 0.497167
0.505252 0.185929 0.601340
0.506362 0.187038 0.704785
0.507464 0.188140 0.807625
0.508560 0.189236 0.909826
0.510983 0.298488 0.077589
0.512180 0.299684 0.189215
0.513339 0.300843 0.297277
0.514478 0.301983 0.403558
0.515605 0.303109 0.508637
0.516722 0.304226 0.612809
0.517831 0.305336 0.716255
0.518934 0.306438 0.819095
0.520030 0.307534 0.921296
0.522267 0.414865 0.088873
0.523464 0.416062 0.200499
0.524622 0.417220 0.308561
0.525762 0.418360 0.414841
0.526889 0.419487 0.519920
0.528006 0.420604 0.624093
0.529115 0.421713 0.727539
0.530218 0.422816 0.830378
0.531313 0.423912 0.932579
0.533424 0.529940 0.100030
0.534621 0.531137 0.211656
0.535780 0.532296 0.319718
0.536919 0.533436 0.425999
0.538046 0.534562 0.531078
0.539163 0.535679 0.635250
0.540272 0.536789 0.738696
0.541375 0.537891 0.841536
0.542471 0.538987 0.943737
0.544486 0.644031 0.111092
0.545683 0.645228 0.222718
0.546842 0.646387 0.330780
0.547981 0.647527 0.437061
0.549108 0.648653 0.542139
0.550225 0.649770 0.646312
0.551334 0.650879 0.749758
0.552437 0.651982 0.852597
0.553533 0.653078 0.954799
0.555471 0.757331 0.122077
0.556668 0.758528 0.233703
0.557827 0.759687 0.341765
0.558966 0.760826 0.448046
0.560093 0.761953 0.553125
0.561210 0.763070 0.657297
0.562319 0.764179 0.760743
0.563422 0.765282 0.863583
0.564518 0.766378 0.965784
0.566392 0.869970 0.132999
0.567589 0.871167 0.244624
0.568748 0.872326 0.352687
0.569888 0.873466 0.458967
0.571014 0.874592 0.564046
0.572131 0.875709 0.668219
0.573240 0.876819 0.771664
0.574343 0.877921 0.874504
0.575439 0.879017 0.976705
0.576881 0.978147 0.143487
0.578078 0.979344 0.255113
0.579236 0.980502 0.363175
0.580376 0.981642 0.469455
0.581503 0.982769 0.574534
0.582620 0.983886 0.678707
0.583729 0.984995 0.782153
0.584832 0.986097 0.884992
0.585927 0.987193 0.987193
0.593968 0.061411 0.057572
0.595165 0.062608 0.169198
0.596324 0.063767 0.277260
0.597464 0.064907 0.383540
0.598590 0.066033 0.488619
0.599707 0.067150 0.592792
0.600816 0.068260 0.696238
0.601919 0.069362 0.799077
0.603015 0.070458 0.901278
0.605803 0.183477 0.069407
0.607000 0.184674 0.181033
0.608159 0.185833 0.289095
0.609299 0.186972 0.395375
0.610425 0.188099 0.500454
0.611542 0.189216 0.604627
0.612652 0.190325 0.708073
0.613754 0.191428 0.810912
0.614850 0.192524 0.913113
0.617273 0.301775 0.080877
0.618470 0.302972 0.192503
0.619629 0.304131 0.300565
0.620768 0.305270 0.406845
0.621895 0.306397 0.511924
0.623012 0.307514 0.616097
0.624121 0.308623 0.719543
0.625224 0.309726 0.822382
0.626320 0.310822 0.924583
0.628557 0.418152 0.092160
0.629754 0.419349 0.203786
0.630912 0.420508 0.311848
0.632052 0.421647 0.418129
0.633179 0.422774 0.523208
0.634296 0.423891 0.627380
0.635405 0.425000 0.730826
0.636508 0.426103 0.833666
0.637603 0.427199 0.935867
0.639714 0.533228 0.103318
0.640911 0.534425 0.214944
0.642070 0.535583 0.323006
0.643209 0.536723 0.429286
0.644336 0.537850 0.534365
0.645453 0.538967 0.638538
0.646562 0.540076 0.741984
0.647665 0.541179 0.844823
0.648761 0.542274 0.947024
0.650776 0.647319 0.114380
0.651973 0.648516 0.226006
0.653132 0.649674 0.334068
0.654271 0.650814 0.440348
0.655398 0.651941 0.545427
0.656515 0.653058 0.649600
0.657624 0.654167 0.753045
0.658727 0.655270 0.855885
0.659823 0.656365 0.958086
0.661761 0.760619 0.125365
0.662958 0.761816 0.236991
0.664117 0.762974 0.345053
0.665256 0.764114 0.451333
0.666383 0.765241 0.556412
0.667500 0.766358 0.660585
0.668609 0.767467 0.764031
0.669712 0.768569 0.866870
0.670808 0.769665 0.969071
0.672682 0.873258 0.136286
0.673879 0.874455 0.247912
0.675038 0.875613 0.355974
0.676177 0.876753 0.462254
0.677304 0.877880 0.567333
0.678421 0.878997 0.671506
0.679530 0.880106 0.774952
0.680633 0.881209 0.877791
0.681729 0.882305 0.979992
0.683171 0.981434 0.146774
0.684368 0.982631 0.258400
0.685526 0.983790 0.366462
0.686666 0.984929 0.472743
0.687793 0.986056 0.577822
0.688910 0.987173 0.681994
0.690019 0.988282 0.785440
0.691121 0.989385 0.888280
0.692217 0.990481 0.990481
0.699526 0.064676 0.060837
0.700723 0.065873 0.172463
0.701882 0.067032 0.280525
0.703021 0.068171 0.386805
0.704148 0.069298 0.491884
0.705265 0.070415 0.596057
0.706374 0.071524 0.699503
0.707477 0.072627 0.802342
0.708573 0.073723 0.904543
0.711361 0.186742 0.072672
0.712558 0.187939 0.184298
0.713717 0.189097 0.292360
0.714856 0.190237 0.398640
0.715983 0.191364 0.503719
0.717100 0.192481 0.607892
0.718209 0.193590 0.711338
0.719312 0.194693 0.814177
0.720408 0.195788 0.916378
0.722831 0.305040 0.084142
0.724028 0.306237 0.195767
0.725186 0.307395 0.303830
0.726326 0.308535 0.410110
0.727453 0.309662 0.515189
0.728570 0.310779 0.619362
0.729679 0.311888 0.722807
0.730782 0.312990 0.825647
0.731878 0.314086 0.927848
0.734114 0.421417 0.095425
0.735311 0.422614 0.207051
0.736470 0.423773 0.315113
0.737610 0.424912 0.421393
0.738736 0.426039 0.526472
0.739853 0.427156 0.630645
0.740963 0.428265 0.734091
0.742065 0.429368 0.836930
0.743161 0.430464 0.939132
0.745272 0.536493 0.106582
0.746469 0.537689 0.218208
0.747627 0.538848 0.326270
0.748767 0.539988 0.432551
0.749894 0.541114 0.537630
0.751011 0.542231 0.641802
0.752120 0.543341 0.745248
0.753223 0.544443 0.848088
0.754318 0.545539 0.950289
0.756334 0.650583 0.117644
0.757531 0.651780 0.229270
0.758689 0.652939 0.337332
0.759829 0.654079 0.443613
0.760956 0.655205 0.548692
0.762073 0.656322 0.652864
0.763182 0.657432 0.756310
0.764284 0.658534 0.859150
0.765380 0.659630 0.961351
0.767319 0.763883 0.128630
0.768516 0.765080 0.240255
0.769674 0.766239 0.348318
0.770814 0.767379 0.454598
0.771941 0.768505 0.559677
0.773058 0.769622 0.663850
0.774167 0.770731 0.767295
0.775270 0.771834 0.870135
0.776365 0.772930 0.972336
0.778240 0.876523 0.139551
0.779437 0.877720 0.251177
0.780596 0.878878 0.359239
0.781735 0.880018 0.465519
0.782862 0.881145 0.570598
0.783979 0.882262 0.674771
0.785088 0.883371 0.778216
0.786191 0.884473 0.881056
0.787287 0.885569 0.983257
0.788728 0.984699 0.150039
0.789925 0.985896 0.261665
0.791084 0.987054 0.369727
0.792224 0.988194 0.476007
0.793350 0.989321 0.581086
0.794467 0.990438 0.685259
0.795576 0.991547 0.788705
0.796679 0.992650 0.891544
0.797775 0.993745 0.993745
0.804472 0.067922 0.064083
0.805668 0.069119 0.175708
0.806827 0.070278 0.283771
0.807967 0.071417 0.390051
0.809093 0.072544 0.495130
0.810210 0.073661 0.599303
0.811320 0.074770 0.702748
0.812422 0.075873 0.805588
0.813518 0.076969 0.907789
0.816307 0.189988 0.075918
0.817503 0.191185 0.187544
0.818662 0.192343 0.295606
0.819802 0.193483 0.401886
0.820928 0.194610 0.506965
0.822045 0.195727 0.611138
0.823155 0.196836 0.714583
0.824257 0.197938 0.817423
0.825353 0.199034 0.919624
0.827776 0.308286 0.087387
0.828973 0.309482 0.199013
0.830132 0.310641 0.307075
0.831272 0.311781 0.413356
0.832398 0.312907 0.518435
0.833515 0.314024 0.622607
0.834624 0.315134 0.726053
0.835727 0.316236 0.828893
0.836823 0.317332 0.931094
0.839060 0.424663 0.098671
0.840257 0.425860 0.210297
0.841416 0.427018 0.318359
0.842555 0.428158 0.424639
0.843682 0.429285 0.529718
0.844799 0.430402 0.633891
0.845908 0.431511 0.737337
0.847011 0.432614 0.840176
0.848107 0.433710 0.942377
0.850217 0.539738 0.109828
0.851414 0.540935 0.221454
0.852573 0.542094 0.329516
0.853712 0.543234 0.435797
0.854839 0.544360 0.540876
0.855956 0.545477 0.645048
0.857065 0.546586 0.748494
0.858168 0.547689 0.851334
0.859264 0.548785 0.953535
0.861279 0.653829 0.120890
0.862476 0.655026 0.232516
0.863635 0.656185 0.340578
0.864774 0.657325 0.446858
0.865901 0.658451 0.551937
0.867018 0.659568 0.656110
0.868127 0.660677 0.759556
0.869230 0.661780 0.862395
0.870326 0.662876 0.964597
0.872264 0.767129 0.131875
0.873461 0.768326 0.243501
0.874620 0.769485 0.351563
0.875760 0.770624 0.457844
0.876886 0.771751 0.562923
0.878003 0.772868 0.667095
0.879112 0.773977 0.770541
0.880215 0.775080 0.873381
0.881311 0.776176 0.975582
0.883185 0.879768 0.142796
0.884382 0.880965 0.254422
0.885541 0.882124 0.362484
0.886681 0.883264 0.468765
0.887807 0.884390 0.573844
0.888924 0.885507 0.678016
0.890034 0.886617 0.781462
0.891136 0.887719 0.884302
0.892232 0.888815 0.986503
0.893674 0.987945 0.153285
0.894871 0.989142 0.264911
0.896029 0.990300 0.372973
0.897169 0.991440 0.479253
0.898296 0.992567 0.584332
0.899413 0.993684 0.688505
0.900522 0.994793 0.791951
0.901625 0.995895 0.894790
0.902721 0.996991 0.996991
0.901751 0.070931 0.067091
0.902948 0.072128 0.178717
0.904107 0.073286 0.286779
0.905246 0.074426 0.393060
0.906373 0.075553 0.498139
0.907490 0.076670 0.602311
0.908599 0.077779 0.705757
0.909702 0.078882 0.808597
0.910798 0.079977 0.910798
0.913586 0.192996 0.078926
0.914783 0.194193 0.190552
0.915942 0.195352 0.298614
0.917081 0.196492 0.404895
0.918208 0.197618 0.509974
0.919325 0.198735 0.614146
0.920434 0.199844 0.717592
0.921537 0.200947 0.820432
0.922633 0.202043 0.922633
0.925056 0.311294 0.090396
0.926253 0.312491 0.202022
0.927411 0.313650 0.310084
0.928551 0.314789 0.416364
0.929678 0.315916 0.521443
0.930795 0.317033 0.625616
0.931904 0.318142 0.729062
0.933007 0.319245 0.831901
0.934103 0.320341 0.934103
0.936339 0.427672 0.101680
0.937536 0.428868 0.213306
0.938695 0.430027 0.321368
0.939835 0.431167 0.427648
0.940961 0.432293 0.532727
0.942078 0.433410 0.636900
0.943188 0.434520 0.740345
0.944290 0.435622 0.843185
0.945386 0.436718 0.945386
0.947497 0.542747 0.112837
0.948694 0.543944 0.224463
0.949852 0.545103 0.332525
0.950992 0.546242 0.438805
0.952119 0.547369 0.543884
0.953236 0.548486 0.648057
0.954345 0.549595 0.751503
0.955448 0.550698 0.854342
0.956543 0.551794 0.956543
0.958559 0.656838 0.123899
0.959756 0.658035 0.235525
0.960914 0.659194 0.343587
0.962054 0.660333 0.449867
0.963181 0.661460 0.554946
0.964298 0.662577 0.659119
0.965407 0.663686 0.762565
0.966509 0.664789 0.865404
0.967605 0.665885 0.967605
0.969544 0.770138 0.134884
0.970741 0.771335 0.246510
0.971899 0.772494 0.354572
0.973039 0.773633 0.460852
0.974166 0.774760 0.565931
0.975283 0.775877 0.670104
0.976392 0.776986 0.773550
0.977495 0.778089 0.876389
0.978590 0.779185 0.978590
0.980465 0.882777 0.145805
0.981662 0.883974 0.257431
0.982821 0.885133 0.365493
0.983960 0.886272 0.471774
0.985087 0.887399 0.576852
0.986204 0.888516 0.681025
0.987313 0.889625 0.784471
0.988416 0.890728 0.887310
0.989512 0.891824 0.989512
0.990953 0.990953 0.156294
0.992150 0.992150 0.267920
0.993309 0.993309 0.375982
0.994449 0.994449 0.482262
0.995575 0.995575 0.587341
0.996692 0.996692 0.691514
0.997801 0.997801 0.794959
0.998904 0.998904 0.897799
1.000000 1.000000 1.000000
