skills/creativeops-director/assets/grade/luts/soft_pastel_v01.cube
TITLE "soft_pastel_v01"
LUT_3D_SIZE 9
DOMAIN_MIN 0.0 0.0 0.0
DOMAIN_MAX 1.0 1.0 1.0
0.016208 0.016208 0.016208
0.016947 0.016947 0.134736
0.017671 0.017671 0.250714
0.018387 0.018387 0.365560
0.019099 0.019099 0.479658
0.019808 0.019808 0.593198
0.020513 0.020513 0.706293
0.021217 0.021217 0.819017
0.021890 0.021890 0.926979
0.023533 0.141322 0.023533
0.024273 0.142061 0.142061
0.024996 0.142785 0.258040
0.025713 0.143501 0.372885
0.026425 0.144213 0.486984
0.027133 0.144921 0.600524
0.027839 0.145627 0.713619
0.028542 0.146330 0.826343
0.029216 0.147004 0.934304
0.030701 0.263745 0.030701
0.031441 0.264484 0.149229
0.032164 0.265208 0.265208
0.032881 0.265924 0.380053
0.033593 0.266636 0.494151
0.034301 0.267345 0.607692
0.035007 0.268050 0.720787
0.035710 0.268753 0.833511
0.036383 0.269427 0.941472
0.037799 0.384971 0.037799
0.038538 0.385711 0.156327
0.039262 0.386434 0.272306
0.039978 0.387151 0.387151
0.040690 0.387863 0.501249
0.041399 0.388571 0.614790
0.042104 0.389277 0.727884
0.042808 0.389980 0.840609
0.043481 0.390654 0.948570
0.044851 0.505409 0.044851
0.045590 0.506149 0.163378
0.046314 0.506873 0.279357
0.047030 0.507589 0.394203
0.047742 0.508301 0.508301
0.048450 0.509009 0.621841
0.049156 0.509715 0.734936
0.049859 0.510418 0.847660
0.050533 0.511092 0.955622
0.051868 0.625258 0.051868
0.052607 0.625998 0.170396
0.053331 0.626722 0.286374
0.054047 0.627438 0.401220
0.054759 0.628150 0.515318
0.055468 0.628858 0.628858
0.056173 0.629564 0.741953
0.056876 0.630267 0.854677
0.057550 0.630941 0.962639
0.058857 0.744637 0.058857
0.059597 0.745377 0.177385
0.060320 0.746100 0.293364
0.061037 0.746817 0.408209
0.061749 0.747529 0.522308
0.062457 0.748237 0.635848
0.063163 0.748943 0.748943
0.063866 0.749646 0.861667
0.064540 0.750320 0.969629
0.065824 0.863625 0.065824
0.066564 0.864364 0.184352
0.067287 0.865088 0.300331
0.068004 0.865805 0.415176
0.068716 0.866516 0.529274
0.069424 0.867225 0.642815
0.070130 0.867930 0.755910
0.070833 0.868634 0.868634
0.071506 0.869307 0.976595
0.072496 0.977585 0.072496
0.073236 0.978325 0.191024
0.073960 0.979048 0.307003
0.074676 0.979765 0.421848
0.075388 0.980477 0.535947
0.076096 0.981185 0.649487
0.076802 0.981891 0.762582
0.077505 0.982594 0.875306
0.078179 0.983268 0.983268
0.136174 0.018385 0.018385
0.136913 0.019125 0.136913
0.137637 0.019848 0.252892
0.138353 0.020565 0.367737
0.139065 0.021277 0.481836
0.139774 0.021985 0.595376
0.140479 0.022691 0.708471
0.141182 0.023394 0.821195
0.141856 0.024068 0.929157
0.143499 0.143499 0.025711
0.144239 0.144239 0.144239
0.144962 0.144962 0.260217
0.145679 0.145679 0.375063
0.146391 0.146391 0.489161
0.147099 0.147099 0.602701
0.147805 0.147805 0.715796
0.148508 0.148508 0.828520
0.149181 0.149181 0.936482
0.150667 0.265922 0.032879
0.151406 0.266662 0.151406
0.152130 0.267385 0.267385
0.152847 0.268102 0.382231
0.153558 0.268814 0.496329
0.154267 0.269522 0.609869
0.154972 0.270228 0.722964
0.155676 0.270931 0.835688
0.156349 0.271605 0.943650
0.157765 0.387149 0.039976
0.158504 0.387888 0.158504
0.159228 0.388612 0.274483
0.159944 0.389328 0.389328
0.160656 0.390040 0.503427
0.161365 0.390749 0.616967
0.162070 0.391454 0.730062
0.162774 0.392158 0.842786
0.163447 0.392831 0.950748
0.164816 0.507587 0.047028
0.165556 0.508326 0.165556
0.166280 0.509050 0.281535
0.166996 0.509767 0.396380
0.167708 0.510478 0.510478
0.168416 0.511187 0.624019
0.169122 0.511892 0.737114
0.169825 0.512596 0.849838
0.170499 0.513269 0.957799
0.171834 0.627436 0.054045
0.172573 0.628176 0.172573
0.173297 0.628899 0.288552
0.174013 0.629616 0.403397
0.174725 0.630328 0.517496
0.175433 0.631036 0.631036
0.176139 0.631742 0.744131
0.176842 0.632445 0.856855
0.177516 0.633118 0.964816
0.178823 0.746815 0.061035
0.179563 0.747554 0.179563
0.180286 0.748278 0.295542
0.181003 0.748994 0.410387
0.181715 0.749706 0.524485
0.182423 0.750415 0.638026
0.183129 0.751120 0.751120
0.183832 0.751824 0.863845
0.184506 0.752497 0.971806
0.185790 0.865802 0.068002
0.186529 0.866542 0.186529
0.187253 0.867266 0.302508
0.187970 0.867982 0.417354
0.188681 0.868694 0.531452
0.189390 0.869402 0.644992
0.190095 0.870108 0.758087
0.190799 0.870811 0.870811
0.191472 0.871485 0.978773
0.192462 0.979763 0.074674
0.193202 0.980502 0.193202
0.193925 0.981226 0.309181
0.194642 0.981942 0.424026
0.195354 0.982654 0.538124
0.196062 0.983363 0.651665
0.196768 0.984068 0.764759
0.197471 0.984772 0.877484
0.198145 0.985445 0.985445
0.253560 0.020516 0.020516
0.254299 0.021256 0.139044
0.255023 0.021979 0.255023
0.255739 0.022696 0.369868
0.256451 0.023408 0.483966
0.257160 0.024116 0.597507
0.257865 0.024822 0.710602
0.258568 0.025525 0.823326
0.259242 0.026198 0.931287
0.260885 0.145630 0.027841
0.261625 0.146369 0.146369
0.262348 0.147093 0.262348
0.263065 0.147809 0.377193
0.263777 0.148521 0.491292
0.264485 0.149230 0.604832
0.265191 0.149935 0.717927
0.265894 0.150639 0.830651
0.266567 0.151312 0.938613
0.268053 0.268053 0.035009
0.268792 0.268792 0.153537
0.269516 0.269516 0.269516
0.270233 0.270233 0.384361
0.270944 0.270944 0.498460
0.271653 0.271653 0.612000
0.272358 0.272358 0.725095
0.273062 0.273062 0.837819
0.273735 0.273735 0.945781
0.275151 0.389279 0.042107
0.275890 0.390019 0.160635
0.276614 0.390743 0.276614
0.277330 0.391459 0.391459
0.278042 0.392171 0.505558
0.278751 0.392879 0.619098
0.279456 0.393585 0.732193
0.280160 0.394288 0.844917
0.280833 0.394962 0.952878
0.282202 0.509718 0.049159
0.282942 0.510457 0.167687
0.283665 0.511181 0.283665
0.284382 0.511897 0.398511
0.285094 0.512609 0.512609
0.285802 0.513318 0.626149
0.286508 0.514023 0.739244
0.287211 0.514726 0.851968
0.287885 0.515400 0.959930
0.289220 0.629567 0.056176
0.289959 0.630306 0.174704
0.290683 0.631030 0.290683
0.291399 0.631746 0.405528
0.292111 0.632458 0.519626
0.292819 0.633167 0.633167
0.293525 0.633872 0.746261
0.294228 0.634576 0.858986
0.294902 0.635249 0.966947
0.296209 0.748946 0.063166
0.296949 0.749685 0.181693
0.297672 0.750409 0.297672
0.298389 0.751125 0.412518
0.299101 0.751837 0.526616
0.299809 0.752545 0.640156
0.300515 0.753251 0.753251
0.301218 0.753954 0.865975
0.301892 0.754628 0.973937
0.303176 0.867933 0.070132
0.303915 0.868673 0.188660
0.304639 0.869396 0.304639
0.305356 0.870113 0.419484
0.306067 0.870825 0.533583
0.306776 0.871533 0.647123
0.307481 0.872239 0.760218
0.308185 0.872942 0.872942
0.308858 0.873616 0.980904
0.309848 0.981894 0.076805
0.310588 0.982633 0.195333
0.311311 0.983357 0.311311
0.312028 0.984073 0.426157
0.312740 0.984785 0.540255
0.313448 0.985493 0.653795
0.314154 0.986199 0.766890
0.314857 0.986902 0.879614
0.315531 0.987576 0.987576
0.369798 0.022626 0.022626
0.370538 0.023365 0.141154
0.371261 0.024089 0.257133
0.371978 0.024806 0.371978
0.372690 0.025517 0.486076
0.373398 0.026226 0.599617
0.374104 0.026931 0.712711
0.374807 0.027635 0.825436
0.375481 0.028308 0.933397
0.377124 0.147740 0.029951
0.377863 0.148479 0.148479
0.378587 0.149203 0.264458
0.379303 0.149919 0.379303
0.380015 0.150631 0.493402
0.380724 0.151340 0.606942
0.381429 0.152045 0.720037
0.382133 0.152749 0.832761
0.382806 0.153422 0.940723
0.384292 0.270163 0.037119
0.385031 0.270902 0.155647
0.385755 0.271626 0.271626
0.386471 0.272342 0.386471
0.387183 0.273054 0.500570
0.387891 0.273763 0.614110
0.388597 0.274468 0.727205
0.389300 0.275172 0.839929
0.389974 0.275845 0.947890
0.391389 0.391389 0.044217
0.392129 0.392129 0.162745
0.392853 0.392853 0.278724
0.393569 0.393569 0.393569
0.394281 0.394281 0.507667
0.394989 0.394989 0.621208
0.395695 0.395695 0.734303
0.396398 0.396398 0.847027
0.397072 0.397072 0.954988
0.398441 0.511828 0.051269
0.399181 0.512567 0.169797
0.399904 0.513291 0.285775
0.400621 0.514007 0.400621
0.401333 0.514719 0.514719
0.402041 0.515427 0.628259
0.402747 0.516133 0.741354
0.403450 0.516836 0.854078
0.404123 0.517510 0.962040
0.405458 0.631677 0.058286
0.406198 0.632416 0.176814
0.406921 0.633140 0.292793
0.407638 0.633856 0.407638
0.408350 0.634568 0.521736
0.409058 0.635277 0.635277
0.409764 0.635982 0.748371
0.410467 0.636685 0.861096
0.411141 0.637359 0.969057
0.412448 0.751055 0.065275
0.413187 0.751795 0.183803
0.413911 0.752519 0.299782
0.414627 0.753235 0.414627
0.415339 0.753947 0.528726
0.416048 0.754655 0.642266
0.416753 0.755361 0.755361
0.417457 0.756064 0.868085
0.418130 0.756738 0.976047
0.419415 0.870043 0.072242
0.420154 0.870783 0.190770
0.420878 0.871506 0.306749
0.421594 0.872223 0.421594
0.422306 0.872935 0.535693
0.423014 0.873643 0.649233
0.423720 0.874349 0.762328
0.424423 0.875052 0.875052
0.425097 0.875725 0.983013
0.426087 0.984003 0.078915
0.426826 0.984743 0.197442
0.427550 0.985467 0.313421
0.428267 0.986183 0.428267
0.428978 0.986895 0.542365
0.429687 0.987603 0.655905
0.430392 0.988309 0.769000
0.431096 0.989012 0.881724
0.431769 0.989686 0.989686
0.485281 0.024722 0.024722
0.486020 0.025462 0.143250
0.486744 0.026185 0.259229
0.487461 0.026902 0.374074
0.488172 0.027614 0.488172
0.488881 0.028322 0.601713
0.489586 0.029028 0.714808
0.490290 0.029731 0.827532
0.490963 0.030404 0.935493
0.492606 0.149836 0.032047
0.493346 0.150575 0.150575
0.494069 0.151299 0.266554
0.494786 0.152016 0.381400
0.495498 0.152727 0.495498
0.496206 0.153436 0.609038
0.496912 0.154141 0.722133
0.497615 0.154845 0.834857
0.498289 0.155518 0.942819
0.499774 0.272259 0.039215
0.500514 0.272998 0.157743
0.501237 0.273722 0.273722
0.501954 0.274439 0.388567
0.502666 0.275150 0.502666
0.503374 0.275859 0.616206
0.504080 0.276564 0.729301
0.504783 0.277268 0.842025
0.505457 0.277941 0.949987
0.506872 0.393486 0.046313
0.507612 0.394225 0.164841
0.508335 0.394949 0.280820
0.509052 0.395665 0.395665
0.509764 0.396377 0.509764
0.510472 0.397085 0.623304
0.511178 0.397791 0.736399
0.511881 0.398494 0.849123
0.512554 0.399168 0.957084
0.513924 0.513924 0.053365
0.514663 0.514663 0.171893
0.515387 0.515387 0.287872
0.516103 0.516103 0.402717
0.516815 0.516815 0.516815
0.517524 0.517524 0.630356
0.518229 0.518229 0.743450
0.518933 0.518933 0.856175
0.519606 0.519606 0.964136
0.520941 0.633773 0.060382
0.521680 0.634512 0.178910
0.522404 0.635236 0.294889
0.523121 0.635952 0.409734
0.523832 0.636664 0.523832
0.524541 0.637373 0.637373
0.525246 0.638078 0.750468
0.525950 0.638782 0.863192
0.526623 0.639455 0.971153
0.527931 0.753152 0.067372
0.528670 0.753891 0.185900
0.529394 0.754615 0.301878
0.530110 0.755331 0.416724
0.530822 0.756043 0.530822
0.531530 0.756752 0.644362
0.532236 0.757457 0.757457
0.532939 0.758160 0.870181
0.533613 0.758834 0.978143
0.534897 0.872139 0.074338
0.535637 0.872879 0.192866
0.536360 0.873602 0.308845
0.537077 0.874319 0.423690
0.537789 0.875031 0.537789
0.538497 0.875739 0.651329
0.539203 0.876445 0.764424
0.539906 0.877148 0.877148
0.540580 0.877822 0.985110
0.541570 0.986100 0.081011
0.542309 0.986839 0.199539
0.543033 0.987563 0.315517
0.543749 0.988279 0.430363
0.544461 0.988991 0.544461
0.545170 0.989700 0.658001
0.545875 0.990405 0.771096
0.546578 0.991108 0.883820
0.547252 0.991782 0.991782
0.600199 0.026808 0.026808
0.600938 0.027548 0.145336
0.601662 0.028271 0.261315
0.602378 0.028988 0.376160
0.603090 0.029700 0.490258
0.603799 0.030408 0.603799
0.604504 0.031113 0.716894
0.605208 0.031817 0.829618
0.605881 0.032490 0.937579
0.607524 0.151922 0.034133
0.608264 0.152661 0.152661
0.608987 0.153385 0.268640
0.609704 0.154101 0.383485
0.610416 0.154813 0.497584
0.611124 0.155522 0.611124
0.611830 0.156227 0.724219
0.612533 0.156931 0.836943
0.613207 0.157604 0.944905
0.614692 0.274345 0.041301
0.615432 0.275084 0.159829
0.616155 0.275808 0.275808
0.616872 0.276525 0.390653
0.617584 0.277236 0.504752
0.618292 0.277945 0.618292
0.618998 0.278650 0.731387
0.619701 0.279354 0.844111
0.620374 0.280027 0.952073
0.621790 0.395571 0.048399
0.622529 0.396311 0.166927
0.623253 0.397035 0.282906
0.623970 0.397751 0.397751
0.624681 0.398463 0.511850
0.625390 0.399171 0.625390
0.626095 0.399877 0.738485
0.626799 0.400580 0.851209
0.627472 0.401254 0.959170
0.628842 0.516010 0.055451
0.629581 0.516749 0.173979
0.630305 0.517473 0.289957
0.631021 0.518189 0.404803
0.631733 0.518901 0.518901
0.632441 0.519610 0.632441
0.633147 0.520315 0.745536
0.633850 0.521018 0.858260
0.634524 0.521692 0.966222
0.635859 0.635859 0.062468
0.636598 0.636598 0.180996
0.637322 0.637322 0.296975
0.638038 0.638038 0.411820
0.638750 0.638750 0.525918
0.639459 0.639459 0.639459
0.640164 0.640164 0.752553
0.640868 0.640868 0.865278
0.641541 0.641541 0.973239
0.642848 0.755238 0.069458
0.643588 0.755977 0.187985
0.644311 0.756701 0.303964
0.645028 0.757417 0.418810
0.645740 0.758129 0.532908
0.646448 0.758837 0.646448
0.647154 0.759543 0.759543
0.647857 0.760246 0.872267
0.648531 0.760920 0.980229
0.649815 0.874225 0.076424
0.650555 0.874965 0.194952
0.651278 0.875688 0.310931
0.651995 0.876405 0.425776
0.652707 0.877117 0.539875
0.653415 0.877825 0.653415
0.654121 0.878531 0.766510
0.654824 0.879234 0.879234
0.655497 0.879908 0.987196
0.656487 0.988186 0.083097
0.657227 0.988925 0.201625
0.657951 0.989649 0.317603
0.658667 0.990365 0.432449
0.659379 0.991077 0.546547
0.660087 0.991785 0.660087
0.660793 0.992491 0.773182
0.661496 0.993194 0.885906
0.662170 0.993868 0.993868
0.714666 0.028886 0.028886
0.715405 0.029625 0.147414
0.716129 0.030349 0.263392
0.716845 0.031065 0.378238
0.717557 0.031777 0.492336
0.718266 0.032486 0.605876
0.718971 0.033191 0.718971
0.719675 0.033895 0.831695
0.720348 0.034568 0.939657
0.721991 0.154000 0.036211
0.722731 0.154739 0.154739
0.723454 0.155463 0.270718
0.724171 0.156179 0.385563
0.724883 0.156891 0.499662
0.725591 0.157599 0.613202
0.726297 0.158305 0.726297
0.727000 0.159008 0.839021
0.727674 0.159682 0.946982
0.729159 0.276423 0.043379
0.729899 0.277162 0.161907
0.730622 0.277886 0.277886
0.731339 0.278602 0.392731
0.732051 0.279314 0.506829
0.732759 0.280023 0.620370
0.733465 0.280728 0.733465
0.734168 0.281431 0.846189
0.734841 0.282105 0.954150
0.736257 0.397649 0.050477
0.736996 0.398389 0.169005
0.737720 0.399112 0.284984
0.738436 0.399829 0.399829
0.739148 0.400541 0.513927
0.739857 0.401249 0.627468
0.740562 0.401955 0.740562
0.741266 0.402658 0.853287
0.741939 0.403332 0.961248
0.743308 0.518087 0.057528
0.744048 0.518827 0.176056
0.744772 0.519550 0.292035
0.745488 0.520267 0.406881
0.746200 0.520979 0.520979
0.746908 0.521687 0.634519
0.747614 0.522393 0.747614
0.748317 0.523096 0.860338
0.748991 0.523770 0.968300
0.750326 0.637936 0.064546
0.751065 0.638676 0.183074
0.751789 0.639400 0.299052
0.752505 0.640116 0.413898
0.753217 0.640828 0.527996
0.753926 0.641536 0.641536
0.754631 0.642242 0.754631
0.755334 0.642945 0.867355
0.756008 0.643619 0.975317
0.757315 0.757315 0.071535
0.758055 0.758055 0.190063
0.758778 0.758778 0.306042
0.759495 0.759495 0.420887
0.760207 0.760207 0.534986
0.760915 0.760915 0.648526
0.761621 0.761621 0.761621
0.762324 0.762324 0.874345
0.762998 0.762998 0.982307
0.764282 0.876303 0.078502
0.765022 0.877042 0.197030
0.765745 0.877766 0.313009
0.766462 0.878483 0.427854
0.767174 0.879194 0.541952
0.767882 0.879903 0.655493
0.768588 0.880608 0.768588
0.769291 0.881312 0.881312
0.769964 0.881985 0.989273
0.770954 0.990263 0.085174
0.771694 0.991003 0.203702
0.772418 0.991726 0.319681
0.773134 0.992443 0.434526
0.773846 0.993155 0.548625
0.774554 0.993863 0.662165
0.775260 0.994569 0.775260
0.775963 0.995272 0.887984
0.776637 0.995946 0.995946
0.828758 0.030957 0.030957
0.829497 0.031696 0.149485
0.830221 0.032420 0.265463
0.830937 0.033136 0.380309
0.831649 0.033848 0.494407
0.832357 0.034557 0.607947
0.833063 0.035262 0.721042
0.833766 0.035965 0.833766
0.834440 0.036639 0.941728
0.836083 0.156070 0.038282
0.836822 0.156810 0.156810
0.837546 0.157534 0.272789
0.838263 0.158250 0.387634
0.838974 0.158962 0.501732
0.839683 0.159670 0.615273
0.840388 0.160376 0.728368
0.841092 0.161079 0.841092
0.841765 0.161753 0.949053
0.843251 0.278494 0.045450
0.843990 0.279233 0.163978
0.844714 0.279957 0.279957
0.845430 0.280673 0.394802
0.846142 0.281385 0.508900
0.846851 0.282093 0.622441
0.847556 0.282799 0.735535
0.848260 0.283502 0.848260
0.848933 0.284176 0.956221
0.850349 0.399720 0.052548
0.851088 0.400460 0.171076
0.851812 0.401183 0.287054
0.852528 0.401900 0.401900
0.853240 0.402612 0.515998
0.853949 0.403320 0.629538
0.854654 0.404026 0.742633
0.855357 0.404729 0.855357
0.856031 0.405403 0.963319
0.857400 0.520158 0.059599
0.858140 0.520898 0.178127
0.858863 0.521621 0.294106
0.859580 0.522338 0.408951
0.860292 0.523050 0.523050
0.861000 0.523758 0.636590
0.861706 0.524464 0.749685
0.862409 0.525167 0.862409
0.863083 0.525841 0.970371
0.864417 0.640007 0.066617
0.865157 0.640747 0.185144
0.865881 0.641470 0.301123
0.866597 0.642187 0.415969
0.867309 0.642899 0.530067
0.868017 0.643607 0.643607
0.868723 0.644313 0.756702
0.869426 0.645016 0.869426
0.870100 0.645690 0.977388
0.871407 0.759386 0.073606
0.872147 0.760126 0.192134
0.872870 0.760849 0.308113
0.873587 0.761566 0.422958
0.874299 0.762278 0.537057
0.875007 0.762986 0.650597
0.875713 0.763692 0.763692
0.876416 0.764395 0.876416
0.877089 0.765069 0.984377
0.878374 0.878374 0.080573
0.879113 0.879113 0.199101
0.879837 0.879837 0.315080
0.880553 0.880553 0.429925
0.881265 0.881265 0.544023
0.881974 0.881974 0.657564
0.882679 0.882679 0.770658
0.883383 0.883383 0.883383
0.884056 0.884056 0.991344
0.885046 0.992334 0.087245
0.885786 0.993074 0.205773
0.886509 0.993797 0.321752
0.887226 0.994514 0.436597
0.887938 0.995226 0.550696
0.888646 0.995934 0.664236
0.889352 0.996640 0.777331
0.890055 0.997343 0.890055
0.890729 0.998017 0.998017
0.938029 0.032940 0.032940
0.938768 0.033680 0.151468
0.939492 0.034403 0.267447
0.940209 0.035120 0.382292
0.940920 0.035832 0.496390
0.941629 0.036540 0.609931
0.942334 0.037246 0.723026
0.943038 0.037949 0.835750
0.943711 0.038622 0.943711
0.945354 0.158054 0.040265
0.946094 0.158793 0.158793
0.946817 0.159517 0.274772
0.947534 0.160234 0.389618
0.948246 0.160945 0.503716
0.948954 0.161654 0.617256
0.949660 0.162359 0.730351
0.950363 0.163063 0.843075
0.951037 0.163736 0.951037
0.952522 0.280477 0.047433
0.953262 0.281216 0.165961
0.953985 0.281940 0.281940
0.954702 0.282657 0.396785
0.955414 0.283368 0.510884
0.956122 0.284077 0.624424
0.956828 0.284782 0.737519
0.957531 0.285486 0.850243
0.958205 0.286159 0.958205
0.959620 0.401704 0.054531
0.960360 0.402443 0.173059
0.961083 0.403167 0.289038
0.961800 0.403883 0.403883
0.962512 0.404595 0.517982
0.963220 0.405303 0.631522
0.963926 0.406009 0.744617
0.964629 0.406712 0.857341
0.965302 0.407386 0.965302
0.966672 0.522142 0.061583
0.967411 0.522881 0.180111
0.968135 0.523605 0.296090
0.968851 0.524321 0.410935
0.969563 0.525033 0.525033
0.970272 0.525742 0.638574
0.970977 0.526447 0.751668
0.971681 0.527151 0.864393
0.972354 0.527824 0.972354
0.973689 0.641991 0.068600
0.974428 0.642730 0.187128
0.975152 0.643454 0.303107
0.975869 0.644170 0.417952
0.976580 0.644882 0.532050
0.977289 0.645591 0.645591
0.977994 0.646296 0.758686
0.978698 0.647000 0.871410
0.979371 0.647673 0.979371
0.980679 0.761370 0.075590
0.981418 0.762109 0.194118
0.982142 0.762833 0.310096
0.982858 0.763549 0.424942
0.983570 0.764261 0.539040
0.984278 0.764970 0.652580
0.984984 0.765675 0.765675
0.985687 0.766378 0.878399
0.986361 0.767052 0.986361
0.987645 0.880357 0.082556
0.988385 0.881097 0.201084
0.989108 0.881820 0.317063
0.989825 0.882537 0.431908
0.990537 0.883249 0.546007
0.991245 0.883957 0.659547
0.991951 0.884663 0.772642
0.992654 0.885366 0.885366
0.993328 0.886040 0.993328
0.994318 0.994318 0.089229
0.995057 0.995057 0.207757
0.995781 0.995781 0.323735
0.996497 0.996497 0.438581
0.997209 0.997209 0.552679
0.997918 0.997918 0.666219
0.998623 0.998623 0.779314
0.999326 0.999326 0.892038
1.000000 1.000000 1.000000
