skills/creativeops-director/assets/grade/luts/soft_pastel_v03.cube
TITLE "soft_pastel_v03"
LUT_3D_SIZE 9
DOMAIN_MIN 0.0 0.0 0.0
DOMAIN_MAX 1.0 1.0 1.0
0.024188 0.023182 0.022175
0.025043 0.024037 0.139049
0.025877 0.024871 0.253061
0.026702 0.025696 0.365754
0.027520 0.026514 0.477573
0.028333 0.027327 0.588737
0.029143 0.028137 0.699377
0.029949 0.028943 0.809582
0.030728 0.029722 0.916069
0.032655 0.147623 0.030642
0.033510 0.148478 0.147517
0.034345 0.149312 0.261529
0.035169 0.150137 0.374222
0.035987 0.150955 0.486041
0.036801 0.151768 0.597204
0.037610 0.152578 0.707845
0.038417 0.153384 0.818050
0.039196 0.154163 0.924537
0.040918 0.269049 0.038905
0.041773 0.269904 0.155780
0.042607 0.270738 0.269791
0.043432 0.271563 0.382484
0.044250 0.272381 0.494303
0.045063 0.273194 0.605467
0.045873 0.274004 0.716107
0.046679 0.274810 0.826312
0.047458 0.275589 0.932799
0.049085 0.389076 0.047072
0.049940 0.389931 0.163947
0.050774 0.390765 0.277959
0.051599 0.391590 0.390652
0.052417 0.392408 0.502470
0.053230 0.393221 0.613634
0.054040 0.394031 0.724275
0.054846 0.394837 0.834479
0.055625 0.395616 0.940967
0.057189 0.508174 0.055176
0.058044 0.509029 0.172051
0.058878 0.509863 0.286063
0.059703 0.510688 0.398756
0.060521 0.511506 0.510574
0.061335 0.512319 0.621738
0.062144 0.513129 0.732379
0.062950 0.513935 0.842583
0.063730 0.514715 0.949071
0.065246 0.626576 0.063233
0.066101 0.627432 0.180108
0.066935 0.628266 0.294119
0.067760 0.629090 0.406812
0.068578 0.629908 0.518631
0.069391 0.630722 0.629795
0.070201 0.631531 0.740435
0.071007 0.632338 0.850640
0.071786 0.633117 0.957127
0.073265 0.744422 0.071251
0.074120 0.745277 0.188126
0.074954 0.746112 0.302138
0.075779 0.746936 0.414831
0.076597 0.747754 0.526650
0.077410 0.748568 0.637814
0.078220 0.749377 0.748454
0.079026 0.750184 0.858659
0.079805 0.750963 0.965146
0.081252 0.861805 0.079239
0.082107 0.862660 0.196114
0.082941 0.863494 0.310126
0.083766 0.864319 0.422819
0.084584 0.865137 0.534637
0.085397 0.865950 0.645801
0.086207 0.866760 0.756442
0.087013 0.867566 0.866646
0.087792 0.868345 0.973134
0.088903 0.974244 0.086890
0.089758 0.975099 0.203765
0.090592 0.975933 0.317777
0.091417 0.976758 0.430470
0.092235 0.977576 0.542288
0.093048 0.978390 0.653452
0.093858 0.979199 0.764093
0.094664 0.980005 0.874297
0.095443 0.980785 0.980785
0.142632 0.025698 0.024691
0.143487 0.026553 0.141566
0.144321 0.027387 0.255577
0.145146 0.028212 0.368270
0.145964 0.029030 0.480089
0.146777 0.029843 0.591253
0.147587 0.030653 0.701893
0.148393 0.031459 0.812098
0.149173 0.032238 0.918585
0.151100 0.150139 0.033158
0.151955 0.150994 0.150033
0.152789 0.151828 0.264045
0.153614 0.152653 0.376738
0.154432 0.153471 0.488557
0.155245 0.154284 0.599721
0.156055 0.155094 0.710361
0.156861 0.155900 0.820566
0.157640 0.156679 0.927053
0.159362 0.271565 0.041421
0.160217 0.272420 0.158296
0.161051 0.273254 0.272307
0.161876 0.274079 0.385000
0.162694 0.274897 0.496819
0.163508 0.275710 0.607983
0.164317 0.276520 0.718623
0.165123 0.277326 0.828828
0.165903 0.278105 0.935316
0.167529 0.391592 0.049588
0.168385 0.392447 0.166463
0.169219 0.393281 0.280475
0.170043 0.394106 0.393168
0.170861 0.394924 0.504986
0.171675 0.395737 0.616150
0.172484 0.396547 0.726791
0.173291 0.397353 0.836996
0.174070 0.398132 0.943483
0.175633 0.510690 0.057692
0.176489 0.511545 0.174567
0.177323 0.512379 0.288579
0.178147 0.513204 0.401272
0.178966 0.514022 0.513090
0.179779 0.514836 0.624254
0.180588 0.515645 0.734895
0.181395 0.516451 0.845100
0.182174 0.517231 0.951587
0.183690 0.629093 0.065749
0.184545 0.629948 0.182624
0.185380 0.630782 0.296636
0.186204 0.631606 0.409328
0.187022 0.632425 0.521147
0.187836 0.633238 0.632311
0.188645 0.634047 0.742952
0.189452 0.634854 0.853156
0.190231 0.635633 0.959644
0.191709 0.746938 0.073768
0.192564 0.747794 0.190643
0.193398 0.748628 0.304654
0.194223 0.749452 0.417347
0.195041 0.750270 0.529166
0.195854 0.751084 0.640330
0.196664 0.751893 0.750970
0.197470 0.752700 0.861175
0.198250 0.753479 0.967662
0.199696 0.864321 0.081755
0.200551 0.865176 0.198630
0.201386 0.866010 0.312642
0.202210 0.866835 0.425335
0.203028 0.867653 0.537153
0.203842 0.868466 0.648317
0.204651 0.869276 0.758958
0.205458 0.870082 0.869162
0.206237 0.870861 0.975650
0.207347 0.976760 0.089406
0.208202 0.977615 0.206281
0.209037 0.978450 0.320293
0.209861 0.979274 0.432986
0.210679 0.980092 0.544804
0.211493 0.980906 0.655968
0.212302 0.981715 0.766609
0.213109 0.982522 0.876813
0.213888 0.983301 0.983301
0.258237 0.028154 0.027146
0.259092 0.029009 0.144021
0.259926 0.029843 0.258033
0.260751 0.030667 0.370726
0.261569 0.031486 0.482545
0.262382 0.032299 0.593709
0.263192 0.033109 0.704349
0.263998 0.033915 0.814554
0.264777 0.034694 0.921041
0.266705 0.152595 0.035614
0.267560 0.153450 0.152489
0.268394 0.154284 0.266501
0.269218 0.155109 0.379194
0.270037 0.155927 0.491012
0.270850 0.156740 0.602176
0.271660 0.157550 0.712817
0.272466 0.158356 0.823022
0.273245 0.159135 0.929509
0.274967 0.274020 0.043876
0.275822 0.274876 0.160751
0.276656 0.275710 0.274763
0.277481 0.276534 0.387456
0.278299 0.277353 0.499275
0.279112 0.278166 0.610439
0.279922 0.278975 0.721079
0.280728 0.279782 0.831284
0.281507 0.280561 0.937771
0.283134 0.394048 0.052044
0.283989 0.394903 0.168919
0.284824 0.395737 0.282930
0.285648 0.396561 0.395623
0.286466 0.397380 0.507442
0.287280 0.398193 0.618606
0.288089 0.399002 0.729247
0.288896 0.399809 0.839451
0.289675 0.400588 0.945939
0.291238 0.513146 0.060148
0.292094 0.514001 0.177023
0.292928 0.514835 0.291035
0.293752 0.515660 0.403728
0.294570 0.516478 0.515546
0.295384 0.517291 0.626710
0.296193 0.518101 0.737351
0.297000 0.518907 0.847555
0.297779 0.519686 0.954043
0.299295 0.631548 0.068205
0.300150 0.632403 0.185079
0.300984 0.633238 0.299091
0.301809 0.634062 0.411784
0.302627 0.634880 0.523603
0.303441 0.635694 0.634767
0.304250 0.636503 0.745407
0.305056 0.637310 0.855612
0.305836 0.638089 0.962099
0.307314 0.749394 0.076223
0.308169 0.750249 0.193098
0.309003 0.751083 0.307110
0.309828 0.751908 0.419803
0.310646 0.752726 0.531622
0.311459 0.753540 0.642786
0.312269 0.754349 0.753426
0.313075 0.755155 0.863631
0.313854 0.755935 0.970118
0.315301 0.866777 0.084211
0.316156 0.867632 0.201086
0.316991 0.868466 0.315097
0.317815 0.869290 0.427790
0.318633 0.870109 0.539609
0.319447 0.870922 0.650773
0.320256 0.871732 0.761413
0.321063 0.872538 0.871618
0.321842 0.873317 0.978106
0.322952 0.979216 0.091862
0.323807 0.980071 0.208737
0.324642 0.980905 0.322748
0.325466 0.981730 0.435441
0.326284 0.982548 0.547260
0.327098 0.983361 0.658424
0.327907 0.984171 0.769064
0.328714 0.984977 0.879269
0.329493 0.985756 0.985756
0.372516 0.030581 0.029574
0.373371 0.031436 0.146449
0.374205 0.032271 0.260461
0.375030 0.033095 0.373154
0.375848 0.033913 0.484972
0.376661 0.034727 0.596136
0.377471 0.035536 0.706777
0.378277 0.036342 0.816982
0.379056 0.037122 0.923469
0.380983 0.155022 0.038042
0.381838 0.155877 0.154917
0.382673 0.156712 0.268928
0.383497 0.157536 0.381621
0.384315 0.158354 0.493440
0.385129 0.159168 0.604604
0.385938 0.159977 0.715244
0.386745 0.160784 0.825449
0.387524 0.161563 0.931936
0.389246 0.276448 0.046304
0.390101 0.277303 0.163179
0.390935 0.278137 0.277191
0.391760 0.278962 0.389884
0.392578 0.279780 0.501702
0.393391 0.280594 0.612866
0.394201 0.281403 0.723507
0.395007 0.282209 0.833712
0.395786 0.282989 0.940199
0.397413 0.396475 0.054471
0.398268 0.397330 0.171346
0.399102 0.398164 0.285358
0.399927 0.398989 0.398051
0.400745 0.399807 0.509870
0.401558 0.400621 0.621034
0.402368 0.401430 0.731674
0.403174 0.402236 0.841879
0.403954 0.403016 0.948366
0.405517 0.515574 0.062575
0.406372 0.516429 0.179450
0.407206 0.517263 0.293462
0.408031 0.518087 0.406155
0.408849 0.518906 0.517974
0.409663 0.519719 0.629138
0.410472 0.520529 0.739778
0.411278 0.521335 0.849983
0.412058 0.522114 0.956470
0.413574 0.633976 0.070632
0.414429 0.634831 0.187507
0.415263 0.635665 0.301519
0.416088 0.636490 0.414212
0.416906 0.637308 0.526031
0.417719 0.638121 0.637194
0.418529 0.638931 0.747835
0.419335 0.639737 0.858040
0.420114 0.640516 0.964527
0.421593 0.751822 0.078651
0.422448 0.752677 0.195526
0.423282 0.753511 0.309538
0.424107 0.754336 0.422231
0.424925 0.755154 0.534049
0.425738 0.755967 0.645213
0.426548 0.756777 0.755854
0.427354 0.757583 0.866059
0.428133 0.758362 0.972546
0.429580 0.869204 0.086638
0.430435 0.870059 0.203513
0.431269 0.870894 0.317525
0.432094 0.871718 0.430218
0.432912 0.872536 0.542037
0.433725 0.873350 0.653201
0.434535 0.874159 0.763841
0.435341 0.874965 0.874046
0.436120 0.875745 0.980533
0.437231 0.981644 0.094289
0.438086 0.982499 0.211164
0.438920 0.983333 0.325176
0.439745 0.984158 0.437869
0.440563 0.984976 0.549688
0.441376 0.985789 0.660852
0.442186 0.986599 0.771492
0.442992 0.987405 0.881697
0.443771 0.988184 0.988184
0.485913 0.032990 0.031983
0.486768 0.033845 0.148858
0.487602 0.034679 0.262870
0.488427 0.035504 0.375563
0.489245 0.036322 0.487381
0.490058 0.037135 0.598545
0.490868 0.037945 0.709186
0.491674 0.038751 0.819390
0.492453 0.039531 0.925878
0.494380 0.157431 0.040451
0.495235 0.158286 0.157325
0.496070 0.159121 0.271337
0.496894 0.159945 0.384030
0.497712 0.160763 0.495849
0.498526 0.161577 0.607013
0.499335 0.162386 0.717653
0.500142 0.163193 0.827858
0.500921 0.163972 0.934345
0.502643 0.278857 0.048713
0.503498 0.279712 0.165588
0.504332 0.280546 0.279600
0.505157 0.281371 0.392293
0.505975 0.282189 0.504111
0.506788 0.283002 0.615275
0.507598 0.283812 0.725916
0.508404 0.284618 0.836121
0.509183 0.285397 0.942608
0.510810 0.398884 0.056880
0.511665 0.399739 0.173755
0.512499 0.400573 0.287767
0.513324 0.401398 0.400460
0.514142 0.402216 0.512279
0.514955 0.403029 0.623443
0.515765 0.403839 0.734083
0.516571 0.404645 0.844288
0.517351 0.405424 0.950775
0.518914 0.517982 0.064984
0.519769 0.518838 0.181859
0.520603 0.519672 0.295871
0.521428 0.520496 0.408564
0.522246 0.521314 0.520383
0.523060 0.522128 0.631547
0.523869 0.522937 0.742187
0.524675 0.523744 0.852392
0.525455 0.524523 0.958879
0.526971 0.636385 0.073041
0.527826 0.637240 0.189916
0.528660 0.638074 0.303928
0.529485 0.638899 0.416621
0.530303 0.639717 0.528439
0.531116 0.640530 0.639603
0.531926 0.641340 0.750244
0.532732 0.642146 0.860449
0.533511 0.642925 0.966936
0.534990 0.754231 0.081060
0.535845 0.755086 0.197935
0.536679 0.755920 0.311947
0.537504 0.756745 0.424640
0.538322 0.757563 0.536458
0.539135 0.758376 0.647622
0.539945 0.759186 0.758263
0.540751 0.759992 0.868467
0.541530 0.760771 0.974955
0.542977 0.871613 0.089047
0.543832 0.872468 0.205922
0.544666 0.873302 0.319934
0.545491 0.874127 0.432627
0.546309 0.874945 0.544446
0.547122 0.875758 0.655609
0.547932 0.876568 0.766250
0.548738 0.877374 0.876455
0.549517 0.878154 0.982942
0.550628 0.984052 0.096698
0.551483 0.984908 0.213573
0.552317 0.985742 0.327585
0.553142 0.986566 0.440278
0.553960 0.987385 0.552097
0.554773 0.988198 0.663260
0.555583 0.989007 0.773901
0.556389 0.989814 0.884106
0.557168 0.990593 0.990593
0.598648 0.035385 0.034378
0.599504 0.036240 0.151253
0.600338 0.037074 0.265264
0.601162 0.037899 0.377957
0.601980 0.038717 0.489776
0.602794 0.039530 0.600940
0.603603 0.040340 0.711580
0.604410 0.041146 0.821785
0.605189 0.041925 0.928273
0.607116 0.159826 0.042845
0.607971 0.160681 0.159720
0.608805 0.161515 0.273732
0.609630 0.162340 0.386425
0.610448 0.163158 0.498244
0.611261 0.163971 0.609408
0.612071 0.164781 0.720048
0.612877 0.165587 0.830253
0.613656 0.166367 0.936740
0.615378 0.281252 0.051108
0.616234 0.282107 0.167983
0.617068 0.282941 0.281995
0.617892 0.283766 0.394688
0.618711 0.284584 0.506506
0.619524 0.285397 0.617670
0.620333 0.286207 0.728311
0.621140 0.287013 0.838515
0.621919 0.287792 0.945003
0.623546 0.401279 0.059275
0.624401 0.402134 0.176150
0.625235 0.402968 0.290162
0.626060 0.403793 0.402855
0.626878 0.404611 0.514673
0.627691 0.405424 0.625837
0.628501 0.406234 0.736478
0.629307 0.407040 0.846683
0.630086 0.407819 0.953170
0.631650 0.520377 0.067379
0.632505 0.521232 0.184254
0.633339 0.522067 0.298266
0.634164 0.522891 0.410959
0.634982 0.523709 0.522778
0.635795 0.524523 0.633941
0.636605 0.525332 0.744582
0.637411 0.526139 0.854787
0.638190 0.526918 0.961274
0.639706 0.638780 0.075436
0.640562 0.639635 0.192311
0.641396 0.640469 0.306323
0.642220 0.641294 0.419016
0.643039 0.642112 0.530834
0.643852 0.642925 0.641998
0.644661 0.643735 0.752639
0.645468 0.644541 0.862843
0.646247 0.645320 0.969331
0.647725 0.756625 0.083455
0.648580 0.757481 0.200330
0.649415 0.758315 0.314341
0.650239 0.759139 0.427034
0.651057 0.759958 0.538853
0.651871 0.760771 0.650017
0.652680 0.761580 0.760657
0.653487 0.762387 0.870862
0.654266 0.763166 0.977350
0.655713 0.874008 0.091442
0.656568 0.874863 0.208317
0.657402 0.875697 0.322329
0.658227 0.876522 0.435022
0.659045 0.877340 0.546840
0.659858 0.878153 0.658004
0.660668 0.878963 0.768645
0.661474 0.879769 0.878850
0.662253 0.880548 0.985337
0.663364 0.986447 0.099093
0.664219 0.987302 0.215968
0.665053 0.988137 0.329980
0.665878 0.988961 0.442673
0.666696 0.989779 0.554491
0.667509 0.990593 0.665655
0.668319 0.991402 0.776296
0.669125 0.992209 0.886501
0.669904 0.992988 0.992988
0.710855 0.037768 0.036761
0.711710 0.038624 0.153636
0.712544 0.039458 0.267648
0.713369 0.040282 0.380341
0.714187 0.041101 0.492160
0.715000 0.041914 0.603324
0.715810 0.042723 0.713964
0.716616 0.043530 0.824169
0.717395 0.044309 0.930656
0.719323 0.162210 0.045229
0.720178 0.163065 0.162104
0.721012 0.163899 0.276116
0.721837 0.164724 0.388809
0.722655 0.165542 0.500627
0.723468 0.166355 0.611791
0.724278 0.167165 0.722432
0.725084 0.167971 0.832637
0.725863 0.168750 0.939124
0.727585 0.283635 0.053491
0.728440 0.284491 0.170366
0.729274 0.285325 0.284378
0.730099 0.286149 0.397071
0.730917 0.286967 0.508890
0.731731 0.287781 0.620054
0.732540 0.288590 0.730694
0.733346 0.289397 0.840899
0.734126 0.290176 0.947386
0.735752 0.403662 0.061659
0.736607 0.404518 0.178534
0.737442 0.405352 0.292545
0.738266 0.406176 0.405238
0.739084 0.406995 0.517057
0.739898 0.407808 0.628221
0.740707 0.408617 0.738861
0.741514 0.409424 0.849066
0.742293 0.410203 0.955553
0.743856 0.522761 0.069763
0.744712 0.523616 0.186638
0.745546 0.524450 0.300649
0.746370 0.525275 0.413342
0.747188 0.526093 0.525161
0.748002 0.526906 0.636325
0.748811 0.527716 0.746966
0.749618 0.528522 0.857170
0.750397 0.529301 0.963658
0.751913 0.641163 0.077819
0.752768 0.642018 0.194694
0.753602 0.642853 0.308706
0.754427 0.643677 0.421399
0.755245 0.644495 0.533218
0.756059 0.645309 0.644382
0.756868 0.646118 0.755022
0.757674 0.646925 0.865227
0.758454 0.647704 0.971714
0.759932 0.759009 0.085838
0.760787 0.759864 0.202713
0.761621 0.760698 0.316725
0.762446 0.761523 0.429418
0.763264 0.762341 0.541237
0.764077 0.763154 0.652401
0.764887 0.763964 0.763041
0.765693 0.764770 0.873246
0.766472 0.765550 0.979733
0.767919 0.876391 0.093826
0.768774 0.877247 0.210701
0.769609 0.878081 0.324712
0.770433 0.878905 0.437405
0.771251 0.879724 0.549224
0.772065 0.880537 0.660388
0.772874 0.881346 0.771028
0.773681 0.882153 0.881233
0.774460 0.882932 0.987720
0.775570 0.988831 0.101477
0.776425 0.989686 0.218352
0.777260 0.990520 0.332363
0.778084 0.991345 0.445056
0.778902 0.992163 0.556875
0.779716 0.992976 0.668039
0.780525 0.993786 0.778679
0.781332 0.994592 0.888884
0.782111 0.995371 0.995371
0.822621 0.040143 0.039136
0.823476 0.040998 0.156010
0.824310 0.041832 0.270022
0.825135 0.042657 0.382715
0.825953 0.043475 0.494534
0.826766 0.044288 0.605698
0.827576 0.045098 0.716338
0.828382 0.045904 0.826543
0.829161 0.046683 0.933030
0.831089 0.164584 0.047603
0.831944 0.165439 0.164478
0.832778 0.166273 0.278490
0.833602 0.167098 0.391183
0.834421 0.167916 0.503002
0.835234 0.168729 0.614165
0.836044 0.169539 0.724806
0.836850 0.170345 0.835011
0.837629 0.171124 0.941498
0.839351 0.286010 0.055866
0.840206 0.286865 0.172741
0.841040 0.287699 0.286752
0.841865 0.288524 0.399445
0.842683 0.289342 0.511264
0.843496 0.290155 0.622428
0.844306 0.290965 0.733068
0.845112 0.291771 0.843273
0.845892 0.292550 0.949760
0.847518 0.406037 0.064033
0.848373 0.406892 0.180908
0.849208 0.407726 0.294920
0.850032 0.408551 0.407613
0.850850 0.409369 0.519431
0.851664 0.410182 0.630595
0.852473 0.410992 0.741236
0.853280 0.411798 0.851440
0.854059 0.412577 0.957928
0.855622 0.525135 0.072137
0.856478 0.525990 0.189012
0.857312 0.526824 0.303024
0.858136 0.527649 0.415717
0.858954 0.528467 0.527535
0.859768 0.529281 0.638699
0.860577 0.530090 0.749340
0.861384 0.530896 0.859545
0.862163 0.531676 0.966032
0.863679 0.643537 0.080194
0.864534 0.644393 0.197069
0.865368 0.645227 0.311080
0.866193 0.646051 0.423773
0.867011 0.646870 0.535592
0.867825 0.647683 0.646756
0.868634 0.648492 0.757396
0.869440 0.649299 0.867601
0.870220 0.650078 0.974089
0.871698 0.761383 0.088213
0.872553 0.762238 0.205087
0.873387 0.763073 0.319099
0.874212 0.763897 0.431792
0.875030 0.764715 0.543611
0.875843 0.765529 0.654775
0.876653 0.766338 0.765415
0.877459 0.767145 0.875620
0.878238 0.767924 0.982107
0.879685 0.878766 0.096200
0.880540 0.879621 0.213075
0.881375 0.880455 0.327087
0.882199 0.881280 0.439780
0.883017 0.882098 0.551598
0.883831 0.882911 0.662762
0.884640 0.883721 0.773403
0.885447 0.884527 0.883607
0.886226 0.885306 0.990095
0.887336 0.991205 0.103851
0.888191 0.992060 0.220726
0.889026 0.992895 0.334738
0.889850 0.993719 0.447431
0.890668 0.994537 0.559249
0.891482 0.995351 0.670413
0.892291 0.996160 0.781054
0.893098 0.996966 0.891258
0.893877 0.997746 0.997746
0.928744 0.042397 0.041390
0.929599 0.043252 0.158265
0.930434 0.044086 0.272277
0.931258 0.044911 0.384970
0.932076 0.045729 0.496788
0.932890 0.046543 0.607952
0.933699 0.047352 0.718593
0.934506 0.048158 0.828797
0.935285 0.048938 0.935285
0.937212 0.166838 0.049858
0.938067 0.167693 0.166732
0.938901 0.168528 0.280744
0.939726 0.169352 0.393437
0.940544 0.170170 0.505256
0.941357 0.170984 0.616420
0.942167 0.171793 0.727060
0.942973 0.172600 0.837265
0.943752 0.173379 0.943752
0.945474 0.288264 0.058120
0.946329 0.289119 0.174995
0.947164 0.289953 0.289007
0.947988 0.290778 0.401700
0.948806 0.291596 0.513518
0.949620 0.292409 0.624682
0.950429 0.293219 0.735323
0.951236 0.294025 0.845528
0.952015 0.294804 0.952015
0.953642 0.408291 0.066287
0.954497 0.409146 0.183162
0.955331 0.409980 0.297174
0.956156 0.410805 0.409867
0.956974 0.411623 0.521686
0.957787 0.412436 0.632850
0.958597 0.413246 0.743490
0.959403 0.414052 0.853695
0.960182 0.414832 0.960182
0.961746 0.527389 0.074391
0.962601 0.528245 0.191266
0.963435 0.529079 0.305278
0.964260 0.529903 0.417971
0.965078 0.530722 0.529790
0.965891 0.531535 0.640954
0.966701 0.532344 0.751594
0.967507 0.533151 0.861799
0.968286 0.533930 0.968286
0.969802 0.645792 0.082448
0.970658 0.646647 0.199323
0.971492 0.647481 0.313335
0.972316 0.648306 0.426028
0.973134 0.649124 0.537846
0.973948 0.649937 0.649010
0.974757 0.650747 0.759651
0.975564 0.651553 0.869856
0.976343 0.652332 0.976343
0.977821 0.763638 0.090467
0.978676 0.764493 0.207342
0.979511 0.765327 0.321354
0.980335 0.766152 0.434047
0.981153 0.766970 0.545865
0.981967 0.767783 0.657029
0.982776 0.768593 0.767670
0.983583 0.769399 0.877874
0.984362 0.770178 0.984362
0.985809 0.881020 0.098454
0.986664 0.881875 0.215329
0.987498 0.882709 0.329341
0.988322 0.883534 0.442034
0.989141 0.884352 0.553853
0.989954 0.885165 0.665016
0.990764 0.885975 0.775657
0.991570 0.886781 0.885862
0.992349 0.887561 0.992349
0.993460 0.993460 0.106105
0.994315 0.994315 0.222980
0.995149 0.995149 0.336992
0.995973 0.995973 0.449685
0.996792 0.996792 0.561504
0.997605 0.997605 0.672667
0.998415 0.998415 0.783308
0.999221 0.999221 0.893513
1.000000 1.000000 1.000000
