skills/creativeops-director/assets/grade/luts/soft_pastel_v08.cube
TITLE "soft_pastel_v08"
LUT_3D_SIZE 17
DOMAIN_MIN 0.0 0.0 0.0
DOMAIN_MAX 1.0 1.0 1.0
0.044315 0.040939 0.037551
0.044893 0.041516 0.094502
0.045456 0.042079 0.150077
0.046011 0.042635 0.204876
0.046561 0.043185 0.259134
0.047107 0.043731 0.312975
0.047649 0.044273 0.366478
0.048189 0.044812 0.419696
0.048726 0.045349 0.472670
0.049260 0.045884 0.525427
0.049793 0.046417 0.577993
0.050324 0.046948 0.630386
0.050854 0.047477 0.682620
0.051382 0.048005 0.734711
0.051908 0.048532 0.786667
0.052434 0.049057 0.838500
0.052951 0.049575 0.889569
0.050022 0.102902 0.043257
0.050599 0.103480 0.100208
0.051162 0.104043 0.155783
0.051718 0.104598 0.210583
0.052268 0.105148 0.264841
0.052813 0.105694 0.318682
0.053356 0.106236 0.372185
0.053895 0.106776 0.425403
0.054432 0.107313 0.478376
0.054967 0.107848 0.531134
0.055500 0.108380 0.583699
0.056031 0.108911 0.636092
0.056560 0.109441 0.688327
0.057088 0.109969 0.740417
0.057615 0.110496 0.792374
0.058140 0.111021 0.844206
0.058658 0.111539 0.895276
0.055596 0.163433 0.048832
0.056173 0.164010 0.105783
0.056737 0.164573 0.161358
0.057292 0.165129 0.216157
0.057842 0.165679 0.270415
0.058388 0.166224 0.324256
0.058930 0.166767 0.377759
0.059470 0.167306 0.430977
0.060007 0.167843 0.483951
0.060541 0.168378 0.536708
0.061074 0.168911 0.589274
0.061605 0.169442 0.641666
0.062135 0.169971 0.693901
0.062663 0.170499 0.745992
0.063189 0.171026 0.797948
0.063715 0.171551 0.849781
0.064232 0.172069 0.900850
0.061095 0.223139 0.054330
0.061672 0.223716 0.111281
0.062235 0.224280 0.166856
0.062791 0.224835 0.221656
0.063341 0.225385 0.275914
0.063886 0.225931 0.329755
0.064429 0.226473 0.383257
0.064968 0.227013 0.436476
0.065505 0.227550 0.489449
0.066040 0.228084 0.542207
0.066573 0.228617 0.594772
0.067104 0.229148 0.647165
0.067633 0.229678 0.699400
0.068161 0.230206 0.751490
0.068688 0.230732 0.803447
0.069213 0.231258 0.855279
0.069731 0.231775 0.906349
0.066540 0.282265 0.059775
0.067117 0.282842 0.116727
0.067680 0.283405 0.172301
0.068236 0.283961 0.227101
0.068786 0.284511 0.281359
0.069332 0.285057 0.335200
0.069874 0.285599 0.388703
0.070413 0.286138 0.441921
0.070950 0.286675 0.494894
0.071485 0.287210 0.547652
0.072018 0.287743 0.600218
0.072549 0.288274 0.652610
0.073078 0.288803 0.704845
0.073606 0.289331 0.756935
0.074133 0.289858 0.808892
0.074658 0.290383 0.860725
0.075176 0.290901 0.911794
0.071944 0.340942 0.065179
0.072521 0.341520 0.122130
0.073084 0.342083 0.177705
0.073640 0.342638 0.232505
0.074190 0.343188 0.286763
0.074735 0.343734 0.340604
0.075278 0.344276 0.394106
0.075817 0.344816 0.447325
0.076354 0.345353 0.500298
0.076889 0.345888 0.553056
0.077422 0.346420 0.605621
0.077953 0.346951 0.658014
0.078482 0.347481 0.710249
0.079010 0.348009 0.762339
0.079537 0.348536 0.814296
0.080062 0.349061 0.866128
0.080580 0.349579 0.917198
0.077314 0.399255 0.070549
0.077891 0.399832 0.127501
0.078454 0.400396 0.183075
0.079010 0.400951 0.237875
0.079560 0.401501 0.292133
0.080106 0.402047 0.345974
0.080648 0.402589 0.399477
0.081187 0.403129 0.452695
0.081724 0.403666 0.505668
0.082259 0.404200 0.558426
0.082792 0.404733 0.610992
0.083323 0.405264 0.663384
0.083852 0.405794 0.715619
0.084380 0.406322 0.767709
0.084907 0.406848 0.819666
0.085432 0.407374 0.871499
0.085950 0.407891 0.922568
0.082656 0.457261 0.075891
0.083233 0.457838 0.132842
0.083796 0.458401 0.188417
0.084352 0.458957 0.243217
0.084902 0.459507 0.297475
0.085447 0.460053 0.351316
0.085990 0.460595 0.404819
0.086529 0.461134 0.458037
0.087066 0.461671 0.511010
0.087601 0.462206 0.563768
0.088134 0.462739 0.616333
0.088665 0.463270 0.668726
0.089194 0.463799 0.720961
0.089722 0.464327 0.773051
0.090249 0.464854 0.825008
0.090774 0.465379 0.876840
0.091292 0.465897 0.927910
0.087973 0.515001 0.081209
0.088551 0.515578 0.138160
0.089114 0.516142 0.193735
0.089669 0.516697 0.248534
0.090219 0.517247 0.302792
0.090765 0.517793 0.356633
0.091307 0.518335 0.410136
0.091847 0.518875 0.463354
0.092384 0.519412 0.516328
0.092918 0.519946 0.569085
0.093451 0.520479 0.621651
0.093982 0.521010 0.674043
0.094512 0.521540 0.726278
0.095040 0.522068 0.778369
0.095566 0.522594 0.830325
0.096092 0.523120 0.882158
0.096609 0.523637 0.933227
0.093269 0.572508 0.086505
0.093847 0.573086 0.143456
0.094410 0.573649 0.199031
0.094965 0.574204 0.253830
0.095515 0.574754 0.308088
0.096061 0.575300 0.361929
0.096603 0.575842 0.415432
0.097143 0.576382 0.468650
0.097680 0.576919 0.521624
0.098214 0.577454 0.574381
0.098747 0.577986 0.626947
0.099278 0.578517 0.679339
0.099808 0.579047 0.731574
0.100336 0.579575 0.783665
0.100862 0.580102 0.835621
0.101388 0.580627 0.887454
0.101905 0.581145 0.938523
0.098546 0.629808 0.091781
0.099123 0.630385 0.148733
0.099687 0.630948 0.204307
0.100242 0.631504 0.259107
0.100792 0.632054 0.313365
0.101338 0.632599 0.367206
0.101880 0.633142 0.420709
0.102420 0.633681 0.473927
0.102957 0.634218 0.526900
0.103491 0.634753 0.579658
0.104024 0.635286 0.632224
0.104555 0.635817 0.684616
0.105085 0.636346 0.736851
0.105613 0.636874 0.788941
0.106139 0.637401 0.840898
0.106665 0.637926 0.892731
0.107182 0.638444 0.943800
0.103806 0.686919 0.097041
0.104383 0.687496 0.153992
0.104946 0.688060 0.209567
0.105502 0.688615 0.264367
0.106052 0.689165 0.318625
0.106597 0.689711 0.372466
0.107140 0.690253 0.425968
0.107679 0.690792 0.479187
0.108216 0.691329 0.532160
0.108751 0.691864 0.584918
0.109284 0.692397 0.637483
0.109815 0.692928 0.689876
0.110344 0.693457 0.742111
0.110872 0.693985 0.794201
0.111399 0.694512 0.846158
0.111924 0.695037 0.897990
0.112442 0.695555 0.949060
0.109050 0.743859 0.102285
0.109627 0.744437 0.159236
0.110190 0.745000 0.214811
0.110746 0.745555 0.269611
0.111296 0.746105 0.323868
0.111841 0.746651 0.377709
0.112384 0.747193 0.431212
0.112923 0.747733 0.484431
0.113460 0.748270 0.537404
0.113995 0.748805 0.590162
0.114528 0.749337 0.642727
0.115059 0.749868 0.695120
0.115588 0.750398 0.747355
0.116116 0.750926 0.799445
0.116643 0.751453 0.851402
0.117168 0.751978 0.903234
0.117686 0.752496 0.954304
0.114279 0.800643 0.107514
0.114856 0.801220 0.164466
0.115419 0.801784 0.220040
0.115975 0.802339 0.274840
0.116525 0.802889 0.329098
0.117071 0.803435 0.382939
0.117613 0.803977 0.436442
0.118152 0.804516 0.489660
0.118689 0.805053 0.542633
0.119224 0.805588 0.595391
0.119757 0.806121 0.647957
0.120288 0.806652 0.700349
0.120817 0.807182 0.752584
0.121345 0.807710 0.804674
0.121872 0.808236 0.856631
0.122397 0.808762 0.908464
0.122915 0.809279 0.959533
0.119495 0.857282 0.112730
0.120072 0.857859 0.169682
0.120636 0.858422 0.225256
0.121191 0.858978 0.280056
0.121741 0.859528 0.334314
0.122287 0.860073 0.388155
0.122829 0.860616 0.441658
0.123368 0.861155 0.494876
0.123905 0.861692 0.547849
0.124440 0.862227 0.600607
0.124973 0.862760 0.653173
0.125504 0.863291 0.705565
0.126033 0.863820 0.757800
0.126561 0.864348 0.809890
0.127088 0.864875 0.861847
0.127613 0.865400 0.913680
0.128131 0.865918 0.964749
0.124699 0.913786 0.117934
0.125276 0.914363 0.174885
0.125839 0.914926 0.230460
0.126395 0.915482 0.285260
0.126945 0.916032 0.339517
0.127490 0.916577 0.393358
0.128033 0.917120 0.446861
0.128572 0.917659 0.500080
0.129109 0.918196 0.553053
0.129644 0.918731 0.605811
0.130177 0.919264 0.658376
0.130708 0.919795 0.710769
0.131237 0.920324 0.763004
0.131765 0.920852 0.815094
0.132292 0.921379 0.867051
0.132817 0.921904 0.918883
0.133335 0.922422 0.969953
0.129520 0.966138 0.122755
0.130097 0.966715 0.179707
0.130660 0.967278 0.235281
0.131216 0.967834 0.290081
0.131766 0.968384 0.344339
0.132312 0.968930 0.398180
0.132854 0.969472 0.451683
0.133393 0.970011 0.504901
0.133930 0.970548 0.557874
0.134465 0.971083 0.610632
0.134998 0.971616 0.663198
0.135529 0.972147 0.715590
0.136058 0.972676 0.767825
0.136586 0.973204 0.819915
0.137113 0.973731 0.871872
0.137638 0.974256 0.923705
0.138156 0.974774 0.974774
0.102156 0.042632 0.039244
0.102733 0.043209 0.096195
0.103297 0.043772 0.151770
0.103852 0.044328 0.206569
0.104402 0.044878 0.260827
0.104948 0.045423 0.314668
0.105490 0.045966 0.368171
0.106029 0.046505 0.421389
0.106566 0.047042 0.474363
0.107101 0.047577 0.527120
0.107634 0.048110 0.579686
0.108165 0.048641 0.632079
0.108694 0.049170 0.684313
0.109222 0.049698 0.736404
0.109749 0.050225 0.788360
0.110274 0.050750 0.840193
0.110792 0.051268 0.891262
0.107862 0.104595 0.044950
0.108440 0.105173 0.101901
0.109003 0.105736 0.157476
0.109558 0.106291 0.212276
0.110108 0.106841 0.266534
0.110654 0.107387 0.320375
0.111196 0.107929 0.373877
0.111736 0.108469 0.427096
0.112273 0.109006 0.480069
0.112808 0.109541 0.532827
0.113340 0.110073 0.585392
0.113871 0.110604 0.637785
0.114401 0.111134 0.690020
0.114929 0.111662 0.742110
0.115456 0.112189 0.794067
0.115981 0.112714 0.845899
0.116499 0.113232 0.896969
0.113437 0.165126 0.050525
0.114014 0.165703 0.107476
0.114577 0.166266 0.163051
0.115133 0.166822 0.217850
0.115683 0.167372 0.272108
0.116229 0.167917 0.325949
0.116771 0.168460 0.379452
0.117310 0.168999 0.432670
0.117847 0.169536 0.485644
0.118382 0.170071 0.538401
0.118915 0.170604 0.590967
0.119446 0.171135 0.643359
0.119975 0.171664 0.695594
0.120503 0.172192 0.747685
0.121030 0.172719 0.799641
0.121555 0.173244 0.851474
0.122073 0.173762 0.902543
0.118935 0.224832 0.056023
0.119513 0.225409 0.112974
0.120076 0.225973 0.168549
0.120631 0.226528 0.223349
0.121181 0.227078 0.277607
0.121727 0.227624 0.331448
0.122269 0.228166 0.384950
0.122809 0.228706 0.438169
0.123346 0.229243 0.491142
0.123881 0.229777 0.543900
0.124413 0.230310 0.596465
0.124944 0.230841 0.648858
0.125474 0.231371 0.701093
0.126002 0.231899 0.753183
0.126529 0.232425 0.805140
0.127054 0.232951 0.856972
0.127572 0.233468 0.908042
0.124380 0.283958 0.061468
0.124958 0.284535 0.118419
0.125521 0.285098 0.173994
0.126076 0.285654 0.228794
0.126626 0.286204 0.283052
0.127172 0.286750 0.336893
0.127715 0.287292 0.390396
0.128254 0.287831 0.443614
0.128791 0.288368 0.496587
0.129326 0.288903 0.549345
0.129858 0.289436 0.601911
0.130389 0.289967 0.654303
0.130919 0.290496 0.706538
0.131447 0.291024 0.758628
0.131974 0.291551 0.810585
0.132499 0.292076 0.862418
0.133017 0.292594 0.913487
0.129784 0.342635 0.066872
0.130362 0.343213 0.123823
0.130925 0.343776 0.179398
0.131480 0.344331 0.234198
0.132030 0.344881 0.288455
0.132576 0.345427 0.342297
0.133118 0.345969 0.395799
0.133658 0.346509 0.449018
0.134195 0.347046 0.501991
0.134729 0.347581 0.554749
0.135262 0.348113 0.607314
0.135793 0.348644 0.659707
0.136323 0.349174 0.711942
0.136851 0.349702 0.764032
0.137377 0.350228 0.815989
0.137903 0.350754 0.867821
0.138420 0.351272 0.918891
0.135154 0.400948 0.072242
0.135732 0.401525 0.129194
0.136295 0.402089 0.184768
0.136851 0.402644 0.239568
0.137400 0.403194 0.293826
0.137946 0.403740 0.347667
0.138489 0.404282 0.401170
0.139028 0.404822 0.454388
0.139565 0.405359 0.507361
0.140100 0.405893 0.560119
0.140632 0.406426 0.612685
0.141164 0.406957 0.665077
0.141693 0.407487 0.717312
0.142221 0.408015 0.769402
0.142748 0.408541 0.821359
0.143273 0.409067 0.873192
0.143791 0.409584 0.924261
0.140496 0.458954 0.077584
0.141074 0.459531 0.134535
0.141637 0.460094 0.190110
0.142192 0.460650 0.244910
0.142742 0.461200 0.299168
0.143288 0.461746 0.353009
0.143830 0.462288 0.406511
0.144370 0.462827 0.459730
0.144907 0.463364 0.512703
0.145442 0.463899 0.565461
0.145974 0.464432 0.618026
0.146505 0.464963 0.670419
0.147035 0.465492 0.722654
0.147563 0.466020 0.774744
0.148090 0.466547 0.826701
0.148615 0.467072 0.878533
0.149133 0.467590 0.929603
0.145814 0.516694 0.082902
0.146391 0.517271 0.139853
0.146954 0.517835 0.195428
0.147510 0.518390 0.250227
0.148060 0.518940 0.304485
0.148606 0.519486 0.358326
0.149148 0.520028 0.411829
0.149687 0.520568 0.465047
0.150224 0.521105 0.518021
0.150759 0.521639 0.570778
0.151292 0.522172 0.623344
0.151823 0.522703 0.675736
0.152352 0.523233 0.727971
0.152880 0.523761 0.780062
0.153407 0.524287 0.832018
0.153932 0.524813 0.883851
0.154450 0.525330 0.934920
0.151110 0.574201 0.088198
0.151687 0.574779 0.145149
0.152250 0.575342 0.200724
0.152806 0.575897 0.255523
0.153356 0.576447 0.309781
0.153902 0.576993 0.363622
0.154444 0.577535 0.417125
0.154983 0.578075 0.470343
0.155520 0.578612 0.523317
0.156055 0.579147 0.576074
0.156588 0.579679 0.628640
0.157119 0.580210 0.681032
0.157648 0.580740 0.733267
0.158176 0.581268 0.785358
0.158703 0.581795 0.837314
0.159228 0.582320 0.889147
0.159746 0.582838 0.940216
0.156387 0.631501 0.093474
0.156964 0.632078 0.150426
0.157527 0.632641 0.206000
0.158083 0.633197 0.260800
0.158633 0.633747 0.315058
0.159179 0.634292 0.368899
0.159721 0.634835 0.422402
0.160260 0.635374 0.475620
0.160797 0.635911 0.528593
0.161332 0.636446 0.581351
0.161865 0.636979 0.633917
0.162396 0.637510 0.686309
0.162925 0.638039 0.738544
0.163453 0.638567 0.790634
0.163980 0.639094 0.842591
0.164505 0.639619 0.894424
0.165023 0.640137 0.945493
0.161646 0.688612 0.098734
0.162224 0.689189 0.155685
0.162787 0.689753 0.211260
0.163342 0.690308 0.266060
0.163892 0.690858 0.320318
0.164438 0.691404 0.374159
0.164980 0.691946 0.427661
0.165520 0.692485 0.480880
0.166057 0.693022 0.533853
0.166592 0.693557 0.586611
0.167124 0.694090 0.639176
0.167655 0.694621 0.691569
0.168185 0.695150 0.743804
0.168713 0.695678 0.795894
0.169239 0.696205 0.847851
0.169765 0.696730 0.899683
0.170283 0.697248 0.950753
0.166890 0.745552 0.103978
0.167467 0.746130 0.160929
0.168031 0.746693 0.216504
0.168586 0.747248 0.271304
0.169136 0.747798 0.325561
0.169682 0.748344 0.379402
0.170224 0.748886 0.432905
0.170764 0.749426 0.486124
0.171301 0.749963 0.539097
0.171835 0.750498 0.591855
0.172368 0.751030 0.644420
0.172899 0.751561 0.696813
0.173429 0.752091 0.749048
0.173957 0.752619 0.801138
0.174483 0.753146 0.853095
0.175009 0.753671 0.904927
0.175526 0.754189 0.955997
0.172120 0.802336 0.109207
0.172697 0.802913 0.166159
0.173260 0.803477 0.221733
0.173816 0.804032 0.276533
0.174366 0.804582 0.330791
0.174911 0.805128 0.384632
0.175454 0.805670 0.438135
0.175993 0.806209 0.491353
0.176530 0.806746 0.544326
0.177065 0.807281 0.597084
0.177598 0.807814 0.649650
0.178129 0.808345 0.702042
0.178658 0.808875 0.754277
0.179186 0.809402 0.806367
0.179713 0.809929 0.858324
0.180238 0.810455 0.910157
0.180756 0.810972 0.961226
0.177336 0.858975 0.114423
0.177913 0.859552 0.171375
0.178476 0.860115 0.226949
0.179032 0.860671 0.281749
0.179582 0.861221 0.336007
0.180127 0.861766 0.389848
0.180670 0.862309 0.443351
0.181209 0.862848 0.496569
0.181746 0.863385 0.549542
0.182281 0.863920 0.602300
0.182814 0.864453 0.654866
0.183345 0.864984 0.707258
0.183874 0.865513 0.759493
0.184402 0.866041 0.811583
0.184929 0.866568 0.863540
0.185454 0.867093 0.915373
0.185972 0.867611 0.966442
0.182539 0.915479 0.119627
0.183116 0.916056 0.176578
0.183680 0.916619 0.232153
0.184235 0.917175 0.286953
0.184785 0.917725 0.341210
0.185331 0.918270 0.395051
0.185873 0.918813 0.448554
0.186413 0.919352 0.501773
0.186950 0.919889 0.554746
0.187484 0.920424 0.607504
0.188017 0.920957 0.660069
0.188548 0.921488 0.712462
0.189078 0.922017 0.764697
0.189606 0.922545 0.816787
0.190132 0.923072 0.868744
0.190658 0.923597 0.920576
0.191175 0.924115 0.971646
0.187360 0.967831 0.124448
0.187938 0.968408 0.181400
0.188501 0.968971 0.236974
0.189057 0.969527 0.291774
0.189606 0.970077 0.346032
0.190152 0.970623 0.399873
0.190695 0.971165 0.453376
0.191234 0.971704 0.506594
0.191771 0.972241 0.559567
0.192306 0.972776 0.612325
0.192838 0.973309 0.664891
0.193370 0.973840 0.717283
0.193899 0.974369 0.769518
0.194427 0.974897 0.821608
0.194954 0.975424 0.873565
0.195479 0.975949 0.925398
0.195997 0.976467 0.976467
0.158713 0.044287 0.040899
0.159291 0.044864 0.097850
0.159854 0.045428 0.153425
0.160410 0.045983 0.208225
0.160959 0.046533 0.262483
0.161505 0.047079 0.316324
0.162048 0.047621 0.369827
0.162587 0.048161 0.423045
0.163124 0.048698 0.476018
0.163659 0.049232 0.528776
0.164191 0.049765 0.581341
0.164723 0.050296 0.633734
0.165252 0.050826 0.685969
0.165780 0.051354 0.738059
0.166307 0.051880 0.790016
0.166832 0.052406 0.841848
0.167350 0.052923 0.892918
0.164420 0.106251 0.046606
0.164997 0.106828 0.103557
0.165560 0.107391 0.159132
0.166116 0.107947 0.213931
0.166666 0.108497 0.268189
0.167212 0.109043 0.322030
0.167754 0.109585 0.375533
0.168293 0.110124 0.428751
0.168830 0.110661 0.481725
0.169365 0.111196 0.534482
0.169898 0.111729 0.587048
0.170429 0.112260 0.639440
0.170958 0.112789 0.691675
0.171486 0.113317 0.743766
0.172013 0.113844 0.795722
0.172538 0.114369 0.847555
0.173056 0.114887 0.898624
0.169994 0.166781 0.052180
0.170572 0.167358 0.109131
0.171135 0.167922 0.164706
0.171690 0.168477 0.219506
0.172240 0.169027 0.273763
0.172786 0.169573 0.327605
0.173328 0.170115 0.381107
0.173868 0.170655 0.434326
0.174405 0.171192 0.487299
0.174940 0.171726 0.540057
0.175472 0.172259 0.592622
0.176003 0.172790 0.645015
0.176533 0.173320 0.697250
0.177061 0.173848 0.749340
0.177587 0.174374 0.801297
0.178113 0.174900 0.853129
0.178631 0.175417 0.904199
0.175493 0.226488 0.057679
0.176070 0.227065 0.114630
0.176633 0.227628 0.170205
0.177189 0.228184 0.225004
0.177739 0.228734 0.279262
0.178285 0.229279 0.333103
0.178827 0.229822 0.386606
0.179366 0.230361 0.439824
0.179903 0.230898 0.492797
0.180438 0.231433 0.545555
0.180971 0.231966 0.598121
0.181502 0.232497 0.650513
0.182031 0.233026 0.702748
0.182559 0.233554 0.754839
0.183086 0.234081 0.806795
0.183611 0.234606 0.858628
0.184129 0.235124 0.909697
0.180938 0.285613 0.063124
0.181515 0.286191 0.120075
0.182079 0.286754 0.175650
0.182634 0.287309 0.230449
0.183184 0.287859 0.284707
0.183730 0.288405 0.338548
0.184272 0.288947 0.392051
0.184811 0.289487 0.445269
0.185348 0.290024 0.498243
0.185883 0.290558 0.551000
0.186416 0.291091 0.603566
0.186947 0.291622 0.655958
0.187476 0.292152 0.708193
0.188004 0.292680 0.760284
0.188531 0.293206 0.812240
0.189056 0.293732 0.864073
0.189574 0.294249 0.915142
0.186342 0.344291 0.068527
0.186919 0.344868 0.125479
0.187482 0.345431 0.181053
0.188038 0.345987 0.235853
0.188588 0.346537 0.290111
0.189134 0.347083 0.343952
0.189676 0.347625 0.397455
0.190215 0.348164 0.450673
0.190752 0.348701 0.503646
0.191287 0.349236 0.556404
0.191820 0.349769 0.608970
0.192351 0.350300 0.661362
0.192880 0.350829 0.713597
0.193408 0.351357 0.765687
0.193935 0.351884 0.817644
0.194460 0.352409 0.869477
0.194978 0.352927 0.920546
0.191712 0.402604 0.073898
0.192289 0.403181 0.130849
0.192853 0.403744 0.186424
0.193408 0.404300 0.241223
0.193958 0.404850 0.295481
0.194504 0.405395 0.349322
0.195046 0.405938 0.402825
0.195585 0.406477 0.456043
0.196122 0.407014 0.509017
0.196657 0.407549 0.561774
0.197190 0.408082 0.614340
0.197721 0.408613 0.666732
0.198250 0.409142 0.718967
0.198778 0.409670 0.771058
0.199305 0.410197 0.823014
0.199831 0.410722 0.874847
0.200348 0.411240 0.925916
0.197054 0.460609 0.079240
0.197631 0.461187 0.136191
0.198194 0.461750 0.191766
0.198750 0.462305 0.246565
0.199300 0.462855 0.300823
0.199846 0.463401 0.354664
0.200388 0.463943 0.408167
0.200927 0.464483 0.461385
0.201464 0.465020 0.514358
0.201999 0.465554 0.567116
0.202532 0.466087 0.619682
0.203063 0.466618 0.672074
0.203592 0.467148 0.724309
0.204120 0.467676 0.776400
0.204647 0.468202 0.828356
0.205172 0.468728 0.880189
0.205690 0.469245 0.931258
0.202371 0.518350 0.084557
0.202949 0.518927 0.141508
0.203512 0.519490 0.197083
0.204067 0.520046 0.251883
0.204617 0.520596 0.306141
0.205163 0.521141 0.359982
0.205705 0.521684 0.413484
0.206245 0.522223 0.466703
0.206782 0.522760 0.519676
0.207317 0.523295 0.572434
0.207849 0.523828 0.624999
0.208380 0.524359 0.677392
0.208910 0.524888 0.729627
0.209438 0.525416 0.781717
0.209965 0.525943 0.833674
0.210490 0.526468 0.885506
0.211008 0.526986 0.936576
0.207667 0.575857 0.089853
0.208245 0.576434 0.146804
0.208808 0.576997 0.202379
0.209363 0.577553 0.257179
0.209913 0.578103 0.311437
0.210459 0.578649 0.365278
0.211001 0.579191 0.418780
0.211541 0.579730 0.471999
0.212078 0.580267 0.524972
0.212613 0.580802 0.577730
0.213145 0.581335 0.630295
0.213676 0.581866 0.682688
0.214206 0.582395 0.734923
0.214734 0.582923 0.787013
0.215261 0.583450 0.838970
0.215786 0.583975 0.890802
0.216304 0.584493 0.941872
0.212944 0.633156 0.095130
0.213522 0.633733 0.152081
0.214085 0.634297 0.207656
0.214640 0.634852 0.262456
0.215190 0.635402 0.316713
0.215736 0.635948 0.370554
0.216278 0.636490 0.424057
0.216818 0.637029 0.477276
0.217355 0.637566 0.530249
0.217889 0.638101 0.583007
0.218422 0.638634 0.635572
0.218953 0.639165 0.687965
0.219483 0.639694 0.740200
0.220011 0.640222 0.792290
0.220537 0.640749 0.844247
0.221063 0.641274 0.896079
0.221580 0.641792 0.947149
0.218204 0.690267 0.100389
0.218781 0.690845 0.157341
0.219344 0.691408 0.212915
0.219900 0.691963 0.267715
0.220450 0.692513 0.321973
0.220996 0.693059 0.375814
0.221538 0.693601 0.429317
0.222077 0.694141 0.482535
0.222614 0.694678 0.535508
0.223149 0.695213 0.588266
0.223682 0.695745 0.640832
0.224213 0.696276 0.693224
0.224742 0.696806 0.745459
0.225270 0.697334 0.797549
0.225797 0.697861 0.849506
0.226322 0.698386 0.901339
0.226840 0.698904 0.952408
0.223448 0.747208 0.105633
0.224025 0.747785 0.162585
0.224588 0.748348 0.218159
0.225144 0.748904 0.272959
0.225694 0.749454 0.327217
0.226239 0.750000 0.381058
0.226782 0.750542 0.434561
0.227321 0.751081 0.487779
0.227858 0.751618 0.540752
0.228393 0.752153 0.593510
0.228926 0.752686 0.646076
0.229457 0.753217 0.698468
0.229986 0.753746 0.750703
0.230514 0.754274 0.802793
0.231041 0.754801 0.854750
0.231566 0.755326 0.906583
0.232084 0.755844 0.957652
0.228677 0.803991 0.110863
0.229254 0.804569 0.167814
0.229818 0.805132 0.223389
0.230373 0.805687 0.278188
0.230923 0.806237 0.332446
0.231469 0.806783 0.386287
0.232011 0.807325 0.439790
0.232551 0.807865 0.493008
0.233087 0.808402 0.545982
0.233622 0.808937 0.598739
0.234155 0.809469 0.651305
0.234686 0.810000 0.703698
0.235216 0.810530 0.755932
0.235744 0.811058 0.808023
0.236270 0.811585 0.859979
0.236796 0.812110 0.911812
0.237313 0.812628 0.962881
0.233893 0.860630 0.116079
0.234470 0.861207 0.173030
0.235034 0.861771 0.228605
0.235589 0.862326 0.283405
0.236139 0.862876 0.337662
0.236685 0.863422 0.391503
0.237227 0.863964 0.445006
0.237767 0.864504 0.498225
0.238304 0.865040 0.551198
0.238838 0.865575 0.603955
0.239371 0.866108 0.656521
0.239902 0.866639 0.708914
0.240432 0.867169 0.761148
0.240960 0.867697 0.813239
0.241486 0.868223 0.865195
0.242012 0.868749 0.917028
0.242529 0.869266 0.968097
0.239097 0.917134 0.121282
0.239674 0.917711 0.178234
0.240237 0.918275 0.233808
0.240793 0.918830 0.288608
0.241343 0.919380 0.342866
0.241888 0.919926 0.396707
0.242431 0.920468 0.450210
0.242970 0.921007 0.503428
0.243507 0.921544 0.556401
0.244042 0.922079 0.609159
0.244575 0.922612 0.661725
0.245106 0.923143 0.714117
0.245635 0.923672 0.766352
0.246163 0.924200 0.818442
0.246690 0.924727 0.870399
0.247215 0.925252 0.922232
0.247733 0.925770 0.973301
0.243918 0.969486 0.126104
0.244495 0.970063 0.183055
0.245059 0.970627 0.238630
0.245614 0.971182 0.293429
0.246164 0.971732 0.347687
0.246710 0.972278 0.401528
0.247252 0.972820 0.455031
0.247791 0.973360 0.508249
0.248328 0.973897 0.561223
0.248863 0.974431 0.613980
0.249396 0.974964 0.666546
0.249927 0.975495 0.718938
0.250457 0.976025 0.771173
0.250985 0.976553 0.823264
0.251511 0.977079 0.875220
0.252037 0.977605 0.927053
0.252554 0.978122 0.978122
0.214519 0.045921 0.042533
0.215096 0.046498 0.099484
0.215660 0.047061 0.155059
0.216215 0.047617 0.209858
0.216765 0.048167 0.264116
0.217311 0.048712 0.317957
0.217853 0.049255 0.371460
0.218392 0.049794 0.424678
0.218929 0.050331 0.477651
0.219464 0.050866 0.530409
0.219997 0.051399 0.582975
0.220528 0.051930 0.635367
0.221058 0.052459 0.687602
0.221586 0.052987 0.739693
0.222112 0.053514 0.791649
0.222638 0.054039 0.843482
0.223155 0.054557 0.894551
0.220225 0.107884 0.048239
