skills/creativeops-director/assets/grade/luts/soft_pastel_v09.cube
TITLE "soft_pastel_v09"
LUT_3D_SIZE 17
DOMAIN_MIN 0.0 0.0 0.0
DOMAIN_MAX 1.0 1.0 1.0
0.048361 0.044537 0.040697
0.048967 0.045143 0.097211
0.049558 0.045733 0.152323
0.050141 0.046316 0.206635
0.050717 0.046892 0.260385
0.051289 0.047464 0.313701
0.051857 0.048032 0.366665
0.052421 0.048597 0.419333
0.052983 0.049159 0.471744
0.053543 0.049718 0.523931
0.054100 0.050275 0.575917
0.054656 0.050831 0.627722
0.055210 0.051385 0.679363
0.055762 0.051937 0.730852
0.056312 0.052487 0.782202
0.056862 0.053037 0.833423
0.057408 0.053583 0.884403
0.054350 0.106299 0.046685
0.054956 0.106905 0.103199
0.055547 0.107496 0.158311
0.056129 0.108078 0.212624
0.056705 0.108654 0.266373
0.057277 0.109226 0.319690
0.057845 0.109794 0.372654
0.058410 0.110359 0.425321
0.058972 0.110921 0.477733
0.059531 0.111480 0.529919
0.060089 0.112038 0.581905
0.060644 0.112593 0.633711
0.061198 0.113147 0.685351
0.061750 0.113699 0.736841
0.062301 0.114250 0.788191
0.062850 0.114799 0.839411
0.063396 0.115346 0.890392
0.060197 0.166602 0.052532
0.060803 0.167208 0.109046
0.061393 0.167799 0.164158
0.061976 0.168381 0.218470
0.062552 0.168958 0.272220
0.063124 0.169529 0.325537
0.063692 0.170097 0.378500
0.064257 0.170662 0.431168
0.064818 0.171224 0.483579
0.065378 0.171784 0.535766
0.065935 0.172341 0.587752
0.066491 0.172897 0.639557
0.067045 0.173450 0.691198
0.067597 0.174002 0.742687
0.068147 0.174553 0.794037
0.068697 0.175102 0.845258
0.069243 0.175649 0.896239
0.065961 0.226053 0.058296
0.066567 0.226659 0.114810
0.067158 0.227250 0.169922
0.067740 0.227832 0.224235
0.068316 0.228409 0.277984
0.068888 0.228980 0.331301
0.069456 0.229548 0.384265
0.070021 0.230113 0.436932
0.070583 0.230675 0.489344
0.071142 0.231235 0.541530
0.071700 0.231792 0.593516
0.072255 0.232348 0.645322
0.072809 0.232901 0.696962
0.073361 0.233453 0.748452
0.073912 0.234004 0.799802
0.074461 0.234553 0.851022
0.075007 0.235100 0.902003
0.071666 0.284900 0.064002
0.072272 0.285506 0.120515
0.072863 0.286097 0.175628
0.073446 0.286679 0.229940
0.074022 0.287256 0.283690
0.074594 0.287827 0.337006
0.075162 0.288395 0.389970
0.075726 0.288960 0.442638
0.076288 0.289522 0.495049
0.076848 0.290082 0.547236
0.077405 0.290639 0.599222
0.077961 0.291194 0.651027
0.078514 0.291748 0.702668
0.079067 0.292300 0.754157
0.079617 0.292851 0.805507
0.080166 0.293400 0.856727
0.080713 0.293947 0.907708
0.077327 0.343279 0.069662
0.077933 0.343885 0.126176
0.078524 0.344476 0.181288
0.079106 0.345059 0.235600
0.079682 0.345635 0.289350
0.080254 0.346207 0.342667
0.080822 0.346775 0.395631
0.081387 0.347339 0.448298
0.081949 0.347901 0.500709
0.082508 0.348461 0.552896
0.083066 0.349018 0.604882
0.083621 0.349574 0.656687
0.084175 0.350127 0.708328
0.084727 0.350680 0.759818
0.085277 0.351230 0.811167
0.085827 0.351779 0.862388
0.086373 0.352326 0.913369
0.082950 0.401277 0.075286
0.083556 0.401883 0.131799
0.084147 0.402474 0.186911
0.084729 0.403057 0.241224
0.085306 0.403633 0.294974
0.085877 0.404205 0.348290
0.086445 0.404773 0.401254
0.087010 0.405337 0.453921
0.087572 0.405899 0.506333
0.088131 0.406459 0.558519
0.088689 0.407016 0.610506
0.089244 0.407572 0.662311
0.089798 0.408126 0.713951
0.090350 0.408678 0.765441
0.090901 0.409228 0.816791
0.091450 0.409777 0.868011
0.091997 0.410324 0.918992
0.088542 0.458954 0.080878
0.089148 0.459560 0.137391
0.089739 0.460151 0.192504
0.090321 0.460733 0.246816
0.090898 0.461310 0.300566
0.091469 0.461881 0.353882
0.092037 0.462449 0.406846
0.092602 0.463014 0.459513
0.093164 0.463576 0.511925
0.093724 0.464136 0.564112
0.094281 0.464693 0.616098
0.094836 0.465248 0.667903
0.095390 0.465802 0.719543
0.095942 0.466354 0.771033
0.096493 0.466905 0.822383
0.097042 0.467454 0.873603
0.097589 0.468001 0.924584
0.094107 0.516353 0.086443
0.094713 0.516959 0.142956
0.095304 0.517550 0.198069
0.095887 0.518132 0.252381
0.096463 0.518709 0.306131
0.097035 0.519280 0.359447
0.097602 0.519848 0.412411
0.098167 0.520413 0.465079
0.098729 0.520975 0.517490
0.099289 0.521534 0.569677
0.099846 0.522092 0.621663
0.100402 0.522647 0.673468
0.100955 0.523201 0.725109
0.101507 0.523753 0.776598
0.102058 0.524304 0.827948
0.102607 0.524853 0.879168
0.103154 0.525400 0.930149
0.099649 0.573507 0.091984
0.100255 0.574113 0.148498
0.100846 0.574704 0.203610
0.101428 0.575287 0.257923
0.102004 0.575863 0.311672
0.102576 0.576435 0.364989
0.103144 0.577003 0.417953
0.103709 0.577567 0.470620
0.104271 0.578129 0.523032
0.104830 0.578689 0.575218
0.105388 0.579246 0.627204
0.105943 0.579802 0.679010
0.106497 0.580356 0.730650
0.107049 0.580908 0.782140
0.107600 0.581458 0.833490
0.108149 0.582007 0.884710
0.108695 0.582554 0.935691
0.105169 0.630444 0.097505
0.105775 0.631050 0.154018
0.106366 0.631641 0.209131
0.106948 0.632223 0.263443
0.107525 0.632799 0.317193
0.108096 0.633371 0.370509
0.108664 0.633939 0.423473
0.109229 0.634504 0.476140
0.109791 0.635066 0.528552
0.110351 0.635625 0.580739
0.110908 0.636183 0.632725
0.111464 0.636738 0.684530
0.112017 0.637292 0.736171
0.112569 0.637844 0.787660
0.113120 0.638395 0.839010
0.113669 0.638944 0.890230
0.114216 0.639491 0.941211
0.110670 0.687183 0.103006
0.111276 0.687789 0.159519
0.111867 0.688380 0.214632
0.112450 0.688963 0.268944
0.113026 0.689539 0.322694
0.113598 0.690111 0.376010
0.114166 0.690679 0.428974
0.114730 0.691243 0.481642
0.115292 0.691805 0.534053
0.115852 0.692365 0.586240
0.116409 0.692922 0.638226
0.116965 0.693478 0.690031
0.117519 0.694032 0.741672
0.118071 0.694584 0.793161
0.118621 0.695134 0.844511
0.119170 0.695683 0.895732
0.119717 0.696230 0.946712
0.116154 0.743744 0.108490
0.116760 0.744350 0.165003
0.117351 0.744941 0.220116
0.117934 0.745523 0.274428
0.118510 0.746099 0.328178
0.119082 0.746671 0.381494
0.119650 0.747239 0.434458
0.120214 0.747804 0.487126
0.120776 0.748366 0.539537
0.121336 0.748925 0.591724
0.121893 0.749483 0.643710
0.122449 0.750038 0.695515
0.123002 0.750592 0.747156
0.123555 0.751144 0.798645
0.124105 0.751695 0.849995
0.124654 0.752244 0.901215
0.125201 0.752790 0.952196
0.121622 0.800139 0.113958
0.122228 0.800745 0.170471
0.122819 0.801336 0.225584
0.123402 0.801919 0.279896
0.123978 0.802495 0.333646
0.124550 0.803067 0.386962
0.125117 0.803635 0.439926
0.125682 0.804199 0.492594
0.126244 0.804761 0.545005
0.126804 0.805321 0.597192
0.127361 0.805878 0.649178
0.127917 0.806434 0.700983
0.128470 0.806988 0.752624
0.129022 0.807540 0.804113
0.129573 0.808090 0.855463
0.130122 0.808639 0.906683
0.130669 0.809186 0.957664
0.127075 0.856383 0.119411
0.127681 0.856989 0.175924
0.128272 0.857580 0.231037
0.128855 0.858162 0.285349
0.129431 0.858739 0.339099
0.130003 0.859310 0.392415
0.130571 0.859878 0.445379
0.131135 0.860443 0.498047
0.131697 0.861005 0.550458
0.132257 0.861565 0.602645
0.132814 0.862122 0.654631
0.133370 0.862677 0.706436
0.133924 0.863231 0.758077
0.134476 0.863783 0.809566
0.135026 0.864334 0.860916
0.135575 0.864883 0.912137
0.136122 0.865430 0.963117
0.132515 0.912485 0.124851
0.133121 0.913091 0.181364
0.133712 0.913682 0.236476
0.134294 0.914265 0.290789
0.134871 0.914841 0.344539
0.135442 0.915413 0.397855
0.136010 0.915980 0.450819
0.136575 0.916545 0.503486
0.137137 0.917107 0.555898
0.137696 0.917667 0.608084
0.138254 0.918224 0.660071
0.138809 0.918780 0.711876
0.139363 0.919333 0.763516
0.139915 0.919885 0.815006
0.140466 0.920436 0.866356
0.141015 0.920985 0.917576
0.141562 0.921532 0.968557
0.137564 0.964559 0.129899
0.138170 0.965165 0.186413
0.138761 0.965756 0.241525
0.139343 0.966338 0.295838
0.139919 0.966915 0.349587
0.140491 0.967486 0.402904
0.141059 0.968054 0.455868
0.141624 0.968619 0.508535
0.142186 0.969181 0.560947
0.142745 0.969741 0.613133
0.143303 0.970298 0.665119
0.143858 0.970854 0.716925
0.144412 0.971407 0.768565
0.144964 0.971959 0.820055
0.145515 0.972510 0.871405
0.146064 0.973059 0.922625
0.146610 0.973606 0.973606
0.105787 0.046313 0.042473
0.106393 0.046919 0.098987
0.106984 0.047510 0.154099
0.107566 0.048092 0.208411
0.108143 0.048668 0.262161
0.108714 0.049240 0.315478
0.109282 0.049808 0.368442
0.109847 0.050373 0.421109
0.110409 0.050935 0.473520
0.110969 0.051494 0.525707
0.111526 0.052052 0.577693
0.112082 0.052607 0.629498
0.112635 0.053161 0.681139
0.113187 0.053713 0.732629
0.113738 0.054263 0.783978
0.114287 0.054813 0.835199
0.114834 0.055359 0.886180
0.111775 0.108075 0.048461
0.112381 0.108681 0.104975
0.112972 0.109272 0.160087
0.113555 0.109854 0.214400
0.114131 0.110431 0.268149
0.114703 0.111002 0.321466
0.115271 0.111570 0.374430
0.115835 0.112135 0.427097
0.116397 0.112697 0.479509
0.116957 0.113256 0.531695
0.117514 0.113814 0.583681
0.118070 0.114369 0.635487
0.118624 0.114923 0.687127
0.119176 0.115475 0.738617
0.119726 0.116026 0.789967
0.120275 0.116575 0.841187
0.120822 0.117122 0.892168
0.117622 0.168378 0.054308
0.118228 0.168984 0.110822
0.118819 0.169575 0.165934
0.119402 0.170158 0.220246
0.119978 0.170734 0.273996
0.120550 0.171306 0.327313
0.121117 0.171873 0.380277
0.121682 0.172438 0.432944
0.122244 0.173000 0.485356
0.122804 0.173560 0.537542
0.123361 0.174117 0.589528
0.123917 0.174673 0.641334
0.124470 0.175226 0.692974
0.125022 0.175778 0.744464
0.125573 0.176329 0.795814
0.126122 0.176878 0.847034
0.126669 0.177425 0.898015
0.123386 0.227829 0.060072
0.123992 0.228435 0.116586
0.124583 0.229026 0.171698
0.125166 0.229609 0.226011
0.125742 0.230185 0.279760
0.126314 0.230757 0.333077
0.126882 0.231324 0.386041
0.127446 0.231889 0.438708
0.128008 0.232451 0.491120
0.128568 0.233011 0.543306
0.129125 0.233568 0.595292
0.129681 0.234124 0.647098
0.130235 0.234677 0.698738
0.130787 0.235229 0.750228
0.131337 0.235780 0.801578
0.131886 0.236329 0.852798
0.132433 0.236876 0.903779
0.129092 0.286676 0.065778
0.129698 0.287282 0.122291
0.130289 0.287873 0.177404
0.130871 0.288455 0.231716
0.131448 0.289032 0.285466
0.132019 0.289603 0.338782
0.132587 0.290171 0.391746
0.133152 0.290736 0.444414
0.133714 0.291298 0.496825
0.134274 0.291858 0.549012
0.134831 0.292415 0.600998
0.135386 0.292971 0.652803
0.135940 0.293524 0.704444
0.136492 0.294076 0.755933
0.137043 0.294627 0.807283
0.137592 0.295176 0.858504
0.138139 0.295723 0.909484
0.134752 0.345055 0.071438
0.135358 0.345661 0.127952
0.135949 0.346252 0.183064
0.136532 0.346835 0.237377
0.137108 0.347411 0.291126
0.137680 0.347983 0.344443
0.138247 0.348551 0.397407
0.138812 0.349115 0.450074
0.139374 0.349677 0.502486
0.139934 0.350237 0.554672
0.140491 0.350794 0.606658
0.141047 0.351350 0.658464
0.141600 0.351904 0.710104
0.142152 0.352456 0.761594
0.142703 0.353006 0.812944
0.143252 0.353555 0.864164
0.143799 0.354102 0.915145
0.140376 0.403053 0.077062
0.140982 0.403659 0.133575
0.141572 0.404250 0.188688
0.142155 0.404833 0.243000
0.142731 0.405409 0.296750
0.143303 0.405981 0.350066
0.143871 0.406549 0.403030
0.144436 0.407113 0.455697
0.144997 0.407675 0.508109
0.145557 0.408235 0.560296
0.146114 0.408792 0.612282
0.146670 0.409348 0.664087
0.147224 0.409902 0.715727
0.147776 0.410454 0.767217
0.148326 0.411004 0.818567
0.148876 0.411554 0.869787
0.149422 0.412100 0.920768
0.145968 0.460730 0.082654
0.146574 0.461336 0.139167
0.147165 0.461927 0.194280
0.147747 0.462509 0.248592
0.148323 0.463086 0.302342
0.148895 0.463657 0.355658
0.149463 0.464225 0.408622
0.150028 0.464790 0.461289
0.150590 0.465352 0.513701
0.151149 0.465912 0.565888
0.151707 0.466469 0.617874
0.152262 0.467025 0.669679
0.152816 0.467578 0.721320
0.153368 0.468130 0.772809
0.153919 0.468681 0.824159
0.154468 0.469230 0.875379
0.155014 0.469777 0.926360
0.151533 0.518129 0.088219
0.152139 0.518735 0.144732
0.152730 0.519326 0.199845
0.153312 0.519908 0.254157
0.153889 0.520485 0.307907
0.154460 0.521056 0.361223
0.155028 0.521624 0.414187
0.155593 0.522189 0.466855
0.156155 0.522751 0.519266
0.156714 0.523311 0.571453
0.157272 0.523868 0.623439
0.157827 0.524423 0.675244
0.158381 0.524977 0.726885
0.158933 0.525529 0.778374
0.159484 0.526080 0.829724
0.160033 0.526629 0.880944
0.160580 0.527176 0.931925
0.157074 0.575284 0.093760
0.157680 0.575890 0.150274
0.158271 0.576480 0.205386
0.158854 0.577063 0.259699
0.159430 0.577639 0.313448
0.160002 0.578211 0.366765
0.160570 0.578779 0.419729
0.161134 0.579343 0.472396
0.161696 0.579905 0.524808
0.162256 0.580465 0.576994
0.162813 0.581022 0.628980
0.163369 0.581578 0.680786
0.163923 0.582132 0.732426
0.164475 0.582684 0.783916
0.165025 0.583234 0.835266
0.165574 0.583784 0.886486
0.166121 0.584330 0.937467
0.162595 0.632220 0.099281
0.163201 0.632826 0.155794
0.163792 0.633417 0.210907
0.164374 0.633999 0.265219
0.164950 0.634576 0.318969
0.165522 0.635147 0.372285
0.166090 0.635715 0.425249
0.166655 0.636280 0.477917
0.167217 0.636842 0.530328
0.167776 0.637401 0.582515
0.168334 0.637959 0.634501
0.168889 0.638514 0.686306
0.169443 0.639068 0.737947
0.169995 0.639620 0.789436
0.170546 0.640171 0.840786
0.171095 0.640720 0.892006
0.171641 0.641267 0.942987
0.168096 0.688960 0.104782
0.168702 0.689566 0.161296
0.169293 0.690156 0.216408
0.169875 0.690739 0.270720
0.170452 0.691315 0.324470
0.171023 0.691887 0.377786
0.171591 0.692455 0.430750
0.172156 0.693019 0.483418
0.172718 0.693581 0.535829
0.173278 0.694141 0.588016
0.173835 0.694698 0.640002
0.174390 0.695254 0.691807
0.174944 0.695808 0.743448
0.175496 0.696360 0.794937
0.176047 0.696910 0.846287
0.176596 0.697460 0.897508
0.177143 0.698006 0.948489
0.173580 0.745520 0.110266
0.174186 0.746126 0.166779
0.174777 0.746717 0.221892
0.175359 0.747299 0.276204
0.175936 0.747875 0.329954
0.176507 0.748447 0.383270
0.177075 0.749015 0.436234
0.177640 0.749580 0.488902
0.178202 0.750142 0.541313
0.178761 0.750701 0.593500
0.179319 0.751259 0.645486
0.179874 0.751814 0.697291
0.180428 0.752368 0.748932
0.180980 0.752920 0.800421
0.181531 0.753471 0.851771
0.182080 0.754020 0.902992
0.182627 0.754567 0.953972
0.179048 0.801916 0.115734
0.179654 0.802521 0.172247
0.180245 0.803112 0.227360
0.180827 0.803695 0.281672
0.181404 0.804271 0.335422
0.181975 0.804843 0.388738
0.182543 0.805411 0.441702
0.183108 0.805975 0.494370
0.183670 0.806537 0.546781
0.184229 0.807097 0.598968
0.184787 0.807654 0.650954
0.185342 0.808210 0.702759
0.185896 0.808764 0.754400
0.186448 0.809316 0.805889
0.186999 0.809866 0.857239
0.187548 0.810416 0.908459
0.188095 0.810962 0.959440
0.184501 0.858159 0.121187
0.185107 0.858765 0.177701
0.185698 0.859356 0.232813
0.186280 0.859938 0.287125
0.186857 0.860515 0.340875
0.187428 0.861086 0.394191
0.187996 0.861654 0.447155
0.188561 0.862219 0.499823
0.189123 0.862781 0.552234
0.189683 0.863341 0.604421
0.190240 0.863898 0.656407
0.190796 0.864454 0.708212
0.191349 0.865007 0.759853
0.191901 0.865559 0.811342
0.192452 0.866110 0.862692
0.193001 0.866659 0.913913
0.193548 0.867206 0.964894
0.189941 0.914261 0.126627
0.190547 0.914867 0.183140
0.191138 0.915458 0.238253
0.191720 0.916041 0.292565
0.192296 0.916617 0.346315
0.192868 0.917189 0.399631
0.193436 0.917757 0.452595
0.194001 0.918321 0.505262
0.194563 0.918883 0.557674
0.195122 0.919443 0.609861
0.195680 0.920000 0.661847
0.196235 0.920556 0.713652
0.196789 0.921109 0.765292
0.197341 0.921662 0.816782
0.197891 0.922212 0.868132
0.198441 0.922761 0.919352
0.198987 0.923308 0.970333
0.194990 0.966335 0.131676
0.195595 0.966941 0.188189
0.196186 0.967532 0.243301
0.196769 0.968115 0.297614
0.197345 0.968691 0.351364
0.197917 0.969263 0.404680
0.198485 0.969830 0.457644
0.199049 0.970395 0.510311
0.199611 0.970957 0.562723
0.200171 0.971517 0.614909
0.200728 0.972074 0.666896
0.201284 0.972630 0.718701
0.201838 0.973183 0.770341
0.202390 0.973735 0.821831
0.202940 0.974286 0.873181
0.203490 0.974835 0.924401
0.204036 0.975382 0.975382
0.161917 0.048049 0.044209
0.162523 0.048655 0.100723
0.163114 0.049246 0.155835
0.163696 0.049828 0.210147
0.164272 0.050404 0.263897
0.164844 0.050976 0.317214
0.165412 0.051544 0.370178
0.165977 0.052109 0.422845
0.166539 0.052671 0.475256
0.167098 0.053230 0.527443
0.167656 0.053788 0.579429
0.168211 0.054343 0.631234
0.168765 0.054897 0.682875
0.169317 0.055449 0.734365
0.169868 0.056000 0.785714
0.170417 0.056549 0.836935
0.170963 0.057095 0.887916
0.167905 0.109811 0.050197
0.168511 0.110417 0.106711
0.169102 0.111008 0.161823
0.169684 0.111590 0.216136
0.170261 0.112167 0.269885
0.170832 0.112738 0.323202
0.171400 0.113306 0.376166
0.171965 0.113871 0.428833
0.172527 0.114433 0.481245
0.173087 0.114992 0.533431
0.173644 0.115550 0.585417
0.174199 0.116105 0.637223
0.174753 0.116659 0.688863
0.175305 0.117211 0.740353
0.175856 0.117762 0.791703
0.176405 0.118311 0.842923
0.176952 0.118858 0.893904
0.173752 0.170114 0.056044
0.174358 0.170720 0.112558
0.174949 0.171311 0.167670
0.175531 0.171894 0.221982
0.176107 0.172470 0.275732
0.176679 0.173042 0.329049
0.177247 0.173609 0.382013
0.177812 0.174174 0.434680
0.178374 0.174736 0.487092
0.178933 0.175296 0.539278
0.179491 0.175853 0.591264
0.180046 0.176409 0.643070
0.180600 0.176962 0.694710
0.181152 0.177514 0.746200
0.181703 0.178065 0.797550
0.182252 0.178614 0.848770
0.182799 0.179161 0.899751
0.179516 0.229565 0.061808
0.180122 0.230171 0.118322
0.180713 0.230762 0.173434
0.181295 0.231345 0.227747
0.181872 0.231921 0.281496
0.182443 0.232493 0.334813
0.183011 0.233060 0.387777
0.183576 0.233625 0.440444
0.184138 0.234187 0.492856
0.184698 0.234747 0.545042
0.185255 0.235304 0.597028
0.185810 0.235860 0.648834
0.186364 0.236413 0.700474
0.186916 0.236965 0.751964
0.187467 0.237516 0.803314
0.188016 0.238065 0.854534
0.188563 0.238612 0.905515
0.185222 0.288412 0.067514
0.185828 0.289018 0.124027
0.186419 0.289609 0.179140
0.187001 0.290191 0.233452
0.187577 0.290768 0.287202
0.188149 0.291339 0.340518
0.188717 0.291907 0.393482
0.189282 0.292472 0.446150
0.189844 0.293034 0.498561
0.190403 0.293594 0.550748
0.190961 0.294151 0.602734
0.191516 0.294707 0.654539
0.192070 0.295260 0.706180
0.192622 0.295812 0.757669
0.193172 0.296363 0.809019
0.193722 0.296912 0.860240
0.194268 0.297459 0.911220
0.190882 0.346791 0.073174
0.191488 0.347397 0.129688
0.192079 0.347988 0.184800
0.192661 0.348571 0.239113
0.193238 0.349147 0.292862
0.193809 0.349719 0.346179
0.194377 0.350287 0.399143
0.194942 0.350851 0.451810
0.195504 0.351413 0.504222
0.196063 0.351973 0.556408
0.196621 0.352530 0.608394
0.197176 0.353086 0.660200
0.197730 0.353640 0.711840
0.198282 0.354192 0.763330
0.198833 0.354742 0.814680
0.199382 0.355291 0.865900
0.199929 0.355838 0.916881
0.196505 0.404790 0.078798
0.197111 0.405395 0.135311
0.197702 0.405986 0.190424
0.198284 0.406569 0.244736
0.198861 0.407145 0.298486
0.199432 0.407717 0.351802
0.200000 0.408285 0.404766
0.200565 0.408849 0.457433
0.201127 0.409411 0.509845
0.201687 0.409971 0.562032
0.202244 0.410528 0.614018
0.202800 0.411084 0.665823
0.203353 0.411638 0.717463
0.203905 0.412190 0.768953
0.204456 0.412740 0.820303
0.205005 0.413290 0.871523
0.205552 0.413836 0.922504
0.202097 0.462466 0.084390
0.202703 0.463072 0.140903
0.203294 0.463663 0.196016
0.203877 0.464245 0.250328
0.204453 0.464822 0.304078
0.205025 0.465393 0.357394
0.205593 0.465961 0.410358
0.206157 0.466526 0.463025
0.206719 0.467088 0.515437
0.207279 0.467648 0.567624
0.207836 0.468205 0.619610
0.208392 0.468761 0.671415
0.208945 0.469314 0.723056
0.209498 0.469866 0.774545
0.210048 0.470417 0.825895
0.210597 0.470966 0.877115
0.211144 0.471513 0.928096
0.207663 0.519865 0.089955
0.208269 0.520471 0.146468
0.208859 0.521062 0.201581
0.209442 0.521644 0.255893
0.210018 0.522221 0.309643
0.210590 0.522792 0.362959
0.211158 0.523360 0.415923
0.211722 0.523925 0.468591
0.212284 0.524487 0.521002
0.212844 0.525047 0.573189
0.213401 0.525604 0.625175
0.213957 0.526159 0.676980
0.214511 0.526713 0.728621
0.215063 0.527265 0.780110
0.215613 0.527816 0.831460
0.216163 0.528365 0.882680
0.216709 0.528912 0.933661
0.213204 0.577020 0.095496
0.213810 0.577626 0.152010
0.214401 0.578216 0.207122
0.214983 0.578799 0.261435
0.215560 0.579375 0.315184
0.216131 0.579947 0.368501
0.216699 0.580515 0.421465
0.217264 0.581079 0.474132
0.217826 0.581641 0.526544
0.218386 0.582201 0.578730
0.218943 0.582758 0.630716
0.219498 0.583314 0.682522
0.220052 0.583868 0.734162
0.220604 0.584420 0.785652
0.221155 0.584970 0.837002
0.221704 0.585520 0.888222
0.222251 0.586066 0.939203
0.218724 0.633956 0.101017
0.219330 0.634562 0.157530
0.219921 0.635153 0.212643
0.220504 0.635735 0.266955
0.221080 0.636312 0.320705
0.221652 0.636883 0.374021
0.222220 0.637451 0.426985
0.222784 0.638016 0.479653
0.223346 0.638578 0.532064
0.223906 0.639137 0.584251
0.224463 0.639695 0.636237
0.225019 0.640250 0.688042
0.225573 0.640804 0.739683
0.226125 0.641356 0.791172
0.226675 0.641907 0.842522
0.227224 0.642456 0.893742
0.227771 0.643003 0.944723
0.224226 0.690696 0.106518
0.224832 0.691302 0.163032
0.225423 0.691892 0.218144
0.226005 0.692475 0.272456
0.226581 0.693051 0.326206
0.227153 0.693623 0.379522
0.227721 0.694191 0.432486
0.228286 0.694756 0.485154
0.228848 0.695317 0.537565
0.229407 0.695877 0.589752
0.229965 0.696434 0.641738
0.230520 0.696990 0.693543
0.231074 0.697544 0.745184
0.231626 0.698096 0.796673
0.232177 0.698646 0.848023
0.232726 0.699196 0.899244
0.233272 0.699742 0.950225
0.229710 0.747256 0.112002
0.230316 0.747862 0.168515
0.230907 0.748453 0.223628
0.231489 0.749035 0.277940
0.232065 0.749611 0.331690
0.232637 0.750183 0.385006
0.233205 0.750751 0.437970
0.233770 0.751316 0.490638
0.234332 0.751878 0.543049
0.234891 0.752437 0.595236
0.235449 0.752995 0.647222
0.236004 0.753550 0.699027
0.236558 0.754104 0.750668
0.237110 0.754656 0.802157
0.237660 0.755207 0.853507
0.238210 0.755756 0.904728
0.238756 0.756303 0.955708
0.235178 0.803652 0.117470
0.235783 0.804258 0.173983
0.236374 0.804848 0.229096
0.236957 0.805431 0.283408
0.237533 0.806007 0.337158
0.238105 0.806579 0.390474
0.238673 0.807147 0.443438
0.239237 0.807711 0.496106
0.239799 0.808273 0.548517
0.240359 0.808833 0.600704
0.240916 0.809390 0.652690
0.241472 0.809946 0.704495
0.242026 0.810500 0.756136
0.242578 0.811052 0.807625
0.243128 0.811602 0.858975
0.243678 0.812152 0.910195
0.244224 0.812698 0.961176
0.240631 0.859895 0.122923
0.241237 0.860501 0.179437
0.241828 0.861092 0.234549
0.242410 0.861674 0.288861
0.242986 0.862251 0.342611
0.243558 0.862822 0.395927
0.244126 0.863390 0.448891
0.244691 0.863955 0.501559
0.245253 0.864517 0.553970
0.245812 0.865077 0.606157
0.246370 0.865634 0.658143
0.246925 0.866190 0.709948
0.247479 0.866743 0.761589
0.248031 0.867295 0.813078
0.248582 0.867846 0.864428
0.249131 0.868395 0.915649
0.249677 0.868942 0.966630
0.246070 0.915997 0.128363
0.246676 0.916603 0.184876
0.247267 0.917194 0.239989
0.247849 0.917777 0.294301
0.248426 0.918353 0.348051
0.248998 0.918925 0.401367
0.249565 0.919493 0.454331
0.250130 0.920057 0.506998
0.250692 0.920619 0.559410
0.251252 0.921179 0.611597
0.251809 0.921736 0.663583
0.252365 0.922292 0.715388
0.252918 0.922845 0.767028
0.253470 0.923398 0.818518
0.254021 0.923948 0.869868
0.254570 0.924497 0.921088
0.255117 0.925044 0.972069
0.251119 0.968071 0.133412
0.251725 0.968677 0.189925
0.252316 0.969268 0.245037
0.252898 0.969851 0.299350
0.253475 0.970427 0.353100
0.254046 0.970999 0.406416
0.254614 0.971566 0.459380
0.255179 0.972131 0.512047
0.255741 0.972693 0.564459
0.256301 0.973253 0.616645
0.256858 0.973810 0.668632
0.257414 0.974366 0.720437
0.257967 0.974919 0.772077
0.258519 0.975471 0.823567
0.259070 0.976022 0.874917
0.259619 0.976571 0.926137
0.260166 0.977118 0.977118
0.217274 0.049761 0.045921
0.217880 0.050367 0.102435
0.218471 0.050958 0.157547
0.219053 0.051540 0.211860
0.219629 0.052116 0.265609
0.220201 0.052688 0.318926
0.220769 0.053256 0.371890
0.221334 0.053821 0.424557
0.221896 0.054383 0.476969
0.222455 0.054942 0.529155
0.223013 0.055500 0.581141
0.223568 0.056055 0.632947
0.224122 0.056609 0.684587
0.224674 0.057161 0.736077
0.225224 0.057712 0.787427
0.225774 0.058261 0.838647
0.226320 0.058807 0.889628
0.223262 0.111523 0.051910
