skills/creativeops-director/assets/grade/luts/soft_pastel_v08.cube
TITLE "soft_pastel_v08"
LUT_3D_SIZE 5
DOMAIN_MIN 0.0 0.0 0.0
DOMAIN_MAX 1.0 1.0 1.0
0.044315 0.040939 0.037551
0.046561 0.043185 0.259134
0.048726 0.045349 0.472670
0.050854 0.047477 0.682620
0.052951 0.049575 0.889569
0.066540 0.282265 0.059775
0.068786 0.284511 0.281359
0.070950 0.286675 0.494894
0.073078 0.288803 0.704845
0.075176 0.290901 0.911794
0.087973 0.515001 0.081209
0.090219 0.517247 0.302792
0.092384 0.519412 0.516328
0.094512 0.521540 0.726278
0.096609 0.523637 0.933227
0.109050 0.743859 0.102285
0.111296 0.746105 0.323868
0.113460 0.748270 0.537404
0.115588 0.750398 0.747355
0.117686 0.752496 0.954304
0.129520 0.966138 0.122755
0.131766 0.968384 0.344339
0.133930 0.970548 0.557874
0.136058 0.972676 0.767825
0.138156 0.974774 0.974774
0.269791 0.047538 0.044150
0.272037 0.049784 0.265734
0.274201 0.051949 0.479269
0.276329 0.054077 0.689220
0.278427 0.056175 0.896169
0.292015 0.288864 0.066375
0.294261 0.291110 0.287958
0.296426 0.293275 0.501494
0.298554 0.295403 0.711445
0.300651 0.297501 0.918394
0.313449 0.521601 0.087808
0.315695 0.523847 0.309392
0.317859 0.526011 0.522927
0.319987 0.528139 0.732878
0.322085 0.530237 0.939827
0.334525 0.750459 0.108885
0.336771 0.752705 0.330468
0.338935 0.754869 0.544003
0.341063 0.756998 0.753954
0.343161 0.759095 0.960903
0.354995 0.972737 0.129355
0.357241 0.974983 0.350938
0.359406 0.977148 0.564474
0.361534 0.979276 0.774425
0.363631 0.981374 0.981374
0.487396 0.053908 0.050520
0.489642 0.056154 0.272103
0.491806 0.058318 0.485639
0.493934 0.060446 0.695589
0.496032 0.062544 0.902538
0.509620 0.295234 0.072744
0.511866 0.297480 0.294328
0.514030 0.299644 0.507863
0.516159 0.301772 0.717814
0.518256 0.303870 0.924763
0.531053 0.527970 0.094178
0.533299 0.530216 0.315761
0.535464 0.532381 0.529296
0.537592 0.534509 0.739247
0.539690 0.536606 0.946196
0.552130 0.756828 0.115254
0.554376 0.759074 0.336837
0.556540 0.761239 0.550373
0.558668 0.763367 0.760324
0.560766 0.765464 0.967273
0.572600 0.979107 0.135724
0.574846 0.981353 0.357308
0.577010 0.983517 0.570843
0.579139 0.985645 0.780794
0.581236 0.987743 0.987743
0.701401 0.060172 0.056783
0.703647 0.062418 0.278367
0.705811 0.064582 0.491902
0.707939 0.066710 0.701853
0.710037 0.068808 0.908802
0.723625 0.301498 0.079008
0.725871 0.303744 0.300592
0.728036 0.305908 0.514127
0.730164 0.308036 0.724078
0.732262 0.310134 0.931027
0.745059 0.534234 0.100441
0.747305 0.536480 0.322025
0.749469 0.538644 0.535560
0.751597 0.540773 0.745511
0.753695 0.542870 0.952460
0.766135 0.763092 0.121518
0.768381 0.765338 0.343101
0.770545 0.767503 0.556637
0.772674 0.769631 0.766587
0.774771 0.771728 0.973536
0.786605 0.985371 0.141988
0.788851 0.987617 0.363572
0.791016 0.989781 0.577107
0.793144 0.991909 0.787058
0.795242 0.994007 0.994007
0.906159 0.066165 0.062777
0.908405 0.068411 0.284360
0.910570 0.070575 0.497896
0.912698 0.072703 0.707846
0.914795 0.074801 0.914795
0.928384 0.307491 0.085001
0.930630 0.309737 0.306585
0.932794 0.311901 0.520120
0.934922 0.314029 0.730071
0.937020 0.316127 0.937020
0.949817 0.540227 0.106435
0.952063 0.542473 0.328018
0.954228 0.544638 0.541554
0.956356 0.546766 0.751504
0.958453 0.548863 0.958453
0.970894 0.769085 0.127511
0.973140 0.771331 0.349094
0.975304 0.773496 0.562630
0.977432 0.775624 0.772581
0.979530 0.777722 0.979530
0.991364 0.991364 0.147981
0.993610 0.993610 0.369565
0.995774 0.995774 0.583100
0.997902 0.997902 0.793051
1.000000 1.000000 1.000000
