skills/creativeops-director/assets/grade/luts/vintage_fade_v10.cube
TITLE "vintage_fade_v10"
LUT_3D_SIZE 17
DOMAIN_MIN 0.0 0.0 0.0
DOMAIN_MAX 1.0 1.0 1.0
0.096241 0.096241 0.096241
0.097003 0.097003 0.143734
0.097753 0.097753 0.190487
0.098496 0.098496 0.236804
0.099234 0.099234 0.282812
0.099968 0.099968 0.328579
0.100699 0.100699 0.374149
0.101428 0.101428 0.419553
0.102154 0.102154 0.464814
0.102878 0.102878 0.509947
0.103600 0.103600 0.554968
0.104320 0.104320 0.599886
0.105040 0.105040 0.644710
0.105757 0.105757 0.689449
0.106474 0.106474 0.734109
0.107189 0.107189 0.778695
0.107903 0.107903 0.823211
0.103788 0.150519 0.103788
0.104550 0.151281 0.151281
0.105300 0.152031 0.198034
0.106043 0.152774 0.244351
0.106781 0.153512 0.290359
0.107515 0.154246 0.336126
0.108246 0.154977 0.381696
0.108975 0.155706 0.427100
0.109701 0.156432 0.472361
0.110425 0.157156 0.517494
0.111147 0.157878 0.562515
0.111867 0.158599 0.607433
0.112586 0.159318 0.652257
0.113304 0.160035 0.696996
0.114021 0.160752 0.741656
0.114736 0.161467 0.786241
0.115450 0.162181 0.830758
0.111217 0.203951 0.111217
0.111979 0.204713 0.158711
0.112729 0.205463 0.205463
0.113472 0.206206 0.251781
0.114210 0.206944 0.297788
0.114944 0.207679 0.343555
0.115676 0.208410 0.389125
0.116404 0.209138 0.434530
0.117130 0.209864 0.479790
0.117854 0.210588 0.524924
0.118576 0.211310 0.569944
0.119297 0.212031 0.614862
0.120016 0.212750 0.659687
0.120733 0.213467 0.704425
0.121450 0.214184 0.749085
0.122165 0.214899 0.793671
0.122879 0.215613 0.838188
0.118578 0.256886 0.118578
0.119339 0.257648 0.166071
0.120089 0.258398 0.212823
0.120832 0.259141 0.259141
0.121570 0.259879 0.305148
0.122305 0.260613 0.350915
0.123036 0.261344 0.396486
0.123764 0.262072 0.441890
0.124490 0.262798 0.487150
0.125214 0.263522 0.532284
0.125936 0.264245 0.577304
0.126657 0.264965 0.622222
0.127376 0.265684 0.667047
0.128094 0.266402 0.711786
0.128810 0.267118 0.756445
0.129525 0.267834 0.801031
0.130239 0.268548 0.845548
0.125888 0.309466 0.125888
0.126650 0.310228 0.173382
0.127400 0.310978 0.220134
0.128143 0.311721 0.266452
0.128881 0.312459 0.312459
0.129615 0.313193 0.358226
0.130347 0.313924 0.403796
0.131075 0.314653 0.449201
0.131801 0.315379 0.494461
0.132525 0.316103 0.539595
0.133247 0.316825 0.584615
0.133968 0.317546 0.629533
0.134687 0.318265 0.674358
0.135404 0.318982 0.719096
0.136121 0.319699 0.763756
0.136836 0.320414 0.808342
0.137550 0.321128 0.852859
0.133161 0.361772 0.133161
0.133923 0.362534 0.180654
0.134673 0.363284 0.227407
0.135416 0.364027 0.273724
0.136154 0.364765 0.319732
0.136888 0.365499 0.365499
0.137619 0.366230 0.411069
0.138348 0.366958 0.456473
0.139074 0.367684 0.501734
0.139798 0.368408 0.546867
0.140520 0.369130 0.591888
0.141240 0.369851 0.636806
0.141959 0.370570 0.681630
0.142677 0.371288 0.726369
0.143394 0.372004 0.771029
0.144109 0.372719 0.815614
0.144823 0.373434 0.860131
0.140402 0.413852 0.140402
0.141164 0.414614 0.187896
0.141914 0.415364 0.234648
0.142657 0.416107 0.280966
0.143395 0.416845 0.326973
0.144130 0.417579 0.372740
0.144861 0.418310 0.418310
0.145589 0.419039 0.463715
0.146315 0.419765 0.508975
0.147039 0.420489 0.554109
0.147761 0.421211 0.599129
0.148482 0.421932 0.644047
0.149201 0.422651 0.688872
0.149918 0.423368 0.733610
0.150635 0.424085 0.778270
0.151350 0.424800 0.822856
0.152064 0.425514 0.867373
0.147617 0.465743 0.147617
0.148379 0.466505 0.195111
0.149129 0.467255 0.241863
0.149872 0.467998 0.288181
0.150610 0.468736 0.334188
0.151345 0.469470 0.379955
0.152076 0.470201 0.425525
0.152804 0.470930 0.470930
0.153530 0.471656 0.516190
0.154254 0.472380 0.561324
0.154976 0.473102 0.606344
0.155697 0.473822 0.651262
0.156416 0.474542 0.696087
0.157133 0.475259 0.740825
0.157850 0.475976 0.785485
0.158565 0.476691 0.830071
0.159279 0.477405 0.874588
0.154810 0.517470 0.154810
0.155571 0.518231 0.202303
0.156321 0.518981 0.249055
0.157064 0.519724 0.295373
0.157802 0.520462 0.341380
0.158537 0.521197 0.387147
0.159268 0.521928 0.432718
0.159996 0.522656 0.478122
0.160722 0.523382 0.523382
0.161446 0.524106 0.568516
0.162168 0.524828 0.613536
0.162889 0.525549 0.658454
0.163608 0.526268 0.703279
0.164326 0.526986 0.748018
0.165042 0.527702 0.792677
0.165757 0.528417 0.837263
0.166471 0.529131 0.881780
0.161982 0.569051 0.161982
0.162743 0.569813 0.209475
0.163493 0.570563 0.256227
0.164236 0.571306 0.302545
0.164974 0.572044 0.348552
0.165709 0.572778 0.394319
0.166440 0.573509 0.439890
0.167168 0.574238 0.485294
0.167894 0.574964 0.530554
0.168618 0.575688 0.575688
0.169340 0.576410 0.620708
0.170061 0.577130 0.665626
0.170780 0.577850 0.710451
0.171498 0.578567 0.755190
0.172214 0.579284 0.799849
0.172929 0.579999 0.844435
0.173643 0.580713 0.888952
0.169136 0.620503 0.169136
0.169897 0.621265 0.216629
0.170647 0.622015 0.263381
0.171390 0.622758 0.309699
0.172128 0.623496 0.355706
0.172863 0.624230 0.401473
0.173594 0.624961 0.447044
0.174322 0.625690 0.492448
0.175048 0.626416 0.537708
0.175772 0.627140 0.582842
0.176494 0.627862 0.627862
0.177215 0.628583 0.672780
0.177934 0.629302 0.717605
0.178652 0.630019 0.762344
0.179368 0.630736 0.807003
0.180083 0.631451 0.851589
0.180797 0.632165 0.896106
0.176273 0.671838 0.176273
0.177035 0.672600 0.223766
0.177785 0.673350 0.270519
0.178528 0.674093 0.316837
0.179266 0.674831 0.362844
0.180000 0.675566 0.408611
0.180731 0.676297 0.454181
0.181460 0.677025 0.499586
0.182186 0.677751 0.544846
0.182910 0.678475 0.589979
0.183632 0.679197 0.635000
0.184353 0.679918 0.679918
0.185072 0.680637 0.724742
0.185789 0.681355 0.769481
0.186506 0.682071 0.814141
0.187221 0.682786 0.858727
0.187935 0.683500 0.903244
0.183396 0.723067 0.183396
0.184158 0.723829 0.230889
0.184908 0.724579 0.277642
0.185651 0.725322 0.323960
0.186389 0.726060 0.369967
0.187123 0.726794 0.415734
0.187854 0.727525 0.461304
0.188583 0.728253 0.506708
0.189309 0.728980 0.551969
0.190033 0.729704 0.597102
0.190755 0.730426 0.642123
0.191476 0.731146 0.687041
0.192195 0.731865 0.731865
0.192912 0.732583 0.776604
0.193629 0.733299 0.821264
0.194344 0.734015 0.865850
0.195058 0.734729 0.910366
0.190506 0.774197 0.190506
0.191267 0.774959 0.237999
0.192017 0.775709 0.284751
0.192760 0.776452 0.331069
0.193498 0.777190 0.377076
0.194233 0.777925 0.422843
0.194964 0.778656 0.468414
0.195692 0.779384 0.513818
0.196418 0.780110 0.559078
0.197142 0.780834 0.604212
0.197864 0.781556 0.649232
0.198585 0.782277 0.694150
0.199304 0.782996 0.738975
0.200022 0.783714 0.783714
0.200738 0.784430 0.828373
0.201453 0.785145 0.872959
0.202167 0.785859 0.917476
0.197602 0.825237 0.197602
0.198364 0.825999 0.245095
0.199114 0.826749 0.291848
0.199857 0.827492 0.338165
0.200595 0.828230 0.384173
0.201329 0.828964 0.429940
0.202060 0.829695 0.475510
0.202789 0.830424 0.520914
0.203515 0.831150 0.566175
0.204239 0.831874 0.611308
0.204961 0.832596 0.656329
0.205682 0.833317 0.701247
0.206401 0.834036 0.746071
0.207118 0.834753 0.790810
0.207835 0.835470 0.835470
0.208550 0.836185 0.880056
0.209264 0.836899 0.924572
0.204687 0.876193 0.204687
0.205449 0.876955 0.252180
0.206199 0.877705 0.298933
0.206942 0.878448 0.345250
0.207680 0.879186 0.391258
0.208414 0.879920 0.437025
0.209145 0.880651 0.482595
0.209874 0.881379 0.527999
0.210600 0.882105 0.573260
0.211324 0.882829 0.618393
0.212046 0.883552 0.663414
0.212766 0.884272 0.708332
0.213486 0.884991 0.753156
0.214203 0.885709 0.797895
0.214920 0.886425 0.842555
0.215635 0.887141 0.887141
0.216349 0.887855 0.931657
0.211761 0.927070 0.211761
0.212523 0.927831 0.259254
0.213273 0.928581 0.306007
0.214016 0.929324 0.352324
0.214754 0.930062 0.398332
0.215488 0.930797 0.444099
0.216219 0.931528 0.489669
0.216948 0.932256 0.535073
0.217674 0.932982 0.580334
0.218398 0.933706 0.625467
0.219120 0.934428 0.670488
0.219840 0.935149 0.715406
0.220560 0.935868 0.760230
0.221277 0.936586 0.804969
0.221994 0.937302 0.849629
0.222709 0.938017 0.894215
0.223423 0.938731 0.938731
0.145216 0.098485 0.098485
0.145978 0.099246 0.145978
0.146728 0.099996 0.192730
0.147471 0.100739 0.239048
0.148209 0.101477 0.285055
0.148943 0.102212 0.330822
0.149674 0.102943 0.376393
0.150402 0.103671 0.421797
0.151128 0.104397 0.467057
0.151852 0.105121 0.512191
0.152575 0.105843 0.557211
0.153295 0.106564 0.602129
0.154014 0.107283 0.646954
0.154732 0.108001 0.691693
0.155448 0.108717 0.736352
0.156164 0.109432 0.780938
0.156878 0.110146 0.825455
0.152763 0.152763 0.106032
0.153525 0.153525 0.153525
0.154275 0.154275 0.200277
0.155018 0.155018 0.246595
0.155756 0.155756 0.292602
0.156490 0.156490 0.338369
0.157221 0.157221 0.383940
0.157949 0.157949 0.429344
0.158675 0.158675 0.474604
0.159399 0.159399 0.519738
0.160122 0.160122 0.564758
0.160842 0.160842 0.609676
0.161561 0.161561 0.654501
0.162279 0.162279 0.699240
0.162995 0.162995 0.743899
0.163710 0.163710 0.788485
0.164425 0.164425 0.833002
0.160192 0.206195 0.113461
0.160954 0.206957 0.160954
0.161704 0.207707 0.207707
0.162447 0.208450 0.254024
0.163185 0.209188 0.300032
0.163919 0.209922 0.345799
0.164650 0.210653 0.391369
0.165379 0.211381 0.436773
0.166105 0.212107 0.482033
0.166829 0.212831 0.527167
0.167551 0.213554 0.572187
0.168271 0.214274 0.617105
0.168990 0.214993 0.661930
0.169708 0.215711 0.706669
0.170425 0.216427 0.751328
0.171140 0.217143 0.795914
0.171854 0.217857 0.840431
0.167552 0.259129 0.120821
0.168314 0.259891 0.168314
0.169064 0.260641 0.215067
0.169807 0.261384 0.261384
0.170545 0.262122 0.307392
0.171279 0.262856 0.353159
0.172010 0.263587 0.398729
0.172739 0.264316 0.444133
0.173465 0.265042 0.489393
0.174189 0.265766 0.534527
0.174911 0.266488 0.579547
0.175631 0.267209 0.624465
0.176351 0.267928 0.669290
0.177068 0.268645 0.714029
0.177785 0.269362 0.758689
0.178500 0.270077 0.803274
0.179214 0.270791 0.847791
0.174863 0.311710 0.128132
0.175625 0.312472 0.175625
0.176375 0.313222 0.222378
0.177118 0.313965 0.268695
0.177856 0.314703 0.314703
0.178590 0.315437 0.360470
0.179321 0.316168 0.406040
0.180050 0.316896 0.451444
0.180776 0.317622 0.496704
0.181500 0.318346 0.541838
0.182222 0.319068 0.586858
0.182942 0.319789 0.631776
0.183661 0.320508 0.676601
0.184379 0.321226 0.721340
0.185096 0.321942 0.765999
0.185811 0.322657 0.810585
0.186525 0.323372 0.855102
0.182136 0.364015 0.135404
0.182898 0.364777 0.182898
0.183648 0.365527 0.229650
0.184391 0.366270 0.275968
0.185129 0.367008 0.321975
0.185863 0.367742 0.367742
0.186594 0.368473 0.413312
0.187322 0.369202 0.458717
0.188048 0.369928 0.503977
0.188772 0.370652 0.549111
0.189494 0.371374 0.594131
0.190215 0.372094 0.639049
0.190934 0.372813 0.683874
0.191652 0.373531 0.728612
0.192368 0.374248 0.773272
0.193083 0.374963 0.817858
0.193798 0.375677 0.862375
0.189377 0.416096 0.142646
0.190139 0.416858 0.190139
0.190889 0.417608 0.236892
0.191632 0.418351 0.283209
0.192370 0.419089 0.329217
0.193104 0.419823 0.374984
0.193835 0.420554 0.420554
0.194564 0.421282 0.465958
0.195290 0.422008 0.511218
0.196014 0.422732 0.556352
0.196736 0.423455 0.601372
0.197456 0.424175 0.646290
0.198175 0.424894 0.691115
0.198893 0.425612 0.735854
0.199610 0.426328 0.780513
0.200325 0.427043 0.825099
0.201039 0.427758 0.869616
0.196592 0.467987 0.149861
0.197354 0.468748 0.197354
0.198104 0.469498 0.244107
0.198847 0.470241 0.290424
0.199585 0.470979 0.336432
0.200319 0.471714 0.382199
0.201050 0.472445 0.427769
0.201779 0.473173 0.473173
0.202505 0.473899 0.518433
0.203229 0.474623 0.563567
0.203951 0.475345 0.608587
0.204671 0.476066 0.653505
0.205390 0.476785 0.698330
0.206108 0.477503 0.743069
0.206825 0.478219 0.787728
0.207540 0.478934 0.832314
0.208254 0.479648 0.876831
0.203784 0.519713 0.157053
0.204546 0.520475 0.204546
0.205296 0.521225 0.251299
0.206039 0.521968 0.297616
0.206777 0.522706 0.343624
0.207511 0.523440 0.389391
0.208242 0.524171 0.434961
0.208971 0.524899 0.480365
0.209697 0.525625 0.525625
0.210421 0.526350 0.570759
0.211143 0.527072 0.615779
0.211864 0.527792 0.660697
0.212583 0.528511 0.705522
0.213300 0.529229 0.750261
0.214017 0.529945 0.794921
0.214732 0.530661 0.839506
0.215446 0.531375 0.884023
0.210956 0.571295 0.164225
0.211718 0.572056 0.211718
0.212468 0.572806 0.258471
0.213211 0.573549 0.304788
0.213949 0.574287 0.350796
0.214683 0.575022 0.396563
0.215414 0.575753 0.442133
0.216143 0.576481 0.487537
0.216869 0.577207 0.532797
0.217593 0.577931 0.577931
0.218315 0.578653 0.622951
0.219036 0.579374 0.667869
0.219755 0.580093 0.712694
0.220472 0.580811 0.757433
0.221189 0.581527 0.802093
0.221904 0.582242 0.846678
0.222618 0.582956 0.891195
0.218110 0.622747 0.171379
0.218872 0.623509 0.218872
0.219622 0.624259 0.265625
0.220365 0.625002 0.311942
0.221103 0.625740 0.357950
0.221837 0.626474 0.403717
0.222568 0.627205 0.449287
0.223297 0.627933 0.494691
0.224023 0.628659 0.539952
0.224747 0.629383 0.585085
0.225469 0.630105 0.630105
0.226190 0.630826 0.675023
0.226909 0.631545 0.719848
0.227626 0.632263 0.764587
0.228343 0.632979 0.809247
0.229058 0.633694 0.853832
0.229772 0.634409 0.898349
0.225248 0.674082 0.178517
0.226010 0.674844 0.226010
0.226760 0.675594 0.272763
0.227503 0.676337 0.319080
0.228241 0.677075 0.365088
0.228975 0.677809 0.410854
0.229706 0.678540 0.456425
0.230434 0.679268 0.501829
0.231161 0.679994 0.547089
0.231885 0.680718 0.592223
0.232607 0.681441 0.637243
0.233327 0.682161 0.682161
0.234046 0.682880 0.726986
0.234764 0.683598 0.771725
0.235480 0.684314 0.816384
0.236196 0.685030 0.860970
0.236910 0.685744 0.905487
0.232371 0.725310 0.185640
0.233133 0.726072 0.233133
0.233883 0.726822 0.279886
0.234626 0.727565 0.326203
0.235364 0.728303 0.372210
0.236098 0.729037 0.417977
0.236829 0.729769 0.463548
0.237557 0.730497 0.508952
0.238283 0.731223 0.554212
0.239007 0.731947 0.599346
0.239730 0.732669 0.644366
0.240450 0.733390 0.689284
0.241169 0.734109 0.734109
0.241887 0.734826 0.778848
0.242603 0.735543 0.823507
0.243319 0.736258 0.868093
0.244033 0.736972 0.912610
0.239480 0.776441 0.192749
0.240242 0.777203 0.240242
0.240992 0.777953 0.286995
0.241735 0.778696 0.333312
0.242473 0.779434 0.379320
0.243207 0.780168 0.425087
0.243938 0.780899 0.470657
0.244667 0.781627 0.516061
0.245393 0.782353 0.561321
0.246117 0.783077 0.606455
0.246839 0.783800 0.651475
0.247559 0.784520 0.696393
0.248279 0.785239 0.741218
0.248996 0.785957 0.785957
0.249713 0.786673 0.830617
0.250428 0.787389 0.875202
0.251142 0.788103 0.919719
0.246577 0.827481 0.199846
0.247339 0.828243 0.247339
0.248089 0.828993 0.294091
0.248832 0.829736 0.340409
0.249570 0.830474 0.386416
0.250304 0.831208 0.432183
0.251035 0.831939 0.477754
0.251763 0.832667 0.523158
0.252489 0.833393 0.568418
0.253213 0.834117 0.613552
0.253936 0.834839 0.658572
0.254656 0.835560 0.703490
0.255375 0.836279 0.748315
0.256093 0.836997 0.793054
0.256809 0.837713 0.837713
0.257525 0.838428 0.882299
0.258239 0.839143 0.926816
0.253662 0.878436 0.206931
0.254424 0.879198 0.254424
0.255174 0.879948 0.301176
0.255917 0.880691 0.347494
0.256655 0.881429 0.393501
0.257389 0.882163 0.439268
0.258120 0.882894 0.484839
0.258848 0.883623 0.530243
0.259574 0.884349 0.575503
0.260298 0.885073 0.620637
0.261021 0.885795 0.665657
0.261741 0.886516 0.710575
0.262460 0.887235 0.755400
0.263178 0.887952 0.800139
0.263894 0.888669 0.844798
0.264610 0.889384 0.889384
0.265324 0.890098 0.933901
0.260736 0.929313 0.214005
0.261498 0.930075 0.261498
0.262248 0.930825 0.308250
0.262991 0.931568 0.354568
0.263729 0.932306 0.400575
0.264463 0.933040 0.446342
0.265194 0.933771 0.491913
0.265922 0.934499 0.537317
0.266648 0.935225 0.582577
0.267372 0.935949 0.627711
0.268095 0.936672 0.672731
0.268815 0.937392 0.717649
0.269534 0.938111 0.762474
0.270252 0.938829 0.807213
0.270968 0.939545 0.851872
0.271684 0.940261 0.896458
0.272398 0.940975 0.940975
0.193427 0.100693 0.100693
0.194189 0.101455 0.148186
0.194939 0.102205 0.194939
0.195682 0.102948 0.241256
0.196420 0.103686 0.287264
0.197154 0.104420 0.333031
0.197885 0.105151 0.378601
0.198613 0.105879 0.424005
0.199340 0.106606 0.469266
0.200064 0.107330 0.514399
0.200786 0.108052 0.559419
0.201506 0.108772 0.604337
0.202225 0.109491 0.649162
0.202943 0.110209 0.693901
0.203659 0.110925 0.738561
0.204375 0.111641 0.783146
0.205089 0.112355 0.827663
0.200974 0.154971 0.108240
0.201736 0.155733 0.155733
0.202486 0.156483 0.202486
0.203229 0.157226 0.248803
0.203967 0.157964 0.294811
0.204701 0.158698 0.340578
0.205432 0.159429 0.386148
0.206160 0.160158 0.431552
0.206886 0.160884 0.476812
0.207611 0.161608 0.521946
0.208333 0.162330 0.566966
0.209053 0.163050 0.611884
0.209772 0.163770 0.656709
0.210490 0.164487 0.701448
0.211206 0.165204 0.746108
0.211922 0.165919 0.790693
0.212636 0.166633 0.835210
0.208403 0.208403 0.115669
0.209165 0.209165 0.163162
0.209915 0.209915 0.209915
0.210658 0.210658 0.256233
0.211396 0.211396 0.302240
0.212130 0.212130 0.348007
0.212861 0.212861 0.393577
0.213590 0.213590 0.438981
0.214316 0.214316 0.484242
0.215040 0.215040 0.529375
0.215762 0.215762 0.574396
0.216483 0.216483 0.619314
0.217202 0.217202 0.664138
0.217919 0.217919 0.708877
0.218636 0.218636 0.753537
0.219351 0.219351 0.798123
0.220065 0.220065 0.842639
0.215763 0.261338 0.123029
0.216525 0.262100 0.170522
0.217275 0.262850 0.217275
0.218018 0.263593 0.263593
0.218756 0.264331 0.309600
0.219490 0.265065 0.355367
0.220221 0.265796 0.400937
0.220950 0.266524 0.446342
0.221676 0.267250 0.491602
0.222400 0.267974 0.536735
0.223122 0.268697 0.581756
0.223843 0.269417 0.626674
0.224562 0.270136 0.671498
0.225279 0.270854 0.716237
0.225996 0.271570 0.760897
0.226711 0.272285 0.805483
0.227425 0.273000 0.850000
0.223074 0.313918 0.130340
0.223836 0.314680 0.177833
0.224586 0.315430 0.224586
0.225329 0.316173 0.270904
0.226067 0.316911 0.316911
0.226801 0.317645 0.362678
0.227532 0.318376 0.408248
0.228261 0.319105 0.453652
0.228987 0.319831 0.498913
0.229711 0.320555 0.544046
0.230433 0.321277 0.589067
0.231154 0.321997 0.633985
0.231873 0.322717 0.678809
0.232590 0.323434 0.723548
0.233307 0.324151 0.768208
0.234022 0.324866 0.812794
0.234736 0.325580 0.857310
0.230347 0.366224 0.137613
0.231109 0.366985 0.185106
0.231859 0.367735 0.231859
0.232602 0.368478 0.278176
0.233340 0.369216 0.324184
0.234074 0.369951 0.369951
0.234805 0.370682 0.415521
0.235533 0.371410 0.460925
0.236259 0.372136 0.506185
0.236983 0.372860 0.551319
0.237706 0.373582 0.596339
0.238426 0.374303 0.641257
0.239145 0.375022 0.686082
0.239863 0.375740 0.730821
0.240579 0.376456 0.775480
0.241295 0.377171 0.820066
0.242009 0.377885 0.864583
0.237588 0.418304 0.144854
0.238350 0.419066 0.192347
0.239100 0.419816 0.239100
0.239843 0.420559 0.285418
0.240581 0.421297 0.331425
0.241315 0.422031 0.377192
0.242046 0.422762 0.422762
0.242775 0.423491 0.468166
0.243501 0.424217 0.513427
0.244225 0.424941 0.558560
0.244947 0.425663 0.603581
0.245668 0.426383 0.648499
0.246387 0.427103 0.693323
0.247104 0.427820 0.738062
0.247821 0.428537 0.782722
0.248536 0.429252 0.827308
0.249250 0.429966 0.871824
0.244803 0.470195 0.152069
0.245565 0.470957 0.199562
0.246315 0.471707 0.246315
0.247058 0.472450 0.292633
0.247796 0.473188 0.338640
0.248530 0.473922 0.384407
0.249261 0.474653 0.429977
0.249990 0.475381 0.475381
0.250716 0.476107 0.520642
0.251440 0.476832 0.565775
0.252162 0.477554 0.610796
0.252883 0.478274 0.655714
0.253602 0.478993 0.700538
0.254319 0.479711 0.745277
0.255036 0.480427 0.789937
0.255751 0.481143 0.834523
0.256465 0.481857 0.879039
0.251995 0.521921 0.159261
0.252757 0.522683 0.206755
0.253507 0.523433 0.253507
0.254250 0.524176 0.299825
0.254988 0.524914 0.345832
0.255723 0.525648 0.391599
0.256454 0.526380 0.437169
0.257182 0.527108 0.482574
0.257908 0.527834 0.527834
0.258632 0.528558 0.572968
0.259354 0.529280 0.617988
0.260075 0.530001 0.662906
0.260794 0.530720 0.707731
0.261511 0.531437 0.752469
0.262228 0.532154 0.797129
0.262943 0.532869 0.841715
0.263657 0.533583 0.886232
0.259167 0.573503 0.166433
0.259929 0.574265 0.213927
0.260679 0.575015 0.260679
0.261422 0.575758 0.306997
0.262160 0.576496 0.353004
0.262895 0.577230 0.398771
0.263626 0.577961 0.444341
0.264354 0.578689 0.489746
0.265080 0.579416 0.535006
0.265804 0.580140 0.580140
0.266526 0.580862 0.625160
0.267247 0.581582 0.670078
0.267966 0.582301 0.714903
0.268683 0.583019 0.759641
0.269400 0.583735 0.804301
0.270115 0.584451 0.848887
0.270829 0.585165 0.893404
0.266321 0.624955 0.173587
0.267083 0.625717 0.221081
0.267833 0.626467 0.267833
0.268576 0.627210 0.314151
0.269314 0.627948 0.360158
0.270049 0.628682 0.405925
0.270780 0.629413 0.451495
0.271508 0.630142 0.496900
0.272234 0.630868 0.542160
0.272958 0.631592 0.587294
0.273680 0.632314 0.632314
0.274401 0.633034 0.677232
0.275120 0.633754 0.722057
0.275837 0.634471 0.766795
0.276554 0.635188 0.811455
0.277269 0.635903 0.856041
0.277983 0.636617 0.900558
0.273459 0.676290 0.180725
0.274221 0.677052 0.228218
0.274971 0.677802 0.274971
0.275714 0.678545 0.321288
0.276452 0.679283 0.367296
0.277186 0.680017 0.413063
0.277917 0.680748 0.458633
0.278646 0.681477 0.504037
0.279372 0.682203 0.549298
0.280096 0.682927 0.594431
0.280818 0.683649 0.639452
0.281538 0.684370 0.684370
0.282258 0.685089 0.729194
0.282975 0.685806 0.773933
0.283692 0.686523 0.818593
0.284407 0.687238 0.863179
0.285121 0.687952 0.907695
0.280582 0.727519 0.187848
0.281344 0.728281 0.235341
0.282094 0.729031 0.282094
0.282837 0.729774 0.328411
0.283575 0.730512 0.374419
0.284309 0.731246 0.420186
0.285040 0.731977 0.465756
0.285769 0.732705 0.511160
0.286495 0.733431 0.556421
0.287219 0.734155 0.601554
0.287941 0.734878 0.646575
0.288661 0.735598 0.691493
0.289380 0.736317 0.736317
0.290098 0.737035 0.781056
0.290815 0.737751 0.825716
0.291530 0.738467 0.870301
0.292244 0.739181 0.914818
0.287691 0.778649 0.194957
0.288453 0.779411 0.242450
0.289203 0.780161 0.289203
0.289946 0.780904 0.335521
0.290684 0.781642 0.381528
0.291418 0.782376 0.427295
0.292149 0.783107 0.472865
0.292878 0.783836 0.518270
0.293604 0.784562 0.563530
0.294328 0.785286 0.608663
0.295050 0.786008 0.653684
0.295771 0.786729 0.698602
0.296490 0.787448 0.743426
0.297207 0.788165 0.788165
0.297924 0.788882 0.832825
0.298639 0.789597 0.877411
0.299353 0.790311 0.921928
0.294788 0.829689 0.202054
0.295550 0.830451 0.249547
0.296300 0.831201 0.296300
0.297043 0.831944 0.342617
0.297781 0.832682 0.388625
0.298515 0.833416 0.434392
0.299246 0.834147 0.479962
0.299975 0.834876 0.525366
0.300701 0.835602 0.570627
0.301425 0.836326 0.615760
0.302147 0.837048 0.660781
0.302867 0.837768 0.705699
0.303586 0.838488 0.750523
0.304304 0.839205 0.795262
0.305021 0.839922 0.839922
0.305736 0.840637 0.884507
0.306450 0.841351 0.929024
0.301873 0.880645 0.209139
0.302635 0.881407 0.256632
0.303385 0.882157 0.303385
0.304128 0.882900 0.349702
0.304866 0.883638 0.395710
0.305600 0.884372 0.441477
0.306331 0.885103 0.487047
0.307059 0.885831 0.532451
0.307786 0.886557 0.577712
0.308510 0.887281 0.622845
0.309232 0.888003 0.667865
0.309952 0.888724 0.712783
0.310671 0.889443 0.757608
0.311389 0.890161 0.802347
0.312105 0.890877 0.847007
0.312821 0.891592 0.891592
0.313535 0.892306 0.936109
0.308947 0.931521 0.216213
0.309709 0.932283 0.263706
0.310459 0.933033 0.310459
0.311202 0.933776 0.356776
0.311940 0.934514 0.402784
0.312674 0.935248 0.448551
0.313405 0.935979 0.494121
0.314133 0.936708 0.539525
0.314860 0.937434 0.584785
0.315584 0.938158 0.629919
0.316306 0.938880 0.674939
0.317026 0.939601 0.719857
0.317745 0.940320 0.764682
0.318463 0.941037 0.809421
0.319179 0.941754 0.854081
0.319895 0.942469 0.898666
0.320609 0.943183 0.943183
0.241189 0.102881 0.102881
0.241951 0.103643 0.150374
0.242701 0.104393 0.197127
0.243444 0.105136 0.243444
0.244182 0.105874 0.289452
0.244916 0.106608 0.335219
0.245647 0.107339 0.380789
0.246376 0.108067 0.426193
0.247102 0.108793 0.471453
0.247826 0.109517 0.516587
0.248548 0.110240 0.561607
0.249269 0.110960 0.606525
0.249988 0.111679 0.651350
0.250705 0.112397 0.696089
0.251422 0.113113 0.740748
0.252137 0.113829 0.785334
0.252851 0.114543 0.829851
0.248736 0.157159 0.110428
