skills/creativeops-director/assets/grade/luts/vintage_fade_v10.cube
TITLE "vintage_fade_v10"
LUT_3D_SIZE 9
DOMAIN_MIN 0.0 0.0 0.0
DOMAIN_MAX 1.0 1.0 1.0
0.096241 0.096241 0.096241
0.097753 0.097753 0.190487
0.099234 0.099234 0.282812
0.100699 0.100699 0.374149
0.102154 0.102154 0.464814
0.103600 0.103600 0.554968
0.105040 0.105040 0.644710
0.106474 0.106474 0.734109
0.107903 0.107903 0.823211
0.111217 0.203951 0.111217
0.112729 0.205463 0.205463
0.114210 0.206944 0.297788
0.115676 0.208410 0.389125
0.117130 0.209864 0.479790
0.118576 0.211310 0.569944
0.120016 0.212750 0.659687
0.121450 0.214184 0.749085
0.122879 0.215613 0.838188
0.125888 0.309466 0.125888
0.127400 0.310978 0.220134
0.128881 0.312459 0.312459
0.130347 0.313924 0.403796
0.131801 0.315379 0.494461
0.133247 0.316825 0.584615
0.134687 0.318265 0.674358
0.136121 0.319699 0.763756
0.137550 0.321128 0.852859
0.140402 0.413852 0.140402
0.141914 0.415364 0.234648
0.143395 0.416845 0.326973
0.144861 0.418310 0.418310
0.146315 0.419765 0.508975
0.147761 0.421211 0.599129
0.149201 0.422651 0.688872
0.150635 0.424085 0.778270
0.152064 0.425514 0.867373
0.154810 0.517470 0.154810
0.156321 0.518981 0.249055
0.157802 0.520462 0.341380
0.159268 0.521928 0.432718
0.160722 0.523382 0.523382
0.162168 0.524828 0.613536
0.163608 0.526268 0.703279
0.165042 0.527702 0.792677
0.166471 0.529131 0.881780
0.169136 0.620503 0.169136
0.170647 0.622015 0.263381
0.172128 0.623496 0.355706
0.173594 0.624961 0.447044
0.175048 0.626416 0.537708
0.176494 0.627862 0.627862
0.177934 0.629302 0.717605
0.179368 0.630736 0.807003
0.180797 0.632165 0.896106
0.183396 0.723067 0.183396
0.184908 0.724579 0.277642
0.186389 0.726060 0.369967
0.187854 0.727525 0.461304
0.189309 0.728980 0.551969
0.190755 0.730426 0.642123
0.192195 0.731865 0.731865
0.193629 0.733299 0.821264
0.195058 0.734729 0.910366
0.197602 0.825237 0.197602
0.199114 0.826749 0.291848
0.200595 0.828230 0.384173
0.202060 0.829695 0.475510
0.203515 0.831150 0.566175
0.204961 0.832596 0.656329
0.206401 0.834036 0.746071
0.207835 0.835470 0.835470
0.209264 0.836899 0.924572
0.211761 0.927070 0.211761
0.213273 0.928581 0.306007
0.214754 0.930062 0.398332
0.216219 0.931528 0.489669
0.217674 0.932982 0.580334
0.219120 0.934428 0.670488
0.220560 0.935868 0.760230
0.221994 0.937302 0.849629
0.223423 0.938731 0.938731
0.193427 0.100693 0.100693
0.194939 0.102205 0.194939
0.196420 0.103686 0.287264
0.197885 0.105151 0.378601
0.199340 0.106606 0.469266
0.200786 0.108052 0.559419
0.202225 0.109491 0.649162
0.203659 0.110925 0.738561
0.205089 0.112355 0.827663
0.208403 0.208403 0.115669
0.209915 0.209915 0.209915
0.211396 0.211396 0.302240
0.212861 0.212861 0.393577
0.214316 0.214316 0.484242
0.215762 0.215762 0.574396
0.217202 0.217202 0.664138
0.218636 0.218636 0.753537
0.220065 0.220065 0.842639
0.223074 0.313918 0.130340
0.224586 0.315430 0.224586
0.226067 0.316911 0.316911
0.227532 0.318376 0.408248
0.228987 0.319831 0.498913
0.230433 0.321277 0.589067
0.231873 0.322717 0.678809
0.233307 0.324151 0.768208
0.234736 0.325580 0.857310
0.237588 0.418304 0.144854
0.239100 0.419816 0.239100
0.240581 0.421297 0.331425
0.242046 0.422762 0.422762
0.243501 0.424217 0.513427
0.244947 0.425663 0.603581
0.246387 0.427103 0.693323
0.247821 0.428537 0.782722
0.249250 0.429966 0.871824
0.251995 0.521921 0.159261
0.253507 0.523433 0.253507
0.254988 0.524914 0.345832
0.256454 0.526380 0.437169
0.257908 0.527834 0.527834
0.259354 0.529280 0.617988
0.260794 0.530720 0.707731
0.262228 0.532154 0.797129
0.263657 0.533583 0.886232
0.266321 0.624955 0.173587
0.267833 0.626467 0.267833
0.269314 0.627948 0.360158
0.270780 0.629413 0.451495
0.272234 0.630868 0.542160
0.273680 0.632314 0.632314
0.275120 0.633754 0.722057
0.276554 0.635188 0.811455
0.277983 0.636617 0.900558
0.280582 0.727519 0.187848
0.282094 0.729031 0.282094
0.283575 0.730512 0.374419
0.285040 0.731977 0.465756
0.286495 0.733431 0.556421
0.287941 0.734878 0.646575
0.289380 0.736317 0.736317
0.290815 0.737751 0.825716
0.292244 0.739181 0.914818
0.294788 0.829689 0.202054
0.296300 0.831201 0.296300
0.297781 0.832682 0.388625
0.299246 0.834147 0.479962
0.300701 0.835602 0.570627
0.302147 0.837048 0.660781
0.303586 0.838488 0.750523
0.305021 0.839922 0.839922
0.306450 0.841351 0.929024
0.308947 0.931521 0.216213
0.310459 0.933033 0.310459
0.311940 0.934514 0.402784
0.313405 0.935979 0.494121
0.314860 0.937434 0.584785
0.316306 0.938880 0.674939
0.317745 0.940320 0.764682
0.319179 0.941754 0.854081
0.320609 0.943183 0.943183
0.288632 0.105054 0.105054
0.290144 0.106566 0.199300
0.291625 0.108047 0.291625
0.293090 0.109512 0.382962
0.294545 0.110967 0.473627
0.295991 0.112413 0.563781
0.297430 0.113852 0.653523
0.298864 0.115287 0.742922
0.300294 0.116716 0.832024
0.303608 0.212764 0.120030
0.305120 0.214276 0.214276
0.306601 0.215757 0.306601
0.308066 0.217222 0.397938
0.309521 0.218677 0.488603
0.310967 0.220123 0.578757
0.312407 0.221563 0.668499
0.313841 0.222997 0.757898
0.315270 0.224426 0.847001
0.318279 0.318279 0.134701
0.319791 0.319791 0.228947
0.321272 0.321272 0.321272
0.322737 0.322737 0.412609
0.324192 0.324192 0.503274
0.325638 0.325638 0.593428
0.327078 0.327078 0.683170
0.328512 0.328512 0.772569
0.329941 0.329941 0.861672
0.332793 0.422665 0.149215
0.334305 0.424177 0.243461
0.335786 0.425658 0.335786
0.337251 0.427123 0.427123
0.338706 0.428578 0.517788
0.340152 0.430024 0.607942
0.341592 0.431464 0.697684
0.343026 0.432898 0.787083
0.344455 0.434327 0.876186
0.347200 0.526282 0.163622
0.348712 0.527794 0.257868
0.350193 0.529275 0.350193
0.351659 0.530741 0.441531
0.353113 0.532195 0.532195
0.354559 0.533641 0.622349
0.355999 0.535081 0.712092
0.357433 0.536515 0.801490
0.358862 0.537944 0.890593
0.361526 0.629316 0.177949
0.363038 0.630828 0.272194
0.364519 0.632309 0.364519
0.365985 0.633774 0.455857
0.367439 0.635229 0.546521
0.368885 0.636675 0.636675
0.370325 0.638115 0.726418
0.371759 0.639549 0.815816
0.373188 0.640978 0.904919
0.375787 0.731880 0.192209
0.377299 0.733392 0.286455
0.378780 0.734873 0.378780
0.380245 0.736338 0.470117
0.381700 0.737792 0.560782
0.383146 0.739239 0.650936
0.384585 0.740678 0.740678
0.386020 0.742112 0.830077
0.387449 0.743542 0.919179
0.389993 0.834050 0.206415
0.391505 0.835562 0.300661
0.392986 0.837043 0.392986
0.394451 0.838508 0.484323
0.395906 0.839963 0.574988
0.397352 0.841409 0.665142
0.398791 0.842849 0.754884
0.400226 0.844283 0.844283
0.401655 0.845712 0.933385
0.404152 0.935882 0.220574
0.405664 0.937394 0.314820
0.407145 0.938875 0.407145
0.408610 0.940341 0.498482
0.410065 0.941795 0.589147
0.411511 0.943241 0.679301
0.412950 0.944681 0.769043
0.414384 0.946115 0.858442
0.415814 0.947544 0.947544
0.382818 0.109369 0.109369
0.384330 0.110880 0.203614
0.385811 0.112361 0.295939
0.387277 0.113827 0.387277
0.388731 0.115281 0.477941
0.390177 0.116727 0.568095
0.391617 0.118167 0.657838
0.393051 0.119601 0.747236
0.394480 0.121030 0.836339
0.397795 0.217079 0.124345
0.399307 0.218591 0.218591
0.400788 0.220072 0.310916
0.402253 0.221537 0.402253
0.403707 0.222991 0.492917
0.405153 0.224438 0.583071
0.406593 0.225877 0.672814
0.408027 0.227311 0.762212
0.409457 0.228741 0.851315
0.412466 0.322594 0.139016
0.413978 0.324106 0.233262
0.415459 0.325587 0.325587
0.416924 0.327052 0.416924
0.418378 0.328506 0.507588
0.419824 0.329952 0.597742
0.421264 0.331392 0.687485
0.422698 0.332826 0.776883
0.424128 0.334255 0.865986
0.426980 0.426980 0.153530
0.428492 0.428492 0.247776
0.429973 0.429973 0.340101
0.431438 0.431438 0.431438
0.432892 0.432892 0.522102
0.434338 0.434338 0.612256
0.435778 0.435778 0.701999
0.437212 0.437212 0.791397
0.438642 0.438642 0.880500
0.441387 0.530597 0.167937
0.442899 0.532109 0.262183
0.444380 0.533590 0.354508
0.445845 0.535055 0.445845
0.447299 0.536509 0.536509
0.448746 0.537956 0.626663
0.450185 0.539395 0.716406
0.451619 0.540829 0.805805
0.453049 0.542259 0.894907
0.455713 0.633631 0.182263
0.457225 0.635143 0.276509
0.458706 0.636624 0.368834
0.460171 0.638089 0.460171
0.461625 0.639543 0.550835
0.463072 0.640989 0.640989
0.464511 0.642429 0.730732
0.465945 0.643863 0.820131
0.467375 0.645292 0.909233
0.469974 0.736194 0.196524
0.471485 0.737706 0.290769
0.472966 0.739187 0.383094
0.474432 0.740652 0.474432
0.475886 0.742107 0.565096
0.477332 0.743553 0.655250
0.478772 0.744993 0.744993
0.480206 0.746427 0.834391
0.481635 0.747856 0.923494
0.484179 0.838365 0.210730
0.485691 0.839877 0.304975
0.487172 0.841358 0.397300
0.488638 0.842823 0.488638
0.490092 0.844277 0.579302
0.491538 0.845723 0.669456
0.492978 0.847163 0.759199
0.494412 0.848597 0.848597
0.495841 0.850027 0.937700
0.498338 0.940197 0.224889
0.499850 0.941709 0.319134
0.501331 0.943190 0.411459
0.502797 0.944655 0.502797
0.504251 0.946109 0.593461
0.505697 0.947556 0.683615
0.507137 0.948995 0.773358
0.508571 0.950429 0.862756
0.510000 0.951859 0.951859
0.476311 0.113651 0.113651
0.477823 0.115163 0.207897
0.479304 0.116644 0.300222
0.480769 0.118109 0.391559
0.482224 0.119564 0.482224
0.483670 0.121010 0.572378
0.485110 0.122450 0.662120
0.486544 0.123884 0.751519
0.487973 0.125313 0.840621
0.491287 0.221361 0.128627
0.492799 0.222873 0.222873
0.494280 0.224354 0.315198
0.495746 0.225820 0.406535
0.497200 0.227274 0.497200
0.498646 0.228720 0.587354
0.500086 0.230160 0.677097
0.501520 0.231594 0.766495
0.502949 0.233023 0.855598
0.505958 0.326876 0.143298
0.507470 0.328388 0.237544
0.508951 0.329869 0.329869
0.510417 0.331334 0.421206
0.511871 0.332789 0.511871
0.513317 0.334235 0.602025
0.514757 0.335675 0.691768
0.516191 0.337109 0.781166
0.517620 0.338538 0.870269
0.520472 0.431262 0.157812
0.521984 0.432774 0.252058
0.523465 0.434255 0.344383
0.524931 0.435720 0.435720
0.526385 0.437175 0.526385
0.527831 0.438621 0.616539
0.529271 0.440061 0.706282
0.530705 0.441495 0.795680
0.532134 0.442924 0.884783
0.534880 0.534880 0.172220
0.536391 0.536391 0.266465
0.537872 0.537872 0.358790
0.539338 0.539338 0.450128
0.540792 0.540792 0.540792
0.542238 0.542238 0.630946
0.543678 0.543678 0.720689
0.545112 0.545112 0.810087
0.546541 0.546541 0.899190
0.549206 0.637913 0.186546
0.550717 0.639425 0.280791
0.552199 0.640906 0.373116
0.553664 0.642371 0.464454
0.555118 0.643826 0.555118
0.556564 0.645272 0.645272
0.558004 0.646712 0.735015
0.559438 0.648146 0.824413
0.560867 0.649575 0.913516
0.563466 0.740477 0.200806
0.564978 0.741989 0.295052
0.566459 0.743470 0.387377
0.567924 0.744935 0.478714
0.569379 0.746390 0.569379
0.570825 0.747836 0.659533
0.572265 0.749275 0.749275
0.573699 0.750710 0.838674
0.575128 0.752139 0.927776
0.577672 0.842647 0.215012
0.579184 0.844159 0.309258
0.580665 0.845640 0.401583
0.582130 0.847105 0.492920
0.583585 0.848560 0.583585
0.585031 0.850006 0.673739
0.586471 0.851446 0.763481
0.587905 0.852880 0.852880
0.589334 0.854309 0.941982
0.591831 0.944480 0.229171
0.593343 0.945991 0.323417
0.594824 0.947472 0.415742
0.596289 0.948938 0.507079
0.597744 0.950392 0.597744
0.599190 0.951838 0.687898
0.600630 0.953278 0.777640
0.602064 0.954712 0.867039
0.603493 0.956141 0.956141
0.569277 0.117910 0.117910
0.570789 0.119422 0.212156
0.572270 0.120903 0.304481
0.573736 0.122368 0.395818
0.575190 0.123822 0.486482
0.576636 0.125268 0.576636
0.578076 0.126708 0.666379
0.579510 0.128142 0.755777
0.580939 0.129572 0.844880
0.584254 0.225620 0.132886
0.585766 0.227132 0.227132
0.587247 0.228613 0.319457
0.588712 0.230078 0.410794
0.590166 0.231533 0.501458
0.591612 0.232979 0.591612
0.593052 0.234418 0.681355
0.594486 0.235852 0.770754
0.595916 0.237282 0.859856
0.598925 0.331135 0.147557
0.600437 0.332647 0.241803
0.601918 0.334128 0.334128
0.603383 0.335593 0.425465
0.604837 0.337047 0.516129
0.606283 0.338494 0.606283
0.607723 0.339933 0.696026
0.609157 0.341367 0.785425
0.610587 0.342797 0.874527
0.613439 0.435521 0.162071
0.614951 0.437033 0.256317
0.616432 0.438514 0.348642
0.617897 0.439979 0.439979
0.619351 0.441433 0.530644
0.620797 0.442880 0.620797
0.622237 0.444319 0.710540
0.623671 0.445753 0.799939
0.625101 0.447183 0.889041
0.627846 0.539138 0.176478
0.629358 0.540650 0.270724
0.630839 0.542131 0.363049
0.632304 0.543596 0.454386
0.633758 0.545051 0.545051
0.635205 0.546497 0.635205
0.636644 0.547937 0.724947
0.638078 0.549371 0.814346
0.639508 0.550800 0.903448
0.642172 0.642172 0.190804
0.643684 0.643684 0.285050
0.645165 0.645165 0.377375
0.646630 0.646630 0.468712
0.648084 0.648084 0.559377
0.649531 0.649531 0.649531
0.650970 0.650970 0.739273
0.652404 0.652404 0.828672
0.653834 0.653834 0.917774
0.656433 0.744736 0.205065
0.657944 0.746247 0.299311
0.659425 0.747728 0.391636
0.660891 0.749194 0.482973
0.662345 0.750648 0.573637
0.663791 0.752094 0.663791
0.665231 0.753534 0.753534
0.666665 0.754968 0.842932
0.668094 0.756397 0.932035
0.670638 0.846906 0.219271
0.672150 0.848418 0.313517
0.673631 0.849899 0.405842
0.675097 0.851364 0.497179
0.676551 0.852818 0.587843
0.677997 0.854265 0.677997
0.679437 0.855704 0.767740
0.680871 0.857138 0.857138
0.682300 0.858568 0.946241
0.684797 0.948738 0.233430
0.686309 0.950250 0.327676
0.687790 0.951731 0.420001
0.689256 0.953196 0.511338
0.690710 0.954651 0.602002
0.692156 0.956097 0.692156
0.693596 0.957536 0.781899
0.695030 0.958971 0.871297
0.696459 0.960400 0.960400
0.661820 0.122149 0.122149
0.663331 0.123661 0.216395
0.664813 0.125142 0.308720
0.666278 0.126607 0.400057
0.667732 0.128061 0.490721
0.669178 0.129508 0.580875
0.670618 0.130947 0.670618
0.672052 0.132381 0.760016
0.673481 0.133811 0.849119
0.676796 0.229859 0.137125
0.678308 0.231371 0.231371
0.679789 0.232852 0.323696
0.681254 0.234317 0.415033
0.682708 0.235772 0.505698
0.684155 0.237218 0.595852
0.685594 0.238657 0.685594
0.687028 0.240092 0.774993
0.688458 0.241521 0.864095
0.691467 0.335374 0.151796
0.692979 0.336886 0.246042
0.694460 0.338367 0.338367
0.695925 0.339832 0.429704
0.697379 0.341287 0.520369
0.698826 0.342733 0.610523
0.700265 0.344172 0.700265
0.701699 0.345606 0.789664
0.703129 0.347036 0.878766
0.705981 0.439760 0.166310
0.707493 0.441272 0.260556
0.708974 0.442753 0.352881
0.710439 0.444218 0.444218
0.711893 0.445673 0.534883
0.713340 0.447119 0.625037
0.714779 0.448558 0.714779
0.716213 0.449993 0.804178
0.717643 0.451422 0.893280
0.720388 0.543377 0.180717
0.721900 0.544889 0.274963
0.723381 0.546370 0.367288
0.724846 0.547835 0.458625
0.726301 0.549290 0.549290
0.727747 0.550736 0.639444
0.729186 0.552176 0.729186
0.730620 0.553610 0.818585
0.732050 0.555039 0.907687
0.734714 0.646411 0.195043
0.736226 0.647923 0.289289
0.737707 0.649404 0.381614
0.739172 0.650869 0.472951
0.740627 0.652324 0.563616
0.742073 0.653770 0.653770
0.743512 0.655209 0.743512
0.744947 0.656643 0.832911
0.746376 0.658073 0.922013
0.748975 0.748975 0.209304
0.750487 0.750487 0.303550
0.751968 0.751968 0.395875
0.753433 0.753433 0.487212
0.754887 0.754887 0.577876
0.756333 0.756333 0.668030
0.757773 0.757773 0.757773
0.759207 0.759207 0.847172
0.760637 0.760637 0.936274
0.763181 0.851145 0.223510
0.764693 0.852657 0.317756
0.766174 0.854138 0.410081
0.767639 0.855603 0.501418
0.769093 0.857058 0.592082
0.770539 0.858504 0.682236
0.771979 0.859943 0.771979
0.773413 0.861377 0.861377
0.774842 0.862807 0.950480
0.777340 0.952977 0.237669
0.778851 0.954489 0.331915
0.780333 0.955970 0.424240
0.781798 0.957435 0.515577
0.783252 0.958890 0.606241
0.784698 0.960336 0.696395
0.786138 0.961776 0.786138
0.787572 0.963210 0.875536
0.789001 0.964639 0.964639
0.754007 0.126372 0.126372
0.755519 0.127884 0.220618
0.757000 0.129365 0.312943
0.758465 0.130830 0.404280
0.759919 0.132284 0.494944
0.761366 0.133730 0.585098
0.762805 0.135170 0.674841
0.764239 0.136604 0.764239
0.765669 0.138034 0.853342
0.768983 0.234082 0.141348
0.770495 0.235594 0.235594
0.771976 0.237075 0.327919
0.773441 0.238540 0.419256
0.774896 0.239994 0.509920
0.776342 0.241441 0.600074
0.777781 0.242880 0.689817
0.779216 0.244314 0.779216
0.780645 0.245744 0.868318
0.783654 0.339597 0.156019
0.785166 0.341109 0.250265
0.786647 0.342590 0.342590
0.788112 0.344055 0.433927
0.789567 0.345509 0.524591
0.791013 0.346956 0.614745
0.792452 0.348395 0.704488
0.793887 0.349829 0.793887
0.795316 0.351259 0.882989
0.798168 0.443983 0.170533
0.799680 0.445495 0.264779
0.801161 0.446976 0.357104
0.802626 0.448441 0.448441
0.804081 0.449895 0.539105
0.805527 0.451342 0.629259
0.806966 0.452781 0.719002
0.808401 0.454215 0.808401
0.809830 0.455645 0.897503
0.812575 0.547600 0.184940
0.814087 0.549112 0.279186
0.815568 0.550593 0.371511
0.817033 0.552058 0.462848
0.818488 0.553513 0.553513
0.819934 0.554959 0.643667
0.821374 0.556398 0.733409
0.822808 0.557833 0.822808
0.824237 0.559262 0.911910
0.826901 0.650634 0.199266
0.828413 0.652146 0.293512
0.829894 0.653627 0.385837
0.831359 0.655092 0.477174
0.832814 0.656546 0.567839
0.834260 0.657993 0.657993
0.835700 0.659432 0.747735
0.837134 0.660866 0.837134
0.838563 0.662296 0.926236
0.841162 0.753198 0.213527
0.842674 0.754709 0.307773
0.844155 0.756190 0.400098
0.845620 0.757656 0.491435
0.847074 0.759110 0.582099
0.848521 0.760556 0.672253
0.849960 0.761996 0.761996
0.851394 0.763430 0.851394
0.852824 0.764859 0.940497
0.855368 0.855368 0.227733
0.856880 0.856880 0.321979
0.858361 0.858361 0.414304
0.859826 0.859826 0.505641
0.861280 0.861280 0.596305
0.862727 0.862727 0.686459
0.864166 0.864166 0.776202
0.865600 0.865600 0.865600
0.867030 0.867030 0.954703
0.869527 0.957200 0.241892
0.871039 0.958712 0.336138
0.872520 0.960193 0.428463
0.873985 0.961658 0.519800
0.875439 0.963113 0.610464
0.876886 0.964559 0.700618
0.878325 0.965998 0.790361
0.879759 0.967433 0.879759
0.881189 0.968862 0.968862
0.845889 0.130581 0.130581
0.847401 0.132092 0.224826
0.848882 0.133573 0.317151
0.850347 0.135039 0.408489
0.851801 0.136493 0.499153
0.853248 0.137939 0.589307
0.854687 0.139379 0.679050
0.856121 0.140813 0.768448
0.857551 0.142242 0.857551
0.860865 0.238291 0.145557
0.862377 0.239803 0.239803
0.863858 0.241284 0.332128
0.865323 0.242749 0.423465
0.866778 0.244203 0.514129
0.868224 0.245650 0.604283
0.869664 0.247089 0.694026
0.871098 0.248523 0.783424
0.872527 0.249953 0.872527
0.875536 0.343806 0.160228
0.877048 0.345318 0.254474
0.878529 0.346799 0.346799
0.879994 0.348264 0.438136
0.881449 0.349718 0.528800
0.882895 0.351164 0.618954
0.884335 0.352604 0.708697
0.885769 0.354038 0.798095
0.887198 0.355468 0.887198
0.890050 0.448192 0.174742
0.891562 0.449704 0.268988
0.893043 0.451185 0.361313
0.894508 0.452650 0.452650
0.895963 0.454104 0.543314
0.897409 0.455551 0.633468
0.898849 0.456990 0.723211
0.900283 0.458424 0.812609
0.901712 0.459854 0.901712
0.904457 0.551809 0.189149
0.905969 0.553321 0.283395
0.907450 0.554802 0.375720
0.908915 0.556267 0.467057
0.910370 0.557722 0.557722
0.911816 0.559168 0.647875
0.913256 0.560607 0.737618
0.914690 0.562041 0.827017
0.916119 0.563471 0.916119
0.918783 0.654843 0.203475
0.920295 0.656355 0.297721
0.921776 0.657836 0.390046
0.923241 0.659301 0.481383
0.924696 0.660755 0.572048
0.926142 0.662201 0.662201
0.927582 0.663641 0.751944
0.929016 0.665075 0.841343
0.930445 0.666505 0.930445
0.933044 0.757406 0.217736
0.934556 0.758918 0.311982
0.936037 0.760399 0.404306
0.937502 0.761865 0.495644
0.938957 0.763319 0.586308
0.940403 0.764765 0.676462
0.941842 0.766205 0.766205
0.943277 0.767639 0.855603
0.944706 0.769068 0.944706
0.947250 0.859577 0.231942
0.948762 0.861089 0.326188
0.950243 0.862570 0.418512
0.951708 0.864035 0.509850
0.953163 0.865489 0.600514
0.954609 0.866935 0.690668
0.956048 0.868375 0.780411
0.957482 0.869809 0.869809
0.958912 0.871239 0.958912
0.961409 0.961409 0.246101
0.962921 0.962921 0.340346
0.964402 0.964402 0.432671
0.965867 0.965867 0.524009
0.967321 0.967321 0.614673
0.968768 0.968768 0.704827
0.970207 0.970207 0.794570
0.971641 0.971641 0.883968
0.973071 0.973071 0.973071
