skills/creativeops-director/assets/grade/luts/vintage_fade_v10.cube
TITLE "vintage_fade_v10"
LUT_3D_SIZE 5
DOMAIN_MIN 0.0 0.0 0.0
DOMAIN_MAX 1.0 1.0 1.0
0.096241 0.096241 0.096241
0.099234 0.099234 0.282812
0.102154 0.102154 0.464814
0.105040 0.105040 0.644710
0.107903 0.107903 0.823211
0.125888 0.309466 0.125888
0.128881 0.312459 0.312459
0.131801 0.315379 0.494461
0.134687 0.318265 0.674358
0.137550 0.321128 0.852859
0.154810 0.517470 0.154810
0.157802 0.520462 0.341380
0.160722 0.523382 0.523382
0.163608 0.526268 0.703279
0.166471 0.529131 0.881780
0.183396 0.723067 0.183396
0.186389 0.726060 0.369967
0.189309 0.728980 0.551969
0.192195 0.731865 0.731865
0.195058 0.734729 0.910366
0.211761 0.927070 0.211761
0.214754 0.930062 0.398332
0.217674 0.932982 0.580334
0.220560 0.935868 0.760230
0.223423 0.938731 0.938731
0.288632 0.105054 0.105054
0.291625 0.108047 0.291625
0.294545 0.110967 0.473627
0.297430 0.113852 0.653523
0.300294 0.116716 0.832024
0.318279 0.318279 0.134701
0.321272 0.321272 0.321272
0.324192 0.324192 0.503274
0.327078 0.327078 0.683170
0.329941 0.329941 0.861672
0.347200 0.526282 0.163622
0.350193 0.529275 0.350193
0.353113 0.532195 0.532195
0.355999 0.535081 0.712092
0.358862 0.537944 0.890593
0.375787 0.731880 0.192209
0.378780 0.734873 0.378780
0.381700 0.737792 0.560782
0.384585 0.740678 0.740678
0.387449 0.743542 0.919179
0.404152 0.935882 0.220574
0.407145 0.938875 0.407145
0.410065 0.941795 0.589147
0.412950 0.944681 0.769043
0.415814 0.947544 0.947544
0.476311 0.113651 0.113651
0.479304 0.116644 0.300222
0.482224 0.119564 0.482224
0.485110 0.122450 0.662120
0.487973 0.125313 0.840621
0.505958 0.326876 0.143298
0.508951 0.329869 0.329869
0.511871 0.332789 0.511871
0.514757 0.335675 0.691768
0.517620 0.338538 0.870269
0.534880 0.534880 0.172220
0.537872 0.537872 0.358790
0.540792 0.540792 0.540792
0.543678 0.543678 0.720689
0.546541 0.546541 0.899190
0.563466 0.740477 0.200806
0.566459 0.743470 0.387377
0.569379 0.746390 0.569379
0.572265 0.749275 0.749275
0.575128 0.752139 0.927776
0.591831 0.944480 0.229171
0.594824 0.947472 0.415742
0.597744 0.950392 0.597744
0.600630 0.953278 0.777640
0.603493 0.956141 0.956141
0.661820 0.122149 0.122149
0.664813 0.125142 0.308720
0.667732 0.128061 0.490721
0.670618 0.130947 0.670618
0.673481 0.133811 0.849119
0.691467 0.335374 0.151796
0.694460 0.338367 0.338367
0.697379 0.341287 0.520369
0.700265 0.344172 0.700265
0.703129 0.347036 0.878766
0.720388 0.543377 0.180717
0.723381 0.546370 0.367288
0.726301 0.549290 0.549290
0.729186 0.552176 0.729186
0.732050 0.555039 0.907687
0.748975 0.748975 0.209304
0.751968 0.751968 0.395875
0.754887 0.754887 0.577876
0.757773 0.757773 0.757773
0.760637 0.760637 0.936274
0.777340 0.952977 0.237669
0.780333 0.955970 0.424240
0.783252 0.958890 0.606241
0.786138 0.961776 0.786138
0.789001 0.964639 0.964639
0.845889 0.130581 0.130581
0.848882 0.133573 0.317151
0.851801 0.136493 0.499153
0.854687 0.139379 0.679050
0.857551 0.142242 0.857551
0.875536 0.343806 0.160228
0.878529 0.346799 0.346799
0.881449 0.349718 0.528800
0.884335 0.352604 0.708697
0.887198 0.355468 0.887198
0.904457 0.551809 0.189149
0.907450 0.554802 0.375720
0.910370 0.557722 0.557722
0.913256 0.560607 0.737618
0.916119 0.563471 0.916119
0.933044 0.757406 0.217736
0.936037 0.760399 0.404306
0.938957 0.763319 0.586308
0.941842 0.766205 0.766205
0.944706 0.769068 0.944706
0.961409 0.961409 0.246101
0.964402 0.964402 0.432671
0.967321 0.967321 0.614673
0.970207 0.970207 0.794570
0.973071 0.973071 0.973071
