skills/creativeops-director/assets/grade/luts/warm_skin_v05.cube
TITLE "warm_skin_v05"
LUT_3D_SIZE 9
DOMAIN_MIN 0.0 0.0 0.0
DOMAIN_MAX 1.0 1.0 1.0
0.022865 0.000015 0.000015
0.022889 0.000039 0.103893
0.022918 0.000068 0.231289
0.022947 0.000097 0.357465
0.022976 0.000126 0.482890
0.023004 0.000154 0.607771
0.023033 0.000183 0.732225
0.023061 0.000211 0.856327
0.023089 0.000240 0.980130
0.023155 0.128161 0.000305
0.023179 0.128184 0.104182
0.023208 0.128213 0.231579
0.023237 0.128242 0.357755
0.023265 0.128271 0.483180
0.023294 0.128300 0.608061
0.023322 0.128328 0.732515
0.023351 0.128356 0.856617
0.023379 0.128385 0.980420
0.023443 0.255522 0.000593
0.023467 0.255546 0.104470
0.023496 0.255575 0.231867
0.023525 0.255604 0.358043
0.023553 0.255633 0.483468
0.023582 0.255661 0.608349
0.023610 0.255690 0.732802
0.023639 0.255718 0.856904
0.023667 0.255746 0.980708
0.023728 0.381791 0.000878
0.023752 0.381815 0.104756
0.023781 0.381844 0.232152
0.023810 0.381873 0.358328
0.023839 0.381901 0.483754
0.023867 0.381930 0.608634
0.023896 0.381958 0.733088
0.023924 0.381987 0.857190
0.023952 0.382015 0.980993
0.024012 0.507357 0.001162
0.024036 0.507381 0.105040
0.024065 0.507410 0.232436
0.024094 0.507439 0.358612
0.024123 0.507468 0.484037
0.024151 0.507496 0.608918
0.024180 0.507525 0.733372
0.024208 0.507553 0.857474
0.024236 0.507582 0.981277
0.024295 0.632405 0.001445
0.024319 0.632429 0.105322
0.024348 0.632458 0.232719
0.024377 0.632487 0.358895
0.024405 0.632515 0.484320
0.024434 0.632544 0.609201
0.024462 0.632573 0.733654
0.024491 0.632601 0.857756
0.024519 0.632629 0.981560
0.024577 0.757041 0.001727
0.024600 0.757065 0.105604
0.024629 0.757094 0.233001
0.024658 0.757123 0.359177
0.024687 0.757152 0.484602
0.024715 0.757180 0.609483
0.024744 0.757209 0.733936
0.024772 0.757237 0.858038
0.024801 0.757265 0.981841
0.024857 0.881336 0.002008
0.024881 0.881360 0.105885
0.024910 0.881389 0.233282
0.024939 0.881418 0.359458
0.024968 0.881447 0.484883
0.024996 0.881475 0.609764
0.025025 0.881504 0.734217
0.025053 0.881532 0.858319
0.025082 0.881560 0.982122
0.025124 0.999116 0.002274
0.025147 0.999140 0.106151
0.025177 0.999169 0.233548
0.025205 0.999198 0.359724
0.025234 0.999226 0.485149
0.025263 0.999255 0.610030
0.025291 0.999283 0.734483
0.025320 0.999312 0.858585
0.025348 0.999340 0.982389
0.151885 0.000102 0.000102
0.151908 0.000126 0.103979
0.151938 0.000155 0.231376
0.151966 0.000184 0.357552
0.151995 0.000213 0.482977
0.152024 0.000241 0.607858
0.152052 0.000270 0.732312
0.152081 0.000298 0.856414
0.152109 0.000326 0.980217
0.152174 0.128247 0.000392
0.152198 0.128271 0.104269
0.152227 0.128300 0.231666
0.152256 0.128329 0.357842
0.152285 0.128358 0.483267
0.152313 0.128386 0.608148
0.152342 0.128415 0.732601
0.152370 0.128443 0.856703
0.152399 0.128472 0.980507
0.152462 0.255609 0.000680
0.152486 0.255633 0.104557
0.152515 0.255662 0.231954
0.152544 0.255691 0.358130
0.152573 0.255720 0.483555
0.152601 0.255748 0.608436
0.152630 0.255777 0.732889
0.152658 0.255805 0.856991
0.152686 0.255833 0.980795
0.152748 0.381878 0.000965
0.152771 0.381902 0.104843
0.152801 0.381931 0.232239
0.152829 0.381960 0.358415
0.152858 0.381988 0.483840
0.152887 0.382017 0.608721
0.152915 0.382045 0.733175
0.152944 0.382074 0.857277
0.152972 0.382102 0.981080
0.153032 0.507444 0.001249
0.153055 0.507468 0.105126
0.153084 0.507497 0.232523
0.153113 0.507526 0.358699
0.153142 0.507555 0.484124
0.153171 0.507583 0.609005
0.153199 0.507612 0.733459
0.153227 0.507640 0.857561
0.153256 0.507668 0.981364
0.153314 0.632492 0.001532
0.153338 0.632516 0.105409
0.153367 0.632545 0.232806
0.153396 0.632574 0.358982
0.153425 0.632602 0.484407
0.153453 0.632631 0.609288
0.153482 0.632659 0.733741
0.153510 0.632688 0.857843
0.153538 0.632716 0.981647
0.153596 0.757128 0.001814
0.153620 0.757152 0.105691
0.153649 0.757181 0.233088
0.153678 0.757210 0.359263
0.153706 0.757238 0.484689
0.153735 0.757267 0.609569
0.153763 0.757295 0.734023
0.153792 0.757324 0.858125
0.153820 0.757352 0.981928
0.153877 0.881423 0.002095
0.153901 0.881447 0.105972
0.153930 0.881476 0.233368
0.153959 0.881505 0.359544
0.153987 0.881534 0.484970
0.154016 0.881562 0.609850
0.154044 0.881591 0.734304
0.154073 0.881619 0.858406
0.154101 0.881647 0.982209
0.154143 0.999203 0.002361
0.154167 0.999227 0.106238
0.154196 0.999256 0.233635
0.154225 0.999285 0.359811
0.154254 0.999313 0.485236
0.154282 0.999342 0.610117
0.154311 0.999370 0.734570
0.154339 0.999399 0.858672
0.154367 0.999427 0.982476
0.278789 0.000188 0.000188
0.278812 0.000211 0.104065
0.278841 0.000241 0.231462
0.278870 0.000269 0.357638
0.278899 0.000298 0.483063
0.278928 0.000327 0.607944
0.278956 0.000355 0.732397
0.278984 0.000383 0.856499
0.279013 0.000412 0.980302
0.279078 0.128333 0.000477
0.279102 0.128357 0.104355
0.279131 0.128386 0.231751
0.279160 0.128415 0.357927
0.279189 0.128443 0.483352
0.279217 0.128472 0.608233
0.279246 0.128500 0.732687
0.279274 0.128529 0.856789
0.279302 0.128557 0.980592
0.279366 0.255695 0.000765
0.279390 0.255718 0.104642
0.279419 0.255747 0.232039
0.279448 0.255776 0.358215
0.279477 0.255805 0.483640
0.279505 0.255834 0.608521
0.279534 0.255862 0.732975
0.279562 0.255890 0.857077
0.279590 0.255919 0.980880
0.279652 0.381963 0.001051
0.279675 0.381987 0.104928
0.279704 0.382016 0.232325
0.279733 0.382045 0.358501
0.279762 0.382074 0.483926
0.279791 0.382102 0.608807
0.279819 0.382131 0.733260
0.279847 0.382159 0.857362
0.279876 0.382187 0.981165
0.279935 0.507530 0.001335
0.279959 0.507553 0.105212
0.279988 0.507583 0.232608
0.280017 0.507611 0.358784
0.280046 0.507640 0.484210
0.280074 0.507669 0.609090
0.280103 0.507697 0.733544
0.280131 0.507726 0.857646
0.280160 0.507754 0.981449
0.280218 0.632577 0.001617
0.280242 0.632601 0.105494
0.280271 0.632630 0.232891
0.280300 0.632659 0.359067
0.280329 0.632688 0.484492
0.280357 0.632716 0.609373
0.280386 0.632745 0.733827
0.280414 0.632773 0.857929
0.280442 0.632801 0.981732
0.280500 0.757213 0.001899
0.280524 0.757237 0.105776
0.280553 0.757266 0.233173
0.280582 0.757295 0.359349
0.280610 0.757324 0.484774
0.280639 0.757352 0.609655
0.280667 0.757381 0.734108
0.280696 0.757409 0.858210
0.280724 0.757438 0.982014
0.280781 0.881509 0.002180
0.280805 0.881532 0.106057
0.280834 0.881561 0.233454
0.280863 0.881590 0.359630
0.280891 0.881619 0.485055
0.280920 0.881647 0.609936
0.280948 0.881676 0.734389
0.280977 0.881704 0.858491
0.281005 0.881733 0.982295
0.281047 0.999288 0.002446
0.281071 0.999312 0.106323
0.281100 0.999341 0.233720
0.281129 0.999370 0.359896
0.281158 0.999399 0.485321
0.281186 0.999427 0.610202
0.281215 0.999456 0.734656
0.281243 0.999484 0.858758
0.281271 0.999512 0.982561
0.404705 0.000272 0.000272
0.404729 0.000296 0.104150
0.404758 0.000325 0.231546
0.404787 0.000354 0.357722
0.404816 0.000383 0.483147
0.404844 0.000411 0.608028
0.404873 0.000440 0.732482
0.404901 0.000468 0.856584
0.404929 0.000497 0.980387
0.404995 0.128418 0.000562
0.405019 0.128441 0.104439
0.405048 0.128470 0.231836
0.405077 0.128499 0.358012
0.405105 0.128528 0.483437
0.405134 0.128557 0.608318
0.405162 0.128585 0.732772
0.405191 0.128613 0.856874
0.405219 0.128642 0.980677
0.405283 0.255779 0.000850
0.405307 0.255803 0.104727
0.405336 0.255832 0.232124
0.405365 0.255861 0.358300
0.405393 0.255890 0.483725
0.405422 0.255918 0.608606
0.405450 0.255947 0.733059
0.405479 0.255975 0.857161
0.405507 0.256003 0.980965
0.405568 0.382048 0.001135
0.405592 0.382072 0.105013
0.405621 0.382101 0.232409
0.405650 0.382130 0.358585
0.405679 0.382158 0.484011
0.405707 0.382187 0.608891
0.405736 0.382215 0.733345
0.405764 0.382244 0.857447
0.405792 0.382272 0.981250
0.405852 0.507614 0.001419
0.405876 0.507638 0.105297
0.405905 0.507667 0.232693
0.405934 0.507696 0.358869
0.405963 0.507725 0.484294
0.405991 0.507753 0.609175
0.406020 0.507782 0.733629
0.406048 0.507810 0.857731
0.406076 0.507839 0.981534
0.406135 0.632662 0.001702
0.406159 0.632686 0.105579
0.406188 0.632715 0.232976
0.406217 0.632744 0.359152
0.406245 0.632772 0.484577
0.406274 0.632801 0.609458
0.406302 0.632830 0.733911
0.406331 0.632858 0.858013
0.406359 0.632886 0.981817
0.406417 0.757298 0.001984
0.406440 0.757322 0.105861
0.406469 0.757351 0.233258
0.406498 0.757380 0.359434
0.406527 0.757409 0.484859
0.406555 0.757437 0.609740
0.406584 0.757466 0.734193
0.406612 0.757494 0.858295
0.406641 0.757522 0.982098
0.406697 0.881593 0.002265
0.406721 0.881617 0.106142
0.406750 0.881646 0.233539
0.406779 0.881675 0.359715
0.406808 0.881704 0.485140
0.406836 0.881732 0.610021
0.406865 0.881761 0.734474
0.406893 0.881789 0.858576
0.406922 0.881817 0.982379
0.406964 0.999373 0.002531
0.406987 0.999397 0.106408
0.407017 0.999426 0.233805
0.407045 0.999455 0.359981
0.407074 0.999483 0.485406
0.407103 0.999512 0.610287
0.407131 0.999540 0.734740
0.407160 0.999569 0.858842
0.407188 0.999597 0.982646
0.529964 0.000357 0.000357
0.529988 0.000380 0.104234
0.530017 0.000410 0.231631
0.530046 0.000438 0.357807
0.530075 0.000467 0.483232
0.530103 0.000496 0.608113
0.530132 0.000524 0.732566
0.530160 0.000553 0.856668
0.530188 0.000581 0.980471
0.530254 0.128502 0.000646
0.530278 0.128526 0.104524
0.530307 0.128555 0.231920
0.530336 0.128584 0.358096
0.530364 0.128612 0.483521
0.530393 0.128641 0.608402
0.530421 0.128669 0.732856
0.530450 0.128698 0.856958
0.530478 0.128726 0.980761
0.530542 0.255864 0.000934
0.530566 0.255887 0.104812
0.530595 0.255916 0.232208
0.530624 0.255945 0.358384
0.530652 0.255974 0.483809
0.530681 0.256003 0.608690
0.530709 0.256031 0.733144
0.530738 0.256059 0.857246
0.530766 0.256088 0.981049
0.530827 0.382132 0.001220
0.530851 0.382156 0.105097
0.530880 0.382185 0.232494
0.530909 0.382214 0.358670
0.530938 0.382243 0.484095
0.530966 0.382271 0.608976
0.530995 0.382300 0.733429
0.531023 0.382328 0.857531
0.531052 0.382356 0.981334
0.531111 0.507699 0.001504
0.531135 0.507722 0.105381
0.531164 0.507752 0.232778
0.531193 0.507780 0.358953
0.531222 0.507809 0.484379
0.531250 0.507838 0.609260
0.531279 0.507866 0.733713
0.531307 0.507895 0.857815
0.531335 0.507923 0.981618
0.531394 0.632746 0.001786
0.531418 0.632770 0.105664
0.531447 0.632799 0.233060
0.531476 0.632828 0.359236
0.531504 0.632857 0.484661
0.531533 0.632885 0.609542
0.531561 0.632914 0.733996
0.531590 0.632942 0.858098
0.531618 0.632970 0.981901
0.531676 0.757382 0.002068
0.531699 0.757406 0.105945
0.531729 0.757435 0.233342
0.531757 0.757464 0.359518
0.531786 0.757493 0.484943
0.531815 0.757521 0.609824
0.531843 0.757550 0.734278
0.531871 0.757578 0.858379
0.531900 0.757607 0.982183
0.531957 0.881678 0.002349
0.531980 0.881701 0.106226
0.532010 0.881730 0.233623
0.532038 0.881759 0.359799
0.532067 0.881788 0.485224
0.532096 0.881817 0.610105
0.532124 0.881845 0.734558
0.532152 0.881873 0.858660
0.532181 0.881902 0.982464
0.532223 0.999457 0.002615
0.532247 0.999481 0.106492
0.532276 0.999510 0.233889
0.532305 0.999539 0.360065
0.532333 0.999568 0.485490
0.532362 0.999596 0.610371
0.532390 0.999625 0.734825
0.532419 0.999653 0.858927
0.532447 0.999681 0.982730
0.654730 0.000441 0.000441
0.654753 0.000464 0.104318
0.654783 0.000494 0.231715
0.654811 0.000522 0.357891
0.654840 0.000551 0.483316
0.654869 0.000580 0.608197
0.654897 0.000608 0.732650
0.654925 0.000636 0.856752
0.654954 0.000665 0.980555
0.655019 0.128586 0.000730
0.655043 0.128610 0.104608
0.655072 0.128639 0.232004
0.655101 0.128668 0.358180
0.655130 0.128696 0.483605
0.655158 0.128725 0.608486
0.655187 0.128753 0.732940
0.655215 0.128782 0.857042
0.655243 0.128810 0.980845
0.655307 0.255948 0.001018
0.655331 0.255971 0.104896
0.655360 0.256000 0.232292
0.655389 0.256029 0.358468
0.655418 0.256058 0.483893
0.655446 0.256087 0.608774
0.655475 0.256115 0.733228
0.655503 0.256143 0.857330
0.655531 0.256172 0.981133
0.655593 0.382216 0.001304
0.655616 0.382240 0.105181
0.655646 0.382269 0.232578
0.655674 0.382298 0.358754
0.655703 0.382327 0.484179
0.655732 0.382355 0.609060
0.655760 0.382384 0.733513
0.655788 0.382412 0.857615
0.655817 0.382440 0.981418
0.655877 0.507783 0.001588
0.655900 0.507806 0.105465
0.655929 0.507836 0.232862
0.655958 0.507864 0.359037
0.655987 0.507893 0.484463
0.656015 0.507922 0.609343
0.656044 0.507950 0.733797
0.656072 0.507979 0.857899
0.656101 0.508007 0.981702
0.656159 0.632830 0.001870
0.656183 0.632854 0.105747
0.656212 0.632883 0.233144
0.656241 0.632912 0.359320
0.656270 0.632941 0.484745
0.656298 0.632969 0.609626
0.656327 0.632998 0.734080
0.656355 0.633026 0.858182
0.656383 0.633054 0.981985
0.656441 0.757466 0.002152
0.656465 0.757490 0.106029
0.656494 0.757519 0.233426
0.656523 0.757548 0.359602
0.656551 0.757577 0.485027
0.656580 0.757605 0.609908
0.656608 0.757634 0.734361
0.656637 0.757662 0.858463
0.656665 0.757691 0.982267
0.656722 0.881762 0.002433
0.656746 0.881785 0.106310
0.656775 0.881814 0.233707
0.656804 0.881843 0.359883
0.656832 0.881872 0.485308
0.656861 0.881901 0.610189
0.656889 0.881929 0.734642
0.656918 0.881957 0.858744
0.656946 0.881986 0.982548
0.656988 0.999541 0.002699
0.657012 0.999565 0.106576
0.657041 0.999594 0.233973
0.657070 0.999623 0.360149
0.657099 0.999652 0.485574
0.657127 0.999680 0.610455
0.657156 0.999709 0.734909
0.657184 0.999737 0.859011
0.657212 0.999765 0.982814
0.779099 0.000524 0.000524
0.779123 0.000548 0.104402
0.779152 0.000577 0.231798
0.779181 0.000606 0.357974
0.779210 0.000635 0.483399
0.779238 0.000663 0.608280
0.779267 0.000692 0.732734
0.779295 0.000720 0.856836
0.779323 0.000748 0.980639
0.779389 0.128670 0.000814
0.779413 0.128693 0.104691
0.779442 0.128722 0.232088
0.779471 0.128751 0.358264
0.779499 0.128780 0.483689
0.779528 0.128808 0.608570
0.779556 0.128837 0.733024
0.779585 0.128865 0.857126
0.779613 0.128894 0.980929
0.779677 0.256031 0.001102
0.779701 0.256055 0.104979
0.779730 0.256084 0.232376
0.779759 0.256113 0.358552
0.779787 0.256142 0.483977
0.779816 0.256170 0.608858
0.779844 0.256199 0.733311
0.779873 0.256227 0.857413
0.779901 0.256255 0.981217
0.779962 0.382300 0.001387
0.779986 0.382324 0.105265
0.780015 0.382353 0.232661
0.780044 0.382382 0.358837
0.780073 0.382410 0.484263
0.780101 0.382439 0.609143
0.780130 0.382467 0.733597
0.780158 0.382496 0.857699
0.780187 0.382524 0.981502
0.780246 0.507866 0.001671
0.780270 0.507890 0.105549
0.780299 0.507919 0.232945
0.780328 0.507948 0.359121
0.780357 0.507977 0.484546
0.780385 0.508005 0.609427
0.780414 0.508034 0.733881
0.780442 0.508062 0.857983
0.780470 0.508091 0.981786
0.780529 0.632914 0.001954
0.780553 0.632938 0.105831
0.780582 0.632967 0.233228
0.780611 0.632996 0.359404
0.780639 0.633024 0.484829
0.780668 0.633053 0.609710
0.780696 0.633081 0.734163
0.780725 0.633110 0.858265
0.780753 0.633138 0.982069
0.780811 0.757550 0.002236
0.780834 0.757574 0.106113
0.780864 0.757603 0.233510
0.780892 0.757632 0.359686
0.780921 0.757661 0.485111
0.780950 0.757689 0.609992
0.780978 0.757718 0.734445
0.781006 0.757746 0.858547
0.781035 0.757774 0.982350
0.781092 0.881845 0.002517
0.781115 0.881869 0.106394
0.781145 0.881898 0.233791
0.781173 0.881927 0.359967
0.781202 0.881956 0.485392
0.781231 0.881984 0.610273
0.781259 0.882013 0.734726
0.781287 0.882041 0.858828
0.781316 0.882069 0.982631
0.781358 0.999625 0.002783
0.781382 0.999649 0.106660
0.781411 0.999678 0.234057
0.781440 0.999707 0.360233
0.781468 0.999735 0.485658
0.781497 0.999764 0.610539
0.781525 0.999792 0.734992
0.781554 0.999821 0.859094
0.781582 0.999849 0.982898
0.903139 0.000608 0.000608
0.903163 0.000632 0.104485
0.903192 0.000661 0.231882
0.903221 0.000690 0.358058
0.903250 0.000718 0.483483
0.903278 0.000747 0.608364
0.903307 0.000775 0.732817
0.903335 0.000804 0.856919
0.903363 0.000832 0.980723
0.903429 0.128753 0.000898
0.903453 0.128777 0.104775
0.903482 0.128806 0.232172
0.903511 0.128835 0.358347
0.903539 0.128863 0.483773
0.903568 0.128892 0.608653
0.903596 0.128920 0.733107
0.903625 0.128949 0.857209
0.903653 0.128977 0.981012
0.903717 0.256115 0.001185
0.903741 0.256138 0.105063
0.903770 0.256168 0.232459
0.903799 0.256196 0.358635
0.903827 0.256225 0.484061
0.903856 0.256254 0.608941
0.903884 0.256282 0.733395
0.903913 0.256311 0.857497
0.903941 0.256339 0.981300
0.904002 0.382383 0.001471
0.904026 0.382407 0.105348
0.904055 0.382436 0.232745
0.904084 0.382465 0.358921
0.904113 0.382494 0.484346
0.904141 0.382522 0.609227
0.904170 0.382551 0.733680
0.904198 0.382579 0.857782
0.904226 0.382608 0.981586
0.904286 0.507950 0.001755
0.904310 0.507974 0.105632
0.904339 0.508003 0.233029
0.904368 0.508032 0.359205
0.904396 0.508060 0.484630
0.904425 0.508089 0.609511
0.904454 0.508117 0.733964
0.904482 0.508146 0.858066
0.904510 0.508174 0.981869
0.904569 0.632998 0.002037
0.904593 0.633021 0.105915
0.904622 0.633050 0.233311
0.904650 0.633079 0.359487
0.904679 0.633108 0.484913
0.904708 0.633137 0.609793
0.904736 0.633165 0.734247
0.904765 0.633193 0.858349
0.904793 0.633222 0.982152
0.904851 0.757634 0.002319
0.904874 0.757657 0.106196
0.904903 0.757687 0.233593
0.904932 0.757715 0.359769
0.904961 0.757744 0.485194
0.904989 0.757773 0.610075
0.905018 0.757801 0.734529
0.905046 0.757829 0.858631
0.905075 0.757858 0.982434
0.905131 0.881929 0.002600
0.905155 0.881952 0.106477
0.905184 0.881982 0.233874
0.905213 0.882010 0.360050
0.905242 0.882039 0.485475
0.905270 0.882068 0.610356
0.905299 0.882096 0.734810
0.905327 0.882125 0.858912
0.905356 0.882153 0.982715
0.905398 0.999708 0.002866
0.905421 0.999732 0.106744
0.905451 0.999761 0.234140
0.905479 0.999790 0.360316
0.905508 0.999819 0.485741
0.905537 0.999847 0.610622
0.905565 0.999876 0.735076
0.905594 0.999904 0.859178
0.905622 0.999933 0.982981
0.997513 0.000671 0.000671
0.997537 0.000695 0.104549
0.997566 0.000724 0.231945
0.997595 0.000753 0.358121
0.997624 0.000782 0.483546
0.997652 0.000810 0.608427
0.997681 0.000839 0.732881
0.997709 0.000867 0.856983
0.997738 0.000895 0.980786
0.997803 0.128817 0.000961
0.997827 0.128840 0.104838
0.997856 0.128869 0.232235
0.997885 0.128898 0.358411
0.997914 0.128927 0.483836
0.997942 0.128955 0.608717
0.997971 0.128984 0.733171
0.997999 0.129012 0.857273
0.998027 0.129041 0.981076
0.998091 0.256178 0.001249
0.998115 0.256202 0.105126
0.998144 0.256231 0.232523
0.998173 0.256260 0.358699
0.998201 0.256289 0.484124
0.998230 0.256317 0.609005
0.998258 0.256346 0.733458
0.998287 0.256374 0.857560
0.998315 0.256402 0.981364
0.998377 0.382447 0.001534
0.998400 0.382471 0.105412
0.998429 0.382500 0.232808
0.998458 0.382529 0.358984
0.998487 0.382557 0.484410
0.998515 0.382586 0.609290
0.998544 0.382614 0.733744
0.998572 0.382643 0.857846
0.998601 0.382671 0.981649
0.998660 0.508013 0.001818
0.998684 0.508037 0.105696
0.998713 0.508066 0.233092
0.998742 0.508095 0.359268
0.998771 0.508124 0.484693
0.998799 0.508152 0.609574
0.998828 0.508181 0.734028
0.998856 0.508209 0.858130
0.998884 0.508238 0.981933
0.998943 0.633061 0.002101
0.998967 0.633085 0.105978
0.998996 0.633114 0.233375
0.999025 0.633143 0.359551
0.999053 0.633171 0.484976
0.999082 0.633200 0.609857
0.999110 0.633228 0.734310
0.999139 0.633257 0.858412
0.999167 0.633285 0.982216
0.999225 0.757697 0.002383
0.999249 0.757721 0.106260
0.999278 0.757750 0.233657
0.999307 0.757779 0.359833
0.999335 0.757808 0.485258
0.999364 0.757836 0.610139
0.999392 0.757865 0.734592
0.999421 0.757893 0.858694
0.999449 0.757921 0.982497
0.999506 0.881992 0.002664
0.999530 0.882016 0.106541
0.999559 0.882045 0.233938
0.999587 0.882074 0.360114
0.999616 0.882103 0.485539
0.999645 0.882131 0.610420
0.999673 0.882160 0.734873
0.999702 0.882188 0.858975
0.999730 0.882216 0.982778
0.999772 0.999772 0.002930
0.999796 0.999796 0.106807
0.999825 0.999825 0.234204
0.999854 0.999854 0.360380
0.999882 0.999882 0.485805
0.999911 0.999911 0.610686
0.999939 0.999939 0.735139
0.999968 0.999968 0.859241
0.999996 0.999996 0.983045
