skills/creativeops-director/assets/grade/luts/warm_skin_v05.cube
TITLE "warm_skin_v05"
LUT_3D_SIZE 5
DOMAIN_MIN 0.0 0.0 0.0
DOMAIN_MAX 1.0 1.0 1.0
0.022865 0.000015 0.000015
0.022918 0.000068 0.231289
0.022976 0.000126 0.482890
0.023033 0.000183 0.732225
0.023089 0.000240 0.980130
0.023443 0.255522 0.000593
0.023496 0.255575 0.231867
0.023553 0.255633 0.483468
0.023610 0.255690 0.732802
0.023667 0.255746 0.980708
0.024012 0.507357 0.001162
0.024065 0.507410 0.232436
0.024123 0.507468 0.484037
0.024180 0.507525 0.733372
0.024236 0.507582 0.981277
0.024577 0.757041 0.001727
0.024629 0.757094 0.233001
0.024687 0.757152 0.484602
0.024744 0.757209 0.733936
0.024801 0.757265 0.981841
0.025124 0.999116 0.002274
0.025177 0.999169 0.233548
0.025234 0.999226 0.485149
0.025291 0.999283 0.734483
0.025348 0.999340 0.982389
0.278789 0.000188 0.000188
0.278841 0.000241 0.231462
0.278899 0.000298 0.483063
0.278956 0.000355 0.732397
0.279013 0.000412 0.980302
0.279366 0.255695 0.000765
0.279419 0.255747 0.232039
0.279477 0.255805 0.483640
0.279534 0.255862 0.732975
0.279590 0.255919 0.980880
0.279935 0.507530 0.001335
0.279988 0.507583 0.232608
0.280046 0.507640 0.484210
0.280103 0.507697 0.733544
0.280160 0.507754 0.981449
0.280500 0.757213 0.001899
0.280553 0.757266 0.233173
0.280610 0.757324 0.484774
0.280667 0.757381 0.734108
0.280724 0.757438 0.982014
0.281047 0.999288 0.002446
0.281100 0.999341 0.233720
0.281158 0.999399 0.485321
0.281215 0.999456 0.734656
0.281271 0.999512 0.982561
0.529964 0.000357 0.000357
0.530017 0.000410 0.231631
0.530075 0.000467 0.483232
0.530132 0.000524 0.732566
0.530188 0.000581 0.980471
0.530542 0.255864 0.000934
0.530595 0.255916 0.232208
0.530652 0.255974 0.483809
0.530709 0.256031 0.733144
0.530766 0.256088 0.981049
0.531111 0.507699 0.001504
0.531164 0.507752 0.232778
0.531222 0.507809 0.484379
0.531279 0.507866 0.733713
0.531335 0.507923 0.981618
0.531676 0.757382 0.002068
0.531729 0.757435 0.233342
0.531786 0.757493 0.484943
0.531843 0.757550 0.734278
0.531900 0.757607 0.982183
0.532223 0.999457 0.002615
0.532276 0.999510 0.233889
0.532333 0.999568 0.485490
0.532390 0.999625 0.734825
0.532447 0.999681 0.982730
0.779099 0.000524 0.000524
0.779152 0.000577 0.231798
0.779210 0.000635 0.483399
0.779267 0.000692 0.732734
0.779323 0.000748 0.980639
0.779677 0.256031 0.001102
0.779730 0.256084 0.232376
0.779787 0.256142 0.483977
0.779844 0.256199 0.733311
0.779901 0.256255 0.981217
0.780246 0.507866 0.001671
0.780299 0.507919 0.232945
0.780357 0.507977 0.484546
0.780414 0.508034 0.733881
0.780470 0.508091 0.981786
0.780811 0.757550 0.002236
0.780864 0.757603 0.233510
0.780921 0.757661 0.485111
0.780978 0.757718 0.734445
0.781035 0.757774 0.982350
0.781358 0.999625 0.002783
0.781411 0.999678 0.234057
0.781468 0.999735 0.485658
0.781525 0.999792 0.734992
0.781582 0.999849 0.982898
0.997513 0.000671 0.000671
0.997566 0.000724 0.231945
0.997624 0.000782 0.483546
0.997681 0.000839 0.732881
0.997738 0.000895 0.980786
0.998091 0.256178 0.001249
0.998144 0.256231 0.232523
0.998201 0.256289 0.484124
0.998258 0.256346 0.733458
0.998315 0.256402 0.981364
0.998660 0.508013 0.001818
0.998713 0.508066 0.233092
0.998771 0.508124 0.484693
0.998828 0.508181 0.734028
0.998884 0.508238 0.981933
0.999225 0.757697 0.002383
0.999278 0.757750 0.233657
0.999335 0.757808 0.485258
0.999392 0.757865 0.734592
0.999449 0.757921 0.982497
0.999772 0.999772 0.002930
0.999825 0.999825 0.234204
0.999882 0.999882 0.485805
0.999939 0.999939 0.735139
0.999996 0.999996 0.983045
