skills/creativeops-director/assets/grade/luts/warm_skin_v05.cube
TITLE "warm_skin_v05"
LUT_3D_SIZE 17
DOMAIN_MIN 0.0 0.0 0.0
DOMAIN_MAX 1.0 1.0 1.0
0.022865 0.000015 0.000015
0.022874 0.000024 0.039277
0.022889 0.000039 0.103893
0.022904 0.000054 0.167797
0.022918 0.000068 0.231289
0.022933 0.000083 0.294490
0.022947 0.000097 0.357465
0.022961 0.000111 0.420256
0.022976 0.000126 0.482890
0.022990 0.000140 0.545390
0.023004 0.000154 0.607771
0.023018 0.000169 0.670046
0.023033 0.000183 0.732225
0.023047 0.000197 0.794316
0.023061 0.000211 0.856327
0.023075 0.000225 0.918263
0.023089 0.000240 0.980130
0.023009 0.063743 0.000159
0.023018 0.063752 0.039421
0.023033 0.063767 0.104037
0.023048 0.063781 0.167941
0.023062 0.063796 0.231433
0.023077 0.063810 0.294634
0.023091 0.063825 0.357609
0.023105 0.063839 0.420400
0.023120 0.063854 0.483035
0.023134 0.063868 0.545534
0.023148 0.063882 0.607915
0.023162 0.063896 0.670190
0.023177 0.063911 0.732369
0.023191 0.063925 0.794460
0.023205 0.063939 0.856471
0.023219 0.063953 0.918407
0.023233 0.063967 0.980274
0.023155 0.128161 0.000305
0.023164 0.128170 0.039567
0.023179 0.128184 0.104182
0.023193 0.128199 0.168087
0.023208 0.128213 0.231579
0.023222 0.128228 0.294780
0.023237 0.128242 0.357755
0.023251 0.128257 0.420545
0.023265 0.128271 0.483180
0.023280 0.128285 0.545680
0.023294 0.128300 0.608061
0.023308 0.128314 0.670336
0.023322 0.128328 0.732515
0.023337 0.128342 0.794606
0.023351 0.128356 0.856617
0.023365 0.128371 0.918553
0.023379 0.128385 0.980420
0.023299 0.192020 0.000449
0.023308 0.192029 0.039711
0.023323 0.192044 0.104327
0.023338 0.192058 0.168231
0.023352 0.192073 0.231723
0.023367 0.192087 0.294924
0.023381 0.192102 0.357899
0.023395 0.192116 0.420690
0.023410 0.192130 0.483325
0.023424 0.192145 0.545824
0.023438 0.192159 0.608205
0.023452 0.192173 0.670480
0.023467 0.192187 0.732659
0.023481 0.192202 0.794750
0.023495 0.192216 0.856761
0.023509 0.192230 0.918697
0.023523 0.192244 0.980564
0.023443 0.255522 0.000593
0.023452 0.255531 0.039855
0.023467 0.255546 0.104470
0.023481 0.255561 0.168374
0.023496 0.255575 0.231867
0.023510 0.255590 0.295068
0.023525 0.255604 0.358043
0.023539 0.255618 0.420833
0.023553 0.255633 0.483468
0.023568 0.255647 0.545968
0.023582 0.255661 0.608349
0.023596 0.255675 0.670624
0.023610 0.255690 0.732802
0.023624 0.255704 0.794894
0.023639 0.255718 0.856904
0.023653 0.255732 0.918841
0.023667 0.255746 0.980708
0.023586 0.318761 0.000736
0.023595 0.318770 0.039998
0.023610 0.318785 0.104613
0.023624 0.318799 0.168517
0.023639 0.318814 0.232010
0.023653 0.318828 0.295211
0.023667 0.318843 0.358186
0.023682 0.318857 0.420976
0.023696 0.318871 0.483611
0.023710 0.318886 0.546111
0.023725 0.318900 0.608492
0.023739 0.318914 0.670767
0.023753 0.318928 0.732945
0.023767 0.318943 0.795037
0.023782 0.318957 0.857047
0.023796 0.318971 0.918984
0.023810 0.318985 0.980851
0.023728 0.381791 0.000878
0.023737 0.381800 0.040140
0.023752 0.381815 0.104756
0.023767 0.381829 0.168660
0.023781 0.381844 0.232152
0.023796 0.381858 0.295353
0.023810 0.381873 0.358328
0.023824 0.381887 0.421119
0.023839 0.381901 0.483754
0.023853 0.381916 0.546253
0.023867 0.381930 0.608634
0.023881 0.381944 0.670909
0.023896 0.381958 0.733088
0.023910 0.381973 0.795179
0.023924 0.381987 0.857190
0.023938 0.382001 0.919126
0.023952 0.382015 0.980993
0.023870 0.444648 0.001021
0.023879 0.444657 0.040283
0.023894 0.444672 0.104898
0.023909 0.444686 0.168802
0.023923 0.444701 0.232294
0.023938 0.444715 0.295495
0.023952 0.444730 0.358470
0.023966 0.444744 0.421261
0.023981 0.444758 0.483896
0.023995 0.444773 0.546395
0.024009 0.444787 0.608776
0.024024 0.444801 0.671051
0.024038 0.444815 0.733230
0.024052 0.444830 0.795321
0.024066 0.444844 0.857332
0.024080 0.444858 0.919268
0.024094 0.444872 0.981135
0.024012 0.507357 0.001162
0.024021 0.507366 0.040424
0.024036 0.507381 0.105040
0.024050 0.507396 0.168944
0.024065 0.507410 0.232436
0.024079 0.507425 0.295637
0.024094 0.507439 0.358612
0.024108 0.507454 0.421403
0.024123 0.507468 0.484037
0.024137 0.507482 0.546537
0.024151 0.507496 0.608918
0.024165 0.507511 0.671193
0.024180 0.507525 0.733372
0.024194 0.507539 0.795463
0.024208 0.507553 0.857474
0.024222 0.507567 0.919410
0.024236 0.507582 0.981277
0.024154 0.569938 0.001304
0.024163 0.569947 0.040566
0.024177 0.569962 0.105181
0.024192 0.569977 0.169085
0.024206 0.569991 0.232578
0.024221 0.570006 0.295779
0.024235 0.570020 0.358754
0.024250 0.570034 0.421544
0.024264 0.570049 0.484179
0.024278 0.570063 0.546679
0.024293 0.570077 0.609060
0.024307 0.570091 0.671334
0.024321 0.570106 0.733513
0.024335 0.570120 0.795604
0.024349 0.570134 0.857615
0.024364 0.570148 0.919551
0.024378 0.570162 0.981419
0.024295 0.632405 0.001445
0.024304 0.632414 0.040707
0.024319 0.632429 0.105322
0.024333 0.632443 0.169226
0.024348 0.632458 0.232719
0.024362 0.632472 0.295920
0.024377 0.632487 0.358895
0.024391 0.632501 0.421685
0.024405 0.632515 0.484320
0.024419 0.632530 0.546820
0.024434 0.632544 0.609201
0.024448 0.632558 0.671476
0.024462 0.632573 0.733654
0.024476 0.632587 0.795746
0.024491 0.632601 0.857756
0.024505 0.632615 0.919693
0.024519 0.632629 0.981560
0.024436 0.694770 0.001586
0.024445 0.694779 0.040848
0.024460 0.694793 0.105463
0.024474 0.694808 0.169367
0.024489 0.694822 0.232860
0.024503 0.694837 0.296061
0.024517 0.694851 0.359036
0.024532 0.694866 0.421826
0.024546 0.694880 0.484461
0.024560 0.694894 0.546961
0.024575 0.694909 0.609342
0.024589 0.694923 0.671617
0.024603 0.694937 0.733795
0.024617 0.694951 0.795887
0.024632 0.694965 0.857897
0.024646 0.694980 0.919834
0.024660 0.694994 0.981701
0.024577 0.757041 0.001727
0.024585 0.757050 0.040989
0.024600 0.757065 0.105604
0.024615 0.757080 0.169508
0.024629 0.757094 0.233001
0.024644 0.757109 0.296202
0.024658 0.757123 0.359177
0.024673 0.757137 0.421967
0.024687 0.757152 0.484602
0.024701 0.757166 0.547102
0.024715 0.757180 0.609483
0.024730 0.757194 0.671757
0.024744 0.757209 0.733936
0.024758 0.757223 0.796027
0.024772 0.757237 0.858038
0.024786 0.757251 0.919974
0.024801 0.757265 0.981841
0.024717 0.819228 0.001867
0.024726 0.819237 0.041129
0.024741 0.819252 0.105745
0.024755 0.819266 0.169649
0.024770 0.819281 0.233141
0.024784 0.819295 0.296342
0.024799 0.819310 0.359317
0.024813 0.819324 0.422108
0.024828 0.819338 0.484742
0.024842 0.819353 0.547242
0.024856 0.819367 0.609623
0.024870 0.819381 0.671898
0.024885 0.819395 0.734077
0.024899 0.819409 0.796168
0.024913 0.819424 0.858179
0.024927 0.819438 0.920115
0.024941 0.819452 0.981982
0.024857 0.881336 0.002008
0.024866 0.881345 0.041270
0.024881 0.881360 0.105885
0.024896 0.881375 0.169789
0.024910 0.881389 0.233282
0.024925 0.881404 0.296483
0.024939 0.881418 0.359458
0.024954 0.881432 0.422248
0.024968 0.881447 0.484883
0.024982 0.881461 0.547383
0.024996 0.881475 0.609764
0.025011 0.881489 0.672038
0.025025 0.881504 0.734217
0.025039 0.881518 0.796308
0.025053 0.881532 0.858319
0.025067 0.881546 0.920255
0.025082 0.881560 0.982122
0.024998 0.943372 0.002148
0.025007 0.943381 0.041410
0.025021 0.943396 0.106025
0.025036 0.943410 0.169929
0.025051 0.943425 0.233422
0.025065 0.943439 0.296623
0.025079 0.943454 0.359598
0.025094 0.943468 0.422388
0.025108 0.943483 0.485023
0.025122 0.943497 0.547523
0.025137 0.943511 0.609904
0.025151 0.943525 0.672179
0.025165 0.943540 0.734357
0.025179 0.943554 0.796449
0.025194 0.943568 0.858459
0.025208 0.943582 0.920396
0.025222 0.943596 0.982263
0.025124 0.999116 0.002274
0.025133 0.999125 0.041536
0.025147 0.999140 0.106151
0.025162 0.999154 0.170055
0.025177 0.999169 0.233548
0.025191 0.999183 0.296749
0.025205 0.999198 0.359724
0.025220 0.999212 0.422514
0.025234 0.999226 0.485149
0.025248 0.999241 0.547649
0.025263 0.999255 0.610030
0.025277 0.999269 0.672305
0.025291 0.999283 0.734483
0.025305 0.999298 0.796575
0.025320 0.999312 0.858585
0.025334 0.999326 0.920522
0.025348 0.999340 0.982389
0.087816 0.000059 0.000059
0.087825 0.000068 0.039321
0.087840 0.000083 0.103936
0.087854 0.000097 0.167841
0.087869 0.000112 0.231333
0.087883 0.000126 0.294534
0.087898 0.000141 0.357509
0.087912 0.000155 0.420300
0.087926 0.000170 0.482934
0.087941 0.000184 0.545434
0.087955 0.000198 0.607815
0.087969 0.000212 0.670090
0.087983 0.000227 0.732269
0.087998 0.000241 0.794360
0.088012 0.000255 0.856371
0.088026 0.000269 0.918307
0.088040 0.000283 0.980174
0.087960 0.063787 0.000203
0.087969 0.063796 0.039465
0.087984 0.063811 0.104080
0.087998 0.063825 0.167985
0.088013 0.063840 0.231477
0.088027 0.063854 0.294678
0.088042 0.063869 0.357653
0.088056 0.063883 0.420444
0.088070 0.063897 0.483078
0.088085 0.063912 0.545578
0.088099 0.063926 0.607959
0.088113 0.063940 0.670234
0.088127 0.063954 0.732413
0.088142 0.063968 0.794504
0.088156 0.063983 0.856515
0.088170 0.063997 0.918451
0.088184 0.064011 0.980318
0.088106 0.128204 0.000349
0.088115 0.128213 0.039611
0.088129 0.128228 0.104226
0.088144 0.128243 0.168130
0.088158 0.128257 0.231623
0.088173 0.128272 0.294824
0.088187 0.128286 0.357799
0.088202 0.128300 0.420589
0.088216 0.128315 0.483224
0.088230 0.128329 0.545724
0.088245 0.128343 0.608105
0.088259 0.128357 0.670380
0.088273 0.128372 0.732558
0.088287 0.128386 0.794650
0.088301 0.128400 0.856660
0.088316 0.128414 0.918597
0.088330 0.128428 0.980464
0.088250 0.192064 0.000493
0.088259 0.192073 0.039755
0.088274 0.192087 0.104370
0.088288 0.192102 0.168275
0.088303 0.192117 0.231767
0.088317 0.192131 0.294968
0.088332 0.192145 0.357943
0.088346 0.192160 0.420734
0.088360 0.192174 0.483368
0.088375 0.192188 0.545868
0.088389 0.192203 0.608249
0.088403 0.192217 0.670524
0.088417 0.192231 0.732703
0.088432 0.192245 0.794794
0.088446 0.192260 0.856805
0.088460 0.192274 0.918741
0.088474 0.192288 0.980608
0.088393 0.255566 0.000637
0.088402 0.255575 0.039899
0.088417 0.255590 0.104514
0.088432 0.255604 0.168418
0.088446 0.255619 0.231911
0.088461 0.255633 0.295112
0.088475 0.255648 0.358087
0.088490 0.255662 0.420877
0.088504 0.255676 0.483512
0.088518 0.255691 0.546012
0.088532 0.255705 0.608393
0.088547 0.255719 0.670667
0.088561 0.255733 0.732846
0.088575 0.255748 0.794937
0.088589 0.255762 0.856948
0.088603 0.255776 0.918884
0.088618 0.255790 0.980751
0.088536 0.318805 0.000780
0.088545 0.318814 0.040042
0.088560 0.318829 0.104657
0.088575 0.318843 0.168561
0.088589 0.318858 0.232054
0.088604 0.318872 0.295255
0.088618 0.318886 0.358230
0.088633 0.318901 0.421020
0.088647 0.318915 0.483655
0.088661 0.318929 0.546155
0.088675 0.318944 0.608536
0.088690 0.318958 0.670810
0.088704 0.318972 0.732989
0.088718 0.318986 0.795080
0.088732 0.319001 0.857091
0.088746 0.319015 0.919027
0.088761 0.319029 0.980894
0.088679 0.381835 0.000922
0.088688 0.381844 0.040184
0.088703 0.381858 0.104799
0.088717 0.381873 0.168704
0.088732 0.381888 0.232196
0.088746 0.381902 0.295397
0.088761 0.381916 0.358372
0.088775 0.381931 0.421163
0.088789 0.381945 0.483797
0.088804 0.381959 0.546297
0.088818 0.381974 0.608678
0.088832 0.381988 0.670953
0.088846 0.382002 0.733132
0.088861 0.382016 0.795223
0.088875 0.382031 0.857234
0.088889 0.382045 0.919170
0.088903 0.382059 0.981037
0.088821 0.444692 0.001064
0.088830 0.444701 0.040326
0.088845 0.444715 0.104941
0.088859 0.444730 0.168846
0.088874 0.444745 0.232338
0.088888 0.444759 0.295539
0.088903 0.444773 0.358514
0.088917 0.444788 0.421305
0.088931 0.444802 0.483939
0.088946 0.444816 0.546439
0.088960 0.444831 0.608820
0.088974 0.444845 0.671095
0.088988 0.444859 0.733274
0.089003 0.444873 0.795365
0.089017 0.444888 0.857376
0.089031 0.444902 0.919312
0.089045 0.444916 0.981179
0.088963 0.507401 0.001206
0.088972 0.507410 0.040468
0.088987 0.507425 0.105083
0.089001 0.507440 0.168987
0.089016 0.507454 0.232480
0.089030 0.507468 0.295681
0.089044 0.507483 0.358656
0.089059 0.507497 0.421446
0.089073 0.507512 0.484081
0.089087 0.507526 0.546581
0.089102 0.507540 0.608962
0.089116 0.507554 0.671237
0.089130 0.507569 0.733415
0.089144 0.507583 0.795507
0.089159 0.507597 0.857517
0.089173 0.507611 0.919454
0.089187 0.507625 0.981321
0.089104 0.569982 0.001347
0.089113 0.569991 0.040609
0.089128 0.570006 0.105225
0.089143 0.570020 0.169129
0.089157 0.570035 0.232621
0.089172 0.570049 0.295822
0.089186 0.570064 0.358797
0.089200 0.570078 0.421588
0.089215 0.570092 0.484223
0.089229 0.570107 0.546722
0.089243 0.570121 0.609103
0.089257 0.570135 0.671378
0.089272 0.570149 0.733557
0.089286 0.570164 0.795648
0.089300 0.570178 0.857659
0.089314 0.570192 0.919595
0.089328 0.570206 0.981462
0.089245 0.632449 0.001489
0.089254 0.632458 0.040751
0.089269 0.632473 0.105366
0.089284 0.632487 0.169270
0.089298 0.632502 0.232763
0.089313 0.632516 0.295964
0.089327 0.632531 0.358939
0.089342 0.632545 0.421729
0.089356 0.632559 0.484364
0.089370 0.632574 0.546864
0.089384 0.632588 0.609245
0.089399 0.632602 0.671519
0.089413 0.632616 0.733698
0.089427 0.632630 0.795789
0.089441 0.632645 0.857800
0.089455 0.632659 0.919736
0.089470 0.632673 0.981603
0.089386 0.694813 0.001630
0.089395 0.694822 0.040892
0.089410 0.694837 0.105507
0.089425 0.694852 0.169411
0.089439 0.694866 0.232904
0.089454 0.694881 0.296105
0.089468 0.694895 0.359080
0.089483 0.694909 0.421870
0.089497 0.694924 0.484505
0.089511 0.694938 0.547005
0.089525 0.694952 0.609386
0.089540 0.694966 0.671660
0.089554 0.694981 0.733839
0.089568 0.694995 0.795930
0.089582 0.695009 0.857941
0.089596 0.695023 0.919877
0.089611 0.695037 0.981744
0.089527 0.757085 0.001770
0.089536 0.757094 0.041032
0.089551 0.757109 0.105648
0.089566 0.757123 0.169552
0.089580 0.757138 0.233044
0.089595 0.757152 0.296245
0.089609 0.757167 0.359220
0.089623 0.757181 0.422011
0.089638 0.757195 0.484646
0.089652 0.757210 0.547145
0.089666 0.757224 0.609526
0.089680 0.757238 0.671801
0.089695 0.757252 0.733980
0.089709 0.757267 0.796071
0.089723 0.757281 0.858082
0.089737 0.757295 0.920018
0.089751 0.757309 0.981885
0.089668 0.819272 0.001911
0.089677 0.819281 0.041173
0.089692 0.819295 0.105788
0.089706 0.819310 0.169692
0.089721 0.819324 0.233185
0.089735 0.819339 0.296386
0.089749 0.819353 0.359361
0.089764 0.819368 0.422151
0.089778 0.819382 0.484786
0.089792 0.819396 0.547286
0.089807 0.819411 0.609667
0.089821 0.819425 0.671942
0.089835 0.819439 0.734120
0.089849 0.819453 0.796212
0.089864 0.819467 0.858222
0.089878 0.819482 0.920159
0.089892 0.819496 0.982026
0.089808 0.881380 0.002051
0.089817 0.881389 0.041313
0.089832 0.881404 0.105929
0.089847 0.881418 0.169833
0.089861 0.881433 0.233325
0.089875 0.881447 0.296526
0.089890 0.881462 0.359501
0.089904 0.881476 0.422292
0.089919 0.881490 0.484926
0.089933 0.881505 0.547426
0.089947 0.881519 0.609807
0.089961 0.881533 0.672082
0.089976 0.881547 0.734261
0.089990 0.881562 0.796352
0.090004 0.881576 0.858363
0.090018 0.881590 0.920299
0.090032 0.881604 0.982166
0.089948 0.943416 0.002192
0.089957 0.943425 0.041454
0.089972 0.943440 0.106069
0.089987 0.943454 0.169973
0.090001 0.943469 0.233466
0.090016 0.943483 0.296667
0.090030 0.943498 0.359642
0.090044 0.943512 0.422432
0.090059 0.943526 0.485067
0.090073 0.943541 0.547567
0.090087 0.943555 0.609948
0.090102 0.943569 0.672222
0.090116 0.943583 0.734401
0.090130 0.943597 0.796492
0.090144 0.943612 0.858503
0.090158 0.943626 0.920439
0.090173 0.943640 0.982306
0.090074 0.999160 0.002318
0.090083 0.999169 0.041580
0.090098 0.999183 0.106195
0.090113 0.999198 0.170099
0.090127 0.999213 0.233592
0.090142 0.999227 0.296793
0.090156 0.999241 0.359768
0.090171 0.999256 0.422558
0.090185 0.999270 0.485193
0.090199 0.999284 0.547693
0.090213 0.999299 0.610074
0.090228 0.999313 0.672348
0.090242 0.999327 0.734527
0.090256 0.999341 0.796618
0.090270 0.999356 0.858629
0.090284 0.999370 0.920565
0.090299 0.999384 0.982432
0.151885 0.000102 0.000102
0.151894 0.000111 0.039364
0.151908 0.000126 0.103979
0.151923 0.000141 0.167884
0.151938 0.000155 0.231376
0.151952 0.000170 0.294577
0.151966 0.000184 0.357552
0.151981 0.000198 0.420343
0.151995 0.000213 0.482977
0.152009 0.000227 0.545477
0.152024 0.000241 0.607858
0.152038 0.000255 0.670133
0.152052 0.000270 0.732312
0.152066 0.000284 0.794403
0.152081 0.000298 0.856414
0.152095 0.000312 0.918350
0.152109 0.000326 0.980217
0.152029 0.063830 0.000246
0.152038 0.063839 0.039508
0.152053 0.063854 0.104124
0.152067 0.063868 0.168028
0.152082 0.063883 0.231520
0.152096 0.063897 0.294721
0.152110 0.063912 0.357696
0.152125 0.063926 0.420487
0.152139 0.063940 0.483121
0.152153 0.063955 0.545621
0.152168 0.063969 0.608002
0.152182 0.063983 0.670277
0.152196 0.063997 0.732456
0.152210 0.064012 0.794547
0.152225 0.064026 0.856558
0.152239 0.064040 0.918494
0.152253 0.064054 0.980361
0.152174 0.128247 0.000392
0.152183 0.128256 0.039654
0.152198 0.128271 0.104269
0.152213 0.128286 0.168173
0.152227 0.128300 0.231666
0.152242 0.128315 0.294867
0.152256 0.128329 0.357842
0.152270 0.128343 0.420632
0.152285 0.128358 0.483267
0.152299 0.128372 0.545767
0.152313 0.128386 0.608148
0.152328 0.128401 0.670423
0.152342 0.128415 0.732601
0.152356 0.128429 0.794693
0.152370 0.128443 0.856703
0.152384 0.128457 0.918640
0.152399 0.128472 0.980507
0.152319 0.192107 0.000536
0.152328 0.192116 0.039798
0.152342 0.192131 0.104414
0.152357 0.192145 0.168318
0.152372 0.192160 0.231810
0.152386 0.192174 0.295011
0.152400 0.192189 0.357986
0.152415 0.192203 0.420777
0.152429 0.192217 0.483411
0.152443 0.192232 0.545911
0.152458 0.192246 0.608292
0.152472 0.192260 0.670567
0.152486 0.192274 0.732746
0.152500 0.192288 0.794837
0.152515 0.192303 0.856848
0.152529 0.192317 0.918784
0.152543 0.192331 0.980651
0.152462 0.255609 0.000680
0.152471 0.255618 0.039942
0.152486 0.255633 0.104557
0.152501 0.255647 0.168461
0.152515 0.255662 0.231954
0.152530 0.255676 0.295155
0.152544 0.255691 0.358130
0.152558 0.255705 0.420920
0.152573 0.255720 0.483555
0.152587 0.255734 0.546055
0.152601 0.255748 0.608436
0.152616 0.255762 0.670711
0.152630 0.255777 0.732889
0.152644 0.255791 0.794981
0.152658 0.255805 0.856991
0.152672 0.255819 0.918928
0.152686 0.255833 0.980795
0.152605 0.318848 0.000823
0.152614 0.318857 0.040085
0.152629 0.318872 0.104700
0.152644 0.318886 0.168604
0.152658 0.318901 0.232097
0.152673 0.318915 0.295298
0.152687 0.318930 0.358273
0.152701 0.318944 0.421063
0.152716 0.318958 0.483698
0.152730 0.318973 0.546198
0.152744 0.318987 0.608579
0.152758 0.319001 0.670853
0.152773 0.319015 0.733032
0.152787 0.319030 0.795124
0.152801 0.319044 0.857134
0.152815 0.319058 0.919071
0.152829 0.319072 0.980938
0.152748 0.381878 0.000965
0.152757 0.381887 0.040227
0.152771 0.381902 0.104843
0.152786 0.381916 0.168747
0.152801 0.381931 0.232239
0.152815 0.381945 0.295440
0.152829 0.381960 0.358415
0.152844 0.381974 0.421206
0.152858 0.381988 0.483840
0.152872 0.382003 0.546340
0.152887 0.382017 0.608721
0.152901 0.382031 0.670996
0.152915 0.382045 0.733175
0.152929 0.382059 0.795266
0.152944 0.382074 0.857277
0.152958 0.382088 0.919213
0.152972 0.382102 0.981080
0.152890 0.444735 0.001107
0.152899 0.444744 0.040369
0.152914 0.444759 0.104985
0.152928 0.444773 0.168889
0.152943 0.444788 0.232381
0.152957 0.444802 0.295582
0.152972 0.444817 0.358557
0.152986 0.444831 0.421348
0.153000 0.444845 0.483982
0.153015 0.444860 0.546482
0.153029 0.444874 0.608863
0.153043 0.444888 0.671138
0.153057 0.444902 0.733317
0.153071 0.444916 0.795408
0.153086 0.444931 0.857419
0.153100 0.444945 0.919355
0.153114 0.444959 0.981222
0.153032 0.507444 0.001249
0.153041 0.507453 0.040511
0.153055 0.507468 0.105126
0.153070 0.507483 0.169031
0.153084 0.507497 0.232523
0.153099 0.507512 0.295724
0.153113 0.507526 0.358699
0.153128 0.507540 0.421490
0.153142 0.507555 0.484124
0.153156 0.507569 0.546624
0.153171 0.507583 0.609005
0.153185 0.507597 0.671280
0.153199 0.507612 0.733459
0.153213 0.507626 0.795550
0.153227 0.507640 0.857561
0.153242 0.507654 0.919497
0.153256 0.507668 0.981364
0.153173 0.570025 0.001391
0.153182 0.570034 0.040653
0.153197 0.570049 0.105268
0.153211 0.570063 0.169172
0.153226 0.570078 0.232665
0.153240 0.570092 0.295865
0.153255 0.570107 0.358840
0.153269 0.570121 0.421631
0.153283 0.570136 0.484266
0.153298 0.570150 0.546766
0.153312 0.570164 0.609147
0.153326 0.570178 0.671421
0.153340 0.570193 0.733600
0.153355 0.570207 0.795691
0.153369 0.570221 0.857702
0.153383 0.570235 0.919638
0.153397 0.570249 0.981505
0.153314 0.632492 0.001532
0.153323 0.632501 0.040794
0.153338 0.632516 0.105409
0.153353 0.632530 0.169313
0.153367 0.632545 0.232806
0.153382 0.632559 0.296007
0.153396 0.632574 0.358982
0.153410 0.632588 0.421772
0.153425 0.632602 0.484407
0.153439 0.632617 0.546907
0.153453 0.632631 0.609288
0.153467 0.632645 0.671563
0.153482 0.632659 0.733741
0.153496 0.632674 0.795833
0.153510 0.632688 0.857843
0.153524 0.632702 0.919780
0.153538 0.632716 0.981647
0.153455 0.694856 0.001673
0.153464 0.694865 0.040935
0.153479 0.694880 0.105550
0.153494 0.694895 0.169454
0.153508 0.694909 0.232947
0.153523 0.694924 0.296148
0.153537 0.694938 0.359123
0.153551 0.694952 0.421913
0.153566 0.694967 0.484548
0.153580 0.694981 0.547048
0.153594 0.694995 0.609429
0.153608 0.695010 0.671703
0.153623 0.695024 0.733882
0.153637 0.695038 0.795973
0.153651 0.695052 0.857984
0.153665 0.695066 0.919921
0.153679 0.695081 0.981788
0.153596 0.757128 0.001814
0.153605 0.757137 0.041076
0.153620 0.757152 0.105691
0.153634 0.757166 0.169595
0.153649 0.757181 0.233088
0.153663 0.757195 0.296288
0.153678 0.757210 0.359263
0.153692 0.757224 0.422054
0.153706 0.757238 0.484689
0.153721 0.757253 0.547188
0.153735 0.757267 0.609569
0.153749 0.757281 0.671844
0.153763 0.757295 0.734023
0.153778 0.757310 0.796114
0.153792 0.757324 0.858125
0.153806 0.757338 0.920061
0.153820 0.757352 0.981928
0.153737 0.819315 0.001954
0.153746 0.819324 0.041216
0.153760 0.819338 0.105831
0.153775 0.819353 0.169736
0.153789 0.819368 0.233228
0.153804 0.819382 0.296429
0.153818 0.819396 0.359404
0.153833 0.819411 0.422195
0.153847 0.819425 0.484829
0.153861 0.819439 0.547329
0.153876 0.819454 0.609710
0.153890 0.819468 0.671985
0.153904 0.819482 0.734164
0.153918 0.819496 0.796255
0.153932 0.819511 0.858266
0.153947 0.819525 0.920202
0.153961 0.819539 0.982069
0.153877 0.881423 0.002095
0.153886 0.881432 0.041357
0.153901 0.881447 0.105972
0.153915 0.881461 0.169876
0.153930 0.881476 0.233368
0.153944 0.881490 0.296569
0.153959 0.881505 0.359544
0.153973 0.881519 0.422335
0.153987 0.881534 0.484970
0.154002 0.881548 0.547469
0.154016 0.881562 0.609850
0.154030 0.881576 0.672125
0.154044 0.881591 0.734304
0.154059 0.881605 0.796395
0.154073 0.881619 0.858406
0.154087 0.881633 0.920342
0.154101 0.881647 0.982209
0.154017 0.943459 0.002235
0.154026 0.943468 0.041497
0.154041 0.943483 0.106112
0.154056 0.943497 0.170016
0.154070 0.943512 0.233509
0.154085 0.943526 0.296710
0.154099 0.943541 0.359685
0.154113 0.943555 0.422475
0.154128 0.943569 0.485110
0.154142 0.943584 0.547610
0.154156 0.943598 0.609991
0.154170 0.943612 0.672265
0.154185 0.943626 0.734444
0.154199 0.943641 0.796535
0.154213 0.943655 0.858546
0.154227 0.943669 0.920482
0.154241 0.943683 0.982350
0.154143 0.999203 0.002361
0.154152 0.999212 0.041623
0.154167 0.999227 0.106238
0.154182 0.999241 0.170142
0.154196 0.999256 0.233635
0.154211 0.999270 0.296836
0.154225 0.999285 0.359811
0.154239 0.999299 0.422601
0.154254 0.999313 0.485236
0.154268 0.999328 0.547736
0.154282 0.999342 0.610117
0.154296 0.999356 0.672391
0.154311 0.999370 0.734570
0.154325 0.999384 0.796661
0.154339 0.999399 0.858672
0.154353 0.999413 0.920609
0.154367 0.999427 0.982476
0.215494 0.000145 0.000145
0.215503 0.000154 0.039407
0.215518 0.000169 0.104022
0.215532 0.000183 0.167926
0.215547 0.000198 0.231419
0.215561 0.000212 0.294620
0.215576 0.000227 0.357595
0.215590 0.000241 0.420385
0.215604 0.000255 0.483020
0.215619 0.000270 0.545520
0.215633 0.000284 0.607901
0.215647 0.000298 0.670176
0.215661 0.000312 0.732355
0.215676 0.000327 0.794446
0.215690 0.000341 0.856457
0.215704 0.000355 0.918393
0.215718 0.000369 0.980260
0.215638 0.063873 0.000289
