skills/clipper-orchestrator/assets/grade/luts/ad_warm_v07.cube
TITLE "ad_warm_v07"
LUT_3D_SIZE 5
DOMAIN_MIN 0.0 0.0 0.0
DOMAIN_MAX 1.0 1.0 1.0
0.022239 0.000000 0.000000
0.021368 0.000000 0.244727
0.020425 0.000000 0.510269
0.019491 0.000000 0.772956
0.018564 0.000000 1.000000
0.012763 0.260420 0.000000
0.011892 0.259550 0.235251
0.010948 0.258606 0.500793
0.010015 0.257672 0.763480
0.009088 0.256745 1.000000
0.003426 0.517230 0.000000
0.002556 0.516359 0.225914
0.001612 0.515415 0.491456
0.000678 0.514482 0.754144
0.000000 0.513555 1.000000
0.000000 0.771417 0.000000
0.000000 0.770546 0.216673
0.000000 0.769602 0.482215
0.000000 0.768669 0.744903
0.000000 0.767742 1.000000
0.000000 1.000000 0.000000
0.000000 1.000000 0.207838
0.000000 1.000000 0.473380
0.000000 1.000000 0.736067
0.000000 1.000000 0.996958
0.291317 0.000000 0.000000
0.290446 0.000000 0.241891
0.289502 0.000000 0.507433
0.288569 0.000000 0.770121
0.287642 0.000000 1.000000
0.281841 0.257585 0.000000
0.280970 0.256714 0.232415
0.280026 0.255771 0.497957
0.279093 0.254837 0.760645
0.278166 0.253910 1.000000
0.272504 0.514394 0.000000
0.271634 0.513524 0.223079
0.270690 0.512580 0.488621
0.269756 0.511646 0.751308
0.268829 0.510719 1.000000
0.263263 0.768581 0.000000
0.262393 0.767711 0.213838
0.261449 0.766767 0.479380
0.260515 0.765833 0.742067
0.259588 0.764906 1.000000
0.254427 1.000000 0.000000
0.253557 1.000000 0.205002
0.252613 1.000000 0.470544
0.251680 1.000000 0.733232
0.250752 1.000000 0.994122
0.554373 0.000000 0.000000
0.553502 0.000000 0.239119
0.552558 0.000000 0.504661
0.551625 0.000000 0.767349
0.550698 0.000000 1.000000
0.544897 0.254813 0.000000
0.544026 0.253942 0.229643
0.543082 0.252999 0.495185
0.542149 0.252065 0.757873
0.541221 0.251138 1.000000
0.535560 0.511622 0.000000
0.534690 0.510752 0.220307
0.533746 0.509808 0.485849
0.532812 0.508874 0.748536
0.531885 0.507947 1.000000
0.526319 0.765809 0.000000
0.525449 0.764939 0.211066
0.524505 0.763995 0.476608
0.523571 0.763061 0.739295
0.522644 0.762134 1.000000
0.517483 1.000000 0.000000
0.516613 1.000000 0.202230
0.515669 1.000000 0.467772
0.514736 1.000000 0.730460
0.513808 1.000000 0.991350
0.814870 0.000000 0.000000
0.813999 0.000000 0.236374
0.813056 0.000000 0.501916
0.812122 0.000000 0.764604
0.811195 0.000000 1.000000
0.805394 0.252068 0.000000
0.804523 0.251197 0.226898
0.803579 0.250254 0.492440
0.802646 0.249320 0.755128
0.801719 0.248393 1.000000
0.796057 0.508877 0.000000
0.795187 0.508007 0.217562
0.794243 0.507063 0.483104
0.793309 0.506129 0.745791
0.792382 0.505202 1.000000
0.786816 0.763064 0.000000
0.785946 0.762194 0.208321
0.785002 0.761250 0.473863
0.784068 0.760316 0.736550
0.783141 0.759389 0.997441
0.777981 1.000000 0.000000
0.777110 1.000000 0.199485
0.776166 1.000000 0.465027
0.775233 1.000000 0.727714
0.774306 1.000000 0.988605
1.000000 0.000000 0.000000
1.000000 0.000000 0.233995
1.000000 0.000000 0.499537
1.000000 0.000000 0.762225
1.000000 0.000000 1.000000
1.000000 0.249689 0.000000
1.000000 0.248818 0.224519
1.000000 0.247875 0.490061
1.000000 0.246941 0.752749
1.000000 0.246014 1.000000
1.000000 0.506498 0.000000
1.000000 0.505628 0.215183
1.000000 0.504684 0.480725
1.000000 0.503751 0.743412
1.000000 0.502823 1.000000
1.000000 0.760685 0.000000
1.000000 0.759815 0.205942
1.000000 0.758871 0.471484
1.000000 0.757938 0.734171
1.000000 0.757010 0.995062
1.000000 1.000000 0.000000
1.000000 1.000000 0.197106
1.000000 1.000000 0.462648
1.000000 1.000000 0.725336
1.000000 1.000000 0.986226
