skills/clipper-orchestrator/assets/grade/luts/ad_warm_v07.cube
TITLE "ad_warm_v07"
LUT_3D_SIZE 17
DOMAIN_MIN 0.0 0.0 0.0
DOMAIN_MAX 1.0 1.0 1.0
0.022239 0.000000 0.000000
0.022091 0.000000 0.041385
0.021847 0.000000 0.109941
0.021607 0.000000 0.177594
0.021368 0.000000 0.244727
0.021131 0.000000 0.311491
0.020895 0.000000 0.377971
0.020659 0.000000 0.444218
0.020425 0.000000 0.510269
0.020190 0.000000 0.576150
0.019957 0.000000 0.641881
0.019724 0.000000 0.707479
0.019491 0.000000 0.772956
0.019259 0.000000 0.838323
0.019027 0.000000 0.903589
0.018795 0.000000 0.968762
0.018564 0.000000 1.000000
0.019894 0.064256 0.000000
0.019746 0.064108 0.039041
0.019503 0.063864 0.107596
0.019262 0.063624 0.175249
0.019024 0.063385 0.242382
0.018786 0.063148 0.309147
0.018550 0.062912 0.375626
0.018315 0.062676 0.441873
0.018080 0.062442 0.507924
0.017846 0.062207 0.573805
0.017612 0.061974 0.639537
0.017379 0.061741 0.705135
0.017146 0.061508 0.770612
0.016914 0.061276 0.835979
0.016682 0.061044 0.901245
0.016451 0.060812 0.966417
0.016219 0.060581 1.000000
0.017495 0.130249 0.000000
0.017347 0.130101 0.036642
0.017104 0.129857 0.105197
0.016863 0.129617 0.172850
0.016625 0.129378 0.239983
0.016387 0.129141 0.306748
0.016151 0.128905 0.373227
0.015916 0.128669 0.439474
0.015681 0.128434 0.505525
0.015447 0.128200 0.571406
0.015213 0.127967 0.637138
0.014980 0.127734 0.702735
0.014747 0.127501 0.768213
0.014515 0.127269 0.833580
0.014283 0.127037 0.898846
0.014051 0.126805 0.964018
0.013820 0.126574 1.000000
0.015121 0.195554 0.000000
0.014973 0.195406 0.034267
0.014729 0.195162 0.102823
0.014489 0.194922 0.170476
0.014250 0.194683 0.237609
0.014013 0.194446 0.304373
0.013777 0.194210 0.370853
0.013541 0.193974 0.437100
0.013307 0.193739 0.503151
0.013073 0.193505 0.569032
0.012839 0.193272 0.634763
0.012606 0.193038 0.700361
0.012373 0.192806 0.765838
0.012141 0.192573 0.831205
0.011909 0.192342 0.896471
0.011677 0.192110 0.961644
0.011446 0.191879 1.000000
0.012763 0.260420 0.000000
0.012615 0.260272 0.031909
0.012371 0.260029 0.100464
0.012131 0.259788 0.168118
0.011892 0.259550 0.235251
0.011655 0.259312 0.302015
0.011419 0.259076 0.368495
0.011183 0.258841 0.434742
0.010948 0.258606 0.500793
0.010714 0.258372 0.566674
0.010481 0.258138 0.632405
0.010248 0.257905 0.698003
0.010015 0.257672 0.763480
0.009783 0.257440 0.828847
0.009551 0.257208 0.894113
0.009319 0.256977 0.959285
0.009088 0.256745 1.000000
0.010416 0.324965 0.000000
0.010268 0.324817 0.029563
0.010025 0.324573 0.098118
0.009784 0.324333 0.165771
0.009546 0.324094 0.232904
0.009308 0.323857 0.299669
0.009072 0.323620 0.366148
0.008837 0.323385 0.432395
0.008602 0.323150 0.498446
0.008368 0.322916 0.564327
0.008134 0.322683 0.630059
0.007901 0.322449 0.695656
0.007668 0.322217 0.761134
0.007436 0.321984 0.826501
0.007204 0.321752 0.891767
0.006972 0.321521 0.956939
0.006741 0.321289 1.000000
0.008079 0.389254 0.000000
0.007931 0.389106 0.027225
0.007687 0.388862 0.095781
0.007447 0.388622 0.163434
0.007208 0.388383 0.230567
0.006971 0.388146 0.297331
0.006735 0.387909 0.363811
0.006499 0.387674 0.430058
0.006265 0.387439 0.496109
0.006031 0.387205 0.561990
0.005797 0.386972 0.627721
0.005564 0.386738 0.693319
0.005331 0.386506 0.758796
0.005099 0.386273 0.824163
0.004867 0.386041 0.889429
0.004635 0.385810 0.954602
0.004404 0.385579 1.000000
0.005749 0.453332 0.000000
0.005601 0.453184 0.024896
0.005358 0.452940 0.093451
0.005117 0.452700 0.161104
0.004879 0.452461 0.228237
0.004642 0.452224 0.295002
0.004405 0.451988 0.361481
0.004170 0.451752 0.427729
0.003935 0.451517 0.493779
0.003701 0.451283 0.559660
0.003467 0.451050 0.625392
0.003234 0.450816 0.690990
0.003002 0.450584 0.756467
0.002769 0.450351 0.821834
0.002537 0.450120 0.887100
0.002306 0.449888 0.952272
0.002074 0.449657 1.000000
0.003426 0.517230 0.000000
0.003278 0.517082 0.022573
0.003035 0.516838 0.091128
0.002794 0.516598 0.158781
0.002556 0.516359 0.225914
0.002319 0.516122 0.292679
0.002082 0.515886 0.359158
0.001847 0.515650 0.425406
0.001612 0.515415 0.491456
0.001378 0.515181 0.557337
0.001144 0.514948 0.623069
0.000911 0.514715 0.688667
0.000678 0.514482 0.754144
0.000446 0.514250 0.819511
0.000214 0.514018 0.884777
0.000000 0.513786 0.949949
0.000000 0.513555 1.000000
0.001109 0.580971 0.000000
0.000961 0.580823 0.020255
0.000717 0.580580 0.088811
0.000477 0.580339 0.156464
0.000238 0.580101 0.223597
0.000001 0.579863 0.290362
0.000000 0.579627 0.356841
0.000000 0.579392 0.423088
0.000000 0.579157 0.489139
0.000000 0.578923 0.555020
0.000000 0.578689 0.620751
0.000000 0.578456 0.686349
0.000000 0.578223 0.751826
0.000000 0.577991 0.817193
0.000000 0.577759 0.882459
0.000000 0.577527 0.947632
0.000000 0.577296 1.000000
0.000000 0.644574 0.000000
0.000000 0.644426 0.017943
0.000000 0.644182 0.086498
0.000000 0.643942 0.154152
0.000000 0.643703 0.221285
0.000000 0.643466 0.288049
0.000000 0.643230 0.354529
0.000000 0.642994 0.420776
0.000000 0.642759 0.486827
0.000000 0.642525 0.552708
0.000000 0.642292 0.618439
0.000000 0.642059 0.684037
0.000000 0.641826 0.749514
0.000000 0.641594 0.814881
0.000000 0.641362 0.880147
0.000000 0.641130 0.945319
0.000000 0.640899 1.000000
0.000000 0.708052 0.000000
0.000000 0.707904 0.015635
0.000000 0.707660 0.084191
0.000000 0.707420 0.151844
0.000000 0.707181 0.218977
0.000000 0.706944 0.285742
0.000000 0.706708 0.352221
0.000000 0.706472 0.418468
0.000000 0.706237 0.484519
0.000000 0.706003 0.550400
0.000000 0.705770 0.616131
0.000000 0.705537 0.681729
0.000000 0.705304 0.747206
0.000000 0.705072 0.812573
0.000000 0.704840 0.877839
0.000000 0.704608 0.943012
0.000000 0.704377 1.000000
0.000000 0.771417 0.000000
0.000000 0.771269 0.013332
0.000000 0.771025 0.081887
0.000000 0.770785 0.149540
0.000000 0.770546 0.216673
0.000000 0.770309 0.283438
0.000000 0.770073 0.349917
0.000000 0.769837 0.416164
0.000000 0.769602 0.482215
0.000000 0.769368 0.548096
0.000000 0.769135 0.613828
0.000000 0.768902 0.679426
0.000000 0.768669 0.744903
0.000000 0.768437 0.810270
0.000000 0.768205 0.875536
0.000000 0.767973 0.940708
0.000000 0.767742 1.000000
0.000000 0.834678 0.000000
0.000000 0.834531 0.011032
0.000000 0.834287 0.079587
0.000000 0.834047 0.147241
0.000000 0.833808 0.214373
0.000000 0.833571 0.281138
0.000000 0.833334 0.347618
0.000000 0.833099 0.413865
0.000000 0.832864 0.479915
0.000000 0.832630 0.545796
0.000000 0.832396 0.611528
0.000000 0.832163 0.677126
0.000000 0.831931 0.742603
0.000000 0.831698 0.807970
0.000000 0.831466 0.873236
0.000000 0.831235 0.938408
0.000000 0.831003 1.000000
0.000000 0.897845 0.000000
0.000000 0.897697 0.008735
0.000000 0.897454 0.077291
0.000000 0.897213 0.144944
0.000000 0.896975 0.212077
0.000000 0.896737 0.278842
0.000000 0.896501 0.345321
0.000000 0.896266 0.411568
0.000000 0.896031 0.477619
0.000000 0.895797 0.543500
0.000000 0.895563 0.609231
0.000000 0.895330 0.674829
0.000000 0.895097 0.740306
0.000000 0.894865 0.805673
0.000000 0.894633 0.870939
0.000000 0.894401 0.936112
0.000000 0.894170 1.000000
0.000000 0.960924 0.000000
0.000000 0.960776 0.006442
0.000000 0.960532 0.074998
0.000000 0.960292 0.142651
0.000000 0.960053 0.209784
0.000000 0.959816 0.276548
0.000000 0.959579 0.343028
0.000000 0.959344 0.409275
0.000000 0.959109 0.475326
0.000000 0.958875 0.541207
0.000000 0.958642 0.606938
0.000000 0.958408 0.672536
0.000000 0.958176 0.738013
0.000000 0.957943 0.803380
0.000000 0.957711 0.868646
0.000000 0.957480 0.933819
0.000000 0.957248 0.998904
0.000000 1.000000 0.000000
0.000000 1.000000 0.004496
0.000000 1.000000 0.073051
0.000000 1.000000 0.140705
0.000000 1.000000 0.207838
0.000000 1.000000 0.274602
0.000000 1.000000 0.341082
0.000000 1.000000 0.407329
0.000000 1.000000 0.473380
0.000000 1.000000 0.539261
0.000000 1.000000 0.604992
0.000000 1.000000 0.670590
0.000000 1.000000 0.736067
0.000000 1.000000 0.801434
0.000000 1.000000 0.866700
0.000000 1.000000 0.931872
0.000000 1.000000 0.996958
0.090755 0.000000 0.000000
0.090608 0.000000 0.040663
0.090364 0.000000 0.109219
0.090124 0.000000 0.176872
0.089885 0.000000 0.244005
0.089648 0.000000 0.310769
0.089411 0.000000 0.377249
0.089176 0.000000 0.443496
0.088941 0.000000 0.509547
0.088707 0.000000 0.575428
0.088473 0.000000 0.641159
0.088240 0.000000 0.706757
0.088008 0.000000 0.772234
0.087775 0.000000 0.837601
0.087543 0.000000 0.902867
0.087312 0.000000 0.968040
0.087080 0.000000 1.000000
0.088411 0.063534 0.000000
0.088263 0.063386 0.038319
0.088019 0.063142 0.106874
0.087779 0.062902 0.174527
0.087540 0.062663 0.241660
0.087303 0.062426 0.308425
0.087067 0.062190 0.374904
0.086831 0.061954 0.441151
0.086597 0.061720 0.507202
0.086363 0.061485 0.573083
0.086129 0.061252 0.638815
0.085896 0.061019 0.704413
0.085663 0.060786 0.769890
0.085431 0.060554 0.835257
0.085199 0.060322 0.900523
0.084967 0.060090 0.965695
0.084736 0.059859 1.000000
0.086012 0.129527 0.000000
0.085864 0.129379 0.035920
0.085620 0.129135 0.104475
0.085380 0.128895 0.172128
0.085141 0.128656 0.239261
0.084904 0.128419 0.306026
0.084668 0.128183 0.372505
0.084432 0.127947 0.438752
0.084197 0.127712 0.504803
0.083963 0.127478 0.570684
0.083730 0.127245 0.636416
0.083497 0.127012 0.702013
0.083264 0.126779 0.767491
0.083032 0.126547 0.832858
0.082800 0.126315 0.898124
0.082568 0.126083 0.963296
0.082337 0.125852 1.000000
0.083638 0.194832 0.000000
0.083490 0.194684 0.033545
0.083246 0.194440 0.102101
0.083006 0.194200 0.169754
0.082767 0.193961 0.236887
0.082530 0.193724 0.303651
0.082293 0.193488 0.370131
0.082058 0.193252 0.436378
0.081823 0.193017 0.502429
0.081589 0.192783 0.568310
0.081356 0.192550 0.634041
0.081122 0.192316 0.699639
0.080890 0.192084 0.765116
0.080657 0.191851 0.830483
0.080425 0.191620 0.895749
0.080194 0.191388 0.960922
0.079963 0.191157 1.000000
0.081279 0.259698 0.000000
0.081131 0.259550 0.031187
0.080888 0.259307 0.099742
0.080647 0.259066 0.167396
0.080409 0.258828 0.234529
0.080171 0.258590 0.301293
0.079935 0.258354 0.367773
0.079700 0.258119 0.434020
0.079465 0.257884 0.500071
0.079231 0.257650 0.565952
0.078997 0.257416 0.631683
0.078764 0.257183 0.697281
0.078531 0.256950 0.762758
0.078299 0.256718 0.828125
0.078067 0.256486 0.893391
0.077836 0.256255 0.958563
0.077604 0.256023 1.000000
0.078933 0.324243 0.000000
0.078785 0.324095 0.028841
0.078541 0.323851 0.097396
0.078301 0.323611 0.165049
0.078062 0.323372 0.232182
0.077825 0.323135 0.298947
0.077589 0.322898 0.365426
0.077353 0.322663 0.431673
0.077119 0.322428 0.497724
0.076884 0.322194 0.563605
0.076651 0.321961 0.629337
0.076418 0.321727 0.694934
0.076185 0.321495 0.760412
0.075953 0.321262 0.825779
0.075721 0.321030 0.891045
0.075489 0.320799 0.956217
0.075258 0.320567 1.000000
0.076596 0.388532 0.000000
0.076448 0.388384 0.026503
0.076204 0.388140 0.095059
0.075964 0.387900 0.162712
0.075725 0.387661 0.229845
0.075488 0.387424 0.296609
0.075251 0.387187 0.363089
0.075016 0.386952 0.429336
0.074781 0.386717 0.495387
0.074547 0.386483 0.561268
0.074314 0.386250 0.626999
0.074080 0.386016 0.692597
0.073848 0.385784 0.758074
0.073615 0.385551 0.823441
0.073383 0.385319 0.888707
0.073152 0.385088 0.953880
0.072921 0.384857 1.000000
0.074266 0.452610 0.000000
0.074118 0.452462 0.024174
0.073874 0.452218 0.092729
0.073634 0.451978 0.160382
0.073395 0.451739 0.227515
0.073158 0.451502 0.294280
0.072922 0.451266 0.360759
0.072686 0.451030 0.427007
0.072452 0.450795 0.493057
0.072218 0.450561 0.558938
0.071984 0.450328 0.624670
0.071751 0.450094 0.690268
0.071518 0.449862 0.755745
0.071286 0.449629 0.821112
0.071054 0.449397 0.886378
0.070822 0.449166 0.951550
0.070591 0.448935 1.000000
0.071943 0.516508 0.000000
0.071795 0.516360 0.021851
0.071551 0.516116 0.090406
0.071311 0.515876 0.158059
0.071072 0.515637 0.225192
0.070835 0.515400 0.291957
0.070599 0.515164 0.358436
0.070363 0.514928 0.424684
0.070129 0.514693 0.490734
0.069895 0.514459 0.556615
0.069661 0.514226 0.622347
0.069428 0.513993 0.687945
0.069195 0.513760 0.753422
0.068963 0.513528 0.818789
0.068731 0.513296 0.884055
0.068499 0.513064 0.949227
0.068268 0.512833 1.000000
0.069626 0.580249 0.000000
0.069478 0.580101 0.019533
0.069234 0.579858 0.088089
0.068994 0.579617 0.155742
0.068755 0.579379 0.222875
0.068518 0.579141 0.289640
0.068282 0.578905 0.356119
0.068046 0.578670 0.422366
0.067811 0.578435 0.488417
0.067577 0.578201 0.554298
0.067344 0.577967 0.620029
0.067110 0.577734 0.685627
0.066878 0.577501 0.751104
0.066645 0.577269 0.816471
0.066414 0.577037 0.881737
0.066182 0.576805 0.946910
0.065951 0.576574 1.000000
0.067313 0.643852 0.000000
0.067165 0.643704 0.017221
0.066922 0.643460 0.085776
0.066681 0.643220 0.153430
0.066443 0.642981 0.220563
0.066206 0.642744 0.287327
0.065969 0.642508 0.353807
0.065734 0.642272 0.420054
0.065499 0.642037 0.486105
0.065265 0.641803 0.551986
0.065031 0.641570 0.617717
0.064798 0.641337 0.683315
0.064565 0.641104 0.748792
0.064333 0.640871 0.814159
0.064101 0.640640 0.879425
0.063870 0.640408 0.944597
0.063638 0.640177 1.000000
0.065006 0.707330 0.000000
0.064858 0.707182 0.014913
0.064614 0.706938 0.083469
0.064374 0.706698 0.151122
0.064135 0.706459 0.218255
0.063898 0.706222 0.285020
0.063661 0.705986 0.351499
0.063426 0.705750 0.417746
0.063191 0.705515 0.483797
0.062957 0.705281 0.549678
0.062724 0.705048 0.615409
0.062490 0.704815 0.681007
0.062258 0.704582 0.746484
0.062025 0.704349 0.811851
0.061793 0.704118 0.877117
0.061562 0.703886 0.942290
0.061331 0.703655 1.000000
0.062702 0.770695 0.000000
0.062554 0.770547 0.012610
0.062310 0.770303 0.081165
0.062070 0.770063 0.148818
0.061831 0.769824 0.215951
0.061594 0.769587 0.282716
0.061358 0.769351 0.349195
0.061122 0.769115 0.415442
0.060888 0.768880 0.481493
0.060654 0.768646 0.547374
0.060420 0.768413 0.613106
0.060187 0.768180 0.678704
0.059954 0.767947 0.744181
0.059722 0.767715 0.809548
0.059490 0.767483 0.874814
0.059258 0.767251 0.939986
0.059027 0.767020 1.000000
0.060402 0.833956 0.000000
0.060254 0.833809 0.010310
0.060011 0.833565 0.078865
0.059770 0.833324 0.146519
0.059531 0.833086 0.213651
0.059294 0.832849 0.280416
0.059058 0.832612 0.346896
0.058823 0.832377 0.413143
0.058588 0.832142 0.479193
0.058354 0.831908 0.545074
0.058120 0.831674 0.610806
0.057887 0.831441 0.676404
0.057654 0.831209 0.741881
0.057422 0.830976 0.807248
0.057190 0.830744 0.872514
0.056958 0.830513 0.937686
0.056727 0.830281 1.000000
0.058106 0.897123 0.000000
0.057958 0.896975 0.008013
0.057714 0.896732 0.076569
0.057474 0.896491 0.144222
0.057235 0.896253 0.211355
0.056998 0.896015 0.278120
0.056762 0.895779 0.344599
0.056526 0.895544 0.410846
0.056291 0.895309 0.476897
0.056057 0.895075 0.542778
0.055824 0.894841 0.608509
0.055590 0.894608 0.674107
0.055358 0.894375 0.739584
0.055125 0.894143 0.804951
0.054894 0.893911 0.870217
0.054662 0.893679 0.935390
0.054431 0.893448 1.000000
0.055812 0.960202 0.000000
0.055664 0.960054 0.005720
0.055421 0.959810 0.074276
0.055180 0.959570 0.141929
0.054942 0.959331 0.209062
0.054705 0.959094 0.275826
0.054468 0.958857 0.342306
0.054233 0.958622 0.408553
0.053998 0.958387 0.474604
0.053764 0.958153 0.540485
0.053530 0.957920 0.606216
0.053297 0.957686 0.671814
0.053065 0.957454 0.737291
0.052832 0.957221 0.802658
0.052600 0.956989 0.867924
0.052369 0.956758 0.933097
0.052137 0.956526 0.998182
0.053866 1.000000 0.000000
0.053718 1.000000 0.003774
0.053475 1.000000 0.072329
0.053234 1.000000 0.139983
0.052996 1.000000 0.207116
0.052758 1.000000 0.273880
0.052522 1.000000 0.340360
0.052287 1.000000 0.406607
0.052052 1.000000 0.472658
0.051818 1.000000 0.538539
0.051584 1.000000 0.604270
0.051351 1.000000 0.669868
0.051118 1.000000 0.735345
0.050886 1.000000 0.800712
0.050654 1.000000 0.865978
0.050422 1.000000 0.931150
0.050191 1.000000 0.996236
0.158131 0.000000 0.000000
0.157983 0.000000 0.039953
0.157740 0.000000 0.108509
0.157499 0.000000 0.176162
0.157261 0.000000 0.243295
0.157023 0.000000 0.310059
0.156787 0.000000 0.376539
0.156552 0.000000 0.442786
0.156317 0.000000 0.508837
0.156083 0.000000 0.574718
0.155849 0.000000 0.640449
0.155616 0.000000 0.706047
0.155383 0.000000 0.771524
0.155151 0.000000 0.836891
0.154919 0.000000 0.902157
0.154687 0.000000 0.967330
0.154456 0.000000 1.000000
0.155787 0.062824 0.000000
0.155639 0.062676 0.037609
0.155395 0.062432 0.106164
0.155155 0.062192 0.173817
0.154916 0.061953 0.240950
0.154679 0.061716 0.307715
0.154443 0.061480 0.374194
0.154207 0.061244 0.440441
0.153972 0.061010 0.506492
0.153738 0.060775 0.572373
0.153505 0.060542 0.638105
0.153271 0.060309 0.703703
0.153039 0.060076 0.769180
0.152806 0.059844 0.834547
0.152575 0.059612 0.899813
0.152343 0.059380 0.964985
0.152112 0.059149 1.000000
0.153387 0.128817 0.000000
0.153240 0.128669 0.035210
0.152996 0.128425 0.103765
0.152755 0.128185 0.171418
0.152517 0.127946 0.238551
0.152280 0.127709 0.305316
0.152043 0.127473 0.371795
0.151808 0.127237 0.438042
0.151573 0.127002 0.504093
0.151339 0.126768 0.569974
0.151105 0.126535 0.635706
0.150872 0.126302 0.701303
0.150640 0.126069 0.766781
0.150407 0.125837 0.832148
0.150175 0.125605 0.897414
0.149944 0.125373 0.962586
0.149712 0.125142 1.000000
0.151013 0.194122 0.000000
0.150865 0.193974 0.032835
0.150622 0.193730 0.101391
0.150381 0.193490 0.169044
0.150143 0.193251 0.236177
0.149905 0.193014 0.302941
0.149669 0.192778 0.369421
0.149434 0.192542 0.435668
0.149199 0.192307 0.501719
0.148965 0.192073 0.567600
0.148731 0.191840 0.633331
0.148498 0.191606 0.698929
0.148265 0.191374 0.764406
0.148033 0.191141 0.829773
0.147801 0.190910 0.895039
0.147570 0.190678 0.960212
0.147338 0.190447 1.000000
0.148655 0.258988 0.000000
0.148507 0.258840 0.030477
0.148263 0.258597 0.099032
0.148023 0.258356 0.166686
0.147784 0.258118 0.233819
0.147547 0.257880 0.300583
0.147311 0.257644 0.367063
0.147075 0.257409 0.433310
0.146841 0.257174 0.499361
0.146607 0.256940 0.565242
0.146373 0.256706 0.630973
0.146140 0.256473 0.696571
0.145907 0.256240 0.762048
0.145675 0.256008 0.827415
0.145443 0.255776 0.892681
0.145211 0.255545 0.957853
0.144980 0.255313 1.000000
0.146309 0.323533 0.000000
0.146161 0.323385 0.028131
0.145917 0.323141 0.096686
0.145677 0.322901 0.164339
0.145438 0.322662 0.231472
0.145201 0.322425 0.298237
0.144964 0.322188 0.364716
0.144729 0.321953 0.430963
0.144494 0.321718 0.497014
0.144260 0.321484 0.562895
0.144026 0.321251 0.628627
0.143793 0.321017 0.694224
0.143561 0.320785 0.759702
0.143328 0.320552 0.825069
0.143096 0.320320 0.890335
0.142865 0.320089 0.955507
0.142633 0.319858 1.000000
0.143971 0.387822 0.000000
0.143823 0.387674 0.025793
0.143580 0.387430 0.094349
0.143339 0.387190 0.162002
0.143101 0.386951 0.229135
0.142863 0.386714 0.295899
0.142627 0.386478 0.362379
0.142392 0.386242 0.428626
0.142157 0.386007 0.494677
0.141923 0.385773 0.560558
0.141689 0.385540 0.626289
0.141456 0.385306 0.691887
0.141223 0.385074 0.757364
0.140991 0.384841 0.822731
0.140759 0.384609 0.887997
0.140528 0.384378 0.953170
0.140296 0.384147 1.000000
0.141642 0.451900 0.000000
0.141494 0.451752 0.023464
0.141250 0.451508 0.092019
0.141010 0.451268 0.159673
0.140771 0.451029 0.226805
0.140534 0.450792 0.293570
0.140298 0.450556 0.360049
0.140062 0.450320 0.426297
0.139827 0.450085 0.492347
0.139593 0.449851 0.558228
0.139360 0.449618 0.623960
0.139127 0.449384 0.689558
0.138894 0.449152 0.755035
0.138662 0.448919 0.820402
0.138430 0.448688 0.885668
0.138198 0.448456 0.950840
0.137967 0.448225 1.000000
0.139319 0.515798 0.000000
0.139171 0.515650 0.021141
0.138927 0.515406 0.089696
0.138687 0.515166 0.157349
0.138448 0.514927 0.224482
0.138211 0.514690 0.291247
0.137975 0.514454 0.357726
0.137739 0.514218 0.423974
0.137504 0.513983 0.490024
0.137270 0.513749 0.555905
0.137037 0.513516 0.621637
0.136804 0.513283 0.687235
0.136571 0.513050 0.752712
0.136339 0.512818 0.818079
0.136107 0.512586 0.883345
0.135875 0.512354 0.948517
0.135644 0.512123 1.000000
0.137001 0.579539 0.000000
0.136853 0.579391 0.018823
0.136610 0.579148 0.087379
0.136369 0.578907 0.155032
0.136131 0.578669 0.222165
0.135894 0.578431 0.288930
0.135657 0.578195 0.355409
0.135422 0.577960 0.421656
0.135187 0.577725 0.487707
0.134953 0.577491 0.553588
0.134719 0.577257 0.619319
0.134486 0.577024 0.684917
0.134253 0.576791 0.750394
0.134021 0.576559 0.815761
0.133789 0.576327 0.881027
0.133558 0.576095 0.946200
0.133326 0.575864 1.000000
0.134689 0.643142 0.000000
0.134541 0.642994 0.016511
0.134298 0.642750 0.085067
0.134057 0.642510 0.152720
0.133818 0.642271 0.219853
0.133581 0.642034 0.286617
0.133345 0.641798 0.353097
0.133110 0.641562 0.419344
0.132875 0.641327 0.485395
0.132641 0.641093 0.551276
0.132407 0.640860 0.617007
0.132174 0.640627 0.682605
0.131941 0.640394 0.748082
0.131709 0.640162 0.813449
0.131477 0.639930 0.878715
0.131245 0.639698 0.943887
0.131014 0.639467 1.000000
0.132381 0.706620 0.000000
0.132233 0.706472 0.014203
0.131990 0.706228 0.082759
0.131749 0.705988 0.150412
0.131511 0.705749 0.217545
0.131273 0.705512 0.284310
0.131037 0.705276 0.350789
0.130802 0.705040 0.417036
0.130567 0.704805 0.483087
0.130333 0.704571 0.548968
0.130099 0.704338 0.614699
0.129866 0.704105 0.680297
0.129633 0.703872 0.745774
0.129401 0.703640 0.811141
0.129169 0.703408 0.876407
0.128938 0.703176 0.941580
0.128706 0.702945 1.000000
0.130078 0.769985 0.000000
0.129930 0.769837 0.011900
0.129686 0.769593 0.080455
0.129446 0.769353 0.148108
0.129207 0.769114 0.215241
0.128970 0.768877 0.282006
0.128734 0.768641 0.348485
0.128498 0.768405 0.414732
0.128263 0.768170 0.480783
0.128029 0.767936 0.546664
0.127796 0.767703 0.612396
0.127562 0.767470 0.677994
0.127330 0.767237 0.743471
0.127097 0.767005 0.808838
0.126866 0.766773 0.874104
0.126634 0.766541 0.939276
0.126403 0.766310 1.000000
0.127778 0.833247 0.000000
0.127630 0.833099 0.009600
0.127386 0.832855 0.078155
0.127146 0.832615 0.145809
0.126907 0.832376 0.212941
0.126670 0.832139 0.279706
0.126434 0.831902 0.346186
0.126198 0.831667 0.412433
0.125963 0.831432 0.478483
0.125729 0.831198 0.544364
0.125496 0.830964 0.610096
0.125263 0.830731 0.675694
0.125030 0.830499 0.741171
0.124798 0.830266 0.806538
0.124566 0.830034 0.871804
0.124334 0.829803 0.936976
0.124103 0.829571 1.000000
0.125481 0.896413 0.000000
0.125333 0.896265 0.007303
0.125090 0.896022 0.075859
0.124849 0.895781 0.143512
0.124611 0.895543 0.210645
0.124373 0.895305 0.277410
0.124137 0.895069 0.343889
0.123902 0.894834 0.410136
0.123667 0.894599 0.476187
0.123433 0.894365 0.542068
0.123199 0.894131 0.607799
0.122966 0.893898 0.673397
0.122733 0.893665 0.738874
0.122501 0.893433 0.804241
0.122269 0.893201 0.869507
0.122038 0.892969 0.934680
0.121806 0.892738 0.999765
0.123188 0.959492 0.000000
0.123040 0.959344 0.005010
0.122797 0.959100 0.073566
0.122556 0.958860 0.141219
0.122318 0.958621 0.208352
0.122080 0.958384 0.275116
0.121844 0.958147 0.341596
0.121609 0.957912 0.407843
0.121374 0.957677 0.473894
0.121140 0.957443 0.539775
0.120906 0.957210 0.605506
0.120673 0.956976 0.671104
0.120440 0.956744 0.736581
0.120208 0.956511 0.801948
0.119976 0.956279 0.867214
0.119744 0.956048 0.932387
0.119513 0.955816 0.997472
0.121242 1.000000 0.000000
0.121094 1.000000 0.003064
0.120850 1.000000 0.071619
0.120610 1.000000 0.139273
0.120371 1.000000 0.206406
0.120134 1.000000 0.273170
0.119898 1.000000 0.339650
0.119662 1.000000 0.405897
0.119428 1.000000 0.471948
0.119194 1.000000 0.537829
0.118960 1.000000 0.603560
0.118727 1.000000 0.669158
0.118494 1.000000 0.734635
0.118262 1.000000 0.800002
0.118030 1.000000 0.865268
0.117798 1.000000 0.930440
0.117567 1.000000 0.995526
0.224923 0.000000 0.000000
0.224775 0.000000 0.039250
0.224531 0.000000 0.107805
0.224291 0.000000 0.175458
0.224052 0.000000 0.242591
0.223815 0.000000 0.309356
0.223579 0.000000 0.375835
0.223343 0.000000 0.442082
0.223109 0.000000 0.508133
0.222874 0.000000 0.574014
0.222641 0.000000 0.639745
0.222408 0.000000 0.705343
0.222175 0.000000 0.770820
0.221943 0.000000 0.836188
0.221711 0.000000 0.901453
0.221479 0.000000 0.966626
0.221248 0.000000 1.000000
0.222578 0.062120 0.000000
