skills/clipper-orchestrator/assets/grade/luts/ad_warm_v07.cube
TITLE "ad_warm_v07"
LUT_3D_SIZE 9
DOMAIN_MIN 0.0 0.0 0.0
DOMAIN_MAX 1.0 1.0 1.0
0.022239 0.000000 0.000000
0.021847 0.000000 0.109941
0.021368 0.000000 0.244727
0.020895 0.000000 0.377971
0.020425 0.000000 0.510269
0.019957 0.000000 0.641881
0.019491 0.000000 0.772956
0.019027 0.000000 0.903589
0.018564 0.000000 1.000000
0.017495 0.130249 0.000000
0.017104 0.129857 0.105197
0.016625 0.129378 0.239983
0.016151 0.128905 0.373227
0.015681 0.128434 0.505525
0.015213 0.127967 0.637138
0.014747 0.127501 0.768213
0.014283 0.127037 0.898846
0.013820 0.126574 1.000000
0.012763 0.260420 0.000000
0.012371 0.260029 0.100464
0.011892 0.259550 0.235251
0.011419 0.259076 0.368495
0.010948 0.258606 0.500793
0.010481 0.258138 0.632405
0.010015 0.257672 0.763480
0.009551 0.257208 0.894113
0.009088 0.256745 1.000000
0.008079 0.389254 0.000000
0.007687 0.388862 0.095781
0.007208 0.388383 0.230567
0.006735 0.387909 0.363811
0.006265 0.387439 0.496109
0.005797 0.386972 0.627721
0.005331 0.386506 0.758796
0.004867 0.386041 0.889429
0.004404 0.385579 1.000000
0.003426 0.517230 0.000000
0.003035 0.516838 0.091128
0.002556 0.516359 0.225914
0.002082 0.515886 0.359158
0.001612 0.515415 0.491456
0.001144 0.514948 0.623069
0.000678 0.514482 0.754144
0.000214 0.514018 0.884777
0.000000 0.513555 1.000000
0.000000 0.644574 0.000000
0.000000 0.644182 0.086498
0.000000 0.643703 0.221285
0.000000 0.643230 0.354529
0.000000 0.642759 0.486827
0.000000 0.642292 0.618439
0.000000 0.641826 0.749514
0.000000 0.641362 0.880147
0.000000 0.640899 1.000000
0.000000 0.771417 0.000000
0.000000 0.771025 0.081887
0.000000 0.770546 0.216673
0.000000 0.770073 0.349917
0.000000 0.769602 0.482215
0.000000 0.769135 0.613828
0.000000 0.768669 0.744903
0.000000 0.768205 0.875536
0.000000 0.767742 1.000000
0.000000 0.897845 0.000000
0.000000 0.897454 0.077291
0.000000 0.896975 0.212077
0.000000 0.896501 0.345321
0.000000 0.896031 0.477619
0.000000 0.895563 0.609231
0.000000 0.895097 0.740306
0.000000 0.894633 0.870939
0.000000 0.894170 1.000000
0.000000 1.000000 0.000000
0.000000 1.000000 0.073051
0.000000 1.000000 0.207838
0.000000 1.000000 0.341082
0.000000 1.000000 0.473380
0.000000 1.000000 0.604992
0.000000 1.000000 0.736067
0.000000 1.000000 0.866700
0.000000 1.000000 0.996958
0.158131 0.000000 0.000000
0.157740 0.000000 0.108509
0.157261 0.000000 0.243295
0.156787 0.000000 0.376539
0.156317 0.000000 0.508837
0.155849 0.000000 0.640449
0.155383 0.000000 0.771524
0.154919 0.000000 0.902157
0.154456 0.000000 1.000000
0.153387 0.128817 0.000000
0.152996 0.128425 0.103765
0.152517 0.127946 0.238551
0.152043 0.127473 0.371795
0.151573 0.127002 0.504093
0.151105 0.126535 0.635706
0.150640 0.126069 0.766781
0.150175 0.125605 0.897414
0.149712 0.125142 1.000000
0.148655 0.258988 0.000000
0.148263 0.258597 0.099032
0.147784 0.258118 0.233819
0.147311 0.257644 0.367063
0.146841 0.257174 0.499361
0.146373 0.256706 0.630973
0.145907 0.256240 0.762048
0.145443 0.255776 0.892681
0.144980 0.255313 1.000000
0.143971 0.387822 0.000000
0.143580 0.387430 0.094349
0.143101 0.386951 0.229135
0.142627 0.386478 0.362379
0.142157 0.386007 0.494677
0.141689 0.385540 0.626289
0.141223 0.385074 0.757364
0.140759 0.384609 0.887997
0.140296 0.384147 1.000000
0.139319 0.515798 0.000000
0.138927 0.515406 0.089696
0.138448 0.514927 0.224482
0.137975 0.514454 0.357726
0.137504 0.513983 0.490024
0.137037 0.513516 0.621637
0.136571 0.513050 0.752712
0.136107 0.512586 0.883345
0.135644 0.512123 1.000000
0.134689 0.643142 0.000000
0.134298 0.642750 0.085067
0.133818 0.642271 0.219853
0.133345 0.641798 0.353097
0.132875 0.641327 0.485395
0.132407 0.640860 0.617007
0.131941 0.640394 0.748082
0.131477 0.639930 0.878715
0.131014 0.639467 1.000000
0.130078 0.769985 0.000000
0.129686 0.769593 0.080455
0.129207 0.769114 0.215241
0.128734 0.768641 0.348485
0.128263 0.768170 0.480783
0.127796 0.767703 0.612396
0.127330 0.767237 0.743471
0.126866 0.766773 0.874104
0.126403 0.766310 1.000000
0.125481 0.896413 0.000000
0.125090 0.896022 0.075859
0.124611 0.895543 0.210645
0.124137 0.895069 0.343889
0.123667 0.894599 0.476187
0.123199 0.894131 0.607799
0.122733 0.893665 0.738874
0.122269 0.893201 0.869507
0.121806 0.892738 0.999765
0.121242 1.000000 0.000000
0.120850 1.000000 0.071619
0.120371 1.000000 0.206406
0.119898 1.000000 0.339650
0.119428 1.000000 0.471948
0.118960 1.000000 0.603560
0.118494 1.000000 0.734635
0.118030 1.000000 0.865268
0.117567 1.000000 0.995526
0.291317 0.000000 0.000000
0.290925 0.000000 0.107105
0.290446 0.000000 0.241891
0.289973 0.000000 0.375136
0.289502 0.000000 0.507433
0.289035 0.000000 0.639046
0.288569 0.000000 0.770121
0.288105 0.000000 0.900754
0.287642 0.000000 1.000000
0.286573 0.127413 0.000000
0.286181 0.127022 0.102361
0.285702 0.126543 0.237148
0.285229 0.126069 0.370392
0.284759 0.125599 0.502690
0.284291 0.125131 0.634302
0.283825 0.124665 0.765377
0.283361 0.124201 0.896010
0.282898 0.123738 1.000000
0.281841 0.257585 0.000000
0.281449 0.257193 0.097629
0.280970 0.256714 0.232415
0.280496 0.256241 0.365659
0.280026 0.255771 0.497957
0.279559 0.255303 0.629570
0.279093 0.254837 0.760645
0.278628 0.254373 0.891278
0.278166 0.253910 1.000000
0.277157 0.386418 0.000000
0.276765 0.386027 0.092945
0.276286 0.385548 0.227731
0.275813 0.385074 0.360976
0.275343 0.384604 0.493273
0.274875 0.384136 0.624886
0.274409 0.383670 0.755961
0.273945 0.383206 0.886594
0.273482 0.382743 1.000000
0.272504 0.514394 0.000000
0.272113 0.514003 0.088293
0.271634 0.513524 0.223079
0.271160 0.513050 0.356323
0.270690 0.512580 0.488621
0.270222 0.512112 0.620233
0.269756 0.511646 0.751308
0.269292 0.511182 0.881941
0.268829 0.510719 1.000000
0.267875 0.641738 0.000000
0.267483 0.641347 0.083663
0.267004 0.640868 0.218449
0.266530 0.640394 0.351693
0.266060 0.639924 0.483991
0.265593 0.639456 0.615604
0.265127 0.638990 0.746679
0.264662 0.638526 0.877312
0.264200 0.638063 1.000000
0.263263 0.768581 0.000000
0.262872 0.768190 0.079052
0.262393 0.767711 0.213838
0.261919 0.767237 0.347082
0.261449 0.766767 0.479380
0.260981 0.766299 0.610992
0.260515 0.765833 0.742067
0.260051 0.765369 0.872700
0.259588 0.764906 1.000000
0.258667 0.895010 0.000000
0.258275 0.894618 0.074455
0.257796 0.894139 0.209241
0.257323 0.893666 0.342486
0.256853 0.893195 0.474783
0.256385 0.892728 0.606396
0.255919 0.892262 0.737471
0.255455 0.891798 0.868104
0.254992 0.891335 0.998362
0.254427 1.000000 0.000000
0.254036 1.000000 0.070216
0.253557 1.000000 0.205002
0.253083 1.000000 0.338246
0.252613 1.000000 0.470544
0.252145 1.000000 0.602157
0.251680 1.000000 0.733232
0.251215 1.000000 0.863865
0.250752 1.000000 0.994122
0.423258 0.000000 0.000000
0.422866 0.000000 0.105715
0.422387 0.000000 0.240501
0.421913 0.000000 0.373745
0.421443 0.000000 0.506043
0.420976 0.000000 0.637655
0.420510 0.000000 0.768730
0.420045 0.000000 0.899363
0.419583 0.000000 1.000000
0.418514 0.126023 0.000000
0.418122 0.125631 0.100971
0.417643 0.125152 0.235757
0.417170 0.124679 0.369001
0.416700 0.124209 0.501299
0.416232 0.123741 0.632912
0.415766 0.123275 0.763987
0.415302 0.122811 0.894620
0.414839 0.122348 1.000000
0.413781 0.256195 0.000000
0.413390 0.255803 0.096239
0.412911 0.255324 0.231025
0.412437 0.254850 0.364269
0.411967 0.254380 0.496567
0.411499 0.253912 0.628179
0.411034 0.253447 0.759254
0.410569 0.252982 0.889887
0.410106 0.252519 1.000000
0.409098 0.385028 0.000000
0.408706 0.384636 0.091555
0.408227 0.384157 0.226341
0.407754 0.383684 0.359585
0.407283 0.383213 0.491883
0.406816 0.382746 0.623496
0.406350 0.382280 0.754571
0.405886 0.381816 0.885204
0.405423 0.381353 1.000000
0.404445 0.513004 0.000000
0.404054 0.512612 0.086902
0.403574 0.512133 0.221688
0.403101 0.511660 0.354933
0.402631 0.511190 0.487230
0.402163 0.510722 0.618843
0.401697 0.510256 0.749918
0.401233 0.509792 0.880551
0.400770 0.509329 1.000000
0.399815 0.640348 0.000000
0.399424 0.639956 0.082273
0.398945 0.639477 0.217059
0.398471 0.639004 0.350303
0.398001 0.638534 0.482601
0.397533 0.638066 0.614213
0.397068 0.637600 0.745288
0.396603 0.637136 0.875921
0.396140 0.636673 1.000000
0.395204 0.767191 0.000000
0.394812 0.766799 0.077661
0.394333 0.766320 0.212447
0.393860 0.765847 0.345692
0.393390 0.765377 0.477989
0.392922 0.764909 0.609602
0.392456 0.764443 0.740677
0.391992 0.763979 0.871310
0.391529 0.763516 1.000000
0.390608 0.893619 0.000000
0.390216 0.893228 0.073065
0.389737 0.892749 0.207851
0.389264 0.892275 0.341095
0.388793 0.891805 0.473393
0.388326 0.891337 0.605006
0.387860 0.890871 0.736081
0.387396 0.890407 0.866714
0.386933 0.889944 0.996971
0.386368 1.000000 0.000000
0.385977 1.000000 0.068826
0.385498 1.000000 0.203612
0.385024 1.000000 0.336856
0.384554 1.000000 0.469154
0.384086 1.000000 0.600766
0.383620 1.000000 0.731841
0.383156 1.000000 0.862474
0.382693 1.000000 0.992732
0.554373 0.000000 0.000000
0.553981 0.000000 0.104333
0.553502 0.000000 0.239119
0.553029 0.000000 0.372363
0.552558 0.000000 0.504661
0.552091 0.000000 0.636274
0.551625 0.000000 0.767349
0.551161 0.000000 0.897982
0.550698 0.000000 1.000000
0.549629 0.124641 0.000000
0.549237 0.124250 0.099589
0.548758 0.123771 0.234376
0.548285 0.123297 0.367620
0.547815 0.122827 0.499918
0.547347 0.122359 0.631530
0.546881 0.121893 0.762605
0.546417 0.121429 0.893238
0.545954 0.120966 1.000000
0.544897 0.254813 0.000000
0.544505 0.254421 0.094857
0.544026 0.253942 0.229643
0.543552 0.253469 0.362887
0.543082 0.252999 0.495185
0.542614 0.252531 0.626798
0.542149 0.252065 0.757873
0.541684 0.251601 0.888506
0.541221 0.251138 1.000000
0.540213 0.383646 0.000000
0.539821 0.383255 0.090173
0.539342 0.382776 0.224959
0.538869 0.382302 0.358204
0.538398 0.381832 0.490501
0.537931 0.381364 0.622114
0.537465 0.380898 0.753189
0.537001 0.380434 0.883822
0.536538 0.379971 1.000000
0.535560 0.511622 0.000000
0.535169 0.511231 0.085521
0.534690 0.510752 0.220307
0.534216 0.510278 0.353551
0.533746 0.509808 0.485849
0.533278 0.509340 0.617461
0.532812 0.508874 0.748536
0.532348 0.508410 0.879169
0.531885 0.507947 1.000000
0.530931 0.638966 0.000000
0.530539 0.638575 0.080891
0.530060 0.638096 0.215677
0.529586 0.637622 0.348921
0.529116 0.637152 0.481219
0.528649 0.636684 0.612832
0.528183 0.636218 0.743907
0.527718 0.635754 0.874540
0.527255 0.635291 1.000000
0.526319 0.765809 0.000000
0.525928 0.765418 0.076280
0.525449 0.764939 0.211066
0.524975 0.764465 0.344310
0.524505 0.763995 0.476608
0.524037 0.763527 0.608220
0.523571 0.763061 0.739295
0.523107 0.762597 0.869928
0.522644 0.762134 1.000000
0.521723 0.892238 0.000000
0.521331 0.891846 0.071683
0.520852 0.891367 0.206469
0.520379 0.890894 0.339714
0.519909 0.890423 0.472011
0.519441 0.889956 0.603624
0.518975 0.889490 0.734699
0.518511 0.889026 0.865332
0.518048 0.888563 0.995590
0.517483 1.000000 0.000000
0.517092 1.000000 0.067444
0.516613 1.000000 0.202230
0.516139 1.000000 0.335474
0.515669 1.000000 0.467772
0.515201 1.000000 0.599385
0.514736 1.000000 0.730460
0.514271 1.000000 0.861093
0.513808 1.000000 0.991350
0.684869 0.000000 0.000000
0.684477 0.000000 0.102958
0.683998 0.000000 0.237744
0.683525 0.000000 0.370988
0.683055 0.000000 0.503286
0.682587 0.000000 0.634899
0.682121 0.000000 0.765974
0.681657 0.000000 0.896607
0.681194 0.000000 1.000000
0.680125 0.123266 0.000000
0.679734 0.122875 0.098214
0.679254 0.122396 0.233000
0.678781 0.121922 0.366245
0.678311 0.121452 0.498542
0.677843 0.120984 0.630155
0.677377 0.120518 0.761230
0.676913 0.120054 0.891863
0.676450 0.119591 1.000000
0.675393 0.253438 0.000000
0.675001 0.253046 0.093482
0.674522 0.252567 0.228268
0.674049 0.252094 0.361512
0.673578 0.251623 0.493810
0.673111 0.251156 0.625423
0.672645 0.250690 0.756498
0.672181 0.250226 0.887130
0.671718 0.249763 1.000000
0.670709 0.382271 0.000000
0.670317 0.381879 0.088798
0.669838 0.381400 0.223584
0.669365 0.380927 0.356828
0.668895 0.380457 0.489126
0.668427 0.379989 0.620739
0.667961 0.379523 0.751814
0.667497 0.379059 0.882447
0.667034 0.378596 1.000000
0.666056 0.510247 0.000000
0.665665 0.509856 0.084146
0.665186 0.509377 0.218932
0.664712 0.508903 0.352176
0.664242 0.508433 0.484474
0.663774 0.507965 0.616086
0.663308 0.507499 0.747161
0.662844 0.507035 0.877794
0.662381 0.506572 1.000000
0.661427 0.637591 0.000000
0.661035 0.637200 0.079516
0.660556 0.636720 0.214302
0.660083 0.636247 0.347546
0.659612 0.635777 0.479844
0.659145 0.635309 0.611457
0.658679 0.634843 0.742532
0.658215 0.634379 0.873165
0.657752 0.633916 1.000000
0.656815 0.764434 0.000000
0.656424 0.764043 0.074904
0.655945 0.763564 0.209691
0.655471 0.763090 0.342935
0.655001 0.762620 0.475233
0.654533 0.762152 0.606845
0.654067 0.761686 0.737920
0.653603 0.761222 0.868553
0.653140 0.760759 0.998811
0.652219 0.890863 0.000000
0.651827 0.890471 0.070308
0.651348 0.889992 0.205094
0.650875 0.889518 0.338338
0.650405 0.889048 0.470636
0.649937 0.888580 0.602249
0.649471 0.888115 0.733324
0.649007 0.887650 0.863957
0.648544 0.887187 0.994215
0.647980 1.000000 0.000000
0.647588 1.000000 0.066069
0.647109 1.000000 0.200855
0.646635 1.000000 0.334099
0.646165 1.000000 0.466397
0.645698 1.000000 0.598009
0.645232 1.000000 0.729084
0.644767 1.000000 0.859717
0.644304 1.000000 0.989975
0.814870 0.000000 0.000000
0.814478 0.000000 0.101588
0.813999 0.000000 0.236374
0.813526 0.000000 0.369618
0.813056 0.000000 0.501916
0.812588 0.000000 0.633529
0.812122 0.000000 0.764604
0.811658 0.000000 0.895237
0.811195 0.000000 1.000000
0.810126 0.121896 0.000000
0.809735 0.121505 0.096844
0.809256 0.121026 0.231631
0.808782 0.120552 0.364875
0.808312 0.120082 0.497173
0.807844 0.119614 0.628785
0.807378 0.119148 0.759860
0.806914 0.118684 0.890493
0.806451 0.118221 1.000000
0.805394 0.252068 0.000000
0.805002 0.251676 0.092112
0.804523 0.251197 0.226898
0.804050 0.250724 0.360142
0.803579 0.250254 0.492440
0.803112 0.249786 0.624053
0.802646 0.249320 0.755128
0.802182 0.248856 0.885761
0.801719 0.248393 1.000000
0.800710 0.380901 0.000000
0.800318 0.380510 0.087428
0.799839 0.380031 0.222214
0.799366 0.379557 0.355459
0.798896 0.379087 0.487756
0.798428 0.378619 0.619369
0.797962 0.378153 0.750444
0.797498 0.377689 0.881077
0.797035 0.377226 1.000000
0.796057 0.508877 0.000000
0.795666 0.508486 0.082776
0.795187 0.508007 0.217562
0.794713 0.507533 0.350806
0.794243 0.507063 0.483104
0.793775 0.506595 0.614716
0.793309 0.506129 0.745791
0.792845 0.505665 0.876424
0.792382 0.505202 1.000000
0.791428 0.636221 0.000000
0.791036 0.635830 0.078146
0.790557 0.635351 0.212932
0.790084 0.634877 0.346176
0.789613 0.634407 0.478474
0.789146 0.633939 0.610087
0.788680 0.633473 0.741162
0.788216 0.633009 0.871795
0.787753 0.632546 1.000000
0.786816 0.763064 0.000000
0.786425 0.762673 0.073535
0.785946 0.762194 0.208321
0.785472 0.761720 0.341565
0.785002 0.761250 0.473863
0.784534 0.760782 0.605475
0.784068 0.760316 0.736550
0.783604 0.759852 0.867183
0.783141 0.759389 0.997441
0.782220 0.889493 0.000000
0.781828 0.889101 0.068938
0.781349 0.888622 0.203724
0.780876 0.888148 0.336969
0.780406 0.887678 0.469266
0.779938 0.887211 0.600879
0.779472 0.886745 0.731954
0.779008 0.886280 0.862587
0.778545 0.885818 0.992845
0.777981 1.000000 0.000000
0.777589 1.000000 0.064699
0.777110 1.000000 0.199485
0.776636 1.000000 0.332729
0.776166 1.000000 0.465027
0.775699 1.000000 0.596640
0.775233 1.000000 0.727714
0.774768 1.000000 0.858347
0.774306 1.000000 0.988605
0.944459 0.000000 0.000000
0.944067 0.000000 0.100223
0.943588 0.000000 0.235009
0.943114 0.000000 0.368253
0.942644 0.000000 0.500551
0.942177 0.000000 0.632163
0.941711 0.000000 0.763238
0.941246 0.000000 0.893871
0.940783 0.000000 1.000000
0.939715 0.120531 0.000000
0.939323 0.120139 0.095479
0.938844 0.119660 0.230265
0.938371 0.119187 0.363509
0.937901 0.118716 0.495807
0.937433 0.118249 0.627419
0.936967 0.117783 0.758494
0.936503 0.117318 0.889127
0.936040 0.116856 1.000000
0.934982 0.250702 0.000000
0.934591 0.250311 0.090746
0.934112 0.249832 0.225533
0.933638 0.249358 0.358777
0.933168 0.248888 0.491075
0.932700 0.248420 0.622687
0.932235 0.247954 0.753762
0.931770 0.247490 0.884395
0.931307 0.247027 1.000000
0.930299 0.379536 0.000000
0.929907 0.379144 0.086063
0.929428 0.378665 0.220849
0.928954 0.378191 0.354093
0.928484 0.377721 0.486391
0.928017 0.377253 0.618003
0.927551 0.376788 0.749078
0.927086 0.376323 0.879711
0.926624 0.375860 1.000000
0.925646 0.507512 0.000000
0.925254 0.507120 0.081410
0.924775 0.506641 0.216196
0.924302 0.506168 0.349440
0.923832 0.505697 0.481738
0.923364 0.505230 0.613351
0.922898 0.504764 0.744426
0.922434 0.504300 0.875059
0.921971 0.503837 1.000000
0.921016 0.634856 0.000000
0.920625 0.634464 0.076780
0.920146 0.633985 0.211567
0.919672 0.633511 0.344811
0.919202 0.633041 0.477109
0.918734 0.632574 0.608721
0.918269 0.632108 0.739796
0.917804 0.631643 0.870429
0.917341 0.631181 1.000000
0.916405 0.761699 0.000000
0.916013 0.761307 0.072169
0.915534 0.760828 0.206955
0.915061 0.760355 0.340199
0.914591 0.759884 0.472497
0.914123 0.759417 0.604110
0.913657 0.758951 0.735185
0.913193 0.758487 0.865818
0.912730 0.758024 0.996075
0.911809 0.888127 0.000000
0.911417 0.887735 0.067573
0.910938 0.887256 0.202359
0.910465 0.886783 0.335603
0.909994 0.886313 0.467901
0.909527 0.885845 0.599513
0.909061 0.885379 0.730588
0.908597 0.884915 0.861221
0.908134 0.884452 0.991479
0.907569 1.000000 0.000000
0.907178 1.000000 0.063333
0.906699 1.000000 0.198119
0.906225 1.000000 0.331364
0.905755 1.000000 0.463661
0.905287 1.000000 0.595274
0.904821 1.000000 0.726349
0.904357 1.000000 0.856982
0.903894 1.000000 0.987240
1.000000 0.000000 0.000000
1.000000 0.000000 0.099209
1.000000 0.000000 0.233995
1.000000 0.000000 0.367240
1.000000 0.000000 0.499537
1.000000 0.000000 0.631150
1.000000 0.000000 0.762225
1.000000 0.000000 0.892858
1.000000 0.000000 1.000000
1.000000 0.119517 0.000000
1.000000 0.119126 0.094466
1.000000 0.118647 0.229252
1.000000 0.118173 0.362496
1.000000 0.117703 0.494794
1.000000 0.117235 0.626406
1.000000 0.116770 0.757481
1.000000 0.116305 0.888114
1.000000 0.115842 1.000000
1.000000 0.249689 0.000000
1.000000 0.249297 0.089733
1.000000 0.248818 0.224519
1.000000 0.248345 0.357763
1.000000 0.247875 0.490061
1.000000 0.247407 0.621674
1.000000 0.246941 0.752749
1.000000 0.246477 0.883382
1.000000 0.246014 1.000000
1.000000 0.378522 0.000000
1.000000 0.378131 0.085049
1.000000 0.377652 0.219836
1.000000 0.377178 0.353080
1.000000 0.376708 0.485378
1.000000 0.376240 0.616990
1.000000 0.375774 0.748065
1.000000 0.375310 0.878698
1.000000 0.374847 1.000000
1.000000 0.506498 0.000000
1.000000 0.506107 0.080397
1.000000 0.505628 0.215183
1.000000 0.505154 0.348427
1.000000 0.504684 0.480725
1.000000 0.504216 0.612337
1.000000 0.503751 0.743412
1.000000 0.503286 0.874045
1.000000 0.502823 1.000000
1.000000 0.633842 0.000000
1.000000 0.633451 0.075767
1.000000 0.632972 0.210553
1.000000 0.632498 0.343798
1.000000 0.632028 0.476095
1.000000 0.631560 0.607708
1.000000 0.631094 0.738783
1.000000 0.630630 0.869416
1.000000 0.630167 0.999674
1.000000 0.760685 0.000000
1.000000 0.760294 0.071156
1.000000 0.759815 0.205942
1.000000 0.759341 0.339186
1.000000 0.758871 0.471484
1.000000 0.758403 0.603096
1.000000 0.757938 0.734171
1.000000 0.757473 0.864804
1.000000 0.757010 0.995062
1.000000 0.887114 0.000000
1.000000 0.886722 0.066559
1.000000 0.886243 0.201346
1.000000 0.885770 0.334590
1.000000 0.885299 0.466888
1.000000 0.884832 0.598500
1.000000 0.884366 0.729575
1.000000 0.883902 0.860208
1.000000 0.883439 0.990466
1.000000 1.000000 0.000000
1.000000 1.000000 0.062320
1.000000 1.000000 0.197106
1.000000 1.000000 0.330350
1.000000 1.000000 0.462648
1.000000 1.000000 0.594261
1.000000 1.000000 0.725336
1.000000 1.000000 0.855969
1.000000 1.000000 0.986226
