skills/clipper-orchestrator/assets/grade/luts/clean_bright_v11.cube
TITLE "clean_bright_v11"
LUT_3D_SIZE 9
DOMAIN_MIN 0.0 0.0 0.0
DOMAIN_MAX 1.0 1.0 1.0
0.028654 0.028654 0.028654
0.028393 0.028393 0.169638
0.028143 0.028143 0.304274
0.027899 0.027899 0.435982
0.027658 0.027658 0.565757
0.027420 0.027420 0.694090
0.027184 0.027184 0.821275
0.026950 0.026950 0.947508
0.026809 0.026809 1.000000
0.026064 0.167309 0.026064
0.025803 0.167048 0.167048
0.025553 0.166798 0.301684
0.025309 0.166554 0.433392
0.025068 0.166313 0.563166
0.024830 0.166075 0.691500
0.024594 0.165839 0.818685
0.024360 0.165605 0.944918
0.024218 0.165464 1.000000
0.023590 0.299722 0.023590
0.023329 0.299460 0.164574
0.023079 0.299211 0.299211
0.022835 0.298966 0.430918
0.022594 0.298726 0.560693
0.022356 0.298488 0.689026
0.022120 0.298252 0.816212
0.021886 0.298017 0.942444
0.021745 0.297876 1.000000
0.021171 0.429254 0.021171
0.020909 0.428992 0.162154
0.020659 0.428742 0.296791
0.020415 0.428498 0.428498
0.020174 0.428257 0.558273
0.019936 0.428019 0.686606
0.019701 0.427784 0.813792
0.019466 0.427549 0.940025
0.019325 0.427408 1.000000
0.018786 0.556885 0.018786
0.018525 0.556623 0.159770
0.018275 0.556374 0.294406
0.018031 0.556129 0.426114
0.017790 0.555889 0.555889
0.017552 0.555651 0.684222
0.017316 0.555415 0.811408
0.017082 0.555181 0.937640
0.016941 0.555039 1.000000
0.016429 0.683098 0.016429
0.016167 0.682837 0.157412
0.015917 0.682587 0.292049
0.015673 0.682343 0.423756
0.015432 0.682102 0.553531
0.015194 0.681864 0.681864
0.014958 0.681628 0.809050
0.014724 0.681394 0.935283
0.014583 0.681253 1.000000
0.014092 0.808183 0.014092
0.013830 0.807922 0.155075
0.013581 0.807672 0.289712
0.013336 0.807428 0.421419
0.013096 0.807187 0.551194
0.012858 0.806949 0.679528
0.012622 0.806713 0.806713
0.012388 0.806479 0.932946
0.012246 0.806338 1.000000
0.011773 0.932331 0.011773
0.011511 0.932069 0.152756
0.011261 0.931820 0.287393
0.011017 0.931575 0.419100
0.010776 0.931335 0.548875
0.010538 0.931097 0.677208
0.010302 0.930861 0.804394
0.010068 0.930627 0.930627
0.009927 0.930485 1.000000
0.010372 1.000000 0.010372
0.010111 1.000000 0.151356
0.009861 1.000000 0.285993
0.009617 1.000000 0.417700
0.009376 1.000000 0.547475
0.009138 1.000000 0.675808
0.008902 1.000000 0.802994
0.008668 1.000000 0.929226
0.008527 1.000000 1.000000
0.169129 0.027884 0.027884
0.168868 0.027623 0.168868
0.168618 0.027373 0.303504
0.168374 0.027129 0.435212
0.168133 0.026888 0.564987
0.167895 0.026650 0.693320
0.167659 0.026414 0.820505
0.167425 0.026180 0.946738
0.167284 0.026039 1.000000
0.166539 0.166539 0.025294
0.166278 0.166278 0.166278
0.166028 0.166028 0.300914
0.165784 0.165784 0.432622
0.165543 0.165543 0.562396
0.165305 0.165305 0.690730
0.165069 0.165069 0.817915
0.164835 0.164835 0.944148
0.164694 0.164694 1.000000
0.164066 0.298952 0.022820
0.163804 0.298690 0.163804
0.163554 0.298441 0.298441
0.163310 0.298196 0.430148
0.163069 0.297956 0.559923
0.162831 0.297718 0.688256
0.162595 0.297482 0.815442
0.162361 0.297248 0.941674
0.162220 0.297106 1.000000
0.161646 0.428484 0.020401
0.161384 0.428222 0.161384
0.161135 0.427972 0.296021
0.160890 0.427728 0.427728
0.160650 0.427487 0.557503
0.160412 0.427249 0.685836
0.160176 0.427014 0.813022
0.159942 0.426779 0.939255
0.159800 0.426638 1.000000
0.159261 0.556115 0.018016
0.159000 0.555853 0.159000
0.158750 0.555604 0.293636
0.158506 0.555359 0.425344
0.158265 0.555119 0.555119
0.158027 0.554881 0.683452
0.157791 0.554645 0.810638
0.157557 0.554411 0.936870
0.157416 0.554269 1.000000
0.156904 0.682328 0.015659
0.156642 0.682067 0.156642
0.156392 0.681817 0.291279
0.156148 0.681573 0.422986
0.155908 0.681332 0.552761
0.155669 0.681094 0.681094
0.155434 0.680858 0.808280
0.155199 0.680624 0.934513
0.155058 0.680483 1.000000
0.154567 0.807413 0.013322
0.154305 0.807152 0.154305
0.154056 0.806902 0.288942
0.153811 0.806658 0.420649
0.153571 0.806417 0.550424
0.153333 0.806179 0.678758
0.153097 0.805943 0.805943
0.152863 0.805709 0.932176
0.152721 0.805568 1.000000
0.152248 0.931561 0.011003
0.151986 0.931299 0.151986
0.151737 0.931050 0.286623
0.151492 0.930805 0.418330
0.151252 0.930565 0.548105
0.151014 0.930327 0.676438
0.150778 0.930091 0.803624
0.150544 0.929857 0.929857
0.150402 0.929715 1.000000
0.150848 1.000000 0.009602
0.150586 1.000000 0.150586
0.150336 1.000000 0.285223
0.150092 1.000000 0.416930
0.149851 1.000000 0.546705
0.149613 1.000000 0.675038
0.149378 1.000000 0.802224
0.149143 1.000000 0.928456
0.149002 1.000000 1.000000
0.303280 0.027149 0.027149
0.303019 0.026887 0.168133
0.302769 0.026638 0.302769
0.302525 0.026393 0.434477
0.302284 0.026153 0.564251
0.302046 0.025915 0.692585
0.301810 0.025679 0.819770
0.301576 0.025445 0.946003
0.301435 0.025303 1.000000
0.300690 0.165804 0.024559
0.300429 0.165542 0.165542
0.300179 0.165293 0.300179
0.299935 0.165048 0.431886
0.299694 0.164808 0.561661
0.299456 0.164570 0.689994
0.299220 0.164334 0.817180
0.298986 0.164100 0.943413
0.298844 0.163958 1.000000
0.298216 0.298216 0.022085
0.297955 0.297955 0.163069
0.297705 0.297705 0.297705
0.297461 0.297461 0.429413
0.297220 0.297220 0.559187
0.296982 0.296982 0.687521
0.296746 0.296746 0.814706
0.296512 0.296512 0.940939
0.296371 0.296371 1.000000
0.295797 0.427748 0.019665
0.295535 0.427487 0.160649
0.295285 0.427237 0.295285
0.295041 0.426993 0.426993
0.294800 0.426752 0.556768
0.294562 0.426514 0.685101
0.294327 0.426278 0.812287
0.294092 0.426044 0.938519
0.293951 0.425903 1.000000
0.293412 0.555380 0.017281
0.293151 0.555118 0.158265
0.292901 0.554868 0.292901
0.292657 0.554624 0.424609
0.292416 0.554383 0.554383
0.292178 0.554145 0.682717
0.291942 0.553909 0.809902
0.291708 0.553675 0.936135
0.291567 0.553534 1.000000
0.291055 0.681593 0.014923
0.290793 0.681332 0.155907
0.290543 0.681082 0.290543
0.290299 0.680838 0.422251
0.290058 0.680597 0.552026
0.289820 0.680359 0.680359
0.289584 0.680123 0.807544
0.289350 0.679889 0.933777
0.289209 0.679748 1.000000
0.288718 0.806678 0.012587
0.288456 0.806416 0.153570
0.288207 0.806167 0.288207
0.287962 0.805922 0.419914
0.287722 0.805682 0.549689
0.287484 0.805444 0.678022
0.287248 0.805208 0.805208
0.287014 0.804974 0.931441
0.286872 0.804832 1.000000
0.286399 0.930826 0.010267
0.286137 0.930564 0.151251
0.285887 0.930314 0.285887
0.285643 0.930070 0.417595
0.285402 0.929829 0.547370
0.285164 0.929591 0.675703
0.284929 0.929355 0.802889
0.284694 0.929121 0.929121
0.284553 0.928980 1.000000
0.284999 1.000000 0.008867
0.284737 1.000000 0.149851
0.284487 1.000000 0.284487
0.284243 1.000000 0.416195
0.284002 1.000000 0.545970
0.283764 1.000000 0.674303
0.283528 1.000000 0.801488
0.283294 1.000000 0.927721
0.283153 1.000000 1.000000
0.434513 0.026430 0.026430
0.434251 0.026168 0.167413
0.434001 0.025918 0.302050
0.433757 0.025674 0.433757
0.433516 0.025433 0.563532
0.433278 0.025195 0.691865
0.433043 0.024960 0.819051
0.432808 0.024725 0.945284
0.432667 0.024584 1.000000
0.431922 0.165085 0.023839
0.431661 0.164823 0.164823
0.431411 0.164573 0.299460
0.431167 0.164329 0.431167
0.430926 0.164088 0.560942
0.430688 0.163850 0.689275
0.430452 0.163614 0.816461
0.430218 0.163380 0.942693
0.430077 0.163239 1.000000
0.429449 0.297497 0.021366
0.429187 0.297236 0.162349
0.428938 0.296986 0.296986
0.428693 0.296742 0.428693
0.428453 0.296501 0.558468
0.428215 0.296263 0.686802
0.427979 0.296027 0.813987
0.427745 0.295793 0.940220
0.427603 0.295652 1.000000
0.427029 0.427029 0.018946
0.426768 0.426768 0.159930
0.426518 0.426518 0.294566
0.426274 0.426274 0.426274
0.426033 0.426033 0.556048
0.425795 0.425795 0.684382
0.425559 0.425559 0.811567
0.425325 0.425325 0.937800
0.425183 0.425183 1.000000
0.424645 0.554660 0.016562
0.424383 0.554399 0.157545
0.424134 0.554149 0.292182
0.423889 0.553905 0.423889
0.423649 0.553664 0.553664
0.423411 0.553426 0.681997
0.423175 0.553190 0.809183
0.422941 0.552956 0.935416
0.422799 0.552815 1.000000
0.422287 0.680874 0.014204
0.422025 0.680612 0.155188
0.421776 0.680363 0.289824
0.421531 0.680118 0.421531
0.421291 0.679878 0.551306
0.421053 0.679640 0.679640
0.420817 0.679404 0.806825
0.420583 0.679170 0.933058
0.420441 0.679028 1.000000
0.419950 0.805959 0.011867
0.419689 0.805697 0.152851
0.419439 0.805447 0.287487
0.419195 0.805203 0.419195
0.418954 0.804962 0.548970
0.418716 0.804724 0.677303
0.418480 0.804488 0.804488
0.418246 0.804254 0.930721
0.418105 0.804113 1.000000
0.417631 0.930106 0.009548
0.417370 0.929845 0.150532
0.417120 0.929595 0.285168
0.416876 0.929351 0.416876
0.416635 0.929110 0.546650
0.416397 0.928872 0.674984
0.416161 0.928636 0.802169
0.415927 0.928402 0.928402
0.415785 0.928261 1.000000
0.416231 1.000000 0.008148
0.415969 1.000000 0.149132
0.415720 1.000000 0.283768
0.415475 1.000000 0.415475
0.415235 1.000000 0.545250
0.414997 1.000000 0.673584
0.414761 1.000000 0.800769
0.414527 1.000000 0.927002
0.414385 1.000000 1.000000
0.563819 0.025721 0.025721
0.563558 0.025459 0.166705
0.563308 0.025210 0.301341
0.563064 0.024965 0.433048
0.562823 0.024725 0.562823
0.562585 0.024487 0.691157
0.562349 0.024251 0.818342
0.562115 0.024017 0.944575
0.561974 0.023875 1.000000
0.561229 0.164376 0.023131
0.560968 0.164114 0.164114
0.560718 0.163865 0.298751
0.560474 0.163620 0.430458
0.560233 0.163380 0.560233
0.559995 0.163142 0.688566
0.559759 0.162906 0.815752
0.559525 0.162672 0.941985
0.559384 0.162530 1.000000
0.558756 0.296788 0.020657
0.558494 0.296527 0.161641
0.558244 0.296277 0.296277
0.558000 0.296033 0.427985
0.557759 0.295792 0.557759
0.557521 0.295554 0.686093
0.557286 0.295318 0.813278
0.557051 0.295084 0.939511
0.556910 0.294943 1.000000
0.556336 0.426320 0.018237
0.556074 0.426059 0.159221
0.555825 0.425809 0.293857
0.555580 0.425565 0.425565
0.555340 0.425324 0.555340
0.555102 0.425086 0.683673
0.554866 0.424850 0.810858
0.554632 0.424616 0.937091
0.554490 0.424475 1.000000
0.553952 0.553952 0.015853
0.553690 0.553690 0.156837
0.553440 0.553440 0.291473
0.553196 0.553196 0.423181
0.552955 0.552955 0.552955
0.552717 0.552717 0.681289
0.552481 0.552481 0.808474
0.552247 0.552247 0.934707
0.552106 0.552106 1.000000
0.551594 0.680165 0.013495
0.551332 0.679904 0.154479
0.551083 0.679654 0.289115
0.550838 0.679410 0.420823
0.550598 0.679169 0.550598
0.550360 0.678931 0.678931
0.550124 0.678695 0.806116
0.549890 0.678461 0.932349
0.549748 0.678320 1.000000
0.549257 0.805250 0.011158
0.548996 0.804988 0.152142
0.548746 0.804739 0.286779
0.548502 0.804494 0.418486
0.548261 0.804254 0.548261
0.548023 0.804016 0.676594
0.547787 0.803780 0.803780
0.547553 0.803546 0.930012
0.547411 0.803404 1.000000
0.546938 0.929397 0.008839
0.546676 0.929136 0.149823
0.546427 0.928886 0.284459
0.546182 0.928642 0.416167
0.545942 0.928401 0.545942
0.545704 0.928163 0.674275
0.545468 0.927927 0.801460
0.545234 0.927693 0.927693
0.545092 0.927552 1.000000
0.545538 1.000000 0.007439
0.545276 1.000000 0.148423
0.545026 1.000000 0.283059
0.544782 1.000000 0.414767
0.544542 1.000000 0.544542
0.544303 1.000000 0.672875
0.544068 1.000000 0.800060
0.543833 1.000000 0.926293
0.543692 1.000000 1.000000
0.691690 0.025020 0.025020
0.691428 0.024759 0.166004
0.691179 0.024509 0.300640
0.690934 0.024265 0.432348
0.690694 0.024024 0.562122
0.690456 0.023786 0.690456
0.690220 0.023550 0.817641
0.689986 0.023316 0.943874
0.689844 0.023174 1.000000
0.689100 0.163675 0.022430
0.688838 0.163413 0.163413
0.688589 0.163164 0.298050
0.688344 0.162919 0.429757
0.688104 0.162679 0.559532
0.687866 0.162441 0.687866
0.687630 0.162205 0.815051
0.687396 0.161971 0.941284
0.687254 0.161829 1.000000
0.686626 0.296087 0.019956
0.686365 0.295826 0.160940
0.686115 0.295576 0.295576
0.685871 0.295332 0.427284
0.685630 0.295091 0.557059
0.685392 0.294853 0.685392
0.685156 0.294617 0.812577
0.684922 0.294383 0.938810
0.684781 0.294242 1.000000
0.684206 0.425619 0.017536
0.683945 0.425358 0.158520
0.683695 0.425108 0.293157
0.683451 0.424864 0.424864
0.683210 0.424623 0.554639
0.682972 0.424385 0.682972
0.682736 0.424149 0.810158
0.682502 0.423915 0.936390
0.682361 0.423774 1.000000
0.681822 0.553251 0.015152
0.681561 0.552989 0.156136
0.681311 0.552739 0.290772
0.681067 0.552495 0.422480
0.680826 0.552254 0.552254
0.680588 0.552016 0.680588
0.680352 0.551781 0.807773
0.680118 0.551546 0.934006
0.679976 0.551405 1.000000
0.679464 0.679464 0.012794
0.679203 0.679203 0.153778
0.678953 0.678953 0.288414
0.678709 0.678709 0.420122
0.678468 0.678468 0.549897
0.678230 0.678230 0.678230
0.677994 0.677994 0.805416
0.677760 0.677760 0.931648
0.677619 0.677619 1.000000
0.677128 0.804549 0.010458
0.676866 0.804287 0.151441
0.676616 0.804038 0.286078
0.676372 0.803793 0.417785
0.676131 0.803553 0.547560
0.675893 0.803315 0.675893
0.675657 0.803079 0.803079
0.675423 0.802845 0.929312
0.675282 0.802703 1.000000
0.674808 0.928697 0.008138
0.674547 0.928435 0.149122
0.674297 0.928185 0.283758
0.674053 0.927941 0.415466
0.673812 0.927700 0.545241
0.673574 0.927462 0.673574
0.673338 0.927227 0.800760
0.673104 0.926992 0.926992
0.672963 0.926851 1.000000
0.673408 1.000000 0.006738
0.673147 1.000000 0.147722
0.672897 1.000000 0.282358
0.672653 1.000000 0.414066
0.672412 1.000000 0.543841
0.672174 1.000000 0.672174
0.671938 1.000000 0.799359
0.671704 1.000000 0.925592
0.671563 1.000000 1.000000
0.818417 0.024325 0.024325
0.818155 0.024064 0.165309
0.817905 0.023814 0.299946
0.817661 0.023570 0.431653
0.817421 0.023329 0.561428
0.817182 0.023091 0.689761
0.816947 0.022855 0.816947
0.816712 0.022621 0.943179
0.816571 0.022480 1.000000
0.815826 0.162980 0.021735
0.815565 0.162719 0.162719
0.815315 0.162469 0.297355
0.815071 0.162225 0.429063
0.814830 0.161984 0.558838
0.814592 0.161746 0.687171
0.814356 0.161510 0.814356
0.814122 0.161276 0.940589
0.813981 0.161135 1.000000
0.813353 0.295393 0.019262
0.813091 0.295131 0.160245
0.812842 0.294882 0.294882
0.812597 0.294637 0.426589
0.812357 0.294397 0.556364
0.812119 0.294159 0.684697
0.811883 0.293923 0.811883
0.811649 0.293689 0.938116
0.811507 0.293547 1.000000
0.810933 0.424925 0.016842
0.810672 0.424663 0.157825
0.810422 0.424414 0.292462
0.810178 0.424169 0.424169
0.809937 0.423929 0.553944
0.809699 0.423691 0.682278
0.809463 0.423455 0.809463
0.809229 0.423221 0.935696
0.809088 0.423079 1.000000
0.808549 0.552556 0.014457
0.808287 0.552295 0.155441
0.808038 0.552045 0.290078
0.807793 0.551801 0.421785
0.807553 0.551560 0.551560
0.807315 0.551322 0.679893
0.807079 0.551086 0.807079
0.806845 0.550852 0.933311
0.806703 0.550710 1.000000
0.806191 0.678770 0.012100
0.805929 0.678508 0.153083
0.805680 0.678258 0.287720
0.805436 0.678014 0.419427
0.805195 0.677773 0.549202
0.804957 0.677535 0.677535
0.804721 0.677300 0.804721
0.804487 0.677065 0.930954
0.804345 0.676924 1.000000
0.803854 0.803854 0.009763
0.803593 0.803593 0.150747
0.803343 0.803343 0.285383
0.803099 0.803099 0.417091
0.802858 0.802858 0.546865
0.802620 0.802620 0.675199
0.802384 0.802384 0.802384
0.802150 0.802150 0.928617
0.802009 0.802009 1.000000
0.801535 0.928002 0.007444
0.801274 0.927741 0.148427
0.801024 0.927491 0.283064
0.800780 0.927247 0.414771
0.800539 0.927006 0.544546
0.800301 0.926768 0.672880
0.800065 0.926532 0.800065
0.799831 0.926298 0.926298
0.799690 0.926156 1.000000
0.800135 1.000000 0.006044
0.799873 1.000000 0.147027
0.799624 1.000000 0.281664
0.799379 1.000000 0.413371
0.799139 1.000000 0.543146
0.798901 1.000000 0.671479
0.798665 1.000000 0.798665
0.798431 1.000000 0.924898
0.798289 1.000000 1.000000
0.944194 0.023636 0.023636
0.943933 0.023375 0.164620
0.943683 0.023125 0.299256
0.943439 0.022881 0.430964
0.943198 0.022640 0.560738
0.942960 0.022402 0.689072
0.942724 0.022166 0.816257
0.942490 0.021932 0.942490
0.942349 0.021790 1.000000
0.941604 0.162291 0.021046
0.941342 0.162029 0.162029
0.941093 0.161780 0.296666
0.940849 0.161535 0.428373
0.940608 0.161295 0.558148
0.940370 0.161057 0.686482
0.940134 0.160821 0.813667
0.939900 0.160587 0.939900
0.939758 0.160445 1.000000
0.939130 0.294703 0.018572
0.938869 0.294442 0.159556
0.938619 0.294192 0.294192
0.938375 0.293948 0.425900
0.938134 0.293707 0.555675
0.937896 0.293469 0.684008
0.937660 0.293233 0.811193
0.937426 0.292999 0.937426
0.937285 0.292858 1.000000
0.936711 0.424235 0.016152
0.936449 0.423974 0.157136
0.936199 0.423724 0.291772
0.935955 0.423480 0.423480
0.935714 0.423239 0.553255
0.935476 0.423001 0.681588
0.935241 0.422765 0.808774
0.935006 0.422531 0.935006
0.934865 0.422390 1.000000
0.934326 0.551867 0.013768
0.934065 0.551605 0.154752
0.933815 0.551355 0.289388
0.933571 0.551111 0.421096
0.933330 0.550870 0.550870
0.933092 0.550632 0.679204
0.932856 0.550397 0.806389
0.932622 0.550162 0.932622
0.932481 0.550021 1.000000
0.931969 0.678080 0.011410
0.931707 0.677819 0.152394
0.931457 0.677569 0.287030
0.931213 0.677325 0.418738
0.930972 0.677084 0.548513
0.930734 0.676846 0.676846
0.930498 0.676610 0.804031
0.930264 0.676376 0.930264
0.930123 0.676235 1.000000
0.929632 0.803165 0.009074
0.929370 0.802903 0.150057
0.929121 0.802654 0.284694
0.928876 0.802409 0.416401
0.928636 0.802169 0.546176
0.928398 0.801931 0.674509
0.928162 0.801695 0.801695
0.927928 0.801461 0.927928
0.927786 0.801319 1.000000
0.927313 0.927313 0.006754
0.927051 0.927051 0.147738
0.926801 0.926801 0.282374
0.926557 0.926557 0.414082
0.926316 0.926316 0.543857
0.926078 0.926078 0.672190
0.925842 0.925842 0.799376
0.925608 0.925608 0.925608
0.925467 0.925467 1.000000
0.925912 1.000000 0.005354
0.925651 1.000000 0.146338
0.925401 1.000000 0.280974
0.925157 1.000000 0.412682
0.924916 1.000000 0.542457
0.924678 1.000000 0.670790
0.924442 1.000000 0.797975
0.924208 1.000000 0.924208
0.924067 1.000000 1.000000
1.000000 0.023220 0.023220
1.000000 0.022958 0.164203
1.000000 0.022709 0.298840
1.000000 0.022464 0.430547
1.000000 0.022224 0.560322
1.000000 0.021986 0.688656
1.000000 0.021750 0.815841
1.000000 0.021516 0.942074
1.000000 0.021374 1.000000
1.000000 0.161875 0.020630
1.000000 0.161613 0.161613
1.000000 0.161364 0.296250
1.000000 0.161119 0.427957
1.000000 0.160879 0.557732
1.000000 0.160641 0.686065
1.000000 0.160405 0.813251
1.000000 0.160170 0.939484
1.000000 0.160029 1.000000
1.000000 0.294287 0.018156
1.000000 0.294026 0.159140
1.000000 0.293776 0.293776
1.000000 0.293532 0.425484
1.000000 0.293291 0.555258
1.000000 0.293053 0.683592
1.000000 0.292817 0.810777
1.000000 0.292583 0.937010
1.000000 0.292442 1.000000
1.000000 0.423819 0.015736
1.000000 0.423558 0.156720
1.000000 0.423308 0.291356
1.000000 0.423064 0.423064
1.000000 0.422823 0.552839
1.000000 0.422585 0.681172
1.000000 0.422349 0.808357
1.000000 0.422115 0.934590
1.000000 0.421974 1.000000
1.000000 0.551450 0.013352
1.000000 0.551189 0.154336
1.000000 0.550939 0.288972
1.000000 0.550695 0.420679
1.000000 0.550454 0.550454
1.000000 0.550216 0.678788
1.000000 0.549980 0.805973
1.000000 0.549746 0.932206
1.000000 0.549605 1.000000
1.000000 0.677664 0.010994
1.000000 0.677403 0.151978
1.000000 0.677153 0.286614
1.000000 0.676909 0.418322
1.000000 0.676668 0.548096
1.000000 0.676430 0.676430
1.000000 0.676194 0.803615
1.000000 0.675960 0.929848
1.000000 0.675818 1.000000
1.000000 0.802749 0.008657
1.000000 0.802487 0.149641
1.000000 0.802237 0.284277
1.000000 0.801993 0.415985
1.000000 0.801752 0.545760
1.000000 0.801514 0.674093
1.000000 0.801279 0.801279
1.000000 0.801044 0.927511
1.000000 0.800903 1.000000
1.000000 0.926896 0.006338
1.000000 0.926635 0.147322
1.000000 0.926385 0.281958
1.000000 0.926141 0.413666
1.000000 0.925900 0.543441
1.000000 0.925662 0.671774
1.000000 0.925426 0.798959
1.000000 0.925192 0.925192
1.000000 0.925051 1.000000
1.000000 1.000000 0.004938
1.000000 1.000000 0.145922
1.000000 1.000000 0.280558
1.000000 1.000000 0.412266
1.000000 1.000000 0.542040
1.000000 1.000000 0.670374
1.000000 1.000000 0.797559
1.000000 1.000000 0.923792
1.000000 1.000000 1.000000
