skills/clipper-orchestrator/assets/grade/luts/clean_bright_v11.cube
TITLE "clean_bright_v11"
LUT_3D_SIZE 5
DOMAIN_MIN 0.0 0.0 0.0
DOMAIN_MAX 1.0 1.0 1.0
0.028654 0.028654 0.028654
0.028143 0.028143 0.304274
0.027658 0.027658 0.565757
0.027184 0.027184 0.821275
0.026809 0.026809 1.000000
0.023590 0.299722 0.023590
0.023079 0.299211 0.299211
0.022594 0.298726 0.560693
0.022120 0.298252 0.816212
0.021745 0.297876 1.000000
0.018786 0.556885 0.018786
0.018275 0.556374 0.294406
0.017790 0.555889 0.555889
0.017316 0.555415 0.811408
0.016941 0.555039 1.000000
0.014092 0.808183 0.014092
0.013581 0.807672 0.289712
0.013096 0.807187 0.551194
0.012622 0.806713 0.806713
0.012246 0.806338 1.000000
0.010372 1.000000 0.010372
0.009861 1.000000 0.285993
0.009376 1.000000 0.547475
0.008902 1.000000 0.802994
0.008527 1.000000 1.000000
0.303280 0.027149 0.027149
0.302769 0.026638 0.302769
0.302284 0.026153 0.564251
0.301810 0.025679 0.819770
0.301435 0.025303 1.000000
0.298216 0.298216 0.022085
0.297705 0.297705 0.297705
0.297220 0.297220 0.559187
0.296746 0.296746 0.814706
0.296371 0.296371 1.000000
0.293412 0.555380 0.017281
0.292901 0.554868 0.292901
0.292416 0.554383 0.554383
0.291942 0.553909 0.809902
0.291567 0.553534 1.000000
0.288718 0.806678 0.012587
0.288207 0.806167 0.288207
0.287722 0.805682 0.549689
0.287248 0.805208 0.805208
0.286872 0.804832 1.000000
0.284999 1.000000 0.008867
0.284487 1.000000 0.284487
0.284002 1.000000 0.545970
0.283528 1.000000 0.801488
0.283153 1.000000 1.000000
0.563819 0.025721 0.025721
0.563308 0.025210 0.301341
0.562823 0.024725 0.562823
0.562349 0.024251 0.818342
0.561974 0.023875 1.000000
0.558756 0.296788 0.020657
0.558244 0.296277 0.296277
0.557759 0.295792 0.557759
0.557286 0.295318 0.813278
0.556910 0.294943 1.000000
0.553952 0.553952 0.015853
0.553440 0.553440 0.291473
0.552955 0.552955 0.552955
0.552481 0.552481 0.808474
0.552106 0.552106 1.000000
0.549257 0.805250 0.011158
0.548746 0.804739 0.286779
0.548261 0.804254 0.548261
0.547787 0.803780 0.803780
0.547411 0.803404 1.000000
0.545538 1.000000 0.007439
0.545026 1.000000 0.283059
0.544542 1.000000 0.544542
0.544068 1.000000 0.800060
0.543692 1.000000 1.000000
0.818417 0.024325 0.024325
0.817905 0.023814 0.299946
0.817421 0.023329 0.561428
0.816947 0.022855 0.816947
0.816571 0.022480 1.000000
0.813353 0.295393 0.019262
0.812842 0.294882 0.294882
0.812357 0.294397 0.556364
0.811883 0.293923 0.811883
0.811507 0.293547 1.000000
0.808549 0.552556 0.014457
0.808038 0.552045 0.290078
0.807553 0.551560 0.551560
0.807079 0.551086 0.807079
0.806703 0.550710 1.000000
0.803854 0.803854 0.009763
0.803343 0.803343 0.285383
0.802858 0.802858 0.546865
0.802384 0.802384 0.802384
0.802009 0.802009 1.000000
0.800135 1.000000 0.006044
0.799624 1.000000 0.281664
0.799139 1.000000 0.543146
0.798665 1.000000 0.798665
0.798289 1.000000 1.000000
1.000000 0.023220 0.023220
1.000000 0.022709 0.298840
1.000000 0.022224 0.560322
1.000000 0.021750 0.815841
1.000000 0.021374 1.000000
1.000000 0.294287 0.018156
1.000000 0.293776 0.293776
1.000000 0.293291 0.555258
1.000000 0.292817 0.810777
1.000000 0.292442 1.000000
1.000000 0.551450 0.013352
1.000000 0.550939 0.288972
1.000000 0.550454 0.550454
1.000000 0.549980 0.805973
1.000000 0.549605 1.000000
1.000000 0.802749 0.008657
1.000000 0.802237 0.284277
1.000000 0.801752 0.545760
1.000000 0.801279 0.801279
1.000000 0.800903 1.000000
1.000000 1.000000 0.004938
1.000000 1.000000 0.280558
1.000000 1.000000 0.542040
1.000000 1.000000 0.797559
1.000000 1.000000 1.000000
