skills/clipper-orchestrator/assets/grade/luts/clean_bright_v11.cube
TITLE "clean_bright_v11"
LUT_3D_SIZE 17
DOMAIN_MIN 0.0 0.0 0.0
DOMAIN_MAX 1.0 1.0 1.0
0.028654 0.028654 0.028654
0.028521 0.028521 0.100472
0.028393 0.028393 0.169638
0.028267 0.028267 0.237425
0.028143 0.028143 0.304274
0.028020 0.028020 0.370413
0.027899 0.027899 0.435982
0.027778 0.027778 0.501074
0.027658 0.027658 0.565757
0.027539 0.027539 0.630082
0.027420 0.027420 0.694090
0.027302 0.027302 0.757812
0.027184 0.027184 0.821275
0.027067 0.027067 0.884501
0.026950 0.026950 0.947508
0.026834 0.026834 1.000000
0.026809 0.026809 1.000000
0.027335 0.099286 0.027335
0.027202 0.099153 0.099153
0.027073 0.099025 0.168318
0.026948 0.098899 0.236106
0.026824 0.098775 0.302955
0.026701 0.098652 0.369094
0.026579 0.098531 0.434662
0.026459 0.098410 0.499754
0.026339 0.098290 0.564437
0.026219 0.098171 0.628763
0.026101 0.098052 0.692770
0.025982 0.097934 0.756493
0.025865 0.097816 0.819956
0.025747 0.097699 0.883182
0.025631 0.097582 0.946189
0.025514 0.097465 1.000000
0.025489 0.097440 1.000000
0.026064 0.167309 0.026064
0.025931 0.167176 0.097882
0.025803 0.167048 0.167048
0.025677 0.166922 0.234835
0.025553 0.166798 0.301684
0.025430 0.166675 0.367823
0.025309 0.166554 0.433392
0.025188 0.166433 0.498483
0.025068 0.166313 0.563166
0.024949 0.166194 0.627492
0.024830 0.166075 0.691500
0.024712 0.165957 0.755222
0.024594 0.165839 0.818685
0.024477 0.165722 0.881911
0.024360 0.165605 0.944918
0.024243 0.165488 1.000000
0.024218 0.165464 1.000000
0.024819 0.233977 0.024819
0.024685 0.233843 0.096637
0.024557 0.233715 0.165802
0.024431 0.233589 0.233589
0.024307 0.233465 0.300439
0.024185 0.233343 0.366578
0.024063 0.233221 0.432146
0.023942 0.233100 0.497238
0.023822 0.232980 0.561921
0.023703 0.232861 0.626246
0.023584 0.232742 0.690254
0.023466 0.232624 0.753977
0.023348 0.232507 0.817440
0.023231 0.232389 0.880666
0.023114 0.232272 0.943673
0.022998 0.232156 1.000000
0.022973 0.232131 1.000000
0.023590 0.299722 0.023590
0.023457 0.299588 0.095408
0.023329 0.299460 0.164574
0.023203 0.299334 0.232361
0.023079 0.299211 0.299211
0.022957 0.299088 0.365350
0.022835 0.298966 0.430918
0.022714 0.298845 0.496010
0.022594 0.298726 0.560693
0.022475 0.298606 0.625018
0.022356 0.298488 0.689026
0.022238 0.298369 0.752748
0.022120 0.298252 0.816212
0.022003 0.298134 0.879437
0.021886 0.298017 0.942444
0.021770 0.297901 1.000000
0.021745 0.297876 1.000000
0.022375 0.364768 0.022375
0.022242 0.364635 0.094193
0.022114 0.364507 0.163359
0.021988 0.364381 0.231146
0.021864 0.364257 0.297995
0.021741 0.364134 0.364134
0.021620 0.364013 0.429703
0.021499 0.363892 0.494795
0.021379 0.363772 0.559478
0.021260 0.363653 0.623803
0.021141 0.363534 0.687811
0.021023 0.363416 0.751533
0.020905 0.363298 0.814996
0.020788 0.363181 0.878222
0.020671 0.363064 0.941229
0.020555 0.362948 1.000000
0.020530 0.362923 1.000000
0.021171 0.429254 0.021171
0.021037 0.429120 0.092989
0.020909 0.428992 0.162154
0.020783 0.428866 0.229941
0.020659 0.428742 0.296791
0.020537 0.428620 0.362930
0.020415 0.428498 0.428498
0.020294 0.428377 0.493590
0.020174 0.428257 0.558273
0.020055 0.428138 0.622598
0.019936 0.428019 0.686606
0.019818 0.427901 0.750329
0.019701 0.427784 0.813792
0.019583 0.427666 0.877018
0.019466 0.427549 0.940025
0.019350 0.427433 1.000000
0.019325 0.427408 1.000000
0.019975 0.493270 0.019975
0.019841 0.493137 0.091793
0.019713 0.493009 0.160958
0.019587 0.492883 0.228746
0.019463 0.492759 0.295595
0.019341 0.492636 0.361734
0.019219 0.492515 0.427302
0.019098 0.492394 0.492394
0.018979 0.492274 0.557077
0.018859 0.492155 0.621403
0.018741 0.492036 0.685410
0.018622 0.491918 0.749133
0.018505 0.491800 0.812596
0.018387 0.491683 0.875822
0.018270 0.491566 0.938829
0.018154 0.491450 1.000000
0.018129 0.491425 1.000000
0.018786 0.556885 0.018786
0.018653 0.556752 0.090604
0.018525 0.556623 0.159770
0.018399 0.556498 0.227557
0.018275 0.556374 0.294406
0.018152 0.556251 0.360546
0.018031 0.556129 0.426114
0.017910 0.556009 0.491206
0.017790 0.555889 0.555889
0.017671 0.555769 0.620214
0.017552 0.555651 0.684222
0.017434 0.555532 0.747944
0.017316 0.555415 0.811408
0.017199 0.555297 0.874633
0.017082 0.555181 0.937640
0.016966 0.555064 1.000000
0.016941 0.555039 1.000000
0.017604 0.620148 0.017604
0.017471 0.620015 0.089423
0.017343 0.619886 0.158588
0.017217 0.619761 0.226375
0.017093 0.619637 0.293225
0.016971 0.619514 0.359364
0.016849 0.619392 0.424932
0.016728 0.619272 0.490024
0.016608 0.619152 0.554707
0.016489 0.619032 0.619032
0.016370 0.618914 0.683040
0.016252 0.618795 0.746763
0.016134 0.618678 0.810226
0.016017 0.618560 0.873451
0.015900 0.618444 0.936458
0.015784 0.618327 0.999263
0.015759 0.618302 1.000000
0.016429 0.683098 0.016429
0.016295 0.682965 0.088247
0.016167 0.682837 0.157412
0.016041 0.682711 0.225199
0.015917 0.682587 0.292049
0.015795 0.682465 0.358188
0.015673 0.682343 0.423756
0.015552 0.682222 0.488848
0.015432 0.682102 0.553531
0.015313 0.681983 0.617856
0.015194 0.681864 0.681864
0.015076 0.681746 0.745587
0.014958 0.681628 0.809050
0.014841 0.681511 0.872275
0.014724 0.681394 0.935283
0.014608 0.681278 0.998087
0.014583 0.681253 1.000000
0.015258 0.745768 0.015258
0.015125 0.745635 0.087076
0.014996 0.745507 0.156241
0.014871 0.745381 0.224029
0.014747 0.745257 0.290878
0.014624 0.745134 0.357017
0.014502 0.745013 0.422585
0.014382 0.744892 0.487677
0.014262 0.744772 0.552360
0.014142 0.744653 0.616686
0.014024 0.744534 0.680694
0.013905 0.744416 0.744416
0.013788 0.744298 0.807879
0.013670 0.744181 0.871105
0.013554 0.744064 0.934112
0.013437 0.743948 0.996916
0.013412 0.743923 1.000000
0.014092 0.808183 0.014092
0.013959 0.808050 0.085910
0.013830 0.807922 0.155075
0.013705 0.807796 0.222863
0.013581 0.807672 0.289712
0.013458 0.807549 0.355851
0.013336 0.807428 0.421419
0.013216 0.807307 0.486511
0.013096 0.807187 0.551194
0.012976 0.807068 0.615520
0.012858 0.806949 0.679528
0.012739 0.806831 0.743250
0.012622 0.806713 0.806713
0.012504 0.806596 0.869939
0.012388 0.806479 0.932946
0.012271 0.806362 0.995750
0.012246 0.806338 1.000000
0.012930 0.870365 0.012930
0.012797 0.870231 0.084748
0.012669 0.870103 0.153914
0.012543 0.869977 0.221701
0.012419 0.869853 0.288550
0.012296 0.869731 0.354689
0.012175 0.869609 0.420258
0.012054 0.869488 0.485350
0.011934 0.869368 0.550033
0.011815 0.869249 0.614358
0.011696 0.869130 0.678366
0.011578 0.869012 0.742088
0.011460 0.868894 0.805551
0.011343 0.868777 0.868777
0.011226 0.868660 0.931784
0.011109 0.868544 0.994588
0.011085 0.868519 1.000000
0.011773 0.932331 0.011773
0.011639 0.932198 0.083591
0.011511 0.932069 0.152756
0.011385 0.931944 0.220543
0.011261 0.931820 0.287393
0.011139 0.931697 0.353532
0.011017 0.931575 0.419100
0.010896 0.931455 0.484192
0.010776 0.931335 0.548875
0.010657 0.931215 0.613200
0.010538 0.931097 0.677208
0.010420 0.930978 0.740931
0.010302 0.930861 0.804394
0.010185 0.930743 0.867620
0.010068 0.930627 0.930627
0.009952 0.930510 0.993431
0.009927 0.930485 1.000000
0.010619 0.994098 0.010619
0.010486 0.993964 0.082437
0.010357 0.993836 0.151602
0.010232 0.993710 0.219390
0.010108 0.993586 0.286239
0.009985 0.993464 0.352378
0.009863 0.993342 0.417946
0.009743 0.993221 0.483038
0.009623 0.993101 0.547721
0.009503 0.992982 0.612047
0.009385 0.992863 0.676054
0.009266 0.992745 0.739777
0.009149 0.992628 0.803240
0.009031 0.992510 0.866466
0.008915 0.992393 0.929473
0.008798 0.992277 0.992277
0.008773 0.992252 1.000000
0.010372 1.000000 0.010372
0.010239 1.000000 0.082191
0.010111 1.000000 0.151356
0.009985 1.000000 0.219143
0.009861 1.000000 0.285993
0.009739 1.000000 0.352132
0.009617 1.000000 0.417700
0.009496 1.000000 0.482792
0.009376 1.000000 0.547475
0.009257 1.000000 0.611800
0.009138 1.000000 0.675808
0.009020 1.000000 0.739531
0.008902 1.000000 0.802994
0.008785 1.000000 0.866219
0.008668 1.000000 0.929226
0.008552 1.000000 0.992031
0.008527 1.000000 1.000000
0.100213 0.028262 0.028262
0.100080 0.028129 0.100080
0.099952 0.028000 0.169246
0.099826 0.027875 0.237033
0.099702 0.027751 0.303882
0.099579 0.027628 0.370021
0.099458 0.027507 0.435590
0.099337 0.027386 0.500681
0.099217 0.027266 0.565364
0.099098 0.027147 0.629690
0.098979 0.027028 0.693698
0.098861 0.026910 0.757420
0.098743 0.026792 0.820883
0.098626 0.026675 0.884109
0.098509 0.026558 0.947116
0.098393 0.026441 1.000000
0.098368 0.026416 1.000000
0.098894 0.098894 0.026943
0.098761 0.098761 0.098761
0.098632 0.098632 0.167926
0.098507 0.098507 0.235713
0.098383 0.098383 0.302563
0.098260 0.098260 0.368702
0.098138 0.098138 0.434270
0.098018 0.098018 0.499362
0.097898 0.097898 0.564045
0.097778 0.097778 0.628370
0.097660 0.097660 0.692378
0.097541 0.097541 0.756101
0.097424 0.097424 0.819564
0.097306 0.097306 0.882789
0.097190 0.097190 0.945797
0.097073 0.097073 1.000000
0.097048 0.097048 1.000000
0.097623 0.166917 0.025672
0.097490 0.166784 0.097490
0.097362 0.166655 0.166655
0.097236 0.166530 0.234443
0.097112 0.166406 0.301292
0.096989 0.166283 0.367431
0.096868 0.166161 0.432999
0.096747 0.166041 0.498091
0.096627 0.165921 0.562774
0.096508 0.165801 0.627100
0.096389 0.165683 0.691108
0.096271 0.165565 0.754830
0.096153 0.165447 0.818293
0.096036 0.165330 0.881519
0.095919 0.165213 0.944526
0.095802 0.165096 1.000000
0.095778 0.165071 1.000000
0.096378 0.233584 0.024426
0.096244 0.233451 0.096244
0.096116 0.233323 0.165410
0.095990 0.233197 0.233197
0.095866 0.233073 0.300046
0.095744 0.232951 0.366186
0.095622 0.232829 0.431754
0.095501 0.232708 0.496846
0.095381 0.232588 0.561529
0.095262 0.232469 0.625854
0.095143 0.232350 0.689862
0.095025 0.232232 0.753584
0.094908 0.232114 0.817048
0.094790 0.231997 0.880273
0.094673 0.231880 0.943280
0.094557 0.231764 1.000000
0.094532 0.231739 1.000000
0.095149 0.299329 0.023198
0.095016 0.299196 0.095016
0.094888 0.299068 0.164182
0.094762 0.298942 0.231969
0.094638 0.298818 0.298818
0.094516 0.298696 0.364957
0.094394 0.298574 0.430526
0.094273 0.298453 0.495617
0.094153 0.298333 0.560301
0.094034 0.298214 0.624626
0.093915 0.298095 0.688634
0.093797 0.297977 0.752356
0.093679 0.297859 0.815819
0.093562 0.297742 0.879045
0.093445 0.297625 0.942052
0.093329 0.297509 1.000000
0.093304 0.297484 1.000000
0.093934 0.364376 0.021983
0.093801 0.364243 0.093801
0.093673 0.364115 0.162967
0.093547 0.363989 0.230754
0.093423 0.363865 0.297603
0.093300 0.363742 0.363742
0.093179 0.363621 0.429311
0.093058 0.363500 0.494402
0.092938 0.363380 0.559085
0.092819 0.363261 0.623411
0.092700 0.363142 0.687419
0.092582 0.363024 0.751141
0.092464 0.362906 0.814604
0.092347 0.362789 0.877830
0.092230 0.362672 0.940837
0.092114 0.362555 1.000000
0.092089 0.362531 1.000000
0.092730 0.428861 0.020778
0.092596 0.428728 0.092596
0.092468 0.428600 0.161762
0.092342 0.428474 0.229549
0.092218 0.428350 0.296398
0.092096 0.428228 0.362538
0.091974 0.428106 0.428106
0.091853 0.427985 0.493198
0.091734 0.427865 0.557881
0.091614 0.427746 0.622206
0.091495 0.427627 0.686214
0.091377 0.427509 0.749936
0.091260 0.427391 0.813400
0.091142 0.427274 0.876625
0.091025 0.427157 0.939632
0.090909 0.427041 1.000000
0.090884 0.427016 1.000000
0.091534 0.492878 0.019582
0.091401 0.492745 0.091401
0.091272 0.492617 0.160566
0.091147 0.492491 0.228353
0.091023 0.492367 0.295203
0.090900 0.492244 0.361342
0.090778 0.492123 0.426910
0.090658 0.492002 0.492002
0.090538 0.491882 0.556685
0.090418 0.491763 0.621010
0.090300 0.491644 0.685018
0.090181 0.491526 0.748741
0.090064 0.491408 0.812204
0.089946 0.491291 0.875429
0.089830 0.491174 0.938436
0.089713 0.491057 1.000000
0.089688 0.491032 1.000000
0.090345 0.556493 0.018394
0.090212 0.556359 0.090212
0.090084 0.556231 0.159378
0.089958 0.556105 0.227165
0.089834 0.555981 0.294014
0.089712 0.555859 0.360153
0.089590 0.555737 0.425722
0.089469 0.555616 0.490813
0.089349 0.555496 0.555496
0.089230 0.555377 0.619822
0.089111 0.555258 0.683830
0.088993 0.555140 0.747552
0.088875 0.555023 0.811015
0.088758 0.554905 0.874241
0.088641 0.554788 0.937248
0.088525 0.554672 1.000000
0.088500 0.554647 1.000000
0.089164 0.619756 0.017212
0.089030 0.619622 0.089030
0.088902 0.619494 0.158196
0.088776 0.619368 0.225983
0.088652 0.619244 0.292832
0.088530 0.619122 0.358971
0.088408 0.619000 0.424540
0.088287 0.618879 0.489632
0.088167 0.618759 0.554315
0.088048 0.618640 0.618640
0.087929 0.618521 0.682648
0.087811 0.618403 0.746370
0.087693 0.618286 0.809833
0.087576 0.618168 0.873059
0.087459 0.618051 0.936066
0.087343 0.617935 0.998870
0.087318 0.617910 1.000000
0.087988 0.682706 0.016036
0.087854 0.682573 0.087854
0.087726 0.682445 0.157020
0.087600 0.682319 0.224807
0.087476 0.682195 0.291656
0.087354 0.682072 0.357795
0.087232 0.681951 0.423364
0.087111 0.681830 0.488456
0.086991 0.681710 0.553139
0.086872 0.681591 0.617464
0.086753 0.681472 0.681472
0.086635 0.681354 0.745194
0.086518 0.681236 0.808657
0.086400 0.681119 0.871883
0.086283 0.681002 0.934890
0.086167 0.680886 0.997694
0.086142 0.680861 1.000000
0.086817 0.745376 0.014866
0.086684 0.745243 0.086684
0.086555 0.745115 0.155849
0.086430 0.744989 0.223636
0.086306 0.744865 0.290486
0.086183 0.744742 0.356625
0.086061 0.744621 0.422193
0.085941 0.744500 0.487285
0.085821 0.744380 0.551968
0.085701 0.744261 0.616293
0.085583 0.744142 0.680301
0.085464 0.744024 0.744024
0.085347 0.743906 0.807487
0.085229 0.743789 0.870713
0.085113 0.743672 0.933720
0.084996 0.743555 0.996524
0.084971 0.743530 1.000000
0.085651 0.807791 0.013700
0.085518 0.807658 0.085518
0.085389 0.807529 0.154683
0.085264 0.807404 0.222470
0.085140 0.807280 0.289320
0.085017 0.807157 0.355459
0.084895 0.807035 0.421027
0.084775 0.806915 0.486119
0.084655 0.806795 0.550802
0.084535 0.806675 0.615127
0.084417 0.806557 0.679135
0.084298 0.806438 0.742858
0.084181 0.806321 0.806321
0.084064 0.806204 0.869547
0.083947 0.806087 0.932554
0.083830 0.805970 0.995358
0.083805 0.805945 1.000000
0.084489 0.869972 0.012538
0.084356 0.869839 0.084356
0.084228 0.869711 0.153522
0.084102 0.869585 0.221309
0.083978 0.869461 0.288158
0.083855 0.869338 0.354297
0.083734 0.869217 0.419866
0.083613 0.869096 0.484957
0.083493 0.868976 0.549640
0.083374 0.868857 0.613966
0.083255 0.868738 0.677974
0.083137 0.868620 0.741696
0.083019 0.868502 0.805159
0.082902 0.868385 0.868385
0.082785 0.868268 0.931392
0.082669 0.868152 0.994196
0.082644 0.868127 1.000000
0.083332 0.931939 0.011380
0.083198 0.931805 0.083198
0.083070 0.931677 0.152364
0.082944 0.931551 0.220151
0.082820 0.931427 0.287000
0.082698 0.931305 0.353140
0.082576 0.931183 0.418708
0.082455 0.931062 0.483800
0.082335 0.930942 0.548483
0.082216 0.930823 0.612808
0.082097 0.930704 0.676816
0.081979 0.930586 0.740538
0.081862 0.930468 0.804002
0.081744 0.930351 0.867227
0.081627 0.930234 0.930234
0.081511 0.930118 0.993039
0.081486 0.930093 1.000000
0.082178 0.993705 0.010226
0.082045 0.993572 0.082045
0.081916 0.993444 0.151210
0.081791 0.993318 0.218997
0.081667 0.993194 0.285847
0.081544 0.993072 0.351986
0.081422 0.992950 0.417554
0.081302 0.992829 0.482646
0.081182 0.992709 0.547329
0.081062 0.992590 0.611654
0.080944 0.992471 0.675662
0.080825 0.992353 0.739385
0.080708 0.992235 0.802848
0.080590 0.992118 0.866073
0.080474 0.992001 0.929080
0.080357 0.991885 0.991885
0.080332 0.991860 1.000000
0.081932 1.000000 0.009980
0.081798 1.000000 0.081798
0.081670 1.000000 0.150964
0.081544 1.000000 0.218751
0.081420 1.000000 0.285600
0.081298 1.000000 0.351739
0.081176 1.000000 0.417308
0.081055 1.000000 0.482400
0.080935 1.000000 0.547083
0.080816 1.000000 0.611408
0.080697 1.000000 0.675416
0.080579 1.000000 0.739138
0.080461 1.000000 0.802601
0.080344 1.000000 0.865827
0.080227 1.000000 0.928834
0.080111 1.000000 0.991638
0.080086 1.000000 1.000000
0.169129 0.027884 0.027884
0.168996 0.027751 0.099702
0.168868 0.027623 0.168868
0.168742 0.027497 0.236655
0.168618 0.027373 0.303504
0.168496 0.027250 0.369643
0.168374 0.027129 0.435212
0.168253 0.027008 0.500304
0.168133 0.026888 0.564987
0.168014 0.026769 0.629312
0.167895 0.026650 0.693320
0.167777 0.026532 0.757042
0.167659 0.026414 0.820505
0.167542 0.026297 0.883731
0.167425 0.026180 0.946738
0.167309 0.026064 1.000000
0.167284 0.026039 1.000000
0.167810 0.098516 0.026565
0.167677 0.098383 0.098383
0.167548 0.098255 0.167548
0.167423 0.098129 0.235336
0.167299 0.098005 0.302185
0.167176 0.097882 0.368324
0.167054 0.097761 0.433892
0.166934 0.097640 0.498984
0.166814 0.097520 0.563667
0.166694 0.097401 0.627993
0.166576 0.097282 0.692001
0.166458 0.097164 0.755723
0.166340 0.097046 0.819186
0.166223 0.096929 0.882412
0.166106 0.096812 0.945419
0.165989 0.096695 1.000000
0.165964 0.096671 1.000000
0.166539 0.166539 0.025294
0.166406 0.166406 0.097112
0.166278 0.166278 0.166278
0.166152 0.166152 0.234065
0.166028 0.166028 0.300914
0.165905 0.165905 0.367053
0.165784 0.165784 0.432622
0.165663 0.165663 0.497713
0.165543 0.165543 0.562396
0.165424 0.165424 0.626722
0.165305 0.165305 0.690730
0.165187 0.165187 0.754452
0.165069 0.165069 0.817915
0.164952 0.164952 0.881141
0.164835 0.164835 0.944148
0.164718 0.164718 1.000000
0.164694 0.164694 1.000000
0.165294 0.233207 0.024049
0.165161 0.233073 0.095867
0.165032 0.232945 0.165032
0.164907 0.232819 0.232819
0.164783 0.232695 0.299669
0.164660 0.232573 0.365808
0.164538 0.232451 0.431376
0.164418 0.232330 0.496468
0.164298 0.232210 0.561151
0.164178 0.232091 0.625476
0.164060 0.231972 0.689484
0.163941 0.231854 0.753207
0.163824 0.231737 0.816670
0.163706 0.231619 0.879896
0.163590 0.231502 0.942903
0.163473 0.231386 1.000000
0.163448 0.231361 1.000000
0.164066 0.298952 0.022820
0.163932 0.298819 0.094639
0.163804 0.298690 0.163804
0.163678 0.298565 0.231591
0.163554 0.298441 0.298441
0.163432 0.298318 0.364580
0.163310 0.298196 0.430148
0.163189 0.298076 0.495240
0.163069 0.297956 0.559923
0.162950 0.297836 0.624248
0.162831 0.297718 0.688256
0.162713 0.297599 0.751979
0.162595 0.297482 0.815442
0.162478 0.297364 0.878667
0.162361 0.297248 0.941674
0.162245 0.297131 1.000000
0.162220 0.297106 1.000000
0.162850 0.363998 0.021605
0.162717 0.363865 0.093423
0.162589 0.363737 0.162589
0.162463 0.363611 0.230376
0.162339 0.363487 0.297225
0.162217 0.363364 0.363364
0.162095 0.363243 0.428933
0.161974 0.363122 0.494025
0.161854 0.363002 0.558708
0.161735 0.362883 0.623033
0.161616 0.362764 0.687041
0.161498 0.362646 0.750763
0.161380 0.362528 0.814226
0.161263 0.362411 0.877452
0.161146 0.362294 0.940459
0.161030 0.362178 1.000000
0.161005 0.362153 1.000000
0.161646 0.428484 0.020401
0.161513 0.428350 0.092219
0.161384 0.428222 0.161384
0.161259 0.428096 0.229171
0.161135 0.427972 0.296021
0.161012 0.427850 0.362160
0.160890 0.427728 0.427728
0.160770 0.427607 0.492820
0.160650 0.427487 0.557503
0.160530 0.427368 0.621828
0.160412 0.427249 0.685836
0.160293 0.427131 0.749559
0.160176 0.427014 0.813022
0.160058 0.426896 0.876248
0.159942 0.426779 0.939255
0.159825 0.426663 1.000000
0.159800 0.426638 1.000000
0.160450 0.492500 0.019205
0.160317 0.492367 0.091023
0.160188 0.492239 0.160188
0.160063 0.492113 0.227976
0.159939 0.491989 0.294825
0.159816 0.491866 0.360964
0.159694 0.491745 0.426532
0.159574 0.491624 0.491624
0.159454 0.491504 0.556307
0.159334 0.491385 0.620633
0.159216 0.491266 0.684640
0.159097 0.491148 0.748363
0.158980 0.491030 0.811826
0.158863 0.490913 0.875052
0.158746 0.490796 0.938059
0.158629 0.490680 1.000000
0.158604 0.490655 1.000000
0.159261 0.556115 0.018016
0.159128 0.555982 0.089834
0.159000 0.555853 0.159000
0.158874 0.555728 0.226787
0.158750 0.555604 0.293636
0.158628 0.555481 0.359776
0.158506 0.555359 0.425344
0.158385 0.555239 0.490436
0.158265 0.555119 0.555119
0.158146 0.554999 0.619444
0.158027 0.554881 0.683452
0.157909 0.554763 0.747174
0.157791 0.554645 0.810638
0.157674 0.554528 0.873863
0.157557 0.554411 0.936870
0.157441 0.554294 0.999675
0.157416 0.554269 1.000000
0.158080 0.619378 0.016835
0.157946 0.619245 0.088653
0.157818 0.619116 0.157818
0.157692 0.618991 0.225605
0.157568 0.618867 0.292455
0.157446 0.618744 0.358594
0.157324 0.618622 0.424162
0.157203 0.618502 0.489254
0.157083 0.618382 0.553937
0.156964 0.618262 0.618262
0.156845 0.618144 0.682270
0.156727 0.618025 0.745993
0.156610 0.617908 0.809456
0.156492 0.617790 0.872682
0.156375 0.617674 0.935689
0.156259 0.617557 0.998493
0.156234 0.617532 1.000000
0.156904 0.682328 0.015659
0.156770 0.682195 0.087477
0.156642 0.682067 0.156642
0.156516 0.681941 0.224429
0.156392 0.681817 0.291279
0.156270 0.681695 0.357418
0.156148 0.681573 0.422986
0.156027 0.681452 0.488078
0.155908 0.681332 0.552761
0.155788 0.681213 0.617086
0.155669 0.681094 0.681094
0.155551 0.680976 0.744817
0.155434 0.680858 0.808280
0.155316 0.680741 0.871506
0.155199 0.680624 0.934513
0.155083 0.680508 0.997317
0.155058 0.680483 1.000000
0.155733 0.744998 0.014488
0.155600 0.744865 0.086306
0.155471 0.744737 0.155471
0.155346 0.744611 0.223259
0.155222 0.744487 0.290108
0.155099 0.744364 0.356247
0.154977 0.744243 0.421815
0.154857 0.744122 0.486907
0.154737 0.744002 0.551590
0.154617 0.743883 0.615916
0.154499 0.743764 0.679924
0.154381 0.743646 0.743646
0.154263 0.743528 0.807109
0.154146 0.743411 0.870335
0.154029 0.743294 0.933342
0.153912 0.743178 0.996146
0.153887 0.743153 1.000000
0.154567 0.807413 0.013322
0.154434 0.807280 0.085140
0.154305 0.807152 0.154305
0.154180 0.807026 0.222093
0.154056 0.806902 0.288942
0.153933 0.806779 0.355081
0.153811 0.806658 0.420649
0.153691 0.806537 0.485741
0.153571 0.806417 0.550424
0.153451 0.806298 0.614750
0.153333 0.806179 0.678758
0.153215 0.806061 0.742480
0.153097 0.805943 0.805943
0.152980 0.805826 0.869169
0.152863 0.805709 0.932176
0.152746 0.805592 0.994980
0.152721 0.805568 1.000000
0.153405 0.869595 0.012160
0.153272 0.869461 0.083978
0.153144 0.869333 0.153144
0.153018 0.869207 0.220931
0.152894 0.869083 0.287780
0.152771 0.868961 0.353919
0.152650 0.868839 0.419488
0.152529 0.868718 0.484580
0.152409 0.868598 0.549263
0.152290 0.868479 0.613588
0.152171 0.868360 0.677596
0.152053 0.868242 0.741318
0.151935 0.868124 0.804781
0.151818 0.868007 0.868007
0.151701 0.867890 0.931014
0.151585 0.867774 0.993818
0.151560 0.867749 1.000000
0.152248 0.931561 0.011003
0.152115 0.931428 0.082821
0.151986 0.931299 0.151986
0.151861 0.931174 0.219773
0.151737 0.931050 0.286623
0.151614 0.930927 0.352762
0.151492 0.930805 0.418330
0.151372 0.930685 0.483422
0.151252 0.930565 0.548105
0.151132 0.930445 0.612430
0.151014 0.930327 0.676438
0.150895 0.930208 0.740161
0.150778 0.930091 0.803624
0.150660 0.929973 0.866850
0.150544 0.929857 0.929857
0.150427 0.929740 0.992661
0.150402 0.929715 1.000000
0.151094 0.993328 0.009849
0.150961 0.993194 0.081667
0.150832 0.993066 0.150832
0.150707 0.992940 0.218620
0.150583 0.992816 0.285469
0.150460 0.992694 0.351608
0.150338 0.992572 0.417176
0.150218 0.992451 0.482268
0.150098 0.992331 0.546951
0.149978 0.992212 0.611277
0.149860 0.992093 0.675284
0.149742 0.991975 0.739007
0.149624 0.991858 0.802470
0.149507 0.991740 0.865696
0.149390 0.991623 0.928703
0.149273 0.991507 0.991507
0.149248 0.991482 1.000000
0.150848 1.000000 0.009602
0.150714 1.000000 0.081421
0.150586 1.000000 0.150586
0.150460 1.000000 0.218373
0.150336 1.000000 0.285223
0.150214 1.000000 0.351362
0.150092 1.000000 0.416930
0.149971 1.000000 0.482022
0.149851 1.000000 0.546705
0.149732 1.000000 0.611030
0.149613 1.000000 0.675038
0.149495 1.000000 0.738761
0.149378 1.000000 0.802224
0.149260 1.000000 0.865449
0.149143 1.000000 0.928456
0.149027 1.000000 0.991261
0.149002 1.000000 1.000000
0.236672 0.027514 0.027514
0.236539 0.027381 0.099332
0.236411 0.027253 0.168498
0.236285 0.027127 0.236285
0.236161 0.027003 0.303134
0.236038 0.026880 0.369273
0.235917 0.026759 0.434842
0.235796 0.026638 0.499933
0.235676 0.026518 0.564616
0.235557 0.026399 0.628942
0.235438 0.026280 0.692950
0.235320 0.026162 0.756672
0.235202 0.026044 0.820135
0.235085 0.025927 0.883361
0.234968 0.025810 0.946368
0.234851 0.025693 1.000000
0.234827 0.025668 1.000000
0.235353 0.098146 0.026195
