skills/clipper-orchestrator/assets/grade/luts/moody_teal_v20.cube
TITLE "moody_teal_v20"
LUT_3D_SIZE 9
DOMAIN_MIN 0.0 0.0 0.0
DOMAIN_MAX 1.0 1.0 1.0
0.000000 0.000000 0.000000
0.001233 0.001233 0.090910
0.002736 0.002736 0.201676
0.004306 0.004306 0.317400
0.005920 0.005920 0.436407
0.007568 0.007568 0.557896
0.009244 0.009244 0.681392
0.010942 0.010942 0.806578
0.011552 0.011552 0.851552
0.005482 0.045724 0.005482
0.006715 0.046958 0.096392
0.008218 0.048460 0.207158
0.009788 0.050030 0.322882
0.011402 0.051645 0.441889
0.013050 0.053293 0.563379
0.014726 0.054968 0.686875
0.016424 0.056666 0.812060
0.017034 0.057276 0.857034
0.019850 0.165561 0.019850
0.021083 0.166794 0.110760
0.022586 0.168297 0.221526
0.024156 0.169867 0.337250
0.025770 0.171481 0.456257
0.027418 0.173129 0.577746
0.029094 0.174804 0.701242
0.030792 0.176503 0.826428
0.031402 0.177113 0.871402
0.035123 0.292950 0.035123
0.036357 0.294183 0.126033
0.037859 0.295686 0.236799
0.039429 0.297256 0.352523
0.041044 0.298870 0.471530
0.042692 0.300518 0.593020
0.044367 0.302194 0.716516
0.046065 0.303892 0.841701
0.046675 0.304502 0.886675
0.050922 0.424716 0.050922
0.052155 0.425950 0.141831
0.053657 0.427452 0.252598
0.055227 0.429022 0.368322
0.056842 0.430637 0.487329
0.058490 0.432285 0.608818
0.060165 0.433960 0.732314
0.061863 0.435658 0.857499
0.062474 0.436268 0.902474
0.067097 0.559630 0.067097
0.068330 0.560864 0.158007
0.069833 0.562366 0.268773
0.071403 0.563936 0.384497
0.073017 0.565551 0.503504
0.074665 0.567199 0.624994
0.076341 0.568874 0.748490
0.078039 0.570572 0.873675
0.078649 0.571182 0.918649
0.083569 0.697020 0.083569
0.084803 0.698253 0.174479
0.086305 0.699756 0.285245
0.087875 0.701326 0.400970
0.089490 0.702940 0.519976
0.091138 0.704588 0.641466
0.092813 0.706263 0.764962
0.094511 0.707962 0.890147
0.095121 0.708572 0.935121
0.100287 0.836457 0.100287
0.101521 0.837690 0.191197
0.103023 0.839193 0.301963
0.104593 0.840763 0.417687
0.106208 0.842377 0.536694
0.107856 0.844026 0.658184
0.109531 0.845701 0.781680
0.111229 0.847399 0.906865
0.111839 0.848009 0.951839
0.114432 0.954432 0.114432
0.115665 0.955665 0.205342
0.117168 0.957168 0.316108
0.118738 0.958738 0.431832
0.120352 0.960352 0.550839
0.122000 0.962000 0.672328
0.123676 0.963676 0.795824
0.125374 0.965374 0.921010
0.125984 0.965984 0.965984
0.000000 0.000000 0.000000
0.001233 0.001233 0.090910
0.002736 0.002736 0.201676
0.004306 0.004306 0.317400
0.005920 0.005920 0.436407
0.007568 0.007568 0.557896
0.009244 0.009244 0.681392
0.010942 0.010942 0.806578
0.011552 0.011552 0.851552
0.005482 0.045724 0.005482
0.006715 0.046958 0.096392
0.008218 0.048460 0.207158
0.009788 0.050030 0.322882
0.011402 0.051645 0.441889
0.013050 0.053293 0.563379
0.014726 0.054968 0.686875
0.016424 0.056666 0.812060
0.017034 0.057276 0.857034
0.019850 0.165561 0.019850
0.021083 0.166794 0.110760
0.022586 0.168297 0.221526
0.024156 0.169867 0.337250
0.025770 0.171481 0.456257
0.027418 0.173129 0.577746
0.029094 0.174804 0.701242
0.030792 0.176503 0.826428
0.031402 0.177113 0.871402
0.035123 0.292950 0.035123
0.036357 0.294183 0.126033
0.037859 0.295686 0.236799
0.039429 0.297256 0.352523
0.041044 0.298870 0.471530
0.042692 0.300518 0.593020
0.044367 0.302194 0.716516
0.046065 0.303892 0.841701
0.046675 0.304502 0.886675
0.050922 0.424716 0.050922
0.052155 0.425950 0.141831
0.053657 0.427452 0.252598
0.055227 0.429022 0.368322
0.056842 0.430637 0.487329
0.058490 0.432285 0.608818
0.060165 0.433960 0.732314
0.061863 0.435658 0.857499
0.062474 0.436268 0.902474
0.067097 0.559630 0.067097
0.068330 0.560864 0.158007
0.069833 0.562366 0.268773
0.071403 0.563936 0.384497
0.073017 0.565551 0.503504
0.074665 0.567199 0.624994
0.076341 0.568874 0.748490
0.078039 0.570572 0.873675
0.078649 0.571182 0.918649
0.083569 0.697020 0.083569
0.084803 0.698253 0.174479
0.086305 0.699756 0.285245
0.087875 0.701326 0.400970
0.089490 0.702940 0.519976
0.091138 0.704588 0.641466
0.092813 0.706263 0.764962
0.094511 0.707962 0.890147
0.095121 0.708572 0.935121
0.100287 0.836457 0.100287
0.101521 0.837690 0.191197
0.103023 0.839193 0.301963
0.104593 0.840763 0.417687
0.106208 0.842377 0.536694
0.107856 0.844026 0.658184
0.109531 0.845701 0.781680
0.111229 0.847399 0.906865
0.111839 0.848009 0.951839
0.114432 0.954432 0.114432
0.115665 0.955665 0.205342
0.117168 0.957168 0.316108
0.118738 0.958738 0.431832
0.120352 0.960352 0.550839
0.122000 0.962000 0.672328
0.123676 0.963676 0.795824
0.125374 0.965374 0.921010
0.125984 0.965984 0.965984
0.097715 0.003803 0.003803
0.098948 0.005036 0.094713
0.100450 0.006539 0.205479
0.102020 0.008109 0.321203
0.103635 0.009723 0.440210
0.105283 0.011371 0.561699
0.106958 0.013047 0.685195
0.108656 0.014745 0.810381
0.109267 0.015355 0.855355
0.103197 0.049527 0.009285
0.104430 0.050761 0.100195
0.105933 0.052263 0.210961
0.107502 0.053833 0.326685
0.109117 0.055448 0.445692
0.110765 0.057096 0.567182
0.112440 0.058771 0.690678
0.114139 0.060469 0.815863
0.114749 0.061079 0.860837
0.117565 0.169364 0.023653
0.118798 0.170597 0.114563
0.120300 0.172100 0.225329
0.121870 0.173670 0.341053
0.123485 0.175284 0.460060
0.125133 0.176932 0.581549
0.126808 0.178607 0.705045
0.128506 0.180306 0.830230
0.129117 0.180916 0.875205
0.132838 0.296753 0.038926
0.134071 0.297986 0.129836
0.135574 0.299489 0.240602
0.137144 0.301059 0.356326
0.138758 0.302673 0.475333
0.140406 0.304321 0.596823
0.142082 0.305997 0.720319
0.143780 0.307695 0.845504
0.144390 0.308305 0.890478
0.148636 0.428519 0.054725
0.149869 0.429753 0.145634
0.151372 0.431255 0.256401
0.152942 0.432825 0.372125
0.154556 0.434440 0.491132
0.156204 0.436088 0.612621
0.157880 0.437763 0.736117
0.159578 0.439461 0.861302
0.160188 0.440071 0.906277
0.164812 0.563433 0.070900
0.166045 0.564667 0.161810
0.167548 0.566169 0.272576
0.169117 0.567739 0.388300
0.170732 0.569353 0.507307
0.172380 0.571002 0.628797
0.174055 0.572677 0.752293
0.175754 0.574375 0.877478
0.176364 0.574985 0.922452
0.181284 0.700823 0.087372
0.182517 0.702056 0.178282
0.184020 0.703559 0.289048
0.185590 0.705129 0.404773
0.187204 0.706743 0.523779
0.188852 0.708391 0.645269
0.190528 0.710066 0.768765
0.192226 0.711765 0.893950
0.192836 0.712375 0.938924
0.198002 0.840260 0.104090
0.199235 0.841493 0.195000
0.200738 0.842996 0.305766
0.202308 0.844566 0.421490
0.203922 0.846180 0.540497
0.205570 0.847828 0.661987
0.207246 0.849504 0.785483
0.208944 0.851202 0.910668
0.209554 0.851812 0.955642
0.212147 0.958235 0.118235
0.213380 0.959468 0.209145
0.214882 0.960971 0.319911
0.216452 0.962541 0.435635
0.218067 0.964155 0.554642
0.219715 0.965803 0.676131
0.221390 0.967479 0.799627
0.223088 0.969177 0.924813
0.223699 0.969787 0.969787
0.211666 0.008238 0.008238
0.212900 0.009471 0.099148
0.214402 0.010974 0.209914
0.215972 0.012544 0.325638
0.217587 0.014158 0.444645
0.219235 0.015806 0.566134
0.220910 0.017482 0.689630
0.222608 0.019180 0.814815
0.223218 0.019790 0.859790
0.217149 0.053962 0.013720
0.218382 0.055196 0.104630
0.219884 0.056698 0.215396
0.221454 0.058268 0.331120
0.223069 0.059883 0.450127
0.224717 0.061531 0.571616
0.226392 0.063206 0.695113
0.228090 0.064904 0.820298
0.228701 0.065514 0.865272
0.231516 0.173799 0.028088
0.232750 0.175032 0.118998
0.234252 0.176535 0.229764
0.235822 0.178104 0.345488
0.237437 0.179719 0.464495
0.239085 0.181367 0.585984
0.240760 0.183042 0.709480
0.242458 0.184741 0.834665
0.243068 0.185351 0.879640
0.246790 0.301188 0.043361
0.248023 0.302421 0.134271
0.249526 0.303924 0.245037
0.251096 0.305494 0.360761
0.252710 0.307108 0.479768
0.254358 0.308756 0.601258
0.256033 0.310431 0.724754
0.257732 0.312130 0.849939
0.258342 0.312740 0.894913
0.262588 0.432954 0.059159
0.263821 0.434187 0.150069
0.265324 0.435690 0.260835
0.266894 0.437260 0.376560
0.268508 0.438874 0.495566
0.270156 0.440523 0.617056
0.271832 0.442198 0.740552
0.273530 0.443896 0.865737
0.274140 0.444506 0.910711
0.278763 0.567868 0.075335
0.279997 0.569101 0.166245
0.281499 0.570604 0.277011
0.283069 0.572174 0.392735
0.284684 0.573788 0.511742
0.286332 0.575436 0.633231
0.288007 0.577112 0.756727
0.289705 0.578810 0.881913
0.290315 0.579420 0.926887
0.295236 0.705258 0.091807
0.296469 0.706491 0.182717
0.297972 0.707994 0.293483
0.299542 0.709563 0.409207
0.301156 0.711178 0.528214
0.302804 0.712826 0.649704
0.304479 0.714501 0.773200
0.306178 0.716200 0.898385
0.306788 0.716810 0.943359
0.311954 0.844695 0.108525
0.313187 0.845928 0.199435
0.314690 0.847431 0.310201
0.316260 0.849001 0.425925
0.317874 0.850615 0.544932
0.319522 0.852263 0.666422
0.321197 0.853939 0.789918
0.322896 0.855637 0.915103
0.323506 0.856247 0.960077
0.326098 0.962670 0.122670
0.327332 0.963903 0.213580
0.328834 0.965406 0.324346
0.330404 0.966976 0.440070
0.332019 0.968590 0.559077
0.333667 0.970238 0.680566
0.335342 0.971914 0.804062
0.337040 0.973612 0.929247
0.337650 0.974222 0.974222
0.330601 0.012867 0.012867
0.331835 0.014100 0.103777
0.333337 0.015603 0.214543
0.334907 0.017173 0.330267
0.336522 0.018787 0.449274
0.338170 0.020435 0.570763
0.339845 0.022110 0.694259
0.341543 0.023809 0.819444
0.342153 0.024419 0.864419
0.336084 0.058591 0.018349
0.337317 0.059824 0.109259
0.338820 0.061327 0.220025
0.340389 0.062897 0.335749
0.342004 0.064511 0.454756
0.343652 0.066159 0.576245
0.345327 0.067835 0.699741
0.347026 0.069533 0.824926
0.347636 0.070143 0.869901
0.350451 0.178428 0.032717
0.351685 0.179661 0.123627
0.353187 0.181163 0.234393
0.354757 0.182733 0.350117
0.356372 0.184348 0.469124
0.358020 0.185996 0.590613
0.359695 0.187671 0.714109
0.361393 0.189369 0.839294
0.362003 0.189980 0.884269
0.365725 0.305817 0.047990
0.366958 0.307050 0.138900
0.368461 0.308553 0.249666
0.370031 0.310122 0.365390
0.371645 0.311737 0.484397
0.373293 0.313385 0.605887
0.374968 0.315060 0.729383
0.376667 0.316759 0.854568
0.377277 0.317369 0.899542
0.381523 0.437583 0.063788
0.382756 0.438816 0.154698
0.384259 0.440319 0.265464
0.385829 0.441889 0.381188
0.387443 0.443503 0.500195
0.389091 0.445151 0.621685
0.390767 0.446827 0.745181
0.392465 0.448525 0.870366
0.393075 0.449135 0.915340
0.397699 0.572497 0.079964
0.398932 0.573730 0.170874
0.400434 0.575233 0.281640
0.402004 0.576803 0.397364
0.403619 0.578417 0.516371
0.405267 0.580065 0.637860
0.406942 0.581741 0.761356
0.408640 0.583439 0.886541
0.409251 0.584049 0.931516
0.414171 0.709886 0.096436
0.415404 0.711120 0.187346
0.416907 0.712622 0.298112
0.418477 0.714192 0.413836
0.420091 0.715807 0.532843
0.421739 0.717455 0.654333
0.423415 0.719130 0.777829
0.425113 0.720828 0.903014
0.425723 0.721438 0.947988
0.430889 0.849324 0.113154
0.432122 0.850557 0.204064
0.433625 0.852060 0.314830
0.435195 0.853630 0.430554
0.436809 0.855244 0.549561
0.438457 0.856892 0.671051
0.440132 0.858568 0.794547
0.441831 0.860266 0.919732
0.442441 0.860876 0.964706
0.445033 0.967299 0.127299
0.446267 0.968532 0.218209
0.447769 0.970035 0.328975
0.449339 0.971605 0.444699
0.450954 0.973219 0.563706
0.452602 0.974867 0.685195
0.454277 0.976542 0.808691
0.455975 0.978241 0.933876
0.456585 0.978851 0.978851
0.452862 0.017625 0.017625
0.454096 0.018858 0.108535
0.455598 0.020361 0.219301
0.457168 0.021931 0.335025
0.458783 0.023545 0.454032
0.460431 0.025193 0.575521
0.462106 0.026869 0.699018
0.463804 0.028567 0.824203
0.464414 0.029177 0.869177
0.458344 0.063349 0.023107
0.459578 0.064583 0.114017
0.461080 0.066085 0.224783
0.462650 0.067655 0.340507
0.464265 0.069270 0.459514
0.465913 0.070918 0.581004
0.467588 0.072593 0.704500
0.469286 0.074291 0.829685
0.469896 0.074901 0.874659
0.472712 0.183186 0.037475
0.473946 0.184419 0.128385
0.475448 0.185922 0.239151
0.477018 0.187492 0.354875
0.478633 0.189106 0.473882
0.480281 0.190754 0.595371
0.481956 0.192429 0.718867
0.483654 0.194128 0.844053
0.484264 0.194738 0.889027
0.487986 0.310575 0.052748
0.489219 0.311808 0.143658
0.490722 0.313311 0.254424
0.492291 0.314881 0.370149
0.493906 0.316495 0.489155
0.495554 0.318143 0.610645
0.497229 0.319819 0.734141
0.498928 0.321517 0.859326
0.499538 0.322127 0.904300
0.503784 0.442341 0.068547
0.505017 0.443575 0.159457
0.506520 0.445077 0.270223
0.508090 0.446647 0.385947
0.509704 0.448262 0.504954
0.511352 0.449910 0.626443
0.513028 0.451585 0.749939
0.514726 0.453283 0.875124
0.515336 0.453893 0.920099
0.519959 0.577255 0.084722
0.521193 0.578489 0.175632
0.522695 0.579991 0.286398
0.524265 0.581561 0.402122
0.525880 0.583176 0.521129
0.527528 0.584824 0.642619
0.529203 0.586499 0.766115
0.530901 0.588197 0.891300
0.531511 0.588807 0.936274
0.536432 0.714645 0.101194
0.537665 0.715878 0.192104
0.539168 0.717381 0.302871
0.540738 0.718951 0.418595
0.542352 0.720565 0.537602
0.544000 0.722213 0.659091
0.545675 0.723888 0.782587
0.547374 0.725587 0.907772
0.547984 0.726197 0.952746
0.553150 0.854082 0.117912
0.554383 0.855316 0.208822
0.555886 0.856818 0.319588
0.557455 0.858388 0.435313
0.559070 0.860002 0.554319
0.560718 0.861651 0.675809
0.562393 0.863326 0.799305
0.564092 0.865024 0.924490
0.564702 0.865634 0.969464
0.567294 0.972057 0.132057
0.568528 0.973290 0.222967
0.570030 0.974793 0.333733
0.571600 0.976363 0.449457
0.573215 0.977977 0.568464
0.574863 0.979625 0.689953
0.576538 0.981301 0.813450
0.578236 0.982999 0.938635
0.578846 0.983609 0.983609
0.577647 0.022482 0.022482
0.578880 0.023715 0.113391
0.580383 0.025217 0.224158
0.581953 0.026787 0.339882
0.583567 0.028402 0.458889
0.585215 0.030050 0.580378
0.586891 0.031725 0.703874
0.588589 0.033423 0.829059
0.589199 0.034034 0.874034
0.583129 0.068206 0.027964
0.584362 0.069439 0.118874
0.585865 0.070942 0.229640
0.587435 0.072512 0.345364
0.589049 0.074126 0.464371
0.590697 0.075774 0.585860
0.592373 0.077450 0.709356
0.594071 0.079148 0.834541
0.594681 0.079758 0.879516
0.597497 0.188042 0.042332
0.598730 0.189276 0.133241
0.600233 0.190778 0.244008
0.601803 0.192348 0.359732
0.603417 0.193963 0.478739
0.605065 0.195611 0.600228
0.606741 0.197286 0.723724
0.608439 0.198984 0.848909
0.609049 0.199594 0.893884
0.612770 0.315431 0.057605
0.614004 0.316665 0.148515
0.615506 0.318167 0.259281
0.617076 0.319737 0.375005
0.618691 0.321352 0.494012
0.620339 0.323000 0.615501
0.622014 0.324675 0.738997
0.623712 0.326373 0.864182
0.624322 0.326983 0.909157
0.628569 0.447198 0.073403
0.629802 0.448431 0.164313
0.631304 0.449934 0.275079
0.632874 0.451504 0.390803
0.634489 0.453118 0.509810
0.636137 0.454766 0.631300
0.637812 0.456442 0.754796
0.639510 0.458140 0.879981
0.640121 0.458750 0.924955
0.644744 0.582112 0.089579
0.645977 0.583345 0.180489
0.647480 0.584848 0.291255
0.649050 0.586418 0.406979
0.650664 0.588032 0.525986
0.652312 0.589680 0.647475
0.653988 0.591355 0.770971
0.655686 0.593054 0.896156
0.656296 0.593664 0.941131
0.661216 0.719501 0.106051
0.662450 0.720735 0.196961
0.663952 0.722237 0.307727
0.665522 0.723807 0.423451
0.667137 0.725422 0.542458
0.668785 0.727070 0.663947
0.670460 0.728745 0.787443
0.672158 0.730443 0.912629
0.672768 0.731053 0.957603
0.677934 0.858939 0.122769
0.679168 0.860172 0.213679
0.680670 0.861675 0.324445
0.682240 0.863245 0.440169
0.683855 0.864859 0.559176
0.685503 0.866507 0.680665
0.687178 0.868182 0.804161
0.688876 0.869881 0.929346
0.689486 0.870491 0.974321
0.692079 0.976914 0.136914
0.693312 0.978147 0.227823
0.694815 0.979649 0.338590
0.696385 0.981219 0.454314
0.697999 0.982834 0.573321
0.699647 0.984482 0.694810
0.701323 0.986157 0.818306
0.703021 0.987855 0.943491
0.703631 0.988466 0.988466
0.704476 0.027418 0.027418
0.705709 0.028651 0.118328
0.707212 0.030154 0.229094
0.708781 0.031723 0.344818
0.710396 0.033338 0.463825
0.712044 0.034986 0.585314
0.713719 0.036661 0.708810
0.715418 0.038360 0.833995
0.716028 0.038970 0.878970
0.709958 0.073142 0.032900
0.711191 0.074375 0.123810
0.712694 0.075878 0.234576
0.714264 0.077448 0.350300
0.715878 0.079062 0.469307
0.717526 0.080710 0.590796
0.719201 0.082386 0.714292
0.720900 0.084084 0.839477
0.721510 0.084694 0.884452
0.724326 0.192978 0.047268
0.725559 0.194212 0.138178
0.727062 0.195714 0.248944
0.728631 0.197284 0.364668
0.730246 0.198899 0.483675
0.731894 0.200547 0.605164
0.733569 0.202222 0.728660
0.735268 0.203920 0.853845
0.735878 0.204530 0.898820
0.739599 0.320368 0.062541
0.740832 0.321601 0.153451
0.742335 0.323103 0.264217
0.743905 0.324673 0.379941
0.745519 0.326288 0.498948
0.747167 0.327936 0.620437
0.748843 0.329611 0.743933
0.750541 0.331309 0.869119
0.751151 0.331920 0.914093
0.755397 0.452134 0.078339
0.756630 0.453367 0.169249
0.758133 0.454870 0.280015
0.759703 0.456440 0.395739
0.761317 0.458054 0.514746
0.762966 0.459702 0.636236
0.764641 0.461378 0.759732
0.766339 0.463076 0.884917
0.766949 0.463686 0.929891
0.771573 0.587048 0.094515
0.772806 0.588281 0.185425
0.774309 0.589784 0.296191
0.775879 0.591354 0.411915
0.777493 0.592968 0.530922
0.779141 0.594616 0.652411
0.780816 0.596292 0.775907
0.782515 0.597990 0.901092
0.783125 0.598600 0.946067
0.788045 0.724437 0.110987
0.789278 0.725671 0.201897
0.790781 0.727173 0.312663
0.792351 0.728743 0.428387
0.793965 0.730358 0.547394
0.795613 0.732006 0.668884
0.797289 0.733681 0.792380
0.798987 0.735379 0.917565
0.799597 0.735989 0.962539
0.804763 0.863875 0.127705
0.805996 0.865108 0.218615
0.807499 0.866611 0.329381
0.809069 0.868181 0.445105
0.810683 0.869795 0.564112
0.812331 0.871443 0.685601
0.814007 0.873118 0.809097
0.815705 0.874817 0.934283
0.816315 0.875427 0.979257
0.818908 0.981850 0.141850
0.820141 0.983083 0.232760
0.821644 0.984586 0.343526
0.823213 0.986155 0.459250
0.824828 0.987770 0.578257
0.826476 0.989418 0.699746
0.828151 0.991093 0.823242
0.829850 0.992792 0.948427
0.830460 0.993402 0.993402
0.833027 0.032421 0.032421
0.834260 0.033654 0.123331
0.835763 0.035157 0.234097
0.837333 0.036727 0.349821
0.838947 0.038341 0.468828
0.840595 0.039989 0.590317
0.842271 0.041664 0.713813
0.843969 0.043363 0.838998
0.844579 0.043973 0.883973
0.838509 0.078145 0.037903
0.839743 0.079378 0.128813
0.841245 0.080881 0.239579
0.842815 0.082451 0.355303
0.844430 0.084065 0.474310
0.846078 0.085714 0.595799
0.847753 0.087389 0.719295
0.849451 0.089087 0.844480
0.850061 0.089697 0.889455
0.852877 0.197982 0.052271
0.854110 0.199215 0.143181
0.855613 0.200717 0.253947
0.857183 0.202287 0.369671
0.858797 0.203902 0.488678
0.860445 0.205550 0.610167
0.862121 0.207225 0.733663
0.863819 0.208923 0.858848
0.864429 0.209534 0.903823
0.868150 0.325371 0.067544
0.869384 0.326604 0.158454
0.870886 0.328107 0.269220
0.872456 0.329676 0.384944
0.874071 0.331291 0.503951
0.875719 0.332939 0.625441
0.877394 0.334614 0.748937
0.879092 0.336313 0.874122
0.879702 0.336923 0.919096
0.883949 0.457137 0.083342
0.885182 0.458370 0.174252
0.886685 0.459873 0.285018
0.888254 0.461443 0.400742
0.889869 0.463057 0.519749
0.891517 0.464705 0.641239
0.893192 0.466381 0.764735
0.894891 0.468079 0.889920
0.895501 0.468689 0.934894
0.900124 0.592051 0.099518
0.901358 0.593284 0.190428
0.902860 0.594787 0.301194
0.904430 0.596357 0.416918
0.906044 0.597971 0.535925
0.907693 0.599619 0.657414
0.909368 0.601295 0.780910
0.911066 0.602993 0.906095
0.911676 0.603603 0.951070
0.916597 0.729440 0.115990
0.917830 0.730674 0.206900
0.919333 0.732176 0.317666
0.920902 0.733746 0.433390
0.922517 0.735361 0.552397
0.924165 0.737009 0.673887
0.925840 0.738684 0.797383
0.927538 0.740382 0.922568
0.928149 0.740992 0.967542
0.933315 0.868878 0.132708
0.934548 0.870111 0.223618
0.936050 0.871614 0.334384
0.937620 0.873184 0.450108
0.939235 0.874798 0.569115
0.940883 0.876446 0.690605
0.942558 0.878122 0.814101
0.944256 0.879820 0.939286
0.944867 0.880430 0.984260
0.947459 0.986853 0.146853
0.948692 0.988086 0.237763
0.950195 0.989589 0.348529
0.951765 0.991159 0.464253
0.953379 0.992773 0.583260
0.955027 0.994421 0.704749
0.956703 0.996096 0.828245
0.958401 0.997795 0.953430
0.959011 0.998405 0.998405
