skills/clipper-orchestrator/assets/grade/luts/moody_teal_v20.cube
TITLE "moody_teal_v20"
LUT_3D_SIZE 17
DOMAIN_MIN 0.0 0.0 0.0
DOMAIN_MAX 1.0 1.0 1.0
0.000000 0.000000 0.000000
0.000526 0.000526 0.038780
0.001233 0.001233 0.090910
0.001974 0.001974 0.145495
0.002736 0.002736 0.201676
0.003514 0.003514 0.259056
0.004306 0.004306 0.317400
0.005108 0.005108 0.376554
0.005920 0.005920 0.436407
0.006741 0.006741 0.496876
0.007568 0.007568 0.557896
0.008403 0.008403 0.619416
0.009244 0.009244 0.681392
0.010090 0.010090 0.743790
0.010942 0.010942 0.806578
0.011552 0.011552 0.851552
0.011552 0.011552 0.851552
0.000000 0.000000 0.000000
0.000526 0.000526 0.038780
0.001233 0.001233 0.090910
0.001974 0.001974 0.145495
0.002736 0.002736 0.201676
0.003514 0.003514 0.259056
0.004306 0.004306 0.317400
0.005108 0.005108 0.376554
0.005920 0.005920 0.436407
0.006741 0.006741 0.496876
0.007568 0.007568 0.557896
0.008403 0.008403 0.619416
0.009244 0.009244 0.681392
0.010090 0.010090 0.743790
0.010942 0.010942 0.806578
0.011552 0.011552 0.851552
0.011552 0.011552 0.851552
0.005482 0.045724 0.005482
0.006008 0.046251 0.044262
0.006715 0.046958 0.096392
0.007456 0.047698 0.150977
0.008218 0.048460 0.207158
0.008996 0.049239 0.264538
0.009788 0.050030 0.322882
0.010590 0.050833 0.382036
0.011402 0.051645 0.441889
0.012223 0.052465 0.502358
0.013050 0.053293 0.563379
0.013885 0.054127 0.624898
0.014726 0.054968 0.686875
0.015572 0.055815 0.749272
0.016424 0.056666 0.812060
0.017034 0.057276 0.857034
0.017034 0.057276 0.857034
0.012505 0.104297 0.012505
0.013031 0.104823 0.051285
0.013738 0.105530 0.103415
0.014478 0.106271 0.157999
0.015241 0.107033 0.214181
0.016019 0.107811 0.271561
0.016811 0.108603 0.329905
0.017613 0.109405 0.389059
0.018425 0.110217 0.448912
0.019245 0.111038 0.509381
0.020073 0.111865 0.570401
0.020908 0.112700 0.631921
0.021748 0.113541 0.693897
0.022595 0.114387 0.756294
0.023447 0.115239 0.819082
0.024057 0.115849 0.864057
0.024057 0.115849 0.864057
0.019850 0.165561 0.019850
0.020376 0.166087 0.058630
0.021083 0.166794 0.110760
0.021824 0.167535 0.165345
0.022586 0.168297 0.221526
0.023364 0.169075 0.278906
0.024156 0.169867 0.337250
0.024958 0.170669 0.396404
0.025770 0.171481 0.456257
0.026591 0.172301 0.516726
0.027418 0.173129 0.577746
0.028253 0.173964 0.639266
0.029094 0.174804 0.701242
0.029940 0.175651 0.763640
0.030792 0.176503 0.826428
0.031402 0.177113 0.871402
0.031402 0.177113 0.871402
0.027407 0.228590 0.027407
0.027933 0.229116 0.066187
0.028640 0.229824 0.118317
0.029381 0.230564 0.172902
0.030143 0.231326 0.229083
0.030921 0.232105 0.286463
0.031713 0.232896 0.344807
0.032515 0.233699 0.403961
0.033327 0.234511 0.463814
0.034147 0.235331 0.524283
0.034975 0.236159 0.585303
0.035810 0.236993 0.646823
0.036651 0.237834 0.708799
0.037497 0.238680 0.771197
0.038349 0.239532 0.833984
0.038959 0.240142 0.878959
0.038959 0.240142 0.878959
0.035123 0.292950 0.035123
0.035649 0.293476 0.073903
0.036357 0.294183 0.126033
0.037097 0.294924 0.180618
0.037859 0.295686 0.236799
0.038638 0.296464 0.294179
0.039429 0.297256 0.352523
0.040232 0.298058 0.411677
0.041044 0.298870 0.471530
0.041864 0.299690 0.531999
0.042692 0.300518 0.593020
0.043526 0.301353 0.654539
0.044367 0.302194 0.716516
0.045213 0.303040 0.778913
0.046065 0.303892 0.841701
0.046675 0.304502 0.886675
0.046675 0.304502 0.886675
0.042968 0.358382 0.042968
0.043494 0.358908 0.081748
0.044202 0.359616 0.133878
0.044942 0.360356 0.188463
0.045704 0.361118 0.244644
0.046483 0.361897 0.302024
0.047274 0.362688 0.360369
0.048077 0.363491 0.419522
0.048889 0.364303 0.479375
0.049709 0.365123 0.539844
0.050537 0.365951 0.600865
0.051371 0.366785 0.662385
0.052212 0.367626 0.724361
0.053059 0.368472 0.786758
0.053910 0.369324 0.849546
0.054520 0.369934 0.894520
0.054520 0.369934 0.894520
0.050922 0.424716 0.050922
0.051448 0.425242 0.089702
0.052155 0.425950 0.141831
0.052895 0.426690 0.196416
0.053657 0.427452 0.252598
0.054436 0.428231 0.309977
0.055227 0.429022 0.368322
0.056030 0.429825 0.427476
0.056842 0.430637 0.487329
0.057662 0.431457 0.547798
0.058490 0.432285 0.608818
0.059324 0.433119 0.670338
0.060165 0.433960 0.732314
0.061012 0.434806 0.794711
0.061863 0.435658 0.857499
0.062474 0.436268 0.902474
0.062474 0.436268 0.902474
0.058968 0.491830 0.058968
0.059494 0.492356 0.097748
0.060201 0.493063 0.149878
0.060942 0.493803 0.204463
0.061704 0.494566 0.260644
0.062482 0.495344 0.318024
0.063274 0.496135 0.376368
0.064076 0.496938 0.435522
0.064888 0.497750 0.495375
0.065709 0.498570 0.555844
0.066536 0.499398 0.616865
0.067371 0.500233 0.678384
0.068212 0.501073 0.740361
0.069058 0.501920 0.802758
0.069910 0.502772 0.865546
0.070520 0.503382 0.910520
0.070520 0.503382 0.910520
0.067097 0.559630 0.067097
0.067623 0.560156 0.105877
0.068330 0.560864 0.158007
0.069071 0.561604 0.212592
0.069833 0.562366 0.268773
0.070611 0.563145 0.326153
0.071403 0.563936 0.384497
0.072205 0.564739 0.443651
0.073017 0.565551 0.503504
0.073838 0.566371 0.563973
0.074665 0.567199 0.624994
0.075500 0.568033 0.686513
0.076341 0.568874 0.748490
0.077187 0.569720 0.810887
0.078039 0.570572 0.873675
0.078649 0.571182 0.918649
0.078649 0.571182 0.918649
0.075300 0.628046 0.075300
0.075826 0.628572 0.114080
0.076533 0.629280 0.166210
0.077274 0.630020 0.220794
0.078036 0.630782 0.276976
0.078814 0.631561 0.334356
0.079606 0.632352 0.392700
0.080408 0.633155 0.451854
0.081220 0.633966 0.511707
0.082040 0.634787 0.572176
0.082868 0.635615 0.633196
0.083703 0.636449 0.694716
0.084543 0.637290 0.756692
0.085390 0.638136 0.819090
0.086242 0.638988 0.881877
0.086852 0.639598 0.926852
0.086852 0.639598 0.926852
0.083569 0.697020 0.083569
0.084096 0.697546 0.122350
0.084803 0.698253 0.174479
0.085543 0.698994 0.229064
0.086305 0.699756 0.285245
0.087084 0.700534 0.342625
0.087875 0.701326 0.400970
0.088678 0.702128 0.460123
0.089490 0.702940 0.519976
0.090310 0.703760 0.580446
0.091138 0.704588 0.641466
0.091972 0.705423 0.702986
0.092813 0.706263 0.764962
0.093660 0.707110 0.827359
0.094511 0.707962 0.890147
0.095121 0.708572 0.935121
0.095121 0.708572 0.935121
0.091900 0.766503 0.091900
0.092426 0.767029 0.130680
0.093133 0.767737 0.182810
0.093874 0.768477 0.237395
0.094636 0.769239 0.293576
0.095415 0.770018 0.350956
0.096206 0.770809 0.409300
0.097008 0.771612 0.468454
0.097820 0.772424 0.528307
0.098641 0.773244 0.588776
0.099469 0.774072 0.649797
0.100303 0.774906 0.711316
0.101144 0.775747 0.773293
0.101990 0.776593 0.835690
0.102842 0.777445 0.898478
0.103452 0.778055 0.943452
0.103452 0.778055 0.943452
0.100287 0.836457 0.100287
0.100813 0.836983 0.139067
0.101521 0.837690 0.191197
0.102261 0.838431 0.245782
0.103023 0.839193 0.301963
0.103802 0.839972 0.359343
0.104593 0.840763 0.417687
0.105396 0.841565 0.476841
0.106208 0.842377 0.536694
0.107028 0.843198 0.597163
0.107856 0.844026 0.658184
0.108690 0.844860 0.719704
0.109531 0.845701 0.781680
0.110377 0.846547 0.844077
0.111229 0.847399 0.906865
0.111839 0.848009 0.951839
0.111839 0.848009 0.951839
0.108727 0.906848 0.108727
0.109253 0.907374 0.147507
0.109960 0.908081 0.199637
0.110701 0.908821 0.254221
0.111463 0.909583 0.310403
0.112241 0.910362 0.367783
0.113033 0.911153 0.426127
0.113835 0.911956 0.485281
0.114647 0.912768 0.545134
0.115467 0.913588 0.605603
0.116295 0.914416 0.666623
0.117130 0.915250 0.728143
0.117970 0.916091 0.790119
0.118817 0.916938 0.852517
0.119669 0.917789 0.915304
0.120279 0.918400 0.960279
0.120279 0.918400 0.960279
0.114432 0.954432 0.114432
0.114958 0.954958 0.153212
0.115665 0.955665 0.205342
0.116406 0.956406 0.259927
0.117168 0.957168 0.316108
0.117946 0.957946 0.373488
0.118738 0.958738 0.431832
0.119540 0.959540 0.490986
0.120352 0.960352 0.550839
0.121173 0.961173 0.611308
0.122000 0.962000 0.672328
0.122835 0.962835 0.733848
0.123676 0.963676 0.795824
0.124522 0.964522 0.858222
0.125374 0.965374 0.921010
0.125984 0.965984 0.965984
0.125984 0.965984 0.965984
0.000000 0.000000 0.000000
0.000526 0.000526 0.038780
0.001233 0.001233 0.090910
0.001974 0.001974 0.145495
0.002736 0.002736 0.201676
0.003514 0.003514 0.259056
0.004306 0.004306 0.317400
0.005108 0.005108 0.376554
0.005920 0.005920 0.436407
0.006741 0.006741 0.496876
0.007568 0.007568 0.557896
0.008403 0.008403 0.619416
0.009244 0.009244 0.681392
0.010090 0.010090 0.743790
0.010942 0.010942 0.806578
0.011552 0.011552 0.851552
0.011552 0.011552 0.851552
0.000000 0.000000 0.000000
0.000526 0.000526 0.038780
0.001233 0.001233 0.090910
0.001974 0.001974 0.145495
0.002736 0.002736 0.201676
0.003514 0.003514 0.259056
0.004306 0.004306 0.317400
0.005108 0.005108 0.376554
0.005920 0.005920 0.436407
0.006741 0.006741 0.496876
0.007568 0.007568 0.557896
0.008403 0.008403 0.619416
0.009244 0.009244 0.681392
0.010090 0.010090 0.743790
0.010942 0.010942 0.806578
0.011552 0.011552 0.851552
0.011552 0.011552 0.851552
0.005482 0.045724 0.005482
0.006008 0.046251 0.044262
0.006715 0.046958 0.096392
0.007456 0.047698 0.150977
0.008218 0.048460 0.207158
0.008996 0.049239 0.264538
0.009788 0.050030 0.322882
0.010590 0.050833 0.382036
0.011402 0.051645 0.441889
0.012223 0.052465 0.502358
0.013050 0.053293 0.563379
0.013885 0.054127 0.624898
0.014726 0.054968 0.686875
0.015572 0.055815 0.749272
0.016424 0.056666 0.812060
0.017034 0.057276 0.857034
0.017034 0.057276 0.857034
0.012505 0.104297 0.012505
0.013031 0.104823 0.051285
0.013738 0.105530 0.103415
0.014478 0.106271 0.157999
0.015241 0.107033 0.214181
0.016019 0.107811 0.271561
0.016811 0.108603 0.329905
0.017613 0.109405 0.389059
0.018425 0.110217 0.448912
0.019245 0.111038 0.509381
0.020073 0.111865 0.570401
0.020908 0.112700 0.631921
0.021748 0.113541 0.693897
0.022595 0.114387 0.756294
0.023447 0.115239 0.819082
0.024057 0.115849 0.864057
0.024057 0.115849 0.864057
0.019850 0.165561 0.019850
0.020376 0.166087 0.058630
0.021083 0.166794 0.110760
0.021824 0.167535 0.165345
0.022586 0.168297 0.221526
0.023364 0.169075 0.278906
0.024156 0.169867 0.337250
0.024958 0.170669 0.396404
0.025770 0.171481 0.456257
0.026591 0.172301 0.516726
0.027418 0.173129 0.577746
0.028253 0.173964 0.639266
0.029094 0.174804 0.701242
0.029940 0.175651 0.763640
0.030792 0.176503 0.826428
0.031402 0.177113 0.871402
0.031402 0.177113 0.871402
0.027407 0.228590 0.027407
0.027933 0.229116 0.066187
0.028640 0.229824 0.118317
0.029381 0.230564 0.172902
0.030143 0.231326 0.229083
0.030921 0.232105 0.286463
0.031713 0.232896 0.344807
0.032515 0.233699 0.403961
0.033327 0.234511 0.463814
0.034147 0.235331 0.524283
0.034975 0.236159 0.585303
0.035810 0.236993 0.646823
0.036651 0.237834 0.708799
0.037497 0.238680 0.771197
0.038349 0.239532 0.833984
0.038959 0.240142 0.878959
0.038959 0.240142 0.878959
0.035123 0.292950 0.035123
0.035649 0.293476 0.073903
0.036357 0.294183 0.126033
0.037097 0.294924 0.180618
0.037859 0.295686 0.236799
0.038638 0.296464 0.294179
0.039429 0.297256 0.352523
0.040232 0.298058 0.411677
0.041044 0.298870 0.471530
0.041864 0.299690 0.531999
0.042692 0.300518 0.593020
0.043526 0.301353 0.654539
0.044367 0.302194 0.716516
0.045213 0.303040 0.778913
0.046065 0.303892 0.841701
0.046675 0.304502 0.886675
0.046675 0.304502 0.886675
0.042968 0.358382 0.042968
0.043494 0.358908 0.081748
0.044202 0.359616 0.133878
0.044942 0.360356 0.188463
0.045704 0.361118 0.244644
0.046483 0.361897 0.302024
0.047274 0.362688 0.360369
0.048077 0.363491 0.419522
0.048889 0.364303 0.479375
0.049709 0.365123 0.539844
0.050537 0.365951 0.600865
0.051371 0.366785 0.662385
0.052212 0.367626 0.724361
0.053059 0.368472 0.786758
0.053910 0.369324 0.849546
0.054520 0.369934 0.894520
0.054520 0.369934 0.894520
0.050922 0.424716 0.050922
0.051448 0.425242 0.089702
0.052155 0.425950 0.141831
0.052895 0.426690 0.196416
0.053657 0.427452 0.252598
0.054436 0.428231 0.309977
0.055227 0.429022 0.368322
0.056030 0.429825 0.427476
0.056842 0.430637 0.487329
0.057662 0.431457 0.547798
0.058490 0.432285 0.608818
0.059324 0.433119 0.670338
0.060165 0.433960 0.732314
0.061012 0.434806 0.794711
0.061863 0.435658 0.857499
0.062474 0.436268 0.902474
0.062474 0.436268 0.902474
0.058968 0.491830 0.058968
0.059494 0.492356 0.097748
0.060201 0.493063 0.149878
0.060942 0.493803 0.204463
0.061704 0.494566 0.260644
0.062482 0.495344 0.318024
0.063274 0.496135 0.376368
0.064076 0.496938 0.435522
0.064888 0.497750 0.495375
0.065709 0.498570 0.555844
0.066536 0.499398 0.616865
0.067371 0.500233 0.678384
0.068212 0.501073 0.740361
0.069058 0.501920 0.802758
0.069910 0.502772 0.865546
0.070520 0.503382 0.910520
0.070520 0.503382 0.910520
0.067097 0.559630 0.067097
0.067623 0.560156 0.105877
0.068330 0.560864 0.158007
0.069071 0.561604 0.212592
0.069833 0.562366 0.268773
0.070611 0.563145 0.326153
0.071403 0.563936 0.384497
0.072205 0.564739 0.443651
0.073017 0.565551 0.503504
0.073838 0.566371 0.563973
0.074665 0.567199 0.624994
0.075500 0.568033 0.686513
0.076341 0.568874 0.748490
0.077187 0.569720 0.810887
0.078039 0.570572 0.873675
0.078649 0.571182 0.918649
0.078649 0.571182 0.918649
0.075300 0.628046 0.075300
0.075826 0.628572 0.114080
0.076533 0.629280 0.166210
0.077274 0.630020 0.220794
0.078036 0.630782 0.276976
0.078814 0.631561 0.334356
0.079606 0.632352 0.392700
0.080408 0.633155 0.451854
0.081220 0.633966 0.511707
0.082040 0.634787 0.572176
0.082868 0.635615 0.633196
0.083703 0.636449 0.694716
0.084543 0.637290 0.756692
0.085390 0.638136 0.819090
0.086242 0.638988 0.881877
0.086852 0.639598 0.926852
0.086852 0.639598 0.926852
0.083569 0.697020 0.083569
0.084096 0.697546 0.122350
0.084803 0.698253 0.174479
0.085543 0.698994 0.229064
0.086305 0.699756 0.285245
0.087084 0.700534 0.342625
0.087875 0.701326 0.400970
0.088678 0.702128 0.460123
0.089490 0.702940 0.519976
0.090310 0.703760 0.580446
0.091138 0.704588 0.641466
0.091972 0.705423 0.702986
0.092813 0.706263 0.764962
0.093660 0.707110 0.827359
0.094511 0.707962 0.890147
0.095121 0.708572 0.935121
0.095121 0.708572 0.935121
0.091900 0.766503 0.091900
0.092426 0.767029 0.130680
0.093133 0.767737 0.182810
0.093874 0.768477 0.237395
0.094636 0.769239 0.293576
0.095415 0.770018 0.350956
0.096206 0.770809 0.409300
0.097008 0.771612 0.468454
0.097820 0.772424 0.528307
0.098641 0.773244 0.588776
0.099469 0.774072 0.649797
0.100303 0.774906 0.711316
0.101144 0.775747 0.773293
0.101990 0.776593 0.835690
0.102842 0.777445 0.898478
0.103452 0.778055 0.943452
0.103452 0.778055 0.943452
0.100287 0.836457 0.100287
0.100813 0.836983 0.139067
0.101521 0.837690 0.191197
0.102261 0.838431 0.245782
0.103023 0.839193 0.301963
0.103802 0.839972 0.359343
0.104593 0.840763 0.417687
0.105396 0.841565 0.476841
0.106208 0.842377 0.536694
0.107028 0.843198 0.597163
0.107856 0.844026 0.658184
0.108690 0.844860 0.719704
0.109531 0.845701 0.781680
0.110377 0.846547 0.844077
0.111229 0.847399 0.906865
0.111839 0.848009 0.951839
0.111839 0.848009 0.951839
0.108727 0.906848 0.108727
0.109253 0.907374 0.147507
0.109960 0.908081 0.199637
0.110701 0.908821 0.254221
0.111463 0.909583 0.310403
0.112241 0.910362 0.367783
0.113033 0.911153 0.426127
0.113835 0.911956 0.485281
0.114647 0.912768 0.545134
0.115467 0.913588 0.605603
0.116295 0.914416 0.666623
0.117130 0.915250 0.728143
0.117970 0.916091 0.790119
0.118817 0.916938 0.852517
0.119669 0.917789 0.915304
0.120279 0.918400 0.960279
0.120279 0.918400 0.960279
0.114432 0.954432 0.114432
0.114958 0.954958 0.153212
0.115665 0.955665 0.205342
0.116406 0.956406 0.259927
0.117168 0.957168 0.316108
0.117946 0.957946 0.373488
0.118738 0.958738 0.431832
0.119540 0.959540 0.490986
0.120352 0.960352 0.550839
0.121173 0.961173 0.611308
0.122000 0.962000 0.672328
0.122835 0.962835 0.733848
0.123676 0.963676 0.795824
0.124522 0.964522 0.858222
0.125374 0.965374 0.921010
0.125984 0.965984 0.965984
0.125984 0.965984 0.965984
0.000000 0.000000 0.000000
0.000526 0.000526 0.038780
0.001233 0.001233 0.090910
0.001974 0.001974 0.145495
0.002736 0.002736 0.201676
0.003514 0.003514 0.259056
0.004306 0.004306 0.317400
0.005108 0.005108 0.376554
0.005920 0.005920 0.436407
0.006741 0.006741 0.496876
0.007568 0.007568 0.557896
0.008403 0.008403 0.619416
0.009244 0.009244 0.681392
0.010090 0.010090 0.743790
0.010942 0.010942 0.806578
0.011552 0.011552 0.851552
0.011552 0.011552 0.851552
0.000000 0.000000 0.000000
0.000526 0.000526 0.038780
0.001233 0.001233 0.090910
0.001974 0.001974 0.145495
0.002736 0.002736 0.201676
0.003514 0.003514 0.259056
0.004306 0.004306 0.317400
0.005108 0.005108 0.376554
0.005920 0.005920 0.436407
0.006741 0.006741 0.496876
0.007568 0.007568 0.557896
0.008403 0.008403 0.619416
0.009244 0.009244 0.681392
0.010090 0.010090 0.743790
0.010942 0.010942 0.806578
0.011552 0.011552 0.851552
0.011552 0.011552 0.851552
0.005482 0.045724 0.005482
0.006008 0.046251 0.044262
0.006715 0.046958 0.096392
0.007456 0.047698 0.150977
0.008218 0.048460 0.207158
0.008996 0.049239 0.264538
0.009788 0.050030 0.322882
0.010590 0.050833 0.382036
0.011402 0.051645 0.441889
0.012223 0.052465 0.502358
0.013050 0.053293 0.563379
0.013885 0.054127 0.624898
0.014726 0.054968 0.686875
0.015572 0.055815 0.749272
0.016424 0.056666 0.812060
0.017034 0.057276 0.857034
0.017034 0.057276 0.857034
0.012505 0.104297 0.012505
0.013031 0.104823 0.051285
0.013738 0.105530 0.103415
0.014478 0.106271 0.157999
0.015241 0.107033 0.214181
0.016019 0.107811 0.271561
0.016811 0.108603 0.329905
0.017613 0.109405 0.389059
0.018425 0.110217 0.448912
0.019245 0.111038 0.509381
0.020073 0.111865 0.570401
0.020908 0.112700 0.631921
0.021748 0.113541 0.693897
0.022595 0.114387 0.756294
0.023447 0.115239 0.819082
0.024057 0.115849 0.864057
0.024057 0.115849 0.864057
0.019850 0.165561 0.019850
0.020376 0.166087 0.058630
0.021083 0.166794 0.110760
0.021824 0.167535 0.165345
0.022586 0.168297 0.221526
0.023364 0.169075 0.278906
0.024156 0.169867 0.337250
0.024958 0.170669 0.396404
0.025770 0.171481 0.456257
0.026591 0.172301 0.516726
0.027418 0.173129 0.577746
0.028253 0.173964 0.639266
0.029094 0.174804 0.701242
0.029940 0.175651 0.763640
0.030792 0.176503 0.826428
0.031402 0.177113 0.871402
0.031402 0.177113 0.871402
0.027407 0.228590 0.027407
0.027933 0.229116 0.066187
0.028640 0.229824 0.118317
0.029381 0.230564 0.172902
0.030143 0.231326 0.229083
0.030921 0.232105 0.286463
0.031713 0.232896 0.344807
0.032515 0.233699 0.403961
0.033327 0.234511 0.463814
0.034147 0.235331 0.524283
0.034975 0.236159 0.585303
0.035810 0.236993 0.646823
0.036651 0.237834 0.708799
0.037497 0.238680 0.771197
0.038349 0.239532 0.833984
0.038959 0.240142 0.878959
0.038959 0.240142 0.878959
0.035123 0.292950 0.035123
0.035649 0.293476 0.073903
0.036357 0.294183 0.126033
0.037097 0.294924 0.180618
0.037859 0.295686 0.236799
0.038638 0.296464 0.294179
0.039429 0.297256 0.352523
0.040232 0.298058 0.411677
0.041044 0.298870 0.471530
0.041864 0.299690 0.531999
0.042692 0.300518 0.593020
0.043526 0.301353 0.654539
0.044367 0.302194 0.716516
0.045213 0.303040 0.778913
0.046065 0.303892 0.841701
0.046675 0.304502 0.886675
0.046675 0.304502 0.886675
0.042968 0.358382 0.042968
0.043494 0.358908 0.081748
0.044202 0.359616 0.133878
0.044942 0.360356 0.188463
0.045704 0.361118 0.244644
0.046483 0.361897 0.302024
0.047274 0.362688 0.360369
0.048077 0.363491 0.419522
0.048889 0.364303 0.479375
0.049709 0.365123 0.539844
0.050537 0.365951 0.600865
0.051371 0.366785 0.662385
0.052212 0.367626 0.724361
0.053059 0.368472 0.786758
0.053910 0.369324 0.849546
0.054520 0.369934 0.894520
0.054520 0.369934 0.894520
0.050922 0.424716 0.050922
0.051448 0.425242 0.089702
0.052155 0.425950 0.141831
0.052895 0.426690 0.196416
0.053657 0.427452 0.252598
0.054436 0.428231 0.309977
0.055227 0.429022 0.368322
0.056030 0.429825 0.427476
0.056842 0.430637 0.487329
0.057662 0.431457 0.547798
0.058490 0.432285 0.608818
0.059324 0.433119 0.670338
0.060165 0.433960 0.732314
0.061012 0.434806 0.794711
0.061863 0.435658 0.857499
0.062474 0.436268 0.902474
0.062474 0.436268 0.902474
0.058968 0.491830 0.058968
0.059494 0.492356 0.097748
0.060201 0.493063 0.149878
0.060942 0.493803 0.204463
0.061704 0.494566 0.260644
0.062482 0.495344 0.318024
0.063274 0.496135 0.376368
0.064076 0.496938 0.435522
0.064888 0.497750 0.495375
0.065709 0.498570 0.555844
0.066536 0.499398 0.616865
0.067371 0.500233 0.678384
0.068212 0.501073 0.740361
0.069058 0.501920 0.802758
0.069910 0.502772 0.865546
0.070520 0.503382 0.910520
0.070520 0.503382 0.910520
0.067097 0.559630 0.067097
0.067623 0.560156 0.105877
0.068330 0.560864 0.158007
0.069071 0.561604 0.212592
0.069833 0.562366 0.268773
0.070611 0.563145 0.326153
0.071403 0.563936 0.384497
0.072205 0.564739 0.443651
0.073017 0.565551 0.503504
0.073838 0.566371 0.563973
0.074665 0.567199 0.624994
0.075500 0.568033 0.686513
0.076341 0.568874 0.748490
0.077187 0.569720 0.810887
0.078039 0.570572 0.873675
0.078649 0.571182 0.918649
0.078649 0.571182 0.918649
0.075300 0.628046 0.075300
0.075826 0.628572 0.114080
0.076533 0.629280 0.166210
0.077274 0.630020 0.220794
0.078036 0.630782 0.276976
0.078814 0.631561 0.334356
0.079606 0.632352 0.392700
0.080408 0.633155 0.451854
0.081220 0.633966 0.511707
0.082040 0.634787 0.572176
0.082868 0.635615 0.633196
0.083703 0.636449 0.694716
0.084543 0.637290 0.756692
0.085390 0.638136 0.819090
0.086242 0.638988 0.881877
0.086852 0.639598 0.926852
0.086852 0.639598 0.926852
0.083569 0.697020 0.083569
0.084096 0.697546 0.122350
0.084803 0.698253 0.174479
0.085543 0.698994 0.229064
0.086305 0.699756 0.285245
0.087084 0.700534 0.342625
0.087875 0.701326 0.400970
0.088678 0.702128 0.460123
0.089490 0.702940 0.519976
0.090310 0.703760 0.580446
0.091138 0.704588 0.641466
0.091972 0.705423 0.702986
0.092813 0.706263 0.764962
0.093660 0.707110 0.827359
0.094511 0.707962 0.890147
0.095121 0.708572 0.935121
0.095121 0.708572 0.935121
0.091900 0.766503 0.091900
0.092426 0.767029 0.130680
0.093133 0.767737 0.182810
0.093874 0.768477 0.237395
0.094636 0.769239 0.293576
0.095415 0.770018 0.350956
0.096206 0.770809 0.409300
0.097008 0.771612 0.468454
0.097820 0.772424 0.528307
0.098641 0.773244 0.588776
0.099469 0.774072 0.649797
0.100303 0.774906 0.711316
0.101144 0.775747 0.773293
0.101990 0.776593 0.835690
0.102842 0.777445 0.898478
0.103452 0.778055 0.943452
0.103452 0.778055 0.943452
0.100287 0.836457 0.100287
0.100813 0.836983 0.139067
0.101521 0.837690 0.191197
0.102261 0.838431 0.245782
0.103023 0.839193 0.301963
0.103802 0.839972 0.359343
0.104593 0.840763 0.417687
0.105396 0.841565 0.476841
0.106208 0.842377 0.536694
0.107028 0.843198 0.597163
0.107856 0.844026 0.658184
0.108690 0.844860 0.719704
0.109531 0.845701 0.781680
0.110377 0.846547 0.844077
0.111229 0.847399 0.906865
0.111839 0.848009 0.951839
0.111839 0.848009 0.951839
0.108727 0.906848 0.108727
0.109253 0.907374 0.147507
0.109960 0.908081 0.199637
0.110701 0.908821 0.254221
0.111463 0.909583 0.310403
0.112241 0.910362 0.367783
0.113033 0.911153 0.426127
0.113835 0.911956 0.485281
0.114647 0.912768 0.545134
0.115467 0.913588 0.605603
0.116295 0.914416 0.666623
0.117130 0.915250 0.728143
0.117970 0.916091 0.790119
0.118817 0.916938 0.852517
0.119669 0.917789 0.915304
0.120279 0.918400 0.960279
0.120279 0.918400 0.960279
0.114432 0.954432 0.114432
0.114958 0.954958 0.153212
0.115665 0.955665 0.205342
0.116406 0.956406 0.259927
0.117168 0.957168 0.316108
0.117946 0.957946 0.373488
0.118738 0.958738 0.431832
0.119540 0.959540 0.490986
0.120352 0.960352 0.550839
0.121173 0.961173 0.611308
0.122000 0.962000 0.672328
0.122835 0.962835 0.733848
0.123676 0.963676 0.795824
0.124522 0.964522 0.858222
0.125374 0.965374 0.921010
0.125984 0.965984 0.965984
0.125984 0.965984 0.965984
0.043948 0.001710 0.001710
0.044474 0.002237 0.040491
0.045182 0.002944 0.092620
0.045922 0.003684 0.147205
0.046684 0.004446 0.203386
0.047463 0.005225 0.260766
0.048254 0.006016 0.319111
0.049057 0.006819 0.378264
0.049869 0.007631 0.438117
0.050689 0.008451 0.498587
0.051517 0.009279 0.559607
0.052351 0.010113 0.621127
0.053192 0.010954 0.683103
0.054038 0.011801 0.745500
0.054890 0.012652 0.808288
0.055500 0.013262 0.853262
0.055500 0.013262 0.853262
0.043948 0.001710 0.001710
