skills/clipper-orchestrator/assets/grade/luts/moody_teal_v20.cube
TITLE "moody_teal_v20"
LUT_3D_SIZE 5
DOMAIN_MIN 0.0 0.0 0.0
DOMAIN_MAX 1.0 1.0 1.0
0.000000 0.000000 0.000000
0.002736 0.002736 0.201676
0.005920 0.005920 0.436407
0.009244 0.009244 0.681392
0.011552 0.011552 0.851552
0.019850 0.165561 0.019850
0.022586 0.168297 0.221526
0.025770 0.171481 0.456257
0.029094 0.174804 0.701242
0.031402 0.177113 0.871402
0.050922 0.424716 0.050922
0.053657 0.427452 0.252598
0.056842 0.430637 0.487329
0.060165 0.433960 0.732314
0.062474 0.436268 0.902474
0.083569 0.697020 0.083569
0.086305 0.699756 0.285245
0.089490 0.702940 0.519976
0.092813 0.706263 0.764962
0.095121 0.708572 0.935121
0.114432 0.954432 0.114432
0.117168 0.957168 0.316108
0.120352 0.960352 0.550839
0.123676 0.963676 0.795824
0.125984 0.965984 0.965984
0.097715 0.003803 0.003803
0.100450 0.006539 0.205479
0.103635 0.009723 0.440210
0.106958 0.013047 0.685195
0.109267 0.015355 0.855355
0.117565 0.169364 0.023653
0.120300 0.172100 0.225329
0.123485 0.175284 0.460060
0.126808 0.178607 0.705045
0.129117 0.180916 0.875205
0.148636 0.428519 0.054725
0.151372 0.431255 0.256401
0.154556 0.434440 0.491132
0.157880 0.437763 0.736117
0.160188 0.440071 0.906277
0.181284 0.700823 0.087372
0.184020 0.703559 0.289048
0.187204 0.706743 0.523779
0.190528 0.710066 0.768765
0.192836 0.712375 0.938924
0.212147 0.958235 0.118235
0.214882 0.960971 0.319911
0.218067 0.964155 0.554642
0.221390 0.967479 0.799627
0.223699 0.969787 0.969787
0.330601 0.012867 0.012867
0.333337 0.015603 0.214543
0.336522 0.018787 0.449274
0.339845 0.022110 0.694259
0.342153 0.024419 0.864419
0.350451 0.178428 0.032717
0.353187 0.181163 0.234393
0.356372 0.184348 0.469124
0.359695 0.187671 0.714109
0.362003 0.189980 0.884269
0.381523 0.437583 0.063788
0.384259 0.440319 0.265464
0.387443 0.443503 0.500195
0.390767 0.446827 0.745181
0.393075 0.449135 0.915340
0.414171 0.709886 0.096436
0.416907 0.712622 0.298112
0.420091 0.715807 0.532843
0.423415 0.719130 0.777829
0.425723 0.721438 0.947988
0.445033 0.967299 0.127299
0.447769 0.970035 0.328975
0.450954 0.973219 0.563706
0.454277 0.976542 0.808691
0.456585 0.978851 0.978851
0.577647 0.022482 0.022482
0.580383 0.025217 0.224158
0.583567 0.028402 0.458889
0.586891 0.031725 0.703874
0.589199 0.034034 0.874034
0.597497 0.188042 0.042332
0.600233 0.190778 0.244008
0.603417 0.193963 0.478739
0.606741 0.197286 0.723724
0.609049 0.199594 0.893884
0.628569 0.447198 0.073403
0.631304 0.449934 0.275079
0.634489 0.453118 0.509810
0.637812 0.456442 0.754796
0.640121 0.458750 0.924955
0.661216 0.719501 0.106051
0.663952 0.722237 0.307727
0.667137 0.725422 0.542458
0.670460 0.728745 0.787443
0.672768 0.731053 0.957603
0.692079 0.976914 0.136914
0.694815 0.979649 0.338590
0.697999 0.982834 0.573321
0.701323 0.986157 0.818306
0.703631 0.988466 0.988466
0.833027 0.032421 0.032421
0.835763 0.035157 0.234097
0.838947 0.038341 0.468828
0.842271 0.041664 0.713813
0.844579 0.043973 0.883973
0.852877 0.197982 0.052271
0.855613 0.200717 0.253947
0.858797 0.203902 0.488678
0.862121 0.207225 0.733663
0.864429 0.209534 0.903823
0.883949 0.457137 0.083342
0.886685 0.459873 0.285018
0.889869 0.463057 0.519749
0.893192 0.466381 0.764735
0.895501 0.468689 0.934894
0.916597 0.729440 0.115990
0.919333 0.732176 0.317666
0.922517 0.735361 0.552397
0.925840 0.738684 0.797383
0.928149 0.740992 0.967542
0.947459 0.986853 0.146853
0.950195 0.989589 0.348529
0.953379 0.992773 0.583260
0.956703 0.996096 0.828245
0.959011 0.998405 0.998405
