skills/clipper-orchestrator/assets/grade/luts/night_blue_v09.cube
TITLE "night_blue_v09"
LUT_3D_SIZE 17
DOMAIN_MIN 0.0 0.0 0.0
DOMAIN_MAX 1.0 1.0 1.0
0.000000 0.000000 0.000000
0.000346 0.000346 0.034823
0.000870 0.000870 0.087540
0.001414 0.001414 0.142230
0.001970 0.001970 0.198157
0.002535 0.002535 0.254996
0.003108 0.003108 0.312561
0.003686 0.003686 0.370730
0.004269 0.004269 0.429419
0.004857 0.004857 0.488562
0.005450 0.005450 0.548111
0.006045 0.006045 0.608026
0.006644 0.006644 0.668275
0.007246 0.007246 0.728831
0.007851 0.007851 0.789671
0.008459 0.008459 0.850775
0.008816 0.008816 0.886711
0.000000 0.000000 0.000000
0.000346 0.000346 0.034823
0.000870 0.000870 0.087540
0.001414 0.001414 0.142230
0.001970 0.001970 0.198157
0.002535 0.002535 0.254996
0.003108 0.003108 0.312561
0.003686 0.003686 0.370730
0.004269 0.004269 0.429419
0.004857 0.004857 0.488562
0.005450 0.005450 0.548111
0.006045 0.006045 0.608026
0.006644 0.006644 0.668275
0.007246 0.007246 0.728831
0.007851 0.007851 0.789671
0.008459 0.008459 0.850775
0.008816 0.008816 0.886711
0.004834 0.053427 0.004834
0.005180 0.053773 0.039657
0.005704 0.054297 0.092374
0.006248 0.054841 0.147064
0.006804 0.055397 0.202991
0.007369 0.055962 0.259830
0.007941 0.056534 0.317395
0.008520 0.057113 0.375564
0.009103 0.057696 0.434253
0.009691 0.058284 0.493396
0.010283 0.058876 0.552945
0.010879 0.059472 0.612860
0.011478 0.060071 0.673109
0.012080 0.060673 0.733665
0.012685 0.061278 0.794504
0.013293 0.061885 0.855609
0.013650 0.062243 0.891545
0.010092 0.111544 0.010092
0.010438 0.111890 0.044915
0.010962 0.112414 0.097632
0.011506 0.112958 0.152322
0.012062 0.113514 0.208249
0.012627 0.114079 0.265088
0.013200 0.114651 0.322653
0.013778 0.115230 0.380822
0.014361 0.115813 0.439511
0.014949 0.116401 0.498654
0.015542 0.116993 0.558203
0.016137 0.117589 0.618118
0.016736 0.118188 0.678367
0.017338 0.118790 0.738923
0.017943 0.119395 0.799763
0.018551 0.120002 0.860867
0.018908 0.120360 0.896803
0.015516 0.171498 0.015516
0.015863 0.171845 0.050340
0.016387 0.172369 0.103056
0.016931 0.172912 0.157747
0.017487 0.173469 0.213674
0.018052 0.174034 0.270512
0.018624 0.174606 0.328077
0.019202 0.175184 0.386247
0.019786 0.175768 0.444935
0.020374 0.176356 0.504079
0.020966 0.176948 0.563628
0.021562 0.177544 0.623543
0.022161 0.178143 0.683792
0.022763 0.178745 0.744347
0.023368 0.179350 0.805187
0.023975 0.179957 0.866291
0.024332 0.180314 0.902227
0.021052 0.232678 0.021052
0.021398 0.233024 0.055875
0.021922 0.233548 0.108592
0.022466 0.234092 0.163282
0.023022 0.234648 0.219209
0.023587 0.235213 0.276048
0.024159 0.235785 0.333613
0.024738 0.236364 0.391782
0.025321 0.236947 0.450470
0.025909 0.237535 0.509614
0.026501 0.238127 0.569163
0.027097 0.238723 0.629078
0.027696 0.239322 0.689327
0.028298 0.239924 0.749883
0.028903 0.240529 0.810722
0.029510 0.241136 0.871827
0.029868 0.241494 0.907762
0.026671 0.294784 0.026671
0.027017 0.295130 0.061494
0.027541 0.295654 0.114211
0.028085 0.296198 0.168901
0.028641 0.296754 0.224828
0.029206 0.297319 0.281667
0.029778 0.297891 0.339232
0.030357 0.298470 0.397401
0.030940 0.299053 0.456090
0.031528 0.299641 0.515233
0.032120 0.300233 0.574782
0.032716 0.300829 0.634697
0.033315 0.301428 0.694946
0.033917 0.302030 0.755502
0.034522 0.302635 0.816341
0.035130 0.303242 0.877446
0.035487 0.303600 0.913382
0.032358 0.357638 0.032358
0.032704 0.357985 0.067181
0.033228 0.358509 0.119898
0.033772 0.359052 0.174588
0.034328 0.359609 0.230515
0.034893 0.360174 0.287354
0.035465 0.360746 0.344919
0.036044 0.361324 0.403088
0.036627 0.361908 0.461776
0.037215 0.362496 0.520920
0.037807 0.363088 0.580469
0.038403 0.363684 0.640384
0.039002 0.364283 0.700633
0.039604 0.364885 0.761189
0.040209 0.365490 0.822028
0.040816 0.366097 0.883133
0.041174 0.366454 0.919068
0.038101 0.421122 0.038101
0.038448 0.421469 0.072925
0.038972 0.421993 0.125641
0.039516 0.422536 0.180332
0.040072 0.423092 0.236259
0.040637 0.423658 0.293097
0.041209 0.424230 0.350662
0.041787 0.424808 0.408832
0.042371 0.425392 0.467520
0.042959 0.425980 0.526664
0.043551 0.426572 0.586213
0.044147 0.427168 0.646128
0.044746 0.427767 0.706377
0.045348 0.428369 0.766932
0.045953 0.428974 0.827772
0.046560 0.429581 0.888876
0.046917 0.429938 0.924812
0.043894 0.485150 0.043894
0.044241 0.485496 0.078718
0.044765 0.486020 0.131434
0.045309 0.486564 0.186125
0.045865 0.487120 0.242051
0.046430 0.487685 0.298890
0.047002 0.488258 0.356455
0.047580 0.488836 0.414625
0.048164 0.489419 0.473313
0.048752 0.490007 0.532457
0.049344 0.490600 0.592006
0.049940 0.491195 0.651921
0.050539 0.491794 0.712170
0.051141 0.492396 0.772725
0.051746 0.493001 0.833565
0.052353 0.493609 0.894669
0.052710 0.493966 0.930605
0.049731 0.549657 0.049731
0.050077 0.550003 0.084554
0.050601 0.550527 0.137271
0.051145 0.551071 0.191961
0.051701 0.551627 0.247888
0.052266 0.552192 0.304727
0.052838 0.552765 0.362292
0.053417 0.553343 0.420461
0.054000 0.553926 0.479150
0.054588 0.554514 0.538293
0.055180 0.555106 0.597842
0.055776 0.555702 0.657757
0.056375 0.556301 0.718006
0.056977 0.556903 0.778562
0.057582 0.557508 0.839401
0.058189 0.558116 0.900506
0.058547 0.558473 0.936442
0.055606 0.614593 0.055606
0.055952 0.614939 0.090429
0.056476 0.615463 0.143146
0.057020 0.616007 0.197836
0.057576 0.616563 0.253763
0.058141 0.617128 0.310602
0.058713 0.617700 0.368167
0.059292 0.618278 0.426336
0.059875 0.618862 0.485025
0.060463 0.619450 0.544168
0.061055 0.620042 0.603717
0.061651 0.620638 0.663632
0.062250 0.621237 0.723881
0.062852 0.621839 0.784437
0.063457 0.622444 0.845277
0.064065 0.623051 0.906381
0.064422 0.623409 0.942317
0.061516 0.679916 0.061516
0.061862 0.680262 0.096339
0.062386 0.680787 0.149056
0.062930 0.681330 0.203746
0.063486 0.681886 0.259673
0.064051 0.682451 0.316512
0.064624 0.683024 0.374077
0.065202 0.683602 0.432246
0.065786 0.684186 0.490935
0.066374 0.684774 0.550078
0.066966 0.685366 0.609627
0.067561 0.685961 0.669542
0.068160 0.686560 0.729791
0.068762 0.687163 0.790347
0.069367 0.687767 0.851187
0.069975 0.688375 0.912291
0.070332 0.688732 0.948227
0.067458 0.745595 0.067458
0.067805 0.745941 0.102282
0.068329 0.746465 0.154998
0.068873 0.747009 0.209689
0.069429 0.747565 0.265615
0.069994 0.748130 0.322454
0.070566 0.748702 0.380019
0.071144 0.749281 0.438189
0.071728 0.749864 0.496877
0.072316 0.750452 0.556021
0.072908 0.751044 0.615570
0.073504 0.751640 0.675485
0.074103 0.752239 0.735734
0.074705 0.752841 0.796289
0.075310 0.753446 0.857129
0.075917 0.754053 0.918233
0.076274 0.754411 0.954169
0.073430 0.811600 0.073430
0.073777 0.811946 0.108253
0.074301 0.812470 0.160970
0.074844 0.813014 0.215660
0.075400 0.813570 0.271587
0.075966 0.814135 0.328426
0.076538 0.814707 0.385991
0.077116 0.815286 0.444161
0.077700 0.815869 0.502849
0.078288 0.816457 0.561993
0.078880 0.817049 0.621542
0.079476 0.817645 0.681457
0.080075 0.818244 0.741705
0.080677 0.818846 0.802261
0.081282 0.819451 0.863101
0.081889 0.820059 0.924205
0.082246 0.820416 0.960141
0.079430 0.877908 0.079430
0.079776 0.878254 0.114253
0.080300 0.878778 0.166970
0.080844 0.879322 0.221660
0.081400 0.879878 0.277587
0.081965 0.880443 0.334426
0.082537 0.881016 0.391991
0.083116 0.881594 0.450160
0.083699 0.882177 0.508848
0.084287 0.882766 0.567992
0.084879 0.883358 0.627541
0.085475 0.883953 0.687456
0.086074 0.884552 0.747705
0.086676 0.885154 0.808261
0.087281 0.885759 0.869100
0.087888 0.886367 0.930205
0.088246 0.886724 0.966140
0.085455 0.944499 0.085455
0.085801 0.944845 0.120278
0.086325 0.945369 0.172994
0.086869 0.945913 0.227685
0.087425 0.946469 0.283612
0.087990 0.947034 0.340451
0.088562 0.947606 0.398015
0.089140 0.948185 0.456185
0.089724 0.948768 0.514873
0.090312 0.949356 0.574017
0.090904 0.949948 0.633566
0.091500 0.950544 0.693481
0.092099 0.951143 0.753730
0.092701 0.951745 0.814285
0.093306 0.952350 0.875125
0.093913 0.952958 0.936229
0.094271 0.953315 0.972165
0.000000 0.000000 0.000000
0.000346 0.000346 0.034823
0.000870 0.000870 0.087540
0.001414 0.001414 0.142230
0.001970 0.001970 0.198157
0.002535 0.002535 0.254996
0.003108 0.003108 0.312561
0.003686 0.003686 0.370730
0.004269 0.004269 0.429419
0.004857 0.004857 0.488562
0.005450 0.005450 0.548111
0.006045 0.006045 0.608026
0.006644 0.006644 0.668275
0.007246 0.007246 0.728831
0.007851 0.007851 0.789671
0.008459 0.008459 0.850775
0.008816 0.008816 0.886711
0.000000 0.000000 0.000000
0.000346 0.000346 0.034823
0.000870 0.000870 0.087540
0.001414 0.001414 0.142230
0.001970 0.001970 0.198157
0.002535 0.002535 0.254996
0.003108 0.003108 0.312561
0.003686 0.003686 0.370730
0.004269 0.004269 0.429419
0.004857 0.004857 0.488562
0.005450 0.005450 0.548111
0.006045 0.006045 0.608026
0.006644 0.006644 0.668275
0.007246 0.007246 0.728831
0.007851 0.007851 0.789671
0.008459 0.008459 0.850775
0.008816 0.008816 0.886711
0.004834 0.053427 0.004834
0.005180 0.053773 0.039657
0.005704 0.054297 0.092374
0.006248 0.054841 0.147064
0.006804 0.055397 0.202991
0.007369 0.055962 0.259830
0.007941 0.056534 0.317395
0.008520 0.057113 0.375564
0.009103 0.057696 0.434253
0.009691 0.058284 0.493396
0.010283 0.058876 0.552945
0.010879 0.059472 0.612860
0.011478 0.060071 0.673109
0.012080 0.060673 0.733665
0.012685 0.061278 0.794504
0.013293 0.061885 0.855609
0.013650 0.062243 0.891545
0.010092 0.111544 0.010092
0.010438 0.111890 0.044915
0.010962 0.112414 0.097632
0.011506 0.112958 0.152322
0.012062 0.113514 0.208249
0.012627 0.114079 0.265088
0.013200 0.114651 0.322653
0.013778 0.115230 0.380822
0.014361 0.115813 0.439511
0.014949 0.116401 0.498654
0.015542 0.116993 0.558203
0.016137 0.117589 0.618118
0.016736 0.118188 0.678367
0.017338 0.118790 0.738923
0.017943 0.119395 0.799763
0.018551 0.120002 0.860867
0.018908 0.120360 0.896803
0.015516 0.171498 0.015516
0.015863 0.171845 0.050340
0.016387 0.172369 0.103056
0.016931 0.172912 0.157747
0.017487 0.173469 0.213674
0.018052 0.174034 0.270512
0.018624 0.174606 0.328077
0.019202 0.175184 0.386247
0.019786 0.175768 0.444935
0.020374 0.176356 0.504079
0.020966 0.176948 0.563628
0.021562 0.177544 0.623543
0.022161 0.178143 0.683792
0.022763 0.178745 0.744347
0.023368 0.179350 0.805187
0.023975 0.179957 0.866291
0.024332 0.180314 0.902227
0.021052 0.232678 0.021052
0.021398 0.233024 0.055875
0.021922 0.233548 0.108592
0.022466 0.234092 0.163282
0.023022 0.234648 0.219209
0.023587 0.235213 0.276048
0.024159 0.235785 0.333613
0.024738 0.236364 0.391782
0.025321 0.236947 0.450470
0.025909 0.237535 0.509614
0.026501 0.238127 0.569163
0.027097 0.238723 0.629078
0.027696 0.239322 0.689327
0.028298 0.239924 0.749883
0.028903 0.240529 0.810722
0.029510 0.241136 0.871827
0.029868 0.241494 0.907762
0.026671 0.294784 0.026671
0.027017 0.295130 0.061494
0.027541 0.295654 0.114211
0.028085 0.296198 0.168901
0.028641 0.296754 0.224828
0.029206 0.297319 0.281667
0.029778 0.297891 0.339232
0.030357 0.298470 0.397401
0.030940 0.299053 0.456090
0.031528 0.299641 0.515233
0.032120 0.300233 0.574782
0.032716 0.300829 0.634697
0.033315 0.301428 0.694946
0.033917 0.302030 0.755502
0.034522 0.302635 0.816341
0.035130 0.303242 0.877446
0.035487 0.303600 0.913382
0.032358 0.357638 0.032358
0.032704 0.357985 0.067181
0.033228 0.358509 0.119898
0.033772 0.359052 0.174588
0.034328 0.359609 0.230515
0.034893 0.360174 0.287354
0.035465 0.360746 0.344919
0.036044 0.361324 0.403088
0.036627 0.361908 0.461776
0.037215 0.362496 0.520920
0.037807 0.363088 0.580469
0.038403 0.363684 0.640384
0.039002 0.364283 0.700633
0.039604 0.364885 0.761189
0.040209 0.365490 0.822028
0.040816 0.366097 0.883133
0.041174 0.366454 0.919068
0.038101 0.421122 0.038101
0.038448 0.421469 0.072925
0.038972 0.421993 0.125641
0.039516 0.422536 0.180332
0.040072 0.423092 0.236259
0.040637 0.423658 0.293097
0.041209 0.424230 0.350662
0.041787 0.424808 0.408832
0.042371 0.425392 0.467520
0.042959 0.425980 0.526664
0.043551 0.426572 0.586213
0.044147 0.427168 0.646128
0.044746 0.427767 0.706377
0.045348 0.428369 0.766932
0.045953 0.428974 0.827772
0.046560 0.429581 0.888876
0.046917 0.429938 0.924812
0.043894 0.485150 0.043894
0.044241 0.485496 0.078718
0.044765 0.486020 0.131434
0.045309 0.486564 0.186125
0.045865 0.487120 0.242051
0.046430 0.487685 0.298890
0.047002 0.488258 0.356455
0.047580 0.488836 0.414625
0.048164 0.489419 0.473313
0.048752 0.490007 0.532457
0.049344 0.490600 0.592006
0.049940 0.491195 0.651921
0.050539 0.491794 0.712170
0.051141 0.492396 0.772725
0.051746 0.493001 0.833565
0.052353 0.493609 0.894669
0.052710 0.493966 0.930605
0.049731 0.549657 0.049731
0.050077 0.550003 0.084554
0.050601 0.550527 0.137271
0.051145 0.551071 0.191961
0.051701 0.551627 0.247888
0.052266 0.552192 0.304727
0.052838 0.552765 0.362292
0.053417 0.553343 0.420461
0.054000 0.553926 0.479150
0.054588 0.554514 0.538293
0.055180 0.555106 0.597842
0.055776 0.555702 0.657757
0.056375 0.556301 0.718006
0.056977 0.556903 0.778562
0.057582 0.557508 0.839401
0.058189 0.558116 0.900506
0.058547 0.558473 0.936442
0.055606 0.614593 0.055606
0.055952 0.614939 0.090429
0.056476 0.615463 0.143146
0.057020 0.616007 0.197836
0.057576 0.616563 0.253763
0.058141 0.617128 0.310602
0.058713 0.617700 0.368167
0.059292 0.618278 0.426336
0.059875 0.618862 0.485025
0.060463 0.619450 0.544168
0.061055 0.620042 0.603717
0.061651 0.620638 0.663632
0.062250 0.621237 0.723881
0.062852 0.621839 0.784437
0.063457 0.622444 0.845277
0.064065 0.623051 0.906381
0.064422 0.623409 0.942317
0.061516 0.679916 0.061516
0.061862 0.680262 0.096339
0.062386 0.680787 0.149056
0.062930 0.681330 0.203746
0.063486 0.681886 0.259673
0.064051 0.682451 0.316512
0.064624 0.683024 0.374077
0.065202 0.683602 0.432246
0.065786 0.684186 0.490935
0.066374 0.684774 0.550078
0.066966 0.685366 0.609627
0.067561 0.685961 0.669542
0.068160 0.686560 0.729791
0.068762 0.687163 0.790347
0.069367 0.687767 0.851187
0.069975 0.688375 0.912291
0.070332 0.688732 0.948227
0.067458 0.745595 0.067458
0.067805 0.745941 0.102282
0.068329 0.746465 0.154998
0.068873 0.747009 0.209689
0.069429 0.747565 0.265615
0.069994 0.748130 0.322454
0.070566 0.748702 0.380019
0.071144 0.749281 0.438189
0.071728 0.749864 0.496877
0.072316 0.750452 0.556021
0.072908 0.751044 0.615570
0.073504 0.751640 0.675485
0.074103 0.752239 0.735734
0.074705 0.752841 0.796289
0.075310 0.753446 0.857129
0.075917 0.754053 0.918233
0.076274 0.754411 0.954169
0.073430 0.811600 0.073430
0.073777 0.811946 0.108253
0.074301 0.812470 0.160970
0.074844 0.813014 0.215660
0.075400 0.813570 0.271587
0.075966 0.814135 0.328426
0.076538 0.814707 0.385991
0.077116 0.815286 0.444161
0.077700 0.815869 0.502849
0.078288 0.816457 0.561993
0.078880 0.817049 0.621542
0.079476 0.817645 0.681457
0.080075 0.818244 0.741705
0.080677 0.818846 0.802261
0.081282 0.819451 0.863101
0.081889 0.820059 0.924205
0.082246 0.820416 0.960141
0.079430 0.877908 0.079430
0.079776 0.878254 0.114253
0.080300 0.878778 0.166970
0.080844 0.879322 0.221660
0.081400 0.879878 0.277587
0.081965 0.880443 0.334426
0.082537 0.881016 0.391991
0.083116 0.881594 0.450160
0.083699 0.882177 0.508848
0.084287 0.882766 0.567992
0.084879 0.883358 0.627541
0.085475 0.883953 0.687456
0.086074 0.884552 0.747705
0.086676 0.885154 0.808261
0.087281 0.885759 0.869100
0.087888 0.886367 0.930205
0.088246 0.886724 0.966140
0.085455 0.944499 0.085455
0.085801 0.944845 0.120278
0.086325 0.945369 0.172994
0.086869 0.945913 0.227685
0.087425 0.946469 0.283612
0.087990 0.947034 0.340451
0.088562 0.947606 0.398015
0.089140 0.948185 0.456185
0.089724 0.948768 0.514873
0.090312 0.949356 0.574017
0.090904 0.949948 0.633566
0.091500 0.950544 0.693481
0.092099 0.951143 0.753730
0.092701 0.951745 0.814285
0.093306 0.952350 0.875125
0.093913 0.952958 0.936229
0.094271 0.953315 0.972165
0.012664 0.000364 0.000364
0.013010 0.000710 0.035187
0.013534 0.001234 0.087904
0.014078 0.001778 0.142594
0.014634 0.002334 0.198521
0.015199 0.002899 0.255360
0.015771 0.003471 0.312925
0.016350 0.004050 0.371094
0.016933 0.004633 0.429782
0.017521 0.005221 0.488926
0.018113 0.005813 0.548475
0.018709 0.006409 0.608390
0.019308 0.007008 0.668639
0.019910 0.007610 0.729195
0.020515 0.008215 0.790034
0.021122 0.008822 0.851139
0.021480 0.009180 0.887074
0.012664 0.000364 0.000364
0.013010 0.000710 0.035187
0.013534 0.001234 0.087904
0.014078 0.001778 0.142594
0.014634 0.002334 0.198521
0.015199 0.002899 0.255360
0.015771 0.003471 0.312925
0.016350 0.004050 0.371094
0.016933 0.004633 0.429782
0.017521 0.005221 0.488926
0.018113 0.005813 0.548475
0.018709 0.006409 0.608390
0.019308 0.007008 0.668639
0.019910 0.007610 0.729195
0.020515 0.008215 0.790034
0.021122 0.008822 0.851139
0.021480 0.009180 0.887074
0.017497 0.053790 0.005198
0.017844 0.054137 0.040021
0.018368 0.054661 0.092737
0.018912 0.055204 0.147428
0.019468 0.055761 0.203355
0.020033 0.056326 0.260194
0.020605 0.056898 0.317758
0.021183 0.057476 0.375928
0.021767 0.058060 0.434616
0.022355 0.058648 0.493760
0.022947 0.059240 0.553309
0.023543 0.059836 0.613224
0.024142 0.060435 0.673473
0.024744 0.061037 0.734028
0.025349 0.061642 0.794868
0.025956 0.062249 0.855972
0.026313 0.062606 0.891908
0.022756 0.111907 0.010456
0.023102 0.112254 0.045279
0.023626 0.112778 0.097996
0.024170 0.113322 0.152686
0.024726 0.113878 0.208613
0.025291 0.114443 0.265452
0.025863 0.115015 0.323017
0.026442 0.115593 0.381186
0.027025 0.116177 0.439874
0.027613 0.116765 0.499018
0.028205 0.117357 0.558567
0.028801 0.117953 0.618482
0.029400 0.118552 0.678731
0.030002 0.119154 0.739287
0.030607 0.119759 0.800126
0.031214 0.120366 0.861231
0.031572 0.120723 0.897166
0.028180 0.171862 0.015880
0.028526 0.172208 0.050703
0.029050 0.172732 0.103420
0.029594 0.173276 0.158110
0.030150 0.173832 0.214037
0.030715 0.174397 0.270876
0.031288 0.174970 0.328441
0.031866 0.175548 0.386611
0.032450 0.176132 0.445299
0.033038 0.176720 0.504442
0.033630 0.177312 0.563991
0.034225 0.177907 0.623906
0.034824 0.178506 0.684155
0.035426 0.179108 0.744711
0.036031 0.179713 0.805551
0.036639 0.180321 0.866655
0.036996 0.180678 0.902591
0.033715 0.233041 0.021415
0.034062 0.233388 0.056239
0.034586 0.233912 0.108955
0.035129 0.234455 0.163646
0.035686 0.235012 0.219573
0.036251 0.235577 0.276411
0.036823 0.236149 0.333976
0.037401 0.236727 0.392146
0.037985 0.237311 0.450834
0.038573 0.237899 0.509978
0.039165 0.238491 0.569527
0.039761 0.239087 0.629442
0.040360 0.239686 0.689691
0.040962 0.240288 0.750246
0.041567 0.240893 0.811086
0.042174 0.241500 0.872190
0.042531 0.241857 0.908126
0.039334 0.295147 0.027035
0.039681 0.295494 0.061858
0.040205 0.296018 0.114574
0.040749 0.296562 0.169265
0.041305 0.297118 0.225192
0.041870 0.297683 0.282031
0.042442 0.298255 0.339595
0.043020 0.298833 0.397765
0.043604 0.299417 0.456453
0.044192 0.300005 0.515597
0.044784 0.300597 0.575146
0.045380 0.301193 0.635061
0.045979 0.301792 0.695310
0.046581 0.302394 0.755865
0.047186 0.302999 0.816705
0.047793 0.303606 0.877809
0.048150 0.303963 0.913745
0.045021 0.358002 0.032721
0.045368 0.358348 0.067545
0.045892 0.358872 0.120261
0.046435 0.359416 0.174952
0.046991 0.359972 0.230878
0.047557 0.360537 0.287717
0.048129 0.361110 0.345282
0.048707 0.361688 0.403452
0.049291 0.362272 0.462140
0.049879 0.362860 0.521284
0.050471 0.363452 0.580833
0.051067 0.364047 0.640748
0.051666 0.364646 0.700997
0.052268 0.365248 0.761552
0.052873 0.365853 0.822392
0.053480 0.366461 0.883496
0.053837 0.366818 0.919432
0.050765 0.421486 0.038465
0.051111 0.421832 0.073288
0.051635 0.422356 0.126005
0.052179 0.422900 0.180695
0.052735 0.423456 0.236622
0.053300 0.424021 0.293461
0.053873 0.424594 0.351026
0.054451 0.425172 0.409196
0.055035 0.425755 0.467884
0.055623 0.426343 0.527027
0.056215 0.426936 0.586576
0.056810 0.427531 0.646491
0.057409 0.428130 0.706740
0.058011 0.428732 0.767296
0.058616 0.429337 0.828136
0.059224 0.429945 0.889240
0.059581 0.430302 0.925176
0.056558 0.485514 0.044258
0.056904 0.485860 0.079081
0.057428 0.486384 0.131798
0.057972 0.486928 0.186488
0.058528 0.487484 0.242415
0.059093 0.488049 0.299254
0.059666 0.488621 0.356819
0.060244 0.489200 0.414989
0.060828 0.489783 0.473677
0.061416 0.490371 0.532820
0.062008 0.490963 0.592369
0.062603 0.491559 0.652284
0.063202 0.492158 0.712533
0.063804 0.492760 0.773089
0.064409 0.493365 0.833929
0.065017 0.493972 0.895033
0.065374 0.494330 0.930969
0.062394 0.550021 0.050094
0.062741 0.550367 0.084918
0.063265 0.550891 0.137634
0.063808 0.551435 0.192325
0.064365 0.551991 0.248252
0.064930 0.552556 0.305090
0.065502 0.553128 0.362655
0.066080 0.553707 0.420825
0.066664 0.554290 0.479513
0.067252 0.554878 0.538657
0.067844 0.555470 0.598206
0.068440 0.556066 0.658121
0.069039 0.556665 0.718370
0.069641 0.557267 0.778925
0.070246 0.557872 0.839765
0.070853 0.558479 0.900869
0.071210 0.558837 0.936805
0.068270 0.614956 0.055970
0.068616 0.615302 0.090793
0.069140 0.615827 0.143510
0.069684 0.616370 0.198200
0.070240 0.616926 0.254127
0.070805 0.617491 0.310966
0.071377 0.618064 0.368531
0.071955 0.618642 0.426700
0.072539 0.619226 0.485388
0.073127 0.619814 0.544532
0.073719 0.620406 0.604081
0.074315 0.621001 0.663996
0.074914 0.621600 0.724245
0.075516 0.622203 0.784800
0.076121 0.622807 0.845640
0.076728 0.623415 0.906745
0.077086 0.623772 0.942680
0.074180 0.680280 0.061880
0.074526 0.680626 0.096703
0.075050 0.681150 0.149420
0.075594 0.681694 0.204110
0.076150 0.682250 0.260037
0.076715 0.682815 0.316876
0.077287 0.683388 0.374441
0.077866 0.683966 0.432610
0.078449 0.684549 0.491299
0.079037 0.685137 0.550442
0.079629 0.685729 0.609991
0.080225 0.686325 0.669906
0.080824 0.686924 0.730155
0.081426 0.687526 0.790711
0.082031 0.688131 0.851550
0.082638 0.688739 0.912655
0.082996 0.689096 0.948591
0.080122 0.745958 0.067822
0.080468 0.746305 0.102645
0.080992 0.746829 0.155362
0.081536 0.747372 0.210052
0.082092 0.747928 0.265979
0.082657 0.748494 0.322818
0.083230 0.749066 0.380383
0.083808 0.749644 0.438553
0.084391 0.750228 0.497241
0.084980 0.750816 0.556384
0.085572 0.751408 0.615933
0.086167 0.752004 0.675848
0.086766 0.752603 0.736097
0.087368 0.753205 0.796653
0.087973 0.753810 0.857493
0.088581 0.754417 0.918597
0.088938 0.754774 0.954533
0.086094 0.811964 0.073794
0.086440 0.812310 0.108617
0.086964 0.812834 0.161334
0.087508 0.813378 0.216024
0.088064 0.813934 0.271951
0.088629 0.814499 0.328790
0.089202 0.815071 0.386355
0.089780 0.815649 0.444524
0.090363 0.816233 0.503213
0.090951 0.816821 0.562356
0.091543 0.817413 0.621905
0.092139 0.818009 0.681820
0.092738 0.818608 0.742069
0.093340 0.819210 0.802625
0.093945 0.819815 0.863465
0.094553 0.820422 0.924569
0.094910 0.820780 0.960505
0.092093 0.878272 0.079793
0.092439 0.878618 0.114616
0.092964 0.879142 0.167333
0.093507 0.879686 0.222023
0.094063 0.880242 0.277950
0.094629 0.880807 0.334789
0.095201 0.881379 0.392354
0.095779 0.881958 0.450524
0.096363 0.882541 0.509212
0.096951 0.883129 0.568356
0.097543 0.883721 0.627905
0.098138 0.884317 0.687820
0.098737 0.884916 0.748069
0.099340 0.885518 0.808624
0.099944 0.886123 0.869464
0.100552 0.886730 0.930568
0.100909 0.887088 0.966504
0.098118 0.944863 0.085818
0.098464 0.945209 0.120641
0.098988 0.945733 0.173358
0.099532 0.946277 0.228048
0.100088 0.946833 0.283975
0.100653 0.947398 0.340814
0.101226 0.947970 0.398379
0.101804 0.948549 0.456549
0.102388 0.949132 0.515237
0.102976 0.949720 0.574380
0.103568 0.950312 0.633929
0.104163 0.950908 0.693845
0.104762 0.951507 0.754093
0.105364 0.952109 0.814649
0.105969 0.952714 0.875489
0.106577 0.953321 0.936593
0.106934 0.953679 0.972529
0.064807 0.001861 0.001861
0.065154 0.002208 0.036684
0.065678 0.002732 0.089401
0.066221 0.003275 0.144091
0.066778 0.003831 0.200018
0.067343 0.004397 0.256857
0.067915 0.004969 0.314422
0.068493 0.005547 0.372592
0.069077 0.006131 0.431280
0.069665 0.006719 0.490424
0.070257 0.007311 0.549973
0.070853 0.007907 0.609888
0.071452 0.008506 0.670136
0.072054 0.009108 0.730692
0.072659 0.009713 0.791532
0.073266 0.010320 0.852636
0.073623 0.010677 0.888572
0.064807 0.001861 0.001861
