skills/clipper-orchestrator/assets/grade/luts/night_blue_v09.cube
TITLE "night_blue_v09"
LUT_3D_SIZE 9
DOMAIN_MIN 0.0 0.0 0.0
DOMAIN_MAX 1.0 1.0 1.0
0.000000 0.000000 0.000000
0.000870 0.000870 0.087540
0.001970 0.001970 0.198157
0.003108 0.003108 0.312561
0.004269 0.004269 0.429419
0.005450 0.005450 0.548111
0.006644 0.006644 0.668275
0.007851 0.007851 0.789671
0.008816 0.008816 0.886711
0.004834 0.053427 0.004834
0.005704 0.054297 0.092374
0.006804 0.055397 0.202991
0.007941 0.056534 0.317395
0.009103 0.057696 0.434253
0.010283 0.058876 0.552945
0.011478 0.060071 0.673109
0.012685 0.061278 0.794504
0.013650 0.062243 0.891545
0.015516 0.171498 0.015516
0.016387 0.172369 0.103056
0.017487 0.173469 0.213674
0.018624 0.174606 0.328077
0.019786 0.175768 0.444935
0.020966 0.176948 0.563628
0.022161 0.178143 0.683792
0.023368 0.179350 0.805187
0.024332 0.180314 0.902227
0.026671 0.294784 0.026671
0.027541 0.295654 0.114211
0.028641 0.296754 0.224828
0.029778 0.297891 0.339232
0.030940 0.299053 0.456090
0.032120 0.300233 0.574782
0.033315 0.301428 0.694946
0.034522 0.302635 0.816341
0.035487 0.303600 0.913382
0.038101 0.421122 0.038101
0.038972 0.421993 0.125641
0.040072 0.423092 0.236259
0.041209 0.424230 0.350662
0.042371 0.425392 0.467520
0.043551 0.426572 0.586213
0.044746 0.427767 0.706377
0.045953 0.428974 0.827772
0.046917 0.429938 0.924812
0.049731 0.549657 0.049731
0.050601 0.550527 0.137271
0.051701 0.551627 0.247888
0.052838 0.552765 0.362292
0.054000 0.553926 0.479150
0.055180 0.555106 0.597842
0.056375 0.556301 0.718006
0.057582 0.557508 0.839401
0.058547 0.558473 0.936442
0.061516 0.679916 0.061516
0.062386 0.680787 0.149056
0.063486 0.681886 0.259673
0.064624 0.683024 0.374077
0.065786 0.684186 0.490935
0.066966 0.685366 0.609627
0.068160 0.686560 0.729791
0.069367 0.687767 0.851187
0.070332 0.688732 0.948227
0.073430 0.811600 0.073430
0.074301 0.812470 0.160970
0.075400 0.813570 0.271587
0.076538 0.814707 0.385991
0.077700 0.815869 0.502849
0.078880 0.817049 0.621542
0.080075 0.818244 0.741705
0.081282 0.819451 0.863101
0.082246 0.820416 0.960141
0.085455 0.944499 0.085455
0.086325 0.945369 0.172994
0.087425 0.946469 0.283612
0.088562 0.947606 0.398015
0.089724 0.948768 0.514873
0.090904 0.949948 0.633566
0.092099 0.951143 0.753730
0.093306 0.952350 0.875125
0.094271 0.953315 0.972165
0.012664 0.000364 0.000364
0.013534 0.001234 0.087904
0.014634 0.002334 0.198521
0.015771 0.003471 0.312925
0.016933 0.004633 0.429782
0.018113 0.005813 0.548475
0.019308 0.007008 0.668639
0.020515 0.008215 0.790034
0.021480 0.009180 0.887074
0.017497 0.053790 0.005198
0.018368 0.054661 0.092737
0.019468 0.055761 0.203355
0.020605 0.056898 0.317758
0.021767 0.058060 0.434616
0.022947 0.059240 0.553309
0.024142 0.060435 0.673473
0.025349 0.061642 0.794868
0.026313 0.062606 0.891908
0.028180 0.171862 0.015880
0.029050 0.172732 0.103420
0.030150 0.173832 0.214037
0.031288 0.174970 0.328441
0.032450 0.176132 0.445299
0.033630 0.177312 0.563991
0.034824 0.178506 0.684155
0.036031 0.179713 0.805551
0.036996 0.180678 0.902591
0.039334 0.295147 0.027035
0.040205 0.296018 0.114574
0.041305 0.297118 0.225192
0.042442 0.298255 0.339595
0.043604 0.299417 0.456453
0.044784 0.300597 0.575146
0.045979 0.301792 0.695310
0.047186 0.302999 0.816705
0.048150 0.303963 0.913745
0.050765 0.421486 0.038465
0.051635 0.422356 0.126005
0.052735 0.423456 0.236622
0.053873 0.424594 0.351026
0.055035 0.425755 0.467884
0.056215 0.426936 0.586576
0.057409 0.428130 0.706740
0.058616 0.429337 0.828136
0.059581 0.430302 0.925176
0.062394 0.550021 0.050094
0.063265 0.550891 0.137634
0.064365 0.551991 0.248252
0.065502 0.553128 0.362655
0.066664 0.554290 0.479513
0.067844 0.555470 0.598206
0.069039 0.556665 0.718370
0.070246 0.557872 0.839765
0.071210 0.558837 0.936805
0.074180 0.680280 0.061880
0.075050 0.681150 0.149420
0.076150 0.682250 0.260037
0.077287 0.683388 0.374441
0.078449 0.684549 0.491299
0.079629 0.685729 0.609991
0.080824 0.686924 0.730155
0.082031 0.688131 0.851550
0.082996 0.689096 0.948591
0.086094 0.811964 0.073794
0.086964 0.812834 0.161334
0.088064 0.813934 0.271951
0.089202 0.815071 0.386355
0.090363 0.816233 0.503213
0.091543 0.817413 0.621905
0.092738 0.818608 0.742069
0.093945 0.819815 0.863465
0.094910 0.820780 0.960505
0.098118 0.944863 0.085818
0.098988 0.945733 0.173358
0.100088 0.946833 0.283975
0.101226 0.947970 0.398379
0.102388 0.949132 0.515237
0.103568 0.950312 0.633929
0.104762 0.951507 0.754093
0.105969 0.952714 0.875489
0.106934 0.953679 0.972529
0.119797 0.003441 0.003441
0.120667 0.004311 0.090981
0.121767 0.005411 0.201598
0.122904 0.006548 0.316002
0.124066 0.007710 0.432859
0.125246 0.008890 0.551552
0.126441 0.010085 0.671716
0.127648 0.011292 0.793111
0.128613 0.012257 0.890151
0.124631 0.056867 0.008275
0.125501 0.057738 0.095814
0.126601 0.058838 0.206432
0.127738 0.059975 0.320835
0.128900 0.061137 0.437693
0.130080 0.062317 0.556386
0.131275 0.063512 0.676550
0.132482 0.064719 0.797945
0.133447 0.065683 0.894985
0.135313 0.174939 0.018957
0.136184 0.175809 0.106497
0.137283 0.176909 0.217114
0.138421 0.178047 0.331518
0.139583 0.179208 0.448376
0.140763 0.180389 0.567068
0.141957 0.181583 0.687232
0.143164 0.182790 0.808628
0.144129 0.183755 0.905668
0.146468 0.298224 0.030112
0.147338 0.299095 0.117651
0.148438 0.300195 0.228269
0.149575 0.301332 0.342672
0.150737 0.302494 0.459530
0.151917 0.303674 0.578223
0.153112 0.304869 0.698387
0.154319 0.306076 0.819782
0.155284 0.307040 0.916822
0.157898 0.424563 0.041542
0.158769 0.425433 0.129082
0.159868 0.426533 0.239699
0.161006 0.427671 0.354103
0.162168 0.428832 0.470961
0.163348 0.430013 0.589653
0.164542 0.431207 0.709817
0.165749 0.432414 0.831213
0.166714 0.433379 0.928253
0.169528 0.553098 0.053171
0.170398 0.553968 0.140711
0.171498 0.555068 0.251329
0.172635 0.556205 0.365732
0.173797 0.557367 0.482590
0.174977 0.558547 0.601283
0.176172 0.559742 0.721447
0.177379 0.560949 0.842842
0.178344 0.561914 0.939882
0.181313 0.683357 0.064957
0.182183 0.684227 0.152497
0.183283 0.685327 0.263114
0.184420 0.686464 0.377518
0.185582 0.687626 0.494376
0.186762 0.688806 0.613068
0.187957 0.690001 0.733232
0.189164 0.691208 0.854627
0.190129 0.692173 0.951668
0.193227 0.815041 0.076871
0.194097 0.815911 0.164411
0.195197 0.817011 0.275028
0.196335 0.818148 0.389432
0.197497 0.819310 0.506290
0.198677 0.820490 0.624982
0.199871 0.821685 0.745146
0.201078 0.822892 0.866542
0.202043 0.823857 0.963582
0.205251 0.947940 0.088895
0.206122 0.948810 0.176435
0.207221 0.949910 0.287052
0.208359 0.951047 0.401456
0.209521 0.952209 0.518314
0.210701 0.953389 0.637006
0.211896 0.954584 0.757170
0.213102 0.955791 0.878566
0.214067 0.956756 0.975606
0.233845 0.006716 0.006716
0.234715 0.007587 0.094256
0.235815 0.008686 0.204873
0.236952 0.009824 0.319277
0.238114 0.010986 0.436135
0.239294 0.012166 0.554827
0.240489 0.013360 0.674991
0.241696 0.014567 0.796387
0.242661 0.015532 0.893427
0.238679 0.060143 0.011550
0.239549 0.061013 0.099090
0.240649 0.062113 0.209707
0.241786 0.063251 0.324111
0.242948 0.064412 0.440969
0.244128 0.065592 0.559661
0.245323 0.066787 0.679825
0.246530 0.067994 0.801221
0.247495 0.068959 0.898261
0.249361 0.178215 0.022233
0.250232 0.179085 0.109773
0.251331 0.180185 0.220390
0.252469 0.181322 0.334794
0.253631 0.182484 0.451651
0.254811 0.183664 0.570344
0.256005 0.184859 0.690508
0.257212 0.186066 0.811903
0.258177 0.187031 0.908943
0.260516 0.301500 0.033387
0.261386 0.302370 0.120927
0.262486 0.303470 0.231544
0.263623 0.304608 0.345948
0.264785 0.305769 0.462806
0.265965 0.306949 0.581498
0.267160 0.308144 0.701662
0.268367 0.309351 0.823058
0.269332 0.310316 0.920098
0.271946 0.427839 0.044818
0.272817 0.428709 0.132358
0.273916 0.429809 0.242975
0.275054 0.430946 0.357379
0.276216 0.432108 0.474236
0.277396 0.433288 0.592929
0.278590 0.434483 0.713093
0.279797 0.435690 0.834488
0.280762 0.436655 0.931528
0.283575 0.556373 0.056447
0.284446 0.557244 0.143987
0.285546 0.558343 0.254604
0.286683 0.559481 0.369008
0.287845 0.560643 0.485866
0.289025 0.561823 0.604558
0.290220 0.563017 0.724722
0.291427 0.564224 0.846118
0.292391 0.565189 0.943158
0.295361 0.686632 0.068232
0.296231 0.687503 0.155772
0.297331 0.688603 0.266389
0.298468 0.689740 0.380793
0.299630 0.690902 0.497651
0.300810 0.692082 0.616344
0.302005 0.693277 0.736508
0.303212 0.694484 0.857903
0.304177 0.695448 0.954943
0.307275 0.818316 0.080147
0.308145 0.819186 0.167686
0.309245 0.820286 0.278304
0.310383 0.821424 0.392707
0.311544 0.822586 0.509565
0.312725 0.823766 0.628258
0.313919 0.824960 0.748422
0.315126 0.826167 0.869817
0.316091 0.827132 0.966857
0.319299 0.951215 0.092171
0.320170 0.952085 0.179711
0.321269 0.953185 0.290328
0.322407 0.954323 0.404732
0.323569 0.955485 0.521590
0.324749 0.956665 0.640282
0.325943 0.957859 0.760446
0.327150 0.959066 0.881841
0.328115 0.960031 0.978882
0.351239 0.010088 0.010088
0.352110 0.010958 0.097628
0.353209 0.012058 0.208245
0.354347 0.013196 0.322649
0.355509 0.014357 0.439507
0.356689 0.015537 0.558199
0.357884 0.016732 0.678363
0.359090 0.017939 0.799759
0.360055 0.018904 0.896799
0.356073 0.063515 0.014922
0.356943 0.064385 0.102462
0.358043 0.065485 0.213079
0.359181 0.066622 0.327483
0.360343 0.067784 0.444341
0.361523 0.068964 0.563033
0.362717 0.070159 0.683197
0.363924 0.071366 0.804592
0.364889 0.072331 0.901633
0.366756 0.181586 0.025604
0.367626 0.182457 0.113144
0.368726 0.183556 0.223761
0.369863 0.184694 0.338165
0.371025 0.185856 0.455023
0.372205 0.187036 0.573716
0.373400 0.188231 0.693880
0.374607 0.189437 0.815275
0.375572 0.190402 0.912315
0.377910 0.304872 0.036759
0.378781 0.305742 0.124299
0.379880 0.306842 0.234916
0.381018 0.307979 0.349320
0.382180 0.309141 0.466178
0.383360 0.310321 0.584870
0.384554 0.311516 0.705034
0.385761 0.312723 0.826429
0.386726 0.313688 0.923470
0.389341 0.431210 0.048189
0.390211 0.432081 0.135729
0.391311 0.433180 0.246346
0.392448 0.434318 0.360750
0.393610 0.435480 0.477608
0.394790 0.436660 0.596301
0.395985 0.437854 0.716465
0.397192 0.439061 0.837860
0.398157 0.440026 0.934900
0.400970 0.559745 0.059819
0.401840 0.560615 0.147359
0.402940 0.561715 0.257976
0.404078 0.562852 0.372380
0.405240 0.564014 0.489237
0.406420 0.565194 0.607930
0.407614 0.566389 0.728094
0.408821 0.567596 0.849489
0.409786 0.568561 0.946529
0.412755 0.690004 0.071604
0.413626 0.690874 0.159144
0.414726 0.691974 0.269761
0.415863 0.693112 0.384165
0.417025 0.694274 0.501023
0.418205 0.695454 0.619715
0.419400 0.696648 0.739879
0.420607 0.697855 0.861275
0.421571 0.698820 0.958315
0.424670 0.821688 0.083518
0.425540 0.822558 0.171058
0.426640 0.823658 0.281675
0.427777 0.824795 0.396079
0.428939 0.825957 0.512937
0.430119 0.827137 0.631629
0.431314 0.828332 0.751793
0.432521 0.829539 0.873189
0.433486 0.830504 0.970229
0.436694 0.954587 0.095542
0.437564 0.955457 0.183082
0.438664 0.956557 0.293699
0.439801 0.957694 0.408103
0.440963 0.958856 0.524961
0.442143 0.960036 0.643654
0.443338 0.961231 0.763818
0.444545 0.962438 0.885213
0.445510 0.963403 0.982253
0.470920 0.013525 0.013525
0.471791 0.014396 0.101065
0.472890 0.015495 0.211682
0.474028 0.016633 0.326086
0.475190 0.017795 0.442944
0.476370 0.018975 0.561636
0.477564 0.020170 0.681800
0.478771 0.021376 0.803196
0.479736 0.022341 0.900236
0.475754 0.066952 0.018359
0.476624 0.067822 0.105899
0.477724 0.068922 0.216516
0.478862 0.070060 0.330920
0.480023 0.071221 0.447778
0.481204 0.072401 0.566470
0.482398 0.073596 0.686634
0.483605 0.074803 0.808030
0.484570 0.075768 0.905070
0.486437 0.185024 0.029042
0.487307 0.185894 0.116582
0.488407 0.186994 0.227199
0.489544 0.188131 0.341603
0.490706 0.189293 0.458461
0.491886 0.190473 0.577153
0.493081 0.191668 0.697317
0.494288 0.192875 0.818712
0.495253 0.193840 0.915753
0.497591 0.308309 0.040196
0.498461 0.309179 0.127736
0.499561 0.310279 0.238353
0.500699 0.311417 0.352757
0.501861 0.312578 0.469615
0.503041 0.313759 0.588307
0.504235 0.314953 0.708471
0.505442 0.316160 0.829867
0.506407 0.317125 0.926907
0.509022 0.434648 0.051627
0.509892 0.435518 0.139167
0.510992 0.436618 0.249784
0.512129 0.437755 0.364188
0.513291 0.438917 0.481046
0.514471 0.440097 0.599738
0.515666 0.441292 0.719902
0.516873 0.442499 0.841297
0.517838 0.443464 0.938338
0.520651 0.563182 0.063256
0.521521 0.564053 0.150796
0.522621 0.565152 0.261413
0.523759 0.566290 0.375817
0.524920 0.567452 0.492675
0.526101 0.568632 0.611367
0.527295 0.569826 0.731531
0.528502 0.571033 0.852927
0.529467 0.571998 0.949967
0.532436 0.693441 0.075041
0.533307 0.694312 0.162581
0.534406 0.695412 0.273198
0.535544 0.696549 0.387602
0.536706 0.697711 0.504460
0.537886 0.698891 0.623153
0.539081 0.700086 0.743317
0.540288 0.701293 0.864712
0.541252 0.702257 0.961752
0.544351 0.825125 0.086956
0.545221 0.825995 0.174496
0.546321 0.827095 0.285113
0.547458 0.828233 0.399517
0.548620 0.829395 0.516374
0.549800 0.830575 0.635067
0.550995 0.831769 0.755231
0.552202 0.832976 0.876626
0.553167 0.833941 0.973666
0.556375 0.958024 0.098980
0.557245 0.958895 0.186520
0.558345 0.959994 0.297137
0.559482 0.961132 0.411541
0.560644 0.962294 0.528399
0.561824 0.963474 0.647091
0.563019 0.964668 0.767255
0.564226 0.965875 0.888650
0.565191 0.966840 0.985691
0.592351 0.017013 0.017013
0.593222 0.017883 0.104553
0.594321 0.018983 0.215170
0.595459 0.020121 0.329574
0.596621 0.021282 0.446432
0.597801 0.022462 0.565124
0.598996 0.023657 0.685288
0.600202 0.024864 0.806684
0.601167 0.025829 0.903724
0.597185 0.070440 0.021847
0.598055 0.071310 0.109387
0.599155 0.072410 0.220004
0.600293 0.073547 0.334408
0.601455 0.074709 0.451265
0.602635 0.075889 0.569958
0.603829 0.077084 0.690122
0.605036 0.078291 0.811517
0.606001 0.079256 0.908557
0.607868 0.188511 0.032529
0.608738 0.189382 0.120069
0.609838 0.190481 0.230686
0.610975 0.191619 0.345090
0.612137 0.192781 0.461948
0.613317 0.193961 0.580641
0.614512 0.195156 0.700805
0.615719 0.196362 0.822200
0.616684 0.197327 0.919240
0.619022 0.311797 0.043684
0.619892 0.312667 0.131224
0.620992 0.313767 0.241841
0.622130 0.314904 0.356245
0.623292 0.316066 0.473103
0.624472 0.317246 0.591795
0.625666 0.318441 0.711959
0.626873 0.319648 0.833354
0.627838 0.320613 0.930395
0.630453 0.438135 0.055114
0.631323 0.439006 0.142654
0.632423 0.440105 0.253271
0.633560 0.441243 0.367675
0.634722 0.442405 0.484533
0.635902 0.443585 0.603226
0.637097 0.444779 0.723390
0.638304 0.445986 0.844785
0.639269 0.446951 0.941825
0.642082 0.566670 0.066744
0.642952 0.567540 0.154284
0.644052 0.568640 0.264901
0.645190 0.569777 0.379305
0.646351 0.570939 0.496162
0.647532 0.572119 0.614855
0.648726 0.573314 0.735019
0.649933 0.574521 0.856414
0.650898 0.575486 0.953454
0.653867 0.696929 0.078529
0.654738 0.697799 0.166069
0.655838 0.698899 0.276686
0.656975 0.700037 0.391090
0.658137 0.701199 0.507948
0.659317 0.702379 0.626640
0.660512 0.703573 0.746804
0.661719 0.704780 0.868200
0.662683 0.705745 0.965240
0.665782 0.828613 0.090443
0.666652 0.829483 0.177983
0.667752 0.830583 0.288600
0.668889 0.831720 0.403004
0.670051 0.832882 0.519862
0.671231 0.834062 0.638554
0.672426 0.835257 0.758718
0.673633 0.836464 0.880114
0.674598 0.837429 0.977154
0.677806 0.961512 0.102467
0.678676 0.962382 0.190007
0.679776 0.963482 0.300624
0.680913 0.964619 0.415028
0.682075 0.965781 0.531886
0.683255 0.966961 0.650579
0.684450 0.968156 0.770743
0.685657 0.969363 0.892138
0.686622 0.970328 0.989178
0.715205 0.020541 0.020541
0.716076 0.021412 0.108081
0.717176 0.022512 0.218698
0.718313 0.023649 0.333102
0.719475 0.024811 0.449960
0.720655 0.025991 0.568653
0.721850 0.027186 0.688817
0.723057 0.028393 0.810212
0.724021 0.029357 0.907252
0.720039 0.073968 0.025375
0.720910 0.074838 0.112915
0.722009 0.075938 0.223532
0.723147 0.077076 0.337936
0.724309 0.078238 0.454794
0.725489 0.079418 0.573486
0.726684 0.080612 0.693650
0.727890 0.081819 0.815046
0.728855 0.082784 0.912086
0.730722 0.192040 0.036058
0.731592 0.192910 0.123598
0.732692 0.194010 0.234215
0.733830 0.195147 0.348619
0.734991 0.196309 0.465477
0.736171 0.197489 0.584169
0.737366 0.198684 0.704333
0.738573 0.199891 0.825729
0.739538 0.200856 0.922769
0.741876 0.315325 0.047212
0.742747 0.316195 0.134752
0.743846 0.317295 0.245369
0.744984 0.318433 0.359773
0.746146 0.319595 0.476631
0.747326 0.320775 0.595323
0.748521 0.321969 0.715487
0.749727 0.323176 0.836883
0.750692 0.324141 0.933923
0.753307 0.441664 0.058643
0.754177 0.442534 0.146183
0.755277 0.443634 0.256800
0.756415 0.444771 0.371204
0.757576 0.445933 0.488062
0.758756 0.447113 0.606754
0.759951 0.448308 0.726918
0.761158 0.449515 0.848314
0.762123 0.450480 0.945354
0.764936 0.570198 0.070272
0.765807 0.571069 0.157812
0.766906 0.572168 0.268429
0.768044 0.573306 0.382833
0.769206 0.574468 0.499691
0.770386 0.575648 0.618383
0.771580 0.576843 0.738547
0.772787 0.578050 0.859943
0.773752 0.579014 0.956983
0.776722 0.700458 0.082058
0.777592 0.701328 0.169597
0.778692 0.702428 0.280215
0.779829 0.703565 0.394618
0.780991 0.704727 0.511476
0.782171 0.705907 0.630169
0.783366 0.707102 0.750333
0.784573 0.708309 0.871728
0.785538 0.709274 0.968768
0.788636 0.832141 0.093972
0.789506 0.833012 0.181512
0.790606 0.834111 0.292129
0.791743 0.835249 0.406533
0.792905 0.836411 0.523390
0.794085 0.837591 0.642083
0.795280 0.838785 0.762247
0.796487 0.839992 0.883642
0.797452 0.840957 0.980682
0.800660 0.965040 0.105996
0.801530 0.965911 0.193536
0.802630 0.967010 0.304153
0.803768 0.968148 0.418557
0.804929 0.969310 0.535415
0.806109 0.970490 0.654107
0.807304 0.971684 0.774271
0.808511 0.972891 0.895667
0.809476 0.973856 0.992707
0.839261 0.024104 0.024104
0.840132 0.024975 0.111644
0.841231 0.026075 0.222261
0.842369 0.027212 0.336665
0.843531 0.028374 0.453523
0.844711 0.029554 0.572216
0.845906 0.030749 0.692380
0.847113 0.031956 0.813775
0.848077 0.032920 0.910815
0.844095 0.077531 0.028938
0.844966 0.078401 0.116478
0.846065 0.079501 0.227095
0.847203 0.080639 0.341499
0.848365 0.081801 0.458357
0.849545 0.082981 0.577049
0.850739 0.084175 0.697213
0.851946 0.085382 0.818609
0.852911 0.086347 0.915649
0.854778 0.195603 0.039621
0.855648 0.196473 0.127161
0.856748 0.197573 0.237778
0.857885 0.198710 0.352182
0.859047 0.199872 0.469040
0.860227 0.201052 0.587732
0.861422 0.202247 0.707896
0.862629 0.203454 0.829292
0.863594 0.204419 0.926332
0.865932 0.318888 0.050775
0.866803 0.319758 0.138315
0.867902 0.320858 0.248932
0.869040 0.321996 0.363336
0.870202 0.323158 0.480194
0.871382 0.324338 0.598886
0.872576 0.325532 0.719050
0.873783 0.326739 0.840446
0.874748 0.327704 0.937486
0.877363 0.445227 0.062206
0.878233 0.446097 0.149746
0.879333 0.447197 0.260363
0.880470 0.448334 0.374767
0.881632 0.449496 0.491625
0.882812 0.450676 0.610317
0.884007 0.451871 0.730481
0.885214 0.453078 0.851877
0.886179 0.454043 0.948917
0.888992 0.573761 0.073835
0.889862 0.574632 0.161375
0.890962 0.575731 0.271992
0.892100 0.576869 0.386396
0.893262 0.578031 0.503254
0.894442 0.579211 0.621946
0.895636 0.580406 0.742110
0.896843 0.581613 0.863506
0.897808 0.582577 0.960546
0.900777 0.704021 0.085621
0.901648 0.704891 0.173160
0.902748 0.705991 0.283778
0.903885 0.707128 0.398181
0.905047 0.708290 0.515039
0.906227 0.709470 0.633732
0.907422 0.710665 0.753896
0.908629 0.711872 0.875291
0.909593 0.712837 0.972331
0.912692 0.835704 0.097535
0.913562 0.836575 0.185075
0.914662 0.837674 0.295692
0.915799 0.838812 0.410096
0.916961 0.839974 0.526953
0.918141 0.841154 0.645646
0.919336 0.842348 0.765810
0.920543 0.843555 0.887205
0.921508 0.844520 0.984245
0.924716 0.968603 0.109559
0.925586 0.969474 0.197099
0.926686 0.970573 0.307716
0.927823 0.971711 0.422120
0.928985 0.972873 0.538978
0.930165 0.974053 0.657670
0.931360 0.975248 0.777834
0.932567 0.976454 0.899230
0.933532 0.977419 0.996270
