skills/clipper-orchestrator/assets/grade/luts/night_blue_v09.cube
TITLE "night_blue_v09"
LUT_3D_SIZE 5
DOMAIN_MIN 0.0 0.0 0.0
DOMAIN_MAX 1.0 1.0 1.0
0.000000 0.000000 0.000000
0.001970 0.001970 0.198157
0.004269 0.004269 0.429419
0.006644 0.006644 0.668275
0.008816 0.008816 0.886711
0.015516 0.171498 0.015516
0.017487 0.173469 0.213674
0.019786 0.175768 0.444935
0.022161 0.178143 0.683792
0.024332 0.180314 0.902227
0.038101 0.421122 0.038101
0.040072 0.423092 0.236259
0.042371 0.425392 0.467520
0.044746 0.427767 0.706377
0.046917 0.429938 0.924812
0.061516 0.679916 0.061516
0.063486 0.681886 0.259673
0.065786 0.684186 0.490935
0.068160 0.686560 0.729791
0.070332 0.688732 0.948227
0.085455 0.944499 0.085455
0.087425 0.946469 0.283612
0.089724 0.948768 0.514873
0.092099 0.951143 0.753730
0.094271 0.953315 0.972165
0.119797 0.003441 0.003441
0.121767 0.005411 0.201598
0.124066 0.007710 0.432859
0.126441 0.010085 0.671716
0.128613 0.012257 0.890151
0.135313 0.174939 0.018957
0.137283 0.176909 0.217114
0.139583 0.179208 0.448376
0.141957 0.181583 0.687232
0.144129 0.183755 0.905668
0.157898 0.424563 0.041542
0.159868 0.426533 0.239699
0.162168 0.428832 0.470961
0.164542 0.431207 0.709817
0.166714 0.433379 0.928253
0.181313 0.683357 0.064957
0.183283 0.685327 0.263114
0.185582 0.687626 0.494376
0.187957 0.690001 0.733232
0.190129 0.692173 0.951668
0.205251 0.947940 0.088895
0.207221 0.949910 0.287052
0.209521 0.952209 0.518314
0.211896 0.954584 0.757170
0.214067 0.956756 0.975606
0.351239 0.010088 0.010088
0.353209 0.012058 0.208245
0.355509 0.014357 0.439507
0.357884 0.016732 0.678363
0.360055 0.018904 0.896799
0.366756 0.181586 0.025604
0.368726 0.183556 0.223761
0.371025 0.185856 0.455023
0.373400 0.188231 0.693880
0.375572 0.190402 0.912315
0.389341 0.431210 0.048189
0.391311 0.433180 0.246346
0.393610 0.435480 0.477608
0.395985 0.437854 0.716465
0.398157 0.440026 0.934900
0.412755 0.690004 0.071604
0.414726 0.691974 0.269761
0.417025 0.694274 0.501023
0.419400 0.696648 0.739879
0.421571 0.698820 0.958315
0.436694 0.954587 0.095542
0.438664 0.956557 0.293699
0.440963 0.958856 0.524961
0.443338 0.961231 0.763818
0.445510 0.963403 0.982253
0.592351 0.017013 0.017013
0.594321 0.018983 0.215170
0.596621 0.021282 0.446432
0.598996 0.023657 0.685288
0.601167 0.025829 0.903724
0.607868 0.188511 0.032529
0.609838 0.190481 0.230686
0.612137 0.192781 0.461948
0.614512 0.195156 0.700805
0.616684 0.197327 0.919240
0.630453 0.438135 0.055114
0.632423 0.440105 0.253271
0.634722 0.442405 0.484533
0.637097 0.444779 0.723390
0.639269 0.446951 0.941825
0.653867 0.696929 0.078529
0.655838 0.698899 0.276686
0.658137 0.701199 0.507948
0.660512 0.703573 0.746804
0.662683 0.705745 0.965240
0.677806 0.961512 0.102467
0.679776 0.963482 0.300624
0.682075 0.965781 0.531886
0.684450 0.968156 0.770743
0.686622 0.970328 0.989178
0.839261 0.024104 0.024104
0.841231 0.026075 0.222261
0.843531 0.028374 0.453523
0.845906 0.030749 0.692380
0.848077 0.032920 0.910815
0.854778 0.195603 0.039621
0.856748 0.197573 0.237778
0.859047 0.199872 0.469040
0.861422 0.202247 0.707896
0.863594 0.204419 0.926332
0.877363 0.445227 0.062206
0.879333 0.447197 0.260363
0.881632 0.449496 0.491625
0.884007 0.451871 0.730481
0.886179 0.454043 0.948917
0.900777 0.704021 0.085621
0.902748 0.705991 0.283778
0.905047 0.708290 0.515039
0.907422 0.710665 0.753896
0.909593 0.712837 0.972331
0.924716 0.968603 0.109559
0.926686 0.970573 0.307716
0.928985 0.972873 0.538978
0.931360 0.975248 0.777834
0.933532 0.977419 0.996270
