skills/clipper-orchestrator/assets/grade/luts/soft_pastel_v04.cube
TITLE "soft_pastel_v04"
LUT_3D_SIZE 5
DOMAIN_MIN 0.0 0.0 0.0
DOMAIN_MAX 1.0 1.0 1.0
0.028195 0.026699 0.025199
0.029997 0.028500 0.254252
0.031746 0.030249 0.476556
0.033472 0.031975 0.695964
0.035161 0.033664 0.910680
0.046036 0.271697 0.043040
0.047838 0.273499 0.272093
0.049587 0.275247 0.494397
0.051312 0.276973 0.713805
0.053001 0.278662 0.928521
0.063356 0.509549 0.060360
0.065158 0.511351 0.289413
0.066907 0.513099 0.511717
0.068633 0.514825 0.731125
0.070322 0.516514 0.945841
0.080452 0.744312 0.077455
0.082253 0.746114 0.306508
0.084002 0.747863 0.528812
0.085728 0.749589 0.748220
0.087417 0.751278 0.962937
0.097075 0.972595 0.094079
0.098877 0.974396 0.323131
0.100625 0.976145 0.545436
0.102351 0.977871 0.764844
0.104040 0.979560 0.979560
0.260563 0.032000 0.030500
0.262365 0.033802 0.259553
0.264114 0.035550 0.481857
0.265840 0.037276 0.701265
0.267529 0.038965 0.915982
0.278404 0.276998 0.048341
0.280206 0.278800 0.277394
0.281954 0.280549 0.499698
0.283680 0.282274 0.719106
0.285369 0.283963 0.933822
0.295724 0.514850 0.065661
0.297526 0.516652 0.294714
0.299275 0.518401 0.517018
0.301001 0.520126 0.736426
0.302690 0.521815 0.951142
0.312820 0.749613 0.082757
0.314621 0.751415 0.311809
0.316370 0.753164 0.534113
0.318096 0.754890 0.753522
0.319785 0.756579 0.968238
0.329443 0.977896 0.099380
0.331245 0.979697 0.328433
0.332993 0.981446 0.550737
0.334719 0.983172 0.770145
0.336408 0.984861 0.984861
0.486220 0.037148 0.035648
0.488021 0.038950 0.264701
0.489770 0.040698 0.487005
0.491496 0.042424 0.706414
0.493185 0.044113 0.921130
0.504060 0.282146 0.053489
0.505862 0.283948 0.282542
0.507611 0.285697 0.504846
0.509336 0.287423 0.724254
0.511025 0.289111 0.938970
0.521380 0.519998 0.070809
0.523182 0.521800 0.299862
0.524931 0.523549 0.522166
0.526657 0.525274 0.741574
0.528346 0.526963 0.956290
0.538476 0.754761 0.087905
0.540277 0.756563 0.316957
0.542026 0.758312 0.539262
0.543752 0.760038 0.758670
0.545441 0.761727 0.973386
0.555099 0.983044 0.104528
0.556901 0.984846 0.333581
0.558649 0.986594 0.555885
0.560375 0.988320 0.775293
0.562064 0.990009 0.990009
0.708955 0.042229 0.040730
0.710757 0.044031 0.269783
0.712505 0.045780 0.492087
0.714231 0.047506 0.711495
0.715920 0.049195 0.926211
0.726796 0.287228 0.058570
0.728597 0.289029 0.287623
0.730346 0.290778 0.509927
0.732072 0.292504 0.729336
0.733761 0.294193 0.944052
0.744116 0.525080 0.075891
0.745917 0.526881 0.304943
0.747666 0.528630 0.527248
0.749392 0.530356 0.746656
0.751081 0.532045 0.961372
0.761211 0.759843 0.092986
0.763013 0.761645 0.322039
0.764761 0.763393 0.544343
0.766487 0.765119 0.763751
0.768176 0.766808 0.978467
0.777834 0.988125 0.109609
0.779636 0.989927 0.338662
0.781385 0.991676 0.560966
0.783111 0.993402 0.780374
0.784800 0.995090 0.995090
0.924155 0.047139 0.045639
0.925957 0.048941 0.274692
0.927706 0.050689 0.496996
0.929432 0.052415 0.716404
0.931121 0.054104 0.931121
0.941996 0.292137 0.063480
0.943798 0.293939 0.292533
0.945546 0.295688 0.514837
0.947272 0.297413 0.734245
0.948961 0.299102 0.948961
0.959316 0.529989 0.080800
0.961118 0.531791 0.309853
0.962866 0.533539 0.532157
0.964592 0.535265 0.751565
0.966281 0.536954 0.966281
0.976411 0.764752 0.097895
0.978213 0.766554 0.326948
0.979962 0.768303 0.549252
0.981688 0.770029 0.768661
0.983377 0.771718 0.983377
0.993035 0.993035 0.114519
0.994836 0.994836 0.343572
0.996585 0.996585 0.565876
0.998311 0.998311 0.785284
1.000000 1.000000 1.000000
