skills/clipper-orchestrator/assets/grade/luts/soft_pastel_v04.cube
TITLE "soft_pastel_v04"
LUT_3D_SIZE 17
DOMAIN_MIN 0.0 0.0 0.0
DOMAIN_MAX 1.0 1.0 1.0
0.028195 0.026699 0.025199
0.028657 0.027160 0.083837
0.029108 0.027611 0.141227
0.029554 0.028058 0.197964
0.029997 0.028500 0.254252
0.030437 0.028941 0.310199
0.030875 0.029378 0.365871
0.031311 0.029815 0.421313
0.031746 0.030249 0.476556
0.032179 0.030682 0.531626
0.032611 0.031114 0.586540
0.033042 0.031545 0.641316
0.033472 0.031975 0.695964
0.033901 0.032404 0.750497
0.034329 0.032832 0.804922
0.034756 0.033259 0.859247
0.035161 0.033664 0.910680
0.032761 0.089390 0.029764
0.033222 0.089851 0.088402
0.033673 0.090303 0.145792
0.034120 0.090749 0.202529
0.034562 0.091192 0.258817
0.035002 0.091632 0.314764
0.035440 0.092070 0.370436
0.035877 0.092506 0.425878
0.036311 0.092940 0.481121
0.036744 0.093373 0.536191
0.037176 0.093805 0.591106
0.037607 0.094236 0.645881
0.038037 0.094666 0.700529
0.038466 0.095095 0.755062
0.038894 0.095523 0.809487
0.039321 0.095951 0.863812
0.039726 0.096355 0.915246
0.037231 0.150779 0.034235
0.037692 0.151240 0.092872
0.038144 0.151692 0.150263
0.038590 0.152138 0.206999
0.039033 0.152581 0.263287
0.039473 0.153021 0.319235
0.039911 0.153459 0.374907
0.040347 0.153895 0.430348
0.040781 0.154329 0.485592
0.041215 0.154763 0.540661
0.041647 0.155194 0.595576
0.042077 0.155625 0.650351
0.042507 0.156055 0.705000
0.042936 0.156484 0.759532
0.043364 0.156912 0.813957
0.043792 0.157340 0.868282
0.044196 0.157744 0.919716
0.041651 0.211476 0.038655
0.042112 0.211937 0.097292
0.042564 0.212389 0.154683
0.043010 0.212835 0.211419
0.043453 0.213278 0.267707
0.043893 0.213718 0.323655
0.044331 0.214156 0.379327
0.044767 0.214592 0.434768
0.045201 0.215026 0.490012
0.045634 0.215459 0.545081
0.046066 0.215891 0.599996
0.046497 0.216322 0.654771
0.046927 0.216752 0.709420
0.047356 0.217181 0.763952
0.047784 0.217609 0.818377
0.048212 0.218037 0.872702
0.048616 0.218441 0.924136
0.046036 0.271697 0.043040
0.046497 0.272158 0.101677
0.046949 0.272610 0.159068
0.047395 0.273056 0.215804
0.047838 0.273499 0.272093
0.048278 0.273939 0.328040
0.048716 0.274377 0.383712
0.049152 0.274813 0.439154
0.049587 0.275247 0.494397
0.050020 0.275681 0.549466
0.050452 0.276113 0.604381
0.050883 0.276543 0.659156
0.051312 0.276973 0.713805
0.051741 0.277402 0.768337
0.052169 0.277830 0.822762
0.052597 0.278258 0.877087
0.053001 0.278662 0.928521
0.050395 0.331555 0.047399
0.050856 0.332017 0.106036
0.051308 0.332468 0.163427
0.051754 0.332914 0.220163
0.052197 0.333357 0.276451
0.052637 0.333797 0.332399
0.053075 0.334235 0.388071
0.053511 0.334671 0.443512
0.053945 0.335106 0.498756
0.054379 0.335539 0.553825
0.054811 0.335971 0.608740
0.055241 0.336402 0.663515
0.055671 0.336832 0.718164
0.056100 0.337261 0.772696
0.056528 0.337689 0.827121
0.056956 0.338116 0.881446
0.057360 0.338521 0.932880
0.054732 0.391121 0.051736
0.055194 0.391582 0.110373
0.055645 0.392033 0.167764
0.056091 0.392480 0.224501
0.056534 0.392923 0.280789
0.056974 0.393363 0.336736
0.057412 0.393801 0.392408
0.057848 0.394237 0.447850
0.058283 0.394671 0.503093
0.058716 0.395104 0.558163
0.059148 0.395536 0.613077
0.059579 0.395967 0.667853
0.060009 0.396397 0.722501
0.060438 0.396826 0.777034
0.060866 0.397254 0.831458
0.061293 0.397682 0.885784
0.061698 0.398086 0.937217
0.059052 0.450441 0.056056
0.059513 0.450902 0.114693
0.059965 0.451353 0.172084
0.060411 0.451800 0.228820
0.060854 0.452242 0.285109
0.061294 0.452682 0.341056
0.061732 0.453120 0.396728
0.062168 0.453556 0.452169
0.062602 0.453991 0.507413
0.063036 0.454424 0.562482
0.063468 0.454856 0.617397
0.063899 0.455287 0.672172
0.064328 0.455717 0.726821
0.064757 0.456146 0.781353
0.065185 0.456574 0.835778
0.065613 0.457001 0.890103
0.066017 0.457406 0.941537
0.063356 0.509549 0.060360
0.063818 0.510010 0.118997
0.064269 0.510462 0.176388
0.064715 0.510908 0.233125
0.065158 0.511351 0.289413
0.065598 0.511791 0.345360
0.066036 0.512229 0.401032
0.066472 0.512665 0.456474
0.066907 0.513099 0.511717
0.067340 0.513533 0.566787
0.067772 0.513965 0.621701
0.068203 0.514395 0.676477
0.068633 0.514825 0.731125
0.069062 0.515254 0.785657
0.069490 0.515682 0.840082
0.069917 0.516110 0.894408
0.070322 0.516514 0.945841
0.067647 0.568472 0.064651
0.068108 0.568933 0.123288
0.068560 0.569385 0.180679
0.069006 0.569831 0.237415
0.069449 0.570274 0.293704
0.069889 0.570714 0.349651
0.070327 0.571152 0.405323
0.070763 0.571588 0.460764
0.071197 0.572022 0.516008
0.071631 0.572455 0.571077
0.072063 0.572887 0.625992
0.072493 0.573318 0.680767
0.072923 0.573748 0.735416
0.073352 0.574177 0.789948
0.073780 0.574605 0.844373
0.074208 0.575033 0.898698
0.074612 0.575437 0.950132
0.071926 0.627230 0.068929
0.072387 0.627691 0.127567
0.072838 0.628142 0.184958
0.073285 0.628589 0.241694
0.073727 0.629031 0.297982
0.074168 0.629471 0.353929
0.074605 0.629909 0.409602
0.075042 0.630346 0.465043
0.075476 0.630780 0.520286
0.075909 0.631213 0.575356
0.076341 0.631645 0.630271
0.076772 0.632076 0.685046
0.077202 0.632506 0.739695
0.077631 0.632935 0.794227
0.078059 0.633363 0.848652
0.078486 0.633790 0.902977
0.078891 0.634195 0.954411
0.076194 0.685839 0.073197
0.076655 0.686300 0.131835
0.077106 0.686751 0.189225
0.077553 0.687198 0.245962
0.077995 0.687640 0.302250
0.078435 0.688080 0.358197
0.078873 0.688518 0.413869
0.079309 0.688955 0.469311
0.079744 0.689389 0.524554
0.080177 0.689822 0.579624
0.080609 0.690254 0.634539
0.081040 0.690685 0.689314
0.081470 0.691115 0.743962
0.081899 0.691544 0.798495
0.082327 0.691972 0.852920
0.082754 0.692399 0.907245
0.083159 0.692804 0.958679
0.080452 0.744312 0.077455
0.080913 0.744774 0.136093
0.081364 0.745225 0.193483
0.081811 0.745671 0.250220
0.082253 0.746114 0.306508
0.082693 0.746554 0.362455
0.083131 0.746992 0.418127
0.083567 0.747428 0.473569
0.084002 0.747863 0.528812
0.084435 0.748296 0.583882
0.084867 0.748728 0.638797
0.085298 0.749159 0.693572
0.085728 0.749589 0.748220
0.086157 0.750018 0.802753
0.086585 0.750446 0.857178
0.087012 0.750873 0.911503
0.087417 0.751278 0.962937
0.084701 0.802662 0.081704
0.085162 0.803123 0.140342
0.085613 0.803574 0.197732
0.086060 0.804021 0.254469
0.086502 0.804463 0.310757
0.086942 0.804904 0.366704
0.087380 0.805341 0.422376
0.087816 0.805778 0.477818
0.088251 0.806212 0.533061
0.088684 0.806645 0.588131
0.089116 0.807077 0.643046
0.089547 0.807508 0.697821
0.089977 0.807938 0.752469
0.090406 0.808367 0.807002
0.090834 0.808795 0.861427
0.091261 0.809222 0.915752
0.091666 0.809627 0.967186
0.088941 0.860897 0.085945
0.089402 0.861358 0.144582
0.089854 0.861809 0.201973
0.090300 0.862256 0.258709
0.090743 0.862698 0.314998
0.091183 0.863138 0.370945
0.091621 0.863576 0.426617
0.092057 0.864012 0.482059
0.092492 0.864447 0.537302
0.092925 0.864880 0.592371
0.093357 0.865312 0.647286
0.093788 0.865743 0.702061
0.094217 0.866173 0.756710
0.094646 0.866602 0.811242
0.095075 0.867030 0.865667
0.095502 0.867457 0.919992
0.095906 0.867862 0.971426
0.093174 0.919025 0.090178
0.093635 0.919486 0.148815
0.094087 0.919938 0.206206
0.094533 0.920384 0.262942
0.094976 0.920827 0.319231
0.095416 0.921267 0.375178
0.095854 0.921705 0.430850
0.096290 0.922141 0.486291
0.096724 0.922575 0.541535
0.097158 0.923009 0.596604
0.097590 0.923441 0.651519
0.098020 0.923871 0.706294
0.098450 0.924301 0.760943
0.098879 0.924730 0.815475
0.099307 0.925158 0.869900
0.099735 0.925586 0.924225
0.100139 0.925990 0.975659
0.097075 0.972595 0.094079
0.097536 0.973056 0.152716
0.097988 0.973507 0.210107
0.098434 0.973954 0.266843
0.098877 0.974396 0.323131
0.099317 0.974836 0.379079
0.099755 0.975274 0.434751
0.100191 0.975710 0.490192
0.100625 0.976145 0.545436
0.101059 0.976578 0.600505
0.101490 0.977010 0.655420
0.101921 0.977441 0.710195
0.102351 0.977871 0.764844
0.102780 0.978300 0.819376
0.103208 0.978728 0.873801
0.103636 0.979155 0.928126
0.104040 0.979560 0.979560
0.087629 0.028055 0.026555
0.088091 0.028516 0.085192
0.088542 0.028967 0.142583
0.088988 0.029414 0.199320
0.089431 0.029856 0.255608
0.089871 0.030296 0.311555
0.090309 0.030734 0.367227
0.090745 0.031170 0.422669
0.091180 0.031605 0.477912
0.091613 0.032038 0.532982
0.092045 0.032470 0.587896
0.092476 0.032901 0.642672
0.092906 0.033331 0.697320
0.093335 0.033760 0.751852
0.093763 0.034188 0.806277
0.094190 0.034615 0.860603
0.094595 0.035020 0.912036
0.092195 0.090746 0.031120
0.092656 0.091207 0.089758
0.093107 0.091658 0.147148
0.093554 0.092105 0.203885
0.093996 0.092548 0.260173
0.094436 0.092988 0.316120
0.094874 0.093426 0.371792
0.095310 0.093862 0.427234
0.095745 0.094296 0.482477
0.096178 0.094729 0.537547
0.096610 0.095161 0.592462
0.097041 0.095592 0.647237
0.097471 0.096022 0.701885
0.097900 0.096451 0.756418
0.098328 0.096879 0.810843
0.098755 0.097306 0.865168
0.099160 0.097711 0.916602
0.096665 0.152135 0.035591
0.097126 0.152596 0.094228
0.097578 0.153047 0.151619
0.098024 0.153494 0.208355
0.098467 0.153937 0.264643
0.098907 0.154377 0.320591
0.099345 0.154815 0.376263
0.099781 0.155251 0.431704
0.100215 0.155685 0.486948
0.100648 0.156118 0.542017
0.101080 0.156550 0.596932
0.101511 0.156981 0.651707
0.101941 0.157411 0.706356
0.102370 0.157840 0.760888
0.102798 0.158268 0.815313
0.103226 0.158696 0.869638
0.103630 0.159100 0.921072
0.101085 0.212832 0.040011
0.101546 0.213293 0.098648
0.101997 0.213744 0.156039
0.102444 0.214191 0.212775
0.102887 0.214634 0.269063
0.103327 0.215074 0.325010
0.103765 0.215512 0.380683
0.104201 0.215948 0.436124
0.104635 0.216382 0.491367
0.105068 0.216815 0.546437
0.105500 0.217247 0.601352
0.105931 0.217678 0.656127
0.106361 0.218108 0.710776
0.106790 0.218537 0.765308
0.107218 0.218965 0.819733
0.107645 0.219392 0.874058
0.108050 0.219797 0.925492
0.105470 0.273053 0.044396
0.105931 0.273514 0.103033
0.106383 0.273966 0.160424
0.106829 0.274412 0.217160
0.107272 0.274855 0.273449
0.107712 0.275295 0.329396
0.108150 0.275733 0.385068
0.108586 0.276169 0.440509
0.109020 0.276603 0.495753
0.109454 0.277036 0.550822
0.109886 0.277468 0.605737
0.110316 0.277899 0.660512
0.110746 0.278329 0.715161
0.111175 0.278758 0.769693
0.111603 0.279186 0.824118
0.112031 0.279614 0.878443
0.112435 0.280018 0.929877
0.109829 0.332911 0.048755
0.110290 0.333373 0.107392
0.110742 0.333824 0.164783
0.111188 0.334270 0.221519
0.111631 0.334713 0.277807
0.112071 0.335153 0.333755
0.112509 0.335591 0.389427
0.112945 0.336027 0.444868
0.113379 0.336462 0.500112
0.113812 0.336895 0.555181
0.114244 0.337327 0.610096
0.114675 0.337758 0.664871
0.115105 0.338188 0.719520
0.115534 0.338617 0.774052
0.115962 0.339045 0.828477
0.116390 0.339472 0.882802
0.116794 0.339877 0.934236
0.114166 0.392477 0.053092
0.114628 0.392938 0.111729
0.115079 0.393389 0.169120
0.115525 0.393836 0.225857
0.115968 0.394278 0.282145
0.116408 0.394719 0.338092
0.116846 0.395156 0.393764
0.117282 0.395593 0.449206
0.117717 0.396027 0.504449
0.118150 0.396460 0.559519
0.118582 0.396892 0.614433
0.119013 0.397323 0.669209
0.119443 0.397753 0.723857
0.119872 0.398182 0.778389
0.120300 0.398610 0.832814
0.120727 0.399037 0.887140
0.121132 0.399442 0.938573
0.118486 0.451796 0.057412
0.118947 0.452258 0.116049
0.119399 0.452709 0.173440
0.119845 0.453155 0.230176
0.120288 0.453598 0.286464
0.120728 0.454038 0.342412
0.121166 0.454476 0.398084
0.121602 0.454912 0.453525
0.122036 0.455347 0.508769
0.122470 0.455780 0.563838
0.122902 0.456212 0.618753
0.123332 0.456643 0.673528
0.123762 0.457073 0.728177
0.124191 0.457502 0.782709
0.124619 0.457930 0.837134
0.125047 0.458357 0.891459
0.125451 0.458762 0.942893
0.122790 0.510905 0.061716
0.123251 0.511366 0.120353
0.123703 0.511818 0.177744
0.124149 0.512264 0.234480
0.124592 0.512707 0.290769
0.125032 0.513147 0.346716
0.125470 0.513585 0.402388
0.125906 0.514021 0.457830
0.126341 0.514455 0.513073
0.126774 0.514888 0.568142
0.127206 0.515320 0.623057
0.127637 0.515751 0.677832
0.128067 0.516181 0.732481
0.128495 0.516610 0.787013
0.128924 0.517038 0.841438
0.129351 0.517466 0.895763
0.129756 0.517870 0.947197
0.127081 0.569828 0.066007
0.127542 0.570289 0.124644
0.127994 0.570740 0.182035
0.128440 0.571187 0.238771
0.128883 0.571630 0.295059
0.129323 0.572070 0.351007
0.129761 0.572508 0.406679
0.130197 0.572944 0.462120
0.130631 0.573378 0.517364
0.131065 0.573811 0.572433
0.131497 0.574243 0.627348
0.131927 0.574674 0.682123
0.132357 0.575104 0.736772
0.132786 0.575533 0.791304
0.133214 0.575961 0.845729
0.133642 0.576388 0.900054
0.134046 0.576793 0.951488
0.131360 0.628586 0.070285
0.131821 0.629047 0.128923
0.132272 0.629498 0.186313
0.132719 0.629945 0.243050
0.133161 0.630387 0.299338
0.133601 0.630827 0.355285
0.134039 0.631265 0.410957
0.134476 0.631701 0.466399
0.134910 0.632136 0.521642
0.135343 0.632569 0.576712
0.135775 0.633001 0.631627
0.136206 0.633432 0.686402
0.136636 0.633862 0.741050
0.137065 0.634291 0.795583
0.137493 0.634719 0.850008
0.137920 0.635146 0.904333
0.138325 0.635551 0.955767
0.135627 0.687195 0.074553
0.136089 0.687656 0.133190
0.136540 0.688107 0.190581
0.136986 0.688554 0.247318
0.137429 0.688996 0.303606
0.137869 0.689436 0.359553
0.138307 0.689874 0.415225
0.138743 0.690310 0.470667
0.139178 0.690745 0.525910
0.139611 0.691178 0.580980
0.140043 0.691610 0.635894
0.140474 0.692041 0.690670
0.140904 0.692471 0.745318
0.141333 0.692900 0.799851
0.141761 0.693328 0.854275
0.142188 0.693755 0.908601
0.142593 0.694160 0.960034
0.139885 0.745668 0.078811
0.140347 0.746129 0.137448
0.140798 0.746581 0.194839
0.141244 0.747027 0.251576
0.141687 0.747470 0.307864
0.142127 0.747910 0.363811
0.142565 0.748348 0.419483
0.143001 0.748784 0.474925
0.143436 0.749219 0.530168
0.143869 0.749652 0.585238
0.144301 0.750084 0.640152
0.144732 0.750515 0.694928
0.145162 0.750944 0.749576
0.145591 0.751373 0.804109
0.146019 0.751802 0.858533
0.146446 0.752229 0.912859
0.146851 0.752633 0.964292
0.144134 0.804018 0.083060
0.144596 0.804479 0.141697
0.145047 0.804930 0.199088
0.145493 0.805377 0.255825
0.145936 0.805819 0.312113
0.146376 0.806259 0.368060
0.146814 0.806697 0.423732
0.147250 0.807134 0.479174
0.147685 0.807568 0.534417
0.148118 0.808001 0.589487
0.148550 0.808433 0.644401
0.148981 0.808864 0.699177
0.149411 0.809294 0.753825
0.149840 0.809723 0.808358
0.150268 0.810151 0.862782
0.150695 0.810578 0.917108
0.151100 0.810983 0.968541
0.148375 0.862252 0.087301
0.148836 0.862714 0.145938
0.149288 0.863165 0.203329
0.149734 0.863611 0.260065
0.150177 0.864054 0.316354
0.150617 0.864494 0.372301
0.151055 0.864932 0.427973
0.151491 0.865368 0.483414
0.151925 0.865803 0.538658
0.152359 0.866236 0.593727
0.152791 0.866668 0.648642
0.153222 0.867099 0.703417
0.153651 0.867529 0.758066
0.154080 0.867958 0.812598
0.154508 0.868386 0.867023
0.154936 0.868813 0.921348
0.155340 0.869218 0.972782
0.152608 0.920381 0.091534
0.153069 0.920842 0.150171
0.153521 0.921294 0.207562
0.153967 0.921740 0.264298
0.154410 0.922183 0.320586
0.154850 0.922623 0.376534
0.155288 0.923061 0.432206
0.155724 0.923497 0.487647
0.156158 0.923931 0.542891
0.156592 0.924364 0.597960
0.157024 0.924796 0.652875
0.157454 0.925227 0.707650
0.157884 0.925657 0.762299
0.158313 0.926086 0.816831
0.158741 0.926514 0.871256
0.159169 0.926942 0.925581
0.159573 0.927346 0.977015
0.156509 0.973950 0.095435
0.156970 0.974412 0.154072
0.157422 0.974863 0.211463
0.157868 0.975309 0.268199
0.158311 0.975752 0.324487
0.158751 0.976192 0.380435
0.159189 0.976630 0.436107
0.159625 0.977066 0.491548
0.160059 0.977501 0.546792
0.160492 0.977934 0.601861
0.160924 0.978366 0.656776
0.161355 0.978797 0.711551
0.161785 0.979227 0.766200
0.162214 0.979656 0.820732
0.162642 0.980084 0.875157
0.163070 0.980511 0.929482
0.163474 0.980916 0.980916
0.145856 0.029383 0.027884
0.146317 0.029844 0.086521
0.146769 0.030296 0.143912
0.147215 0.030742 0.200648
0.147658 0.031185 0.256936
0.148098 0.031625 0.312884
0.148536 0.032063 0.368556
0.148972 0.032499 0.423997
0.149407 0.032933 0.479241
0.149840 0.033367 0.534310
0.150272 0.033799 0.589225
0.150703 0.034229 0.644000
0.151133 0.034659 0.698649
0.151561 0.035088 0.753181
0.151990 0.035516 0.807606
0.152417 0.035944 0.861931
0.152822 0.036348 0.913365
0.150421 0.092074 0.032449
0.150883 0.092535 0.091086
0.151334 0.092987 0.148477
0.151780 0.093433 0.205213
0.152223 0.093876 0.261501
0.152663 0.094316 0.317449
0.153101 0.094754 0.373121
0.153537 0.095190 0.428562
0.153972 0.095625 0.483806
0.154405 0.096058 0.538875
0.154837 0.096490 0.593790
0.155268 0.096921 0.648565
0.155698 0.097350 0.703214
0.156127 0.097779 0.757746
0.156555 0.098208 0.812171
0.156982 0.098635 0.866496
0.157387 0.099039 0.917930
0.154892 0.153463 0.036919
0.155353 0.153924 0.095556
0.155804 0.154376 0.152947
0.156251 0.154822 0.209683
0.156693 0.155265 0.265972
0.157133 0.155705 0.321919
0.157571 0.156143 0.377591
0.158008 0.156579 0.433033
0.158442 0.157014 0.488276
0.158875 0.157447 0.543345
0.159307 0.157879 0.598260
0.159738 0.158310 0.653036
0.160168 0.158740 0.707684
0.160597 0.159168 0.762216
0.161025 0.159597 0.816641
0.161452 0.160024 0.870966
0.161857 0.160428 0.922400
0.159312 0.214160 0.041339
0.159773 0.214621 0.099976
0.160224 0.215073 0.157367
0.160671 0.215519 0.214103
0.161113 0.215962 0.270392
0.161553 0.216402 0.326339
0.161991 0.216840 0.382011
0.162427 0.217276 0.437453
0.162862 0.217711 0.492696
0.163295 0.218144 0.547765
0.163727 0.218576 0.602680
0.164158 0.219007 0.657455
0.164588 0.219436 0.712104
0.165017 0.219865 0.766636
0.165445 0.220294 0.821061
0.165872 0.220721 0.875386
0.166277 0.221125 0.926820
0.163697 0.274381 0.045724
0.164158 0.274842 0.104361
0.164609 0.275294 0.161752
0.165056 0.275740 0.218489
0.165499 0.276183 0.274777
0.165939 0.276623 0.330724
0.166377 0.277061 0.386396
0.166813 0.277497 0.441838
0.167247 0.277932 0.497081
0.167680 0.278365 0.552151
0.168112 0.278797 0.607065
0.168543 0.279228 0.661841
0.168973 0.279658 0.716489
0.169402 0.280087 0.771021
0.169830 0.280515 0.825446
0.170258 0.280942 0.879772
0.170662 0.281347 0.931205
0.168056 0.334240 0.050083
0.168517 0.334701 0.108720
0.168968 0.335152 0.166111
0.169415 0.335599 0.222847
0.169857 0.336041 0.279136
0.170297 0.336481 0.335083
0.170735 0.336919 0.390755
0.171172 0.337356 0.446197
0.171606 0.337790 0.501440
0.172039 0.338223 0.556509
0.172471 0.338655 0.611424
0.172902 0.339086 0.666200
0.173332 0.339516 0.720848
0.173761 0.339945 0.775380
0.174189 0.340373 0.829805
0.174616 0.340800 0.884130
0.175021 0.341205 0.935564
0.172393 0.393805 0.054420
0.172854 0.394266 0.113058
0.173306 0.394718 0.170449
0.173752 0.395164 0.227185
0.174195 0.395607 0.283473
0.174635 0.396047 0.339420
0.175073 0.396485 0.395093
0.175509 0.396921 0.450534
0.175944 0.397355 0.505777
0.176377 0.397789 0.560847
0.176809 0.398221 0.615762
0.177240 0.398652 0.670537
0.177669 0.399081 0.725186
0.178098 0.399510 0.779718
0.178527 0.399938 0.834143
0.178954 0.400366 0.888468
0.179358 0.400770 0.939902
0.176713 0.453125 0.058740
0.177174 0.453586 0.117377
0.177625 0.454038 0.174768
0.178072 0.454484 0.231505
0.178515 0.454927 0.287793
0.178955 0.455367 0.343740
0.179393 0.455805 0.399412
0.179829 0.456241 0.454854
0.180263 0.456675 0.510097
0.180696 0.457108 0.565167
0.181128 0.457540 0.620081
0.181559 0.457971 0.674857
0.181989 0.458401 0.729505
0.182418 0.458830 0.784037
0.182846 0.459258 0.838462
0.183273 0.459686 0.892788
0.183678 0.460090 0.944221
0.181017 0.512233 0.063044
0.181478 0.512694 0.121682
0.181930 0.513146 0.179072
0.182376 0.513592 0.235809
0.182819 0.514035 0.292097
0.183259 0.514475 0.348044
0.183697 0.514913 0.403716
0.184133 0.515349 0.459158
0.184567 0.515784 0.514401
0.185001 0.516217 0.569471
0.185433 0.516649 0.624386
0.185863 0.517080 0.679161
0.186293 0.517510 0.733809
0.186722 0.517938 0.788342
0.187150 0.518367 0.842767
0.187578 0.518794 0.897092
0.187982 0.519199 0.948526
0.185308 0.571156 0.067335
0.185769 0.571617 0.125972
0.186220 0.572069 0.183363
0.186667 0.572515 0.240100
0.187109 0.572958 0.296388
0.187550 0.573398 0.352335
0.187987 0.573836 0.408007
0.188424 0.574272 0.463449
0.188858 0.574707 0.518692
0.189291 0.575140 0.573762
0.189723 0.575572 0.628676
0.190154 0.576003 0.683452
0.190584 0.576432 0.738100
0.191013 0.576861 0.792632
0.191441 0.577290 0.847057
0.191868 0.577717 0.901383
0.192273 0.578121 0.952816
0.189586 0.629914 0.071614
0.190048 0.630375 0.130251
0.190499 0.630827 0.187642
0.190945 0.631273 0.244378
0.191388 0.631716 0.300666
0.191828 0.632156 0.356614
0.192266 0.632594 0.412286
0.192702 0.633030 0.467727
0.193137 0.633464 0.522971
0.193570 0.633898 0.578040
0.194002 0.634330 0.632955
0.194433 0.634760 0.687730
0.194863 0.635190 0.742379
0.195292 0.635619 0.796911
0.195720 0.636047 0.851336
0.196147 0.636475 0.905661
0.196552 0.636879 0.957095
0.193854 0.688523 0.075882
0.194316 0.688984 0.134519
0.194767 0.689436 0.191910
0.195213 0.689882 0.248646
0.195656 0.690325 0.304934
0.196096 0.690765 0.360882
0.196534 0.691203 0.416554
0.196970 0.691639 0.471995
0.197405 0.692073 0.527239
0.197838 0.692507 0.582308
0.198270 0.692938 0.637223
0.198701 0.693369 0.691998
0.199131 0.693799 0.746647
0.199560 0.694228 0.801179
0.199988 0.694656 0.855604
0.200415 0.695084 0.909929
0.200820 0.695488 0.961363
0.198112 0.746997 0.080140
0.198574 0.747458 0.138777
0.199025 0.747909 0.196168
0.199471 0.748356 0.252904
0.199914 0.748798 0.309192
0.200354 0.749238 0.365140
0.200792 0.749676 0.420812
0.201228 0.750112 0.476253
0.201663 0.750547 0.531497
0.202096 0.750980 0.586566
0.202528 0.751412 0.641481
0.202959 0.751843 0.696256
0.203389 0.752273 0.750905
0.203818 0.752702 0.805437
0.204246 0.753130 0.859862
0.204673 0.753557 0.914187
0.205078 0.753962 0.965621
0.202361 0.805346 0.084389
0.202822 0.805807 0.143026
0.203274 0.806259 0.200417
0.203720 0.806705 0.257153
0.204163 0.807148 0.313441
0.204603 0.807588 0.369389
0.205041 0.808026 0.425061
0.205477 0.808462 0.480502
0.205912 0.808896 0.535746
0.206345 0.809330 0.590815
0.206777 0.809762 0.645730
0.207208 0.810192 0.700505
0.207638 0.810622 0.755154
0.208067 0.811051 0.809686
0.208495 0.811479 0.864111
0.208922 0.811907 0.918436
0.209327 0.812311 0.969870
0.206602 0.863581 0.088629
0.207063 0.864042 0.147266
0.207515 0.864494 0.204657
0.207961 0.864940 0.261394
0.208404 0.865383 0.317682
0.208844 0.865823 0.373629
0.209282 0.866261 0.429301
0.209718 0.866697 0.484743
0.210152 0.867131 0.539986
0.210585 0.867564 0.595056
0.211017 0.867996 0.649970
0.211448 0.868427 0.704746
0.211878 0.868857 0.759394
0.212307 0.869286 0.813926
0.212735 0.869714 0.868351
0.213163 0.870142 0.922677
0.213567 0.870546 0.974110
0.210835 0.921709 0.092862
0.211296 0.922170 0.151499
0.211747 0.922622 0.208890
0.212194 0.923068 0.265627
0.212636 0.923511 0.321915
0.213077 0.923951 0.377862
0.213514 0.924389 0.433534
0.213951 0.924825 0.488976
0.214385 0.925260 0.544219
0.214818 0.925693 0.599289
0.215250 0.926125 0.654203
0.215681 0.926556 0.708979
0.216111 0.926986 0.763627
0.216540 0.927414 0.818159
0.216968 0.927843 0.872584
0.217395 0.928270 0.926910
0.217800 0.928675 0.978343
0.214736 0.975279 0.096763
0.215197 0.975740 0.155400
0.215648 0.976192 0.212791
0.216095 0.976638 0.269527
0.216537 0.977081 0.325816
0.216977 0.977521 0.381763
0.217415 0.977959 0.437435
0.217851 0.978395 0.492877
0.218286 0.978829 0.548120
0.218719 0.979262 0.603189
0.219151 0.979694 0.658104
0.219582 0.980125 0.712879
0.220012 0.980555 0.767528
0.220441 0.980984 0.822060
0.220869 0.981412 0.876485
0.221296 0.981840 0.930810
0.221701 0.982244 0.982244
0.203434 0.030696 0.029197
0.203895 0.031158 0.087834
0.204346 0.031609 0.145225
0.204793 0.032055 0.201962
0.205236 0.032498 0.258250
0.205676 0.032938 0.314197
0.206114 0.033376 0.369869
0.206550 0.033812 0.425311
0.206984 0.034247 0.480554
0.207417 0.034680 0.535624
0.207849 0.035112 0.590538
0.208280 0.035543 0.645314
0.208710 0.035973 0.699962
0.209139 0.036402 0.754494
0.209567 0.036830 0.808919
0.209995 0.037257 0.863245
0.210399 0.037662 0.914678
0.207999 0.093388 0.033762
