skills/clipper-orchestrator/assets/grade/luts/soft_pastel_v06.cube
TITLE "soft_pastel_v06"
LUT_3D_SIZE 9
DOMAIN_MIN 0.0 0.0 0.0
DOMAIN_MAX 1.0 1.0 1.0
0.036240 0.033786 0.031326
0.037267 0.034814 0.145625
0.038265 0.035811 0.256669
0.039249 0.036795 0.366147
0.040223 0.037770 0.474576
0.041191 0.038737 0.582219
0.042152 0.039699 0.689230
0.043109 0.040656 0.795716
0.044047 0.041593 0.900036
0.046404 0.157100 0.041490
0.047431 0.158128 0.155788
0.048429 0.159125 0.266833
0.049413 0.160109 0.376310
0.050387 0.161084 0.484740
0.051354 0.162051 0.592382
0.052316 0.163013 0.699394
0.053273 0.163969 0.805880
0.054210 0.164907 0.910199
0.056285 0.276986 0.051371
0.057312 0.278013 0.165669
0.058310 0.279011 0.276714
0.059294 0.279995 0.386191
0.060268 0.280969 0.494621
0.061235 0.281937 0.602263
0.062197 0.282898 0.709275
0.063154 0.283855 0.815761
0.064091 0.284793 0.920080
0.066028 0.395197 0.061114
0.067055 0.396224 0.175412
0.068053 0.397222 0.286457
0.069037 0.398206 0.395934
0.070011 0.399180 0.504364
0.070978 0.400148 0.612006
0.071940 0.401109 0.719018
0.072897 0.402066 0.825504
0.073834 0.403004 0.929823
0.075678 0.512284 0.070764
0.076705 0.513311 0.185063
0.077703 0.514309 0.296107
0.078687 0.515293 0.405585
0.079661 0.516268 0.514014
0.080629 0.517235 0.621657
0.081590 0.518196 0.728668
0.082547 0.519153 0.835154
0.083485 0.520091 0.939474
0.085259 0.628525 0.080345
0.086286 0.629552 0.194643
0.087284 0.630550 0.305688
0.088268 0.631534 0.415165
0.089242 0.632509 0.523595
0.090209 0.633476 0.631237
0.091171 0.634437 0.738249
0.092128 0.635394 0.844735
0.093065 0.636332 0.949054
0.094784 0.744088 0.089870
0.095811 0.745115 0.204168
0.096809 0.746113 0.315212
0.097792 0.747097 0.424690
0.098767 0.748071 0.533120
0.099734 0.749039 0.640762
0.100696 0.750000 0.747774
0.101653 0.750957 0.854260
0.102590 0.751895 0.958579
0.104262 0.859085 0.099348
0.105289 0.860112 0.213646
0.106287 0.861110 0.324691
0.107270 0.862094 0.434168
0.108245 0.863068 0.542598
0.109212 0.864036 0.650240
0.110174 0.864997 0.757252
0.111131 0.865954 0.863738
0.112068 0.866892 0.968057
0.113349 0.969338 0.108435
0.114376 0.970365 0.222733
0.115374 0.971363 0.333778
0.116357 0.972347 0.443255
0.117332 0.973321 0.551685
0.118299 0.974288 0.659327
0.119261 0.975250 0.766339
0.120218 0.976207 0.872825
0.121155 0.977144 0.977144
0.152293 0.036805 0.034345
0.153320 0.037832 0.148643
0.154318 0.038830 0.259687
0.155302 0.039813 0.369165
0.156276 0.040788 0.477595
0.157244 0.041755 0.585237
0.158205 0.042717 0.692248
0.159162 0.043674 0.798734
0.160100 0.044611 0.903054
0.162457 0.160119 0.044508
0.163484 0.161146 0.158806
0.164482 0.162144 0.269851
0.165466 0.163127 0.379328
0.166440 0.164102 0.487758
0.167407 0.165069 0.595400
0.168369 0.166031 0.702412
0.169326 0.166988 0.808898
0.170263 0.167925 0.913217
0.172338 0.280004 0.054389
0.173365 0.281031 0.168687
0.174363 0.282029 0.279732
0.175347 0.283013 0.389209
0.176321 0.283987 0.497639
0.177288 0.284955 0.605281
0.178250 0.285916 0.712293
0.179207 0.286873 0.818779
0.180144 0.287811 0.923099
0.182081 0.398215 0.064132
0.183108 0.399242 0.178430
0.184106 0.400240 0.289475
0.185090 0.401224 0.398952
0.186064 0.402198 0.507382
0.187031 0.403166 0.615024
0.187993 0.404127 0.722036
0.188950 0.405084 0.828522
0.189887 0.406022 0.932842
0.191731 0.515302 0.073783
0.192758 0.516330 0.188081
0.193756 0.517327 0.299125
0.194740 0.518311 0.408603
0.195714 0.519286 0.517032
0.196682 0.520253 0.624675
0.197643 0.521215 0.731686
0.198600 0.522172 0.838172
0.199538 0.523109 0.942492
0.201312 0.631543 0.083363
0.202339 0.632571 0.197661
0.203337 0.633568 0.308706
0.204321 0.634552 0.418183
0.205295 0.635527 0.526613
0.206262 0.636494 0.634255
0.207224 0.637456 0.741267
0.208181 0.638413 0.847753
0.209118 0.639350 0.952073
0.210837 0.747106 0.092888
0.211864 0.748133 0.207186
0.212862 0.749131 0.318231
0.213845 0.750115 0.427708
0.214820 0.751089 0.536138
0.215787 0.752057 0.643780
0.216749 0.753018 0.750792
0.217706 0.753975 0.857278
0.218643 0.754913 0.961597
0.220315 0.862103 0.102366
0.221342 0.863131 0.216664
0.222340 0.864128 0.327709
0.223323 0.865112 0.437186
0.224298 0.866087 0.545616
0.225265 0.867054 0.653258
0.226227 0.868016 0.760270
0.227184 0.868972 0.866756
0.228121 0.869910 0.971075
0.229402 0.972356 0.111453
0.230429 0.973383 0.225751
0.231427 0.974381 0.336796
0.232411 0.975365 0.446273
0.233385 0.976339 0.554703
0.234352 0.977306 0.662345
0.235314 0.978268 0.769357
0.236271 0.979225 0.875843
0.237208 0.980162 0.980162
0.265193 0.039741 0.037281
0.266220 0.040768 0.151579
0.267218 0.041766 0.262623
0.268201 0.042750 0.372101
0.269176 0.043724 0.480531
0.270143 0.044691 0.588173
0.271105 0.045653 0.695184
0.272062 0.046610 0.801670
0.272999 0.047547 0.905990
0.275356 0.163055 0.047444
0.276383 0.164082 0.161742
0.277381 0.165080 0.272787
0.278365 0.166064 0.382264
0.279339 0.167038 0.490694
0.280307 0.168005 0.598336
0.281268 0.168967 0.705348
0.282225 0.169924 0.811834
0.283163 0.170861 0.916154
0.285237 0.282940 0.057325
0.286264 0.283968 0.171623
0.287262 0.284965 0.282668
0.288246 0.285949 0.392145
0.289220 0.286924 0.500575
0.290188 0.287891 0.608217
0.291149 0.288853 0.715229
0.292106 0.289809 0.821715
0.293044 0.290747 0.926035
0.294980 0.401151 0.067068
0.296007 0.402179 0.181366
0.297005 0.403176 0.292411
0.297989 0.404160 0.401888
0.298963 0.405135 0.510318
0.299931 0.406102 0.617960
0.300892 0.407064 0.724972
0.301849 0.408020 0.831458
0.302787 0.408958 0.935778
0.304631 0.518239 0.076719
0.305658 0.519266 0.191017
0.306656 0.520264 0.302061
0.307639 0.521247 0.411539
0.308614 0.522222 0.519969
0.309581 0.523189 0.627611
0.310543 0.524151 0.734622
0.311500 0.525108 0.841108
0.312437 0.526045 0.945428
0.314211 0.634480 0.086299
0.315238 0.635507 0.200597
0.316236 0.636505 0.311642
0.317220 0.637488 0.421119
0.318194 0.638463 0.529549
0.319162 0.639430 0.637191
0.320123 0.640392 0.744203
0.321080 0.641349 0.850689
0.322018 0.642286 0.955009
0.323736 0.750042 0.095824
0.324763 0.751070 0.210122
0.325761 0.752067 0.321167
0.326745 0.753051 0.430644
0.327719 0.754026 0.539074
0.328686 0.754993 0.646716
0.329648 0.755955 0.753728
0.330605 0.756911 0.860214
0.331542 0.757849 0.964533
0.333214 0.865040 0.105302
0.334241 0.866067 0.219600
0.335239 0.867065 0.330645
0.336223 0.868048 0.440122
0.337197 0.869023 0.548552
0.338165 0.869990 0.656194
0.339126 0.870952 0.763206
0.340083 0.871909 0.869692
0.341021 0.872846 0.974011
0.342301 0.975292 0.114389
0.343328 0.976319 0.228687
0.344326 0.977317 0.339732
0.345310 0.978301 0.449209
0.346284 0.979275 0.557639
0.347252 0.980243 0.665281
0.348213 0.981204 0.772293
0.349170 0.982161 0.878779
0.350108 0.983099 0.983099
0.376531 0.042636 0.040176
0.377558 0.043663 0.154474
0.378556 0.044661 0.265519
0.379539 0.045645 0.374996
0.380514 0.046619 0.483426
0.381481 0.047587 0.591068
0.382443 0.048548 0.698080
0.383400 0.049505 0.804566
0.384337 0.050443 0.908886
0.386694 0.165950 0.050340
0.387721 0.166977 0.164638
0.388719 0.167975 0.275682
0.389703 0.168959 0.385160
0.390677 0.169933 0.493590
0.391645 0.170901 0.601232
0.392606 0.171862 0.708244
0.393563 0.172819 0.814730
0.394501 0.173757 0.919049
0.396575 0.285836 0.060221
0.397602 0.286863 0.174519
0.398600 0.287861 0.285563
0.399584 0.288845 0.395041
0.400558 0.289819 0.503471
0.401526 0.290786 0.611113
0.402487 0.291748 0.718125
0.403444 0.292705 0.824611
0.404382 0.293642 0.928930
0.406318 0.404047 0.069964
0.407345 0.405074 0.184262
0.408343 0.406072 0.295306
0.409327 0.407056 0.404784
0.410301 0.408030 0.513214
0.411269 0.408997 0.620856
0.412230 0.409959 0.727868
0.413187 0.410916 0.834354
0.414125 0.411853 0.938673
0.415969 0.521134 0.079614
0.416996 0.522161 0.193912
0.417994 0.523159 0.304957
0.418977 0.524143 0.414434
0.419952 0.525117 0.522864
0.420919 0.526085 0.630506
0.421881 0.527046 0.737518
0.422838 0.528003 0.844004
0.423775 0.528941 0.948324
0.425549 0.637375 0.089195
0.426576 0.638402 0.203493
0.427574 0.639400 0.314537
0.428558 0.640384 0.424015
0.429532 0.641358 0.532445
0.430500 0.642326 0.640087
0.431461 0.643287 0.747099
0.432418 0.644244 0.853585
0.433356 0.645182 0.957904
0.435074 0.752938 0.098720
0.436101 0.753965 0.213018
0.437099 0.754963 0.324062
0.438083 0.755947 0.433540
0.439057 0.756921 0.541969
0.440024 0.757888 0.649612
0.440986 0.758850 0.756623
0.441943 0.759807 0.863109
0.442880 0.760744 0.967429
0.444552 0.867935 0.108198
0.445579 0.868962 0.222496
0.446577 0.869960 0.333540
0.447561 0.870944 0.443018
0.448535 0.871918 0.551448
0.449503 0.872886 0.659090
0.450464 0.873847 0.766101
0.451421 0.874804 0.872587
0.452359 0.875742 0.976907
0.453639 0.978188 0.117285
0.454666 0.979215 0.231583
0.455664 0.980213 0.342627
0.456648 0.981196 0.452105
0.457622 0.982171 0.560535
0.458590 0.983138 0.668177
0.459551 0.984100 0.775188
0.460508 0.985057 0.881675
0.461446 0.985994 0.985994
0.486817 0.045504 0.043044
0.487844 0.046532 0.157343
0.488842 0.047529 0.268387
0.489826 0.048513 0.377865
0.490800 0.049488 0.486294
0.491768 0.050455 0.593937
0.492729 0.051417 0.700948
0.493686 0.052373 0.807434
0.494624 0.053311 0.911754
0.496981 0.168818 0.053208
0.498008 0.169846 0.167506
0.499006 0.170843 0.278551
0.499990 0.171827 0.388028
0.500964 0.172802 0.496458
0.501931 0.173769 0.604100
0.502893 0.174731 0.711112
0.503850 0.175687 0.817598
0.504787 0.176625 0.921917
0.506862 0.288704 0.063089
0.507889 0.289731 0.177387
0.508887 0.290729 0.288432
0.509871 0.291713 0.397909
0.510845 0.292687 0.506339
0.511812 0.293655 0.613981
0.512774 0.294616 0.720993
0.513731 0.295573 0.827479
0.514668 0.296511 0.931798
0.516605 0.406915 0.072832
0.517632 0.407942 0.187130
0.518630 0.408940 0.298175
0.519614 0.409924 0.407652
0.520588 0.410898 0.516082
0.521555 0.411866 0.623724
0.522517 0.412827 0.730736
0.523474 0.413784 0.837222
0.524411 0.414722 0.941541
0.526255 0.524002 0.082482
0.527282 0.525029 0.196781
0.528280 0.526027 0.307825
0.529264 0.527011 0.417303
0.530238 0.527985 0.525732
0.531206 0.528953 0.633375
0.532167 0.529914 0.740386
0.533124 0.530871 0.846872
0.534062 0.531809 0.951192
0.535836 0.640243 0.092063
0.536863 0.641270 0.206361
0.537861 0.642268 0.317406
0.538845 0.643252 0.426883
0.539819 0.644226 0.535313
0.540786 0.645194 0.642955
0.541748 0.646155 0.749967
0.542705 0.647112 0.856453
0.543642 0.648050 0.960772
0.545360 0.755806 0.101588
0.546388 0.756833 0.215886
0.547385 0.757831 0.326930
0.548369 0.758815 0.436408
0.549344 0.759789 0.544838
0.550311 0.760757 0.652480
0.551273 0.761718 0.759491
0.552230 0.762675 0.865978
0.553167 0.763613 0.970297
0.554839 0.870803 0.111066
0.555866 0.871830 0.225364
0.556864 0.872828 0.336408
0.557847 0.873812 0.445886
0.558822 0.874786 0.554316
0.559789 0.875754 0.661958
0.560751 0.876715 0.768970
0.561708 0.877672 0.875456
0.562645 0.878610 0.979775
0.563926 0.981056 0.120153
0.564953 0.982083 0.234451
0.565951 0.983081 0.345496
0.566934 0.984065 0.454973
0.567909 0.985039 0.563403
0.568876 0.986006 0.671045
0.569838 0.986968 0.778057
0.570795 0.987925 0.884543
0.571732 0.988862 0.988862
0.596311 0.048352 0.045892
0.597338 0.049379 0.160190
0.598336 0.050377 0.271235
0.599319 0.051361 0.380712
0.600294 0.052335 0.489142
0.601261 0.053302 0.596784
0.602223 0.054264 0.703796
0.603180 0.055221 0.810282
0.604117 0.056158 0.914601
0.606474 0.171666 0.056056
0.607501 0.172693 0.170354
0.608499 0.173691 0.281398
0.609483 0.174675 0.390876
0.610457 0.175649 0.499305
0.611425 0.176616 0.606948
0.612386 0.177578 0.713959
0.613343 0.178535 0.820445
0.614281 0.179472 0.924765
0.616355 0.291552 0.065937
0.617382 0.292579 0.180235
0.618380 0.293577 0.291279
0.619364 0.294560 0.400757
0.620338 0.295535 0.509186
0.621306 0.296502 0.616829
0.622267 0.297464 0.723840
0.623224 0.298421 0.830326
0.624162 0.299358 0.934646
0.626098 0.409763 0.075680
0.627125 0.410790 0.189978
0.628123 0.411788 0.301022
0.629107 0.412771 0.410500
0.630081 0.413746 0.518929
0.631049 0.414713 0.626572
0.632010 0.415675 0.733583
0.632967 0.416632 0.840069
0.633905 0.417569 0.944389
0.635749 0.526850 0.085330
0.636776 0.527877 0.199628
0.637774 0.528875 0.310673
0.638757 0.529859 0.420150
0.639732 0.530833 0.528580
0.640699 0.531800 0.636222
0.641661 0.532762 0.743234
0.642618 0.533719 0.849720
0.643555 0.534656 0.954039
0.645329 0.643091 0.094911
0.646356 0.644118 0.209209
0.647354 0.645116 0.320253
0.648338 0.646100 0.429731
0.649312 0.647074 0.538160
0.650280 0.648041 0.645803
0.651241 0.649003 0.752814
0.652198 0.649960 0.859300
0.653136 0.650897 0.963620
0.654854 0.758654 0.104435
0.655881 0.759681 0.218733
0.656879 0.760679 0.329778
0.657863 0.761662 0.439255
0.658837 0.762637 0.547685
0.659804 0.763604 0.655327
0.660766 0.764566 0.762339
0.661723 0.765523 0.868825
0.662660 0.766460 0.973145
0.664332 0.873651 0.113913
0.665359 0.874678 0.228212
0.666357 0.875676 0.339256
0.667341 0.876660 0.448734
0.668315 0.877634 0.557163
0.669283 0.878601 0.664806
0.670244 0.879563 0.771817
0.671201 0.880520 0.878303
0.672139 0.881457 0.982623
0.673419 0.983903 0.123000
0.674446 0.984930 0.237299
0.675444 0.985928 0.348343
0.676428 0.986912 0.457821
0.677402 0.987886 0.566250
0.678370 0.988854 0.673893
0.679331 0.989815 0.780904
0.680288 0.990772 0.887390
0.681226 0.991710 0.991710
0.705168 0.051183 0.048723
0.706195 0.052210 0.163021
0.707193 0.053208 0.274066
0.708177 0.054192 0.383543
0.709151 0.055166 0.491973
0.710118 0.056133 0.599615
0.711080 0.057095 0.706627
0.712037 0.058052 0.813113
0.712974 0.058989 0.917432
0.715331 0.174497 0.058887
0.716358 0.175524 0.173185
0.717356 0.176522 0.284229
0.718340 0.177506 0.393707
0.719315 0.178480 0.502136
0.720282 0.179447 0.609779
0.721243 0.180409 0.716790
0.722200 0.181366 0.823276
0.723138 0.182303 0.927596
0.725212 0.294383 0.068768
0.726240 0.295410 0.183066
0.727237 0.296408 0.294110
0.728221 0.297391 0.403588
0.729196 0.298366 0.512017
0.730163 0.299333 0.619660
0.731125 0.300295 0.726671
0.732081 0.301252 0.833157
0.733019 0.302189 0.937477
0.734955 0.412594 0.078511
0.735983 0.413621 0.192809
0.736980 0.414619 0.303853
0.737964 0.415602 0.413331
0.738939 0.416577 0.521760
0.739906 0.417544 0.629403
0.740868 0.418506 0.736414
0.741824 0.419463 0.842900
0.742762 0.420400 0.947220
0.744606 0.529681 0.088161
0.745633 0.530708 0.202459
0.746631 0.531706 0.313504
0.747615 0.532690 0.422981
0.748589 0.533664 0.531411
0.749556 0.534631 0.639053
0.750518 0.535593 0.746065
0.751475 0.536550 0.852551
0.752412 0.537487 0.956870
0.754186 0.645922 0.097742
0.755214 0.646949 0.212040
0.756211 0.647947 0.323084
0.757195 0.648931 0.432562
0.758170 0.649905 0.540991
0.759137 0.650872 0.648634
0.760099 0.651834 0.755645
0.761055 0.652791 0.862131
0.761993 0.653728 0.966451
0.763711 0.761485 0.107266
0.764738 0.762512 0.221564
0.765736 0.763510 0.332609
0.766720 0.764493 0.442086
0.767694 0.765468 0.550516
0.768662 0.766435 0.658158
0.769623 0.767397 0.765170
0.770580 0.768354 0.871656
0.771518 0.769291 0.975976
0.773189 0.876482 0.116744
0.774216 0.877509 0.231043
0.775214 0.878507 0.342087
0.776198 0.879491 0.451565
0.777172 0.880465 0.559994
0.778140 0.881432 0.667637
0.779101 0.882394 0.774648
0.780058 0.883351 0.881134
0.780996 0.884288 0.985454
0.782276 0.986734 0.125831
0.783303 0.987761 0.240130
0.784301 0.988759 0.351174
0.785285 0.989743 0.460652
0.786259 0.990717 0.569081
0.787227 0.991685 0.676724
0.788188 0.992646 0.783735
0.789145 0.993603 0.890221
0.790083 0.994541 0.994541
0.813494 0.054000 0.051540
0.814521 0.055027 0.165838
0.815519 0.056025 0.276883
0.816503 0.057009 0.386360
0.817477 0.057983 0.494790
0.818444 0.058951 0.602432
0.819406 0.059912 0.709444
0.820363 0.060869 0.815930
0.821300 0.061807 0.920249
0.823658 0.177314 0.061704
0.824685 0.178341 0.176002
0.825683 0.179339 0.287046
0.826666 0.180323 0.396524
0.827641 0.181297 0.504954
0.828608 0.182265 0.612596
0.829570 0.183226 0.719607
0.830527 0.184183 0.826093
0.831464 0.185121 0.930413
0.833539 0.297200 0.071585
0.834566 0.298227 0.185883
0.835564 0.299225 0.296927
0.836547 0.300209 0.406405
0.837522 0.301183 0.514835
0.838489 0.302150 0.622477
0.839451 0.303112 0.729488
0.840408 0.304069 0.835975
0.841345 0.305006 0.940294
0.843282 0.415411 0.081328
0.844309 0.416438 0.195626
0.845307 0.417436 0.306670
0.846290 0.418420 0.416148
0.847265 0.419394 0.524578
0.848232 0.420361 0.632220
0.849194 0.421323 0.739231
0.850151 0.422280 0.845718
0.851088 0.423217 0.950037
0.852932 0.532498 0.090978
0.853959 0.533525 0.205276
0.854957 0.534523 0.316321
0.855941 0.535507 0.425798
0.856915 0.536481 0.534228
0.857882 0.537449 0.641870
0.858844 0.538410 0.748882
0.859801 0.539367 0.855368
0.860738 0.540305 0.959687
0.862513 0.648739 0.100559
0.863540 0.649766 0.214857
0.864538 0.650764 0.325901
0.865521 0.651748 0.435379
0.866496 0.652722 0.543809
0.867463 0.653690 0.651451
0.868425 0.654651 0.758462
0.869382 0.655608 0.864949
0.870319 0.656546 0.969268
0.872037 0.764302 0.110083
0.873064 0.765329 0.224382
0.874062 0.766327 0.335426
0.875046 0.767311 0.444904
0.876020 0.768285 0.553333
0.876988 0.769252 0.660976
0.877949 0.770214 0.767987
0.878906 0.771171 0.874473
0.879844 0.772108 0.978793
0.881515 0.879299 0.119562
0.882543 0.880326 0.233860
0.883540 0.881324 0.344904
0.884524 0.882308 0.454382
0.885499 0.883282 0.562812
0.886466 0.884249 0.670454
0.887428 0.885211 0.777465
0.888384 0.886168 0.883951
0.889322 0.887105 0.988271
0.890602 0.989551 0.128649
0.891630 0.990579 0.242947
0.892627 0.991576 0.353991
0.893611 0.992560 0.463469
0.894586 0.993535 0.571899
0.895553 0.994502 0.679541
0.896515 0.995464 0.786552
0.897472 0.996421 0.893038
0.898409 0.997358 0.997358
0.915085 0.056642 0.054182
0.916112 0.057669 0.168480
0.917110 0.058667 0.279525
0.918094 0.059651 0.389002
0.919068 0.060625 0.497432
0.920035 0.061593 0.605074
0.920997 0.062554 0.712086
0.921954 0.063511 0.818572
0.922891 0.064449 0.922891
0.925249 0.179956 0.064346
0.926276 0.180983 0.178644
0.927274 0.181981 0.289688
0.928257 0.182965 0.399166
0.929232 0.183939 0.507596
0.930199 0.184907 0.615238
0.931161 0.185868 0.722249
0.932118 0.186825 0.828736
0.933055 0.187763 0.933055
0.935130 0.299842 0.074227
0.936157 0.300869 0.188525
0.937155 0.301867 0.299569
0.938138 0.302851 0.409047
0.939113 0.303825 0.517477
0.940080 0.304792 0.625119
0.941042 0.305754 0.732131
0.941999 0.306711 0.838617
0.942936 0.307648 0.942936
0.944873 0.418053 0.083970
0.945900 0.419080 0.198268
0.946898 0.420078 0.309312
0.947881 0.421062 0.418790
0.948856 0.422036 0.527220
0.949823 0.423003 0.634862
0.950785 0.423965 0.741873
0.951742 0.424922 0.848360
0.952679 0.425859 0.952679
0.954523 0.535140 0.093620
0.955550 0.536167 0.207918
0.956548 0.537165 0.318963
0.957532 0.538149 0.428440
0.958506 0.539123 0.536870
0.959473 0.540091 0.644512
0.960435 0.541052 0.751524
0.961392 0.542009 0.858010
0.962329 0.542947 0.962329
0.964104 0.651381 0.103201
0.965131 0.652408 0.217499
0.966129 0.653406 0.328543
0.967112 0.654390 0.438021
0.968087 0.655364 0.546451
0.969054 0.656332 0.654093
0.970016 0.657293 0.761105
0.970973 0.658250 0.867591
0.971910 0.659188 0.971910
0.973628 0.766944 0.112725
0.974655 0.767971 0.227024
0.975653 0.768969 0.338068
0.976637 0.769953 0.447546
0.977612 0.770927 0.555975
0.978579 0.771894 0.663618
0.979540 0.772856 0.770629
0.980497 0.773813 0.877115
0.981435 0.774750 0.981435
0.983106 0.881941 0.122204
0.984134 0.882968 0.236502
0.985131 0.883966 0.347546
0.986115 0.884950 0.457024
0.987090 0.885924 0.565454
0.988057 0.886891 0.673096
0.989019 0.887853 0.780107
0.989975 0.888810 0.886593
0.990913 0.889747 0.990913
0.992194 0.992194 0.131291
0.993221 0.993221 0.245589
0.994219 0.994219 0.356633
0.995202 0.995202 0.466111
0.996177 0.996177 0.574541
0.997144 0.997144 0.682183
0.998106 0.998106 0.789194
0.999063 0.999063 0.895680
1.000000 1.000000 1.000000
