skills/clipper-orchestrator/assets/grade/luts/soft_pastel_v06.cube
TITLE "soft_pastel_v06"
LUT_3D_SIZE 17
DOMAIN_MIN 0.0 0.0 0.0
DOMAIN_MAX 1.0 1.0 1.0
0.036240 0.033786 0.031326
0.036760 0.034306 0.089135
0.037267 0.034814 0.145625
0.037768 0.035315 0.201396
0.038265 0.035811 0.256669
0.038758 0.036305 0.311562
0.039249 0.036795 0.366147
0.039737 0.037283 0.420473
0.040223 0.037770 0.474576
0.040708 0.038254 0.528485
0.041191 0.038737 0.582219
0.041672 0.039218 0.635796
0.042152 0.039699 0.689230
0.042631 0.040178 0.742534
0.043109 0.040656 0.795716
0.043586 0.041132 0.848787
0.044047 0.041593 0.900036
0.041379 0.096130 0.036465
0.041898 0.096650 0.094273
0.042406 0.097158 0.150763
0.042907 0.097659 0.206534
0.043404 0.098155 0.261807
0.043897 0.098649 0.316700
0.044387 0.099139 0.371285
0.044876 0.099627 0.425611
0.045362 0.100114 0.479715
0.045846 0.100598 0.533623
0.046329 0.101081 0.587357
0.046811 0.101562 0.640934
0.047291 0.102043 0.694369
0.047770 0.102522 0.747672
0.048248 0.102999 0.800855
0.048725 0.103476 0.853925
0.049185 0.103937 0.905174
0.046404 0.157100 0.041490
0.046923 0.157620 0.099298
0.047431 0.158128 0.155788
0.047932 0.158629 0.211559
0.048429 0.159125 0.266833
0.048922 0.159619 0.321725
0.049413 0.160109 0.376310
0.049901 0.160597 0.430636
0.050387 0.161084 0.484740
0.050871 0.161568 0.538648
0.051354 0.162051 0.592382
0.051836 0.162532 0.645959
0.052316 0.163013 0.699394
0.052795 0.163492 0.752697
0.053273 0.163969 0.805880
0.053750 0.164446 0.858950
0.054210 0.164907 0.910199
0.051366 0.217309 0.046452
0.051886 0.217828 0.104261
0.052393 0.218336 0.160751
0.052894 0.218837 0.216522
0.053391 0.219334 0.271795
0.053884 0.219827 0.326688
0.054375 0.220317 0.381273
0.054863 0.220806 0.435599
0.055349 0.221292 0.489702
0.055834 0.221776 0.543610
0.056317 0.222259 0.597345
0.056798 0.222741 0.650922
0.057278 0.223221 0.704356
0.057757 0.223700 0.757660
0.058235 0.224178 0.810842
0.058712 0.224655 0.863912
0.059173 0.225115 0.915162
0.056285 0.276986 0.051371
0.056804 0.277506 0.109180
0.057312 0.278013 0.165669
0.057813 0.278514 0.221440
0.058310 0.279011 0.276714
0.058803 0.279504 0.331606
0.059294 0.279995 0.386191
0.059782 0.280483 0.440517
0.060268 0.280969 0.494621
0.060752 0.281454 0.548529
0.061235 0.281937 0.602263
0.061717 0.282418 0.655840
0.062197 0.282898 0.709275
0.062676 0.283377 0.762578
0.063154 0.283855 0.815761
0.063631 0.284332 0.868831
0.064091 0.284793 0.920080
0.061170 0.336257 0.056256
0.061689 0.336776 0.114065
0.062197 0.337284 0.170554
0.062698 0.337785 0.226325
0.063195 0.338282 0.281599
0.063688 0.338775 0.336492
0.064179 0.339265 0.391076
0.064667 0.339754 0.445403
0.065153 0.340240 0.499506
0.065638 0.340724 0.553414
0.066120 0.341207 0.607148
0.066602 0.341689 0.660725
0.067082 0.342169 0.714160
0.067561 0.342648 0.767463
0.068039 0.343126 0.820646
0.068516 0.343603 0.873716
0.068976 0.344063 0.924965
0.066028 0.395197 0.061114
0.066547 0.395717 0.118923
0.067055 0.396224 0.175412
0.067556 0.396725 0.231183
0.068053 0.397222 0.286457
0.068546 0.397715 0.341349
0.069037 0.398206 0.395934
0.069525 0.398694 0.450260
0.070011 0.399180 0.504364
0.070495 0.399665 0.558272
0.070978 0.400148 0.612006
0.071460 0.400629 0.665583
0.071940 0.401109 0.719018
0.072419 0.401588 0.772321
0.072897 0.402066 0.825504
0.073374 0.402543 0.878574
0.073834 0.403004 0.929823
0.070863 0.453860 0.065949
0.071382 0.454380 0.123758
0.071890 0.454887 0.180247
0.072391 0.455389 0.236018
0.072888 0.455885 0.291292
0.073381 0.456379 0.346184
0.073872 0.456869 0.400769
0.074360 0.457357 0.455095
0.074846 0.457843 0.509199
0.075330 0.458328 0.563107
0.075813 0.458811 0.616841
0.076295 0.459292 0.670418
0.076775 0.459772 0.723853
0.077254 0.460251 0.777156
0.077732 0.460729 0.830339
0.078209 0.461206 0.883409
0.078669 0.461667 0.934658
0.075678 0.512284 0.070764
0.076198 0.512804 0.128573
0.076705 0.513311 0.185063
0.077206 0.513813 0.240834
0.077703 0.514309 0.296107
0.078196 0.514803 0.351000
0.078687 0.515293 0.405585
0.079175 0.515781 0.459911
0.079661 0.516268 0.514014
0.080146 0.516752 0.567923
0.080629 0.517235 0.621657
0.081110 0.517716 0.675234
0.081590 0.518196 0.728668
0.082069 0.518675 0.781972
0.082547 0.519153 0.835154
0.083024 0.519630 0.888225
0.083485 0.520091 0.939474
0.080476 0.570498 0.075562
0.080996 0.571018 0.133371
0.081503 0.571526 0.189861
0.082004 0.572027 0.245632
0.082501 0.572523 0.300905
0.082994 0.573017 0.355798
0.083485 0.573507 0.410383
0.083973 0.573995 0.464709
0.084459 0.574482 0.518812
0.084944 0.574966 0.572721
0.085427 0.575449 0.626455
0.085908 0.575930 0.680032
0.086388 0.576411 0.733466
0.086867 0.576890 0.786770
0.087345 0.577367 0.839952
0.087822 0.577844 0.893023
0.088283 0.578305 0.944272
0.085259 0.628525 0.080345
0.085778 0.629045 0.138154
0.086286 0.629552 0.194643
0.086787 0.630054 0.250414
0.087284 0.630550 0.305688
0.087777 0.631044 0.360580
0.088268 0.631534 0.415165
0.088756 0.632022 0.469491
0.089242 0.632509 0.523595
0.089726 0.632993 0.577503
0.090209 0.633476 0.631237
0.090691 0.633957 0.684814
0.091171 0.634437 0.738249
0.091650 0.634916 0.791552
0.092128 0.635394 0.844735
0.092605 0.635871 0.897805
0.093065 0.636332 0.949054
0.090027 0.686384 0.085114
0.090547 0.686903 0.142922
0.091055 0.687411 0.199412
0.091556 0.687912 0.255183
0.092052 0.688409 0.310456
0.092546 0.688902 0.365349
0.093036 0.689392 0.419934
0.093524 0.689881 0.474260
0.094011 0.690367 0.528364
0.094495 0.690851 0.582272
0.094978 0.691334 0.636006
0.095459 0.691815 0.689583
0.095940 0.692296 0.743017
0.096419 0.692775 0.796321
0.096897 0.693253 0.849504
0.097373 0.693729 0.902574
0.097834 0.694190 0.953823
0.094784 0.744088 0.089870
0.095303 0.744608 0.147678
0.095811 0.745115 0.204168
0.096312 0.745616 0.259939
0.096809 0.746113 0.315212
0.097302 0.746606 0.370105
0.097792 0.747097 0.424690
0.098281 0.747585 0.479016
0.098767 0.748071 0.533120
0.099251 0.748556 0.587028
0.099734 0.749039 0.640762
0.100215 0.749520 0.694339
0.100696 0.750000 0.747774
0.101175 0.750479 0.801077
0.101653 0.750957 0.854260
0.102129 0.751434 0.907330
0.102590 0.751895 0.958579
0.099528 0.801652 0.094614
0.100047 0.802171 0.152423
0.100555 0.802679 0.208912
0.101056 0.803180 0.264683
0.101553 0.803677 0.319957
0.102046 0.804170 0.374850
0.102537 0.804661 0.429434
0.103025 0.805149 0.483761
0.103511 0.805635 0.537864
0.103996 0.806119 0.591772
0.104478 0.806602 0.645506
0.104960 0.807084 0.699084
0.105440 0.807564 0.752518
0.105919 0.808043 0.805821
0.106397 0.808521 0.859004
0.106874 0.808998 0.912074
0.107334 0.809458 0.963324
0.104262 0.859085 0.099348
0.104781 0.859605 0.157156
0.105289 0.860112 0.213646
0.105790 0.860614 0.269417
0.106287 0.861110 0.324691
0.106780 0.861604 0.379583
0.107270 0.862094 0.434168
0.107759 0.862582 0.488494
0.108245 0.863068 0.542598
0.108729 0.863553 0.596506
0.109212 0.864036 0.650240
0.109694 0.864517 0.703817
0.110174 0.864997 0.757252
0.110653 0.865476 0.810555
0.111131 0.865954 0.863738
0.111608 0.866431 0.916808
0.112068 0.866892 0.968057
0.108985 0.916398 0.104072
0.109505 0.916917 0.161880
0.110012 0.917425 0.218370
0.110514 0.917926 0.274141
0.111010 0.918423 0.329414
0.111504 0.918916 0.384307
0.111994 0.919407 0.438892
0.112482 0.919895 0.493218
0.112969 0.920381 0.547322
0.113453 0.920866 0.601230
0.113936 0.921348 0.654964
0.114417 0.921830 0.708541
0.114897 0.922310 0.761975
0.115376 0.922789 0.815279
0.115854 0.923267 0.868461
0.116331 0.923744 0.921532
0.116792 0.924204 0.972781
0.113349 0.969338 0.108435
0.113868 0.969857 0.166243
0.114376 0.970365 0.222733
0.114877 0.970866 0.278504
0.115374 0.971363 0.333778
0.115867 0.971856 0.388670
0.116357 0.972347 0.443255
0.116846 0.972835 0.497581
0.117332 0.973321 0.551685
0.117816 0.973805 0.605593
0.118299 0.974288 0.659327
0.118781 0.974770 0.712904
0.119261 0.975250 0.766339
0.119740 0.975729 0.819642
0.120218 0.976207 0.872825
0.120695 0.976684 0.925895
0.121155 0.977144 0.977144
0.094892 0.035312 0.032852
0.095411 0.035831 0.090660
0.095919 0.036339 0.147150
0.096420 0.036840 0.202921
0.096917 0.037337 0.258194
0.097410 0.037830 0.313087
0.097901 0.038321 0.367672
0.098389 0.038809 0.421998
0.098875 0.039295 0.476102
0.099360 0.039779 0.530010
0.099842 0.040262 0.583744
0.100324 0.040744 0.637321
0.100804 0.041224 0.690755
0.101283 0.041703 0.744059
0.101761 0.042181 0.797242
0.102238 0.042658 0.850312
0.102698 0.043118 0.901561
0.100030 0.097656 0.037990
0.100550 0.098175 0.095799
0.101057 0.098683 0.152288
0.101559 0.099184 0.208059
0.102055 0.099681 0.263333
0.102549 0.100174 0.318226
0.103039 0.100665 0.372810
0.103527 0.101153 0.427137
0.104014 0.101639 0.481240
0.104498 0.102123 0.535148
0.104981 0.102606 0.588882
0.105462 0.103088 0.642459
0.105942 0.103568 0.695894
0.106421 0.104047 0.749197
0.106899 0.104525 0.802380
0.107376 0.105002 0.855450
0.107837 0.105462 0.906700
0.105056 0.158626 0.043015
0.105575 0.159145 0.100824
0.106083 0.159653 0.157314
0.106584 0.160154 0.213085
0.107081 0.160651 0.268358
0.107574 0.161144 0.323251
0.108064 0.161635 0.377836
0.108552 0.162123 0.432162
0.109039 0.162609 0.486265
0.109523 0.163093 0.540173
0.110006 0.163576 0.593907
0.110487 0.164058 0.647485
0.110968 0.164538 0.700919
0.111447 0.165017 0.754223
0.111925 0.165495 0.807405
0.112401 0.165972 0.860475
0.112862 0.166432 0.911725
0.110018 0.218834 0.047978
0.110537 0.219353 0.105786
0.111045 0.219861 0.162276
0.111546 0.220362 0.218047
0.112043 0.220859 0.273320
0.112536 0.221352 0.328213
0.113027 0.221843 0.382798
0.113515 0.222331 0.437124
0.114001 0.222817 0.491228
0.114485 0.223302 0.545136
0.114968 0.223784 0.598870
0.115450 0.224266 0.652447
0.115930 0.224746 0.705881
0.116409 0.225225 0.759185
0.116887 0.225703 0.812368
0.117364 0.226180 0.865438
0.117824 0.226640 0.916687
0.114937 0.278512 0.052896
0.115456 0.279031 0.110705
0.115964 0.279539 0.167195
0.116465 0.280040 0.222966
0.116962 0.280537 0.278239
0.117455 0.281030 0.333132
0.117945 0.281520 0.387717
0.118434 0.282008 0.442043
0.118920 0.282495 0.496146
0.119404 0.282979 0.550054
0.119887 0.283462 0.603789
0.120368 0.283943 0.657366
0.120849 0.284424 0.710800
0.121328 0.284903 0.764104
0.121806 0.285381 0.817286
0.122282 0.285857 0.870356
0.122743 0.286318 0.921606
0.119822 0.337782 0.057781
0.120341 0.338301 0.115590
0.120849 0.338809 0.172080
0.121350 0.339310 0.227851
0.121847 0.339807 0.283124
0.122340 0.340300 0.338017
0.122830 0.340791 0.392602
0.123319 0.341279 0.446928
0.123805 0.341765 0.501031
0.124289 0.342250 0.554940
0.124772 0.342732 0.608674
0.125254 0.343214 0.662251
0.125734 0.343694 0.715685
0.126213 0.344173 0.768989
0.126691 0.344651 0.822171
0.127168 0.345128 0.875242
0.127628 0.345588 0.926491
0.124680 0.396722 0.062639
0.125199 0.397242 0.120448
0.125707 0.397750 0.176938
0.126208 0.398251 0.232709
0.126705 0.398747 0.287982
0.127198 0.399241 0.342875
0.127688 0.399731 0.397460
0.128177 0.400219 0.451786
0.128663 0.400706 0.505889
0.129147 0.401190 0.559797
0.129630 0.401673 0.613532
0.130111 0.402154 0.667109
0.130592 0.402635 0.720543
0.131071 0.403114 0.773847
0.131549 0.403592 0.827029
0.132025 0.404068 0.880099
0.132486 0.404529 0.931349
0.129515 0.455386 0.067474
0.130034 0.455905 0.125283
0.130542 0.456413 0.181773
0.131043 0.456914 0.237544
0.131540 0.457411 0.292817
0.132033 0.457904 0.347710
0.132523 0.458394 0.402295
0.133012 0.458883 0.456621
0.133498 0.459369 0.510724
0.133982 0.459853 0.564632
0.134465 0.460336 0.618367
0.134947 0.460818 0.671944
0.135427 0.461298 0.725378
0.135906 0.461777 0.778682
0.136384 0.462255 0.831864
0.136861 0.462732 0.884934
0.137321 0.463192 0.936184
0.134330 0.513810 0.072290
0.134849 0.514329 0.130098
0.135357 0.514837 0.186588
0.135858 0.515338 0.242359
0.136355 0.515835 0.297632
0.136848 0.516328 0.352525
0.137339 0.516818 0.407110
0.137827 0.517307 0.461436
0.138313 0.517793 0.515540
0.138798 0.518277 0.569448
0.139280 0.518760 0.623182
0.139762 0.519242 0.676759
0.140242 0.519722 0.730193
0.140721 0.520201 0.783497
0.141199 0.520679 0.836680
0.141676 0.521156 0.889750
0.142136 0.521616 0.940999
0.139128 0.572024 0.077088
0.139647 0.572543 0.134896
0.140155 0.573051 0.191386
0.140656 0.573552 0.247157
0.141153 0.574049 0.302430
0.141646 0.574542 0.357323
0.142137 0.575033 0.411908
0.142625 0.575521 0.466234
0.143111 0.576007 0.520338
0.143596 0.576491 0.574246
0.144078 0.576974 0.627980
0.144560 0.577456 0.681557
0.145040 0.577936 0.734992
0.145519 0.578415 0.788295
0.145997 0.578893 0.841478
0.146474 0.579370 0.894548
0.146934 0.579830 0.945797
0.143911 0.630051 0.081870
0.144430 0.630570 0.139679
0.144938 0.631078 0.196169
0.145439 0.631579 0.251940
0.145936 0.632076 0.307213
0.146429 0.632569 0.362106
0.146919 0.633059 0.416691
0.147408 0.633548 0.471017
0.147894 0.634034 0.525120
0.148378 0.634518 0.579028
0.148861 0.635001 0.632763
0.149342 0.635483 0.686340
0.149823 0.635963 0.739774
0.150302 0.636442 0.793078
0.150780 0.636920 0.846260
0.151256 0.637397 0.899330
0.151717 0.637857 0.950580
0.148679 0.687909 0.086639
0.149199 0.688428 0.144448
0.149706 0.688936 0.200937
0.150208 0.689437 0.256708
0.150704 0.689934 0.311982
0.151198 0.690427 0.366874
0.151688 0.690918 0.421459
0.152176 0.691406 0.475785
0.152662 0.691892 0.529889
0.153147 0.692376 0.583797
0.153630 0.692859 0.637531
0.154111 0.693341 0.691108
0.154591 0.693821 0.744543
0.155070 0.694300 0.797846
0.155548 0.694778 0.851029
0.156025 0.695255 0.904099
0.156486 0.695715 0.955348
0.153435 0.745613 0.091395
0.153955 0.746133 0.149204
0.154462 0.746641 0.205693
0.154964 0.747142 0.261464
0.155460 0.747638 0.316738
0.155954 0.748132 0.371631
0.156444 0.748622 0.426215
0.156932 0.749110 0.480541
0.157418 0.749597 0.534645
0.157903 0.750081 0.588553
0.158386 0.750564 0.642287
0.158867 0.751045 0.695864
0.159347 0.751526 0.749299
0.159826 0.752005 0.802602
0.160304 0.752482 0.855785
0.160781 0.752959 0.908855
0.161242 0.753420 0.960104
0.158180 0.803177 0.096140
0.158699 0.803697 0.153948
0.159207 0.804204 0.210438
0.159708 0.804705 0.266209
0.160205 0.805202 0.321482
0.160698 0.805695 0.376375
0.161188 0.806186 0.430960
0.161677 0.806674 0.485286
0.162163 0.807160 0.539389
0.162647 0.807645 0.593298
0.163130 0.808128 0.647032
0.163612 0.808609 0.700609
0.164092 0.809089 0.754043
0.164571 0.809568 0.807347
0.165049 0.810046 0.860529
0.165526 0.810523 0.913600
0.165986 0.810984 0.964849
0.162913 0.860611 0.100873
0.163433 0.861130 0.158682
0.163940 0.861638 0.215171
0.164442 0.862139 0.270942
0.164938 0.862636 0.326216
0.165432 0.863129 0.381109
0.165922 0.863619 0.435693
0.166410 0.864108 0.490020
0.166897 0.864594 0.544123
0.167381 0.865078 0.598031
0.167864 0.865561 0.651765
0.168345 0.866043 0.705343
0.168825 0.866523 0.758777
0.169304 0.867002 0.812080
0.169782 0.867480 0.865263
0.170259 0.867957 0.918333
0.170720 0.868417 0.969583
0.167637 0.917923 0.105597
0.168157 0.918443 0.163405
0.168664 0.918950 0.219895
0.169165 0.919452 0.275666
0.169662 0.919948 0.330940
0.170155 0.920442 0.385832
0.170646 0.920932 0.440417
0.171134 0.921420 0.494743
0.171620 0.921906 0.548847
0.172105 0.922391 0.602755
0.172588 0.922874 0.656489
0.173069 0.923355 0.710066
0.173549 0.923835 0.763501
0.174028 0.924314 0.816804
0.174506 0.924792 0.869987
0.174983 0.925269 0.923057
0.175444 0.925730 0.974306
0.172000 0.970863 0.109960
0.172520 0.971383 0.167769
0.173028 0.971890 0.224258
0.173529 0.972391 0.280029
0.174025 0.972888 0.335303
0.174519 0.973381 0.390196
0.175009 0.973872 0.444780
0.175497 0.974360 0.499107
0.175984 0.974846 0.553210
0.176468 0.975331 0.607118
0.176951 0.975814 0.660852
0.177432 0.976295 0.714430
0.177913 0.976775 0.767864
0.178392 0.977254 0.821167
0.178869 0.977732 0.874350
0.179346 0.978209 0.927420
0.179807 0.978670 0.978670
0.152293 0.036805 0.034345
0.152813 0.037324 0.092153
0.153320 0.037832 0.148643
0.153821 0.038333 0.204414
0.154318 0.038830 0.259687
0.154811 0.039323 0.314580
0.155302 0.039813 0.369165
0.155790 0.040302 0.423491
0.156276 0.040788 0.477595
0.156761 0.041272 0.531503
0.157244 0.041755 0.585237
0.157725 0.042237 0.638814
0.158205 0.042717 0.692248
0.158684 0.043196 0.745552
0.159162 0.043674 0.798734
0.159639 0.044151 0.851805
0.160100 0.044611 0.903054
0.157432 0.099149 0.039483
0.157951 0.099668 0.097291
0.158459 0.100176 0.153781
0.158960 0.100677 0.209552
0.159457 0.101174 0.264826
0.159950 0.101667 0.319718
0.160440 0.102157 0.374303
0.160929 0.102646 0.428629
0.161415 0.103132 0.482733
0.161899 0.103616 0.536641
0.162382 0.104099 0.590375
0.162864 0.104581 0.643952
0.163344 0.105061 0.697387
0.163823 0.105540 0.750690
0.164301 0.106018 0.803873
0.164778 0.106495 0.856943
0.165238 0.106955 0.908192
0.162457 0.160119 0.044508
0.162976 0.160638 0.102317
0.163484 0.161146 0.158806
0.163985 0.161647 0.214577
0.164482 0.162144 0.269851
0.164975 0.162637 0.324744
0.165466 0.163127 0.379328
0.165954 0.163616 0.433655
0.166440 0.164102 0.487758
0.166924 0.164586 0.541666
0.167407 0.165069 0.595400
0.167889 0.165551 0.648977
0.168369 0.166031 0.702412
0.168848 0.166510 0.755715
0.169326 0.166988 0.808898
0.169803 0.167465 0.861968
0.170263 0.167925 0.913217
0.167419 0.220327 0.049471
0.167939 0.220846 0.107279
0.168446 0.221354 0.163769
0.168947 0.221855 0.219540
0.169444 0.222352 0.274813
0.169937 0.222845 0.329706
0.170428 0.223336 0.384291
0.170916 0.223824 0.438617
0.171402 0.224310 0.492720
0.171887 0.224794 0.546629
0.172370 0.225277 0.600363
0.172851 0.225759 0.653940
0.173331 0.226239 0.707374
0.173810 0.226718 0.760678
0.174288 0.227196 0.813860
0.174765 0.227673 0.866931
0.175226 0.228133 0.918180
0.172338 0.280004 0.054389
0.172857 0.280524 0.112198
0.173365 0.281031 0.168687
0.173866 0.281533 0.224458
0.174363 0.282029 0.279732
0.174856 0.282523 0.334625
0.175347 0.283013 0.389209
0.175835 0.283501 0.443536
0.176321 0.283987 0.497639
0.176805 0.284472 0.551547
0.177288 0.284955 0.605281
0.177770 0.285436 0.658859
0.178250 0.285916 0.712293
0.178729 0.286395 0.765596
0.179207 0.286873 0.818779
0.179684 0.287350 0.871849
0.180144 0.287811 0.923099
0.177223 0.339275 0.059274
0.177742 0.339794 0.117083
0.178250 0.340302 0.173572
0.178751 0.340803 0.229343
0.179248 0.341300 0.284617
0.179741 0.341793 0.339510
0.180232 0.342284 0.394094
0.180720 0.342772 0.448421
0.181206 0.343258 0.502524
0.181691 0.343742 0.556432
0.182173 0.344225 0.610166
0.182655 0.344707 0.663744
0.183135 0.345187 0.717178
0.183614 0.345666 0.770481
0.184092 0.346144 0.823664
0.184569 0.346621 0.876734
0.185029 0.347081 0.927984
0.182081 0.398215 0.064132
0.182600 0.398735 0.121941
0.183108 0.399242 0.178430
0.183609 0.399744 0.234201
0.184106 0.400240 0.289475
0.184599 0.400734 0.344368
0.185090 0.401224 0.398952
0.185578 0.401712 0.453279
0.186064 0.402198 0.507382
0.186548 0.402683 0.561290
0.187031 0.403166 0.615024
0.187513 0.403647 0.668602
0.187993 0.404127 0.722036
0.188472 0.404606 0.775339
0.188950 0.405084 0.828522
0.189427 0.405561 0.881592
0.189887 0.406022 0.932842
0.186916 0.456878 0.068967
0.187435 0.457398 0.126776
0.187943 0.457906 0.183265
0.188444 0.458407 0.239036
0.188941 0.458903 0.294310
0.189434 0.459397 0.349203
0.189925 0.459887 0.403787
0.190413 0.460375 0.458114
0.190899 0.460862 0.512217
0.191383 0.461346 0.566125
0.191866 0.461829 0.619859
0.192348 0.462310 0.673437
0.192828 0.462791 0.726871
0.193307 0.463270 0.780174
0.193785 0.463747 0.833357
0.194262 0.464224 0.886427
0.194722 0.464685 0.937677
0.191731 0.515302 0.073783
0.192251 0.515822 0.131591
0.192758 0.516330 0.188081
0.193259 0.516831 0.243852
0.193756 0.517327 0.299125
0.194249 0.517821 0.354018
0.194740 0.518311 0.408603
0.195228 0.518799 0.462929
0.195714 0.519286 0.517032
0.196199 0.519770 0.570941
0.196682 0.520253 0.624675
0.197163 0.520734 0.678252
0.197643 0.521215 0.731686
0.198122 0.521694 0.784990
0.198600 0.522172 0.838172
0.199077 0.522648 0.891243
0.199538 0.523109 0.942492
0.196529 0.573517 0.078581
0.197049 0.574036 0.136389
0.197556 0.574544 0.192879
0.198058 0.575045 0.248650
0.198554 0.575542 0.303923
0.199047 0.576035 0.358816
0.199538 0.576525 0.413401
0.200026 0.577014 0.467727
0.200512 0.577500 0.521831
0.200997 0.577984 0.575739
0.201480 0.578467 0.629473
0.201961 0.578949 0.683050
0.202441 0.579429 0.736484
0.202920 0.579908 0.789788
0.203398 0.580386 0.842970
0.203875 0.580862 0.896041
0.204336 0.581323 0.947290
0.201312 0.631543 0.083363
0.201831 0.632063 0.141172
0.202339 0.632571 0.197661
0.202840 0.633072 0.253432
0.203337 0.633568 0.308706
0.203830 0.634062 0.363599
0.204321 0.634552 0.418183
0.204809 0.635040 0.472510
0.205295 0.635527 0.526613
0.205779 0.636011 0.580521
0.206262 0.636494 0.634255
0.206744 0.636975 0.687833
0.207224 0.637456 0.741267
0.207703 0.637935 0.794570
0.208181 0.638413 0.847753
0.208658 0.638889 0.900823
0.209118 0.639350 0.952073
0.206081 0.689402 0.088132
0.206600 0.689921 0.145940
0.207108 0.690429 0.202430
0.207609 0.690930 0.258201
0.208106 0.691427 0.313475
0.208599 0.691920 0.368367
0.209089 0.692410 0.422952
0.209577 0.692899 0.477278
0.210064 0.693385 0.531382
0.210548 0.693869 0.585290
0.211031 0.694352 0.639024
0.211512 0.694834 0.692601
0.211993 0.695314 0.746036
0.212472 0.695793 0.799339
0.212950 0.696271 0.852522
0.213426 0.696748 0.905592
0.213887 0.697208 0.956841
0.210837 0.747106 0.092888
0.211356 0.747626 0.150696
0.211864 0.748133 0.207186
0.212365 0.748635 0.262957
0.212862 0.749131 0.318231
0.213355 0.749625 0.373123
0.213845 0.750115 0.427708
0.214334 0.750603 0.482034
0.214820 0.751089 0.536138
0.215304 0.751574 0.590046
0.215787 0.752057 0.643780
0.216268 0.752538 0.697357
0.216749 0.753018 0.750792
0.217228 0.753497 0.804095
0.217706 0.753975 0.857278
0.218182 0.754452 0.910348
0.218643 0.754913 0.961597
0.215581 0.804670 0.097632
0.216100 0.805189 0.155441
0.216608 0.805697 0.211931
0.217109 0.806198 0.267702
0.217606 0.806695 0.322975
0.218099 0.807188 0.377868
0.218590 0.807679 0.432452
0.219078 0.808167 0.486779
0.219564 0.808653 0.540882
0.220049 0.809138 0.594790
0.220531 0.809620 0.648524
0.221013 0.810102 0.702102
0.221493 0.810582 0.755536
0.221972 0.811061 0.808840
0.222450 0.811539 0.862022
0.222927 0.812016 0.915092
0.223387 0.812476 0.966342
0.220315 0.862103 0.102366
0.220834 0.862623 0.160174
0.221342 0.863131 0.216664
0.221843 0.863632 0.272435
0.222340 0.864128 0.327709
0.222833 0.864622 0.382601
0.223323 0.865112 0.437186
0.223812 0.865600 0.491512
0.224298 0.866087 0.545616
0.224782 0.866571 0.599524
0.225265 0.867054 0.653258
0.225747 0.867535 0.706835
0.226227 0.868016 0.760270
0.226706 0.868495 0.813573
0.227184 0.868972 0.866756
0.227661 0.869449 0.919826
0.228121 0.869910 0.971075
0.225038 0.919416 0.107090
0.225558 0.919936 0.164898
0.226066 0.920443 0.221388
0.226567 0.920944 0.277159
0.227063 0.921441 0.332432
0.227557 0.921934 0.387325
0.228047 0.922425 0.441910
0.228535 0.922913 0.496236
0.229022 0.923399 0.550340
0.229506 0.923884 0.604248
0.229989 0.924367 0.657982
0.230470 0.924848 0.711559
0.230950 0.925328 0.764993
0.231429 0.925807 0.818297
0.231907 0.926285 0.871480
0.232384 0.926762 0.924550
0.232845 0.927223 0.975799
0.229402 0.972356 0.111453
0.229921 0.972875 0.169262
0.230429 0.973383 0.225751
0.230930 0.973884 0.281522
0.231427 0.974381 0.336796
0.231920 0.974874 0.391688
0.232411 0.975365 0.446273
0.232899 0.975853 0.500599
0.233385 0.976339 0.554703
0.233869 0.976824 0.608611
0.234352 0.977306 0.662345
0.234834 0.977788 0.715922
0.235314 0.978268 0.769357
0.235793 0.978747 0.822660
0.236271 0.979225 0.875843
0.236748 0.979702 0.928913
0.237208 0.980162 0.980162
0.208990 0.038279 0.035819
0.209509 0.038799 0.093628
0.210017 0.039306 0.150117
0.210518 0.039807 0.205888
0.211015 0.040304 0.261162
0.211508 0.040797 0.316054
0.211999 0.041288 0.370639
0.212487 0.041776 0.424965
0.212973 0.042262 0.479069
0.213457 0.042747 0.532977
0.213940 0.043230 0.586711
0.214422 0.043711 0.640288
0.214902 0.044191 0.693723
0.215381 0.044670 0.747026
0.215859 0.045148 0.800209
0.216336 0.045625 0.853279
0.216796 0.046086 0.904528
0.214128 0.100623 0.040957
