skills/clipper-orchestrator/assets/grade/luts/soft_pastel_v04.cube
TITLE "soft_pastel_v04"
LUT_3D_SIZE 9
DOMAIN_MIN 0.0 0.0 0.0
DOMAIN_MAX 1.0 1.0 1.0
0.028195 0.026699 0.025199
0.029108 0.027611 0.141227
0.029997 0.028500 0.254252
0.030875 0.029378 0.365871
0.031746 0.030249 0.476556
0.032611 0.031114 0.586540
0.033472 0.031975 0.695964
0.034329 0.032832 0.804922
0.035161 0.033664 0.910680
0.037231 0.150779 0.034235
0.038144 0.151692 0.150263
0.039033 0.152581 0.263287
0.039911 0.153459 0.374907
0.040781 0.154329 0.485592
0.041647 0.155194 0.595576
0.042507 0.156055 0.705000
0.043364 0.156912 0.813957
0.044196 0.157744 0.919716
0.046036 0.271697 0.043040
0.046949 0.272610 0.159068
0.047838 0.273499 0.272093
0.048716 0.274377 0.383712
0.049587 0.275247 0.494397
0.050452 0.276113 0.604381
0.051312 0.276973 0.713805
0.052169 0.277830 0.822762
0.053001 0.278662 0.928521
0.054732 0.391121 0.051736
0.055645 0.392033 0.167764
0.056534 0.392923 0.280789
0.057412 0.393801 0.392408
0.058283 0.394671 0.503093
0.059148 0.395536 0.613077
0.060009 0.396397 0.722501
0.060866 0.397254 0.831458
0.061698 0.398086 0.937217
0.063356 0.509549 0.060360
0.064269 0.510462 0.176388
0.065158 0.511351 0.289413
0.066036 0.512229 0.401032
0.066907 0.513099 0.511717
0.067772 0.513965 0.621701
0.068633 0.514825 0.731125
0.069490 0.515682 0.840082
0.070322 0.516514 0.945841
0.071926 0.627230 0.068929
0.072838 0.628142 0.184958
0.073727 0.629031 0.297982
0.074605 0.629909 0.409602
0.075476 0.630780 0.520286
0.076341 0.631645 0.630271
0.077202 0.632506 0.739695
0.078059 0.633363 0.848652
0.078891 0.634195 0.954411
0.080452 0.744312 0.077455
0.081364 0.745225 0.193483
0.082253 0.746114 0.306508
0.083131 0.746992 0.418127
0.084002 0.747863 0.528812
0.084867 0.748728 0.638797
0.085728 0.749589 0.748220
0.086585 0.750446 0.857178
0.087417 0.751278 0.962937
0.088941 0.860897 0.085945
0.089854 0.861809 0.201973
0.090743 0.862698 0.314998
0.091621 0.863576 0.426617
0.092492 0.864447 0.537302
0.093357 0.865312 0.647286
0.094217 0.866173 0.756710
0.095075 0.867030 0.865667
0.095906 0.867862 0.971426
0.097075 0.972595 0.094079
0.097988 0.973507 0.210107
0.098877 0.974396 0.323131
0.099755 0.975274 0.434751
0.100625 0.976145 0.545436
0.101490 0.977010 0.655420
0.102351 0.977871 0.764844
0.103208 0.978728 0.873801
0.104040 0.979560 0.979560
0.145856 0.029383 0.027884
0.146769 0.030296 0.143912
0.147658 0.031185 0.256936
0.148536 0.032063 0.368556
0.149407 0.032933 0.479241
0.150272 0.033799 0.589225
0.151133 0.034659 0.698649
0.151990 0.035516 0.807606
0.152822 0.036348 0.913365
0.154892 0.153463 0.036919
0.155804 0.154376 0.152947
0.156693 0.155265 0.265972
0.157571 0.156143 0.377591
0.158442 0.157014 0.488276
0.159307 0.157879 0.598260
0.160168 0.158740 0.707684
0.161025 0.159597 0.816641
0.161857 0.160428 0.922400
0.163697 0.274381 0.045724
0.164609 0.275294 0.161752
0.165499 0.276183 0.274777
0.166377 0.277061 0.386396
0.167247 0.277932 0.497081
0.168112 0.278797 0.607065
0.168973 0.279658 0.716489
0.169830 0.280515 0.825446
0.170662 0.281347 0.931205
0.172393 0.393805 0.054420
0.173306 0.394718 0.170449
0.174195 0.395607 0.283473
0.175073 0.396485 0.395093
0.175944 0.397355 0.505777
0.176809 0.398221 0.615762
0.177669 0.399081 0.725186
0.178527 0.399938 0.834143
0.179358 0.400770 0.939902
0.181017 0.512233 0.063044
0.181930 0.513146 0.179072
0.182819 0.514035 0.292097
0.183697 0.514913 0.403716
0.184567 0.515784 0.514401
0.185433 0.516649 0.624386
0.186293 0.517510 0.733809
0.187150 0.518367 0.842767
0.187982 0.519199 0.948526
0.189586 0.629914 0.071614
0.190499 0.630827 0.187642
0.191388 0.631716 0.300666
0.192266 0.632594 0.412286
0.193137 0.633464 0.522971
0.194002 0.634330 0.632955
0.194863 0.635190 0.742379
0.195720 0.636047 0.851336
0.196552 0.636879 0.957095
0.198112 0.746997 0.080140
0.199025 0.747909 0.196168
0.199914 0.748798 0.309192
0.200792 0.749676 0.420812
0.201663 0.750547 0.531497
0.202528 0.751412 0.641481
0.203389 0.752273 0.750905
0.204246 0.753130 0.859862
0.205078 0.753962 0.965621
0.206602 0.863581 0.088629
0.207515 0.864494 0.204657
0.208404 0.865383 0.317682
0.209282 0.866261 0.429301
0.210152 0.867131 0.539986
0.211017 0.867996 0.649970
0.211878 0.868857 0.759394
0.212735 0.869714 0.868351
0.213567 0.870546 0.974110
0.214736 0.975279 0.096763
0.215648 0.976192 0.212791
0.216537 0.977081 0.325816
0.217415 0.977959 0.437435
0.218286 0.978829 0.548120
0.219151 0.979694 0.658104
0.220012 0.980555 0.767528
0.220869 0.981412 0.876485
0.221701 0.982244 0.982244
0.260563 0.032000 0.030500
0.261476 0.032913 0.146528
0.262365 0.033802 0.259553
0.263243 0.034680 0.371173
0.264114 0.035550 0.481857
0.264979 0.036415 0.591842
0.265840 0.037276 0.701265
0.266697 0.038133 0.810223
0.267529 0.038965 0.915982
0.269599 0.156080 0.039536
0.270512 0.156993 0.155564
0.271401 0.157882 0.268589
0.272279 0.158760 0.380208
0.273149 0.159630 0.490893
0.274014 0.160496 0.600877
0.274875 0.161356 0.710301
0.275732 0.162213 0.819258
0.276564 0.163045 0.925017
0.278404 0.276998 0.048341
0.279317 0.277911 0.164369
0.280206 0.278800 0.277394
0.281084 0.279678 0.389013
0.281954 0.280549 0.499698
0.282820 0.281414 0.609682
0.283680 0.282274 0.719106
0.284537 0.283132 0.828063
0.285369 0.283963 0.933822
0.287100 0.396422 0.057037
0.288013 0.397335 0.173065
0.288902 0.398224 0.286090
0.289780 0.399102 0.397709
0.290651 0.399972 0.508394
0.291516 0.400838 0.618379
0.292377 0.401698 0.727802
0.293234 0.402555 0.836760
0.294066 0.403387 0.942519
0.295724 0.514850 0.065661
0.296637 0.515763 0.181689
0.297526 0.516652 0.294714
0.298404 0.517530 0.406333
0.299275 0.518401 0.517018
0.300140 0.519266 0.627002
0.301001 0.520126 0.736426
0.301858 0.520983 0.845383
0.302690 0.521815 0.951142
0.304294 0.632531 0.074231
0.305206 0.633443 0.190259
0.306095 0.634333 0.303283
0.306973 0.635211 0.414903
0.307844 0.636081 0.525588
0.308709 0.636946 0.635572
0.309570 0.637807 0.744996
0.310427 0.638664 0.853953
0.311259 0.639496 0.959712
0.312820 0.749613 0.082757
0.313732 0.750526 0.198785
0.314621 0.751415 0.311809
0.315499 0.752293 0.423429
0.316370 0.753164 0.534113
0.317235 0.754029 0.644098
0.318096 0.754890 0.753522
0.318953 0.755747 0.862479
0.319785 0.756579 0.968238
0.321309 0.866198 0.091246
0.322222 0.867110 0.207274
0.323111 0.867999 0.320299
0.323989 0.868877 0.431918
0.324860 0.869748 0.542603
0.325725 0.870613 0.652587
0.326585 0.871474 0.762011
0.327442 0.872331 0.870968
0.328274 0.873163 0.976727
0.329443 0.977896 0.099380
0.330356 0.978808 0.215408
0.331245 0.979697 0.328433
0.332123 0.980576 0.440052
0.332993 0.981446 0.550737
0.333858 0.982311 0.660721
0.334719 0.983172 0.770145
0.335576 0.984029 0.879102
0.336408 0.984861 0.984861
0.373862 0.034585 0.033085
0.374775 0.035497 0.149113
0.375664 0.036386 0.262138
0.376542 0.037264 0.373757
0.377412 0.038135 0.484442
0.378277 0.039000 0.594426
0.379138 0.039861 0.703850
0.379995 0.040718 0.812807
0.380827 0.041550 0.918566
0.382897 0.158665 0.042121
0.383810 0.159578 0.158149
0.384699 0.160467 0.271173
0.385577 0.161345 0.382793
0.386448 0.162215 0.493478
0.387313 0.163080 0.603462
0.388174 0.163941 0.712886
0.389031 0.164798 0.821843
0.389863 0.165630 0.927602
0.391702 0.279583 0.050926
0.392615 0.280496 0.166954
0.393504 0.281385 0.279979
0.394382 0.282263 0.391598
0.395253 0.283133 0.502283
0.396118 0.283998 0.612267
0.396979 0.284859 0.721691
0.397836 0.285716 0.830648
0.398668 0.286548 0.936407
0.400399 0.399007 0.059622
0.401312 0.399919 0.175650
0.402201 0.400808 0.288675
0.403079 0.401686 0.400294
0.403949 0.402557 0.510979
0.404814 0.403422 0.620963
0.405675 0.404283 0.730387
0.406532 0.405140 0.839344
0.407364 0.405972 0.945103
0.409023 0.517435 0.068246
0.409935 0.518348 0.184274
0.410824 0.519237 0.297299
0.411702 0.520115 0.408918
0.412573 0.520985 0.519603
0.413438 0.521850 0.629587
0.414299 0.522711 0.739011
0.415156 0.523568 0.847968
0.415988 0.524400 0.953727
0.417592 0.635116 0.076815
0.418505 0.636028 0.192843
0.419394 0.636917 0.305868
0.420272 0.637795 0.417487
0.421143 0.638666 0.528172
0.422008 0.639531 0.638157
0.422868 0.640392 0.747580
0.423725 0.641249 0.856538
0.424557 0.642081 0.962297
0.426118 0.752198 0.085341
0.427031 0.753111 0.201369
0.427920 0.754000 0.314394
0.428798 0.754878 0.426013
0.429668 0.755749 0.536698
0.430534 0.756614 0.646682
0.431394 0.757475 0.756106
0.432251 0.758332 0.865063
0.433083 0.759163 0.970822
0.434608 0.868782 0.093831
0.435520 0.869695 0.209859
0.436409 0.870584 0.322884
0.437287 0.871462 0.434503
0.438158 0.872333 0.545188
0.439023 0.873198 0.655172
0.439884 0.874059 0.764596
0.440741 0.874916 0.873553
0.441573 0.875748 0.979312
0.442741 0.980480 0.101965
0.443654 0.981393 0.217993
0.444543 0.982282 0.331017
0.445421 0.983160 0.442637
0.446292 0.984031 0.553322
0.447157 0.984896 0.663306
0.448018 0.985757 0.772730
0.448875 0.986614 0.881687
0.449707 0.987446 0.987446
0.486220 0.037148 0.035648
0.487132 0.038061 0.151677
0.488021 0.038950 0.264701
0.488899 0.039828 0.376321
0.489770 0.040698 0.487005
0.490635 0.041563 0.596990
0.491496 0.042424 0.706414
0.492353 0.043281 0.815371
0.493185 0.044113 0.921130
0.495255 0.161228 0.044684
0.496168 0.162141 0.160712
0.497057 0.163030 0.273737
0.497935 0.163908 0.385356
0.498805 0.164779 0.496041
0.499671 0.165644 0.606025
0.500531 0.166504 0.715449
0.501388 0.167362 0.824406
0.502220 0.168193 0.930165
0.504060 0.282146 0.053489
0.504973 0.283059 0.169517
0.505862 0.283948 0.282542
0.506740 0.284826 0.394161
0.507611 0.285697 0.504846
0.508476 0.286562 0.614830
0.509336 0.287423 0.724254
0.510194 0.288280 0.833211
0.511025 0.289111 0.938970
0.512756 0.401570 0.062185
0.513669 0.402483 0.178213
0.514558 0.403372 0.291238
0.515436 0.404250 0.402857
0.516307 0.405120 0.513542
0.517172 0.405986 0.623527
0.518033 0.406846 0.732950
0.518890 0.407703 0.841908
0.519722 0.408535 0.947667
0.521380 0.519998 0.070809
0.522293 0.520911 0.186837
0.523182 0.521800 0.299862
0.524060 0.522678 0.411481
0.524931 0.523549 0.522166
0.525796 0.524414 0.632150
0.526657 0.525274 0.741574
0.527514 0.526132 0.850531
0.528346 0.526963 0.956290
0.529950 0.637679 0.079379
0.530862 0.638592 0.195407
0.531752 0.639481 0.308431
0.532630 0.640359 0.420051
0.533500 0.641229 0.530736
0.534365 0.642094 0.640720
0.535226 0.642955 0.750144
0.536083 0.643812 0.859101
0.536915 0.644644 0.964860
0.538476 0.754761 0.087905
0.539388 0.755674 0.203933
0.540277 0.756563 0.316957
0.541155 0.757441 0.428577
0.542026 0.758312 0.539262
0.542891 0.759177 0.649246
0.543752 0.760038 0.758670
0.544609 0.760895 0.867627
0.545441 0.761727 0.973386
0.546965 0.871346 0.096394
0.547878 0.872258 0.212422
0.548767 0.873148 0.325447
0.549645 0.874026 0.437066
0.550516 0.874896 0.547751
0.551381 0.875761 0.657735
0.552242 0.876622 0.767159
0.553099 0.877479 0.876116
0.553931 0.878311 0.981875
0.555099 0.983044 0.104528
0.556012 0.983956 0.220556
0.556901 0.984846 0.333581
0.557779 0.985724 0.445200
0.558649 0.986594 0.555885
0.559515 0.987459 0.665869
0.560375 0.988320 0.775293
0.561232 0.989177 0.884250
0.562064 0.990009 0.990009
0.597870 0.039695 0.038196
0.598783 0.040608 0.154224
0.599672 0.041497 0.267248
0.600550 0.042375 0.378868
0.601421 0.043245 0.489553
0.602286 0.044111 0.599537
0.603147 0.044971 0.708961
0.604004 0.045828 0.817918
0.604836 0.046660 0.923677
0.606906 0.163775 0.047231
0.607818 0.164688 0.163259
0.608707 0.165577 0.276284
0.609585 0.166455 0.387903
0.610456 0.167326 0.498588
0.611321 0.168191 0.608572
0.612182 0.169052 0.717996
0.613039 0.169909 0.826953
0.613871 0.170741 0.932712
0.615711 0.284693 0.056036
0.616624 0.285606 0.172064
0.617513 0.286495 0.285089
0.618391 0.287373 0.396708
0.619261 0.288244 0.507393
0.620126 0.289109 0.617377
0.620987 0.289970 0.726801
0.621844 0.290827 0.835758
0.622676 0.291659 0.941517
0.624407 0.404117 0.064733
0.625320 0.405030 0.180761
0.626209 0.405919 0.293785
0.627087 0.406797 0.405405
0.627958 0.407668 0.516090
0.628823 0.408533 0.626074
0.629684 0.409393 0.735498
0.630541 0.410251 0.844455
0.631373 0.411082 0.950214
0.633031 0.522545 0.073356
0.633944 0.523458 0.189384
0.634833 0.524347 0.302409
0.635711 0.525225 0.414028
0.636581 0.526096 0.524713
0.637447 0.526961 0.634698
0.638307 0.527822 0.744121
0.639164 0.528679 0.853079
0.639996 0.529511 0.958838
0.641600 0.640226 0.081926
0.642513 0.641139 0.197954
0.643402 0.642028 0.310979
0.644280 0.642906 0.422598
0.645151 0.643776 0.533283
0.646016 0.644642 0.643267
0.646877 0.645502 0.752691
0.647734 0.646359 0.861648
0.648566 0.647191 0.967407
0.650126 0.757309 0.090452
0.651039 0.758221 0.206480
0.651928 0.759110 0.319504
0.652806 0.759988 0.431124
0.653677 0.760859 0.541809
0.654542 0.761724 0.651793
0.655403 0.762585 0.761217
0.656260 0.763442 0.870174
0.657092 0.764274 0.975933
0.658616 0.873893 0.098941
0.659529 0.874806 0.214969
0.660418 0.875695 0.327994
0.661296 0.876573 0.439613
0.662166 0.877443 0.550298
0.663032 0.878309 0.660282
0.663892 0.879169 0.769706
0.664749 0.880026 0.878664
0.665581 0.880858 0.984422
0.666750 0.985591 0.107075
0.667662 0.986504 0.223103
0.668551 0.987393 0.336128
0.669429 0.988271 0.447747
0.670300 0.989141 0.558432
0.671165 0.990007 0.668416
0.672026 0.990867 0.777840
0.672883 0.991724 0.886797
0.673715 0.992556 0.992556
0.708955 0.042229 0.040730
0.709868 0.043142 0.156758
0.710757 0.044031 0.269783
0.711635 0.044909 0.381402
0.712505 0.045780 0.492087
0.713371 0.046645 0.602071
0.714231 0.047506 0.711495
0.715088 0.048363 0.820452
0.715920 0.049195 0.926211
0.717990 0.166310 0.049765
0.718903 0.167222 0.165793
0.719792 0.168111 0.278818
0.720670 0.168989 0.390437
0.721541 0.169860 0.501122
0.722406 0.170725 0.611107
0.723267 0.171586 0.720530
0.724124 0.172443 0.829488
0.724956 0.173275 0.935247
0.726796 0.287228 0.058570
0.727708 0.288140 0.174599
0.728597 0.289029 0.287623
0.729475 0.289907 0.399243
0.730346 0.290778 0.509927
0.731211 0.291643 0.619912
0.732072 0.292504 0.729336
0.732929 0.293361 0.838293
0.733761 0.294193 0.944052
0.735492 0.406651 0.067267
0.736405 0.407564 0.183295
0.737294 0.408453 0.296320
0.738172 0.409331 0.407939
0.739042 0.410202 0.518624
0.739907 0.411067 0.628608
0.740768 0.411928 0.738032
0.741625 0.412785 0.846989
0.742457 0.413617 0.952748
0.744116 0.525080 0.075891
0.745028 0.525992 0.191919
0.745917 0.526881 0.304943
0.746795 0.527759 0.416563
0.747666 0.528630 0.527248
0.748531 0.529495 0.637232
0.749392 0.530356 0.746656
0.750249 0.531213 0.855613
0.751081 0.532045 0.961372
0.752685 0.642760 0.084460
0.753598 0.643673 0.200488
0.754487 0.644562 0.313513
0.755365 0.645440 0.425132
0.756236 0.646311 0.535817
0.757101 0.647176 0.645801
0.757961 0.648037 0.755225
0.758819 0.648894 0.864182
0.759650 0.649726 0.969941
0.761211 0.759843 0.092986
0.762124 0.760756 0.209014
0.763013 0.761645 0.322039
0.763891 0.762523 0.433658
0.764761 0.763393 0.544343
0.765627 0.764258 0.654327
0.766487 0.765119 0.763751
0.767344 0.765976 0.872708
0.768176 0.766808 0.978467
0.769701 0.876427 0.101476
0.770613 0.877340 0.217504
0.771502 0.878229 0.330528
0.772380 0.879107 0.442148
0.773251 0.879978 0.552833
0.774116 0.880843 0.662817
0.774977 0.881703 0.772241
0.775834 0.882561 0.881198
0.776666 0.883392 0.986957
0.777834 0.988125 0.109609
0.778747 0.989038 0.225637
0.779636 0.989927 0.338662
0.780514 0.990805 0.450281
0.781385 0.991676 0.560966
0.782250 0.992541 0.670950
0.783111 0.993402 0.780374
0.783968 0.994259 0.889332
0.784800 0.995090 0.995090
0.819568 0.044753 0.043253
0.820480 0.045665 0.159281
0.821370 0.046555 0.272306
0.822248 0.047433 0.383925
0.823118 0.048303 0.494610
0.823983 0.049168 0.604595
0.824844 0.050029 0.714018
0.825701 0.050886 0.822976
0.826533 0.051718 0.928735
0.828603 0.168833 0.052289
0.829516 0.169746 0.168317
0.830405 0.170635 0.281342
0.831283 0.171513 0.392961
0.832154 0.172383 0.503646
0.833019 0.173249 0.613630
0.833880 0.174109 0.723054
0.834737 0.174966 0.832011
0.835569 0.175798 0.937770
0.837408 0.289751 0.061094
0.838321 0.290664 0.177122
0.839210 0.291553 0.290147
0.840088 0.292431 0.401766
0.840959 0.293301 0.512451
0.841824 0.294167 0.622435
0.842685 0.295027 0.731859
0.843542 0.295884 0.840816
0.844374 0.296716 0.946575
0.846105 0.409175 0.069790
0.847017 0.410088 0.185818
0.847906 0.410977 0.298843
0.848784 0.411855 0.410462
0.849655 0.412725 0.521147
0.850520 0.413590 0.631132
0.851381 0.414451 0.740555
0.852238 0.415308 0.849513
0.853070 0.416140 0.955272
0.854729 0.527603 0.078414
0.855641 0.528516 0.194442
0.856530 0.529405 0.307467
0.857408 0.530283 0.419086
0.858279 0.531153 0.529771
0.859144 0.532019 0.639755
0.860005 0.532879 0.749179
0.860862 0.533736 0.858136
0.861694 0.534568 0.963895
0.863298 0.645284 0.086984
0.864211 0.646196 0.203012
0.865100 0.647085 0.316036
0.865978 0.647964 0.427656
0.866848 0.648834 0.538341
0.867714 0.649699 0.648325
0.868574 0.650560 0.757749
0.869431 0.651417 0.866706
0.870263 0.652249 0.972465
0.871824 0.762366 0.095509
0.872737 0.763279 0.211537
0.873626 0.764168 0.324562
0.874504 0.765046 0.436181
0.875374 0.765917 0.546866
0.876239 0.766782 0.656851
0.877100 0.767643 0.766274
0.877957 0.768500 0.875232
0.878789 0.769332 0.980991
0.880313 0.878951 0.103999
0.881226 0.879863 0.220027
0.882115 0.880752 0.333052
0.882993 0.881630 0.444671
0.883864 0.882501 0.555356
0.884729 0.883366 0.665340
0.885590 0.884227 0.774764
0.886447 0.885084 0.883721
0.887279 0.885916 0.989480
0.888447 0.990649 0.112133
0.889360 0.991561 0.228161
0.890249 0.992450 0.341186
0.891127 0.993328 0.452805
0.891998 0.994199 0.563490
0.892863 0.995064 0.673474
0.893723 0.995925 0.782898
0.894581 0.996782 0.891855
0.895412 0.997614 0.997614
0.924155 0.047139 0.045639
0.925068 0.048051 0.161667
0.925957 0.048941 0.274692
0.926835 0.049819 0.386311
0.927706 0.050689 0.496996
0.928571 0.051554 0.606981
0.929432 0.052415 0.716404
0.930289 0.053272 0.825362
0.931121 0.054104 0.931121
0.933191 0.171219 0.054675
0.934103 0.172132 0.170703
0.934992 0.173021 0.283728
0.935870 0.173899 0.395347
0.936741 0.174769 0.506032
0.937606 0.175635 0.616016
0.938467 0.176495 0.725440
0.939324 0.177352 0.834397
0.940156 0.178184 0.940156
0.941996 0.292137 0.063480
0.942909 0.293050 0.179508
0.943798 0.293939 0.292533
0.944676 0.294817 0.404152
0.945546 0.295688 0.514837
0.946411 0.296553 0.624821
0.947272 0.297413 0.734245
0.948129 0.298270 0.843202
0.948961 0.299102 0.948961
0.950692 0.411561 0.072176
0.951605 0.412474 0.188204
0.952494 0.413363 0.301229
0.953372 0.414241 0.412848
0.954243 0.415111 0.523533
0.955108 0.415976 0.633518
0.955969 0.416837 0.742941
0.956826 0.417694 0.851899
0.957658 0.418526 0.957658
0.959316 0.529989 0.080800
0.960229 0.530902 0.196828
0.961118 0.531791 0.309853
0.961996 0.532669 0.421472
0.962866 0.533539 0.532157
0.963732 0.534405 0.642141
0.964592 0.535265 0.751565
0.965449 0.536122 0.860522
0.966281 0.536954 0.966281
0.967885 0.647670 0.089370
0.968798 0.648582 0.205398
0.969687 0.649472 0.318422
0.970565 0.650350 0.430042
0.971436 0.651220 0.540727
0.972301 0.652085 0.650711
0.973162 0.652946 0.760135
0.974019 0.653803 0.869092
0.974851 0.654635 0.974851
0.976411 0.764752 0.097895
0.977324 0.765665 0.213923
0.978213 0.766554 0.326948
0.979091 0.767432 0.438568
0.979962 0.768303 0.549252
0.980827 0.769168 0.659237
0.981688 0.770029 0.768661
0.982545 0.770886 0.877618
0.983377 0.771718 0.983377
0.984901 0.881337 0.106385
0.985814 0.882249 0.222413
0.986703 0.883138 0.335438
0.987581 0.884016 0.447057
0.988451 0.884887 0.557742
0.989317 0.885752 0.667726
0.990177 0.886613 0.777150
0.991034 0.887470 0.886107
0.991866 0.888302 0.991866
0.993035 0.993035 0.114519
0.993947 0.993947 0.230547
0.994836 0.994836 0.343572
0.995714 0.995714 0.455191
0.996585 0.996585 0.565876
0.997450 0.997450 0.675860
0.998311 0.998311 0.785284
0.999168 0.999168 0.894241
1.000000 1.000000 1.000000
