skills/clipper-orchestrator/assets/grade/luts/soft_pastel_v06.cube
TITLE "soft_pastel_v06"
LUT_3D_SIZE 5
DOMAIN_MIN 0.0 0.0 0.0
DOMAIN_MAX 1.0 1.0 1.0
0.036240 0.033786 0.031326
0.038265 0.035811 0.256669
0.040223 0.037770 0.474576
0.042152 0.039699 0.689230
0.044047 0.041593 0.900036
0.056285 0.276986 0.051371
0.058310 0.279011 0.276714
0.060268 0.280969 0.494621
0.062197 0.282898 0.709275
0.064091 0.284793 0.920080
0.075678 0.512284 0.070764
0.077703 0.514309 0.296107
0.079661 0.516268 0.514014
0.081590 0.518196 0.728668
0.083485 0.520091 0.939474
0.094784 0.744088 0.089870
0.096809 0.746113 0.315212
0.098767 0.748071 0.533120
0.100696 0.750000 0.747774
0.102590 0.751895 0.958579
0.113349 0.969338 0.108435
0.115374 0.971363 0.333778
0.117332 0.973321 0.551685
0.119261 0.975250 0.766339
0.121155 0.977144 0.977144
0.265193 0.039741 0.037281
0.267218 0.041766 0.262623
0.269176 0.043724 0.480531
0.271105 0.045653 0.695184
0.272999 0.047547 0.905990
0.285237 0.282940 0.057325
0.287262 0.284965 0.282668
0.289220 0.286924 0.500575
0.291149 0.288853 0.715229
0.293044 0.290747 0.926035
0.304631 0.518239 0.076719
0.306656 0.520264 0.302061
0.308614 0.522222 0.519969
0.310543 0.524151 0.734622
0.312437 0.526045 0.945428
0.323736 0.750042 0.095824
0.325761 0.752067 0.321167
0.327719 0.754026 0.539074
0.329648 0.755955 0.753728
0.331542 0.757849 0.964533
0.342301 0.975292 0.114389
0.344326 0.977317 0.339732
0.346284 0.979275 0.557639
0.348213 0.981204 0.772293
0.350108 0.983099 0.983099
0.486817 0.045504 0.043044
0.488842 0.047529 0.268387
0.490800 0.049488 0.486294
0.492729 0.051417 0.700948
0.494624 0.053311 0.911754
0.506862 0.288704 0.063089
0.508887 0.290729 0.288432
0.510845 0.292687 0.506339
0.512774 0.294616 0.720993
0.514668 0.296511 0.931798
0.526255 0.524002 0.082482
0.528280 0.526027 0.307825
0.530238 0.527985 0.525732
0.532167 0.529914 0.740386
0.534062 0.531809 0.951192
0.545360 0.755806 0.101588
0.547385 0.757831 0.326930
0.549344 0.759789 0.544838
0.551273 0.761718 0.759491
0.553167 0.763613 0.970297
0.563926 0.981056 0.120153
0.565951 0.983081 0.345496
0.567909 0.985039 0.563403
0.569838 0.986968 0.778057
0.571732 0.988862 0.988862
0.705168 0.051183 0.048723
0.707193 0.053208 0.274066
0.709151 0.055166 0.491973
0.711080 0.057095 0.706627
0.712974 0.058989 0.917432
0.725212 0.294383 0.068768
0.727237 0.296408 0.294110
0.729196 0.298366 0.512017
0.731125 0.300295 0.726671
0.733019 0.302189 0.937477
0.744606 0.529681 0.088161
0.746631 0.531706 0.313504
0.748589 0.533664 0.531411
0.750518 0.535593 0.746065
0.752412 0.537487 0.956870
0.763711 0.761485 0.107266
0.765736 0.763510 0.332609
0.767694 0.765468 0.550516
0.769623 0.767397 0.765170
0.771518 0.769291 0.975976
0.782276 0.986734 0.125831
0.784301 0.988759 0.351174
0.786259 0.990717 0.569081
0.788188 0.992646 0.783735
0.790083 0.994541 0.994541
0.915085 0.056642 0.054182
0.917110 0.058667 0.279525
0.919068 0.060625 0.497432
0.920997 0.062554 0.712086
0.922891 0.064449 0.922891
0.935130 0.299842 0.074227
0.937155 0.301867 0.299569
0.939113 0.303825 0.517477
0.941042 0.305754 0.732131
0.942936 0.307648 0.942936
0.954523 0.535140 0.093620
0.956548 0.537165 0.318963
0.958506 0.539123 0.536870
0.960435 0.541052 0.751524
0.962329 0.542947 0.962329
0.973628 0.766944 0.112725
0.975653 0.768969 0.338068
0.977612 0.770927 0.555975
0.979540 0.772856 0.770629
0.981435 0.774750 0.981435
0.992194 0.992194 0.131291
0.994219 0.994219 0.356633
0.996177 0.996177 0.574541
0.998106 0.998106 0.789194
1.000000 1.000000 1.000000
