skills/clipper-orchestrator/assets/grade/luts/warm_skin_v15.cube
TITLE "warm_skin_v15"
LUT_3D_SIZE 5
DOMAIN_MIN 0.0 0.0 0.0
DOMAIN_MAX 1.0 1.0 1.0
0.044202 0.000000 0.000000
0.043597 0.000000 0.222541
0.042871 0.000000 0.490151
0.042159 0.000000 0.752730
0.041454 0.000000 1.000000
0.036916 0.264145 0.000000
0.036311 0.263540 0.215254
0.035584 0.262813 0.482864
0.034872 0.262101 0.745443
0.034167 0.261396 1.000000
0.029752 0.524156 0.000000
0.029147 0.523551 0.208091
0.028421 0.522825 0.475701
0.027708 0.522112 0.738280
0.027004 0.521408 0.997792
0.022710 0.779766 0.000000
0.022105 0.779161 0.201049
0.021379 0.778435 0.468659
0.020667 0.777722 0.731238
0.019962 0.777018 0.990750
0.016347 1.000000 0.000000
0.015742 1.000000 0.194685
0.015016 1.000000 0.462296
0.014303 1.000000 0.724875
0.013599 1.000000 0.984387
0.317239 0.000000 0.000000
0.316634 0.000000 0.220347
0.315908 0.000000 0.487957
0.315195 0.000000 0.750537
0.314491 0.000000 1.000000
0.309952 0.261951 0.000000
0.309347 0.261346 0.213060
0.308621 0.260620 0.480670
0.307909 0.259907 0.743250
0.307204 0.259203 1.000000
0.302789 0.521963 0.000000
0.302184 0.521358 0.205897
0.301458 0.520631 0.473507
0.300745 0.519919 0.736087
0.300041 0.519214 0.995598
0.295747 0.777572 0.000000
0.295142 0.776968 0.198855
0.294416 0.776241 0.466465
0.293703 0.775529 0.729045
0.292999 0.774824 0.988556
0.289384 1.000000 0.000000
0.288779 1.000000 0.192492
0.288053 1.000000 0.460102
0.287340 1.000000 0.722682
0.286636 1.000000 0.982193
0.581279 0.000000 0.000000
0.580674 0.000000 0.218226
0.579948 0.000000 0.485836
0.579235 0.000000 0.748416
0.578531 0.000000 1.000000
0.573992 0.259830 0.000000
0.573387 0.259225 0.210939
0.572661 0.258499 0.478549
0.571948 0.257786 0.741129
0.571244 0.257082 1.000000
0.566829 0.519841 0.000000
0.566224 0.519236 0.203776
0.565498 0.518510 0.471386
0.564785 0.517797 0.733965
0.564081 0.517093 0.993477
0.559787 0.775451 0.000000
0.559182 0.774846 0.196734
0.558456 0.774120 0.464344
0.557743 0.773407 0.726924
0.557039 0.772703 0.986435
0.553424 1.000000 0.000000
0.552819 1.000000 0.190371
0.552093 1.000000 0.457981
0.551380 1.000000 0.720560
0.550676 1.000000 0.980072
0.841249 0.000000 0.000000
0.840644 0.000000 0.216137
0.839918 0.000000 0.483747
0.839205 0.000000 0.746327
0.838501 0.000000 1.000000
0.833962 0.257741 0.000000
0.833357 0.257136 0.208850
0.832631 0.256410 0.476461
0.831918 0.255697 0.739040
0.831214 0.254993 0.998552
0.826799 0.517753 0.000000
0.826194 0.517148 0.201687
0.825468 0.516422 0.469297
0.824755 0.515709 0.731877
0.824051 0.515005 0.991389
0.819757 0.773363 0.000000
0.819152 0.772758 0.194645
0.818426 0.772031 0.462255
0.817713 0.771319 0.724835
0.817009 0.770615 0.984347
0.813394 1.000000 0.000000
0.812789 1.000000 0.188282
0.812063 1.000000 0.455892
0.811350 1.000000 0.718472
0.810646 1.000000 0.977983
1.000000 0.000000 0.000000
1.000000 0.000000 0.214616
1.000000 0.000000 0.482226
1.000000 0.000000 0.744805
1.000000 0.000000 1.000000
1.000000 0.256219 0.000000
1.000000 0.255614 0.207329
1.000000 0.254888 0.474939
1.000000 0.254176 0.737518
1.000000 0.253471 0.997030
1.000000 0.516231 0.000000
1.000000 0.515626 0.200165
1.000000 0.514900 0.467776
1.000000 0.514187 0.730355
1.000000 0.513483 0.989867
1.000000 0.771841 0.000000
1.000000 0.771236 0.193124
1.000000 0.770510 0.460734
1.000000 0.769797 0.723313
1.000000 0.769093 0.982825
1.000000 1.000000 0.000000
1.000000 1.000000 0.186760
1.000000 1.000000 0.454371
1.000000 1.000000 0.716950
1.000000 1.000000 0.976462
