skills/clipper-orchestrator/assets/grade/luts/warm_skin_v15.cube
TITLE "warm_skin_v15"
LUT_3D_SIZE 17
DOMAIN_MIN 0.0 0.0 0.0
DOMAIN_MAX 1.0 1.0 1.0
0.044202 0.000000 0.000000
0.044165 0.000000 0.013289
0.043971 0.000000 0.084909
0.043783 0.000000 0.154252
0.043597 0.000000 0.222541
0.043414 0.000000 0.290131
0.043232 0.000000 0.357198
0.043051 0.000000 0.423848
0.042871 0.000000 0.490151
0.042692 0.000000 0.556157
0.042514 0.000000 0.621904
0.042336 0.000000 0.687420
0.042159 0.000000 0.752730
0.041982 0.000000 0.817853
0.041806 0.000000 0.882804
0.041630 0.000000 0.947596
0.041454 0.000000 1.000000
0.042456 0.063034 0.000000
0.042419 0.062997 0.011542
0.042225 0.062802 0.083163
0.042036 0.062614 0.152506
0.041851 0.062429 0.220794
0.041668 0.062246 0.288384
0.041486 0.062063 0.355451
0.041305 0.061883 0.422101
0.041125 0.061703 0.488404
0.040946 0.061524 0.554411
0.040767 0.061345 0.620157
0.040589 0.061167 0.685674
0.040412 0.060990 0.750984
0.040235 0.060813 0.816106
0.040059 0.060637 0.881057
0.039883 0.060461 0.945850
0.039708 0.060286 1.000000
0.040580 0.131128 0.000000
0.040543 0.131091 0.009667
0.040349 0.130897 0.081287
0.040160 0.130709 0.150630
0.039975 0.130523 0.218918
0.039792 0.130340 0.286508
0.039610 0.130158 0.353575
0.039429 0.129977 0.420226
0.039249 0.129797 0.486528
0.039070 0.129618 0.552535
0.038891 0.129440 0.618281
0.038713 0.129262 0.683798
0.038536 0.129084 0.749108
0.038359 0.128908 0.814230
0.038183 0.128731 0.879181
0.038007 0.128556 0.943974
0.037832 0.128380 1.000000
0.038737 0.198014 0.000000
0.038700 0.197977 0.007824
0.038506 0.197782 0.079444
0.038318 0.197594 0.148787
0.038132 0.197409 0.217076
0.037949 0.197226 0.284666
0.037767 0.197043 0.351733
0.037586 0.196863 0.418383
0.037406 0.196683 0.484686
0.037227 0.196504 0.550692
0.037049 0.196325 0.616439
0.036871 0.196147 0.681955
0.036694 0.195970 0.747265
0.036517 0.195793 0.812388
0.036341 0.195617 0.877339
0.036165 0.195441 0.942131
0.035989 0.195266 1.000000
0.036916 0.264145 0.000000
0.036878 0.264107 0.006002
0.036684 0.263913 0.077623
0.036496 0.263725 0.146965
0.036311 0.263540 0.215254
0.036127 0.263356 0.282844
0.035945 0.263174 0.349911
0.035764 0.262993 0.416561
0.035584 0.262813 0.482864
0.035405 0.262634 0.548870
0.035227 0.262456 0.614617
0.035049 0.262278 0.680133
0.034872 0.262101 0.745443
0.034695 0.261924 0.810566
0.034519 0.261748 0.875517
0.034343 0.261572 0.940309
0.034167 0.261396 1.000000
0.035109 0.329725 0.000000
0.035072 0.329688 0.004195
0.034877 0.329494 0.075816
0.034689 0.329306 0.145159
0.034504 0.329120 0.213447
0.034320 0.328937 0.281037
0.034138 0.328755 0.348104
0.033958 0.328574 0.414754
0.033778 0.328394 0.481057
0.033598 0.328215 0.547063
0.033420 0.328036 0.612810
0.033242 0.327859 0.678327
0.033065 0.327681 0.743637
0.032888 0.327505 0.808759
0.032712 0.327328 0.873710
0.032536 0.327153 0.938502
0.032361 0.326977 1.000000
0.033314 0.394874 0.000000
0.033277 0.394837 0.002400
0.033083 0.394642 0.074021
0.032894 0.394454 0.143364
0.032709 0.394269 0.211652
0.032526 0.394085 0.279242
0.032344 0.393903 0.346309
0.032163 0.393722 0.412959
0.031983 0.393542 0.479262
0.031804 0.393363 0.545268
0.031625 0.393185 0.611015
0.031447 0.393007 0.676532
0.031270 0.392830 0.741842
0.031093 0.392653 0.806964
0.030917 0.392477 0.871915
0.030741 0.392301 0.936708
0.030566 0.392125 1.000000
0.031529 0.459666 0.000000
0.031492 0.459629 0.000615
0.031298 0.459435 0.072236
0.031109 0.459246 0.141579
0.030924 0.459061 0.209867
0.030741 0.458878 0.277457
0.030559 0.458696 0.344524
0.030378 0.458515 0.411174
0.030198 0.458335 0.477477
0.030019 0.458156 0.543483
0.029840 0.457977 0.609230
0.029662 0.457799 0.674747
0.029485 0.457622 0.740057
0.029308 0.457445 0.805179
0.029132 0.457269 0.870130
0.028956 0.457093 0.934923
0.028781 0.456918 0.999569
0.029752 0.524156 0.000000
0.029715 0.524119 0.000000
0.029521 0.523925 0.070459
0.029333 0.523736 0.139802
0.029147 0.523551 0.208091
0.028964 0.523368 0.275680
0.028782 0.523186 0.342748
0.028601 0.523005 0.409398
0.028421 0.522825 0.475701
0.028242 0.522646 0.541707
0.028064 0.522467 0.607454
0.027886 0.522289 0.672970
0.027708 0.522112 0.738280
0.027532 0.521936 0.803403
0.027355 0.521759 0.868353
0.027180 0.521583 0.933146
0.027004 0.521408 0.997792
0.027983 0.588384 0.000000
0.027946 0.588346 0.000000
0.027751 0.588152 0.068690
0.027563 0.587964 0.138033
0.027378 0.587779 0.206321
0.027195 0.587595 0.273911
0.027012 0.587413 0.340978
0.026832 0.587232 0.407628
0.026652 0.587052 0.473931
0.026473 0.586873 0.539937
0.026294 0.586695 0.605684
0.026116 0.586517 0.671201
0.025939 0.586340 0.736511
0.025762 0.586163 0.801633
0.025586 0.585987 0.866584
0.025410 0.585811 0.931377
0.025235 0.585635 0.996022
0.026220 0.652379 0.000000
0.026183 0.652342 0.000000
0.025988 0.652147 0.066927
0.025800 0.651959 0.136270
0.025615 0.651774 0.204558
0.025431 0.651591 0.272148
0.025249 0.651408 0.339215
0.025069 0.651228 0.405865
0.024889 0.651048 0.472168
0.024709 0.650869 0.538174
0.024531 0.650690 0.603921
0.024353 0.650512 0.669438
0.024176 0.650335 0.734748
0.023999 0.650158 0.799870
0.023823 0.649982 0.864821
0.023647 0.649806 0.929614
0.023472 0.649631 0.994259
0.024463 0.716166 0.000000
0.024425 0.716129 0.000000
0.024231 0.715935 0.065170
0.024043 0.715747 0.134512
0.023858 0.715562 0.202801
0.023674 0.715378 0.270391
0.023492 0.715196 0.337458
0.023311 0.715015 0.404108
0.023131 0.714835 0.470411
0.022952 0.714656 0.536417
0.022774 0.714478 0.602164
0.022596 0.714300 0.667680
0.022419 0.714123 0.732990
0.022242 0.713946 0.798113
0.022066 0.713770 0.863064
0.021890 0.713594 0.927856
0.021714 0.713418 0.992502
0.022710 0.779766 0.000000
0.022673 0.779729 0.000000
0.022479 0.779535 0.063417
0.022291 0.779346 0.132760
0.022105 0.779161 0.201049
0.021922 0.778978 0.268639
0.021740 0.778796 0.335706
0.021559 0.778615 0.402356
0.021379 0.778435 0.468659
0.021200 0.778256 0.534665
0.021022 0.778077 0.600412
0.020844 0.777899 0.665928
0.020667 0.777722 0.731238
0.020490 0.777545 0.796361
0.020314 0.777369 0.861312
0.020138 0.777193 0.926104
0.019962 0.777018 0.990750
0.020963 0.843194 0.000000
0.020926 0.843157 0.000000
0.020732 0.842962 0.061670
0.020543 0.842774 0.131013
0.020358 0.842589 0.199301
0.020175 0.842405 0.266891
0.019993 0.842223 0.333958
0.019812 0.842042 0.400608
0.019632 0.841863 0.466911
0.019453 0.841683 0.532917
0.019274 0.841505 0.598664
0.019096 0.841327 0.664181
0.018919 0.841150 0.729491
0.018742 0.840973 0.794613
0.018566 0.840797 0.859564
0.018390 0.840621 0.924357
0.018215 0.840446 0.989003
0.019220 0.906464 0.000000
0.019183 0.906427 0.000000
0.018989 0.906232 0.059927
0.018800 0.906044 0.129270
0.018615 0.905859 0.197558
0.018432 0.905675 0.265148
0.018250 0.905493 0.332215
0.018069 0.905312 0.398865
0.017889 0.905132 0.465168
0.017710 0.904953 0.531174
0.017531 0.904775 0.596921
0.017353 0.904597 0.662438
0.017176 0.904420 0.727748
0.016999 0.904243 0.792870
0.016823 0.904067 0.857821
0.016647 0.903891 0.922614
0.016472 0.903715 0.987259
0.017481 0.969587 0.000000
0.017444 0.969550 0.000000
0.017249 0.969356 0.058188
0.017061 0.969168 0.127531
0.016876 0.968982 0.195819
0.016693 0.968799 0.263409
0.016511 0.968617 0.330476
0.016330 0.968436 0.397126
0.016150 0.968256 0.463429
0.015971 0.968077 0.529435
0.015792 0.967898 0.595182
0.015614 0.967721 0.660699
0.015437 0.967543 0.726009
0.015260 0.967367 0.791131
0.015084 0.967190 0.856082
0.014908 0.967015 0.920875
0.014733 0.966839 0.985520
0.016347 1.000000 0.000000
0.016310 1.000000 0.000000
0.016116 1.000000 0.057054
0.015928 1.000000 0.126397
0.015742 1.000000 0.194685
0.015559 1.000000 0.262275
0.015377 1.000000 0.329343
0.015196 1.000000 0.395993
0.015016 1.000000 0.462296
0.014837 1.000000 0.528302
0.014658 1.000000 0.594048
0.014481 1.000000 0.659565
0.014303 1.000000 0.724875
0.014127 1.000000 0.789998
0.013950 1.000000 0.854948
0.013775 1.000000 0.919741
0.013599 1.000000 0.984387
0.114169 0.000000 0.000000
0.114132 0.000000 0.012727
0.113938 0.000000 0.084347
0.113749 0.000000 0.153690
0.113564 0.000000 0.221979
0.113381 0.000000 0.289568
0.113199 0.000000 0.356636
0.113018 0.000000 0.423286
0.112838 0.000000 0.489589
0.112659 0.000000 0.555595
0.112480 0.000000 0.621342
0.112302 0.000000 0.686858
0.112125 0.000000 0.752168
0.111948 0.000000 0.817291
0.111772 0.000000 0.882241
0.111596 0.000000 0.947034
0.111421 0.000000 1.000000
0.112423 0.062472 0.000000
0.112386 0.062435 0.010980
0.112191 0.062240 0.082601
0.112003 0.062052 0.151944
0.111818 0.061867 0.220232
0.111634 0.061683 0.287822
0.111452 0.061501 0.354889
0.111271 0.061321 0.421539
0.111091 0.061141 0.487842
0.110912 0.060961 0.553848
0.110734 0.060783 0.619595
0.110556 0.060605 0.685112
0.110379 0.060428 0.750422
0.110202 0.060251 0.815544
0.110026 0.060075 0.880495
0.109850 0.059899 0.945288
0.109675 0.059724 1.000000
0.110547 0.130566 0.000000
0.110510 0.130529 0.009104
0.110315 0.130335 0.080725
0.110127 0.130147 0.150068
0.109942 0.129961 0.218356
0.109758 0.129778 0.285946
0.109576 0.129596 0.353013
0.109395 0.129415 0.419663
0.109215 0.129235 0.485966
0.109036 0.129056 0.551972
0.108858 0.128877 0.617719
0.108680 0.128700 0.683236
0.108503 0.128522 0.748546
0.108326 0.128346 0.813668
0.108150 0.128169 0.878619
0.107974 0.127994 0.943412
0.107799 0.127818 1.000000
0.108704 0.197452 0.000000
0.108667 0.197415 0.007262
0.108473 0.197220 0.078882
0.108284 0.197032 0.148225
0.108099 0.196847 0.216514
0.107916 0.196663 0.284103
0.107734 0.196481 0.351171
0.107553 0.196301 0.417821
0.107373 0.196121 0.484124
0.107194 0.195941 0.550130
0.107015 0.195763 0.615877
0.106837 0.195585 0.681393
0.106660 0.195408 0.746703
0.106483 0.195231 0.811826
0.106307 0.195055 0.876776
0.106131 0.194879 0.941569
0.105956 0.194704 1.000000
0.106882 0.263582 0.000000
0.106845 0.263545 0.005440
0.106651 0.263351 0.077060
0.106463 0.263163 0.146403
0.106277 0.262977 0.214692
0.106094 0.262794 0.282282
0.105912 0.262612 0.349349
0.105731 0.262431 0.415999
0.105551 0.262251 0.482302
0.105372 0.262072 0.548308
0.105193 0.261894 0.614055
0.105016 0.261716 0.679571
0.104838 0.261539 0.744881
0.104662 0.261362 0.810004
0.104485 0.261186 0.874955
0.104309 0.261010 0.939747
0.104134 0.260834 1.000000
0.105075 0.329163 0.000000
0.105038 0.329126 0.003633
0.104844 0.328932 0.075254
0.104656 0.328744 0.144597
0.104470 0.328558 0.212885
0.104287 0.328375 0.280475
0.104105 0.328193 0.347542
0.103924 0.328012 0.414192
0.103744 0.327832 0.480495
0.103565 0.327653 0.546501
0.103387 0.327474 0.612248
0.103209 0.327297 0.677765
0.103032 0.327119 0.743075
0.102855 0.326943 0.808197
0.102679 0.326766 0.873148
0.102503 0.326590 0.937940
0.102327 0.326415 1.000000
0.103281 0.394311 0.000000
0.103244 0.394274 0.001838
0.103049 0.394080 0.073459
0.102861 0.393892 0.142802
0.102676 0.393707 0.211090
0.102492 0.393523 0.278680
0.102310 0.393341 0.345747
0.102129 0.393160 0.412397
0.101949 0.392980 0.478700
0.101770 0.392801 0.544706
0.101592 0.392623 0.610453
0.101414 0.392445 0.675970
0.101237 0.392268 0.741280
0.101060 0.392091 0.806402
0.100884 0.391915 0.871353
0.100708 0.391739 0.936146
0.100532 0.391563 1.000000
0.101496 0.459104 0.000000
0.101459 0.459067 0.000053
0.101264 0.458873 0.071674
0.101076 0.458684 0.141017
0.100891 0.458499 0.209305
0.100707 0.458316 0.276895
0.100525 0.458134 0.343962
0.100344 0.457953 0.410612
0.100164 0.457773 0.476915
0.099985 0.457594 0.542921
0.099807 0.457415 0.608668
0.099629 0.457237 0.674185
0.099452 0.457060 0.739495
0.099275 0.456883 0.804617
0.099099 0.456707 0.869568
0.098923 0.456531 0.934361
0.098747 0.456356 0.999006
0.099719 0.523594 0.000000
0.099682 0.523557 0.000000
0.099488 0.523363 0.069897
0.099299 0.523174 0.139240
0.099114 0.522989 0.207528
0.098931 0.522806 0.275118
0.098749 0.522624 0.342186
0.098568 0.522443 0.408836
0.098388 0.522263 0.475139
0.098209 0.522084 0.541145
0.098030 0.521905 0.606891
0.097852 0.521727 0.672408
0.097675 0.521550 0.737718
0.097498 0.521373 0.802841
0.097322 0.521197 0.867791
0.097146 0.521021 0.932584
0.096971 0.520846 0.997230
0.097949 0.587821 0.000000
0.097912 0.587784 0.000000
0.097718 0.587590 0.068128
0.097530 0.587402 0.137471
0.097345 0.587216 0.205759
0.097161 0.587033 0.273349
0.096979 0.586851 0.340416
0.096798 0.586670 0.407066
0.096618 0.586490 0.473369
0.096439 0.586311 0.539375
0.096261 0.586133 0.605122
0.096083 0.585955 0.670639
0.095906 0.585778 0.735949
0.095729 0.585601 0.801071
0.095553 0.585425 0.866022
0.095377 0.585249 0.930814
0.095201 0.585073 0.995460
0.096186 0.651817 0.000000
0.096149 0.651780 0.000000
0.095955 0.651585 0.066365
0.095767 0.651397 0.135708
0.095582 0.651212 0.203996
0.095398 0.651028 0.271586
0.095216 0.650846 0.338653
0.095035 0.650666 0.405303
0.094855 0.650486 0.471606
0.094676 0.650306 0.537612
0.094498 0.650128 0.603359
0.094320 0.649950 0.668876
0.094143 0.649773 0.734186
0.093966 0.649596 0.799308
0.093790 0.649420 0.864259
0.093614 0.649244 0.929051
0.093438 0.649069 0.993697
0.094429 0.715604 0.000000
0.094392 0.715567 0.000000
0.094198 0.715373 0.064607
0.094010 0.715185 0.133950
0.093824 0.714999 0.202239
0.093641 0.714816 0.269829
0.093459 0.714634 0.336896
0.093278 0.714453 0.403546
0.093098 0.714273 0.469849
0.092919 0.714094 0.535855
0.092740 0.713916 0.601602
0.092563 0.713738 0.667118
0.092385 0.713561 0.732428
0.092209 0.713384 0.797551
0.092032 0.713208 0.862502
0.091856 0.713032 0.927294
0.091681 0.712856 0.991940
0.092677 0.779204 0.000000
0.092640 0.779167 0.000000
0.092446 0.778972 0.062855
0.092257 0.778784 0.132198
0.092072 0.778599 0.200487
0.091889 0.778416 0.268076
0.091707 0.778233 0.335144
0.091526 0.778053 0.401794
0.091346 0.777873 0.468097
0.091167 0.777694 0.534103
0.090988 0.777515 0.599850
0.090810 0.777337 0.665366
0.090633 0.777160 0.730676
0.090456 0.776983 0.795799
0.090280 0.776807 0.860749
0.090104 0.776631 0.925542
0.089929 0.776456 0.990188
0.090930 0.842632 0.000000
0.090893 0.842595 0.000000
0.090698 0.842400 0.061108
0.090510 0.842212 0.130451
0.090325 0.842027 0.198739
0.090141 0.841843 0.266329
0.089959 0.841661 0.333396
0.089778 0.841480 0.400046
0.089598 0.841300 0.466349
0.089419 0.841121 0.532355
0.089241 0.840943 0.598102
0.089063 0.840765 0.663619
0.088886 0.840588 0.728929
0.088709 0.840411 0.794051
0.088533 0.840235 0.859002
0.088357 0.840059 0.923795
0.088181 0.839884 0.988440
0.089187 0.905901 0.000000
0.089149 0.905864 0.000000
0.088955 0.905670 0.059365
0.088767 0.905482 0.128708
0.088582 0.905297 0.196996
0.088398 0.905113 0.264586
0.088216 0.904931 0.331653
0.088035 0.904750 0.398303
0.087855 0.904570 0.464606
0.087676 0.904391 0.530612
0.087498 0.904213 0.596359
0.087320 0.904035 0.661876
0.087143 0.903858 0.727186
0.086966 0.903681 0.792308
0.086790 0.903505 0.857259
0.086614 0.903329 0.922051
0.086438 0.903153 0.986697
0.087447 0.969025 0.000000
0.087410 0.968988 0.000000
0.087216 0.968794 0.057626
0.087028 0.968606 0.126969
0.086843 0.968420 0.195257
0.086659 0.968237 0.262847
0.086477 0.968055 0.329914
0.086296 0.967874 0.396564
0.086116 0.967694 0.462867
0.085937 0.967515 0.528873
0.085759 0.967336 0.594620
0.085581 0.967159 0.660137
0.085404 0.966981 0.725447
0.085227 0.966805 0.790569
0.085051 0.966628 0.855520
0.084875 0.966452 0.920312
0.084699 0.966277 0.984958
0.086314 1.000000 0.000000
0.086277 1.000000 0.000000
0.086082 1.000000 0.056492
0.085894 1.000000 0.125835
0.085709 1.000000 0.194123
0.085525 1.000000 0.261713
0.085343 1.000000 0.328781
0.085163 1.000000 0.395431
0.084983 1.000000 0.461734
0.084803 1.000000 0.527740
0.084625 1.000000 0.593486
0.084447 1.000000 0.659003
0.084270 1.000000 0.724313
0.084093 1.000000 0.789435
0.083917 1.000000 0.854386
0.083741 1.000000 0.919179
0.083566 1.000000 0.983825
0.182637 0.000000 0.000000
0.182600 0.000000 0.012177
0.182405 0.000000 0.083797
0.182217 0.000000 0.153140
0.182032 0.000000 0.221428
0.181848 0.000000 0.289018
0.181666 0.000000 0.356086
0.181485 0.000000 0.422736
0.181306 0.000000 0.489039
0.181126 0.000000 0.555045
0.180948 0.000000 0.620791
0.180770 0.000000 0.686308
0.180593 0.000000 0.751618
0.180416 0.000000 0.816741
0.180240 0.000000 0.881691
0.180064 0.000000 0.946484
0.179889 0.000000 1.000000
0.180890 0.061922 0.000000
0.180853 0.061885 0.010430
0.180659 0.061690 0.082051
0.180471 0.061502 0.151394
0.180285 0.061317 0.219682
0.180102 0.061133 0.287272
0.179920 0.060951 0.354339
0.179739 0.060770 0.420989
0.179559 0.060591 0.487292
0.179380 0.060411 0.553298
0.179202 0.060233 0.619045
0.179024 0.060055 0.684562
0.178847 0.059878 0.749872
0.178670 0.059701 0.814994
0.178494 0.059525 0.879945
0.178318 0.059349 0.944738
0.178142 0.059174 1.000000
0.179014 0.130016 0.000000
0.178977 0.129979 0.008554
0.178783 0.129785 0.080175
0.178595 0.129597 0.149518
0.178409 0.129411 0.217806
0.178226 0.129228 0.285396
0.178044 0.129046 0.352463
0.177863 0.128865 0.419113
0.177683 0.128685 0.485416
0.177504 0.128506 0.551422
0.177326 0.128327 0.617169
0.177148 0.128150 0.682686
0.176971 0.127972 0.747996
0.176794 0.127796 0.813118
0.176618 0.127619 0.878069
0.176442 0.127443 0.942862
0.176266 0.127268 1.000000
0.177172 0.196902 0.000000
0.177135 0.196865 0.006712
0.176940 0.196670 0.078332
0.176752 0.196482 0.147675
0.176567 0.196297 0.215964
0.176383 0.196113 0.283553
0.176201 0.195931 0.350621
0.176020 0.195750 0.417271
0.175841 0.195571 0.483574
0.175661 0.195391 0.549580
0.175483 0.195213 0.615326
0.175305 0.195035 0.680843
0.175128 0.194858 0.746153
0.174951 0.194681 0.811276
0.174775 0.194505 0.876226
0.174599 0.194329 0.941019
0.174424 0.194154 1.000000
0.175350 0.263032 0.000000
0.175313 0.262995 0.004890
0.175118 0.262801 0.076510
0.174930 0.262613 0.145853
0.174745 0.262427 0.214142
0.174562 0.262244 0.281732
0.174379 0.262062 0.348799
0.174199 0.261881 0.415449
0.174019 0.261701 0.481752
0.173840 0.261522 0.547758
0.173661 0.261344 0.613505
0.173483 0.261166 0.679021
0.173306 0.260989 0.744331
0.173129 0.260812 0.809454
0.172953 0.260636 0.874404
0.172777 0.260460 0.939197
0.172602 0.260284 1.000000
0.173543 0.328613 0.000000
0.173506 0.328576 0.003083
0.173312 0.328382 0.074704
0.173124 0.328193 0.144047
0.172938 0.328008 0.212335
0.172755 0.327825 0.279925
0.172573 0.327643 0.346992
0.172392 0.327462 0.413642
0.172212 0.327282 0.479945
0.172033 0.327103 0.545951
0.171854 0.326924 0.611698
0.171677 0.326746 0.677215
0.171499 0.326569 0.742525
0.171323 0.326393 0.807647
0.171146 0.326216 0.872598
0.170970 0.326040 0.937390
0.170795 0.325865 1.000000
0.171748 0.393761 0.000000
0.171711 0.393724 0.001288
0.171517 0.393530 0.072909
0.171329 0.393342 0.142252
0.171143 0.393157 0.210540
0.170960 0.392973 0.278130
0.170778 0.392791 0.345197
0.170597 0.392610 0.411847
0.170417 0.392430 0.478150
0.170238 0.392251 0.544156
0.170060 0.392073 0.609903
0.169882 0.391895 0.675420
0.169705 0.391718 0.740730
0.169528 0.391541 0.805852
0.169352 0.391365 0.870803
0.169176 0.391189 0.935596
0.169000 0.391013 1.000000
0.169963 0.458554 0.000000
0.169926 0.458517 0.000000
0.169732 0.458322 0.071124
0.169544 0.458134 0.140467
0.169358 0.457949 0.208755
0.169175 0.457765 0.276345
0.168993 0.457583 0.343412
0.168812 0.457403 0.410062
0.168632 0.457223 0.476365
0.168453 0.457044 0.542371
0.168275 0.456865 0.608118
0.168097 0.456687 0.673635
0.167920 0.456510 0.738945
0.167743 0.456333 0.804067
0.167567 0.456157 0.869018
0.167391 0.455981 0.933811
0.167215 0.455806 0.998456
0.168187 0.523044 0.000000
0.168150 0.523007 0.000000
0.167955 0.522813 0.069347
0.167767 0.522624 0.138690
0.167582 0.522439 0.206978
0.167398 0.522256 0.274568
0.167216 0.522074 0.341636
0.167035 0.521893 0.408286
0.166855 0.521713 0.474589
0.166676 0.521534 0.540595
0.166498 0.521355 0.606341
0.166320 0.521177 0.671858
0.166143 0.521000 0.737168
0.165966 0.520823 0.802291
0.165790 0.520647 0.867241
0.165614 0.520471 0.932034
0.165439 0.520296 0.996680
0.166417 0.587271 0.000000
0.166380 0.587234 0.000000
0.166186 0.587040 0.067578
0.165998 0.586852 0.136921
0.165812 0.586666 0.205209
0.165629 0.586483 0.272799
0.165447 0.586301 0.339866
0.165266 0.586120 0.406516
0.165086 0.585940 0.472819
0.164907 0.585761 0.538825
0.164728 0.585583 0.604572
0.164551 0.585405 0.670089
0.164373 0.585228 0.735399
0.164197 0.585051 0.800521
0.164020 0.584875 0.865472
0.163845 0.584699 0.930264
0.163669 0.584523 0.994910
0.164654 0.651267 0.000000
0.164617 0.651230 0.000000
0.164423 0.651035 0.065815
0.164235 0.650847 0.135158
0.164049 0.650662 0.203446
0.163866 0.650478 0.271036
0.163684 0.650296 0.338103
0.163503 0.650115 0.404753
0.163323 0.649936 0.471056
0.163144 0.649756 0.537062
0.162965 0.649578 0.602809
0.162788 0.649400 0.668326
0.162610 0.649223 0.733636
0.162434 0.649046 0.798758
0.162257 0.648870 0.863709
0.162082 0.648694 0.928501
0.161906 0.648519 0.993147
0.162897 0.715054 0.000000
0.162860 0.715017 0.000000
0.162665 0.714823 0.064057
0.162477 0.714635 0.133400
0.162292 0.714449 0.201689
0.162108 0.714266 0.269279
0.161926 0.714084 0.336346
0.161746 0.713903 0.402996
0.161566 0.713723 0.469299
0.161387 0.713544 0.535305
0.161208 0.713366 0.601052
0.161030 0.713188 0.666568
0.160853 0.713010 0.731878
0.160676 0.712834 0.797001
0.160500 0.712657 0.861951
0.160324 0.712482 0.926744
0.160149 0.712306 0.991390
0.161145 0.778654 0.000000
0.161108 0.778617 0.000000
0.160913 0.778422 0.062305
0.160725 0.778234 0.131648
0.160540 0.778049 0.199936
0.160356 0.777865 0.267526
0.160174 0.777683 0.334594
0.159993 0.777503 0.401244
0.159814 0.777323 0.467547
0.159634 0.777143 0.533553
0.159456 0.776965 0.599299
0.159278 0.776787 0.664816
0.159101 0.776610 0.730126
0.158924 0.776433 0.795249
0.158748 0.776257 0.860199
0.158572 0.776081 0.924992
0.158397 0.775906 0.989638
0.159397 0.842082 0.000000
0.159360 0.842045 0.000000
0.159166 0.841850 0.060558
0.158978 0.841662 0.129901
0.158792 0.841477 0.198189
0.158609 0.841293 0.265779
0.158427 0.841111 0.332846
0.158246 0.840930 0.399496
0.158066 0.840750 0.465799
0.157887 0.840571 0.531805
0.157709 0.840393 0.597552
0.157531 0.840215 0.663069
0.157353 0.840038 0.728379
0.157177 0.839861 0.793501
0.157000 0.839685 0.858452
0.156825 0.839509 0.923244
0.156649 0.839333 0.987890
0.157654 0.905351 0.000000
0.157617 0.905314 0.000000
0.157423 0.905120 0.058815
0.157235 0.904932 0.128158
0.157049 0.904747 0.196446
0.156866 0.904563 0.264036
0.156684 0.904381 0.331103
0.156503 0.904200 0.397753
0.156323 0.904020 0.464056
0.156144 0.903841 0.530062
0.155965 0.903663 0.595809
0.155788 0.903485 0.661326
0.155610 0.903308 0.726636
0.155434 0.903131 0.791758
0.155257 0.902955 0.856709
0.155082 0.902779 0.921501
0.154906 0.902603 0.986147
0.155915 0.968475 0.000000
0.155878 0.968438 0.000000
0.155684 0.968244 0.057076
0.155496 0.968055 0.126419
0.155310 0.967870 0.194707
0.155127 0.967687 0.262297
0.154945 0.967505 0.329364
0.154764 0.967324 0.396014
0.154584 0.967144 0.462317
0.154405 0.966965 0.528323
0.154226 0.966786 0.594070
0.154049 0.966608 0.659587
0.153871 0.966431 0.724897
0.153695 0.966254 0.790019
0.153518 0.966078 0.854970
0.153343 0.965902 0.919762
0.153167 0.965727 0.984408
0.154782 1.000000 0.000000
0.154745 1.000000 0.000000
0.154550 1.000000 0.055942
0.154362 1.000000 0.125285
0.154177 1.000000 0.193573
0.153993 1.000000 0.261163
0.153811 1.000000 0.328230
0.153630 1.000000 0.394880
0.153450 1.000000 0.461183
0.153271 1.000000 0.527190
0.153093 1.000000 0.592936
0.152915 1.000000 0.658453
0.152738 1.000000 0.723763
0.152561 1.000000 0.788885
0.152385 1.000000 0.853836
0.152209 1.000000 0.918629
0.152033 1.000000 0.983275
0.250242 0.000000 0.000000
0.250205 0.000000 0.011634
0.250011 0.000000 0.083254
0.249822 0.000000 0.152597
0.249637 0.000000 0.220885
0.249454 0.000000 0.288475
0.249272 0.000000 0.355543
0.249091 0.000000 0.422193
0.248911 0.000000 0.488495
0.248732 0.000000 0.554502
0.248553 0.000000 0.620248
0.248375 0.000000 0.685765
0.248198 0.000000 0.751075
0.248022 0.000000 0.816197
0.247845 0.000000 0.881148
0.247669 0.000000 0.945941
0.247494 0.000000 1.000000
0.248496 0.061379 0.000000
