skills/clipper-orchestrator/assets/grade/luts/warm_skin_v15.cube
TITLE "warm_skin_v15"
LUT_3D_SIZE 9
DOMAIN_MIN 0.0 0.0 0.0
DOMAIN_MAX 1.0 1.0 1.0
0.044202 0.000000 0.000000
0.043971 0.000000 0.084909
0.043597 0.000000 0.222541
0.043232 0.000000 0.357198
0.042871 0.000000 0.490151
0.042514 0.000000 0.621904
0.042159 0.000000 0.752730
0.041806 0.000000 0.882804
0.041454 0.000000 1.000000
0.040580 0.131128 0.000000
0.040349 0.130897 0.081287
0.039975 0.130523 0.218918
0.039610 0.130158 0.353575
0.039249 0.129797 0.486528
0.038891 0.129440 0.618281
0.038536 0.129084 0.749108
0.038183 0.128731 0.879181
0.037832 0.128380 1.000000
0.036916 0.264145 0.000000
0.036684 0.263913 0.077623
0.036311 0.263540 0.215254
0.035945 0.263174 0.349911
0.035584 0.262813 0.482864
0.035227 0.262456 0.614617
0.034872 0.262101 0.745443
0.034519 0.261748 0.875517
0.034167 0.261396 1.000000
0.033314 0.394874 0.000000
0.033083 0.394642 0.074021
0.032709 0.394269 0.211652
0.032344 0.393903 0.346309
0.031983 0.393542 0.479262
0.031625 0.393185 0.611015
0.031270 0.392830 0.741842
0.030917 0.392477 0.871915
0.030566 0.392125 1.000000
0.029752 0.524156 0.000000
0.029521 0.523925 0.070459
0.029147 0.523551 0.208091
0.028782 0.523186 0.342748
0.028421 0.522825 0.475701
0.028064 0.522467 0.607454
0.027708 0.522112 0.738280
0.027355 0.521759 0.868353
0.027004 0.521408 0.997792
0.026220 0.652379 0.000000
0.025988 0.652147 0.066927
0.025615 0.651774 0.204558
0.025249 0.651408 0.339215
0.024889 0.651048 0.472168
0.024531 0.650690 0.603921
0.024176 0.650335 0.734748
0.023823 0.649982 0.864821
0.023472 0.649631 0.994259
0.022710 0.779766 0.000000
0.022479 0.779535 0.063417
0.022105 0.779161 0.201049
0.021740 0.778796 0.335706
0.021379 0.778435 0.468659
0.021022 0.778077 0.600412
0.020667 0.777722 0.731238
0.020314 0.777369 0.861312
0.019962 0.777018 0.990750
0.019220 0.906464 0.000000
0.018989 0.906232 0.059927
0.018615 0.905859 0.197558
0.018250 0.905493 0.332215
0.017889 0.905132 0.465168
0.017531 0.904775 0.596921
0.017176 0.904420 0.727748
0.016823 0.904067 0.857821
0.016472 0.903715 0.987259
0.016347 1.000000 0.000000
0.016116 1.000000 0.057054
0.015742 1.000000 0.194685
0.015377 1.000000 0.329343
0.015016 1.000000 0.462296
0.014658 1.000000 0.594048
0.014303 1.000000 0.724875
0.013950 1.000000 0.854948
0.013599 1.000000 0.984387
0.182637 0.000000 0.000000
0.182405 0.000000 0.083797
0.182032 0.000000 0.221428
0.181666 0.000000 0.356086
0.181306 0.000000 0.489039
0.180948 0.000000 0.620791
0.180593 0.000000 0.751618
0.180240 0.000000 0.881691
0.179889 0.000000 1.000000
0.179014 0.130016 0.000000
0.178783 0.129785 0.080175
0.178409 0.129411 0.217806
0.178044 0.129046 0.352463
0.177683 0.128685 0.485416
0.177326 0.128327 0.617169
0.176971 0.127972 0.747996
0.176618 0.127619 0.878069
0.176266 0.127268 1.000000
0.175350 0.263032 0.000000
0.175118 0.262801 0.076510
0.174745 0.262427 0.214142
0.174379 0.262062 0.348799
0.174019 0.261701 0.481752
0.173661 0.261344 0.613505
0.173306 0.260989 0.744331
0.172953 0.260636 0.874404
0.172602 0.260284 1.000000
0.171748 0.393761 0.000000
0.171517 0.393530 0.072909
0.171143 0.393157 0.210540
0.170778 0.392791 0.345197
0.170417 0.392430 0.478150
0.170060 0.392073 0.609903
0.169705 0.391718 0.740730
0.169352 0.391365 0.870803
0.169000 0.391013 1.000000
0.168187 0.523044 0.000000
0.167955 0.522813 0.069347
0.167582 0.522439 0.206978
0.167216 0.522074 0.341636
0.166855 0.521713 0.474589
0.166498 0.521355 0.606341
0.166143 0.521000 0.737168
0.165790 0.520647 0.867241
0.165439 0.520296 0.996680
0.164654 0.651267 0.000000
0.164423 0.651035 0.065815
0.164049 0.650662 0.203446
0.163684 0.650296 0.338103
0.163323 0.649936 0.471056
0.162965 0.649578 0.602809
0.162610 0.649223 0.733636
0.162257 0.648870 0.863709
0.161906 0.648519 0.993147
0.161145 0.778654 0.000000
0.160913 0.778422 0.062305
0.160540 0.778049 0.199936
0.160174 0.777683 0.334594
0.159814 0.777323 0.467547
0.159456 0.776965 0.599299
0.159101 0.776610 0.730126
0.158748 0.776257 0.860199
0.158397 0.775906 0.989638
0.157654 0.905351 0.000000
0.157423 0.905120 0.058815
0.157049 0.904747 0.196446
0.156684 0.904381 0.331103
0.156323 0.904020 0.464056
0.155965 0.903663 0.595809
0.155610 0.903308 0.726636
0.155257 0.902955 0.856709
0.154906 0.902603 0.986147
0.154782 1.000000 0.000000
0.154550 1.000000 0.055942
0.154177 1.000000 0.193573
0.153811 1.000000 0.328230
0.153450 1.000000 0.461183
0.153093 1.000000 0.592936
0.152738 1.000000 0.723763
0.152385 1.000000 0.853836
0.152033 1.000000 0.983275
0.317239 0.000000 0.000000
0.317008 0.000000 0.082716
0.316634 0.000000 0.220347
0.316269 0.000000 0.355004
0.315908 0.000000 0.487957
0.315550 0.000000 0.619710
0.315195 0.000000 0.750537
0.314842 0.000000 0.880610
0.314491 0.000000 1.000000
0.313617 0.128935 0.000000
0.313385 0.128703 0.079094
0.313012 0.128330 0.216725
0.312647 0.127964 0.351382
0.312286 0.127604 0.484335
0.311928 0.127246 0.616088
0.311573 0.126891 0.746914
0.311220 0.126538 0.876988
0.310869 0.126187 1.000000
0.309952 0.261951 0.000000
0.309721 0.261720 0.075429
0.309347 0.261346 0.213060
0.308982 0.260981 0.347717
0.308621 0.260620 0.480670
0.308264 0.260262 0.612423
0.307909 0.259907 0.743250
0.307556 0.259554 0.873323
0.307204 0.259203 1.000000
0.306351 0.392680 0.000000
0.306119 0.392449 0.071827
0.305746 0.392075 0.209459
0.305380 0.391710 0.344116
0.305020 0.391349 0.477069
0.304662 0.390991 0.608822
0.304307 0.390636 0.739648
0.303954 0.390283 0.869722
0.303603 0.389932 0.999160
0.302789 0.521963 0.000000
0.302558 0.521731 0.068266
0.302184 0.521358 0.205897
0.301819 0.520992 0.340554
0.301458 0.520631 0.473507
0.301100 0.520274 0.605260
0.300745 0.519919 0.736087
0.300392 0.519566 0.866160
0.300041 0.519214 0.995598
0.299257 0.650185 0.000000
0.299025 0.649954 0.064733
0.298652 0.649580 0.202365
0.298286 0.649215 0.337022
0.297925 0.648854 0.469975
0.297568 0.648497 0.601728
0.297213 0.648142 0.732554
0.296860 0.647789 0.862627
0.296509 0.647437 0.992066
0.295747 0.777572 0.000000
0.295516 0.777341 0.061224
0.295142 0.776968 0.198855
0.294777 0.776602 0.333512
0.294416 0.776241 0.466465
0.294058 0.775884 0.598218
0.293703 0.775529 0.729045
0.293350 0.775176 0.859118
0.292999 0.774824 0.988556
0.292257 0.904270 0.000000
0.292025 0.904039 0.057733
0.291652 0.903665 0.195365
0.291286 0.903300 0.330022
0.290926 0.902939 0.462975
0.290568 0.902581 0.594728
0.290213 0.902226 0.725554
0.289860 0.901873 0.855628
0.289509 0.901522 0.985066
0.289384 1.000000 0.000000
0.289153 1.000000 0.054861
0.288779 1.000000 0.192492
0.288414 1.000000 0.327149
0.288053 1.000000 0.460102
0.287695 1.000000 0.591855
0.287340 1.000000 0.722682
0.286987 1.000000 0.852755
0.286636 1.000000 0.982193
0.449912 0.000000 0.000000
0.449680 0.000000 0.081650
0.449307 0.000000 0.219281
0.448941 0.000000 0.353938
0.448580 0.000000 0.486891
0.448223 0.000000 0.618644
0.447868 0.000000 0.749471
0.447515 0.000000 0.879544
0.447164 0.000000 1.000000
0.446289 0.127869 0.000000
0.446058 0.127638 0.078028
0.445684 0.127264 0.215659
0.445319 0.126899 0.350316
0.444958 0.126538 0.483269
0.444601 0.126180 0.615022
0.444246 0.125825 0.745849
0.443892 0.125472 0.875922
0.443541 0.125121 1.000000
0.442625 0.260885 0.000000
0.442393 0.260654 0.074363
0.442020 0.260280 0.211994
0.441654 0.259915 0.346652
0.441294 0.259554 0.479605
0.440936 0.259196 0.611357
0.440581 0.258841 0.742184
0.440228 0.258488 0.872257
0.439877 0.258137 1.000000
0.439023 0.391614 0.000000
0.438792 0.391383 0.070762
0.438418 0.391009 0.208393
0.438053 0.390644 0.343050
0.437692 0.390283 0.476003
0.437334 0.389925 0.607756
0.436979 0.389570 0.738583
0.436626 0.389217 0.868656
0.436275 0.388866 0.998094
0.435462 0.520897 0.000000
0.435230 0.520665 0.067200
0.434857 0.520292 0.204831
0.434491 0.519926 0.339488
0.434130 0.519565 0.472441
0.433773 0.519208 0.604194
0.433418 0.518853 0.735021
0.433065 0.518500 0.865094
0.432713 0.518149 0.994532
0.431929 0.649119 0.000000
0.431698 0.648888 0.063667
0.431324 0.648515 0.201299
0.430959 0.648149 0.335956
0.430598 0.647788 0.468909
0.430240 0.647431 0.600662
0.429885 0.647076 0.731488
0.429532 0.646723 0.861562
0.429181 0.646371 0.991000
0.428420 0.776507 0.000000
0.428188 0.776275 0.060158
0.427815 0.775902 0.197789
0.427449 0.775536 0.332446
0.427088 0.775175 0.465399
0.426731 0.774818 0.597152
0.426376 0.774463 0.727979
0.426023 0.774110 0.858052
0.425672 0.773758 0.987491
0.424929 0.903204 0.000000
0.424698 0.902973 0.056668
0.424324 0.902599 0.194299
0.423959 0.902234 0.328956
0.423598 0.901873 0.461909
0.423240 0.901515 0.593662
0.422885 0.901160 0.724488
0.422532 0.900807 0.854562
0.422181 0.900456 0.984000
0.422056 1.000000 0.000000
0.421825 1.000000 0.053795
0.421452 1.000000 0.191426
0.421086 1.000000 0.326083
0.420725 1.000000 0.459036
0.420368 1.000000 0.590789
0.420013 1.000000 0.721616
0.419660 1.000000 0.851689
0.419308 1.000000 0.981127
0.581279 0.000000 0.000000
0.581048 0.000000 0.080595
0.580674 0.000000 0.218226
0.580309 0.000000 0.352883
0.579948 0.000000 0.485836
0.579590 0.000000 0.617589
0.579235 0.000000 0.748416
0.578882 0.000000 0.878489
0.578531 0.000000 1.000000
0.577657 0.126814 0.000000
0.577425 0.126582 0.076972
0.577052 0.126209 0.214604
0.576686 0.125843 0.349261
0.576326 0.125482 0.482214
0.575968 0.125125 0.613967
0.575613 0.124770 0.744793
0.575260 0.124417 0.874866
0.574909 0.124065 1.000000
0.573992 0.259830 0.000000
0.573761 0.259598 0.073308
0.573387 0.259225 0.210939
0.573022 0.258859 0.345596
0.572661 0.258499 0.478549
0.572303 0.258141 0.610302
0.571948 0.257786 0.741129
0.571595 0.257433 0.871202
0.571244 0.257082 1.000000
0.570391 0.390559 0.000000
0.570159 0.390327 0.069706
0.569786 0.389954 0.207337
0.569420 0.389588 0.341995
0.569059 0.389228 0.474948
0.568702 0.388870 0.606700
0.568347 0.388515 0.737527
0.567994 0.388162 0.867600
0.567643 0.387811 0.997039
0.566829 0.519841 0.000000
0.566598 0.519610 0.066145
0.566224 0.519236 0.203776
0.565859 0.518871 0.338433
0.565498 0.518510 0.471386
0.565140 0.518153 0.603139
0.564785 0.517797 0.733965
0.564432 0.517444 0.864039
0.564081 0.517093 0.993477
0.563296 0.648064 0.000000
0.563065 0.647833 0.062612
0.562692 0.647459 0.200243
0.562326 0.647094 0.334900
0.561965 0.646733 0.467853
0.561608 0.646375 0.599606
0.561253 0.646020 0.730433
0.560900 0.645667 0.860506
0.560548 0.645316 0.989945
0.559787 0.775451 0.000000
0.559556 0.775220 0.059103
0.559182 0.774846 0.196734
0.558817 0.774481 0.331391
0.558456 0.774120 0.464344
0.558098 0.773762 0.596097
0.557743 0.773407 0.726924
0.557390 0.773054 0.856997
0.557039 0.772703 0.986435
0.556297 0.902149 0.000000
0.556065 0.901917 0.055612
0.555692 0.901544 0.193243
0.555326 0.901178 0.327901
0.554965 0.900818 0.460854
0.554608 0.900460 0.592606
0.554253 0.900105 0.723433
0.553900 0.899752 0.853506
0.553548 0.899401 0.982945
0.553424 1.000000 0.000000
0.553192 1.000000 0.052739
0.552819 1.000000 0.190371
0.552454 1.000000 0.325028
0.552093 1.000000 0.457981
0.551735 1.000000 0.589734
0.551380 1.000000 0.720560
0.551027 1.000000 0.850634
0.550676 1.000000 0.980072
0.711660 0.000000 0.000000
0.711429 0.000000 0.079547
0.711055 0.000000 0.217178
0.710690 0.000000 0.351836
0.710329 0.000000 0.484789
0.709971 0.000000 0.616541
0.709616 0.000000 0.747368
0.709263 0.000000 0.877441
0.708912 0.000000 1.000000
0.708038 0.125766 0.000000
0.707806 0.125535 0.075925
0.707433 0.125161 0.213556
0.707068 0.124796 0.348213
0.706707 0.124435 0.481166
0.706349 0.124077 0.612919
0.705994 0.123722 0.743746
0.705641 0.123369 0.873819
0.705290 0.123018 1.000000
0.704373 0.258782 0.000000
0.704142 0.258551 0.072260
0.703768 0.258177 0.209892
0.703403 0.257812 0.344549
0.703042 0.257451 0.477502
0.702685 0.257094 0.609255
0.702330 0.256738 0.740081
0.701977 0.256385 0.870154
0.701625 0.256034 0.999593
0.700772 0.389511 0.000000
0.700540 0.389280 0.068659
0.700167 0.388906 0.206290
0.699801 0.388541 0.340947
0.699441 0.388180 0.473900
0.699083 0.387823 0.605653
0.698728 0.387468 0.736480
0.698375 0.387115 0.866553
0.698024 0.386763 0.995991
0.697210 0.518794 0.000000
0.696979 0.518562 0.065097
0.696605 0.518189 0.202728
0.696240 0.517823 0.337385
0.695879 0.517463 0.470338
0.695521 0.517105 0.602091
0.695166 0.516750 0.732918
0.694813 0.516397 0.862991
0.694462 0.516046 0.992430
0.693678 0.647017 0.000000
0.693446 0.646785 0.061565
0.693073 0.646412 0.199196
0.692707 0.646046 0.333853
0.692346 0.645685 0.466806
0.691989 0.645328 0.598559
0.691634 0.644973 0.729386
0.691281 0.644620 0.859459
0.690930 0.644269 0.988897
0.690168 0.774404 0.000000
0.689937 0.774172 0.058055
0.689563 0.773799 0.195686
0.689198 0.773433 0.330344
0.688837 0.773073 0.463297
0.688479 0.772715 0.595049
0.688124 0.772360 0.725876
0.687771 0.772007 0.855949
0.687420 0.771656 0.985388
0.686678 0.901101 0.000000
0.686446 0.900870 0.054565
0.686073 0.900496 0.192196
0.685707 0.900131 0.326853
0.685347 0.899770 0.459806
0.684989 0.899413 0.591559
0.684634 0.899058 0.722386
0.684281 0.898705 0.852459
0.683930 0.898353 0.981897
0.683805 1.000000 0.000000
0.683574 1.000000 0.051692
0.683200 1.000000 0.189323
0.682835 1.000000 0.323980
0.682474 1.000000 0.456933
0.682116 1.000000 0.588686
0.681761 1.000000 0.719513
0.681408 1.000000 0.849586
0.681057 1.000000 0.979025
0.841249 0.000000 0.000000
0.841018 0.000000 0.078506
0.840644 0.000000 0.216137
0.840279 0.000000 0.350794
0.839918 0.000000 0.483747
0.839560 0.000000 0.615500
0.839205 0.000000 0.746327
0.838852 0.000000 0.876400
0.838501 0.000000 1.000000
0.837627 0.124725 0.000000
0.837395 0.124494 0.074884
0.837022 0.124120 0.212515
0.836656 0.123755 0.347172
0.836296 0.123394 0.480125
0.835938 0.123036 0.611878
0.835583 0.122681 0.742705
0.835230 0.122328 0.872778
0.834879 0.121977 1.000000
0.833962 0.257741 0.000000
0.833731 0.257510 0.071219
0.833357 0.257136 0.208850
0.832992 0.256771 0.343508
0.832631 0.256410 0.476461
0.832274 0.256052 0.608213
0.831918 0.255697 0.739040
0.831565 0.255344 0.869113
0.831214 0.254993 0.998552
0.830361 0.388470 0.000000
0.830129 0.388239 0.067618
0.829756 0.387865 0.205249
0.829390 0.387500 0.339906
0.829030 0.387139 0.472859
0.828672 0.386781 0.604612
0.828317 0.386426 0.735439
0.827964 0.386073 0.865512
0.827613 0.385722 0.994950
0.826799 0.517753 0.000000
0.826568 0.517521 0.064056
0.826194 0.517148 0.201687
0.825829 0.516782 0.336344
0.825468 0.516422 0.469297
0.825110 0.516064 0.601050
0.824755 0.515709 0.731877
0.824402 0.515356 0.861950
0.824051 0.515005 0.991389
0.823267 0.645976 0.000000
0.823035 0.645744 0.060524
0.822662 0.645371 0.198155
0.822296 0.645005 0.332812
0.821935 0.644644 0.465765
0.821578 0.644287 0.597518
0.821223 0.643932 0.728344
0.820870 0.643579 0.858418
0.820518 0.643227 0.987856
0.819757 0.773363 0.000000
0.819526 0.773131 0.057014
0.819152 0.772758 0.194645
0.818787 0.772392 0.329302
0.818426 0.772031 0.462255
0.818068 0.771674 0.594008
0.817713 0.771319 0.724835
0.817360 0.770966 0.854908
0.817009 0.770615 0.984347
0.816267 0.900060 0.000000
0.816035 0.899829 0.053524
0.815662 0.899455 0.191155
0.815296 0.899090 0.325812
0.814935 0.898729 0.458765
0.814578 0.898371 0.590518
0.814223 0.898016 0.721345
0.813870 0.897663 0.851418
0.813519 0.897312 0.980856
0.813394 1.000000 0.000000
0.813163 1.000000 0.050651
0.812789 1.000000 0.188282
0.812424 1.000000 0.322939
0.812063 1.000000 0.455892
0.811705 1.000000 0.587645
0.811350 1.000000 0.718472
0.810997 1.000000 0.848545
0.810646 1.000000 0.977983
0.970177 0.000000 0.000000
0.969945 0.000000 0.077470
0.969572 0.000000 0.215102
0.969206 0.000000 0.349759
0.968845 0.000000 0.482712
0.968488 0.000000 0.614464
0.968133 0.000000 0.745291
0.967780 0.000000 0.875364
0.967428 0.000000 1.000000
0.966554 0.123689 0.000000
0.966323 0.123458 0.073848
0.965949 0.123084 0.211479
0.965584 0.122719 0.346136
0.965223 0.122358 0.479089
0.964866 0.122000 0.610842
0.964510 0.121645 0.741669
0.964157 0.121292 0.871742
0.963806 0.120941 1.000000
0.962890 0.256705 0.000000
0.962658 0.256474 0.070183
0.962285 0.256100 0.207815
0.961919 0.255735 0.342472
0.961559 0.255374 0.475425
0.961201 0.255017 0.607178
0.960846 0.254662 0.738004
0.960493 0.254309 0.868078
0.960142 0.253957 0.997516
0.959288 0.387434 0.000000
0.959057 0.387203 0.066582
0.958683 0.386830 0.204213
0.958318 0.386464 0.338870
0.957957 0.386103 0.471823
0.957599 0.385746 0.603576
0.957244 0.385391 0.734403
0.956891 0.385038 0.864476
0.956540 0.384686 0.993914
0.955727 0.516717 0.000000
0.955495 0.516486 0.063020
0.955122 0.516112 0.200651
0.954756 0.515747 0.335309
0.954395 0.515386 0.468262
0.954038 0.515028 0.600014
0.953683 0.514673 0.730841
0.953330 0.514320 0.860914
0.952978 0.513969 0.990353
0.952194 0.644940 0.000000
0.951963 0.644708 0.059488
0.951589 0.644335 0.197119
0.951224 0.643969 0.331776
0.950863 0.643609 0.464729
0.950505 0.643251 0.596482
0.950150 0.642896 0.727309
0.949797 0.642543 0.857382
0.949446 0.642192 0.986820
0.948685 0.772327 0.000000
0.948453 0.772095 0.055978
0.948080 0.771722 0.193610
0.947714 0.771356 0.328267
0.947353 0.770996 0.461220
0.946996 0.770638 0.592972
0.946641 0.770283 0.723799
0.946288 0.769930 0.853872
0.945936 0.769579 0.983311
0.945194 0.899024 0.000000
0.944963 0.898793 0.052488
0.944589 0.898420 0.190119
0.944224 0.898054 0.324776
0.943863 0.897693 0.457729
0.943505 0.897336 0.589482
0.943150 0.896981 0.720309
0.942797 0.896628 0.850382
0.942446 0.896276 0.979820
0.942321 1.000000 0.000000
0.942090 1.000000 0.049615
0.941717 1.000000 0.187246
0.941351 1.000000 0.321904
0.940990 1.000000 0.454856
0.940633 1.000000 0.586609
0.940278 1.000000 0.717436
0.939925 1.000000 0.847509
0.939573 1.000000 0.976948
1.000000 0.000000 0.000000
1.000000 0.000000 0.076984
1.000000 0.000000 0.214616
1.000000 0.000000 0.349273
1.000000 0.000000 0.482226
1.000000 0.000000 0.613979
1.000000 0.000000 0.744805
1.000000 0.000000 0.874878
1.000000 0.000000 1.000000
1.000000 0.123203 0.000000
1.000000 0.122972 0.073362
1.000000 0.122598 0.210993
1.000000 0.122233 0.345650
1.000000 0.121872 0.478603
1.000000 0.121514 0.610356
1.000000 0.121159 0.741183
1.000000 0.120806 0.871256
1.000000 0.120455 1.000000
1.000000 0.256219 0.000000
1.000000 0.255988 0.069697
1.000000 0.255614 0.207329
1.000000 0.255249 0.341986
1.000000 0.254888 0.474939
1.000000 0.254531 0.606692
1.000000 0.254176 0.737518
1.000000 0.253823 0.867592
1.000000 0.253471 0.997030
1.000000 0.386948 0.000000
1.000000 0.386717 0.066096
1.000000 0.386344 0.203727
1.000000 0.385978 0.338384
1.000000 0.385617 0.471337
1.000000 0.385260 0.603090
1.000000 0.384905 0.733917
1.000000 0.384552 0.863990
1.000000 0.384200 0.993428
1.000000 0.516231 0.000000
1.000000 0.516000 0.062534
1.000000 0.515626 0.200165
1.000000 0.515261 0.334823
1.000000 0.514900 0.467776
1.000000 0.514542 0.599528
1.000000 0.514187 0.730355
1.000000 0.513834 0.860428
1.000000 0.513483 0.989867
1.000000 0.644454 0.000000
1.000000 0.644222 0.059002
1.000000 0.643849 0.196633
1.000000 0.643483 0.331290
1.000000 0.643123 0.464243
1.000000 0.642765 0.595996
1.000000 0.642410 0.726823
1.000000 0.642057 0.856896
1.000000 0.641706 0.986334
1.000000 0.771841 0.000000
1.000000 0.771609 0.055492
1.000000 0.771236 0.193124
1.000000 0.770870 0.327781
1.000000 0.770510 0.460734
1.000000 0.770152 0.592487
1.000000 0.769797 0.723313
1.000000 0.769444 0.853386
1.000000 0.769093 0.982825
1.000000 0.898538 0.000000
1.000000 0.898307 0.052002
1.000000 0.897934 0.189633
1.000000 0.897568 0.324290
1.000000 0.897207 0.457243
1.000000 0.896850 0.588996
1.000000 0.896495 0.719823
1.000000 0.896142 0.849896
1.000000 0.895790 0.979334
1.000000 1.000000 0.000000
1.000000 1.000000 0.049129
1.000000 1.000000 0.186760
1.000000 1.000000 0.321418
1.000000 1.000000 0.454371
1.000000 1.000000 0.586123
1.000000 1.000000 0.716950
1.000000 1.000000 0.847023
1.000000 1.000000 0.976462
