skills/creativeops-grade/assets/grade/luts/clean_bright_v02.cube
TITLE "clean_bright_v02"
LUT_3D_SIZE 5
DOMAIN_MIN 0.0 0.0 0.0
DOMAIN_MAX 1.0 1.0 1.0
0.012560 0.012560 0.012560
0.012511 0.012511 0.270699
0.012463 0.012463 0.521716
0.012416 0.012416 0.769847
0.012372 0.012372 1.000000
0.012075 0.270264 0.012075
0.012026 0.270215 0.270215
0.011979 0.270167 0.521231
0.011931 0.270120 0.769362
0.011887 0.270076 1.000000
0.011604 0.520856 0.011604
0.011555 0.520807 0.269743
0.011507 0.520760 0.520760
0.011460 0.520713 0.768891
0.011416 0.520669 1.000000
0.011138 0.768569 0.011138
0.011089 0.768520 0.269277
0.011041 0.768472 0.520294
0.010994 0.768425 0.768425
0.010950 0.768381 1.000000
0.010701 1.000000 0.010701
0.010652 1.000000 0.268841
0.010605 1.000000 0.519857
0.010558 1.000000 0.767989
0.010514 1.000000 1.000000
0.270604 0.012416 0.012416
0.270555 0.012367 0.270555
0.270508 0.012319 0.521572
0.270461 0.012272 0.769703
0.270417 0.012228 1.000000
0.270120 0.270120 0.011931
0.270071 0.270071 0.270071
0.270023 0.270023 0.521087
0.269976 0.269976 0.769218
0.269932 0.269932 1.000000
0.269648 0.520712 0.011460
0.269599 0.520663 0.269599
0.269552 0.520616 0.520616
0.269505 0.520569 0.768747
0.269461 0.520525 1.000000
0.269182 0.768425 0.010994
0.269133 0.768376 0.269133
0.269086 0.768328 0.520150
0.269039 0.768281 0.768281
0.268995 0.768237 1.000000
0.268746 1.000000 0.010557
0.268697 1.000000 0.268697
0.268649 1.000000 0.519713
0.268602 1.000000 0.767845
0.268558 1.000000 1.000000
0.521528 0.012276 0.012276
0.521479 0.012227 0.270415
0.521432 0.012179 0.521432
0.521385 0.012132 0.769563
0.521341 0.012088 1.000000
0.521043 0.269979 0.011791
0.520995 0.269930 0.269930
0.520947 0.269883 0.520947
0.520900 0.269836 0.769078
0.520856 0.269792 1.000000
0.520572 0.520572 0.011320
0.520523 0.520523 0.269459
0.520476 0.520476 0.520476
0.520429 0.520429 0.768607
0.520385 0.520385 1.000000
0.520106 0.768285 0.010854
0.520057 0.768236 0.268993
0.520010 0.768188 0.520010
0.519963 0.768141 0.768141
0.519919 0.768097 1.000000
0.519670 1.000000 0.010417
0.519621 1.000000 0.268557
0.519573 1.000000 0.519573
0.519526 1.000000 0.767704
0.519482 1.000000 1.000000
0.769568 0.012137 0.012137
0.769519 0.012088 0.270277
0.769471 0.012041 0.521293
0.769424 0.011993 0.769424
0.769380 0.011949 1.000000
0.769083 0.269841 0.011652
0.769034 0.269792 0.269792
0.768987 0.269744 0.520808
0.768940 0.269697 0.768940
0.768896 0.269653 1.000000
0.768612 0.520434 0.011181
0.768563 0.520385 0.269321
0.768515 0.520337 0.520337
0.768468 0.520290 0.768468
0.768424 0.520246 1.000000
0.768146 0.768146 0.010715
0.768097 0.768097 0.268855
0.768050 0.768050 0.519871
0.768003 0.768003 0.768003
0.767959 0.767959 1.000000
0.767709 1.000000 0.010279
0.767661 1.000000 0.268418
0.767613 1.000000 0.519435
0.767566 1.000000 0.767566
0.767522 1.000000 1.000000
1.000000 0.012007 0.012007
1.000000 0.011958 0.270147
1.000000 0.011911 0.521163
1.000000 0.011864 0.769295
1.000000 0.011820 1.000000
1.000000 0.269711 0.011523
1.000000 0.269662 0.269662
1.000000 0.269615 0.520679
1.000000 0.269568 0.768810
1.000000 0.269524 1.000000
1.000000 0.520304 0.011051
1.000000 0.520255 0.269191
1.000000 0.520207 0.520207
1.000000 0.520160 0.768339
1.000000 0.520116 1.000000
1.000000 0.768016 0.010585
1.000000 0.767967 0.268725
1.000000 0.767920 0.519742
1.000000 0.767873 0.767873
1.000000 0.767829 1.000000
1.000000 1.000000 0.010149
1.000000 1.000000 0.268288
1.000000 1.000000 0.519305
1.000000 1.000000 0.767436
1.000000 1.000000 1.000000
