skills/creativeops-grade/assets/grade/luts/clean_bright_v02.cube
TITLE "clean_bright_v02"
LUT_3D_SIZE 17
DOMAIN_MIN 0.0 0.0 0.0
DOMAIN_MAX 1.0 1.0 1.0
0.012560 0.012560 0.012560
0.012547 0.012547 0.078667
0.012535 0.012535 0.143293
0.012523 0.012523 0.207227
0.012511 0.012511 0.270699
0.012499 0.012499 0.333826
0.012487 0.012487 0.396676
0.012475 0.012475 0.459295
0.012463 0.012463 0.521716
0.012451 0.012451 0.583964
0.012440 0.012440 0.646059
0.012428 0.012428 0.708016
0.012416 0.012416 0.769847
0.012404 0.012404 0.831563
0.012393 0.012393 0.893174
0.012381 0.012381 0.954686
0.012372 0.012372 1.000000
0.012436 0.078555 0.012436
0.012423 0.078542 0.078542
0.012411 0.078530 0.143169
0.012399 0.078518 0.207103
0.012387 0.078506 0.270575
0.012375 0.078494 0.333702
0.012363 0.078482 0.396551
0.012351 0.078470 0.459170
0.012339 0.078458 0.521592
0.012327 0.078447 0.583840
0.012315 0.078435 0.645935
0.012304 0.078423 0.707892
0.012292 0.078411 0.769723
0.012280 0.078400 0.831439
0.012269 0.078388 0.893050
0.012257 0.078376 0.954562
0.012248 0.078367 1.000000
0.012314 0.143072 0.012314
0.012302 0.143060 0.078421
0.012289 0.143048 0.143048
0.012277 0.143035 0.206981
0.012265 0.143023 0.270454
0.012253 0.143012 0.333580
0.012241 0.143000 0.396430
0.012230 0.142988 0.459049
0.012218 0.142976 0.521470
0.012206 0.142964 0.583719
0.012194 0.142952 0.645814
0.012182 0.142941 0.707770
0.012171 0.142929 0.769602
0.012159 0.142917 0.831318
0.012147 0.142905 0.892928
0.012136 0.142894 0.954440
0.012127 0.142885 1.000000
0.012194 0.206898 0.012194
0.012182 0.206886 0.078301
0.012169 0.206873 0.142928
0.012157 0.206861 0.206861
0.012145 0.206849 0.270334
0.012133 0.206837 0.333460
0.012121 0.206825 0.396310
0.012110 0.206813 0.458929
0.012098 0.206802 0.521350
0.012086 0.206790 0.583599
0.012074 0.206778 0.645694
0.012062 0.206766 0.707650
0.012051 0.206755 0.769482
0.012039 0.206743 0.831198
0.012027 0.206731 0.892808
0.012016 0.206720 0.954320
0.012007 0.206711 1.000000
0.012075 0.270264 0.012075
0.012062 0.270251 0.078182
0.012050 0.270239 0.142808
0.012038 0.270227 0.206742
0.012026 0.270215 0.270215
0.012014 0.270203 0.333341
0.012002 0.270191 0.396191
0.011990 0.270179 0.458810
0.011979 0.270167 0.521231
0.011967 0.270155 0.583480
0.011955 0.270144 0.645574
0.011943 0.270132 0.707531
0.011931 0.270120 0.769362
0.011920 0.270108 0.831079
0.011908 0.270097 0.892689
0.011896 0.270085 0.954201
0.011887 0.270076 1.000000
0.011956 0.333284 0.011956
0.011944 0.333271 0.078063
0.011932 0.333259 0.142690
0.011920 0.333247 0.206624
0.011908 0.333235 0.270096
0.011896 0.333223 0.333223
0.011884 0.333211 0.396072
0.011872 0.333199 0.458691
0.011860 0.333187 0.521113
0.011848 0.333175 0.583361
0.011836 0.333164 0.645456
0.011825 0.333152 0.707413
0.011813 0.333140 0.769244
0.011801 0.333128 0.830960
0.011790 0.333117 0.892571
0.011778 0.333105 0.954083
0.011769 0.333096 1.000000
0.011838 0.396027 0.011838
0.011826 0.396015 0.077945
0.011814 0.396002 0.142572
0.011802 0.395990 0.206506
0.011790 0.395978 0.269978
0.011778 0.395966 0.333105
0.011766 0.395954 0.395954
0.011754 0.395943 0.458573
0.011742 0.395931 0.520995
0.011730 0.395919 0.583243
0.011718 0.395907 0.645338
0.011707 0.395895 0.707295
0.011695 0.395884 0.769126
0.011683 0.395872 0.830842
0.011672 0.395860 0.892453
0.011660 0.395849 0.953965
0.011651 0.395840 1.000000
0.011721 0.458540 0.011721
0.011708 0.458528 0.077828
0.011696 0.458516 0.142454
0.011684 0.458504 0.206388
0.011672 0.458492 0.269861
0.011660 0.458480 0.332987
0.011648 0.458468 0.395837
0.011636 0.458456 0.458456
0.011624 0.458444 0.520877
0.011613 0.458432 0.583125
0.011601 0.458420 0.645220
0.011589 0.458409 0.707177
0.011577 0.458397 0.769008
0.011566 0.458385 0.830725
0.011554 0.458374 0.892335
0.011542 0.458362 0.953847
0.011533 0.458353 1.000000
0.011604 0.520856 0.011604
0.011591 0.520844 0.077711
0.011579 0.520832 0.142337
0.011567 0.520819 0.206271
0.011555 0.520807 0.269743
0.011543 0.520795 0.332870
0.011531 0.520784 0.395720
0.011519 0.520772 0.458339
0.011507 0.520760 0.520760
0.011495 0.520748 0.583008
0.011484 0.520736 0.645103
0.011472 0.520725 0.707060
0.011460 0.520713 0.768891
0.011448 0.520701 0.830607
0.011437 0.520689 0.892218
0.011425 0.520678 0.953730
0.011416 0.520669 1.000000
0.011487 0.583000 0.011487
0.011474 0.582987 0.077594
0.011462 0.582975 0.142220
0.011450 0.582963 0.206154
0.011438 0.582951 0.269626
0.011426 0.582939 0.332753
0.011414 0.582927 0.395603
0.011402 0.582915 0.458222
0.011390 0.582903 0.520643
0.011379 0.582891 0.582891
0.011367 0.582880 0.644986
0.011355 0.582868 0.706943
0.011343 0.582856 0.768774
0.011332 0.582844 0.830491
0.011320 0.582833 0.892101
0.011308 0.582821 0.953613
0.011299 0.582812 1.000000
0.011370 0.644990 0.011370
0.011358 0.644977 0.077477
0.011345 0.644965 0.142104
0.011333 0.644953 0.206037
0.011321 0.644941 0.269510
0.011309 0.644929 0.332636
0.011297 0.644917 0.395486
0.011286 0.644905 0.458105
0.011274 0.644893 0.520526
0.011262 0.644881 0.582775
0.011250 0.644870 0.644870
0.011238 0.644858 0.706826
0.011227 0.644846 0.768658
0.011215 0.644834 0.830374
0.011203 0.644823 0.891984
0.011192 0.644811 0.953497
0.011183 0.644802 1.000000
0.011254 0.706842 0.011254
0.011241 0.706829 0.077361
0.011229 0.706817 0.141987
0.011217 0.706805 0.205921
0.011205 0.706793 0.269394
0.011193 0.706781 0.332520
0.011181 0.706769 0.395370
0.011169 0.706757 0.457989
0.011157 0.706745 0.520410
0.011146 0.706734 0.582658
0.011134 0.706722 0.644753
0.011122 0.706710 0.706710
0.011110 0.706698 0.768541
0.011099 0.706687 0.830258
0.011087 0.706675 0.891868
0.011075 0.706663 0.953380
0.011066 0.706654 1.000000
0.011138 0.768569 0.011138
0.011125 0.768556 0.077245
0.011113 0.768544 0.141871
0.011101 0.768532 0.205805
0.011089 0.768520 0.269277
0.011077 0.768508 0.332404
0.011065 0.768496 0.395254
0.011053 0.768484 0.457873
0.011041 0.768472 0.520294
0.011030 0.768460 0.582542
0.011018 0.768449 0.644637
0.011006 0.768437 0.706594
0.010994 0.768425 0.768425
0.010983 0.768414 0.830142
0.010971 0.768402 0.891752
0.010959 0.768390 0.953264
0.010950 0.768381 1.000000
0.011022 0.830181 0.011022
0.011009 0.830168 0.077129
0.010997 0.830156 0.141755
0.010985 0.830144 0.205689
0.010973 0.830132 0.269162
0.010961 0.830120 0.332288
0.010949 0.830108 0.395138
0.010937 0.830096 0.457757
0.010925 0.830084 0.520178
0.010914 0.830073 0.582427
0.010902 0.830061 0.644521
0.010890 0.830049 0.706478
0.010878 0.830037 0.768309
0.010867 0.830026 0.830026
0.010855 0.830014 0.891636
0.010843 0.830002 0.953148
0.010834 0.829993 1.000000
0.010906 0.891687 0.010906
0.010894 0.891675 0.077013
0.010882 0.891663 0.141640
0.010869 0.891651 0.205573
0.010857 0.891638 0.269046
0.010845 0.891627 0.332173
0.010833 0.891615 0.395022
0.010822 0.891603 0.457641
0.010810 0.891591 0.520062
0.010798 0.891579 0.582311
0.010786 0.891567 0.644406
0.010774 0.891556 0.706362
0.010763 0.891544 0.768194
0.010751 0.891532 0.829910
0.010739 0.891520 0.891520
0.010728 0.891509 0.953033
0.010719 0.891500 1.000000
0.010791 0.953096 0.010791
0.010778 0.953083 0.076898
0.010766 0.953071 0.141524
0.010754 0.953059 0.205458
0.010742 0.953047 0.268930
0.010730 0.953035 0.332057
0.010718 0.953023 0.394907
0.010706 0.953011 0.457526
0.010694 0.952999 0.519947
0.010683 0.952987 0.582195
0.010671 0.952976 0.644290
0.010659 0.952964 0.706247
0.010647 0.952952 0.768078
0.010636 0.952940 0.829795
0.010624 0.952929 0.891405
0.010612 0.952917 0.952917
0.010603 0.952908 1.000000
0.010701 1.000000 0.010701
0.010689 1.000000 0.076808
0.010676 1.000000 0.141435
0.010664 1.000000 0.205368
0.010652 1.000000 0.268841
0.010640 1.000000 0.331967
0.010628 1.000000 0.394817
0.010617 1.000000 0.457436
0.010605 1.000000 0.519857
0.010593 1.000000 0.582106
0.010581 1.000000 0.644201
0.010569 1.000000 0.706157
0.010558 1.000000 0.767989
0.010546 1.000000 0.829705
0.010534 1.000000 0.891315
0.010523 1.000000 0.952827
0.010514 1.000000 1.000000
0.078642 0.012523 0.012523
0.078630 0.012510 0.078630
0.078617 0.012498 0.143256
0.078605 0.012486 0.207190
0.078593 0.012474 0.270662
0.078581 0.012462 0.333789
0.078569 0.012450 0.396639
0.078558 0.012438 0.459258
0.078546 0.012426 0.521679
0.078534 0.012414 0.583927
0.078522 0.012403 0.646022
0.078510 0.012391 0.707979
0.078499 0.012379 0.769810
0.078487 0.012368 0.831527
0.078475 0.012356 0.893137
0.078464 0.012344 0.954649
0.078455 0.012335 1.000000
0.078518 0.078518 0.012399
0.078506 0.078506 0.078506
0.078493 0.078493 0.143132
0.078481 0.078481 0.207066
0.078469 0.078469 0.270538
0.078457 0.078457 0.333665
0.078445 0.078445 0.396515
0.078433 0.078433 0.459134
0.078422 0.078422 0.521555
0.078410 0.078410 0.583803
0.078398 0.078398 0.645898
0.078386 0.078386 0.707855
0.078375 0.078375 0.769686
0.078363 0.078363 0.831402
0.078351 0.078351 0.893013
0.078339 0.078339 0.954525
0.078330 0.078330 1.000000
0.078397 0.143036 0.012277
0.078384 0.143023 0.078384
0.078372 0.143011 0.143011
0.078360 0.142999 0.206944
0.078348 0.142987 0.270417
0.078336 0.142975 0.333544
0.078324 0.142963 0.396393
0.078312 0.142951 0.459012
0.078300 0.142939 0.521433
0.078288 0.142927 0.583682
0.078277 0.142915 0.645777
0.078265 0.142904 0.707733
0.078253 0.142892 0.769565
0.078241 0.142880 0.831281
0.078230 0.142869 0.892892
0.078218 0.142857 0.954404
0.078209 0.142848 1.000000
0.078277 0.206861 0.012157
0.078264 0.206849 0.078264
0.078252 0.206836 0.142891
0.078240 0.206824 0.206824
0.078228 0.206812 0.270297
0.078216 0.206800 0.333423
0.078204 0.206788 0.396273
0.078192 0.206777 0.458892
0.078180 0.206765 0.521313
0.078168 0.206753 0.583562
0.078157 0.206741 0.645657
0.078145 0.206729 0.707613
0.078133 0.206718 0.769445
0.078121 0.206706 0.831161
0.078110 0.206694 0.892771
0.078098 0.206683 0.954284
0.078089 0.206674 1.000000
0.078158 0.270227 0.012038
0.078145 0.270214 0.078145
0.078133 0.270202 0.142772
0.078121 0.270190 0.206705
0.078109 0.270178 0.270178
0.078097 0.270166 0.333304
0.078085 0.270154 0.396154
0.078073 0.270142 0.458773
0.078061 0.270130 0.521194
0.078049 0.270118 0.583443
0.078037 0.270107 0.645537
0.078026 0.270095 0.707494
0.078014 0.270083 0.769326
0.078002 0.270071 0.831042
0.077991 0.270060 0.892652
0.077979 0.270048 0.954164
0.077970 0.270039 1.000000
0.078039 0.333247 0.011920
0.078026 0.333234 0.078026
0.078014 0.333222 0.142653
0.078002 0.333210 0.206587
0.077990 0.333198 0.270059
0.077978 0.333186 0.333186
0.077966 0.333174 0.396035
0.077954 0.333162 0.458654
0.077942 0.333150 0.521076
0.077931 0.333138 0.583324
0.077919 0.333127 0.645419
0.077907 0.333115 0.707376
0.077895 0.333103 0.769207
0.077884 0.333091 0.830923
0.077872 0.333080 0.892534
0.077860 0.333068 0.954046
0.077851 0.333059 1.000000
0.077921 0.395990 0.011802
0.077908 0.395978 0.077908
0.077896 0.395966 0.142535
0.077884 0.395953 0.206469
0.077872 0.395941 0.269941
0.077860 0.395929 0.333068
0.077848 0.395917 0.395917
0.077836 0.395906 0.458536
0.077824 0.395894 0.520958
0.077813 0.395882 0.583206
0.077801 0.395870 0.645301
0.077789 0.395858 0.707258
0.077777 0.395847 0.769089
0.077766 0.395835 0.830805
0.077754 0.395823 0.892416
0.077742 0.395812 0.953928
0.077733 0.395803 1.000000
0.077803 0.458504 0.011684
0.077791 0.458491 0.077791
0.077779 0.458479 0.142417
0.077767 0.458467 0.206351
0.077754 0.458455 0.269824
0.077743 0.458443 0.332950
0.077731 0.458431 0.395800
0.077719 0.458419 0.458419
0.077707 0.458407 0.520840
0.077695 0.458395 0.583089
0.077683 0.458383 0.645183
0.077672 0.458372 0.707140
0.077660 0.458360 0.768971
0.077648 0.458348 0.830688
0.077637 0.458337 0.892298
0.077625 0.458325 0.953810
0.077616 0.458316 1.000000
0.077686 0.520819 0.011567
0.077674 0.520807 0.077674
0.077661 0.520795 0.142300
0.077649 0.520783 0.206234
0.077637 0.520771 0.269706
0.077625 0.520759 0.332833
0.077613 0.520747 0.395683
0.077602 0.520735 0.458302
0.077590 0.520723 0.520723
0.077578 0.520711 0.582971
0.077566 0.520699 0.645066
0.077554 0.520688 0.707023
0.077543 0.520676 0.768854
0.077531 0.520664 0.830571
0.077519 0.520653 0.892181
0.077508 0.520641 0.953693
0.077499 0.520632 1.000000
0.077569 0.582963 0.011450
0.077557 0.582950 0.077557
0.077545 0.582938 0.142183
0.077532 0.582926 0.206117
0.077520 0.582914 0.269590
0.077508 0.582902 0.332716
0.077497 0.582890 0.395566
0.077485 0.582878 0.458185
0.077473 0.582866 0.520606
0.077461 0.582854 0.582854
0.077449 0.582843 0.644949
0.077438 0.582831 0.706906
0.077426 0.582819 0.768737
0.077414 0.582808 0.830454
0.077402 0.582796 0.892064
0.077391 0.582784 0.953576
0.077382 0.582775 1.000000
0.077453 0.644953 0.011333
0.077440 0.644940 0.077440
0.077428 0.644928 0.142067
0.077416 0.644916 0.206000
0.077404 0.644904 0.269473
0.077392 0.644892 0.332600
0.077380 0.644880 0.395449
0.077368 0.644868 0.458068
0.077356 0.644856 0.520489
0.077344 0.644845 0.582738
0.077333 0.644833 0.644833
0.077321 0.644821 0.706789
0.077309 0.644809 0.768621
0.077298 0.644798 0.830337
0.077286 0.644786 0.891948
0.077274 0.644774 0.953460
0.077265 0.644765 1.000000
0.077336 0.706805 0.011217
0.077324 0.706792 0.077324
0.077312 0.706780 0.141950
0.077300 0.706768 0.205884
0.077288 0.706756 0.269357
0.077276 0.706744 0.332483
0.077264 0.706732 0.395333
0.077252 0.706720 0.457952
0.077240 0.706708 0.520373
0.077228 0.706697 0.582622
0.077216 0.706685 0.644716
0.077205 0.706673 0.706673
0.077193 0.706661 0.768504
0.077181 0.706650 0.830221
0.077170 0.706638 0.891831
0.077158 0.706626 0.953343
0.077149 0.706617 1.000000
0.077220 0.768532 0.011101
0.077208 0.768519 0.077208
0.077196 0.768507 0.141834
0.077183 0.768495 0.205768
0.077171 0.768483 0.269241
0.077159 0.768471 0.332367
0.077148 0.768459 0.395217
0.077136 0.768447 0.457836
0.077124 0.768435 0.520257
0.077112 0.768424 0.582505
0.077100 0.768412 0.644600
0.077089 0.768400 0.706557
0.077077 0.768388 0.768388
0.077065 0.768377 0.830105
0.077053 0.768365 0.891715
0.077042 0.768353 0.953227
0.077033 0.768344 1.000000
0.077104 0.830144 0.010985
0.077092 0.830132 0.077092
0.077080 0.830119 0.141718
0.077068 0.830107 0.205652
0.077056 0.830095 0.269125
0.077044 0.830083 0.332251
0.077032 0.830071 0.395101
0.077020 0.830059 0.457720
0.077008 0.830048 0.520141
0.076996 0.830036 0.582390
0.076984 0.830024 0.644484
0.076973 0.830012 0.706441
0.076961 0.830001 0.768272
0.076949 0.829989 0.829989
0.076938 0.829977 0.891599
0.076926 0.829966 0.953111
0.076917 0.829956 1.000000
0.076989 0.891651 0.010869
0.076976 0.891638 0.076976
0.076964 0.891626 0.141603
0.076952 0.891614 0.205536
0.076940 0.891602 0.269009
0.076928 0.891590 0.332136
0.076916 0.891578 0.394985
0.076904 0.891566 0.457604
0.076892 0.891554 0.520026
0.076881 0.891542 0.582274
0.076869 0.891530 0.644369
0.076857 0.891519 0.706326
0.076845 0.891507 0.768157
0.076834 0.891495 0.829873
0.076822 0.891484 0.891484
0.076810 0.891472 0.952996
0.076801 0.891463 1.000000
0.076873 0.953059 0.010754
0.076861 0.953046 0.076861
0.076849 0.953034 0.141487
0.076836 0.953022 0.205421
0.076824 0.953010 0.268894
0.076812 0.952998 0.332020
0.076801 0.952986 0.394870
0.076789 0.952974 0.457489
0.076777 0.952962 0.519910
0.076765 0.952950 0.582158
0.076753 0.952939 0.644253
0.076741 0.952927 0.706210
0.076730 0.952915 0.768041
0.076718 0.952904 0.829758
0.076706 0.952892 0.891368
0.076695 0.952880 0.952880
0.076686 0.952871 1.000000
0.076784 1.000000 0.010664
0.076771 1.000000 0.076771
0.076759 1.000000 0.141398
0.076747 1.000000 0.205331
0.076735 1.000000 0.268804
0.076723 1.000000 0.331931
0.076711 1.000000 0.394780
0.076699 1.000000 0.457399
0.076687 1.000000 0.519820
0.076675 1.000000 0.582069
0.076664 1.000000 0.644164
0.076652 1.000000 0.706120
0.076640 1.000000 0.767952
0.076628 1.000000 0.829668
0.076617 1.000000 0.891278
0.076605 1.000000 0.952791
0.076596 1.000000 1.000000
0.143245 0.012487 0.012487
0.143232 0.012474 0.078594
0.143220 0.012462 0.143220
0.143208 0.012450 0.207154
0.143196 0.012438 0.270626
0.143184 0.012426 0.333753
0.143172 0.012414 0.396603
0.143160 0.012402 0.459222
0.143148 0.012390 0.521643
0.143137 0.012378 0.583891
0.143125 0.012367 0.645986
0.143113 0.012355 0.707943
0.143101 0.012343 0.769774
0.143090 0.012331 0.831490
0.143078 0.012320 0.893101
0.143066 0.012308 0.954613
0.143057 0.012299 1.000000
0.143121 0.078482 0.012363
0.143108 0.078469 0.078469
0.143096 0.078457 0.143096
0.143084 0.078445 0.207030
0.143072 0.078433 0.270502
0.143060 0.078421 0.333629
0.143048 0.078409 0.396478
0.143036 0.078397 0.459097
0.143024 0.078385 0.521519
0.143012 0.078374 0.583767
0.143001 0.078362 0.645862
0.142989 0.078350 0.707819
0.142977 0.078338 0.769650
0.142966 0.078327 0.831366
0.142954 0.078315 0.892977
0.142942 0.078303 0.954489
0.142933 0.078294 1.000000
0.142999 0.142999 0.012241
0.142987 0.142987 0.078348
0.142975 0.142975 0.142975
0.142963 0.142963 0.206908
0.142951 0.142951 0.270381
0.142939 0.142939 0.333507
0.142927 0.142927 0.396357
0.142915 0.142915 0.458976
0.142903 0.142903 0.521397
0.142891 0.142891 0.583646
0.142879 0.142879 0.645741
0.142868 0.142868 0.707697
0.142856 0.142856 0.769529
0.142844 0.142844 0.831245
0.142833 0.142833 0.892855
0.142821 0.142821 0.954368
0.142812 0.142812 1.000000
0.142879 0.206825 0.012121
0.142867 0.206813 0.078228
0.142855 0.206800 0.142855
0.142842 0.206788 0.206788
0.142830 0.206776 0.270261
0.142819 0.206764 0.333387
0.142807 0.206752 0.396237
0.142795 0.206740 0.458856
0.142783 0.206729 0.521277
0.142771 0.206717 0.583526
0.142759 0.206705 0.645621
0.142748 0.206693 0.707577
0.142736 0.206682 0.769409
0.142724 0.206670 0.831125
0.142712 0.206658 0.892735
0.142701 0.206647 0.954247
0.142692 0.206638 1.000000
0.142760 0.270191 0.012002
0.142748 0.270178 0.078109
0.142735 0.270166 0.142735
0.142723 0.270154 0.206669
0.142711 0.270142 0.270142
0.142699 0.270130 0.333268
0.142687 0.270118 0.396118
0.142676 0.270106 0.458737
0.142664 0.270094 0.521158
0.142652 0.270082 0.583407
0.142640 0.270071 0.645501
0.142628 0.270059 0.707458
0.142617 0.270047 0.769289
0.142605 0.270035 0.831006
0.142593 0.270024 0.892616
0.142582 0.270012 0.954128
0.142573 0.270003 1.000000
0.142642 0.333211 0.011884
0.142629 0.333198 0.077990
0.142617 0.333186 0.142617
0.142605 0.333174 0.206551
0.142593 0.333162 0.270023
0.142581 0.333150 0.333150
0.142569 0.333138 0.395999
0.142557 0.333126 0.458618
0.142545 0.333114 0.521040
0.142533 0.333102 0.583288
0.142522 0.333091 0.645383
0.142510 0.333079 0.707340
0.142498 0.333067 0.769171
0.142486 0.333055 0.830887
0.142475 0.333044 0.892498
0.142463 0.333032 0.954010
0.142454 0.333023 1.000000
0.142524 0.395954 0.011766
0.142511 0.395942 0.077872
0.142499 0.395929 0.142499
0.142487 0.395917 0.206433
0.142475 0.395905 0.269905
0.142463 0.395893 0.333032
0.142451 0.395881 0.395881
0.142439 0.395870 0.458500
0.142427 0.395858 0.520922
0.142415 0.395846 0.583170
0.142404 0.395834 0.645265
0.142392 0.395822 0.707222
0.142380 0.395811 0.769053
0.142368 0.395799 0.830769
0.142357 0.395787 0.892380
0.142345 0.395776 0.953892
0.142336 0.395767 1.000000
0.142406 0.458467 0.011648
0.142394 0.458455 0.077755
0.142381 0.458443 0.142381
0.142369 0.458431 0.206315
0.142357 0.458419 0.269788
0.142345 0.458407 0.332914
0.142333 0.458395 0.395764
0.142321 0.458383 0.458383
0.142310 0.458371 0.520804
0.142298 0.458359 0.583052
0.142286 0.458347 0.645147
0.142274 0.458336 0.707104
0.142263 0.458324 0.768935
0.142251 0.458312 0.830652
0.142239 0.458301 0.892262
0.142228 0.458289 0.953774
0.142219 0.458280 1.000000
0.142289 0.520783 0.011531
0.142276 0.520771 0.077638
0.142264 0.520759 0.142264
0.142252 0.520746 0.206198
0.142240 0.520734 0.269670
0.142228 0.520722 0.332797
0.142216 0.520711 0.395647
0.142204 0.520699 0.458266
0.142192 0.520687 0.520687
0.142181 0.520675 0.582935
0.142169 0.520663 0.645030
0.142157 0.520652 0.706987
0.142145 0.520640 0.768818
0.142134 0.520628 0.830535
0.142122 0.520616 0.892145
0.142110 0.520605 0.953657
0.142101 0.520596 1.000000
0.142172 0.582927 0.011414
0.142160 0.582914 0.077521
0.142147 0.582902 0.142147
0.142135 0.582890 0.206081
0.142123 0.582878 0.269554
0.142111 0.582866 0.332680
0.142099 0.582854 0.395530
0.142087 0.582842 0.458149
0.142076 0.582830 0.520570
0.142064 0.582818 0.582818
0.142052 0.582807 0.644913
0.142040 0.582795 0.706870
0.142029 0.582783 0.768701
0.142017 0.582771 0.830418
0.142005 0.582760 0.892028
0.141993 0.582748 0.953540
0.141984 0.582739 1.000000
0.142055 0.644917 0.011297
0.142043 0.644904 0.077404
0.142031 0.644892 0.142031
0.142019 0.644880 0.205964
0.142007 0.644868 0.269437
0.141995 0.644856 0.332564
0.141983 0.644844 0.395413
0.141971 0.644832 0.458032
0.141959 0.644820 0.520453
0.141947 0.644808 0.582702
0.141935 0.644797 0.644797
0.141924 0.644785 0.706753
0.141912 0.644773 0.768585
0.141900 0.644762 0.830301
0.141889 0.644750 0.891911
0.141877 0.644738 0.953424
0.141868 0.644729 1.000000
0.141939 0.706769 0.011181
0.141927 0.706756 0.077288
0.141914 0.706744 0.141914
0.141902 0.706732 0.205848
0.141890 0.706720 0.269321
0.141878 0.706708 0.332447
0.141866 0.706696 0.395297
0.141854 0.706684 0.457916
0.141843 0.706672 0.520337
0.141831 0.706661 0.582586
0.141819 0.706649 0.644680
0.141807 0.706637 0.706637
0.141796 0.706625 0.768468
0.141784 0.706614 0.830185
0.141772 0.706602 0.891795
0.141761 0.706590 0.953307
0.141752 0.706581 1.000000
0.141823 0.768496 0.011065
0.141811 0.768483 0.077172
0.141798 0.768471 0.141798
0.141786 0.768459 0.205732
0.141774 0.768447 0.269205
0.141762 0.768435 0.332331
0.141750 0.768423 0.395181
0.141738 0.768411 0.457800
0.141727 0.768399 0.520221
0.141715 0.768388 0.582469
0.141703 0.768376 0.644564
0.141691 0.768364 0.706521
0.141680 0.768352 0.768352
0.141668 0.768341 0.830069
0.141656 0.768329 0.891679
0.141644 0.768317 0.953191
0.141635 0.768308 1.000000
0.141707 0.830108 0.010949
0.141695 0.830095 0.077056
0.141682 0.830083 0.141682
0.141670 0.830071 0.205616
0.141658 0.830059 0.269089
0.141646 0.830047 0.332215
0.141634 0.830035 0.395065
0.141623 0.830023 0.457684
0.141611 0.830012 0.520105
0.141599 0.830000 0.582354
0.141587 0.829988 0.644448
0.141575 0.829976 0.706405
0.141564 0.829964 0.768236
0.141552 0.829953 0.829953
0.141540 0.829941 0.891563
0.141529 0.829929 0.953075
0.141520 0.829920 1.000000
0.141592 0.891614 0.010833
0.141579 0.891602 0.076940
0.141567 0.891590 0.141567
0.141555 0.891578 0.205500
0.141543 0.891566 0.268973
0.141531 0.891554 0.332100
0.141519 0.891542 0.394949
0.141507 0.891530 0.457568
0.141495 0.891518 0.519989
0.141483 0.891506 0.582238
0.141471 0.891494 0.644333
0.141460 0.891483 0.706289
0.141448 0.891471 0.768121
0.141436 0.891459 0.829837
0.141425 0.891448 0.891448
0.141413 0.891436 0.952960
0.141404 0.891427 1.000000
0.141476 0.953023 0.010718
0.141463 0.953010 0.076825
0.141451 0.952998 0.141451
0.141439 0.952986 0.205385
0.141427 0.952974 0.268857
0.141415 0.952962 0.331984
0.141403 0.952950 0.394834
0.141391 0.952938 0.457453
0.141380 0.952926 0.519874
0.141368 0.952914 0.582122
0.141356 0.952903 0.644217
0.141344 0.952891 0.706174
0.141332 0.952879 0.768005
0.141321 0.952867 0.829722
0.141309 0.952856 0.891332
0.141297 0.952844 0.952844
0.141288 0.952835 1.000000
0.141386 1.000000 0.010628
0.141374 1.000000 0.076735
0.141362 1.000000 0.141362
0.141350 1.000000 0.205295
0.141337 1.000000 0.268768
0.141326 1.000000 0.331894
0.141314 1.000000 0.394744
0.141302 1.000000 0.457363
0.141290 1.000000 0.519784
0.141278 1.000000 0.582033
0.141266 1.000000 0.644128
0.141255 1.000000 0.706084
0.141243 1.000000 0.767916
0.141231 1.000000 0.829632
0.141220 1.000000 0.891242
0.141208 1.000000 0.952755
0.141199 1.000000 1.000000
0.207155 0.012451 0.012451
0.207142 0.012438 0.078558
0.207130 0.012426 0.143184
0.207118 0.012414 0.207118
0.207106 0.012402 0.270591
0.207094 0.012390 0.333717
0.207082 0.012378 0.396567
0.207070 0.012366 0.459186
0.207058 0.012355 0.521607
0.207047 0.012343 0.583856
0.207035 0.012331 0.645950
0.207023 0.012319 0.707907
0.207011 0.012307 0.769738
0.207000 0.012296 0.831455
0.206988 0.012284 0.893065
0.206976 0.012272 0.954577
0.206967 0.012263 1.000000
0.207031 0.078446 0.012327
