skills/creativeops-grade/assets/grade/luts/clean_bright_v02.cube
TITLE "clean_bright_v02"
LUT_3D_SIZE 9
DOMAIN_MIN 0.0 0.0 0.0
DOMAIN_MAX 1.0 1.0 1.0
0.012560 0.012560 0.012560
0.012535 0.012535 0.143293
0.012511 0.012511 0.270699
0.012487 0.012487 0.396676
0.012463 0.012463 0.521716
0.012440 0.012440 0.646059
0.012416 0.012416 0.769847
0.012393 0.012393 0.893174
0.012372 0.012372 1.000000
0.012314 0.143072 0.012314
0.012289 0.143048 0.143048
0.012265 0.143023 0.270454
0.012241 0.143000 0.396430
0.012218 0.142976 0.521470
0.012194 0.142952 0.645814
0.012171 0.142929 0.769602
0.012147 0.142905 0.892928
0.012127 0.142885 1.000000
0.012075 0.270264 0.012075
0.012050 0.270239 0.142808
0.012026 0.270215 0.270215
0.012002 0.270191 0.396191
0.011979 0.270167 0.521231
0.011955 0.270144 0.645574
0.011931 0.270120 0.769362
0.011908 0.270097 0.892689
0.011887 0.270076 1.000000
0.011838 0.396027 0.011838
0.011814 0.396002 0.142572
0.011790 0.395978 0.269978
0.011766 0.395954 0.395954
0.011742 0.395931 0.520995
0.011718 0.395907 0.645338
0.011695 0.395884 0.769126
0.011672 0.395860 0.892453
0.011651 0.395840 1.000000
0.011604 0.520856 0.011604
0.011579 0.520832 0.142337
0.011555 0.520807 0.269743
0.011531 0.520784 0.395720
0.011507 0.520760 0.520760
0.011484 0.520736 0.645103
0.011460 0.520713 0.768891
0.011437 0.520689 0.892218
0.011416 0.520669 1.000000
0.011370 0.644990 0.011370
0.011345 0.644965 0.142104
0.011321 0.644941 0.269510
0.011297 0.644917 0.395486
0.011274 0.644893 0.520526
0.011250 0.644870 0.644870
0.011227 0.644846 0.768658
0.011203 0.644823 0.891984
0.011183 0.644802 1.000000
0.011138 0.768569 0.011138
0.011113 0.768544 0.141871
0.011089 0.768520 0.269277
0.011065 0.768496 0.395254
0.011041 0.768472 0.520294
0.011018 0.768449 0.644637
0.010994 0.768425 0.768425
0.010971 0.768402 0.891752
0.010950 0.768381 1.000000
0.010906 0.891687 0.010906
0.010882 0.891663 0.141640
0.010857 0.891638 0.269046
0.010833 0.891615 0.395022
0.010810 0.891591 0.520062
0.010786 0.891567 0.644406
0.010763 0.891544 0.768194
0.010739 0.891520 0.891520
0.010719 0.891500 1.000000
0.010701 1.000000 0.010701
0.010676 1.000000 0.141435
0.010652 1.000000 0.268841
0.010628 1.000000 0.394817
0.010605 1.000000 0.519857
0.010581 1.000000 0.644201
0.010558 1.000000 0.767989
0.010534 1.000000 0.891315
0.010514 1.000000 1.000000
0.143245 0.012487 0.012487
0.143220 0.012462 0.143220
0.143196 0.012438 0.270626
0.143172 0.012414 0.396603
0.143148 0.012390 0.521643
0.143125 0.012367 0.645986
0.143101 0.012343 0.769774
0.143078 0.012320 0.893101
0.143057 0.012299 1.000000
0.142999 0.142999 0.012241
0.142975 0.142975 0.142975
0.142951 0.142951 0.270381
0.142927 0.142927 0.396357
0.142903 0.142903 0.521397
0.142879 0.142879 0.645741
0.142856 0.142856 0.769529
0.142833 0.142833 0.892855
0.142812 0.142812 1.000000
0.142760 0.270191 0.012002
0.142735 0.270166 0.142735
0.142711 0.270142 0.270142
0.142687 0.270118 0.396118
0.142664 0.270094 0.521158
0.142640 0.270071 0.645501
0.142617 0.270047 0.769289
0.142593 0.270024 0.892616
0.142573 0.270003 1.000000
0.142524 0.395954 0.011766
0.142499 0.395929 0.142499
0.142475 0.395905 0.269905
0.142451 0.395881 0.395881
0.142427 0.395858 0.520922
0.142404 0.395834 0.645265
0.142380 0.395811 0.769053
0.142357 0.395787 0.892380
0.142336 0.395767 1.000000
0.142289 0.520783 0.011531
0.142264 0.520759 0.142264
0.142240 0.520734 0.269670
0.142216 0.520711 0.395647
0.142192 0.520687 0.520687
0.142169 0.520663 0.645030
0.142145 0.520640 0.768818
0.142122 0.520616 0.892145
0.142101 0.520596 1.000000
0.142055 0.644917 0.011297
0.142031 0.644892 0.142031
0.142007 0.644868 0.269437
0.141983 0.644844 0.395413
0.141959 0.644820 0.520453
0.141935 0.644797 0.644797
0.141912 0.644773 0.768585
0.141889 0.644750 0.891911
0.141868 0.644729 1.000000
0.141823 0.768496 0.011065
0.141798 0.768471 0.141798
0.141774 0.768447 0.269205
0.141750 0.768423 0.395181
0.141727 0.768399 0.520221
0.141703 0.768376 0.644564
0.141680 0.768352 0.768352
0.141656 0.768329 0.891679
0.141635 0.768308 1.000000
0.141592 0.891614 0.010833
0.141567 0.891590 0.141567
0.141543 0.891566 0.268973
0.141519 0.891542 0.394949
0.141495 0.891518 0.519989
0.141471 0.891494 0.644333
0.141448 0.891471 0.768121
0.141425 0.891448 0.891448
0.141404 0.891427 1.000000
0.141386 1.000000 0.010628
0.141362 1.000000 0.141362
0.141337 1.000000 0.268768
0.141314 1.000000 0.394744
0.141290 1.000000 0.519784
0.141266 1.000000 0.644128
0.141243 1.000000 0.767916
0.141220 1.000000 0.891242
0.141199 1.000000 1.000000
0.270604 0.012416 0.012416
0.270579 0.012391 0.143149
0.270555 0.012367 0.270555
0.270531 0.012343 0.396531
0.270508 0.012319 0.521572
0.270484 0.012296 0.645915
0.270461 0.012272 0.769703
0.270437 0.012249 0.893030
0.270417 0.012228 1.000000
0.270359 0.142928 0.012170
0.270334 0.142904 0.142904
0.270310 0.142879 0.270310
0.270286 0.142856 0.396286
0.270262 0.142832 0.521326
0.270239 0.142808 0.645670
0.270215 0.142785 0.769458
0.270192 0.142761 0.892784
0.270171 0.142741 1.000000
0.270120 0.270120 0.011931
0.270095 0.270095 0.142664
0.270071 0.270071 0.270071
0.270047 0.270047 0.396047
0.270023 0.270023 0.521087
0.269999 0.269999 0.645430
0.269976 0.269976 0.769218
0.269953 0.269953 0.892545
0.269932 0.269932 1.000000
0.269883 0.395883 0.011694
0.269858 0.395858 0.142428
0.269834 0.395834 0.269834
0.269810 0.395810 0.395810
0.269786 0.395787 0.520851
0.269763 0.395763 0.645194
0.269739 0.395740 0.768982
0.269716 0.395716 0.892309
0.269695 0.395695 1.000000
0.269648 0.520712 0.011460
0.269623 0.520688 0.142193
0.269599 0.520663 0.269599
0.269575 0.520639 0.395576
0.269552 0.520616 0.520616
0.269528 0.520592 0.644959
0.269505 0.520569 0.768747
0.269481 0.520545 0.892074
0.269461 0.520525 1.000000
0.269415 0.644846 0.011226
0.269390 0.644821 0.141960
0.269366 0.644797 0.269366
0.269342 0.644773 0.395342
0.269318 0.644749 0.520382
0.269295 0.644726 0.644726
0.269271 0.644702 0.768514
0.269248 0.644679 0.891840
0.269227 0.644658 1.000000
0.269182 0.768425 0.010994
0.269158 0.768400 0.141727
0.269133 0.768376 0.269133
0.269110 0.768352 0.395110
0.269086 0.768328 0.520150
0.269062 0.768305 0.644493
0.269039 0.768281 0.768281
0.269015 0.768258 0.891608
0.268995 0.768237 1.000000
0.268951 0.891543 0.010762
0.268926 0.891519 0.141496
0.268902 0.891494 0.268902
0.268878 0.891471 0.394878
0.268854 0.891447 0.519918
0.268831 0.891423 0.644262
0.268807 0.891400 0.768050
0.268784 0.891376 0.891376
0.268763 0.891356 1.000000
0.268746 1.000000 0.010557
0.268721 1.000000 0.141291
0.268697 1.000000 0.268697
0.268673 1.000000 0.394673
0.268649 1.000000 0.519713
0.268626 1.000000 0.644057
0.268602 1.000000 0.767845
0.268579 1.000000 0.891171
0.268558 1.000000 1.000000
0.396534 0.012345 0.012345
0.396509 0.012321 0.143079
0.396485 0.012296 0.270485
0.396461 0.012272 0.396461
0.396437 0.012249 0.521501
0.396414 0.012225 0.645845
0.396390 0.012202 0.769633
0.396367 0.012178 0.892959
0.396346 0.012158 1.000000
0.396289 0.142858 0.012100
0.396264 0.142833 0.142833
0.396240 0.142809 0.270239
0.396216 0.142785 0.396216
0.396192 0.142762 0.521256
0.396168 0.142738 0.645599
0.396145 0.142714 0.769387
0.396122 0.142691 0.892714
0.396101 0.142670 1.000000
0.396049 0.270049 0.011861
0.396025 0.270024 0.142594
0.396000 0.270000 0.270000
0.395977 0.269976 0.395977
0.395953 0.269953 0.521017
0.395929 0.269929 0.645360
0.395906 0.269906 0.769148
0.395882 0.269882 0.892475
0.395862 0.269862 1.000000
0.395813 0.395813 0.011624
0.395788 0.395788 0.142358
0.395764 0.395764 0.269764
0.395740 0.395740 0.395740
0.395716 0.395716 0.520780
0.395693 0.395693 0.645123
0.395669 0.395669 0.768911
0.395646 0.395646 0.892238
0.395625 0.395625 1.000000
0.395578 0.520642 0.011389
0.395553 0.520617 0.142123
0.395529 0.520593 0.269529
0.395505 0.520569 0.395505
0.395482 0.520545 0.520545
0.395458 0.520522 0.644889
0.395435 0.520498 0.768677
0.395411 0.520475 0.892004
0.395390 0.520454 1.000000
0.395345 0.644775 0.011156
0.395320 0.644751 0.141889
0.395296 0.644726 0.269296
0.395272 0.644703 0.395272
0.395248 0.644679 0.520312
0.395225 0.644655 0.644655
0.395201 0.644632 0.768443
0.395178 0.644608 0.891770
0.395157 0.644588 1.000000
0.395112 0.768354 0.010923
0.395087 0.768330 0.141657
0.395063 0.768305 0.269063
0.395039 0.768282 0.395039
0.395016 0.768258 0.520080
0.394992 0.768234 0.644423
0.394969 0.768211 0.768211
0.394945 0.768187 0.891538
0.394925 0.768167 1.000000
0.394881 0.891473 0.010692
0.394856 0.891448 0.141425
0.394832 0.891424 0.268832
0.394808 0.891400 0.394808
0.394784 0.891377 0.519848
0.394761 0.891353 0.644191
0.394737 0.891329 0.767979
0.394714 0.891306 0.891306
0.394693 0.891285 1.000000
0.394676 1.000000 0.010487
0.394651 1.000000 0.141220
0.394627 1.000000 0.268626
0.394603 1.000000 0.394603
0.394579 1.000000 0.519643
0.394555 1.000000 0.643986
0.394532 1.000000 0.767774
0.394509 1.000000 0.891101
0.394488 1.000000 1.000000
0.521528 0.012276 0.012276
0.521503 0.012251 0.143009
0.521479 0.012227 0.270415
0.521455 0.012203 0.396391
0.521432 0.012179 0.521432
0.521408 0.012155 0.645775
0.521385 0.012132 0.769563
0.521361 0.012109 0.892890
0.521341 0.012088 1.000000
0.521283 0.142788 0.012030
0.521258 0.142763 0.142763
0.521234 0.142739 0.270170
0.521210 0.142715 0.396146
0.521186 0.142692 0.521186
0.521163 0.142668 0.645529
0.521139 0.142645 0.769317
0.521116 0.142621 0.892644
0.521095 0.142601 1.000000
0.521043 0.269979 0.011791
0.521019 0.269955 0.142524
0.520995 0.269930 0.269930
0.520971 0.269907 0.395907
0.520947 0.269883 0.520947
0.520923 0.269859 0.645290
0.520900 0.269836 0.769078
0.520877 0.269812 0.892405
0.520856 0.269792 1.000000
0.520807 0.395743 0.011554
0.520782 0.395718 0.142288
0.520758 0.395694 0.269694
0.520734 0.395670 0.395670
0.520710 0.395647 0.520710
0.520687 0.395623 0.645054
0.520663 0.395599 0.768842
0.520640 0.395576 0.892169
0.520619 0.395555 1.000000
0.520572 0.520572 0.011320
0.520547 0.520547 0.142053
0.520523 0.520523 0.269459
0.520499 0.520499 0.395435
0.520476 0.520476 0.520476
0.520452 0.520452 0.644819
0.520429 0.520429 0.768607
0.520405 0.520405 0.891934
0.520385 0.520385 1.000000
0.520339 0.644706 0.011086
0.520314 0.644681 0.141819
0.520290 0.644657 0.269226
0.520266 0.644633 0.395202
0.520242 0.644609 0.520242
0.520219 0.644585 0.644585
0.520195 0.644562 0.768373
0.520172 0.644539 0.891700
0.520151 0.644518 1.000000
0.520106 0.768285 0.010854
0.520082 0.768260 0.141587
0.520057 0.768236 0.268993
0.520034 0.768212 0.394970
0.520010 0.768188 0.520010
0.519986 0.768165 0.644353
0.519963 0.768141 0.768141
0.519939 0.768118 0.891468
0.519919 0.768097 1.000000
0.519875 0.891403 0.010622
0.519850 0.891378 0.141356
0.519826 0.891354 0.268762
0.519802 0.891330 0.394738
0.519778 0.891307 0.519778
0.519755 0.891283 0.644122
0.519731 0.891260 0.767910
0.519708 0.891236 0.891236
0.519687 0.891216 1.000000
0.519670 1.000000 0.010417
0.519645 1.000000 0.141150
0.519621 1.000000 0.268557
0.519597 1.000000 0.394533
0.519573 1.000000 0.519573
0.519550 1.000000 0.643916
0.519526 1.000000 0.767704
0.519503 1.000000 0.891031
0.519482 1.000000 1.000000
0.645826 0.012206 0.012206
0.645801 0.012181 0.142940
0.645777 0.012157 0.270346
0.645753 0.012133 0.396322
0.645729 0.012110 0.521362
0.645705 0.012086 0.645705
0.645682 0.012063 0.769494
0.645659 0.012039 0.892820
0.645638 0.012018 1.000000
0.645580 0.142719 0.011961
0.645555 0.142694 0.142694
0.645531 0.142670 0.270100
0.645507 0.142646 0.396077
0.645484 0.142622 0.521117
0.645460 0.142599 0.645460
0.645437 0.142575 0.769248
0.645413 0.142552 0.892575
0.645392 0.142531 1.000000
0.645341 0.269910 0.011721
0.645316 0.269885 0.142455
0.645292 0.269861 0.269861
0.645268 0.269837 0.395837
0.645244 0.269814 0.520878
0.645221 0.269790 0.645221
0.645197 0.269766 0.769009
0.645174 0.269743 0.892336
0.645153 0.269722 1.000000
0.645104 0.395674 0.011485
0.645080 0.395649 0.142218
0.645055 0.395625 0.269625
0.645032 0.395601 0.395601
0.645008 0.395577 0.520641
0.644984 0.395554 0.644984
0.644961 0.395530 0.768772
0.644937 0.395507 0.892099
0.644917 0.395486 1.000000
0.644870 0.520503 0.011250
0.644845 0.520478 0.141984
0.644821 0.520454 0.269390
0.644797 0.520430 0.395366
0.644773 0.520406 0.520406
0.644750 0.520383 0.644750
0.644726 0.520359 0.768538
0.644703 0.520336 0.891864
0.644682 0.520315 1.000000
0.644636 0.644636 0.011017
0.644611 0.644611 0.141750
0.644587 0.644587 0.269156
0.644563 0.644563 0.395133
0.644540 0.644540 0.520173
0.644516 0.644516 0.644516
0.644493 0.644493 0.768304
0.644469 0.644469 0.891631
0.644449 0.644449 1.000000
0.644404 0.768215 0.010784
0.644379 0.768190 0.141518
0.644355 0.768166 0.268924
0.644331 0.768142 0.394900
0.644307 0.768119 0.519940
0.644284 0.768095 0.644284
0.644260 0.768072 0.768072
0.644237 0.768048 0.891398
0.644216 0.768028 1.000000
0.644172 0.891334 0.010553
0.644147 0.891309 0.141286
0.644123 0.891285 0.268692
0.644099 0.891261 0.394669
0.644076 0.891237 0.519709
0.644052 0.891214 0.644052
0.644029 0.891190 0.767840
0.644005 0.891167 0.891167
0.643985 0.891146 1.000000
0.643967 1.000000 0.010348
0.643942 1.000000 0.141081
0.643918 1.000000 0.268487
0.643894 1.000000 0.394464
0.643871 1.000000 0.519504
0.643847 1.000000 0.643847
0.643824 1.000000 0.767635
0.643800 1.000000 0.890962
0.643779 1.000000 1.000000
0.769568 0.012137 0.012137
0.769543 0.012112 0.142870
0.769519 0.012088 0.270277
0.769495 0.012064 0.396253
0.769471 0.012041 0.521293
0.769448 0.012017 0.645636
0.769424 0.011993 0.769424
0.769401 0.011970 0.892751
0.769380 0.011949 1.000000
0.769322 0.142650 0.011892
0.769298 0.142625 0.142625
0.769274 0.142601 0.270031
0.769250 0.142577 0.396007
0.769226 0.142553 0.521048
0.769202 0.142530 0.645391
0.769179 0.142506 0.769179
0.769156 0.142483 0.892506
0.769135 0.142462 1.000000
0.769083 0.269841 0.011652
0.769059 0.269816 0.142386
0.769034 0.269792 0.269792
0.769010 0.269768 0.395768
0.768987 0.269744 0.520808
0.768963 0.269721 0.645152
0.768940 0.269697 0.768940
0.768916 0.269674 0.892267
0.768896 0.269653 1.000000
0.768847 0.395605 0.011416
0.768822 0.395580 0.142149
0.768798 0.395556 0.269555
0.768774 0.395532 0.395532
0.768750 0.395508 0.520572
0.768727 0.395484 0.644915
0.768703 0.395461 0.768703
0.768680 0.395438 0.892030
0.768659 0.395417 1.000000
0.768612 0.520434 0.011181
0.768587 0.520409 0.141914
0.768563 0.520385 0.269321
0.768539 0.520361 0.395297
0.768515 0.520337 0.520337
0.768492 0.520314 0.644680
0.768468 0.520290 0.768468
0.768445 0.520267 0.891795
0.768424 0.520246 1.000000
0.768379 0.644567 0.010948
0.768354 0.644542 0.141681
0.768330 0.644518 0.269087
0.768306 0.644494 0.395064
0.768282 0.644471 0.520104
0.768258 0.644447 0.644447
0.768235 0.644424 0.768235
0.768212 0.644400 0.891562
0.768191 0.644379 1.000000
0.768146 0.768146 0.010715
0.768121 0.768121 0.141449
0.768097 0.768097 0.268855
0.768073 0.768073 0.394831
0.768050 0.768050 0.519871
0.768026 0.768026 0.644215
0.768003 0.768003 0.768003
0.767979 0.767979 0.891329
0.767959 0.767959 1.000000
0.767915 0.891265 0.010484
0.767890 0.891240 0.141217
0.767866 0.891216 0.268623
0.767842 0.891192 0.394600
0.767818 0.891168 0.519640
0.767795 0.891145 0.643983
0.767771 0.891121 0.767771
0.767748 0.891098 0.891098
0.767727 0.891077 1.000000
0.767709 1.000000 0.010279
0.767685 1.000000 0.141012
0.767661 1.000000 0.268418
0.767637 1.000000 0.394394
0.767613 1.000000 0.519435
0.767589 1.000000 0.643778
0.767566 1.000000 0.767566
0.767543 1.000000 0.890893
0.767522 1.000000 1.000000
0.892849 0.012068 0.012068
0.892825 0.012043 0.142802
0.892800 0.012019 0.270208
0.892776 0.011995 0.396184
0.892753 0.011972 0.521224
0.892729 0.011948 0.645568
0.892706 0.011925 0.769356
0.892682 0.011901 0.892682
0.892662 0.011881 1.000000
0.892604 0.142581 0.011823
0.892579 0.142556 0.142556
0.892555 0.142532 0.269962
0.892531 0.142508 0.395939
0.892507 0.142484 0.520979
0.892484 0.142461 0.645322
0.892460 0.142437 0.769110
0.892437 0.142414 0.892437
0.892416 0.142393 1.000000
0.892365 0.269772 0.011584
0.892340 0.269747 0.142317
0.892316 0.269723 0.269723
0.892292 0.269699 0.395699
0.892268 0.269676 0.520740
0.892245 0.269652 0.645083
0.892221 0.269629 0.768871
0.892198 0.269605 0.892198
0.892177 0.269584 1.000000
0.892128 0.395536 0.011347
0.892103 0.395511 0.142080
0.892079 0.395487 0.269487
0.892055 0.395463 0.395463
0.892032 0.395439 0.520503
0.892008 0.395416 0.644846
0.891985 0.395392 0.768634
0.891961 0.395369 0.891961
0.891940 0.395348 1.000000
0.891893 0.520365 0.011112
0.891869 0.520340 0.141846
0.891844 0.520316 0.269252
0.891821 0.520292 0.395228
0.891797 0.520268 0.520268
0.891773 0.520245 0.644612
0.891750 0.520221 0.768400
0.891726 0.520198 0.891726
0.891706 0.520177 1.000000
0.891660 0.644498 0.010879
0.891635 0.644473 0.141612
0.891611 0.644449 0.269018
0.891587 0.644425 0.394995
0.891563 0.644402 0.520035
0.891540 0.644378 0.644378
0.891516 0.644355 0.768166
0.891493 0.644331 0.891493
0.891472 0.644311 1.000000
0.891427 0.768077 0.010646
0.891403 0.768053 0.141380
0.891379 0.768028 0.268786
0.891355 0.768004 0.394762
0.891331 0.767981 0.519802
0.891307 0.767957 0.644146
0.891284 0.767934 0.767934
0.891261 0.767910 0.891261
0.891240 0.767890 1.000000
0.891196 0.891196 0.010415
0.891171 0.891171 0.141148
0.891147 0.891147 0.268554
0.891123 0.891123 0.394531
0.891099 0.891099 0.519571
0.891076 0.891076 0.643914
0.891052 0.891052 0.767702
0.891029 0.891029 0.891029
0.891008 0.891008 1.000000
0.890991 1.000000 0.010210
0.890966 1.000000 0.140943
0.890942 1.000000 0.268349
0.890918 1.000000 0.394326
0.890894 1.000000 0.519366
0.890871 1.000000 0.643709
0.890847 1.000000 0.767497
0.890824 1.000000 0.890824
0.890803 1.000000 1.000000
1.000000 0.012007 0.012007
1.000000 0.011982 0.142741
1.000000 0.011958 0.270147
1.000000 0.011934 0.396123
1.000000 0.011911 0.521163
1.000000 0.011887 0.645507
1.000000 0.011864 0.769295
1.000000 0.011840 0.892621
1.000000 0.011820 1.000000
1.000000 0.142520 0.011762
1.000000 0.142495 0.142495
1.000000 0.142471 0.269901
1.000000 0.142447 0.395878
1.000000 0.142423 0.520918
1.000000 0.142400 0.645261
1.000000 0.142376 0.769049
1.000000 0.142353 0.892376
1.000000 0.142332 1.000000
1.000000 0.269711 0.011523
1.000000 0.269686 0.142256
1.000000 0.269662 0.269662
1.000000 0.269638 0.395638
1.000000 0.269615 0.520679
1.000000 0.269591 0.645022
1.000000 0.269568 0.768810
1.000000 0.269544 0.892137
1.000000 0.269524 1.000000
1.000000 0.395475 0.011286
1.000000 0.395450 0.142019
1.000000 0.395426 0.269426
1.000000 0.395402 0.395402
1.000000 0.395378 0.520442
1.000000 0.395355 0.644785
1.000000 0.395331 0.768573
1.000000 0.395308 0.891900
1.000000 0.395287 1.000000
1.000000 0.520304 0.011051
1.000000 0.520279 0.141785
1.000000 0.520255 0.269191
1.000000 0.520231 0.395167
1.000000 0.520207 0.520207
1.000000 0.520184 0.644551
1.000000 0.520160 0.768339
1.000000 0.520137 0.891665
1.000000 0.520116 1.000000
1.000000 0.644437 0.010818
1.000000 0.644412 0.141551
1.000000 0.644388 0.268957
1.000000 0.644364 0.394934
1.000000 0.644341 0.519974
1.000000 0.644317 0.644317
1.000000 0.644294 0.768105
1.000000 0.644270 0.891432
1.000000 0.644250 1.000000
1.000000 0.768016 0.010585
1.000000 0.767992 0.141319
1.000000 0.767967 0.268725
1.000000 0.767944 0.394701
1.000000 0.767920 0.519742
1.000000 0.767896 0.644085
1.000000 0.767873 0.767873
1.000000 0.767849 0.891200
1.000000 0.767829 1.000000
1.000000 0.891135 0.010354
1.000000 0.891110 0.141087
1.000000 0.891086 0.268493
1.000000 0.891062 0.394470
1.000000 0.891038 0.519510
1.000000 0.891015 0.643853
1.000000 0.890991 0.767641
1.000000 0.890968 0.890968
1.000000 0.890947 1.000000
1.000000 1.000000 0.010149
1.000000 1.000000 0.140882
1.000000 1.000000 0.268288
1.000000 1.000000 0.394265
1.000000 1.000000 0.519305
1.000000 1.000000 0.643648
1.000000 1.000000 0.767436
1.000000 1.000000 0.890763
1.000000 1.000000 1.000000
