skills/creativeops-grade/assets/grade/luts/cool_tech_v12.cube
TITLE "cool_tech_v12"
LUT_3D_SIZE 5
DOMAIN_MIN 0.0 0.0 0.0
DOMAIN_MAX 1.0 1.0 1.0
0.000100 0.000100 0.024096
0.001078 0.001078 0.258881
0.002085 0.002085 0.500820
0.003106 0.003106 0.746047
0.003952 0.003952 0.949215
0.009241 0.229948 0.033236
0.010218 0.230926 0.268022
0.011226 0.231933 0.509961
0.012247 0.232954 0.755188
0.013093 0.233800 0.958356
0.019190 0.480134 0.043185
0.020168 0.481112 0.277971
0.021175 0.482119 0.519910
0.022196 0.483140 0.765137
0.023042 0.483986 0.968305
0.029287 0.734020 0.053282
0.030264 0.734998 0.288067
0.031271 0.736005 0.530007
0.032292 0.737026 0.775233
0.033138 0.737872 0.978401
0.039248 0.984511 0.063243
0.040226 0.985489 0.298029
0.041233 0.986496 0.539968
0.042254 0.987517 0.785195
0.043100 0.988363 0.988363
0.186140 0.002363 0.026358
0.187118 0.003340 0.261144
0.188125 0.004348 0.503083
0.189146 0.005369 0.748309
0.189992 0.006214 0.951478
0.195281 0.232211 0.035499
0.196258 0.233188 0.270284
0.197265 0.234195 0.512223
0.198286 0.235216 0.757450
0.199132 0.236062 0.960618
0.205230 0.482397 0.045448
0.206207 0.483374 0.280233
0.207215 0.484382 0.522173
0.208236 0.485403 0.767399
0.209082 0.486248 0.970567
0.215326 0.736283 0.055544
0.216304 0.737260 0.290330
0.217311 0.738268 0.532269
0.218332 0.739289 0.777496
0.219178 0.740134 0.980664
0.225288 0.986774 0.065506
0.226265 0.987751 0.300291
0.227273 0.988759 0.542230
0.228294 0.989780 0.787457
0.229139 0.990625 0.990625
0.428546 0.005311 0.029306
0.429524 0.006288 0.264092
0.430531 0.007296 0.506031
0.431552 0.008317 0.751257
0.432398 0.009162 0.954426
0.437687 0.235158 0.038447
0.438664 0.236136 0.273232
0.439672 0.237143 0.515171
0.440693 0.238164 0.760398
0.441538 0.239010 0.963566
0.447636 0.485345 0.048396
0.448614 0.486322 0.283181
0.449621 0.487329 0.525120
0.450642 0.488350 0.770347
0.451488 0.489196 0.973515
0.457733 0.739231 0.058492
0.458710 0.740208 0.293278
0.459717 0.741215 0.535217
0.460738 0.742236 0.780444
0.461584 0.743082 0.983612
0.467694 0.989722 0.068454
0.468672 0.990699 0.303239
0.469679 0.991706 0.545178
0.470700 0.992727 0.790405
0.471546 0.993573 0.993573
0.674888 0.008307 0.032302
0.675866 0.009284 0.267087
0.676873 0.010291 0.509026
0.677894 0.011312 0.754253
0.678740 0.012158 0.957421
0.684029 0.238154 0.041442
0.685006 0.239132 0.276228
0.686013 0.240139 0.518167
0.687034 0.241160 0.763394
0.687880 0.242006 0.966562
0.693978 0.488340 0.051392
0.694955 0.489318 0.286177
0.695963 0.490325 0.528116
0.696984 0.491346 0.773343
0.697830 0.492192 0.976511
0.704074 0.742226 0.061488
0.705052 0.743204 0.296274
0.706059 0.744211 0.538213
0.707080 0.745232 0.783440
0.707926 0.746078 0.986608
0.714036 0.992717 0.071450
0.715013 0.993695 0.306235
0.716021 0.994702 0.548174
0.717042 0.995723 0.793401
0.717887 0.996569 0.996569
0.923705 0.011332 0.035328
0.924682 0.012310 0.270113
0.925689 0.013317 0.512052
0.926710 0.014338 0.757279
0.927556 0.015184 0.960447
0.932845 0.241180 0.044468
0.933823 0.242158 0.279254
0.934830 0.243165 0.521193
0.935851 0.244186 0.766420
0.936697 0.245032 0.969588
0.942794 0.491366 0.054418
0.943772 0.492344 0.289203
0.944779 0.493351 0.531142
0.945800 0.494372 0.776369
0.946646 0.495218 0.979537
0.952891 0.745252 0.064514
0.953868 0.746230 0.299300
0.954876 0.747237 0.541239
0.955897 0.748258 0.786465
0.956743 0.749104 0.989634
0.962852 0.995743 0.074476
0.963830 0.996721 0.309261
0.964837 0.997728 0.551200
0.965858 0.998749 0.796427
0.966704 0.999595 0.999595
