skills/creativeops-grade/assets/grade/luts/cool_tech_v12.cube
TITLE "cool_tech_v12"
LUT_3D_SIZE 9
DOMAIN_MIN 0.0 0.0 0.0
DOMAIN_MAX 1.0 1.0 1.0
0.000100 0.000100 0.024096
0.000583 0.000583 0.139963
0.001078 0.001078 0.258881
0.001579 0.001579 0.379328
0.002085 0.002085 0.500820
0.002594 0.002594 0.623110
0.003106 0.003106 0.746047
0.003620 0.003620 0.869528
0.003952 0.003952 0.949215
0.004364 0.107317 0.028359
0.004847 0.107800 0.144227
0.005342 0.108295 0.263145
0.005843 0.108796 0.383592
0.006349 0.109302 0.505084
0.006858 0.109811 0.627374
0.007370 0.110323 0.750311
0.007884 0.110837 0.873792
0.008216 0.111169 0.953479
0.009241 0.229948 0.033236
0.009723 0.230430 0.149104
0.010218 0.230926 0.268022
0.010720 0.231427 0.388469
0.011226 0.231933 0.509961
0.011735 0.232442 0.632251
0.012247 0.232954 0.755188
0.012761 0.233468 0.878669
0.013093 0.233800 0.958356
0.014192 0.354441 0.038187
0.014674 0.354923 0.154054
0.015169 0.355418 0.272972
0.015671 0.355920 0.393419
0.016176 0.356425 0.514911
0.016686 0.356935 0.637202
0.017197 0.357446 0.760138
0.017712 0.357961 0.883620
0.018043 0.358292 0.963306
0.019190 0.480134 0.043185
0.019673 0.480617 0.159053
0.020168 0.481112 0.277971
0.020669 0.481613 0.398418
0.021175 0.482119 0.519910
0.021684 0.482628 0.642200
0.022196 0.483140 0.765137
0.022710 0.483654 0.888618
0.023042 0.483986 0.968305
0.024224 0.606721 0.048220
0.024707 0.607203 0.164087
0.025202 0.607698 0.283005
0.025703 0.608200 0.403452
0.026209 0.608706 0.524944
0.026718 0.609215 0.647234
0.027230 0.609727 0.770171
0.027744 0.610241 0.893652
0.028076 0.610573 0.973339
0.029287 0.734020 0.053282
0.029769 0.734503 0.169149
0.030264 0.734998 0.288067
0.030766 0.735499 0.408514
0.031271 0.736005 0.530007
0.031781 0.736514 0.652297
0.032292 0.737026 0.775233
0.032807 0.737540 0.898715
0.033138 0.737872 0.978401
0.034373 0.861913 0.058368
0.034855 0.862396 0.174235
0.035350 0.862891 0.293153
0.035852 0.863392 0.413600
0.036357 0.863898 0.535093
0.036867 0.864407 0.657383
0.037378 0.864919 0.780319
0.037893 0.865433 0.903801
0.038224 0.865765 0.983488
0.039248 0.984511 0.063243
0.039731 0.984994 0.179111
0.040226 0.985489 0.298029
0.040727 0.985990 0.418476
0.041233 0.986496 0.539968
0.041742 0.987005 0.662258
0.042254 0.987517 0.785195
0.042768 0.988031 0.908676
0.043100 0.988363 0.988363
0.067797 0.000924 0.024919
0.068280 0.001406 0.140786
0.068775 0.001901 0.259704
0.069276 0.002403 0.380151
0.069782 0.002908 0.501643
0.070291 0.003418 0.623933
0.070803 0.003929 0.746870
0.071317 0.004444 0.870352
0.071649 0.004775 0.950038
0.072061 0.108141 0.029183
0.072543 0.108623 0.145050
0.073038 0.109118 0.263968
0.073540 0.109620 0.384415
0.074046 0.110126 0.505907
0.074555 0.110635 0.628197
0.075067 0.111147 0.751134
0.075581 0.111661 0.874615
0.075913 0.111992 0.954302
0.076938 0.230771 0.034059
0.077420 0.231254 0.149927
0.077915 0.231749 0.268845
0.078417 0.232250 0.389292
0.078922 0.232756 0.510784
0.079432 0.233265 0.633074
0.079943 0.233777 0.756011
0.080458 0.234291 0.879492
0.080789 0.234623 0.959179
0.081888 0.355264 0.039010
0.082371 0.355746 0.154878
0.082866 0.356241 0.273796
0.083367 0.356743 0.394243
0.083873 0.357249 0.515735
0.084382 0.357758 0.638025
0.084894 0.358270 0.760962
0.085408 0.358784 0.884443
0.085740 0.359116 0.964130
0.086887 0.480958 0.044009
0.087369 0.481440 0.159876
0.087865 0.481935 0.278794
0.088366 0.482437 0.399241
0.088872 0.482942 0.520733
0.089381 0.483451 0.643023
0.089893 0.483963 0.765960
0.090407 0.484477 0.889441
0.090739 0.484809 0.969128
0.091921 0.607544 0.049043
0.092403 0.608027 0.164910
0.092899 0.608522 0.283828
0.093400 0.609023 0.404275
0.093906 0.609529 0.525767
0.094415 0.610038 0.648057
0.094927 0.610550 0.770994
0.095441 0.611064 0.894475
0.095773 0.611396 0.974162
0.096983 0.734844 0.054105
0.097466 0.735326 0.169973
0.097961 0.735821 0.288891
0.098462 0.736323 0.409338
0.098968 0.736828 0.530830
0.099477 0.737337 0.653120
0.099989 0.737849 0.776057
0.100503 0.738363 0.899538
0.100835 0.738695 0.979225
0.102069 0.862737 0.059191
0.102552 0.863219 0.175059
0.103047 0.863714 0.293977
0.103548 0.864216 0.414424
0.104054 0.864722 0.535916
0.104563 0.865231 0.658206
0.105075 0.865743 0.781143
0.105589 0.866257 0.904624
0.105921 0.866588 0.984311
0.106945 0.985335 0.064067
0.107427 0.985817 0.179934
0.107922 0.986312 0.298852
0.108424 0.986814 0.419299
0.108930 0.987319 0.540791
0.109439 0.987829 0.663081
0.109951 0.988340 0.786018
0.110465 0.988854 0.909499
0.110797 0.989186 0.989186
0.186140 0.002363 0.026358
0.186622 0.002845 0.142226
0.187118 0.003340 0.261144
0.187619 0.003842 0.381591
0.188125 0.004348 0.503083
0.188634 0.004857 0.625373
0.189146 0.005369 0.748309
0.189660 0.005883 0.871791
0.189992 0.006214 0.951478
0.190404 0.109580 0.030622
0.190886 0.110062 0.146489
0.191381 0.110557 0.265407
0.191883 0.111059 0.385854
0.192389 0.111565 0.507346
0.192898 0.112074 0.629636
0.193410 0.112586 0.752573
0.193924 0.113100 0.876055
0.194255 0.113432 0.955741
0.195281 0.232211 0.035499
0.195763 0.232693 0.151366
0.196258 0.233188 0.270284
0.196760 0.233690 0.390731
0.197265 0.234195 0.512223
0.197775 0.234704 0.634513
0.198286 0.235216 0.757450
0.198800 0.235730 0.880931
0.199132 0.236062 0.960618
0.200231 0.356703 0.040449
0.200714 0.357185 0.156317
0.201209 0.357681 0.275235
0.201710 0.358182 0.395682
0.202216 0.358688 0.517174
0.202725 0.359197 0.639464
0.203237 0.359709 0.762401
0.203751 0.360223 0.885882
0.204083 0.360555 0.965569
0.205230 0.482397 0.045448
0.205712 0.482879 0.161315
0.206207 0.483374 0.280233
0.206709 0.483876 0.400680
0.207215 0.484382 0.522173
0.207724 0.484891 0.644463
0.208236 0.485403 0.767399
0.208750 0.485917 0.890881
0.209082 0.486248 0.970567
0.210264 0.608983 0.050482
0.210746 0.609466 0.166350
0.211241 0.609961 0.285268
0.211743 0.610462 0.405714
0.212249 0.610968 0.527207
0.212758 0.611477 0.649497
0.213270 0.611989 0.772433
0.213784 0.612503 0.895915
0.214116 0.612835 0.975602
0.215326 0.736283 0.055544
0.215809 0.736765 0.171412
0.216304 0.737260 0.290330
0.216805 0.737762 0.410777
0.217311 0.738268 0.532269
0.217820 0.738777 0.654559
0.218332 0.739289 0.777496
0.218846 0.739803 0.900977
0.219178 0.740134 0.980664
0.220412 0.864176 0.060630
0.220895 0.864658 0.176498
0.221390 0.865153 0.295416
0.221891 0.865655 0.415863
0.222397 0.866161 0.537355
0.222906 0.866670 0.659645
0.223418 0.867182 0.782582
0.223932 0.867696 0.906063
0.224264 0.868028 0.985750
0.225288 0.986774 0.065506
0.225770 0.987256 0.181373
0.226265 0.987751 0.300291
0.226767 0.988253 0.420738
0.227273 0.988759 0.542230
0.227782 0.989268 0.664520
0.228294 0.989780 0.787457
0.228808 0.990294 0.910939
0.229139 0.990625 0.990625
0.306688 0.003829 0.027824
0.307170 0.004311 0.143692
0.307665 0.004806 0.262610
0.308167 0.005308 0.383057
0.308673 0.005814 0.504549
0.309182 0.006323 0.626839
0.309694 0.006835 0.749775
0.310208 0.007349 0.873257
0.310540 0.007680 0.952944
0.310952 0.111046 0.032088
0.311434 0.111528 0.147955
0.311929 0.112023 0.266873
0.312431 0.112525 0.387320
0.312937 0.113031 0.508812
0.313446 0.113540 0.631102
0.313958 0.114052 0.754039
0.314472 0.114566 0.877521
0.314803 0.114898 0.957207
0.315828 0.233677 0.036965
0.316311 0.234159 0.152832
0.316806 0.234654 0.271750
0.317307 0.235156 0.392197
0.317813 0.235661 0.513689
0.318322 0.236170 0.635979
0.318834 0.236682 0.758916
0.319348 0.237196 0.882397
0.319680 0.237528 0.962084
0.320779 0.358169 0.041915
0.321262 0.358651 0.157783
0.321757 0.359147 0.276701
0.322258 0.359648 0.397148
0.322764 0.360154 0.518640
0.323273 0.360663 0.640930
0.323785 0.361175 0.763867
0.324299 0.361689 0.887348
0.324631 0.362021 0.967035
0.325778 0.483863 0.046914
0.326260 0.484345 0.162781
0.326755 0.484840 0.281699
0.327257 0.485342 0.402146
0.327763 0.485848 0.523639
0.328272 0.486357 0.645929
0.328784 0.486869 0.768865
0.329298 0.487383 0.892347
0.329629 0.487714 0.972033
0.330812 0.610449 0.051948
0.331294 0.610932 0.167816
0.331789 0.611427 0.286734
0.332291 0.611928 0.407181
0.332797 0.612434 0.528673
0.333306 0.612943 0.650963
0.333818 0.613455 0.773899
0.334332 0.613969 0.897381
0.334664 0.614301 0.977068
0.335874 0.737749 0.057010
0.336357 0.738231 0.172878
0.336852 0.738726 0.291796
0.337353 0.739228 0.412243
0.337859 0.739734 0.533735
0.338368 0.740243 0.656025
0.338880 0.740755 0.778962
0.339394 0.741269 0.902443
0.339726 0.741600 0.982130
0.340960 0.865642 0.062096
0.341443 0.866124 0.177964
0.341938 0.866619 0.296882
0.342439 0.867121 0.417329
0.342945 0.867627 0.538821
0.343454 0.868136 0.661111
0.343966 0.868648 0.784048
0.344480 0.869162 0.907529
0.344812 0.869494 0.987216
0.345836 0.988240 0.066972
0.346318 0.988722 0.182839
0.346813 0.989217 0.301757
0.347315 0.989719 0.422204
0.347821 0.990225 0.543696
0.348330 0.990734 0.665986
0.348842 0.991246 0.788923
0.349356 0.991760 0.912405
0.349687 0.992091 0.992091
0.428546 0.005311 0.029306
0.429029 0.005793 0.145174
0.429524 0.006288 0.264092
0.430025 0.006790 0.384539
0.430531 0.007296 0.506031
0.431040 0.007805 0.628321
0.431552 0.008317 0.751257
0.432066 0.008831 0.874739
0.432398 0.009162 0.954426
0.432810 0.112528 0.033570
0.433292 0.113010 0.149437
0.433788 0.113505 0.268355
0.434289 0.114007 0.388802
0.434795 0.114513 0.510294
0.435304 0.115022 0.632584
0.435816 0.115534 0.755521
0.436330 0.116048 0.879002
0.436662 0.116380 0.958689
0.437687 0.235158 0.038447
0.438169 0.235641 0.154314
0.438664 0.236136 0.273232
0.439166 0.236637 0.393679
0.439672 0.237143 0.515171
0.440181 0.237652 0.637461
0.440693 0.238164 0.760398
0.441207 0.238678 0.883879
0.441538 0.239010 0.963566
0.442638 0.359651 0.043397
0.443120 0.360133 0.159265
0.443615 0.360629 0.278183
0.444117 0.361130 0.398630
0.444622 0.361636 0.520122
0.445132 0.362145 0.642412
0.445643 0.362657 0.765349
0.446157 0.363171 0.888830
0.446489 0.363503 0.968517
0.447636 0.485345 0.048396
0.448119 0.485827 0.164263
0.448614 0.486322 0.283181
0.449115 0.486824 0.403628
0.449621 0.487329 0.525120
0.450130 0.487839 0.647410
0.450642 0.488350 0.770347
0.451156 0.488865 0.893829
0.451488 0.489196 0.973515
0.452670 0.611931 0.053430
0.453153 0.612414 0.169297
0.453648 0.612909 0.288215
0.454149 0.613410 0.408662
0.454655 0.613916 0.530155
0.455164 0.614425 0.652445
0.455676 0.614937 0.775381
0.456190 0.615451 0.898863
0.456522 0.615783 0.978549
0.457733 0.739231 0.058492
0.458215 0.739713 0.174360
0.458710 0.740208 0.293278
0.459212 0.740710 0.413725
0.459717 0.741215 0.535217
0.460227 0.741725 0.657507
0.460738 0.742236 0.780444
0.461253 0.742751 0.903925
0.461584 0.743082 0.983612
0.462819 0.867124 0.063578
0.463301 0.867606 0.179446
0.463796 0.868101 0.298364
0.464298 0.868603 0.418811
0.464803 0.869109 0.540303
0.465313 0.869618 0.662593
0.465824 0.870130 0.785530
0.466339 0.870644 0.909011
0.466670 0.870976 0.988698
0.467694 0.989722 0.068454
0.468176 0.990204 0.184321
0.468672 0.990699 0.303239
0.469173 0.991201 0.423686
0.469679 0.991706 0.545178
0.470188 0.992216 0.667468
0.470700 0.992727 0.790405
0.471214 0.993242 0.913886
0.471546 0.993573 0.993573
0.551348 0.006804 0.030799
0.551830 0.007287 0.146667
0.552325 0.007782 0.265585
0.552827 0.008283 0.386032
0.553332 0.008789 0.507524
0.553842 0.009298 0.629814
0.554353 0.009810 0.752751
0.554867 0.010324 0.876232
0.555199 0.010656 0.955919
0.555611 0.114021 0.035063
0.556094 0.114504 0.150931
0.556589 0.114999 0.269849
0.557090 0.115500 0.390296
0.557596 0.116006 0.511788
0.558105 0.116515 0.634078
0.558617 0.117027 0.757015
0.559131 0.117541 0.880496
0.559463 0.117873 0.960183
0.560488 0.236652 0.039940
0.560971 0.237134 0.155807
0.561466 0.237629 0.274725
0.561967 0.238131 0.395172
0.562473 0.238637 0.516665
0.562982 0.239146 0.638955
0.563494 0.239658 0.761891
0.564008 0.240172 0.885373
0.564340 0.240504 0.965060
0.565439 0.361144 0.044891
0.565921 0.361627 0.160758
0.566416 0.362122 0.279676
0.566918 0.362623 0.400123
0.567424 0.363129 0.521615
0.567933 0.363638 0.643905
0.568445 0.364150 0.766842
0.568959 0.364664 0.890323
0.569291 0.364996 0.970010
0.570437 0.486838 0.049889
0.570920 0.487320 0.165757
0.571415 0.487816 0.284675
0.571916 0.488317 0.405122
0.572422 0.488823 0.526614
0.572931 0.489332 0.648904
0.573443 0.489844 0.771841
0.573957 0.490358 0.895322
0.574289 0.490690 0.975009
0.575472 0.613425 0.054923
0.575954 0.613907 0.170791
0.576449 0.614402 0.289709
0.576950 0.614904 0.410156
0.577456 0.615410 0.531648
0.577965 0.615919 0.653938
0.578477 0.616431 0.776875
0.578991 0.616945 0.900356
0.579323 0.617276 0.980043
0.580534 0.740724 0.059986
0.581016 0.741206 0.175853
0.581511 0.741702 0.294771
0.582013 0.742203 0.415218
0.582519 0.742709 0.536710
0.583028 0.743218 0.659000
0.583540 0.743730 0.781937
0.584054 0.744244 0.905418
0.584386 0.744576 0.985105
0.585620 0.868617 0.065072
0.586102 0.869100 0.180939
0.586597 0.869595 0.299857
0.587099 0.870096 0.420304
0.587605 0.870602 0.541796
0.588114 0.871111 0.664086
0.588626 0.871623 0.787023
0.589140 0.872137 0.910504
0.589472 0.872469 0.990191
0.590495 0.991215 0.069947
0.590978 0.991698 0.185815
0.591473 0.992193 0.304733
0.591974 0.992694 0.425180
0.592480 0.993200 0.546672
0.592989 0.993709 0.668962
0.593501 0.994221 0.791899
0.594015 0.994735 0.915380
0.594347 0.995067 0.995067
0.674888 0.008307 0.032302
0.675370 0.008789 0.148169
0.675866 0.009284 0.267087
0.676367 0.009786 0.387534
0.676873 0.010291 0.509026
0.677382 0.010801 0.631316
0.677894 0.011312 0.754253
0.678408 0.011826 0.877734
0.678740 0.012158 0.957421
0.679152 0.115524 0.036566
0.679634 0.116006 0.152433
0.680129 0.116501 0.271351
0.680631 0.117003 0.391798
0.681137 0.117509 0.513290
0.681646 0.118018 0.635580
0.682158 0.118530 0.758517
0.682672 0.119044 0.881998
0.683003 0.119375 0.961685
0.684029 0.238154 0.041442
0.684511 0.238637 0.157310
0.685006 0.239132 0.276228
0.685508 0.239633 0.396675
0.686013 0.240139 0.518167
0.686522 0.240648 0.640457
0.687034 0.241160 0.763394
0.687548 0.241674 0.886875
0.687880 0.242006 0.966562
0.688979 0.362647 0.046393
0.689462 0.363129 0.162261
0.689957 0.363624 0.281179
0.690458 0.364126 0.401626
0.690964 0.364632 0.523118
0.691473 0.365141 0.645408
0.691985 0.365653 0.768345
0.692499 0.366167 0.891826
0.692831 0.366499 0.971513
0.693978 0.488340 0.051392
0.694460 0.488823 0.167259
0.694955 0.489318 0.286177
0.695457 0.489819 0.406624
0.695963 0.490325 0.528116
0.696472 0.490834 0.650406
0.696984 0.491346 0.773343
0.697498 0.491860 0.896824
0.697830 0.492192 0.976511
0.699012 0.614927 0.056426
0.699494 0.615410 0.172293
0.699989 0.615905 0.291211
0.700491 0.616406 0.411658
0.700997 0.616912 0.533150
0.701506 0.617421 0.655440
0.702018 0.617933 0.778377
0.702532 0.618447 0.901858
0.702864 0.618779 0.981545
0.704074 0.742226 0.061488
0.704557 0.742709 0.177356
0.705052 0.743204 0.296274
0.705553 0.743705 0.416721
0.706059 0.744211 0.538213
0.706568 0.744720 0.660503
0.707080 0.745232 0.783440
0.707594 0.745746 0.906921
0.707926 0.746078 0.986608
0.709160 0.870120 0.066574
0.709643 0.870602 0.182442
0.710138 0.871097 0.301360
0.710639 0.871599 0.421807
0.711145 0.872104 0.543299
0.711654 0.872614 0.665589
0.712166 0.873125 0.788526
0.712680 0.873640 0.912007
0.713012 0.873971 0.991694
0.714036 0.992717 0.071450
0.714518 0.993200 0.187317
0.715013 0.993695 0.306235
0.715515 0.994196 0.426682
0.716021 0.994702 0.548174
0.716530 0.995211 0.670464
0.717042 0.995723 0.793401
0.717556 0.996237 0.916882
0.717887 0.996569 0.996569
0.799037 0.009816 0.033812
0.799520 0.010299 0.149679
0.800015 0.010794 0.268597
0.800516 0.011295 0.389044
0.801022 0.011801 0.510536
0.801531 0.012310 0.632826
0.802043 0.012822 0.755763
0.802557 0.013336 0.879244
0.802889 0.013668 0.958931
0.803301 0.117034 0.038075
0.803783 0.117516 0.153943
0.804279 0.118011 0.272861
0.804780 0.118513 0.393308
0.805286 0.119018 0.514800
0.805795 0.119527 0.637090
0.806307 0.120039 0.760027
0.806821 0.120553 0.883508
0.807153 0.120885 0.963195
0.808178 0.239664 0.042952
0.808660 0.240146 0.158820
0.809155 0.240642 0.277738
0.809657 0.241143 0.398185
0.810163 0.241649 0.519677
0.810672 0.242158 0.641967
0.811184 0.242670 0.764904
0.811698 0.243184 0.888385
0.812029 0.243516 0.968072
0.813129 0.364157 0.047903
0.813611 0.364639 0.163770
0.814106 0.365134 0.282688
0.814608 0.365636 0.403135
0.815113 0.366141 0.524628
0.815623 0.366651 0.646918
0.816134 0.367162 0.769854
0.816648 0.367677 0.893336
0.816980 0.368008 0.973022
0.818127 0.489850 0.052901
0.818609 0.490333 0.168769
0.819105 0.490828 0.287687
0.819606 0.491329 0.408134
0.820112 0.491835 0.529626
0.820621 0.492344 0.651916
0.821133 0.492856 0.774853
0.821647 0.493370 0.898334
0.821979 0.493702 0.978021
0.823161 0.616437 0.057936
0.823644 0.616919 0.173803
0.824139 0.617414 0.292721
0.824640 0.617916 0.413168
0.825146 0.618422 0.534660
0.825655 0.618931 0.656950
0.826167 0.619443 0.779887
0.826681 0.619957 0.903368
0.827013 0.620289 0.983055
0.828224 0.743736 0.062998
0.828706 0.744219 0.178865
0.829201 0.744714 0.297783
0.829703 0.745215 0.418230
0.830208 0.745721 0.539723
0.830718 0.746230 0.662013
0.831229 0.746742 0.784949
0.831743 0.747256 0.908431
0.832075 0.747588 0.988118
0.833310 0.871629 0.068084
0.833792 0.872112 0.183951
0.834287 0.872607 0.302869
0.834789 0.873108 0.423316
0.835294 0.873614 0.544809
0.835804 0.874123 0.667099
0.836315 0.874635 0.790035
0.836829 0.875149 0.913517
0.837161 0.875481 0.993204
0.838185 0.994227 0.072959
0.838667 0.994710 0.188827
0.839163 0.995205 0.307745
0.839664 0.995706 0.428192
0.840170 0.996212 0.549684
0.840679 0.996721 0.671974
0.841191 0.997233 0.794911
0.841705 0.997747 0.918392
0.842037 0.998079 0.998079
0.923705 0.011332 0.035328
0.924187 0.011815 0.151195
0.924682 0.012310 0.270113
0.925184 0.012811 0.390560
0.925689 0.013317 0.512052
0.926199 0.013826 0.634342
0.926710 0.014338 0.757279
0.927224 0.014852 0.880760
0.927556 0.015184 0.960447
0.927968 0.118550 0.039592
0.928451 0.119032 0.155459
0.928946 0.119527 0.274377
0.929447 0.120029 0.394824
0.929953 0.120534 0.516316
0.930462 0.121044 0.638606
0.930974 0.121555 0.761543
0.931488 0.122070 0.885024
0.931820 0.122401 0.964711
0.932845 0.241180 0.044468
0.933327 0.241663 0.160336
0.933823 0.242158 0.279254
0.934324 0.242659 0.399701
0.934830 0.243165 0.521193
0.935339 0.243674 0.643483
0.935851 0.244186 0.766420
0.936365 0.244700 0.889901
0.936697 0.245032 0.969588
0.937796 0.365673 0.049419
0.938278 0.366155 0.165287
0.938773 0.366650 0.284205
0.939275 0.367152 0.404652
0.939781 0.367658 0.526144
0.940290 0.368167 0.648434
0.940802 0.368679 0.771370
0.941316 0.369193 0.894852
0.941648 0.369524 0.974539
0.942794 0.491366 0.054418
0.943277 0.491849 0.170285
0.943772 0.492344 0.289203
0.944273 0.492845 0.409650
0.944779 0.493351 0.531142
0.945288 0.493860 0.653432
0.945800 0.494372 0.776369
0.946314 0.494886 0.899850
0.946646 0.495218 0.979537
0.947828 0.617953 0.059452
0.948311 0.618435 0.175319
0.948806 0.618931 0.294237
0.949307 0.619432 0.414684
0.949813 0.619938 0.536176
0.950322 0.620447 0.658466
0.950834 0.620959 0.781403
0.951348 0.621473 0.904884
0.951680 0.621805 0.984571
0.952891 0.745252 0.064514
0.953373 0.745735 0.180382
0.953868 0.746230 0.299300
0.954370 0.746731 0.419747
0.954876 0.747237 0.541239
0.955385 0.747746 0.663529
0.955897 0.748258 0.786465
0.956411 0.748772 0.909947
0.956743 0.749104 0.989634
0.957977 0.873146 0.069600
0.958459 0.873628 0.185468
0.958954 0.874123 0.304386
0.959456 0.874625 0.424833
0.959962 0.875130 0.546325
0.960471 0.875640 0.668615
0.960983 0.876151 0.791552
0.961497 0.876665 0.915033
0.961829 0.876997 0.994720
0.962852 0.995743 0.074476
0.963335 0.996226 0.190343
0.963830 0.996721 0.309261
0.964331 0.997222 0.429708
0.964837 0.997728 0.551200
0.965346 0.998237 0.673490
0.965858 0.998749 0.796427
0.966372 0.999263 0.919908
0.966704 0.999595 0.999595
