skills/creativeops-grade/assets/grade/luts/cool_tech_v16.cube
TITLE "cool_tech_v16"
LUT_3D_SIZE 17
DOMAIN_MIN 0.0 0.0 0.0
DOMAIN_MAX 1.0 1.0 1.0
0.000151 0.000151 0.029103
0.000444 0.000444 0.085626
0.000745 0.000745 0.143501
0.001049 0.001049 0.202170
0.001356 0.001356 0.261406
0.001666 0.001666 0.321086
0.001977 0.001977 0.381133
0.002291 0.002291 0.441490
0.002605 0.002605 0.502118
0.002921 0.002921 0.562987
0.003238 0.003238 0.624071
0.003556 0.003556 0.685351
0.003875 0.003875 0.746810
0.004194 0.004194 0.808434
0.004515 0.004515 0.870212
0.004836 0.004836 0.932134
0.004864 0.004864 0.937496
0.002243 0.042742 0.031195
0.002536 0.043035 0.087718
0.002837 0.043335 0.145594
0.003141 0.043640 0.204262
0.003448 0.043947 0.263498
0.003758 0.044257 0.323179
0.004070 0.044568 0.383225
0.004383 0.044881 0.443582
0.004697 0.045196 0.504211
0.005013 0.045512 0.565079
0.005330 0.045829 0.626163
0.005648 0.046147 0.687443
0.005967 0.046465 0.748902
0.006287 0.046785 0.810526
0.006607 0.047106 0.872304
0.006928 0.047427 0.934226
0.006956 0.047455 0.939588
0.005167 0.102266 0.034119
0.005461 0.102559 0.090642
0.005761 0.102859 0.148518
0.006065 0.103164 0.207186
0.006373 0.103471 0.266422
0.006682 0.103781 0.326103
0.006994 0.104092 0.386149
0.007307 0.104405 0.446507
0.007621 0.104720 0.507135
0.007937 0.105036 0.568003
0.008254 0.105353 0.629087
0.008572 0.105671 0.690367
0.008891 0.105990 0.751826
0.009211 0.106309 0.813450
0.009531 0.106630 0.875229
0.009853 0.106951 0.937150
0.009880 0.106979 0.942512
0.008152 0.163018 0.037104
0.008445 0.163311 0.093627
0.008745 0.163611 0.151502
0.009050 0.163916 0.210170
0.009357 0.164223 0.269407
0.009667 0.164533 0.329087
0.009978 0.164844 0.389134
0.010291 0.165157 0.449491
0.010606 0.165472 0.510119
0.010922 0.165788 0.570988
0.011239 0.166105 0.632072
0.011557 0.166422 0.693351
0.011875 0.166741 0.754810
0.012195 0.167061 0.816435
0.012516 0.167382 0.878213
0.012837 0.167703 0.940134
0.012865 0.167731 0.945496
0.011174 0.224535 0.040126
0.011467 0.224828 0.096649
0.011767 0.225128 0.154524
0.012072 0.225433 0.213192
0.012379 0.225740 0.272429
0.012689 0.226050 0.332109
0.013000 0.226361 0.392156
0.013313 0.226675 0.452513
0.013628 0.226989 0.513141
0.013944 0.227305 0.574010
0.014261 0.227622 0.635094
0.014579 0.227940 0.696373
0.014897 0.228259 0.757832
0.015217 0.228578 0.819457
0.015538 0.228899 0.881235
0.015859 0.229220 0.943156
0.015887 0.229248 0.948518
0.014223 0.286614 0.043175
0.014517 0.286907 0.099698
0.014817 0.287207 0.157574
0.015121 0.287512 0.216242
0.015429 0.287819 0.275478
0.015738 0.288129 0.335159
0.016050 0.288440 0.395205
0.016363 0.288753 0.455562
0.016677 0.289068 0.516191
0.016993 0.289384 0.577059
0.017310 0.289701 0.638143
0.017628 0.290019 0.699423
0.017947 0.290337 0.760882
0.018267 0.290657 0.822506
0.018587 0.290978 0.884284
0.018908 0.291299 0.946206
0.018936 0.291327 0.951568
0.017295 0.349137 0.046247
0.017588 0.349431 0.102770
0.017888 0.349731 0.160645
0.018193 0.350035 0.219313
0.018500 0.350343 0.278550
0.018810 0.350652 0.338230
0.019121 0.350964 0.398277
0.019434 0.351277 0.458634
0.019749 0.351592 0.519262
0.020065 0.351907 0.580131
0.020382 0.352224 0.641215
0.020700 0.352542 0.702494
0.021018 0.352861 0.763953
0.021338 0.353181 0.825578
0.021659 0.353501 0.887356
0.021980 0.353823 0.949277
0.022008 0.353850 0.954639
0.020384 0.412030 0.049336
0.020678 0.412323 0.105859
0.020978 0.412624 0.163735
0.021282 0.412928 0.222403
0.021590 0.413235 0.281639
0.021899 0.413545 0.341320
0.022211 0.413857 0.401366
0.022524 0.414170 0.461724
0.022838 0.414484 0.522352
0.023154 0.414800 0.583220
0.023471 0.415117 0.644304
0.023789 0.415435 0.705584
0.024108 0.415754 0.767043
0.024428 0.416074 0.828667
0.024748 0.416394 0.890446
0.025070 0.416715 0.952367
0.025097 0.416743 0.957729
0.023489 0.475239 0.052441
0.023783 0.475532 0.108964
0.024083 0.475832 0.166840
0.024387 0.476136 0.225508
0.024695 0.476444 0.284744
0.025004 0.476753 0.344425
0.025316 0.477065 0.404471
0.025629 0.477378 0.464829
0.025944 0.477693 0.525457
0.026259 0.478008 0.586325
0.026576 0.478325 0.647409
0.026894 0.478643 0.708689
0.027213 0.478962 0.770148
0.027533 0.479282 0.831773
0.027853 0.479602 0.893551
0.028175 0.479924 0.955472
0.028202 0.479952 0.960834
0.026608 0.538723 0.055560
0.026901 0.539016 0.112083
0.027202 0.539317 0.169959
0.027506 0.539621 0.228627
0.027813 0.539928 0.287863
0.028123 0.540238 0.347544
0.028434 0.540549 0.407590
0.028748 0.540863 0.467947
0.029062 0.541177 0.528576
0.029378 0.541493 0.589444
0.029695 0.541810 0.650528
0.030013 0.542128 0.711808
0.030332 0.542447 0.773267
0.030651 0.542766 0.834891
0.030972 0.543087 0.896669
0.031293 0.543408 0.958591
0.031321 0.543436 0.963953
0.029739 0.602453 0.058691
0.030032 0.602746 0.115214
0.030332 0.603046 0.173089
0.030637 0.603351 0.231757
0.030944 0.603658 0.290994
0.031254 0.603968 0.350674
0.031565 0.604279 0.410720
0.031878 0.604592 0.471078
0.032193 0.604907 0.531706
0.032509 0.605223 0.592575
0.032826 0.605540 0.653659
0.033144 0.605858 0.714938
0.033462 0.606176 0.776397
0.033782 0.606496 0.838022
0.034103 0.606817 0.899800
0.034424 0.607138 0.961721
0.034452 0.607166 0.967083
0.032880 0.666404 0.061832
0.033174 0.666697 0.118355
0.033474 0.666997 0.176231
0.033778 0.667301 0.234899
0.034086 0.667609 0.294135
0.034395 0.667918 0.353816
0.034707 0.668230 0.413862
0.035020 0.668543 0.474219
0.035334 0.668858 0.534848
0.035650 0.669173 0.595716
0.035967 0.669490 0.656800
0.036285 0.669808 0.718080
0.036604 0.670127 0.779539
0.036924 0.670447 0.841163
0.037244 0.670767 0.902941
0.037565 0.671089 0.964863
0.037593 0.671117 0.970225
0.036032 0.730555 0.064984
0.036325 0.730848 0.121507
0.036625 0.731149 0.179382
0.036930 0.731453 0.238050
0.037237 0.731760 0.297287
0.037547 0.732070 0.356967
0.037858 0.732382 0.417013
0.038171 0.732695 0.477371
0.038486 0.733009 0.537999
0.038802 0.733325 0.598868
0.039119 0.733642 0.659952
0.039436 0.733960 0.721231
0.039755 0.734279 0.782690
0.040075 0.734599 0.844315
0.040396 0.734919 0.906093
0.040717 0.735240 0.968014
0.040745 0.735268 0.973376
0.039192 0.794891 0.068144
0.039485 0.795184 0.124667
0.039786 0.795485 0.182543
0.040090 0.795789 0.241211
0.040397 0.796096 0.300447
0.040707 0.796406 0.360128
0.041019 0.796718 0.420174
0.041332 0.797031 0.480531
0.041646 0.797345 0.541160
0.041962 0.797661 0.602028
0.042279 0.797978 0.663112
0.042597 0.798296 0.724392
0.042916 0.798615 0.785851
0.043236 0.798935 0.847475
0.043556 0.799255 0.909253
0.043877 0.799576 0.971175
0.043905 0.799604 0.976537
0.042361 0.859398 0.071313
0.042654 0.859691 0.127836
0.042955 0.859991 0.185711
0.043259 0.860295 0.244380
0.043566 0.860603 0.303616
0.043876 0.860912 0.363296
0.044187 0.861224 0.423343
0.044501 0.861537 0.483700
0.044815 0.861852 0.544328
0.045131 0.862167 0.605197
0.045448 0.862484 0.666281
0.045766 0.862802 0.727561
0.046085 0.863121 0.789020
0.046404 0.863441 0.850644
0.046725 0.863761 0.912422
0.047046 0.864083 0.974344
0.047074 0.864111 0.979706
0.045538 0.924062 0.074490
0.045831 0.924355 0.131012
0.046131 0.924656 0.188888
0.046436 0.924960 0.247556
0.046743 0.925267 0.306792
0.047052 0.925577 0.366473
0.047364 0.925889 0.426519
0.047677 0.926202 0.486877
0.047992 0.926516 0.547505
0.048308 0.926832 0.608373
0.048624 0.927149 0.669457
0.048942 0.927467 0.730737
0.049261 0.927786 0.792196
0.049581 0.928106 0.853821
0.049902 0.928426 0.915599
0.050223 0.928747 0.977520
0.050251 0.928775 0.982882
0.048333 0.980964 0.077285
0.048626 0.981258 0.133808
0.048926 0.981558 0.191683
0.049231 0.981862 0.250352
0.049538 0.982170 0.309588
0.049848 0.982479 0.369268
0.050159 0.982791 0.429315
0.050472 0.983104 0.489672
0.050787 0.983419 0.550300
0.051103 0.983734 0.611169
0.051420 0.984051 0.672253
0.051738 0.984369 0.733532
0.052057 0.984688 0.794992
0.052376 0.985008 0.856616
0.052697 0.985328 0.918394
0.053018 0.985650 0.980316
0.053046 0.985677 0.985677
0.000151 0.000151 0.029103
0.000444 0.000444 0.085626
0.000745 0.000745 0.143501
0.001049 0.001049 0.202170
0.001356 0.001356 0.261406
0.001666 0.001666 0.321086
0.001977 0.001977 0.381133
0.002291 0.002291 0.441490
0.002605 0.002605 0.502118
0.002921 0.002921 0.562987
0.003238 0.003238 0.624071
0.003556 0.003556 0.685351
0.003875 0.003875 0.746810
0.004194 0.004194 0.808434
0.004515 0.004515 0.870212
0.004836 0.004836 0.932134
0.004864 0.004864 0.937496
0.002243 0.042742 0.031195
0.002536 0.043035 0.087718
0.002837 0.043335 0.145594
0.003141 0.043640 0.204262
0.003448 0.043947 0.263498
0.003758 0.044257 0.323179
0.004070 0.044568 0.383225
0.004383 0.044881 0.443582
0.004697 0.045196 0.504211
0.005013 0.045512 0.565079
0.005330 0.045829 0.626163
0.005648 0.046147 0.687443
0.005967 0.046465 0.748902
0.006287 0.046785 0.810526
0.006607 0.047106 0.872304
0.006928 0.047427 0.934226
0.006956 0.047455 0.939588
0.005167 0.102266 0.034119
0.005461 0.102559 0.090642
0.005761 0.102859 0.148518
0.006065 0.103164 0.207186
0.006373 0.103471 0.266422
0.006682 0.103781 0.326103
0.006994 0.104092 0.386149
0.007307 0.104405 0.446507
0.007621 0.104720 0.507135
0.007937 0.105036 0.568003
0.008254 0.105353 0.629087
0.008572 0.105671 0.690367
0.008891 0.105990 0.751826
0.009211 0.106309 0.813450
0.009531 0.106630 0.875229
0.009853 0.106951 0.937150
0.009880 0.106979 0.942512
0.008152 0.163018 0.037104
0.008445 0.163311 0.093627
0.008745 0.163611 0.151502
0.009050 0.163916 0.210170
0.009357 0.164223 0.269407
0.009667 0.164533 0.329087
0.009978 0.164844 0.389134
0.010291 0.165157 0.449491
0.010606 0.165472 0.510119
0.010922 0.165788 0.570988
0.011239 0.166105 0.632072
0.011557 0.166422 0.693351
0.011875 0.166741 0.754810
0.012195 0.167061 0.816435
0.012516 0.167382 0.878213
0.012837 0.167703 0.940134
0.012865 0.167731 0.945496
0.011174 0.224535 0.040126
0.011467 0.224828 0.096649
0.011767 0.225128 0.154524
0.012072 0.225433 0.213192
0.012379 0.225740 0.272429
0.012689 0.226050 0.332109
0.013000 0.226361 0.392156
0.013313 0.226675 0.452513
0.013628 0.226989 0.513141
0.013944 0.227305 0.574010
0.014261 0.227622 0.635094
0.014579 0.227940 0.696373
0.014897 0.228259 0.757832
0.015217 0.228578 0.819457
0.015538 0.228899 0.881235
0.015859 0.229220 0.943156
0.015887 0.229248 0.948518
0.014223 0.286614 0.043175
0.014517 0.286907 0.099698
0.014817 0.287207 0.157574
0.015121 0.287512 0.216242
0.015429 0.287819 0.275478
0.015738 0.288129 0.335159
0.016050 0.288440 0.395205
0.016363 0.288753 0.455562
0.016677 0.289068 0.516191
0.016993 0.289384 0.577059
0.017310 0.289701 0.638143
0.017628 0.290019 0.699423
0.017947 0.290337 0.760882
0.018267 0.290657 0.822506
0.018587 0.290978 0.884284
0.018908 0.291299 0.946206
0.018936 0.291327 0.951568
0.017295 0.349137 0.046247
0.017588 0.349431 0.102770
0.017888 0.349731 0.160645
0.018193 0.350035 0.219313
0.018500 0.350343 0.278550
0.018810 0.350652 0.338230
0.019121 0.350964 0.398277
0.019434 0.351277 0.458634
0.019749 0.351592 0.519262
0.020065 0.351907 0.580131
0.020382 0.352224 0.641215
0.020700 0.352542 0.702494
0.021018 0.352861 0.763953
0.021338 0.353181 0.825578
0.021659 0.353501 0.887356
0.021980 0.353823 0.949277
0.022008 0.353850 0.954639
0.020384 0.412030 0.049336
0.020678 0.412323 0.105859
0.020978 0.412624 0.163735
0.021282 0.412928 0.222403
0.021590 0.413235 0.281639
0.021899 0.413545 0.341320
0.022211 0.413857 0.401366
0.022524 0.414170 0.461724
0.022838 0.414484 0.522352
0.023154 0.414800 0.583220
0.023471 0.415117 0.644304
0.023789 0.415435 0.705584
0.024108 0.415754 0.767043
0.024428 0.416074 0.828667
0.024748 0.416394 0.890446
0.025070 0.416715 0.952367
0.025097 0.416743 0.957729
0.023489 0.475239 0.052441
0.023783 0.475532 0.108964
0.024083 0.475832 0.166840
0.024387 0.476136 0.225508
0.024695 0.476444 0.284744
0.025004 0.476753 0.344425
0.025316 0.477065 0.404471
0.025629 0.477378 0.464829
0.025944 0.477693 0.525457
0.026259 0.478008 0.586325
0.026576 0.478325 0.647409
0.026894 0.478643 0.708689
0.027213 0.478962 0.770148
0.027533 0.479282 0.831773
0.027853 0.479602 0.893551
0.028175 0.479924 0.955472
0.028202 0.479952 0.960834
0.026608 0.538723 0.055560
0.026901 0.539016 0.112083
0.027202 0.539317 0.169959
0.027506 0.539621 0.228627
0.027813 0.539928 0.287863
0.028123 0.540238 0.347544
0.028434 0.540549 0.407590
0.028748 0.540863 0.467947
0.029062 0.541177 0.528576
0.029378 0.541493 0.589444
0.029695 0.541810 0.650528
0.030013 0.542128 0.711808
0.030332 0.542447 0.773267
0.030651 0.542766 0.834891
0.030972 0.543087 0.896669
0.031293 0.543408 0.958591
0.031321 0.543436 0.963953
0.029739 0.602453 0.058691
0.030032 0.602746 0.115214
0.030332 0.603046 0.173089
0.030637 0.603351 0.231757
0.030944 0.603658 0.290994
0.031254 0.603968 0.350674
0.031565 0.604279 0.410720
0.031878 0.604592 0.471078
0.032193 0.604907 0.531706
0.032509 0.605223 0.592575
0.032826 0.605540 0.653659
0.033144 0.605858 0.714938
0.033462 0.606176 0.776397
0.033782 0.606496 0.838022
0.034103 0.606817 0.899800
0.034424 0.607138 0.961721
0.034452 0.607166 0.967083
0.032880 0.666404 0.061832
0.033174 0.666697 0.118355
0.033474 0.666997 0.176231
0.033778 0.667301 0.234899
0.034086 0.667609 0.294135
0.034395 0.667918 0.353816
0.034707 0.668230 0.413862
0.035020 0.668543 0.474219
0.035334 0.668858 0.534848
0.035650 0.669173 0.595716
0.035967 0.669490 0.656800
0.036285 0.669808 0.718080
0.036604 0.670127 0.779539
0.036924 0.670447 0.841163
0.037244 0.670767 0.902941
0.037565 0.671089 0.964863
0.037593 0.671117 0.970225
0.036032 0.730555 0.064984
0.036325 0.730848 0.121507
0.036625 0.731149 0.179382
0.036930 0.731453 0.238050
0.037237 0.731760 0.297287
0.037547 0.732070 0.356967
0.037858 0.732382 0.417013
0.038171 0.732695 0.477371
0.038486 0.733009 0.537999
0.038802 0.733325 0.598868
0.039119 0.733642 0.659952
0.039436 0.733960 0.721231
0.039755 0.734279 0.782690
0.040075 0.734599 0.844315
0.040396 0.734919 0.906093
0.040717 0.735240 0.968014
0.040745 0.735268 0.973376
0.039192 0.794891 0.068144
0.039485 0.795184 0.124667
0.039786 0.795485 0.182543
0.040090 0.795789 0.241211
0.040397 0.796096 0.300447
0.040707 0.796406 0.360128
0.041019 0.796718 0.420174
0.041332 0.797031 0.480531
0.041646 0.797345 0.541160
0.041962 0.797661 0.602028
0.042279 0.797978 0.663112
0.042597 0.798296 0.724392
0.042916 0.798615 0.785851
0.043236 0.798935 0.847475
0.043556 0.799255 0.909253
0.043877 0.799576 0.971175
0.043905 0.799604 0.976537
0.042361 0.859398 0.071313
0.042654 0.859691 0.127836
0.042955 0.859991 0.185711
0.043259 0.860295 0.244380
0.043566 0.860603 0.303616
0.043876 0.860912 0.363296
0.044187 0.861224 0.423343
0.044501 0.861537 0.483700
0.044815 0.861852 0.544328
0.045131 0.862167 0.605197
0.045448 0.862484 0.666281
0.045766 0.862802 0.727561
0.046085 0.863121 0.789020
0.046404 0.863441 0.850644
0.046725 0.863761 0.912422
0.047046 0.864083 0.974344
0.047074 0.864111 0.979706
0.045538 0.924062 0.074490
0.045831 0.924355 0.131012
0.046131 0.924656 0.188888
0.046436 0.924960 0.247556
0.046743 0.925267 0.306792
0.047052 0.925577 0.366473
0.047364 0.925889 0.426519
0.047677 0.926202 0.486877
0.047992 0.926516 0.547505
0.048308 0.926832 0.608373
0.048624 0.927149 0.669457
0.048942 0.927467 0.730737
0.049261 0.927786 0.792196
0.049581 0.928106 0.853821
0.049902 0.928426 0.915599
0.050223 0.928747 0.977520
0.050251 0.928775 0.982882
0.048333 0.980964 0.077285
0.048626 0.981258 0.133808
0.048926 0.981558 0.191683
0.049231 0.981862 0.250352
0.049538 0.982170 0.309588
0.049848 0.982479 0.369268
0.050159 0.982791 0.429315
0.050472 0.983104 0.489672
0.050787 0.983419 0.550300
0.051103 0.983734 0.611169
0.051420 0.984051 0.672253
0.051738 0.984369 0.733532
0.052057 0.984688 0.794992
0.052376 0.985008 0.856616
0.052697 0.985328 0.918394
0.053018 0.985650 0.980316
0.053046 0.985677 0.985677
0.053107 0.000952 0.029904
0.053400 0.001245 0.086427
0.053700 0.001545 0.144302
0.054005 0.001850 0.202971
0.054312 0.002157 0.262207
0.054622 0.002467 0.321887
0.054933 0.002778 0.381934
0.055246 0.003092 0.442291
0.055561 0.003406 0.502919
0.055877 0.003722 0.563788
0.056194 0.004039 0.624872
0.056511 0.004357 0.686152
0.056830 0.004676 0.747611
0.057150 0.004995 0.809235
0.057471 0.005316 0.871013
0.057792 0.005637 0.932935
0.057820 0.005665 0.938297
0.055199 0.043543 0.031996
0.055492 0.043836 0.088519
0.055792 0.044136 0.146395
0.056097 0.044441 0.205063
0.056404 0.044748 0.264299
0.056714 0.045058 0.323980
0.057025 0.045369 0.384026
0.057339 0.045682 0.444383
0.057653 0.045997 0.505012
0.057969 0.046313 0.565880
0.058286 0.046630 0.626964
0.058604 0.046948 0.688244
0.058923 0.047266 0.749703
0.059242 0.047586 0.811327
0.059563 0.047907 0.873105
0.059884 0.048228 0.935027
0.059912 0.048256 0.940389
0.058123 0.103067 0.034920
0.058416 0.103360 0.091443
0.058717 0.103660 0.149319
0.059021 0.103965 0.207987
0.059328 0.104272 0.267223
0.059638 0.104582 0.326904
0.059949 0.104893 0.386950
0.060263 0.105206 0.447307
0.060577 0.105521 0.507936
0.060893 0.105837 0.568804
0.061210 0.106154 0.629888
0.061528 0.106472 0.691168
0.061847 0.106790 0.752627
0.062166 0.107110 0.814251
0.062487 0.107431 0.876029
0.062808 0.107752 0.937951
0.062836 0.107780 0.943313
0.061107 0.163819 0.037905
0.061401 0.164112 0.094428
0.061701 0.164412 0.152303
0.062005 0.164717 0.210971
0.062313 0.165024 0.270208
0.062622 0.165334 0.329888
0.062934 0.165645 0.389934
0.063247 0.165958 0.450292
0.063562 0.166273 0.510920
0.063877 0.166589 0.571789
0.064194 0.166905 0.632873
0.064512 0.167223 0.694152
0.064831 0.167542 0.755611
0.065151 0.167862 0.817236
0.065471 0.168183 0.879014
0.065793 0.168504 0.940935
0.065820 0.168532 0.946297
0.064129 0.225336 0.040927
0.064423 0.225629 0.097450
0.064723 0.225929 0.155325
0.065027 0.226234 0.213993
0.065335 0.226541 0.273230
0.065644 0.226851 0.332910
0.065956 0.227162 0.392956
0.066269 0.227475 0.453314
0.066584 0.227790 0.513942
0.066899 0.228106 0.574811
0.067216 0.228423 0.635895
0.067534 0.228741 0.697174
0.067853 0.229060 0.758633
0.068173 0.229379 0.820258
0.068493 0.229700 0.882036
0.068815 0.230021 0.943957
0.068842 0.230049 0.949319
0.067179 0.287415 0.043976
0.067472 0.287708 0.100499
0.067773 0.288008 0.158375
0.068077 0.288313 0.217043
0.068384 0.288620 0.276279
0.068694 0.288930 0.335960
0.069005 0.289241 0.396006
0.069319 0.289554 0.456363
0.069633 0.289869 0.516992
0.069949 0.290185 0.577860
0.070266 0.290502 0.638944
0.070584 0.290819 0.700224
0.070903 0.291138 0.761683
0.071222 0.291458 0.823307
0.071543 0.291779 0.885085
0.071864 0.292100 0.947007
0.071892 0.292128 0.952369
0.070250 0.349938 0.047048
0.070544 0.350232 0.103571
0.070844 0.350532 0.161446
0.071148 0.350836 0.220114
0.071456 0.351144 0.279351
0.071765 0.351453 0.339031
0.072077 0.351765 0.399077
0.072390 0.352078 0.459435
0.072705 0.352392 0.520063
0.073020 0.352708 0.580932
0.073337 0.353025 0.642016
0.073655 0.353343 0.703295
0.073974 0.353662 0.764754
0.074294 0.353982 0.826379
0.074614 0.354302 0.888157
0.074936 0.354624 0.950078
0.074963 0.354651 0.955440
0.073340 0.412831 0.050137
0.073633 0.413124 0.106660
0.073934 0.413425 0.164536
0.074238 0.413729 0.223204
0.074545 0.414036 0.282440
0.074855 0.414346 0.342121
0.075166 0.414657 0.402167
0.075480 0.414971 0.462524
0.075794 0.415285 0.523153
0.076110 0.415601 0.584021
0.076427 0.415918 0.645105
0.076745 0.416236 0.706385
0.077064 0.416555 0.767844
0.077383 0.416874 0.829468
0.077704 0.417195 0.891246
0.078025 0.417516 0.953168
0.078053 0.417544 0.958530
0.076445 0.476040 0.053242
0.076738 0.476333 0.109765
0.077039 0.476633 0.167641
0.077343 0.476937 0.226309
0.077650 0.477245 0.285545
0.077960 0.477554 0.345226
0.078272 0.477866 0.405272
0.078585 0.478179 0.465630
0.078899 0.478494 0.526258
0.079215 0.478809 0.587126
0.079532 0.479126 0.648210
0.079850 0.479444 0.709490
0.080169 0.479763 0.770949
0.080488 0.480083 0.832573
0.080809 0.480403 0.894352
0.081130 0.480725 0.956273
0.081158 0.480753 0.961635
0.079564 0.539524 0.056361
0.079857 0.539817 0.112884
0.080157 0.540117 0.170759
0.080462 0.540422 0.229428
0.080769 0.540729 0.288664
0.081079 0.541039 0.348344
0.081390 0.541350 0.408391
0.081703 0.541664 0.468748
0.082018 0.541978 0.529376
0.082334 0.542294 0.590245
0.082651 0.542611 0.651329
0.082969 0.542929 0.712609
0.083287 0.543248 0.774068
0.083607 0.543567 0.835692
0.083928 0.543888 0.897470
0.084249 0.544209 0.959392
0.084277 0.544237 0.964754
0.082694 0.603254 0.059492
0.082988 0.603547 0.116015
0.083288 0.603847 0.173890
0.083592 0.604152 0.232558
0.083900 0.604459 0.291795
0.084209 0.604769 0.351475
0.084521 0.605080 0.411521
0.084834 0.605393 0.471879
0.085149 0.605708 0.532507
0.085464 0.606024 0.593376
0.085781 0.606341 0.654460
0.086099 0.606659 0.715739
0.086418 0.606977 0.777198
0.086738 0.607297 0.838823
0.087058 0.607618 0.900601
0.087380 0.607939 0.962522
0.087407 0.607967 0.967884
0.085836 0.667204 0.062633
0.086129 0.667498 0.119156
0.086429 0.667798 0.177032
0.086734 0.668102 0.235700
0.087041 0.668410 0.294936
0.087351 0.668719 0.354617
0.087662 0.669031 0.414663
0.087976 0.669344 0.475020
0.088290 0.669659 0.535649
0.088606 0.669974 0.596517
0.088923 0.670291 0.657601
0.089241 0.670609 0.718881
0.089560 0.670928 0.780340
0.089879 0.671248 0.841964
0.090200 0.671568 0.903742
0.090521 0.671890 0.965664
0.090549 0.671917 0.971026
0.088987 0.731356 0.065785
0.089281 0.731649 0.122308
0.089581 0.731950 0.180183
0.089885 0.732254 0.238851
0.090193 0.732561 0.298088
0.090502 0.732871 0.357768
0.090814 0.733183 0.417814
0.091127 0.733496 0.478172
0.091442 0.733810 0.538800
0.091757 0.734126 0.599668
0.092074 0.734443 0.660752
0.092392 0.734761 0.722032
0.092711 0.735080 0.783491
0.093031 0.735399 0.845116
0.093351 0.735720 0.906894
0.093673 0.736041 0.968815
0.093700 0.736069 0.974177
0.092148 0.795692 0.068945
0.092441 0.795985 0.125468
0.092741 0.796286 0.183344
0.093046 0.796590 0.242012
0.093353 0.796897 0.301248
0.093663 0.797207 0.360929
0.093974 0.797519 0.420975
0.094287 0.797832 0.481332
0.094602 0.798146 0.541961
0.094918 0.798462 0.602829
0.095235 0.798779 0.663913
0.095553 0.799097 0.725193
0.095872 0.799416 0.786652
0.096191 0.799735 0.848276
0.096512 0.800056 0.910054
0.096833 0.800377 0.971976
0.096861 0.800405 0.977338
0.095317 0.860198 0.072114
0.095610 0.860492 0.128637
0.095910 0.860792 0.186512
0.096215 0.861096 0.245181
0.096522 0.861404 0.304417
0.096832 0.861713 0.364097
0.097143 0.862025 0.424144
0.097456 0.862338 0.484501
0.097771 0.862653 0.545129
0.098087 0.862968 0.605998
0.098404 0.863285 0.667082
0.098721 0.863603 0.728362
0.099040 0.863922 0.789821
0.099360 0.864242 0.851445
0.099681 0.864562 0.913223
0.100002 0.864884 0.975145
0.100030 0.864911 0.980507
0.098493 0.924863 0.075291
0.098787 0.925156 0.131813
0.099087 0.925457 0.189689
0.099391 0.925761 0.248357
0.099699 0.926068 0.307593
0.100008 0.926378 0.367274
0.100320 0.926690 0.427320
0.100633 0.927003 0.487678
0.100947 0.927317 0.548306
0.101263 0.927633 0.609174
0.101580 0.927950 0.670258
0.101898 0.928268 0.731538
0.102217 0.928587 0.792997
0.102537 0.928907 0.854622
0.102857 0.929227 0.916400
0.103178 0.929548 0.978321
0.103206 0.929576 0.983683
0.101289 0.981765 0.078086
0.101582 0.982059 0.134609
0.101882 0.982359 0.192484
0.102186 0.982663 0.251153
0.102494 0.982971 0.310389
0.102803 0.983280 0.370069
0.103115 0.983592 0.430116
0.103428 0.983905 0.490473
0.103743 0.984220 0.551101
0.104059 0.984535 0.611970
0.104375 0.984852 0.673054
0.104693 0.985170 0.734333
0.105012 0.985489 0.795792
0.105332 0.985809 0.857417
0.105652 0.986129 0.919195
0.105974 0.986451 0.981116
0.106002 0.986478 0.986478
0.110889 0.001826 0.030778
0.111183 0.002119 0.087301
0.111483 0.002419 0.145176
0.111787 0.002724 0.203845
0.112095 0.003031 0.263081
0.112404 0.003341 0.322761
0.112716 0.003652 0.382808
0.113029 0.003965 0.443165
0.113343 0.004280 0.503793
0.113659 0.004596 0.564662
0.113976 0.004913 0.625746
0.114294 0.005231 0.687025
0.114613 0.005550 0.748485
0.114933 0.005869 0.810109
0.115253 0.006190 0.871887
0.115574 0.006511 0.933809
0.115602 0.006539 0.939170
0.112982 0.044417 0.032870
