skills/creativeops-grade/assets/grade/luts/cool_tech_v16.cube
TITLE "cool_tech_v16"
LUT_3D_SIZE 9
DOMAIN_MIN 0.0 0.0 0.0
DOMAIN_MAX 1.0 1.0 1.0
0.000151 0.000151 0.029103
0.000745 0.000745 0.143501
0.001356 0.001356 0.261406
0.001977 0.001977 0.381133
0.002605 0.002605 0.502118
0.003238 0.003238 0.624071
0.003875 0.003875 0.746810
0.004515 0.004515 0.870212
0.004864 0.004864 0.937496
0.005167 0.102266 0.034119
0.005761 0.102859 0.148518
0.006373 0.103471 0.266422
0.006994 0.104092 0.386149
0.007621 0.104720 0.507135
0.008254 0.105353 0.629087
0.008891 0.105990 0.751826
0.009531 0.106630 0.875229
0.009880 0.106979 0.942512
0.011174 0.224535 0.040126
0.011767 0.225128 0.154524
0.012379 0.225740 0.272429
0.013000 0.226361 0.392156
0.013628 0.226989 0.513141
0.014261 0.227622 0.635094
0.014897 0.228259 0.757832
0.015538 0.228899 0.881235
0.015887 0.229248 0.948518
0.017295 0.349137 0.046247
0.017888 0.349731 0.160645
0.018500 0.350343 0.278550
0.019121 0.350964 0.398277
0.019749 0.351592 0.519262
0.020382 0.352224 0.641215
0.021018 0.352861 0.763953
0.021659 0.353501 0.887356
0.022008 0.353850 0.954639
0.023489 0.475239 0.052441
0.024083 0.475832 0.166840
0.024695 0.476444 0.284744
0.025316 0.477065 0.404471
0.025944 0.477693 0.525457
0.026576 0.478325 0.647409
0.027213 0.478962 0.770148
0.027853 0.479602 0.893551
0.028202 0.479952 0.960834
0.029739 0.602453 0.058691
0.030332 0.603046 0.173089
0.030944 0.603658 0.290994
0.031565 0.604279 0.410720
0.032193 0.604907 0.531706
0.032826 0.605540 0.653659
0.033462 0.606176 0.776397
0.034103 0.606817 0.899800
0.034452 0.607166 0.967083
0.036032 0.730555 0.064984
0.036625 0.731149 0.179382
0.037237 0.731760 0.297287
0.037858 0.732382 0.417013
0.038486 0.733009 0.537999
0.039119 0.733642 0.659952
0.039755 0.734279 0.782690
0.040396 0.734919 0.906093
0.040745 0.735268 0.973376
0.042361 0.859398 0.071313
0.042955 0.859991 0.185711
0.043566 0.860603 0.303616
0.044187 0.861224 0.423343
0.044815 0.861852 0.544328
0.045448 0.862484 0.666281
0.046085 0.863121 0.789020
0.046725 0.863761 0.912422
0.047074 0.864111 0.979706
0.048333 0.980964 0.077285
0.048926 0.981558 0.191683
0.049538 0.982170 0.309588
0.050159 0.982791 0.429315
0.050787 0.983419 0.550300
0.051420 0.984051 0.672253
0.052057 0.984688 0.794992
0.052697 0.985328 0.918394
0.053046 0.985677 0.985677
0.053107 0.000952 0.029904
0.053700 0.001545 0.144302
0.054312 0.002157 0.262207
0.054933 0.002778 0.381934
0.055561 0.003406 0.502919
0.056194 0.004039 0.624872
0.056830 0.004676 0.747611
0.057471 0.005316 0.871013
0.057820 0.005665 0.938297
0.058123 0.103067 0.034920
0.058717 0.103660 0.149319
0.059328 0.104272 0.267223
0.059949 0.104893 0.386950
0.060577 0.105521 0.507936
0.061210 0.106154 0.629888
0.061847 0.106790 0.752627
0.062487 0.107431 0.876029
0.062836 0.107780 0.943313
0.064129 0.225336 0.040927
0.064723 0.225929 0.155325
0.065335 0.226541 0.273230
0.065956 0.227162 0.392956
0.066584 0.227790 0.513942
0.067216 0.228423 0.635895
0.067853 0.229060 0.758633
0.068493 0.229700 0.882036
0.068842 0.230049 0.949319
0.070250 0.349938 0.047048
0.070844 0.350532 0.161446
0.071456 0.351144 0.279351
0.072077 0.351765 0.399077
0.072705 0.352392 0.520063
0.073337 0.353025 0.642016
0.073974 0.353662 0.764754
0.074614 0.354302 0.888157
0.074963 0.354651 0.955440
0.076445 0.476040 0.053242
0.077039 0.476633 0.167641
0.077650 0.477245 0.285545
0.078272 0.477866 0.405272
0.078899 0.478494 0.526258
0.079532 0.479126 0.648210
0.080169 0.479763 0.770949
0.080809 0.480403 0.894352
0.081158 0.480753 0.961635
0.082694 0.603254 0.059492
0.083288 0.603847 0.173890
0.083900 0.604459 0.291795
0.084521 0.605080 0.411521
0.085149 0.605708 0.532507
0.085781 0.606341 0.654460
0.086418 0.606977 0.777198
0.087058 0.607618 0.900601
0.087407 0.607967 0.967884
0.088987 0.731356 0.065785
0.089581 0.731950 0.180183
0.090193 0.732561 0.298088
0.090814 0.733183 0.417814
0.091442 0.733810 0.538800
0.092074 0.734443 0.660752
0.092711 0.735080 0.783491
0.093351 0.735720 0.906894
0.093700 0.736069 0.974177
0.095317 0.860198 0.072114
0.095910 0.860792 0.186512
0.096522 0.861404 0.304417
0.097143 0.862025 0.424144
0.097771 0.862653 0.545129
0.098404 0.863285 0.667082
0.099040 0.863922 0.789821
0.099681 0.864562 0.913223
0.100030 0.864911 0.980507
0.101289 0.981765 0.078086
0.101882 0.982359 0.192484
0.102494 0.982971 0.310389
0.103115 0.983592 0.430116
0.103743 0.984220 0.551101
0.104375 0.984852 0.673054
0.105012 0.985489 0.795792
0.105652 0.986129 0.919195
0.106002 0.986478 0.986478
0.169722 0.002716 0.031668
0.170315 0.003309 0.146066
0.170927 0.003921 0.263971
0.171548 0.004542 0.383697
0.172176 0.005170 0.504683
0.172808 0.005803 0.626636
0.173445 0.006439 0.749374
0.174086 0.007080 0.872777
0.174435 0.007429 0.940060
0.174738 0.104831 0.036684
0.175331 0.105424 0.151083
0.175943 0.106036 0.268987
0.176564 0.106657 0.388714
0.177192 0.107285 0.509700
0.177825 0.107917 0.631652
0.178462 0.108554 0.754391
0.179102 0.109194 0.877793
0.179451 0.109544 0.945077
0.180744 0.227100 0.042690
0.181338 0.227693 0.157089
0.181950 0.228305 0.274993
0.182571 0.228926 0.394720
0.183198 0.229554 0.515706
0.183831 0.230187 0.637658
0.184468 0.230823 0.760397
0.185108 0.231464 0.883800
0.185457 0.231813 0.951083
0.186865 0.351702 0.048812
0.187459 0.352296 0.163210
0.188071 0.352907 0.281114
0.188692 0.353529 0.400841
0.189320 0.354156 0.521827
0.189952 0.354789 0.643779
0.190589 0.355426 0.766518
0.191229 0.356066 0.889921
0.191578 0.356415 0.957204
0.193060 0.477803 0.055006
0.193654 0.478397 0.169405
0.194265 0.479009 0.287309
0.194886 0.479630 0.407036
0.195514 0.480257 0.528022
0.196147 0.480890 0.649974
0.196784 0.481527 0.772713
0.197424 0.482167 0.896115
0.197773 0.482516 0.963399
0.199309 0.605018 0.061255
0.199903 0.605611 0.175654
0.200515 0.606223 0.293558
0.201136 0.606844 0.413285
0.201763 0.607472 0.534271
0.202396 0.608104 0.656223
0.203033 0.608741 0.778962
0.203673 0.609381 0.902365
0.204022 0.609731 0.969648
0.205602 0.733120 0.067548
0.206196 0.733713 0.181947
0.206808 0.734325 0.299851
0.207429 0.734946 0.419578
0.208056 0.735574 0.540564
0.208689 0.736207 0.662516
0.209326 0.736844 0.785255
0.209966 0.737484 0.908658
0.210315 0.737833 0.975941
0.211932 0.861962 0.073878
0.212525 0.862556 0.188276
0.213137 0.863167 0.306181
0.213758 0.863789 0.425907
0.214386 0.864416 0.546893
0.215018 0.865049 0.668846
0.215655 0.865686 0.791584
0.216296 0.866326 0.914987
0.216645 0.866675 0.982270
0.217904 0.983529 0.079850
0.218497 0.984123 0.194248
0.219109 0.984734 0.312153
0.219730 0.985356 0.431879
0.220358 0.985983 0.552865
0.220990 0.986616 0.674817
0.221627 0.987253 0.797556
0.222267 0.987893 0.920959
0.222617 0.988242 0.988242
0.289273 0.004524 0.033476
0.289867 0.005117 0.147874
0.290479 0.005729 0.265779
0.291100 0.006350 0.385506
0.291727 0.006978 0.506491
0.292360 0.007611 0.628444
0.292997 0.008248 0.751183
0.293637 0.008888 0.874585
0.293986 0.009237 0.941869
0.294290 0.106639 0.038492
0.294883 0.107232 0.152891
0.295495 0.107844 0.270795
0.296116 0.108465 0.390522
0.296744 0.109093 0.511508
0.297377 0.109726 0.633460
0.298013 0.110362 0.756199
0.298654 0.111003 0.879601
0.299003 0.111352 0.946885
0.300296 0.228908 0.044499
0.300890 0.229501 0.158897
0.301501 0.230113 0.276802
0.302123 0.230734 0.396528
0.302750 0.231362 0.517514
0.303383 0.231995 0.639467
0.304020 0.232632 0.762205
0.304660 0.233272 0.885608
0.305009 0.233621 0.952891
0.306417 0.353510 0.050620
0.307011 0.354104 0.165018
0.307622 0.354716 0.282923
0.308244 0.355337 0.402649
0.308871 0.355964 0.523635
0.309504 0.356597 0.645588
0.310141 0.357234 0.768326
0.310781 0.357874 0.891729
0.311130 0.358223 0.959012
0.312612 0.479611 0.056814
0.313205 0.480205 0.171213
0.313817 0.480817 0.289117
0.314438 0.481438 0.408844
0.315066 0.482066 0.529830
0.315699 0.482698 0.651782
0.316335 0.483335 0.774521
0.316976 0.483975 0.897924
0.317325 0.484324 0.965207
0.318861 0.606826 0.063064
0.319455 0.607419 0.177462
0.320066 0.608031 0.295367
0.320688 0.608652 0.415093
0.321315 0.609280 0.536079
0.321948 0.609913 0.658032
0.322585 0.610549 0.780770
0.323225 0.611190 0.904173
0.323574 0.611539 0.971456
0.325154 0.734928 0.069357
0.325748 0.735522 0.183755
0.326359 0.736133 0.301660
0.326980 0.736755 0.421386
0.327608 0.737382 0.542372
0.328241 0.738015 0.664324
0.328878 0.738652 0.787063
0.329518 0.739292 0.910466
0.329867 0.739641 0.977749
0.331483 0.863770 0.075686
0.332077 0.864364 0.190084
0.332689 0.864976 0.307989
0.333310 0.865597 0.427716
0.333937 0.866225 0.548701
0.334570 0.866857 0.670654
0.335207 0.867494 0.793393
0.335847 0.868134 0.916795
0.336196 0.868483 0.984078
0.337455 0.985337 0.081658
0.338049 0.985931 0.196056
0.338660 0.986543 0.313961
0.339282 0.987164 0.433688
0.339909 0.987792 0.554673
0.340542 0.988424 0.676626
0.341179 0.989061 0.799364
0.341819 0.989701 0.922767
0.342168 0.990050 0.990050
0.410507 0.006358 0.035310
0.411100 0.006951 0.149708
0.411712 0.007563 0.267612
0.412333 0.008184 0.387339
0.412961 0.008812 0.508325
0.413594 0.009444 0.630277
0.414230 0.010081 0.753016
0.414871 0.010721 0.876419
0.415220 0.011071 0.943702
0.415523 0.108472 0.040326
0.416117 0.109066 0.154724
0.416728 0.109678 0.272629
0.417350 0.110299 0.392356
0.417977 0.110927 0.513341
0.418610 0.111559 0.635294
0.419247 0.112196 0.758033
0.419887 0.112836 0.881435
0.420236 0.113185 0.948718
0.421530 0.230742 0.046332
0.422123 0.231335 0.160731
0.422735 0.231947 0.278635
0.423356 0.232568 0.398362
0.423984 0.233196 0.519348
0.424616 0.233828 0.641300
0.425253 0.234465 0.764039
0.425893 0.235105 0.887441
0.426243 0.235455 0.954725
0.427651 0.355344 0.052453
0.428244 0.355937 0.166852
0.428856 0.356549 0.284756
0.429477 0.357170 0.404483
0.430105 0.357798 0.525469
0.430737 0.358431 0.647421
0.431374 0.359068 0.770160
0.432014 0.359708 0.893563
0.432364 0.360057 0.960846
0.433845 0.481445 0.058648
0.434439 0.482039 0.173046
0.435050 0.482650 0.290951
0.435672 0.483272 0.410678
0.436299 0.483899 0.531663
0.436932 0.484532 0.653616
0.437569 0.485169 0.776355
0.438209 0.485809 0.899757
0.438558 0.486158 0.967041
0.440095 0.608659 0.064897
0.440688 0.609253 0.179296
0.441300 0.609865 0.297200
0.441921 0.610486 0.416927
0.442549 0.611114 0.537913
0.443181 0.611746 0.659865
0.443818 0.612383 0.782604
0.444458 0.613023 0.906006
0.444808 0.613372 0.973290
0.446387 0.736762 0.071190
0.446981 0.737355 0.185589
0.447593 0.737967 0.303493
0.448214 0.738588 0.423220
0.448842 0.739216 0.544206
0.449474 0.739849 0.666158
0.450111 0.740485 0.788897
0.450751 0.741126 0.912299
0.451100 0.741475 0.979583
0.452717 0.865604 0.077520
0.453310 0.866198 0.191918
0.453922 0.866809 0.309822
0.454543 0.867431 0.429549
0.455171 0.868058 0.550535
0.455804 0.868691 0.672487
0.456440 0.869328 0.795226
0.457081 0.869968 0.918629
0.457430 0.870317 0.985912
0.458689 0.987171 0.083491
0.459282 0.987765 0.197890
0.459894 0.988376 0.315794
0.460515 0.988997 0.435521
0.461143 0.989625 0.556507
0.461776 0.990258 0.678459
0.462412 0.990895 0.801198
0.463053 0.991535 0.924601
0.463402 0.991884 0.991884
0.532936 0.008209 0.037161
0.533530 0.008803 0.151560
0.534141 0.009415 0.269464
0.534762 0.010036 0.389191
0.535390 0.010663 0.510177
0.536023 0.011296 0.632129
0.536660 0.011933 0.754868
0.537300 0.012573 0.878270
0.537649 0.012922 0.945554
0.537952 0.110324 0.042178
0.538546 0.110918 0.156576
0.539158 0.111529 0.274481
0.539779 0.112151 0.394207
0.540406 0.112778 0.515193
0.541039 0.113411 0.637145
0.541676 0.114048 0.759884
0.542316 0.114688 0.883287
0.542665 0.115037 0.950570
0.543959 0.232593 0.048184
0.544552 0.233187 0.162583
0.545164 0.233798 0.280487
0.545785 0.234420 0.400214
0.546413 0.235047 0.521200
0.547046 0.235680 0.643152
0.547682 0.236317 0.765891
0.548323 0.236957 0.889293
0.548672 0.237306 0.956577
0.550080 0.357196 0.054305
0.550673 0.357789 0.168704
0.551285 0.358401 0.286608
0.551906 0.359022 0.406335
0.552534 0.359650 0.527321
0.553167 0.360283 0.649273
0.553803 0.360919 0.772012
0.554444 0.361560 0.895414
0.554793 0.361909 0.962698
0.556274 0.483297 0.060500
0.556868 0.483890 0.174898
0.557480 0.484502 0.292803
0.558101 0.485123 0.412529
0.558729 0.485751 0.533515
0.559361 0.486384 0.655468
0.559998 0.487021 0.778206
0.560638 0.487661 0.901609
0.560987 0.488010 0.968892
0.562524 0.610511 0.066749
0.563117 0.611105 0.181148
0.563729 0.611716 0.299052
0.564350 0.612338 0.418779
0.564978 0.612965 0.539765
0.565611 0.613598 0.661717
0.566247 0.614235 0.784456
0.566888 0.614875 0.907858
0.567237 0.615224 0.975142
0.568817 0.738613 0.073042
0.569410 0.739207 0.187440
0.570022 0.739819 0.305345
0.570643 0.740440 0.425072
0.571271 0.741068 0.546057
0.571904 0.741700 0.668010
0.572540 0.742337 0.790749
0.573181 0.742977 0.914151
0.573530 0.743326 0.981435
0.575146 0.867456 0.079371
0.575740 0.868049 0.193770
0.576351 0.868661 0.311674
0.576972 0.869282 0.431401
0.577600 0.869910 0.552387
0.578233 0.870543 0.674339
0.578870 0.871179 0.797078
0.579510 0.871820 0.920480
0.579859 0.872169 0.987764
0.581118 0.989023 0.085343
0.581711 0.989616 0.199742
0.582323 0.990228 0.317646
0.582944 0.990849 0.437373
0.583572 0.991477 0.558359
0.584205 0.992110 0.680311
0.584842 0.992746 0.803050
0.585482 0.993387 0.926452
0.585831 0.993736 0.993736
0.656297 0.010075 0.039027
0.656890 0.010669 0.153426
0.657502 0.011280 0.271330
0.658123 0.011902 0.391057
0.658751 0.012529 0.512043
0.659384 0.013162 0.633995
0.660021 0.013799 0.756734
0.660661 0.014439 0.880136
0.661010 0.014788 0.947420
0.661313 0.112190 0.044043
0.661907 0.112783 0.158442
0.662518 0.113395 0.276346
0.663140 0.114016 0.396073
0.663767 0.114644 0.517059
0.664400 0.115277 0.639011
0.665037 0.115914 0.761750
0.665677 0.116554 0.885153
0.666026 0.116903 0.952436
0.667320 0.234459 0.050050
0.667913 0.235053 0.164448
0.668525 0.235664 0.282353
0.669146 0.236285 0.402080
0.669774 0.236913 0.523065
0.670406 0.237546 0.645018
0.671043 0.238183 0.767756
0.671684 0.238823 0.891159
0.672033 0.239172 0.958442
0.673441 0.359061 0.056171
0.674034 0.359655 0.170569
0.674646 0.360267 0.288474
0.675267 0.360888 0.408201
0.675895 0.361516 0.529186
0.676527 0.362148 0.651139
0.677164 0.362785 0.773877
0.677805 0.363425 0.897280
0.678154 0.363774 0.964563
0.679635 0.485163 0.062366
0.680229 0.485756 0.176764
0.680841 0.486368 0.294668
0.681462 0.486989 0.414395
0.682089 0.487617 0.535381
0.682722 0.488250 0.657333
0.683359 0.488886 0.780072
0.683999 0.489527 0.903475
0.684348 0.489876 0.970758
0.685885 0.612377 0.068615
0.686478 0.612970 0.183013
0.687090 0.613582 0.300918
0.687711 0.614203 0.420645
0.688339 0.614831 0.541630
0.688971 0.615464 0.663583
0.689608 0.616101 0.786321
0.690249 0.616741 0.909724
0.690598 0.617090 0.977007
0.692178 0.740479 0.074908
0.692771 0.741073 0.189306
0.693383 0.741685 0.307211
0.694004 0.742306 0.426938
0.694632 0.742933 0.547923
0.695264 0.743566 0.669876
0.695901 0.744203 0.792614
0.696541 0.744843 0.916017
0.696891 0.745192 0.983300
0.698507 0.869322 0.081237
0.699100 0.869915 0.195636
0.699712 0.870527 0.313540
0.700333 0.871148 0.433267
0.700961 0.871776 0.554253
0.701594 0.872408 0.676205
0.702231 0.873045 0.798944
0.702871 0.873686 0.922346
0.703220 0.874035 0.989630
0.704479 0.990889 0.087209
0.705072 0.991482 0.201607
0.705684 0.992094 0.319512
0.706305 0.992715 0.439239
0.706933 0.993343 0.560224
0.707566 0.993975 0.682177
0.708202 0.994612 0.804916
0.708843 0.995252 0.928318
0.709192 0.995602 0.995602
0.780423 0.011952 0.040905
0.781016 0.012546 0.155303
0.781628 0.013158 0.273207
0.782249 0.013779 0.392934
0.782877 0.014407 0.513920
0.783509 0.015039 0.635872
0.784146 0.015676 0.758611
0.784786 0.016316 0.882014
0.785136 0.016665 0.949297
0.785439 0.114067 0.045921
0.786032 0.114661 0.160319
0.786644 0.115273 0.278224
0.787265 0.115894 0.397951
0.787893 0.116521 0.518936
0.788526 0.117154 0.640889
0.789163 0.117791 0.763627
0.789803 0.118431 0.887030
0.790152 0.118780 0.954313
0.791445 0.236336 0.051927
0.792039 0.236930 0.166326
0.792651 0.237542 0.284230
0.793272 0.238163 0.403957
0.793899 0.238791 0.524943
0.794532 0.239423 0.646895
0.795169 0.240060 0.769634
0.795809 0.240700 0.893036
0.796158 0.241049 0.960320
0.797566 0.360939 0.058048
0.798160 0.361532 0.172447
0.798772 0.362144 0.290351
0.799393 0.362765 0.410078
0.800020 0.363393 0.531064
0.800653 0.364026 0.653016
0.801290 0.364663 0.775755
0.801930 0.365303 0.899157
0.802279 0.365652 0.966441
0.803761 0.487040 0.064243
0.804354 0.487634 0.178641
0.804966 0.488245 0.296546
0.805587 0.488866 0.416273
0.806215 0.489494 0.537258
0.806848 0.490127 0.659211
0.807485 0.490764 0.781950
0.808125 0.491404 0.905352
0.808474 0.491753 0.972635
0.810010 0.614254 0.070492
0.810604 0.614848 0.184891
0.811216 0.615460 0.302795
0.811837 0.616081 0.422522
0.812464 0.616708 0.543508
0.813097 0.617341 0.665460
0.813734 0.617978 0.788199
0.814374 0.618618 0.911601
0.814723 0.618967 0.978885
0.816303 0.742357 0.076785
0.816897 0.742950 0.191184
0.817508 0.743562 0.309088
0.818130 0.744183 0.428815
0.818757 0.744811 0.549801
0.819390 0.745443 0.671753
0.820027 0.746080 0.794492
0.820667 0.746721 0.917894
0.821016 0.747070 0.985178
0.822633 0.871199 0.083115
0.823226 0.871793 0.197513
0.823838 0.872404 0.315417
0.824459 0.873025 0.435144
0.825087 0.873653 0.556130
0.825719 0.874286 0.678082
0.826356 0.874923 0.800821
0.826996 0.875563 0.924224
0.827346 0.875912 0.991507
0.828604 0.992766 0.089086
0.829198 0.993359 0.203485
0.829810 0.993971 0.321389
0.830431 0.994592 0.441116
0.831059 0.995220 0.562102
0.831691 0.995853 0.684054
0.832328 0.996490 0.806793
0.832968 0.997130 0.930196
0.833317 0.997479 0.997479
0.905198 0.013840 0.042792
0.905791 0.014433 0.157190
0.906403 0.015045 0.275095
0.907024 0.015666 0.394821
0.907652 0.016294 0.515807
0.908285 0.016927 0.637760
0.908921 0.017563 0.760498
0.909562 0.018204 0.883901
0.909911 0.018553 0.951184
0.910214 0.115955 0.047808
0.910808 0.116548 0.162207
0.911419 0.117160 0.280111
0.912040 0.117781 0.399838
0.912668 0.118409 0.520824
0.913301 0.119041 0.642776
0.913938 0.119678 0.765515
0.914578 0.120318 0.888917
0.914927 0.120668 0.956201
0.916220 0.238224 0.053814
0.916814 0.238817 0.168213
0.917426 0.239429 0.286117
0.918047 0.240050 0.405844
0.918675 0.240678 0.526830
0.919307 0.241311 0.648782
0.919944 0.241947 0.771521
0.920584 0.242588 0.894924
0.920933 0.242937 0.962207
0.922341 0.362826 0.059935
0.922935 0.363420 0.174334
0.923547 0.364031 0.292238
0.924168 0.364652 0.411965
0.924796 0.365280 0.532951
0.925428 0.365913 0.654903
0.926065 0.366550 0.777642
0.926705 0.367190 0.901045
0.927054 0.367539 0.968328
0.928536 0.488927 0.066130
0.929130 0.489521 0.180529
0.929741 0.490132 0.298433
0.930363 0.490754 0.418160
0.930990 0.491381 0.539146
0.931623 0.492014 0.661098
0.932260 0.492651 0.783837
0.932900 0.493291 0.907239
0.933249 0.493640 0.974523
0.934785 0.616141 0.072379
0.935379 0.616735 0.186778
0.935991 0.617347 0.304682
0.936612 0.617968 0.424409
0.937240 0.618596 0.545395
0.937872 0.619228 0.667347
0.938509 0.619865 0.790086
0.939149 0.620505 0.913489
0.939498 0.620854 0.980772
0.941078 0.744244 0.078672
0.941672 0.744837 0.193071
0.942284 0.745449 0.310975
0.942905 0.746070 0.430702
0.943533 0.746698 0.551688
0.944165 0.747331 0.673640
0.944802 0.747968 0.796379
0.945442 0.748608 0.919782
0.945791 0.748957 0.987065
0.947408 0.873086 0.085002
0.948001 0.873680 0.199400
0.948613 0.874291 0.317305
0.949234 0.874913 0.437031
0.949862 0.875540 0.558017
0.950495 0.876173 0.679970
0.951131 0.876810 0.802708
0.951772 0.877450 0.926111
0.952121 0.877799 0.993394
0.953380 0.994653 0.090974
0.953973 0.995247 0.205372
0.954585 0.995858 0.323276
0.955206 0.996480 0.443003
0.955834 0.997107 0.563989
0.956466 0.997740 0.685941
0.957103 0.998377 0.808680
0.957744 0.999017 0.932083
0.958093 0.999366 0.999366
