skills/creativeops-grade/assets/grade/luts/cool_tech_v12.cube
TITLE "cool_tech_v12"
LUT_3D_SIZE 17
DOMAIN_MIN 0.0 0.0 0.0
DOMAIN_MAX 1.0 1.0 1.0
0.000100 0.000100 0.024096
0.000339 0.000339 0.081424
0.000583 0.000583 0.139963
0.000829 0.000829 0.199182
0.001078 0.001078 0.258881
0.001328 0.001328 0.318952
0.001579 0.001579 0.379328
0.001832 0.001832 0.439962
0.002085 0.002085 0.500820
0.002339 0.002339 0.561876
0.002594 0.002594 0.623110
0.002850 0.002850 0.684505
0.003106 0.003106 0.746047
0.003363 0.003363 0.807725
0.003620 0.003620 0.869528
0.003878 0.003878 0.931449
0.003952 0.003952 0.949215
0.001976 0.047270 0.025971
0.002215 0.047509 0.083300
0.002459 0.047752 0.141839
0.002705 0.047999 0.201058
0.002954 0.048248 0.260757
0.003204 0.048498 0.320828
0.003455 0.048749 0.381204
0.003708 0.049002 0.441838
0.003961 0.049255 0.502696
0.004215 0.049509 0.563752
0.004470 0.049764 0.624986
0.004726 0.050020 0.686381
0.004982 0.050276 0.747923
0.005239 0.050533 0.809601
0.005496 0.050790 0.871404
0.005754 0.051048 0.933325
0.005828 0.051122 0.951091
0.004364 0.107317 0.028359
0.004603 0.107556 0.085688
0.004847 0.107800 0.144227
0.005093 0.108046 0.203446
0.005342 0.108295 0.263145
0.005592 0.108545 0.323216
0.005843 0.108796 0.383592
0.006096 0.109049 0.444226
0.006349 0.109302 0.505084
0.006603 0.109557 0.566140
0.006858 0.109811 0.627374
0.007114 0.110067 0.688769
0.007370 0.110323 0.750311
0.007627 0.110580 0.811989
0.007884 0.110837 0.873792
0.008142 0.111095 0.935713
0.008216 0.111169 0.953479
0.006790 0.168328 0.030786
0.007029 0.168567 0.088114
0.007273 0.168811 0.146653
0.007519 0.169057 0.205872
0.007768 0.169306 0.265571
0.008018 0.169556 0.325642
0.008269 0.169807 0.386018
0.008522 0.170060 0.446652
0.008775 0.170313 0.507510
0.009029 0.170567 0.568566
0.009284 0.170822 0.629800
0.009540 0.171078 0.691195
0.009796 0.171334 0.752737
0.010053 0.171591 0.814415
0.010310 0.171848 0.876218
0.010568 0.172106 0.938139
0.010642 0.172180 0.955905
0.009241 0.229948 0.033236
0.009480 0.230187 0.090564
0.009723 0.230430 0.149104
0.009970 0.230677 0.208323
0.010218 0.230926 0.268022
0.010468 0.231176 0.328093
0.010720 0.231427 0.388469
0.010972 0.231679 0.449103
0.011226 0.231933 0.509961
0.011480 0.232187 0.571017
0.011735 0.232442 0.632251
0.011990 0.232698 0.693646
0.012247 0.232954 0.755188
0.012503 0.233211 0.816865
0.012761 0.233468 0.878669
0.013019 0.233726 0.940590
0.013093 0.233800 0.958356
0.011709 0.292016 0.035704
0.011948 0.292255 0.093033
0.012192 0.292499 0.151572
0.012438 0.292745 0.210791
0.012687 0.292994 0.270490
0.012937 0.293244 0.330561
0.013188 0.293495 0.390937
0.013441 0.293748 0.451571
0.013694 0.294001 0.512429
0.013948 0.294255 0.573485
0.014203 0.294510 0.634719
0.014459 0.294766 0.696114
0.014715 0.295022 0.757656
0.014972 0.295279 0.819334
0.015229 0.295536 0.881137
0.015487 0.295794 0.943058
0.015561 0.295868 0.960824
0.014192 0.354441 0.038187
0.014430 0.354679 0.095515
0.014674 0.354923 0.154054
0.014921 0.355170 0.213274
0.015169 0.355418 0.272972
0.015419 0.355668 0.333044
0.015671 0.355920 0.393419
0.015923 0.356172 0.454053
0.016176 0.356425 0.514911
0.016431 0.356680 0.575968
0.016686 0.356935 0.637202
0.016941 0.357190 0.698596
0.017197 0.357446 0.760138
0.017454 0.357703 0.821816
0.017712 0.357961 0.883620
0.017969 0.358218 0.945540
0.018043 0.358292 0.963306
0.016686 0.417161 0.040681
0.016925 0.417400 0.098009
0.017168 0.417643 0.156549
0.017415 0.417890 0.215768
0.017663 0.418138 0.275467
0.017913 0.418388 0.335538
0.018165 0.418640 0.395914
0.018417 0.418892 0.456548
0.018671 0.419146 0.517406
0.018925 0.419400 0.578462
0.019180 0.419655 0.639696
0.019435 0.419910 0.701091
0.019692 0.420167 0.762633
0.019948 0.420423 0.824310
0.020206 0.420681 0.886114
0.020464 0.420939 0.948035
0.020538 0.421013 0.965801
0.019190 0.480134 0.043185
0.019429 0.480373 0.100514
0.019673 0.480617 0.159053
0.019919 0.480863 0.218272
0.020168 0.481112 0.277971
0.020418 0.481362 0.338042
0.020669 0.481613 0.398418
0.020922 0.481866 0.459052
0.021175 0.482119 0.519910
0.021429 0.482373 0.580966
0.021684 0.482628 0.642200
0.021940 0.482884 0.703595
0.022196 0.483140 0.765137
0.022453 0.483397 0.826815
0.022710 0.483654 0.888618
0.022968 0.483912 0.950539
0.023042 0.483986 0.968305
0.021703 0.543329 0.045699
0.021942 0.543568 0.103027
0.022186 0.543812 0.161566
0.022432 0.544058 0.220785
0.022681 0.544307 0.280484
0.022931 0.544557 0.340555
0.023182 0.544808 0.400931
0.023435 0.545061 0.461565
0.023688 0.545314 0.522423
0.023942 0.545568 0.583479
0.024197 0.545823 0.644713
0.024453 0.546079 0.706108
0.024709 0.546335 0.767650
0.024966 0.546592 0.829328
0.025223 0.546849 0.891131
0.025481 0.547107 0.953052
0.025555 0.547181 0.970818
0.024224 0.606721 0.048220
0.024463 0.606960 0.105548
0.024707 0.607203 0.164087
0.024953 0.607450 0.223306
0.025202 0.607698 0.283005
0.025452 0.607949 0.343076
0.025703 0.608200 0.403452
0.025956 0.608452 0.464086
0.026209 0.608706 0.524944
0.026463 0.608960 0.586000
0.026718 0.609215 0.647234
0.026974 0.609470 0.708629
0.027230 0.609727 0.770171
0.027487 0.609984 0.831849
0.027744 0.610241 0.893652
0.028002 0.610499 0.955573
0.028076 0.610573 0.973339
0.026752 0.670290 0.050748
0.026991 0.670529 0.108076
0.027235 0.670772 0.166615
0.027481 0.671019 0.225834
0.027730 0.671267 0.285533
0.027980 0.671518 0.345604
0.028231 0.671769 0.405980
0.028484 0.672021 0.466614
0.028737 0.672275 0.527472
0.028991 0.672529 0.588528
0.029246 0.672784 0.649762
0.029502 0.673040 0.711157
0.029758 0.673296 0.772699
0.030015 0.673553 0.834377
0.030272 0.673810 0.896180
0.030530 0.674068 0.958101
0.030604 0.674142 0.975867
0.029287 0.734020 0.053282
0.029525 0.734259 0.110610
0.029769 0.734503 0.169149
0.030016 0.734749 0.228369
0.030264 0.734998 0.288067
0.030514 0.735248 0.348139
0.030766 0.735499 0.408514
0.031018 0.735752 0.469148
0.031271 0.736005 0.530007
0.031526 0.736259 0.591063
0.031781 0.736514 0.652297
0.032036 0.736770 0.713691
0.032292 0.737026 0.775233
0.032549 0.737283 0.836911
0.032807 0.737540 0.898715
0.033064 0.737798 0.960635
0.033138 0.737872 0.978401
0.031827 0.797899 0.055822
0.032066 0.798137 0.113151
0.032309 0.798381 0.171690
0.032556 0.798627 0.230909
0.032804 0.798876 0.290608
0.033055 0.799126 0.350679
0.033306 0.799378 0.411055
0.033558 0.799630 0.471689
0.033812 0.799883 0.532547
0.034066 0.800138 0.593603
0.034321 0.800392 0.654837
0.034577 0.800648 0.716232
0.034833 0.800904 0.777774
0.035090 0.801161 0.839451
0.035347 0.801418 0.901255
0.035605 0.801676 0.963176
0.035679 0.801750 0.980942
0.034373 0.861913 0.058368
0.034611 0.862152 0.115696
0.034855 0.862396 0.174235
0.035102 0.862642 0.233455
0.035350 0.862891 0.293153
0.035600 0.863141 0.353225
0.035852 0.863392 0.413600
0.036104 0.863645 0.474234
0.036357 0.863898 0.535093
0.036612 0.864152 0.596149
0.036867 0.864407 0.657383
0.037122 0.864663 0.718777
0.037378 0.864919 0.780319
0.037635 0.865176 0.841997
0.037893 0.865433 0.903801
0.038150 0.865691 0.965721
0.038224 0.865765 0.983488
0.036923 0.926055 0.060919
0.037162 0.926294 0.118247
0.037406 0.926538 0.176786
0.037652 0.926784 0.236005
0.037901 0.927033 0.295704
0.038151 0.927283 0.355775
0.038402 0.927534 0.416151
0.038655 0.927787 0.476785
0.038908 0.928040 0.537643
0.039162 0.928294 0.598700
0.039417 0.928549 0.659933
0.039673 0.928805 0.721328
0.039929 0.929061 0.782870
0.040186 0.929318 0.844548
0.040443 0.929575 0.906351
0.040701 0.929833 0.968272
0.040775 0.929907 0.986038
0.039248 0.984511 0.063243
0.039487 0.984750 0.120572
0.039731 0.984994 0.179111
0.039977 0.985240 0.238330
0.040226 0.985489 0.298029
0.040476 0.985739 0.358100
0.040727 0.985990 0.418476
0.040980 0.986243 0.479110
0.041233 0.986496 0.539968
0.041487 0.986750 0.601024
0.041742 0.987005 0.662258
0.041998 0.987261 0.723653
0.042254 0.987517 0.785195
0.042511 0.987774 0.846873
0.042768 0.988031 0.908676
0.043026 0.988289 0.970597
0.043100 0.988363 0.988363
0.010564 0.000228 0.024223
0.010802 0.000466 0.081551
0.011046 0.000710 0.140090
0.011293 0.000957 0.199309
0.011541 0.001205 0.259008
0.011791 0.001455 0.319080
0.012043 0.001707 0.379455
0.012295 0.001959 0.440089
0.012549 0.002212 0.500947
0.012803 0.002467 0.562004
0.013058 0.002722 0.623237
0.013313 0.002977 0.684632
0.013570 0.003233 0.746174
0.013826 0.003490 0.807852
0.014084 0.003747 0.869656
0.014341 0.004005 0.931576
0.014415 0.004079 0.949342
0.012440 0.047397 0.026099
0.012678 0.047636 0.083427
0.012922 0.047880 0.141966
0.013169 0.048126 0.201185
0.013417 0.048375 0.260884
0.013667 0.048625 0.320955
0.013919 0.048876 0.381331
0.014171 0.049129 0.441965
0.014424 0.049382 0.502823
0.014679 0.049636 0.563879
0.014933 0.049891 0.625113
0.015189 0.050147 0.686508
0.015445 0.050403 0.748050
0.015702 0.050660 0.809728
0.015959 0.050917 0.871531
0.016217 0.051175 0.933452
0.016291 0.051249 0.951218
0.014827 0.107445 0.028487
0.015066 0.107683 0.085815
0.015310 0.107927 0.144354
0.015556 0.108174 0.203573
0.015805 0.108422 0.263272
0.016055 0.108672 0.323343
0.016306 0.108924 0.383719
0.016559 0.109176 0.444353
0.016812 0.109430 0.505211
0.017067 0.109684 0.566267
0.017321 0.109939 0.627501
0.017577 0.110194 0.688896
0.017833 0.110451 0.750438
0.018090 0.110707 0.812116
0.018347 0.110965 0.873919
0.018605 0.111222 0.935840
0.018679 0.111296 0.953606
0.017254 0.168456 0.030913
0.017492 0.168694 0.088241
0.017736 0.168938 0.146780
0.017983 0.169185 0.206000
0.018231 0.169433 0.265698
0.018481 0.169683 0.325770
0.018733 0.169935 0.386145
0.018985 0.170187 0.446779
0.019239 0.170440 0.507637
0.019493 0.170695 0.568694
0.019748 0.170950 0.629928
0.020003 0.171205 0.691322
0.020260 0.171461 0.752864
0.020516 0.171718 0.814542
0.020774 0.171976 0.876346
0.021031 0.172233 0.938266
0.021105 0.172307 0.956032
0.019704 0.230075 0.033363
0.019943 0.230314 0.090692
0.020187 0.230558 0.149231
0.020433 0.230804 0.208450
0.020682 0.231053 0.268149
0.020932 0.231303 0.328220
0.021183 0.231554 0.388596
0.021436 0.231807 0.449230
0.021689 0.232060 0.510088
0.021943 0.232314 0.571144
0.022198 0.232569 0.632378
0.022454 0.232825 0.693773
0.022710 0.233081 0.755315
0.022967 0.233338 0.816992
0.023224 0.233595 0.878796
0.023482 0.233853 0.940717
0.023556 0.233927 0.958483
0.022173 0.292143 0.035832
0.022411 0.292382 0.093160
0.022655 0.292626 0.151699
0.022901 0.292872 0.210918
0.023150 0.293121 0.270617
0.023400 0.293371 0.330688
0.023652 0.293622 0.391064
0.023904 0.293875 0.451698
0.024157 0.294128 0.512556
0.024412 0.294382 0.573612
0.024666 0.294637 0.634846
0.024922 0.294893 0.696241
0.025178 0.295149 0.757783
0.025435 0.295406 0.819461
0.025692 0.295663 0.881264
0.025950 0.295921 0.943185
0.026024 0.295995 0.960951
0.024655 0.354568 0.038314
0.024894 0.354807 0.095642
0.025137 0.355050 0.154182
0.025384 0.355297 0.213401
0.025633 0.355545 0.273100
0.025883 0.355795 0.333171
0.026134 0.356047 0.393547
0.026386 0.356299 0.454181
0.026640 0.356553 0.515039
0.026894 0.356807 0.576095
0.027149 0.357062 0.637329
0.027405 0.357317 0.698724
0.027661 0.357574 0.760266
0.027918 0.357830 0.821943
0.028175 0.358088 0.883747
0.028433 0.358346 0.945668
0.028507 0.358420 0.963434
0.027149 0.417288 0.040808
0.027388 0.417527 0.098137
0.027632 0.417770 0.156676
0.027878 0.418017 0.215895
0.028127 0.418266 0.275594
0.028377 0.418516 0.335665
0.028628 0.418767 0.396041
0.028881 0.419020 0.456675
0.029134 0.419273 0.517533
0.029388 0.419527 0.578589
0.029643 0.419782 0.639823
0.029899 0.420038 0.701218
0.030155 0.420294 0.762760
0.030412 0.420551 0.824438
0.030669 0.420808 0.886241
0.030927 0.421066 0.948162
0.031001 0.421140 0.965928
0.029654 0.480262 0.043313
0.029892 0.480500 0.100641
0.030136 0.480744 0.159180
0.030383 0.480990 0.218399
0.030631 0.481239 0.278098
0.030881 0.481489 0.338169
0.031133 0.481740 0.398545
0.031385 0.481993 0.459179
0.031638 0.482246 0.520037
0.031893 0.482501 0.581094
0.032148 0.482755 0.642327
0.032403 0.483011 0.703722
0.032659 0.483267 0.765264
0.032916 0.483524 0.826942
0.033173 0.483781 0.888745
0.033431 0.484039 0.950666
0.033505 0.484113 0.968432
0.032167 0.543456 0.045826
0.032405 0.543695 0.103154
0.032649 0.543939 0.161693
0.032896 0.544185 0.220912
0.033144 0.544434 0.280611
0.033394 0.544684 0.340683
0.033646 0.544935 0.401058
0.033898 0.545188 0.461692
0.034151 0.545441 0.522550
0.034406 0.545695 0.583607
0.034661 0.545950 0.644840
0.034916 0.546206 0.706235
0.035172 0.546462 0.767777
0.035429 0.546719 0.829455
0.035687 0.546976 0.891258
0.035944 0.547234 0.953179
0.036018 0.547308 0.970945
0.034688 0.606848 0.048347
0.034926 0.607087 0.105675
0.035170 0.607331 0.164214
0.035417 0.607577 0.223433
0.035665 0.607826 0.283132
0.035915 0.608076 0.343203
0.036167 0.608327 0.403579
0.036419 0.608580 0.464213
0.036672 0.608833 0.525071
0.036927 0.609087 0.586128
0.037182 0.609342 0.647361
0.037437 0.609598 0.708756
0.037693 0.609854 0.770298
0.037950 0.610111 0.831976
0.038208 0.610368 0.893779
0.038465 0.610626 0.955700
0.038539 0.610700 0.973466
0.037216 0.670417 0.050875
0.037454 0.670656 0.108203
0.037698 0.670900 0.166742
0.037945 0.671146 0.225961
0.038193 0.671395 0.285660
0.038443 0.671645 0.345731
0.038695 0.671896 0.406107
0.038947 0.672149 0.466741
0.039200 0.672402 0.527599
0.039455 0.672656 0.588656
0.039710 0.672911 0.649889
0.039965 0.673167 0.711284
0.040221 0.673423 0.772826
0.040478 0.673680 0.834504
0.040736 0.673937 0.896307
0.040993 0.674195 0.958228
0.041067 0.674269 0.975994
0.039750 0.734148 0.053409
0.039989 0.734386 0.110738
0.040232 0.734630 0.169277
0.040479 0.734876 0.228496
0.040728 0.735125 0.288195
0.040978 0.735375 0.348266
0.041229 0.735626 0.408642
0.041481 0.735879 0.469276
0.041735 0.736132 0.530134
0.041989 0.736387 0.591190
0.042244 0.736641 0.652424
0.042500 0.736897 0.713819
0.042756 0.737153 0.775361
0.043013 0.737410 0.837038
0.043270 0.737667 0.898842
0.043528 0.737925 0.960763
0.043602 0.737999 0.978529
0.042290 0.798026 0.055949
0.042529 0.798264 0.113278
0.042773 0.798508 0.171817
0.043019 0.798755 0.231036
0.043268 0.799003 0.290735
0.043518 0.799253 0.350806
0.043769 0.799505 0.411182
0.044022 0.799757 0.471816
0.044275 0.800011 0.532674
0.044529 0.800265 0.593730
0.044784 0.800520 0.654964
0.045040 0.800775 0.716359
0.045296 0.801032 0.777901
0.045553 0.801288 0.839579
0.045810 0.801546 0.901382
0.046068 0.801803 0.963303
0.046142 0.801877 0.981069
0.044836 0.862041 0.058495
0.045075 0.862279 0.115824
0.045318 0.862523 0.174363
0.045565 0.862770 0.233582
0.045814 0.863018 0.293281
0.046064 0.863268 0.353352
0.046315 0.863520 0.413728
0.046567 0.863772 0.474362
0.046821 0.864026 0.535220
0.047075 0.864280 0.596276
0.047330 0.864535 0.657510
0.047586 0.864790 0.718905
0.047842 0.865047 0.780447
0.048099 0.865303 0.842124
0.048356 0.865561 0.903928
0.048614 0.865818 0.965849
0.048688 0.865892 0.983615
0.047387 0.926183 0.061046
0.047626 0.926421 0.118374
0.047869 0.926665 0.176913
0.048116 0.926912 0.236133
0.048364 0.927160 0.295831
0.048614 0.927410 0.355903
0.048866 0.927662 0.416278
0.049118 0.927914 0.476912
0.049372 0.928167 0.537771
0.049626 0.928422 0.598827
0.049881 0.928677 0.660061
0.050136 0.928932 0.721455
0.050393 0.929188 0.782997
0.050649 0.929445 0.844675
0.050907 0.929703 0.906479
0.051165 0.929960 0.968400
0.051239 0.930034 0.986166
0.049711 0.984639 0.063371
0.049950 0.984877 0.120699
0.050194 0.985121 0.179238
0.050440 0.985367 0.238457
0.050689 0.985616 0.298156
0.050939 0.985866 0.358227
0.051190 0.986118 0.418603
0.051443 0.986370 0.479237
0.051696 0.986623 0.540095
0.051951 0.986878 0.601151
0.052205 0.987132 0.662385
0.052461 0.987388 0.723780
0.052717 0.987644 0.785322
0.052974 0.987901 0.847000
0.053231 0.988158 0.908803
0.053489 0.988416 0.970724
0.053563 0.988490 0.988490
0.067797 0.000924 0.024919
0.068036 0.001162 0.082247
0.068280 0.001406 0.140786
0.068526 0.001653 0.200005
0.068775 0.001901 0.259704
0.069025 0.002151 0.319776
0.069276 0.002403 0.380151
0.069529 0.002655 0.440785
0.069782 0.002908 0.501643
0.070036 0.003163 0.562700
0.070291 0.003418 0.623933
0.070547 0.003673 0.685328
0.070803 0.003929 0.746870
0.071060 0.004186 0.808548
0.071317 0.004444 0.870352
0.071575 0.004701 0.932272
0.071649 0.004775 0.950038
0.069673 0.048093 0.026795
0.069912 0.048332 0.084123
0.070155 0.048576 0.142662
0.070402 0.048822 0.201881
0.070650 0.049071 0.261580
0.070901 0.049321 0.321651
0.071152 0.049572 0.382027
0.071404 0.049825 0.442661
0.071658 0.050078 0.503519
0.071912 0.050332 0.564576
0.072167 0.050587 0.625809
0.072423 0.050843 0.687204
0.072679 0.051099 0.748746
0.072936 0.051356 0.810424
0.073193 0.051613 0.872227
0.073451 0.051871 0.934148
0.073525 0.051945 0.951914
0.072061 0.108141 0.029183
0.072300 0.108379 0.086511
0.072543 0.108623 0.145050
0.072790 0.108870 0.204269
0.073038 0.109118 0.263968
0.073289 0.109368 0.324039
0.073540 0.109620 0.384415
0.073792 0.109872 0.445049
0.074046 0.110126 0.505907
0.074300 0.110380 0.566963
0.074555 0.110635 0.628197
0.074810 0.110890 0.689592
0.075067 0.111147 0.751134
0.075324 0.111403 0.812812
0.075581 0.111661 0.874615
0.075839 0.111918 0.936536
0.075913 0.111992 0.954302
0.074487 0.169152 0.031609
0.074726 0.169390 0.088937
0.074970 0.169634 0.147476
0.075216 0.169881 0.206696
0.075465 0.170129 0.266394
0.075715 0.170379 0.326466
0.075966 0.170631 0.386841
0.076219 0.170883 0.447475
0.076472 0.171137 0.508334
0.076726 0.171391 0.569390
0.076981 0.171646 0.630624
0.077237 0.171901 0.692018
0.077493 0.172158 0.753560
0.077750 0.172414 0.815238
0.078007 0.172672 0.877042
0.078265 0.172929 0.938962
0.078339 0.173003 0.956728
0.076938 0.230771 0.034059
0.077176 0.231010 0.091388
0.077420 0.231254 0.149927
0.077667 0.231500 0.209146
0.077915 0.231749 0.268845
0.078165 0.231999 0.328916
0.078417 0.232250 0.389292
0.078669 0.232503 0.449926
0.078922 0.232756 0.510784
0.079177 0.233010 0.571840
0.079432 0.233265 0.633074
0.079687 0.233521 0.694469
0.079943 0.233777 0.756011
0.080200 0.234034 0.817689
0.080458 0.234291 0.879492
0.080715 0.234549 0.941413
0.080789 0.234623 0.959179
0.079406 0.292840 0.036528
0.079645 0.293078 0.093856
0.079888 0.293322 0.152395
0.080135 0.293568 0.211614
0.080383 0.293817 0.271313
0.080634 0.294067 0.331384
0.080885 0.294318 0.391760
0.081137 0.294571 0.452394
0.081391 0.294824 0.513252
0.081645 0.295079 0.574309
0.081900 0.295333 0.635542
0.082156 0.295589 0.696937
0.082412 0.295845 0.758479
0.082669 0.296102 0.820157
0.082926 0.296359 0.881960
0.083184 0.296617 0.943881
0.083258 0.296691 0.961647
0.081888 0.355264 0.039010
0.082127 0.355503 0.096339
0.082371 0.355746 0.154878
0.082617 0.355993 0.214097
0.082866 0.356241 0.273796
0.083116 0.356492 0.333867
0.083367 0.356743 0.394243
0.083620 0.356995 0.454877
0.083873 0.357249 0.515735
0.084127 0.357503 0.576791
0.084382 0.357758 0.638025
0.084638 0.358013 0.699420
0.084894 0.358270 0.760962
0.085151 0.358526 0.822639
0.085408 0.358784 0.884443
0.085666 0.359042 0.946364
0.085740 0.359116 0.964130
0.084383 0.417984 0.041504
0.084621 0.418223 0.098833
0.084865 0.418467 0.157372
0.085112 0.418713 0.216591
0.085360 0.418962 0.276290
0.085610 0.419212 0.336361
0.085862 0.419463 0.396737
0.086114 0.419716 0.457371
0.086368 0.419969 0.518229
0.086622 0.420223 0.579285
0.086877 0.420478 0.640519
0.087132 0.420734 0.701914
0.087388 0.420990 0.763456
0.087645 0.421247 0.825134
0.087903 0.421504 0.886937
0.088160 0.421762 0.948858
0.088234 0.421836 0.966624
0.086887 0.480958 0.044009
0.087126 0.481196 0.101337
0.087369 0.481440 0.159876
0.087616 0.481686 0.219095
0.087865 0.481935 0.278794
0.088115 0.482185 0.338865
0.088366 0.482437 0.399241
0.088618 0.482689 0.459875
0.088872 0.482942 0.520733
0.089126 0.483197 0.581790
0.089381 0.483451 0.643023
0.089637 0.483707 0.704418
0.089893 0.483963 0.765960
0.090150 0.484220 0.827638
0.090407 0.484477 0.889441
0.090665 0.484735 0.951362
0.090739 0.484809 0.969128
0.089400 0.544152 0.046522
0.089639 0.544391 0.103850
0.089883 0.544635 0.162389
0.090129 0.544881 0.221608
0.090378 0.545130 0.281307
0.090628 0.545380 0.341379
0.090879 0.545631 0.401754
0.091132 0.545884 0.462388
0.091385 0.546137 0.523246
0.091639 0.546391 0.584303
0.091894 0.546646 0.645536
0.092150 0.546902 0.706931
0.092406 0.547158 0.768473
0.092663 0.547415 0.830151
0.092920 0.547672 0.891955
0.093178 0.547930 0.953875
0.093252 0.548004 0.971641
0.091921 0.607544 0.049043
0.092160 0.607783 0.106371
0.092403 0.608027 0.164910
0.092650 0.608273 0.224129
0.092899 0.608522 0.283828
0.093149 0.608772 0.343899
0.093400 0.609023 0.404275
0.093652 0.609276 0.464909
0.093906 0.609529 0.525767
0.094160 0.609783 0.586824
0.094415 0.610038 0.648057
0.094671 0.610294 0.709452
0.094927 0.610550 0.770994
0.095184 0.610807 0.832672
0.095441 0.611064 0.894475
0.095699 0.611322 0.956396
0.095773 0.611396 0.974162
0.094449 0.671113 0.051571
0.094688 0.671352 0.108899
0.094931 0.671596 0.167438
0.095178 0.671842 0.226657
0.095427 0.672091 0.286356
0.095677 0.672341 0.346427
0.095928 0.672592 0.406803
0.096180 0.672845 0.467437
0.096434 0.673098 0.528295
0.096688 0.673352 0.589352
0.096943 0.673607 0.650585
0.097199 0.673863 0.711980
0.097455 0.674119 0.773522
0.097712 0.674376 0.835200
0.097969 0.674633 0.897003
0.098227 0.674891 0.958924
0.098301 0.674965 0.976690
0.096983 0.734844 0.054105
0.097222 0.735082 0.111434
0.097466 0.735326 0.169973
0.097712 0.735573 0.229192
0.097961 0.735821 0.288891
0.098211 0.736071 0.348962
0.098462 0.736323 0.409338
0.098715 0.736575 0.469972
0.098968 0.736828 0.530830
0.099222 0.737083 0.591886
0.099477 0.737337 0.653120
0.099733 0.737593 0.714515
0.099989 0.737849 0.776057
0.100246 0.738106 0.837734
0.100503 0.738363 0.899538
0.100761 0.738621 0.961459
0.100835 0.738695 0.979225
0.099524 0.798722 0.056646
0.099762 0.798960 0.113974
0.100006 0.799204 0.172513
0.100253 0.799451 0.231732
0.100501 0.799699 0.291431
0.100751 0.799949 0.351502
0.101003 0.800201 0.411878
0.101255 0.800453 0.472512
0.101509 0.800707 0.533370
0.101763 0.800961 0.594426
0.102018 0.801216 0.655660
0.102273 0.801471 0.717055
0.102530 0.801728 0.778597
0.102786 0.801984 0.840275
0.103044 0.802242 0.902078
0.103301 0.802500 0.963999
0.103375 0.802573 0.981765
0.102069 0.862737 0.059191
0.102308 0.862975 0.116520
0.102552 0.863219 0.175059
0.102798 0.863466 0.234278
0.103047 0.863714 0.293977
0.103297 0.863964 0.354048
0.103548 0.864216 0.414424
0.103801 0.864468 0.475058
0.104054 0.864722 0.535916
0.104309 0.864976 0.596972
0.104563 0.865231 0.658206
0.104819 0.865486 0.719601
0.105075 0.865743 0.781143
0.105332 0.865999 0.842820
0.105589 0.866257 0.904624
0.105847 0.866514 0.966545
0.105921 0.866588 0.984311
0.104620 0.926879 0.061742
0.104859 0.927117 0.119070
0.105103 0.927361 0.177610
0.105349 0.927608 0.236829
0.105598 0.927856 0.296528
0.105848 0.928106 0.356599
0.106099 0.928358 0.416975
0.106352 0.928610 0.477608
0.106605 0.928864 0.538467
0.106859 0.929118 0.599523
0.107114 0.929373 0.660757
0.107370 0.929628 0.722151
0.107626 0.929885 0.783693
0.107883 0.930141 0.845371
0.108140 0.930399 0.907175
0.108398 0.930656 0.969096
0.108472 0.930730 0.986862
0.106945 0.985335 0.064067
0.107184 0.985573 0.121395
0.107427 0.985817 0.179934
0.107674 0.986064 0.239153
0.107922 0.986312 0.298852
0.108173 0.986562 0.358923
0.108424 0.986814 0.419299
0.108676 0.987066 0.479933
0.108930 0.987319 0.540791
0.109184 0.987574 0.601847
0.109439 0.987829 0.663081
0.109695 0.988084 0.724476
0.109951 0.988340 0.786018
0.110208 0.988597 0.847696
0.110465 0.988854 0.909499
0.110723 0.989112 0.971420
0.110797 0.989186 0.989186
0.126586 0.001639 0.025634
0.126824 0.001877 0.082962
0.127068 0.002121 0.141501
0.127315 0.002367 0.200720
0.127563 0.002616 0.260419
0.127813 0.002866 0.320490
0.128065 0.003118 0.380866
0.128317 0.003370 0.441500
0.128571 0.003623 0.502358
0.128825 0.003878 0.563415
0.129080 0.004132 0.624648
0.129335 0.004388 0.686043
0.129592 0.004644 0.747585
0.129848 0.004901 0.809263
0.130106 0.005158 0.871066
0.130363 0.005416 0.932987
0.130437 0.005490 0.950753
0.128462 0.048808 0.027510
