skills/creativeops-grade/assets/grade/luts/cool_tech_v16.cube
TITLE "cool_tech_v16"
LUT_3D_SIZE 5
DOMAIN_MIN 0.0 0.0 0.0
DOMAIN_MAX 1.0 1.0 1.0
0.000151 0.000151 0.029103
0.001356 0.001356 0.261406
0.002605 0.002605 0.502118
0.003875 0.003875 0.746810
0.004864 0.004864 0.937496
0.011174 0.224535 0.040126
0.012379 0.225740 0.272429
0.013628 0.226989 0.513141
0.014897 0.228259 0.757832
0.015887 0.229248 0.948518
0.023489 0.475239 0.052441
0.024695 0.476444 0.284744
0.025944 0.477693 0.525457
0.027213 0.478962 0.770148
0.028202 0.479952 0.960834
0.036032 0.730555 0.064984
0.037237 0.731760 0.297287
0.038486 0.733009 0.537999
0.039755 0.734279 0.782690
0.040745 0.735268 0.973376
0.048333 0.980964 0.077285
0.049538 0.982170 0.309588
0.050787 0.983419 0.550300
0.052057 0.984688 0.794992
0.053046 0.985677 0.985677
0.169722 0.002716 0.031668
0.170927 0.003921 0.263971
0.172176 0.005170 0.504683
0.173445 0.006439 0.749374
0.174435 0.007429 0.940060
0.180744 0.227100 0.042690
0.181950 0.228305 0.274993
0.183198 0.229554 0.515706
0.184468 0.230823 0.760397
0.185457 0.231813 0.951083
0.193060 0.477803 0.055006
0.194265 0.479009 0.287309
0.195514 0.480257 0.528022
0.196784 0.481527 0.772713
0.197773 0.482516 0.963399
0.205602 0.733120 0.067548
0.206808 0.734325 0.299851
0.208056 0.735574 0.540564
0.209326 0.736844 0.785255
0.210315 0.737833 0.975941
0.217904 0.983529 0.079850
0.219109 0.984734 0.312153
0.220358 0.985983 0.552865
0.221627 0.987253 0.797556
0.222617 0.988242 0.988242
0.410507 0.006358 0.035310
0.411712 0.007563 0.267612
0.412961 0.008812 0.508325
0.414230 0.010081 0.753016
0.415220 0.011071 0.943702
0.421530 0.230742 0.046332
0.422735 0.231947 0.278635
0.423984 0.233196 0.519348
0.425253 0.234465 0.764039
0.426243 0.235455 0.954725
0.433845 0.481445 0.058648
0.435050 0.482650 0.290951
0.436299 0.483899 0.531663
0.437569 0.485169 0.776355
0.438558 0.486158 0.967041
0.446387 0.736762 0.071190
0.447593 0.737967 0.303493
0.448842 0.739216 0.544206
0.450111 0.740485 0.788897
0.451100 0.741475 0.979583
0.458689 0.987171 0.083491
0.459894 0.988376 0.315794
0.461143 0.989625 0.556507
0.462412 0.990895 0.801198
0.463402 0.991884 0.991884
0.656297 0.010075 0.039027
0.657502 0.011280 0.271330
0.658751 0.012529 0.512043
0.660021 0.013799 0.756734
0.661010 0.014788 0.947420
0.667320 0.234459 0.050050
0.668525 0.235664 0.282353
0.669774 0.236913 0.523065
0.671043 0.238183 0.767756
0.672033 0.239172 0.958442
0.679635 0.485163 0.062366
0.680841 0.486368 0.294668
0.682089 0.487617 0.535381
0.683359 0.488886 0.780072
0.684348 0.489876 0.970758
0.692178 0.740479 0.074908
0.693383 0.741685 0.307211
0.694632 0.742933 0.547923
0.695901 0.744203 0.792614
0.696891 0.745192 0.983300
0.704479 0.990889 0.087209
0.705684 0.992094 0.319512
0.706933 0.993343 0.560224
0.708202 0.994612 0.804916
0.709192 0.995602 0.995602
0.905198 0.013840 0.042792
0.906403 0.015045 0.275095
0.907652 0.016294 0.515807
0.908921 0.017563 0.760498
0.909911 0.018553 0.951184
0.916220 0.238224 0.053814
0.917426 0.239429 0.286117
0.918675 0.240678 0.526830
0.919944 0.241947 0.771521
0.920933 0.242937 0.962207
0.928536 0.488927 0.066130
0.929741 0.490132 0.298433
0.930990 0.491381 0.539146
0.932260 0.492651 0.783837
0.933249 0.493640 0.974523
0.941078 0.744244 0.078672
0.942284 0.745449 0.310975
0.943533 0.746698 0.551688
0.944802 0.747968 0.796379
0.945791 0.748957 0.987065
0.953380 0.994653 0.090974
0.954585 0.995858 0.323276
0.955834 0.997107 0.563989
0.957103 0.998377 0.808680
0.958093 0.999366 0.999366
