skills/creativeops-grade/assets/grade/luts/soft_pastel_v10.cube
TITLE "soft_pastel_v10"
LUT_3D_SIZE 17
DOMAIN_MIN 0.0 0.0 0.0
DOMAIN_MAX 1.0 1.0 1.0
0.052412 0.048148 0.043865
0.053047 0.048782 0.099935
0.053665 0.049401 0.154583
0.054274 0.050010 0.208406
0.054877 0.050612 0.261648
0.055474 0.051210 0.314441
0.056067 0.051803 0.366867
0.056657 0.052393 0.418986
0.057244 0.052980 0.470838
0.057828 0.053564 0.522456
0.058410 0.054146 0.573866
0.058990 0.054725 0.625087
0.059567 0.055303 0.676137
0.060143 0.055879 0.727030
0.060718 0.056453 0.777777
0.061290 0.057026 0.828389
0.061862 0.057597 0.878876
0.058681 0.109702 0.050134
0.059315 0.110336 0.106204
0.059934 0.110955 0.160851
0.060543 0.111564 0.214675
0.061145 0.112166 0.267917
0.061743 0.112764 0.320709
0.062336 0.113357 0.373136
0.062926 0.113947 0.425254
0.063513 0.114534 0.477107
0.064097 0.115118 0.528725
0.064679 0.115700 0.580135
0.065258 0.116279 0.631356
0.065836 0.116857 0.682406
0.066412 0.117433 0.733298
0.066986 0.118007 0.784046
0.067559 0.118580 0.834658
0.068130 0.119151 0.885144
0.064798 0.169773 0.056252
0.065433 0.170408 0.112321
0.066051 0.171026 0.166969
0.066660 0.171636 0.220793
0.067263 0.172238 0.274034
0.067860 0.172836 0.326827
0.068454 0.173429 0.379254
0.069043 0.174019 0.431372
0.069630 0.174605 0.483224
0.070214 0.175190 0.534843
0.070796 0.175771 0.586252
0.071376 0.176351 0.637474
0.071954 0.176929 0.688524
0.072529 0.177505 0.739416
0.073104 0.178079 0.790163
0.073677 0.178652 0.840776
0.074248 0.179223 0.891262
0.070826 0.228966 0.062280
0.071461 0.229601 0.118349
0.072079 0.230219 0.172997
0.072688 0.230828 0.226821
0.073291 0.231431 0.280063
0.073888 0.232028 0.332855
0.074482 0.232622 0.385282
0.075071 0.233211 0.437400
0.075658 0.233798 0.489252
0.076242 0.234382 0.540871
0.076824 0.234964 0.592280
0.077404 0.235544 0.643502
0.077982 0.236121 0.694552
0.078558 0.236697 0.745444
0.079132 0.237272 0.796191
0.079705 0.237844 0.846804
0.080276 0.238416 0.897290
0.076791 0.287532 0.068244
0.077425 0.288167 0.124314
0.078044 0.288785 0.178961
0.078653 0.289394 0.232785
0.079255 0.289997 0.286027
0.079853 0.290594 0.338819
0.080446 0.291188 0.391246
0.081036 0.291778 0.443364
0.081623 0.292364 0.495217
0.082207 0.292949 0.546835
0.082789 0.293530 0.598245
0.083368 0.294110 0.649466
0.083946 0.294688 0.700516
0.084522 0.295264 0.751408
0.085096 0.295838 0.802156
0.085669 0.296411 0.852768
0.086240 0.296982 0.903254
0.082705 0.345612 0.074159
0.083340 0.346247 0.130229
0.083958 0.346865 0.184876
0.084567 0.347474 0.238700
0.085170 0.348077 0.291942
0.085767 0.348674 0.344734
0.086361 0.349268 0.397161
0.086951 0.349857 0.449279
0.087537 0.350444 0.501131
0.088121 0.351028 0.552750
0.088703 0.351610 0.604159
0.089283 0.352190 0.655381
0.089861 0.352768 0.706431
0.090437 0.353344 0.757323
0.091011 0.353918 0.808070
0.091584 0.354491 0.858683
0.092155 0.355062 0.909169
0.088580 0.403295 0.080033
0.089214 0.403930 0.136103
0.089833 0.404548 0.190750
0.090442 0.405157 0.244574
0.091044 0.405760 0.297816
0.091642 0.406357 0.350608
0.092235 0.406950 0.403035
0.092825 0.407540 0.455153
0.093412 0.408127 0.507006
0.093996 0.408711 0.558624
0.094578 0.409293 0.610034
0.095157 0.409873 0.661255
0.095735 0.410450 0.712305
0.096311 0.411026 0.763198
0.096885 0.411601 0.813945
0.097458 0.412173 0.864557
0.098029 0.412745 0.915043
0.094420 0.460643 0.085873
0.095054 0.461277 0.141943
0.095673 0.461896 0.196591
0.096282 0.462505 0.250414
0.096884 0.463107 0.303656
0.097482 0.463705 0.356449
0.098075 0.464298 0.408875
0.098665 0.464888 0.460994
0.099252 0.465475 0.512846
0.099836 0.466059 0.564464
0.100418 0.466641 0.615874
0.100997 0.467220 0.667095
0.101575 0.467798 0.718145
0.102151 0.468374 0.769038
0.102725 0.468948 0.819785
0.103298 0.469521 0.870397
0.103870 0.470092 0.920883
0.100231 0.517700 0.091684
0.100865 0.518335 0.147754
0.101483 0.518953 0.202401
0.102093 0.519562 0.256225
0.102695 0.520165 0.309467
0.103293 0.520762 0.362259
0.103886 0.521356 0.414686
0.104476 0.521945 0.466804
0.105063 0.522532 0.518657
0.105647 0.523116 0.570275
0.106228 0.523698 0.621685
0.106808 0.524278 0.672906
0.107386 0.524856 0.723956
0.107962 0.525431 0.774848
0.108536 0.526006 0.825596
0.109109 0.526579 0.876208
0.109680 0.527150 0.926694
0.106015 0.574503 0.097468
0.106650 0.575137 0.153538
0.107268 0.575756 0.208186
0.107877 0.576365 0.262010
0.108480 0.576967 0.315251
0.109077 0.577565 0.368044
0.109671 0.578158 0.420471
0.110260 0.578748 0.472589
0.110847 0.579335 0.524441
0.111431 0.579919 0.576060
0.112013 0.580501 0.627469
0.112593 0.581080 0.678691
0.113170 0.581658 0.729740
0.113746 0.582234 0.780633
0.114321 0.582808 0.831380
0.114894 0.583381 0.881993
0.115465 0.583952 0.932479
0.111777 0.631077 0.103230
0.112411 0.631712 0.159300
0.113030 0.632330 0.213947
0.113639 0.632939 0.267771
0.114241 0.633542 0.321013
0.114839 0.634139 0.373805
0.115432 0.634733 0.426232
0.116022 0.635322 0.478350
0.116609 0.635909 0.530203
0.117193 0.636493 0.581821
0.117775 0.637075 0.633231
0.118354 0.637655 0.684452
0.118932 0.638232 0.735502
0.119508 0.638808 0.786395
0.120082 0.639383 0.837142
0.120655 0.639955 0.887754
0.121226 0.640527 0.938240
0.117517 0.687446 0.108970
0.118152 0.688080 0.165040
0.118770 0.688699 0.219688
0.119379 0.689308 0.273512
0.119982 0.689911 0.326753
0.120579 0.690508 0.379546
0.121173 0.691101 0.431972
0.121762 0.691691 0.484091
0.122349 0.692278 0.535943
0.122933 0.692862 0.587562
0.123515 0.693444 0.638971
0.124095 0.694024 0.690193
0.124672 0.694601 0.741242
0.125248 0.695177 0.792135
0.125823 0.695751 0.842882
0.126395 0.696324 0.893494
0.126967 0.696896 0.943981
0.123239 0.743627 0.114692
0.123873 0.744262 0.170762
0.124492 0.744880 0.225409
0.125101 0.745489 0.279233
0.125703 0.746092 0.332475
0.126301 0.746689 0.385267
0.126894 0.747283 0.437694
0.127484 0.747872 0.489812
0.128071 0.748459 0.541665
0.128655 0.749043 0.593283
0.129236 0.749625 0.644693
0.129816 0.750205 0.695914
0.130394 0.750783 0.746964
0.130970 0.751359 0.797856
0.131544 0.751933 0.848604
0.132117 0.752506 0.899216
0.132688 0.753077 0.949702
0.128942 0.799637 0.120396
0.129577 0.800271 0.176466
0.130195 0.800890 0.231113
0.130805 0.801499 0.284937
0.131407 0.802101 0.338179
0.132005 0.802699 0.390971
0.132598 0.803292 0.443398
0.133188 0.803882 0.495516
0.133774 0.804469 0.547369
0.134359 0.805053 0.598987
0.134940 0.805634 0.650396
0.135520 0.806214 0.701618
0.136098 0.806792 0.752668
0.136674 0.807368 0.803560
0.137248 0.807942 0.854308
0.137821 0.808515 0.904920
0.138392 0.809086 0.955406
0.134630 0.855487 0.126083
0.135265 0.856121 0.182153
0.135883 0.856740 0.236801
0.136492 0.857349 0.290625
0.137095 0.857951 0.343866
0.137692 0.858549 0.396659
0.138286 0.859142 0.449086
0.138875 0.859732 0.501204
0.139462 0.860319 0.553056
0.140046 0.860903 0.604675
0.140628 0.861485 0.656084
0.141208 0.862064 0.707306
0.141785 0.862642 0.758355
0.142361 0.863218 0.809248
0.142936 0.863792 0.859995
0.143508 0.864365 0.910607
0.144080 0.864936 0.961094
0.140303 0.911189 0.131756
0.140937 0.911824 0.187826
0.141556 0.912442 0.242473
0.142165 0.913051 0.296297
0.142767 0.913654 0.349539
0.143365 0.914251 0.402332
0.143958 0.914844 0.454758
0.144548 0.915434 0.506877
0.145135 0.916021 0.558729
0.145719 0.916605 0.610347
0.146301 0.917187 0.661757
0.146880 0.917767 0.712978
0.147458 0.918344 0.764028
0.148034 0.918920 0.814921
0.148608 0.919495 0.865668
0.149181 0.920067 0.916280
0.149752 0.920639 0.966766
0.145579 0.962995 0.137032
0.146213 0.963629 0.193102
0.146832 0.964248 0.247749
0.147441 0.964857 0.301573
0.148043 0.965459 0.354815
0.148641 0.966057 0.407607
0.149234 0.966650 0.460034
0.149824 0.967240 0.512152
0.150411 0.967827 0.564005
0.150995 0.968411 0.615623
0.151577 0.968993 0.667033
0.152156 0.969572 0.718254
0.152734 0.970150 0.769304
0.153310 0.970726 0.820196
0.153884 0.971300 0.870944
0.154457 0.971873 0.921556
0.155028 0.972444 0.972042
0.109417 0.050006 0.045724
0.110052 0.050641 0.101794
0.110670 0.051259 0.156441
0.111279 0.051868 0.210265
0.111882 0.052471 0.263507
0.112479 0.053068 0.316299
0.113073 0.053662 0.368726
0.113662 0.054252 0.420845
0.114249 0.054838 0.472697
0.114833 0.055422 0.524315
0.115415 0.056004 0.575725
0.115995 0.056584 0.626946
0.116572 0.057162 0.677996
0.117148 0.057738 0.728889
0.117723 0.058312 0.779636
0.118295 0.058885 0.830248
0.118867 0.059456 0.880734
0.115686 0.111560 0.051993
0.116320 0.112195 0.108062
0.116939 0.112813 0.162710
0.117548 0.113422 0.216534
0.118150 0.114025 0.269776
0.118748 0.114622 0.322568
0.119341 0.115216 0.374995
0.119931 0.115806 0.427113
0.120518 0.116392 0.478965
0.121102 0.116977 0.530584
0.121684 0.117558 0.581993
0.122263 0.118138 0.633215
0.122841 0.118716 0.684265
0.123417 0.119292 0.735157
0.123991 0.119866 0.785904
0.124564 0.120439 0.836517
0.125135 0.121010 0.887003
0.121803 0.171632 0.058110
0.122438 0.172267 0.114180
0.123056 0.172885 0.168828
0.123665 0.173494 0.222651
0.124268 0.174097 0.275893
0.124865 0.174694 0.328686
0.125459 0.175288 0.381112
0.126048 0.175877 0.433231
0.126635 0.176464 0.485083
0.127219 0.177048 0.536701
0.127801 0.177630 0.588111
0.128381 0.178210 0.639332
0.128959 0.178787 0.690382
0.129535 0.179363 0.741275
0.130109 0.179938 0.792022
0.130682 0.180510 0.842634
0.131253 0.181082 0.893120
0.127831 0.230825 0.064138
0.128466 0.231459 0.120208
0.129084 0.232078 0.174856
0.129694 0.232687 0.228679
0.130296 0.233289 0.281921
0.130893 0.233887 0.334714
0.131487 0.234480 0.387140
0.132077 0.235070 0.439259
0.132663 0.235657 0.491111
0.133248 0.236241 0.542729
0.133829 0.236823 0.594139
0.134409 0.237402 0.645360
0.134987 0.237980 0.696410
0.135563 0.238556 0.747303
0.136137 0.239130 0.798050
0.136710 0.239703 0.848662
0.137281 0.240275 0.899149
0.133796 0.289391 0.070103
0.134430 0.290026 0.126172
0.135049 0.290644 0.180820
0.135658 0.291253 0.234644
0.136260 0.291856 0.287886
0.136858 0.292453 0.340678
0.137451 0.293046 0.393105
0.138041 0.293636 0.445223
0.138628 0.294223 0.497075
0.139212 0.294807 0.548694
0.139794 0.295389 0.600103
0.140373 0.295969 0.651325
0.140951 0.296546 0.702375
0.141527 0.297122 0.753267
0.142101 0.297697 0.804014
0.142674 0.298269 0.854627
0.143245 0.298841 0.905113
0.139710 0.347471 0.076017
0.140345 0.348106 0.132087
0.140963 0.348724 0.186735
0.141573 0.349333 0.240558
0.142175 0.349936 0.293800
0.142773 0.350533 0.346593
0.143366 0.351126 0.399019
0.143956 0.351716 0.451138
0.144542 0.352303 0.502990
0.145127 0.352887 0.554608
0.145708 0.353469 0.606018
0.146288 0.354049 0.657239
0.146866 0.354626 0.708289
0.147442 0.355202 0.759182
0.148016 0.355777 0.809929
0.148589 0.356349 0.860541
0.149160 0.356921 0.911028
0.145585 0.405154 0.081892
0.146219 0.405788 0.137962
0.146838 0.406407 0.192609
0.147447 0.407016 0.246433
0.148049 0.407618 0.299675
0.148647 0.408216 0.352467
0.149240 0.408809 0.404894
0.149830 0.409399 0.457012
0.150417 0.409986 0.508864
0.151001 0.410570 0.560483
0.151583 0.411152 0.611892
0.152162 0.411731 0.663114
0.152740 0.412309 0.714164
0.153316 0.412885 0.765056
0.153890 0.413459 0.815803
0.154463 0.414032 0.866416
0.155034 0.414603 0.916902
0.151425 0.462501 0.087732
0.152060 0.463136 0.143802
0.152678 0.463754 0.198449
0.153287 0.464363 0.252273
0.153890 0.464966 0.305515
0.154487 0.465563 0.358307
0.155080 0.466157 0.410734
0.155670 0.466746 0.462852
0.156257 0.467333 0.514705
0.156841 0.467917 0.566323
0.157423 0.468499 0.617733
0.158003 0.469079 0.668954
0.158580 0.469657 0.720004
0.159156 0.470233 0.770896
0.159731 0.470807 0.821644
0.160303 0.471380 0.872256
0.160875 0.471951 0.922742
0.157236 0.519559 0.093543
0.157870 0.520193 0.149612
0.158489 0.520812 0.204260
0.159098 0.521421 0.258084
0.159700 0.522024 0.311325
0.160298 0.522621 0.364118
0.160891 0.523214 0.416545
0.161481 0.523804 0.468663
0.162068 0.524391 0.520515
0.162652 0.524975 0.572134
0.163234 0.525557 0.623543
0.163813 0.526137 0.674765
0.164391 0.526714 0.725815
0.164967 0.527290 0.776707
0.165541 0.527864 0.827454
0.166114 0.528437 0.878067
0.166685 0.529009 0.928553
0.163020 0.576361 0.099327
0.163655 0.576996 0.155397
0.164273 0.577614 0.210045
0.164882 0.578223 0.263868
0.165485 0.578826 0.317110
0.166082 0.579423 0.369903
0.166676 0.580017 0.422329
0.167265 0.580606 0.474448
0.167852 0.581193 0.526300
0.168436 0.581777 0.577918
0.169018 0.582359 0.629328
0.169598 0.582939 0.680549
0.170176 0.583517 0.731599
0.170752 0.584093 0.782492
0.171326 0.584667 0.833239
0.171899 0.585240 0.883851
0.172470 0.585811 0.934337
0.168782 0.632936 0.105089
0.169416 0.633570 0.161159
0.170035 0.634189 0.215806
0.170644 0.634798 0.269630
0.171246 0.635400 0.322872
0.171844 0.635998 0.375664
0.172437 0.636591 0.428091
0.173027 0.637181 0.480209
0.173614 0.637768 0.532061
0.174198 0.638352 0.583680
0.174780 0.638934 0.635089
0.175359 0.639513 0.686311
0.175937 0.640091 0.737361
0.176513 0.640667 0.788253
0.177087 0.641241 0.839000
0.177660 0.641814 0.889613
0.178231 0.642386 0.940099
0.174522 0.689305 0.110829
0.175157 0.689939 0.166899
0.175775 0.690558 0.221546
0.176384 0.691167 0.275370
0.176987 0.691769 0.328612
0.177584 0.692367 0.381405
0.178178 0.692960 0.433831
0.178767 0.693550 0.485950
0.179354 0.694137 0.537802
0.179938 0.694721 0.589420
0.180520 0.695303 0.640830
0.181100 0.695882 0.692051
0.181678 0.696460 0.743101
0.182254 0.697036 0.793994
0.182828 0.697610 0.844741
0.183401 0.698183 0.895353
0.183972 0.698754 0.945839
0.180244 0.745486 0.116551
0.180878 0.746121 0.172620
0.181497 0.746739 0.227268
0.182106 0.747348 0.281092
0.182708 0.747951 0.334334
0.183306 0.748548 0.387126
0.183899 0.749141 0.439553
0.184489 0.749731 0.491671
0.185076 0.750318 0.543523
0.185660 0.750902 0.595142
0.186242 0.751484 0.646551
0.186821 0.752064 0.697773
0.187399 0.752641 0.748823
0.187975 0.753217 0.799715
0.188549 0.753792 0.850462
0.189122 0.754364 0.901075
0.189693 0.754936 0.951561
0.185948 0.801495 0.122254
0.186582 0.802130 0.178324
0.187201 0.802748 0.232972
0.187810 0.803357 0.286796
0.188412 0.803960 0.340037
0.189010 0.804557 0.392830
0.189603 0.805151 0.445257
0.190193 0.805740 0.497375
0.190780 0.806327 0.549227
0.191364 0.806911 0.600846
0.191945 0.807493 0.652255
0.192525 0.808073 0.703477
0.193103 0.808651 0.754526
0.193679 0.809227 0.805419
0.194253 0.809801 0.856166
0.194826 0.810374 0.906778
0.195397 0.810945 0.957265
0.191635 0.857345 0.127942
0.192270 0.857980 0.184012
0.192888 0.858598 0.238659
0.193497 0.859208 0.292483
0.194100 0.859810 0.345725
0.194697 0.860407 0.398518
0.195291 0.861001 0.450944
0.195880 0.861591 0.503063
0.196467 0.862177 0.554915
0.197051 0.862762 0.606533
0.197633 0.863343 0.657943
0.198213 0.863923 0.709164
0.198791 0.864501 0.760214
0.199367 0.865077 0.811107
0.199941 0.865651 0.861854
0.200514 0.866224 0.912466
0.201085 0.866795 0.962952
0.197308 0.913048 0.133615
0.197942 0.913682 0.189685
0.198561 0.914301 0.244332
0.199170 0.914910 0.298156
0.199773 0.915512 0.351398
0.200370 0.916110 0.404190
0.200963 0.916703 0.456617
0.201553 0.917293 0.508735
0.202140 0.917880 0.560588
0.202724 0.918464 0.612206
0.203306 0.919046 0.663616
0.203885 0.919625 0.714837
0.204463 0.920203 0.765887
0.205039 0.920779 0.816779
0.205613 0.921353 0.867527
0.206186 0.921926 0.918139
0.206758 0.922497 0.968625
0.202584 0.964854 0.138891
0.203218 0.965488 0.194960
0.203837 0.966107 0.249608
0.204446 0.966716 0.303432
0.205048 0.967318 0.356674
0.205646 0.967916 0.409466
0.206239 0.968509 0.461893
0.206829 0.969099 0.514011
0.207416 0.969686 0.565863
0.208000 0.970270 0.617482
0.208582 0.970851 0.668891
0.209161 0.971431 0.720113
0.209739 0.972009 0.771163
0.210315 0.972585 0.822055
0.210889 0.973159 0.872802
0.211462 0.973732 0.923415
0.212033 0.974303 0.973901
0.165115 0.051822 0.047540
0.165750 0.052457 0.103610
0.166368 0.053075 0.158257
0.166977 0.053685 0.212081
0.167580 0.054287 0.265323
0.168177 0.054884 0.318116
0.168771 0.055478 0.370542
0.169360 0.056068 0.422661
0.169947 0.056654 0.474513
0.170531 0.057239 0.526131
0.171113 0.057820 0.577541
0.171693 0.058400 0.628762
0.172271 0.058978 0.679812
0.172846 0.059554 0.730705
0.173421 0.060128 0.781452
0.173994 0.060701 0.832064
0.174565 0.061272 0.882550
0.171384 0.113376 0.053809
0.172018 0.114011 0.109879
0.172637 0.114629 0.164526
0.173246 0.115239 0.218350
0.173848 0.115841 0.271592
0.174446 0.116439 0.324384
0.175039 0.117032 0.376811
0.175629 0.117622 0.428929
0.176216 0.118208 0.480781
0.176800 0.118793 0.532400
0.177382 0.119374 0.583809
0.177961 0.119954 0.635031
0.178539 0.120532 0.686081
0.179115 0.121108 0.736973
0.179689 0.121682 0.787720
0.180262 0.122255 0.838333
0.180833 0.122826 0.888819
0.177501 0.173448 0.059926
0.178136 0.174083 0.115996
0.178754 0.174701 0.170644
0.179363 0.175310 0.224467
0.179966 0.175913 0.277709
0.180563 0.176510 0.330502
0.181157 0.177104 0.382928
0.181747 0.177693 0.435047
0.182333 0.178280 0.486899
0.182918 0.178864 0.538517
0.183499 0.179446 0.589927
0.184079 0.180026 0.641148
0.184657 0.180604 0.692198
0.185233 0.181179 0.743091
0.185807 0.181754 0.793838
0.186380 0.182327 0.844450
0.186951 0.182898 0.894937
0.183529 0.232641 0.065954
0.184164 0.233276 0.122024
0.184782 0.233894 0.176672
0.185392 0.234503 0.230495
0.185994 0.235106 0.283737
0.186592 0.235703 0.336530
0.187185 0.236296 0.388956
0.187775 0.236886 0.441075
0.188361 0.237473 0.492927
0.188946 0.238057 0.544545
0.189527 0.238639 0.595955
0.190107 0.239219 0.647176
0.190685 0.239796 0.698226
0.191261 0.240372 0.749119
0.191835 0.240947 0.799866
0.192408 0.241519 0.850478
0.192979 0.242091 0.900965
0.189494 0.291207 0.071919
0.190128 0.291842 0.127989
0.190747 0.292460 0.182636
0.191356 0.293069 0.236460
0.191958 0.293672 0.289702
0.192556 0.294269 0.342494
0.193149 0.294863 0.394921
0.193739 0.295452 0.447039
0.194326 0.296039 0.498891
0.194910 0.296623 0.550510
0.195492 0.297205 0.601919
0.196071 0.297785 0.653141
0.196649 0.298363 0.704191
0.197225 0.298938 0.755083
0.197799 0.299513 0.805830
0.198372 0.300086 0.856443
0.198943 0.300657 0.906929
0.195409 0.349287 0.077833
0.196043 0.349922 0.133903
0.196662 0.350540 0.188551
0.197271 0.351149 0.242375
0.197873 0.351752 0.295616
0.198471 0.352349 0.348409
0.199064 0.352942 0.400836
0.199654 0.353532 0.452954
0.200241 0.354119 0.504806
0.200825 0.354703 0.556425
0.201406 0.355285 0.607834
0.201986 0.355865 0.659056
0.202564 0.356442 0.710105
0.203140 0.357018 0.760998
0.203714 0.357593 0.811745
0.204287 0.358165 0.862357
0.204858 0.358737 0.912844
0.201283 0.406970 0.083708
0.201917 0.407604 0.139778
0.202536 0.408223 0.194425
0.203145 0.408832 0.248249
0.203747 0.409434 0.301491
0.204345 0.410032 0.354283
0.204938 0.410625 0.406710
0.205528 0.411215 0.458828
0.206115 0.411802 0.510681
0.206699 0.412386 0.562299
0.207281 0.412968 0.613708
0.207860 0.413547 0.664930
0.208438 0.414125 0.715980
0.209014 0.414701 0.766872
0.209588 0.415275 0.817620
0.210161 0.415848 0.868232
0.210733 0.416420 0.918718
0.207123 0.464317 0.089548
0.207758 0.464952 0.145618
0.208376 0.465570 0.200265
0.208985 0.466179 0.254089
0.209588 0.466782 0.307331
0.210185 0.467379 0.360123
0.210778 0.467973 0.412550
0.211368 0.468563 0.464668
0.211955 0.469149 0.516521
0.212539 0.469734 0.568139
0.213121 0.470315 0.619549
0.213701 0.470895 0.670770
0.214278 0.471473 0.721820
0.214854 0.472049 0.772713
0.215429 0.472623 0.823460
0.216001 0.473196 0.874072
0.216573 0.473767 0.924558
0.212934 0.521375 0.095359
0.213568 0.522010 0.151428
0.214187 0.522628 0.206076
0.214796 0.523237 0.259900
0.215398 0.523840 0.313142
0.215996 0.524437 0.365934
0.216589 0.525030 0.418361
0.217179 0.525620 0.470479
0.217766 0.526207 0.522331
0.218350 0.526791 0.573950
0.218932 0.527373 0.625359
0.219511 0.527953 0.676581
0.220089 0.528530 0.727631
0.220665 0.529106 0.778523
0.221239 0.529681 0.829270
0.221812 0.530253 0.879883
0.222383 0.530825 0.930369
0.218718 0.578177 0.101143
0.219353 0.578812 0.157213
0.219971 0.579430 0.211861
0.220580 0.580039 0.265684
0.221183 0.580642 0.318926
0.221780 0.581239 0.371719
0.222374 0.581833 0.424145
0.222964 0.582423 0.476264
0.223550 0.583009 0.528116
0.224134 0.583594 0.579734
0.224716 0.584175 0.631144
0.225296 0.584755 0.682365
0.225874 0.585333 0.733415
0.226450 0.585909 0.784308
0.227024 0.586483 0.835055
0.227597 0.587056 0.885667
0.228168 0.587627 0.936153
0.224480 0.634752 0.106905
0.225114 0.635386 0.162975
0.225733 0.636005 0.217622
0.226342 0.636614 0.271446
0.226944 0.637217 0.324688
0.227542 0.637814 0.377480
0.228135 0.638407 0.429907
0.228725 0.638997 0.482025
0.229312 0.639584 0.533877
0.229896 0.640168 0.585496
0.230478 0.640750 0.636905
0.231057 0.641330 0.688127
0.231635 0.641907 0.739177
0.232211 0.642483 0.790069
0.232785 0.643057 0.840817
0.233358 0.643630 0.891429
0.233929 0.644202 0.941915
0.230220 0.691121 0.112645
0.230855 0.691755 0.168715
0.231473 0.692374 0.223363
0.232082 0.692983 0.277186
0.232685 0.693585 0.330428
0.233282 0.694183 0.383221
0.233876 0.694776 0.435647
0.234465 0.695366 0.487766
0.235052 0.695953 0.539618
0.235636 0.696537 0.591236
0.236218 0.697119 0.642646
0.236798 0.697698 0.693867
0.237376 0.698276 0.744917
0.237952 0.698852 0.795810
0.238526 0.699426 0.846557
0.239099 0.699999 0.897169
0.239670 0.700570 0.947655
0.235942 0.747302 0.118367
0.236576 0.747937 0.174437
0.237195 0.748555 0.229084
0.237804 0.749164 0.282908
0.238406 0.749767 0.336150
0.239004 0.750364 0.388942
0.239597 0.750957 0.441369
0.240187 0.751547 0.493487
0.240774 0.752134 0.545339
0.241358 0.752718 0.596958
0.241940 0.753300 0.648367
0.242519 0.753880 0.699589
0.243097 0.754457 0.750639
0.243673 0.755033 0.801531
0.244247 0.755608 0.852278
0.244820 0.756180 0.902891
0.245391 0.756752 0.953377
0.241646 0.803311 0.124071
0.242280 0.803946 0.180140
0.242899 0.804564 0.234788
0.243508 0.805173 0.288612
0.244110 0.805776 0.341854
0.244708 0.806373 0.394646
0.245301 0.806967 0.447073
0.245891 0.807557 0.499191
0.246478 0.808143 0.551043
0.247062 0.808727 0.602662
0.247644 0.809309 0.654071
0.248223 0.809889 0.705293
0.248801 0.810467 0.756343
0.249377 0.811043 0.807235
0.249951 0.811617 0.857982
0.250524 0.812190 0.908595
0.251095 0.812761 0.959081
0.247333 0.859162 0.129758
0.247968 0.859796 0.185828
0.248586 0.860414 0.240476
0.249195 0.861024 0.294299
0.249798 0.861626 0.347541
0.250395 0.862224 0.400334
0.250989 0.862817 0.452760
0.251578 0.863407 0.504879
0.252165 0.863993 0.556731
0.252749 0.864578 0.608349
0.253331 0.865159 0.659759
0.253911 0.865739 0.710980
0.254489 0.866317 0.762030
0.255065 0.866893 0.812923
0.255639 0.867467 0.863670
0.256212 0.868040 0.914282
0.256783 0.868611 0.964768
0.253006 0.914864 0.135431
0.253640 0.915498 0.191501
0.254259 0.916117 0.246148
0.254868 0.916726 0.299972
0.255471 0.917328 0.353214
0.256068 0.917926 0.406006
0.256661 0.918519 0.458433
0.257251 0.919109 0.510551
0.257838 0.919696 0.562404
0.258422 0.920280 0.614022
0.259004 0.920862 0.665432
0.259584 0.921441 0.716653
0.260161 0.922019 0.767703
0.260737 0.922595 0.818595
0.261312 0.923169 0.869343
0.261884 0.923742 0.919955
0.262456 0.924314 0.970441
0.258282 0.966670 0.140707
0.258916 0.967304 0.196777
0.259535 0.967923 0.251424
0.260144 0.968532 0.305248
0.260746 0.969134 0.358490
0.261344 0.969732 0.411282
0.261937 0.970325 0.463709
0.262527 0.970915 0.515827
0.263114 0.971502 0.567679
0.263698 0.972086 0.619298
0.264280 0.972668 0.670707
0.264859 0.973247 0.721929
0.265437 0.973825 0.772979
0.266013 0.974401 0.823871
0.266587 0.974975 0.874618
0.267160 0.975548 0.925231
0.267731 0.976119 0.975717
0.220021 0.053613 0.049330
0.220656 0.054247 0.105400
0.221274 0.054866 0.160048
0.221883 0.055475 0.213871
0.222486 0.056077 0.267113
0.223083 0.056675 0.319906
0.223677 0.057268 0.372332
0.224267 0.057858 0.424451
0.224853 0.058445 0.476303
0.225437 0.059029 0.527921
0.226019 0.059611 0.579331
0.226599 0.060190 0.630552
0.227177 0.060768 0.681602
0.227753 0.061344 0.732495
0.228327 0.061918 0.783242
0.228900 0.062491 0.833854
0.229471 0.063062 0.884341
0.226290 0.115167 0.055599
