skills/creativeops-grade/assets/grade/luts/soft_pastel_v10.cube
TITLE "soft_pastel_v10"
LUT_3D_SIZE 5
DOMAIN_MIN 0.0 0.0 0.0
DOMAIN_MAX 1.0 1.0 1.0
0.052412 0.048148 0.043865
0.054877 0.050612 0.261648
0.057244 0.052980 0.470838
0.059567 0.055303 0.676137
0.061862 0.057597 0.878876
0.076791 0.287532 0.068244
0.079255 0.289997 0.286027
0.081623 0.292364 0.495217
0.083946 0.294688 0.700516
0.086240 0.296982 0.903254
0.100231 0.517700 0.091684
0.102695 0.520165 0.309467
0.105063 0.522532 0.518657
0.107386 0.524856 0.723956
0.109680 0.527150 0.926694
0.123239 0.743627 0.114692
0.125703 0.746092 0.332475
0.128071 0.748459 0.541665
0.130394 0.750783 0.746964
0.132688 0.753077 0.949702
0.145579 0.962995 0.137032
0.148043 0.965459 0.354815
0.150411 0.967827 0.564005
0.152734 0.970150 0.769304
0.155028 0.972444 0.972042
0.274358 0.055384 0.051102
0.276823 0.057849 0.268885
0.279190 0.060216 0.478075
0.281514 0.062540 0.683374
0.283808 0.064834 0.886112
0.298737 0.294769 0.075481
0.301201 0.297234 0.293264
0.303569 0.299601 0.502453
0.305892 0.301924 0.707753
0.308186 0.304219 0.910491
0.322177 0.524937 0.098921
0.324641 0.527402 0.316704
0.327009 0.529769 0.525893
0.329332 0.532092 0.731193
0.331626 0.534387 0.933931
0.345185 0.750864 0.121929
0.347649 0.753329 0.339712
0.350017 0.755696 0.548901
0.352340 0.758019 0.754201
0.354634 0.760314 0.956939
0.367525 0.970232 0.144269
0.369989 0.972696 0.362052
0.372357 0.975064 0.571241
0.374680 0.977387 0.776541
0.376974 0.979681 0.979279
0.487957 0.062349 0.058067
0.490422 0.064814 0.275850
0.492789 0.067181 0.485039
0.495113 0.069504 0.690339
0.497407 0.071799 0.893077
0.512336 0.301734 0.082445
0.514801 0.304198 0.300228
0.517168 0.306566 0.509418
0.519491 0.308889 0.714717
0.521786 0.311183 0.917455
0.535776 0.531902 0.105885
0.538240 0.534366 0.323668
0.540608 0.536734 0.532858
0.542931 0.539057 0.738157
0.545226 0.541351 0.940895
0.558784 0.757829 0.128893
0.561249 0.760293 0.346676
0.563616 0.762661 0.555866
0.565939 0.764984 0.761165
0.568234 0.767278 0.963903
0.581124 0.977196 0.151233
0.583589 0.979661 0.369016
0.585956 0.982028 0.578206
0.588279 0.984351 0.783505
0.590574 0.986646 0.986243
0.697657 0.069186 0.064904
0.700122 0.071651 0.282687
0.702489 0.074018 0.491877
0.704813 0.076342 0.697176
0.707107 0.078636 0.899914
0.722036 0.308571 0.089283
0.724501 0.311036 0.307066
0.726868 0.313403 0.516255
0.729191 0.315727 0.721555
0.731486 0.318021 0.924293
0.745476 0.538739 0.112723
0.747941 0.541204 0.330506
0.750308 0.543571 0.539695
0.752631 0.545894 0.744995
0.754926 0.548189 0.947733
0.768484 0.764666 0.135731
0.770949 0.767131 0.353514
0.773316 0.769498 0.562703
0.775639 0.771821 0.768003
0.777934 0.774116 0.970741
0.790824 0.984034 0.158071
0.793289 0.986498 0.375854
0.795656 0.988866 0.585043
0.797979 0.991189 0.790343
0.800274 0.993483 0.993081
0.897379 0.075699 0.071416
0.899844 0.078163 0.289199
0.902211 0.080531 0.498389
0.904534 0.082854 0.703688
0.906829 0.085148 0.906426
0.921758 0.315083 0.095795
0.924222 0.317548 0.313578
0.926590 0.319915 0.522768
0.928913 0.322239 0.728067
0.931207 0.324533 0.930805
0.945198 0.545251 0.119235
0.947662 0.547716 0.337018
0.950030 0.550083 0.546208
0.952353 0.552406 0.751507
0.954647 0.554701 0.954245
0.968206 0.771178 0.142243
0.970670 0.773643 0.360026
0.973038 0.776010 0.569216
0.975361 0.778334 0.774515
0.977655 0.780628 0.977253
0.990546 0.990546 0.164583
0.993010 0.993010 0.382366
0.995378 0.995378 0.591556
0.997701 0.997701 0.796855
0.999995 0.999995 0.999593
