skills/creativeops-grade/assets/grade/luts/soft_pastel_v19.cube
TITLE "soft_pastel_v19"
LUT_3D_SIZE 17
DOMAIN_MIN 0.0 0.0 0.0
DOMAIN_MAX 1.0 1.0 1.0
0.088925 0.081115 0.073247
0.089810 0.082000 0.125133
0.090669 0.082858 0.175498
0.091511 0.083700 0.224894
0.092341 0.084530 0.273579
0.093161 0.085351 0.321704
0.093973 0.086163 0.369367
0.094779 0.086969 0.416638
0.095579 0.087769 0.463569
0.096374 0.088564 0.510199
0.097165 0.089354 0.556561
0.097951 0.090141 0.602680
0.098733 0.090923 0.648577
0.099512 0.091702 0.694271
0.100288 0.092478 0.739777
0.101061 0.093251 0.785107
0.101831 0.094021 0.830274
0.097638 0.140542 0.081959
0.098523 0.141427 0.133845
0.099381 0.142285 0.184211
0.100223 0.143127 0.233607
0.101053 0.143957 0.282292
0.101874 0.144778 0.330416
0.102686 0.145590 0.378079
0.103492 0.146396 0.425350
0.104292 0.147196 0.472281
0.105087 0.147991 0.518912
0.105877 0.148781 0.565274
0.106663 0.149568 0.611393
0.107446 0.150350 0.657290
0.108225 0.151129 0.702984
0.109001 0.151905 0.748489
0.109773 0.152678 0.793820
0.110543 0.153448 0.838987
0.106114 0.198357 0.090436
0.106999 0.199242 0.142322
0.107857 0.200100 0.192687
0.108699 0.200942 0.242083
0.109529 0.201772 0.290768
0.110350 0.202593 0.338893
0.111162 0.203405 0.386556
0.111968 0.204211 0.433827
0.112768 0.205011 0.480758
0.113563 0.205806 0.527388
0.114354 0.206596 0.573750
0.115140 0.207382 0.619869
0.115922 0.208165 0.665766
0.116701 0.208944 0.711460
0.117477 0.209720 0.756966
0.118250 0.210492 0.802296
0.119020 0.211262 0.847463
0.114435 0.255113 0.098757
0.115320 0.255998 0.150643
0.116178 0.256856 0.201008
0.117020 0.257698 0.250404
0.117850 0.258528 0.299089
0.118671 0.259349 0.347214
0.119483 0.260161 0.394877
0.120289 0.260967 0.442148
0.121089 0.261767 0.489079
0.121884 0.262562 0.535709
0.122675 0.263352 0.582071
0.123461 0.264139 0.628190
0.124243 0.264921 0.674087
0.125022 0.265700 0.719781
0.125798 0.266476 0.765287
0.126571 0.267249 0.810617
0.127341 0.268019 0.855784
0.122641 0.311082 0.106962
0.123525 0.311967 0.158848
0.124384 0.312826 0.209214
0.125226 0.313668 0.258610
0.126056 0.314498 0.307295
0.126876 0.315318 0.355419
0.127689 0.316130 0.403082
0.128495 0.316936 0.450353
0.129295 0.317736 0.497284
0.130090 0.318531 0.543915
0.130880 0.319322 0.590277
0.131666 0.320108 0.636396
0.132449 0.320890 0.682293
0.133228 0.321669 0.727987
0.134004 0.322445 0.773492
0.134776 0.323218 0.818823
0.135546 0.323988 0.863990
0.130755 0.366426 0.115076
0.131639 0.367311 0.166962
0.132498 0.368170 0.217328
0.133340 0.369012 0.266724
0.134170 0.369842 0.315409
0.134990 0.370662 0.363533
0.135803 0.371475 0.411196
0.136609 0.372280 0.458467
0.137409 0.373080 0.505398
0.138204 0.373875 0.552029
0.138994 0.374666 0.598391
0.139780 0.375452 0.644510
0.140563 0.376234 0.690407
0.141342 0.377013 0.736101
0.142118 0.377789 0.781606
0.142890 0.378562 0.826937
0.143660 0.379332 0.872104
0.138793 0.421253 0.123114
0.139678 0.422137 0.175001
0.140536 0.422996 0.225366
0.141378 0.423838 0.274762
0.142208 0.424668 0.323447
0.143029 0.425488 0.371571
0.143841 0.426301 0.419234
0.144647 0.427107 0.466505
0.145447 0.427907 0.513436
0.146242 0.428702 0.560067
0.147032 0.429492 0.606429
0.147819 0.430278 0.652548
0.148601 0.431061 0.698445
0.149380 0.431840 0.744139
0.150156 0.432615 0.789644
0.150928 0.433388 0.834975
0.151698 0.434158 0.880142
0.146766 0.475638 0.131088
0.147651 0.476522 0.182974
0.148510 0.477381 0.233339
0.149352 0.478223 0.282735
0.150182 0.479053 0.331420
0.151002 0.479873 0.379545
0.151815 0.480686 0.427208
0.152620 0.481492 0.474479
0.153420 0.482292 0.521410
0.154215 0.483087 0.568040
0.155006 0.483877 0.614402
0.155792 0.484663 0.660521
0.156574 0.485446 0.706418
0.157353 0.486225 0.752112
0.158129 0.487000 0.797618
0.158902 0.487773 0.842948
0.159672 0.488543 0.888115
0.154684 0.529639 0.139005
0.155568 0.530523 0.190891
0.156427 0.531382 0.241256
0.157269 0.532224 0.290652
0.158099 0.533054 0.339337
0.158919 0.533874 0.387462
0.159732 0.534687 0.435125
0.160537 0.535493 0.482396
0.161337 0.536293 0.529327
0.162132 0.537088 0.575957
0.162923 0.537878 0.622319
0.163709 0.538664 0.668438
0.164491 0.539447 0.714336
0.165270 0.540226 0.760029
0.166046 0.541001 0.805535
0.166819 0.541774 0.850865
0.167589 0.542544 0.896032
0.162551 0.583300 0.146872
0.163435 0.584184 0.198758
0.164294 0.585043 0.249124
0.165136 0.585885 0.298520
0.165966 0.586715 0.347204
0.166786 0.587535 0.395329
0.167599 0.588348 0.442992
0.168405 0.589154 0.490263
0.169205 0.589954 0.537194
0.170000 0.590749 0.583825
0.170790 0.591539 0.630186
0.171576 0.592325 0.676305
0.172359 0.593108 0.722203
0.173138 0.593887 0.767897
0.173913 0.594662 0.813402
0.174686 0.595435 0.858733
0.175456 0.596205 0.903900
0.170373 0.636656 0.154695
0.171258 0.637541 0.206581
0.172116 0.638399 0.256946
0.172959 0.639241 0.306342
0.173788 0.640071 0.355027
0.174609 0.640892 0.403152
0.175421 0.641704 0.450815
0.176227 0.642510 0.498086
0.177027 0.643310 0.545017
0.177822 0.644105 0.591647
0.178613 0.644895 0.638009
0.179399 0.645682 0.684128
0.180181 0.646464 0.730025
0.180960 0.647243 0.775719
0.181736 0.648019 0.821225
0.182509 0.648791 0.866555
0.183279 0.649561 0.911722
0.178155 0.689737 0.162477
0.179040 0.690621 0.214363
0.179899 0.691480 0.264728
0.180741 0.692322 0.314124
0.181571 0.693152 0.362809
0.182391 0.693972 0.410934
0.183204 0.694785 0.458597
0.184009 0.695591 0.505868
0.184809 0.696391 0.552799
0.185604 0.697186 0.599429
0.186395 0.697976 0.645791
0.187181 0.698762 0.691910
0.187963 0.699545 0.737808
0.188742 0.700324 0.783501
0.189518 0.701099 0.829007
0.190291 0.701872 0.874337
0.191061 0.702642 0.919504
0.185901 0.742565 0.170222
0.186785 0.743450 0.222108
0.187644 0.744309 0.272474
0.188486 0.745151 0.321870
0.189316 0.745981 0.370554
0.190136 0.746801 0.418679
0.190949 0.747614 0.466342
0.191755 0.748419 0.513613
0.192555 0.749219 0.560544
0.193350 0.750014 0.607175
0.194140 0.750805 0.653536
0.194926 0.751591 0.699655
0.195709 0.752373 0.745553
0.196488 0.753152 0.791247
0.197263 0.753928 0.836752
0.198036 0.754701 0.882083
0.198806 0.755471 0.927250
0.193612 0.795163 0.177933
0.194497 0.796047 0.229819
0.195355 0.796906 0.280185
0.196197 0.797748 0.329581
0.197027 0.798578 0.378266
0.197848 0.799398 0.426390
0.198660 0.800211 0.474053
0.199466 0.801017 0.521324
0.200266 0.801817 0.568255
0.201061 0.802612 0.614886
0.201851 0.803402 0.661248
0.202637 0.804188 0.707367
0.203420 0.804971 0.753264
0.204199 0.805749 0.798958
0.204975 0.806525 0.844463
0.205747 0.807298 0.889794
0.206517 0.808068 0.934961
0.201292 0.847545 0.185613
0.202176 0.848430 0.237499
0.203035 0.849289 0.287865
0.203877 0.850131 0.337261
0.204707 0.850961 0.385946
0.205527 0.851781 0.434070
0.206340 0.852593 0.481733
0.207146 0.853399 0.529004
0.207946 0.854199 0.575935
0.208741 0.854994 0.622566
0.209531 0.855785 0.668928
0.210317 0.856571 0.715047
0.211100 0.857353 0.760944
0.211879 0.858132 0.806638
0.212654 0.858908 0.852143
0.213427 0.859681 0.897474
0.214197 0.860451 0.942641
0.208942 0.899729 0.193264
0.209827 0.900613 0.245150
0.210686 0.901472 0.295515
0.211528 0.902314 0.344911
0.212358 0.903144 0.393596
0.213178 0.903964 0.441721
0.213991 0.904777 0.489384
0.214796 0.905583 0.536655
0.215596 0.906383 0.583586
0.216391 0.907178 0.630216
0.217182 0.907968 0.676578
0.217968 0.908754 0.722697
0.218750 0.909537 0.768594
0.219529 0.910316 0.814288
0.220305 0.911091 0.859794
0.221078 0.911864 0.905124
0.221848 0.912634 0.950291
0.216248 0.949561 0.200570
0.217133 0.950446 0.252456
0.217992 0.951304 0.302821
0.218834 0.952146 0.352217
0.219664 0.952976 0.400902
0.220484 0.953797 0.449027
0.221296 0.954609 0.496690
0.222102 0.955415 0.543961
0.222902 0.956215 0.590892
0.223697 0.957010 0.637522
0.224488 0.957800 0.683884
0.225274 0.958587 0.730003
0.226056 0.959369 0.775900
0.226835 0.960148 0.821594
0.227611 0.960924 0.867100
0.228384 0.961696 0.912430
0.229154 0.962466 0.957597
0.141957 0.083692 0.075824
0.142842 0.084576 0.127710
0.143700 0.085435 0.178075
0.144542 0.086277 0.227471
0.145372 0.087107 0.276156
0.146193 0.087927 0.324280
0.147005 0.088740 0.371943
0.147811 0.089546 0.419215
0.148611 0.090346 0.466145
0.149406 0.091141 0.512776
0.150196 0.091931 0.559138
0.150983 0.092717 0.605257
0.151765 0.093500 0.651154
0.152544 0.094279 0.696848
0.153320 0.095054 0.742353
0.154092 0.095827 0.787684
0.154862 0.096597 0.832851
0.150670 0.143119 0.084536
0.151554 0.144003 0.136422
0.152413 0.144862 0.186788
0.153255 0.145704 0.236183
0.154085 0.146534 0.284868
0.154905 0.147354 0.332993
0.155718 0.148167 0.380656
0.156524 0.148973 0.427927
0.157324 0.149773 0.474858
0.158119 0.150568 0.521489
0.158909 0.151358 0.567850
0.159695 0.152144 0.613969
0.160478 0.152927 0.659867
0.161257 0.153706 0.705560
0.162032 0.154481 0.751066
0.162805 0.155254 0.796397
0.163575 0.156024 0.841564
0.159146 0.200934 0.093012
0.160030 0.201818 0.144898
0.160889 0.202677 0.195264
0.161731 0.203519 0.244660
0.162561 0.204349 0.293345
0.163381 0.205169 0.341469
0.164194 0.205982 0.389132
0.165000 0.206788 0.436403
0.165800 0.207588 0.483334
0.166595 0.208383 0.529965
0.167385 0.209173 0.576327
0.168171 0.209959 0.622446
0.168954 0.210742 0.668343
0.169733 0.211521 0.714037
0.170508 0.212296 0.759542
0.171281 0.213069 0.804873
0.172051 0.213839 0.850040
0.167467 0.257690 0.101333
0.168351 0.258574 0.153219
0.169210 0.259433 0.203585
0.170052 0.260275 0.252981
0.170882 0.261105 0.301666
0.171702 0.261925 0.349790
0.172515 0.262738 0.397453
0.173321 0.263544 0.444724
0.174121 0.264344 0.491655
0.174916 0.265139 0.538286
0.175706 0.265929 0.584648
0.176492 0.266715 0.630767
0.177275 0.267498 0.676664
0.178054 0.268277 0.722358
0.178830 0.269052 0.767863
0.179602 0.269825 0.813194
0.180372 0.270595 0.858361
0.175673 0.313659 0.109539
0.176557 0.314544 0.161425
0.177416 0.315402 0.211791
0.178258 0.316244 0.261186
0.179088 0.317074 0.309871
0.179908 0.317895 0.357996
0.180721 0.318707 0.405659
0.181526 0.319513 0.452930
0.182327 0.320313 0.499861
0.183121 0.321108 0.546491
0.183912 0.321898 0.592853
0.184698 0.322685 0.638972
0.185480 0.323467 0.684870
0.186259 0.324246 0.730563
0.187035 0.325022 0.776069
0.187808 0.325794 0.821399
0.188578 0.326564 0.866567
0.183787 0.369003 0.117653
0.184671 0.369888 0.169539
0.185530 0.370746 0.219905
0.186372 0.371588 0.269300
0.187202 0.372418 0.317985
0.188022 0.373239 0.366110
0.188835 0.374051 0.413773
0.189640 0.374857 0.461044
0.190441 0.375657 0.507975
0.191235 0.376452 0.554605
0.192026 0.377242 0.600967
0.192812 0.378029 0.647086
0.193594 0.378811 0.692984
0.194373 0.379590 0.738677
0.195149 0.380366 0.784183
0.195922 0.381138 0.829513
0.196692 0.381908 0.874681
0.191825 0.423829 0.125691
0.192709 0.424714 0.177577
0.193568 0.425573 0.227943
0.194410 0.426415 0.277339
0.195240 0.427245 0.326023
0.196060 0.428065 0.374148
0.196873 0.428878 0.421811
0.197679 0.429683 0.469082
0.198479 0.430483 0.516013
0.199274 0.431278 0.562644
0.200064 0.432069 0.609005
0.200850 0.432855 0.655124
0.201633 0.433637 0.701022
0.202412 0.434416 0.746716
0.203187 0.435192 0.792221
0.203960 0.435965 0.837552
0.204730 0.436735 0.882719
0.199798 0.478214 0.133665
0.200683 0.479099 0.185551
0.201541 0.479958 0.235916
0.202383 0.480800 0.285312
0.203213 0.481630 0.333997
0.204034 0.482450 0.382121
0.204846 0.483263 0.429784
0.205652 0.484068 0.477056
0.206452 0.484868 0.523986
0.207247 0.485663 0.570617
0.208037 0.486454 0.616979
0.208824 0.487240 0.663098
0.209606 0.488022 0.708995
0.210385 0.488801 0.754689
0.211161 0.489577 0.800194
0.211933 0.490350 0.845525
0.212703 0.491120 0.890692
0.207715 0.532215 0.141582
0.208600 0.533100 0.193468
0.209458 0.533958 0.243833
0.210300 0.534801 0.293229
0.211130 0.535631 0.341914
0.211951 0.536451 0.390038
0.212763 0.537263 0.437701
0.213569 0.538069 0.484973
0.214369 0.538869 0.531903
0.215164 0.539664 0.578534
0.215954 0.540455 0.624896
0.216741 0.541241 0.671015
0.217523 0.542023 0.716912
0.218302 0.542802 0.762606
0.219078 0.543578 0.808112
0.219851 0.544351 0.853442
0.220621 0.545121 0.898609
0.215582 0.585876 0.149449
0.216467 0.586761 0.201335
0.217326 0.587619 0.251700
0.218168 0.588462 0.301096
0.218998 0.589291 0.349781
0.219818 0.590112 0.397906
0.220630 0.590924 0.445569
0.221436 0.591730 0.492840
0.222236 0.592530 0.539771
0.223031 0.593325 0.586401
0.223822 0.594116 0.632763
0.224608 0.594902 0.678882
0.225390 0.595684 0.724779
0.226169 0.596463 0.770473
0.226945 0.597239 0.815979
0.227718 0.598012 0.861309
0.228488 0.598782 0.906476
0.223405 0.639233 0.157271
0.224289 0.640117 0.209157
0.225148 0.640976 0.259523
0.225990 0.641818 0.308919
0.226820 0.642648 0.357604
0.227641 0.643468 0.405728
0.228453 0.644281 0.453391
0.229259 0.645087 0.500662
0.230059 0.645887 0.547593
0.230854 0.646682 0.594224
0.231644 0.647472 0.640586
0.232430 0.648258 0.686705
0.233213 0.649041 0.732602
0.233992 0.649820 0.778296
0.234768 0.650595 0.823801
0.235540 0.651368 0.869132
0.236310 0.652138 0.914299
0.231187 0.692313 0.165054
0.232072 0.693198 0.216940
0.232930 0.694056 0.267305
0.233772 0.694899 0.316701
0.234602 0.695728 0.365386
0.235423 0.696549 0.413510
0.236235 0.697361 0.461173
0.237041 0.698167 0.508445
0.237841 0.698967 0.555375
0.238636 0.699762 0.602006
0.239426 0.700553 0.648368
0.240213 0.701339 0.694487
0.240995 0.702121 0.740384
0.241774 0.702900 0.786078
0.242550 0.703676 0.831584
0.243323 0.704449 0.876914
0.244092 0.705219 0.922081
0.238932 0.745142 0.172799
0.239817 0.746027 0.224685
0.240675 0.746885 0.275050
0.241518 0.747727 0.324446
0.242348 0.748557 0.373131
0.243168 0.749378 0.421256
0.243980 0.750190 0.468919
0.244786 0.750996 0.516190
0.245586 0.751796 0.563121
0.246381 0.752591 0.609751
0.247172 0.753381 0.656113
0.247958 0.754168 0.702232
0.248740 0.754950 0.748129
0.249519 0.755729 0.793823
0.250295 0.756505 0.839329
0.251068 0.757278 0.884659
0.251838 0.758048 0.929826
0.246644 0.797739 0.180510
0.247528 0.798624 0.232396
0.248387 0.799482 0.282762
0.249229 0.800324 0.332158
0.250059 0.801154 0.380842
0.250879 0.801975 0.428967
0.251692 0.802787 0.476630
0.252498 0.803593 0.523901
0.253298 0.804393 0.570832
0.254093 0.805188 0.617463
0.254883 0.805979 0.663824
0.255669 0.806765 0.709943
0.256452 0.807547 0.755841
0.257231 0.808326 0.801534
0.258006 0.809102 0.847040
0.258779 0.809875 0.892371
0.259549 0.810645 0.937538
0.254323 0.850122 0.188190
0.255208 0.851007 0.240076
0.256067 0.851865 0.290441
0.256909 0.852707 0.339837
0.257739 0.853537 0.388522
0.258559 0.854358 0.436647
0.259372 0.855170 0.484310
0.260177 0.855976 0.531581
0.260977 0.856776 0.578512
0.261772 0.857571 0.625142
0.262563 0.858361 0.671504
0.263349 0.859148 0.717623
0.264131 0.859930 0.763521
0.264910 0.860709 0.809214
0.265686 0.861485 0.854720
0.266459 0.862257 0.900050
0.267229 0.863027 0.945217
0.261974 0.902305 0.195841
0.262859 0.903190 0.247727
0.263717 0.904048 0.298092
0.264559 0.904891 0.347488
0.265389 0.905721 0.396173
0.266210 0.906541 0.444297
0.267022 0.907353 0.491960
0.267828 0.908159 0.539232
0.268628 0.908959 0.586162
0.269423 0.909754 0.632793
0.270213 0.910545 0.679155
0.271000 0.911331 0.725274
0.271782 0.912113 0.771171
0.272561 0.912892 0.816865
0.273337 0.913668 0.862370
0.274109 0.914441 0.907701
0.274879 0.915211 0.952868
0.269280 0.952138 0.203146
0.270165 0.953022 0.255033
0.271023 0.953881 0.305398
0.271865 0.954723 0.354794
0.272695 0.955553 0.403479
0.273516 0.956373 0.451603
0.274328 0.957186 0.499266
0.275134 0.957992 0.546537
0.275934 0.958792 0.593468
0.276729 0.959587 0.640099
0.277519 0.960377 0.686461
0.278305 0.961163 0.732580
0.279088 0.961946 0.778477
0.279867 0.962725 0.824171
0.280643 0.963500 0.869676
0.281415 0.964273 0.915007
0.282185 0.965043 0.960174
0.193649 0.086203 0.078335
0.194533 0.087088 0.130221
0.195392 0.087947 0.180587
0.196234 0.088789 0.229982
0.197064 0.089619 0.278667
0.197884 0.090439 0.326792
0.198697 0.091251 0.374455
0.199503 0.092057 0.421726
0.200303 0.092857 0.468657
0.201098 0.093652 0.515287
0.201888 0.094443 0.561649
0.202674 0.095229 0.607768
0.203457 0.096011 0.653666
0.204236 0.096790 0.699359
0.205012 0.097566 0.744865
0.205784 0.098339 0.790196
0.206554 0.099109 0.835363
0.202361 0.145630 0.087048
0.203246 0.146515 0.138934
0.204105 0.147373 0.189299
0.204947 0.148216 0.238695
0.205777 0.149046 0.287380
0.206597 0.149866 0.335505
0.207410 0.150678 0.383168
0.208215 0.151484 0.430439
0.209015 0.152284 0.477370
0.209810 0.153079 0.524000
0.210601 0.153870 0.570362
0.211387 0.154656 0.616481
0.212169 0.155438 0.662378
0.212948 0.156217 0.708072
0.213724 0.156993 0.753578
0.214497 0.157766 0.798908
0.215267 0.158536 0.844075
0.210838 0.203445 0.095524
0.211722 0.204330 0.147410
0.212581 0.205188 0.197775
0.213423 0.206030 0.247171
0.214253 0.206860 0.295856
0.215073 0.207681 0.343981
0.215886 0.208493 0.391644
0.216692 0.209299 0.438915
0.217492 0.210099 0.485846
0.218287 0.210894 0.532476
0.219077 0.211684 0.578838
0.219863 0.212471 0.624957
0.220646 0.213253 0.670854
0.221425 0.214032 0.716548
0.222200 0.214808 0.762054
0.222973 0.215581 0.807384
0.223743 0.216351 0.852551
0.219159 0.260201 0.103845
0.220043 0.261086 0.155731
0.220902 0.261945 0.206096
0.221744 0.262787 0.255492
0.222574 0.263617 0.304177
0.223394 0.264437 0.352302
0.224207 0.265249 0.399965
0.225013 0.266055 0.447236
0.225813 0.266855 0.494167
0.226608 0.267650 0.540797
0.227398 0.268441 0.587159
0.228184 0.269227 0.633278
0.228967 0.270009 0.679176
0.229746 0.270788 0.724869
0.230521 0.271564 0.770375
0.231294 0.272337 0.815705
0.232064 0.273107 0.860872
0.227364 0.316171 0.112051
0.228249 0.317055 0.163937
0.229108 0.317914 0.214302
0.229950 0.318756 0.263698
0.230780 0.319586 0.312383
0.231600 0.320406 0.360507
0.232413 0.321219 0.408170
0.233218 0.322025 0.455442
0.234018 0.322825 0.502372
0.234813 0.323620 0.549003
0.235604 0.324410 0.595365
0.236390 0.325196 0.641484
0.237172 0.325979 0.687381
0.237951 0.326757 0.733075
0.238727 0.327533 0.778581
0.239500 0.328306 0.823911
0.240270 0.329076 0.869078
0.235478 0.371515 0.120165
0.236363 0.372399 0.172051
0.237222 0.373258 0.222416
0.238064 0.374100 0.271812
0.238894 0.374930 0.320497
0.239714 0.375750 0.368621
0.240527 0.376563 0.416284
0.241332 0.377369 0.463556
0.242132 0.378169 0.510486
0.242927 0.378964 0.557117
0.243718 0.379754 0.603479
0.244504 0.380540 0.649598
0.245286 0.381323 0.695495
0.246065 0.382102 0.741189
0.246841 0.382877 0.786695
0.247614 0.383650 0.832025
0.248384 0.384420 0.877192
0.243517 0.426341 0.128203
0.244401 0.427226 0.180089
0.245260 0.428084 0.230454
0.246102 0.428926 0.279850
0.246932 0.429756 0.328535
0.247752 0.430577 0.376660
0.248565 0.431389 0.424323
0.249370 0.432195 0.471594
0.250171 0.432995 0.518525
0.250965 0.433790 0.565155
0.251756 0.434580 0.611517
0.252542 0.435366 0.657636
0.253324 0.436149 0.703533
0.254103 0.436928 0.749227
0.254879 0.437704 0.794733
0.255652 0.438476 0.840063
0.256422 0.439246 0.885230
0.251490 0.480726 0.136176
0.252374 0.481611 0.188062
0.253233 0.482469 0.238428
0.254075 0.483311 0.287823
0.254905 0.484141 0.336508
0.255725 0.484962 0.384633
0.256538 0.485774 0.432296
0.257344 0.486580 0.479567
0.258144 0.487380 0.526498
0.258939 0.488175 0.573129
0.259729 0.488965 0.619490
0.260515 0.489752 0.665609
0.261298 0.490534 0.711507
0.262077 0.491313 0.757200
0.262853 0.492089 0.802706
0.263625 0.492861 0.848037
0.264395 0.493631 0.893204
0.259407 0.534727 0.144093
0.260292 0.535611 0.195979
0.261150 0.536470 0.246345
0.261992 0.537312 0.295741
0.262822 0.538142 0.344425
0.263643 0.538962 0.392550
0.264455 0.539775 0.440213
0.265261 0.540581 0.487484
0.266061 0.541381 0.534415
0.266856 0.542176 0.581046
0.267646 0.542966 0.627407
0.268432 0.543752 0.673526
0.269215 0.544535 0.719424
0.269994 0.545314 0.765118
0.270770 0.546090 0.810623
0.271542 0.546862 0.855954
0.272312 0.547632 0.901121
0.267274 0.588388 0.151960
0.268159 0.589272 0.203846
0.269017 0.590131 0.254212
0.269859 0.590973 0.303608
0.270689 0.591803 0.352293
0.271510 0.592623 0.400417
0.272322 0.593436 0.448080
0.273128 0.594242 0.495351
0.273928 0.595042 0.542282
0.274723 0.595837 0.588913
0.275514 0.596627 0.635275
0.276300 0.597413 0.681394
0.277082 0.598196 0.727291
0.277861 0.598975 0.772985
0.278637 0.599751 0.818490
0.279410 0.600523 0.863821
0.280180 0.601293 0.908988
0.275097 0.641744 0.159783
0.275981 0.642629 0.211669
0.276840 0.643487 0.262035
0.277682 0.644329 0.311430
0.278512 0.645159 0.360115
0.279332 0.645980 0.408240
0.280145 0.646792 0.455903
0.280951 0.647598 0.503174
0.281751 0.648398 0.550105
0.282546 0.649193 0.596735
0.283336 0.649984 0.643097
0.284122 0.650770 0.689216
0.284905 0.651552 0.735114
0.285684 0.652331 0.780807
0.286459 0.653107 0.826313
0.287232 0.653880 0.871643
0.288002 0.654650 0.916811
0.282879 0.694825 0.167565
0.283764 0.695709 0.219451
0.284622 0.696568 0.269817
0.285464 0.697410 0.319213
0.286294 0.698240 0.367897
0.287115 0.699060 0.416022
0.287927 0.699873 0.463685
0.288733 0.700679 0.510956
0.289533 0.701479 0.557887
0.290328 0.702274 0.604518
0.291118 0.703064 0.650879
0.291904 0.703850 0.696998
0.292687 0.704633 0.742896
0.293466 0.705412 0.788590
0.294242 0.706188 0.834095
0.295014 0.706960 0.879426
0.295784 0.707730 0.924593
0.290624 0.747654 0.175310
0.291509 0.748538 0.227196
0.292367 0.749397 0.277562
0.293209 0.750239 0.326958
0.294039 0.751069 0.375643
0.294860 0.751889 0.423767
0.295672 0.752702 0.471430
0.296478 0.753508 0.518701
0.297278 0.754308 0.565632
0.298073 0.755103 0.612263
0.298863 0.755893 0.658625
0.299650 0.756679 0.704744
0.300432 0.757462 0.750641
0.301211 0.758241 0.796335
0.301987 0.759016 0.841840
0.302760 0.759789 0.887171
0.303530 0.760559 0.932338
0.298335 0.800251 0.183022
0.299220 0.801135 0.234908
0.300079 0.801994 0.285273
0.300921 0.802836 0.334669
0.301751 0.803666 0.383354
0.302571 0.804486 0.431479
0.303384 0.805299 0.479142
0.304189 0.806105 0.526413
0.304989 0.806905 0.573344
0.305784 0.807700 0.619974
0.306575 0.808490 0.666336
0.307361 0.809276 0.712455
0.308143 0.810059 0.758352
0.308922 0.810838 0.804046
0.309698 0.811613 0.849552
0.310471 0.812386 0.894882
0.311241 0.813156 0.940049
0.306015 0.852634 0.190702
0.306900 0.853518 0.242588
0.307758 0.854377 0.292953
0.308601 0.855219 0.342349
0.309430 0.856049 0.391034
0.310251 0.856869 0.439158
0.311063 0.857682 0.486821
0.311869 0.858488 0.534093
0.312669 0.859288 0.581023
0.313464 0.860083 0.627654
0.314255 0.860873 0.674016
0.315041 0.861659 0.720135
0.315823 0.862442 0.766032
0.316602 0.863220 0.811726
0.317378 0.863996 0.857231
0.318151 0.864769 0.902562
0.318921 0.865539 0.947729
0.313666 0.904817 0.198352
0.314550 0.905701 0.250238
0.315409 0.906560 0.300604
0.316251 0.907402 0.350000
0.317081 0.908232 0.398684
0.317901 0.909052 0.446809
0.318714 0.909865 0.494472
0.319520 0.910671 0.541743
0.320320 0.911471 0.588674
0.321115 0.912266 0.635305
0.321905 0.913056 0.681666
0.322691 0.913842 0.727785
0.323474 0.914625 0.773683
0.324253 0.915404 0.819376
0.325029 0.916180 0.864882
0.325801 0.916952 0.910213
0.326571 0.917722 0.955380
0.320972 0.954649 0.205658
0.321856 0.955534 0.257544
0.322715 0.956392 0.307910
0.323557 0.957234 0.357305
0.324387 0.958064 0.405990
0.325207 0.958885 0.454115
0.326020 0.959697 0.501778
0.326826 0.960503 0.549049
0.327626 0.961303 0.595980
0.328421 0.962098 0.642610
0.329211 0.962889 0.688972
0.329997 0.963675 0.735091
0.330780 0.964457 0.780989
0.331559 0.965236 0.826682
0.332334 0.966012 0.872188
0.333107 0.966785 0.917519
0.333877 0.967555 0.962686
0.244438 0.088671 0.080803
0.245323 0.089556 0.132689
0.246181 0.090414 0.183054
0.247023 0.091256 0.232450
0.247853 0.092086 0.281135
0.248674 0.092907 0.329260
0.249486 0.093719 0.376923
0.250292 0.094525 0.424194
0.251092 0.095325 0.471125
0.251887 0.096120 0.517755
0.252677 0.096910 0.564117
0.253464 0.097697 0.610236
0.254246 0.098479 0.656133
0.255025 0.099258 0.701827
0.255801 0.100034 0.747333
0.256574 0.100806 0.792663
0.257344 0.101576 0.837830
0.253151 0.148098 0.089515
