skills/creativeops-grade/assets/grade/luts/soft_pastel_v10.cube
TITLE "soft_pastel_v10"
LUT_3D_SIZE 9
DOMAIN_MIN 0.0 0.0 0.0
DOMAIN_MAX 1.0 1.0 1.0
0.052412 0.048148 0.043865
0.053665 0.049401 0.154583
0.054877 0.050612 0.261648
0.056067 0.051803 0.366867
0.057244 0.052980 0.470838
0.058410 0.054146 0.573866
0.059567 0.055303 0.676137
0.060718 0.056453 0.777777
0.061862 0.057597 0.878876
0.064798 0.169773 0.056252
0.066051 0.171026 0.166969
0.067263 0.172238 0.274034
0.068454 0.173429 0.379254
0.069630 0.174605 0.483224
0.070796 0.175771 0.586252
0.071954 0.176929 0.688524
0.073104 0.178079 0.790163
0.074248 0.179223 0.891262
0.076791 0.287532 0.068244
0.078044 0.288785 0.178961
0.079255 0.289997 0.286027
0.080446 0.291188 0.391246
0.081623 0.292364 0.495217
0.082789 0.293530 0.598245
0.083946 0.294688 0.700516
0.085096 0.295838 0.802156
0.086240 0.296982 0.903254
0.088580 0.403295 0.080033
0.089833 0.404548 0.190750
0.091044 0.405760 0.297816
0.092235 0.406950 0.403035
0.093412 0.408127 0.507006
0.094578 0.409293 0.610034
0.095735 0.410450 0.712305
0.096885 0.411601 0.813945
0.098029 0.412745 0.915043
0.100231 0.517700 0.091684
0.101483 0.518953 0.202401
0.102695 0.520165 0.309467
0.103886 0.521356 0.414686
0.105063 0.522532 0.518657
0.106228 0.523698 0.621685
0.107386 0.524856 0.723956
0.108536 0.526006 0.825596
0.109680 0.527150 0.926694
0.111777 0.631077 0.103230
0.113030 0.632330 0.213947
0.114241 0.633542 0.321013
0.115432 0.634733 0.426232
0.116609 0.635909 0.530203
0.117775 0.637075 0.633231
0.118932 0.638232 0.735502
0.120082 0.639383 0.837142
0.121226 0.640527 0.938240
0.123239 0.743627 0.114692
0.124492 0.744880 0.225409
0.125703 0.746092 0.332475
0.126894 0.747283 0.437694
0.128071 0.748459 0.541665
0.129236 0.749625 0.644693
0.130394 0.750783 0.746964
0.131544 0.751933 0.848604
0.132688 0.753077 0.949702
0.134630 0.855487 0.126083
0.135883 0.856740 0.236801
0.137095 0.857951 0.343866
0.138286 0.859142 0.449086
0.139462 0.860319 0.553056
0.140628 0.861485 0.656084
0.141785 0.862642 0.758355
0.142936 0.863792 0.859995
0.144080 0.864936 0.961094
0.145579 0.962995 0.137032
0.146832 0.964248 0.247749
0.148043 0.965459 0.354815
0.149234 0.966650 0.460034
0.150411 0.967827 0.564005
0.151577 0.968993 0.667033
0.152734 0.970150 0.769304
0.153884 0.971300 0.870944
0.155028 0.972444 0.972042
0.165115 0.051822 0.047540
0.166368 0.053075 0.158257
0.167580 0.054287 0.265323
0.168771 0.055478 0.370542
0.169947 0.056654 0.474513
0.171113 0.057820 0.577541
0.172271 0.058978 0.679812
0.173421 0.060128 0.781452
0.174565 0.061272 0.882550
0.177501 0.173448 0.059926
0.178754 0.174701 0.170644
0.179966 0.175913 0.277709
0.181157 0.177104 0.382928
0.182333 0.178280 0.486899
0.183499 0.179446 0.589927
0.184657 0.180604 0.692198
0.185807 0.181754 0.793838
0.186951 0.182898 0.894937
0.189494 0.291207 0.071919
0.190747 0.292460 0.182636
0.191958 0.293672 0.289702
0.193149 0.294863 0.394921
0.194326 0.296039 0.498891
0.195492 0.297205 0.601919
0.196649 0.298363 0.704191
0.197799 0.299513 0.805830
0.198943 0.300657 0.906929
0.201283 0.406970 0.083708
0.202536 0.408223 0.194425
0.203747 0.409434 0.301491
0.204938 0.410625 0.406710
0.206115 0.411802 0.510681
0.207281 0.412968 0.613708
0.208438 0.414125 0.715980
0.209588 0.415275 0.817620
0.210733 0.416420 0.918718
0.212934 0.521375 0.095359
0.214187 0.522628 0.206076
0.215398 0.523840 0.313142
0.216589 0.525030 0.418361
0.217766 0.526207 0.522331
0.218932 0.527373 0.625359
0.220089 0.528530 0.727631
0.221239 0.529681 0.829270
0.222383 0.530825 0.930369
0.224480 0.634752 0.106905
0.225733 0.636005 0.217622
0.226944 0.637217 0.324688
0.228135 0.638407 0.429907
0.229312 0.639584 0.533877
0.230478 0.640750 0.636905
0.231635 0.641907 0.739177
0.232785 0.643057 0.840817
0.233929 0.644202 0.941915
0.235942 0.747302 0.118367
0.237195 0.748555 0.229084
0.238406 0.749767 0.336150
0.239597 0.750957 0.441369
0.240774 0.752134 0.545339
0.241940 0.753300 0.648367
0.243097 0.754457 0.750639
0.244247 0.755608 0.852278
0.245391 0.756752 0.953377
0.247333 0.859162 0.129758
0.248586 0.860414 0.240476
0.249798 0.861626 0.347541
0.250989 0.862817 0.452760
0.252165 0.863993 0.556731
0.253331 0.865159 0.659759
0.254489 0.866317 0.762030
0.255639 0.867467 0.863670
0.256783 0.868611 0.964768
0.258282 0.966670 0.140707
0.259535 0.967923 0.251424
0.260746 0.969134 0.358490
0.261937 0.970325 0.463709
0.263114 0.971502 0.567679
0.264280 0.972668 0.670707
0.265437 0.973825 0.772979
0.266587 0.974975 0.874618
0.267731 0.976119 0.975717
0.274358 0.055384 0.051102
0.275611 0.056637 0.161819
0.276823 0.057849 0.268885
0.278014 0.059040 0.374104
0.279190 0.060216 0.478075
0.280356 0.061382 0.581103
0.281514 0.062540 0.683374
0.282664 0.063690 0.785014
0.283808 0.064834 0.886112
0.286744 0.177010 0.063488
0.287997 0.178263 0.174206
0.289209 0.179475 0.281271
0.290400 0.180666 0.386490
0.291576 0.181842 0.490461
0.292742 0.183008 0.593489
0.293900 0.184166 0.695760
0.295050 0.185316 0.797400
0.296194 0.186460 0.898498
0.298737 0.294769 0.075481
0.299990 0.296022 0.186198
0.301201 0.297234 0.293264
0.302392 0.298425 0.398483
0.303569 0.299601 0.502453
0.304735 0.300767 0.605481
0.305892 0.301924 0.707753
0.307042 0.303075 0.809392
0.308186 0.304219 0.910491
0.310526 0.410532 0.087270
0.311779 0.411785 0.197987
0.312991 0.412996 0.305053
0.314181 0.414187 0.410272
0.315358 0.415364 0.514243
0.316524 0.416530 0.617270
0.317681 0.417687 0.719542
0.318831 0.418837 0.821182
0.319976 0.419981 0.922280
0.322177 0.524937 0.098921
0.323430 0.526190 0.209638
0.324641 0.527402 0.316704
0.325832 0.528592 0.421923
0.327009 0.529769 0.525893
0.328175 0.530935 0.628921
0.329332 0.532092 0.731193
0.330482 0.533243 0.832832
0.331626 0.534387 0.933931
0.333723 0.638314 0.110467
0.334976 0.639567 0.221184
0.336187 0.640779 0.328250
0.337378 0.641969 0.433469
0.338555 0.643146 0.537439
0.339721 0.644312 0.640467
0.340878 0.645469 0.742739
0.342028 0.646619 0.844378
0.343173 0.647764 0.945477
0.345185 0.750864 0.121929
0.346438 0.752117 0.232646
0.347649 0.753329 0.339712
0.348840 0.754519 0.444931
0.350017 0.755696 0.548901
0.351183 0.756862 0.651929
0.352340 0.758019 0.754201
0.353490 0.759170 0.855840
0.354634 0.760314 0.956939
0.356576 0.862723 0.133320
0.357829 0.863976 0.244038
0.359041 0.865188 0.351103
0.360232 0.866379 0.456322
0.361408 0.867555 0.560293
0.362574 0.868721 0.663321
0.363732 0.869879 0.765592
0.364882 0.871029 0.867232
0.366026 0.872173 0.968330
0.367525 0.970232 0.144269
0.368778 0.971485 0.254986
0.369989 0.972696 0.362052
0.371180 0.973887 0.467271
0.372357 0.975064 0.571241
0.373523 0.976230 0.674269
0.374680 0.977387 0.776541
0.375830 0.978537 0.878180
0.376974 0.979681 0.979279
0.381780 0.058887 0.054605
0.383033 0.060140 0.165322
0.384245 0.061352 0.272388
0.385436 0.062542 0.377607
0.386612 0.063719 0.481577
0.387778 0.064885 0.584605
0.388936 0.066042 0.686877
0.390086 0.067193 0.788516
0.391230 0.068337 0.889615
0.394167 0.180513 0.066991
0.395420 0.181766 0.177708
0.396631 0.182977 0.284774
0.397822 0.184168 0.389993
0.398999 0.185345 0.493964
0.400165 0.186511 0.596992
0.401322 0.187668 0.699263
0.402472 0.188818 0.800903
0.403616 0.189962 0.902001
0.406159 0.298272 0.078983
0.407412 0.299525 0.189701
0.408624 0.300736 0.296766
0.409814 0.301927 0.401985
0.410991 0.303104 0.505956
0.412157 0.304270 0.608984
0.413314 0.305427 0.711255
0.414465 0.306577 0.812895
0.415609 0.307721 0.913993
0.417948 0.414034 0.090772
0.419201 0.415287 0.201490
0.420413 0.416499 0.308555
0.421603 0.417690 0.413774
0.422780 0.418866 0.517745
0.423946 0.420032 0.620773
0.425103 0.421190 0.723044
0.426254 0.422340 0.824684
0.427398 0.423484 0.925783
0.429599 0.528440 0.102423
0.430852 0.529693 0.213141
0.432064 0.530904 0.320206
0.433254 0.532095 0.425425
0.434431 0.533272 0.529396
0.435597 0.534437 0.632424
0.436754 0.535595 0.734695
0.437904 0.536745 0.836335
0.439049 0.537889 0.937433
0.441145 0.641817 0.113969
0.442398 0.643069 0.224687
0.443610 0.644281 0.331752
0.444800 0.645472 0.436971
0.445977 0.646648 0.540942
0.447143 0.647814 0.643970
0.448300 0.648972 0.746241
0.449451 0.650122 0.847881
0.450595 0.651266 0.948980
0.452607 0.754367 0.125431
0.453860 0.755620 0.236149
0.455072 0.756831 0.343214
0.456262 0.758022 0.448433
0.457439 0.759199 0.552404
0.458605 0.760365 0.655432
0.459762 0.761522 0.757703
0.460913 0.762672 0.859343
0.462057 0.763816 0.960441
0.463999 0.866226 0.136823
0.465252 0.867479 0.247540
0.466463 0.868691 0.354606
0.467654 0.869881 0.459825
0.468831 0.871058 0.563796
0.469996 0.872224 0.666824
0.471154 0.873381 0.769095
0.472304 0.874532 0.870735
0.473448 0.875676 0.971833
0.474947 0.973734 0.147771
0.476200 0.974987 0.258489
0.477412 0.976199 0.365554
0.478602 0.977390 0.470773
0.479779 0.978566 0.574744
0.480945 0.979732 0.677772
0.482102 0.980889 0.780043
0.483253 0.982040 0.881683
0.484397 0.983184 0.982781
0.487957 0.062349 0.058067
0.489210 0.063602 0.168784
0.490422 0.064814 0.275850
0.491613 0.066004 0.381069
0.492789 0.067181 0.485039
0.493955 0.068347 0.588067
0.495113 0.069504 0.690339
0.496263 0.070655 0.791978
0.497407 0.071799 0.893077
0.500344 0.183975 0.070453
0.501597 0.185228 0.181170
0.502808 0.186439 0.288236
0.503999 0.187630 0.393455
0.505176 0.188807 0.497426
0.506341 0.189973 0.600454
0.507499 0.191130 0.702725
0.508649 0.192280 0.804365
0.509793 0.193424 0.905463
0.512336 0.301734 0.082445
0.513589 0.302987 0.193163
0.514801 0.304198 0.300228
0.515991 0.305389 0.405447
0.517168 0.306566 0.509418
0.518334 0.307732 0.612446
0.519491 0.308889 0.714717
0.520641 0.310039 0.816357
0.521786 0.311183 0.917455
0.524125 0.417496 0.094234
0.525378 0.418749 0.204952
0.526590 0.419961 0.312017
0.527780 0.421152 0.417236
0.528957 0.422328 0.521207
0.530123 0.423494 0.624235
0.531280 0.424652 0.726506
0.532431 0.425802 0.828146
0.533575 0.426946 0.929245
0.535776 0.531902 0.105885
0.537029 0.533155 0.216603
0.538240 0.534366 0.323668
0.539431 0.535557 0.428887
0.540608 0.536734 0.532858
0.541774 0.537899 0.635886
0.542931 0.539057 0.738157
0.544081 0.540207 0.839797
0.545226 0.541351 0.940895
0.547322 0.645279 0.117431
0.548575 0.646531 0.228149
0.549787 0.647743 0.335214
0.550977 0.648934 0.440433
0.552154 0.650110 0.544404
0.553320 0.651276 0.647432
0.554477 0.652434 0.749703
0.555628 0.653584 0.851343
0.556772 0.654728 0.952442
0.558784 0.757829 0.128893
0.560037 0.759082 0.239611
0.561249 0.760293 0.346676
0.562439 0.761484 0.451895
0.563616 0.762661 0.555866
0.564782 0.763827 0.658894
0.565939 0.764984 0.761165
0.567089 0.766134 0.862805
0.568234 0.767278 0.963903
0.570175 0.869688 0.140285
0.571428 0.870941 0.251002
0.572640 0.872153 0.358068
0.573831 0.873343 0.463287
0.575007 0.874520 0.567258
0.576173 0.875686 0.670286
0.577331 0.876843 0.772557
0.578481 0.877994 0.874197
0.579625 0.879138 0.975295
0.581124 0.977196 0.151233
0.582377 0.978449 0.261951
0.583589 0.979661 0.369016
0.584779 0.980852 0.474235
0.585956 0.982028 0.578206
0.587122 0.983194 0.681234
0.588279 0.984351 0.783505
0.589429 0.985502 0.885145
0.590574 0.986646 0.986243
0.593188 0.065780 0.061498
0.594441 0.067033 0.172215
0.595653 0.068245 0.279281
0.596844 0.069435 0.384500
0.598020 0.070612 0.488471
0.599186 0.071778 0.591499
0.600344 0.072935 0.693770
0.601494 0.074086 0.795410
0.602638 0.075230 0.896508
0.605575 0.187406 0.073884
0.606828 0.188659 0.184601
0.608039 0.189871 0.291667
0.609230 0.191061 0.396886
0.610407 0.192238 0.500857
0.611572 0.193404 0.603885
0.612730 0.194561 0.706156
0.613880 0.195712 0.807796
0.615024 0.196856 0.908894
0.617567 0.305165 0.085876
0.618820 0.306418 0.196594
0.620032 0.307630 0.303659
0.621222 0.308820 0.408878
0.622399 0.309997 0.512849
0.623565 0.311163 0.615877
0.624722 0.312320 0.718148
0.625872 0.313470 0.819788
0.627017 0.314615 0.920887
0.629356 0.420928 0.097665
0.630609 0.422181 0.208383
0.631821 0.423392 0.315448
0.633011 0.424583 0.420668
0.634188 0.425760 0.524638
0.635354 0.426925 0.627666
0.636511 0.428083 0.729937
0.637662 0.429233 0.831577
0.638806 0.430377 0.932676
0.641007 0.535333 0.109316
0.642260 0.536586 0.220034
0.643471 0.537797 0.327099
0.644662 0.538988 0.432318
0.645839 0.540165 0.536289
0.647005 0.541331 0.639317
0.648162 0.542488 0.741588
0.649312 0.543638 0.843228
0.650457 0.544782 0.944327
0.652553 0.648710 0.120862
0.653806 0.649963 0.231580
0.655018 0.651174 0.338645
0.656208 0.652365 0.443864
0.657385 0.653542 0.547835
0.658551 0.654708 0.650863
0.659708 0.655865 0.753134
0.660859 0.657015 0.854774
0.662003 0.658159 0.955873
0.664015 0.761260 0.132324
0.665268 0.762513 0.243042
0.666480 0.763724 0.350107
0.667670 0.764915 0.455326
0.668847 0.766092 0.559297
0.670013 0.767258 0.662325
0.671170 0.768415 0.764596
0.672320 0.769565 0.866236
0.673465 0.770709 0.967335
0.675406 0.873119 0.143716
0.676659 0.874372 0.254433
0.677871 0.875584 0.361499
0.679062 0.876775 0.466718
0.680238 0.877951 0.570689
0.681404 0.879117 0.673717
0.682562 0.880275 0.775988
0.683712 0.881425 0.877628
0.684856 0.882569 0.978726
0.686355 0.980627 0.154664
0.687608 0.981880 0.265382
0.688820 0.983092 0.372447
0.690010 0.984283 0.477666
0.691187 0.985459 0.581637
0.692353 0.986625 0.684665
0.693510 0.987783 0.786936
0.694660 0.988933 0.888576
0.695805 0.990077 0.989675
0.697657 0.069186 0.064904
0.698910 0.070439 0.175621
0.700122 0.071651 0.282687
0.701313 0.072842 0.387906
0.702489 0.074018 0.491877
0.703655 0.075184 0.594905
0.704813 0.076342 0.697176
0.705963 0.077492 0.798816
0.707107 0.078636 0.899914
0.710044 0.190812 0.077290
0.711297 0.192065 0.188008
0.712508 0.193277 0.295073
0.713699 0.194468 0.400292
0.714876 0.195644 0.504263
0.716042 0.196810 0.607291
0.717199 0.197968 0.709562
0.718349 0.199118 0.811202
0.719493 0.200262 0.912301
0.722036 0.308571 0.089283
0.723289 0.309824 0.200000
0.724501 0.311036 0.307066
0.725691 0.312227 0.412285
0.726868 0.313403 0.516255
0.728034 0.314569 0.619283
0.729191 0.315727 0.721555
0.730342 0.316877 0.823195
0.731486 0.318021 0.924293
0.733825 0.424334 0.101072
0.735078 0.425587 0.211789
0.736290 0.426798 0.318855
0.737480 0.427989 0.424074
0.738657 0.429166 0.528045
0.739823 0.430332 0.631073
0.740980 0.431489 0.733344
0.742131 0.432639 0.834984
0.743275 0.433784 0.936082
0.745476 0.538739 0.112723
0.746729 0.539992 0.223440
0.747941 0.541204 0.330506
0.749131 0.542394 0.435725
0.750308 0.543571 0.539695
0.751474 0.544737 0.642723
0.752631 0.545894 0.744995
0.753781 0.547045 0.846634
0.754926 0.548189 0.947733
0.757022 0.652116 0.124269
0.758275 0.653369 0.234986
0.759487 0.654581 0.342052
0.760677 0.655771 0.447271
0.761854 0.656948 0.551242
0.763020 0.658114 0.654269
0.764177 0.659271 0.756541
0.765328 0.660421 0.858181
0.766472 0.661566 0.959279
0.768484 0.764666 0.135731
0.769737 0.765919 0.246448
0.770949 0.767131 0.353514
0.772139 0.768321 0.458733
0.773316 0.769498 0.562703
0.774482 0.770664 0.665731
0.775639 0.771821 0.768003
0.776790 0.772972 0.869642
0.777934 0.774116 0.970741
0.779876 0.876526 0.147122
0.781129 0.877779 0.257840
0.782340 0.878990 0.364905
0.783531 0.880181 0.470124
0.784708 0.881358 0.574095
0.785873 0.882523 0.677123
0.787031 0.883681 0.779394
0.788181 0.884831 0.881034
0.789325 0.885975 0.982132
0.790824 0.984034 0.158071
0.792077 0.985287 0.268788
0.793289 0.986498 0.375854
0.794479 0.987689 0.481073
0.795656 0.988866 0.585043
0.796822 0.990032 0.688071
0.797979 0.991189 0.790343
0.799130 0.992339 0.891983
0.800274 0.993483 0.993081
0.801489 0.072572 0.068290
0.802742 0.073825 0.179007
0.803954 0.075037 0.286073
0.805145 0.076227 0.391292
0.806321 0.077404 0.495262
0.807487 0.078570 0.598290
0.808645 0.079727 0.700562
0.809795 0.080878 0.802201
0.810939 0.082022 0.903300
0.813875 0.194198 0.080676
0.815128 0.195451 0.191393
0.816340 0.196662 0.298459
0.817531 0.197853 0.403678
0.818707 0.199030 0.507649
0.819873 0.200196 0.610677
0.821031 0.201353 0.712948
0.822181 0.202503 0.814588
0.823325 0.203647 0.915686
0.825868 0.311957 0.092668
0.827121 0.313210 0.203386
0.828332 0.314421 0.310451
0.829523 0.315612 0.415670
0.830700 0.316789 0.519641
0.831866 0.317955 0.622669
0.833023 0.319112 0.724940
0.834173 0.320262 0.826580
0.835317 0.321406 0.927678
0.837657 0.427719 0.104457
0.838910 0.428972 0.215175
0.840121 0.430184 0.322240
0.841312 0.431375 0.427459
0.842489 0.432551 0.531430
0.843655 0.433717 0.634458
0.844812 0.434875 0.736729
0.845962 0.436025 0.838369
0.847107 0.437169 0.939468
0.849308 0.542125 0.116108
0.850561 0.543378 0.226825
0.851772 0.544589 0.333891
0.852963 0.545780 0.439110
0.854140 0.546957 0.543081
0.855306 0.548122 0.646109
0.856463 0.549280 0.748380
0.857613 0.550430 0.850020
0.858757 0.551574 0.951118
0.860854 0.655501 0.127654
0.862107 0.656754 0.238372
0.863318 0.657966 0.345437
0.864509 0.659157 0.450656
0.865686 0.660333 0.554627
0.866852 0.661499 0.657655
0.868009 0.662657 0.759926
0.869159 0.663807 0.861566
0.870303 0.664951 0.962664
0.872316 0.768052 0.139116
0.873569 0.769305 0.249834
0.874780 0.770516 0.356899
0.875971 0.771707 0.462118
0.877148 0.772884 0.566089
0.878314 0.774050 0.669117
0.879471 0.775207 0.771388
0.880621 0.776357 0.873028
0.881765 0.777501 0.974126
0.883707 0.879911 0.150508
0.884960 0.881164 0.261225
0.886172 0.882376 0.368291
0.887363 0.883566 0.473510
0.888539 0.884743 0.577481
0.889705 0.885909 0.680509
0.890863 0.887066 0.782780
0.892013 0.888217 0.884420
0.893157 0.889361 0.985518
0.894656 0.987419 0.161456
0.895909 0.988672 0.272174
0.897120 0.989884 0.379239
0.898311 0.991075 0.484458
0.899488 0.992251 0.588429
0.900654 0.993417 0.691457
0.901811 0.994574 0.793728
0.902961 0.995725 0.895368
0.904105 0.996869 0.996466
0.897379 0.075699 0.071416
0.898632 0.076952 0.182134
0.899844 0.078163 0.289199
0.901035 0.079354 0.394418
0.902211 0.080531 0.498389
0.903377 0.081696 0.601417
0.904534 0.082854 0.703688
0.905685 0.084004 0.805328
0.906829 0.085148 0.906426
0.909765 0.197324 0.083802
0.911018 0.198577 0.194520
0.912230 0.199789 0.301585
0.913421 0.200980 0.406804
0.914597 0.202156 0.510775
0.915763 0.203322 0.613803
0.916921 0.204480 0.716074
0.918071 0.205630 0.817714
0.919215 0.206774 0.918813
0.921758 0.315083 0.095795
0.923011 0.316336 0.206512
0.924222 0.317548 0.313578
0.925413 0.318739 0.418797
0.926590 0.319915 0.522768
0.927756 0.321081 0.625796
0.928913 0.322239 0.728067
0.930063 0.323389 0.829707
0.931207 0.324533 0.930805
0.933547 0.430846 0.107584
0.934800 0.432099 0.218301
0.936011 0.433311 0.325367
0.937202 0.434501 0.430586
0.938379 0.435678 0.534557
0.939545 0.436844 0.637585
0.940702 0.438001 0.739856
0.941852 0.439152 0.841496
0.942996 0.440296 0.942594
0.945198 0.545251 0.119235
0.946451 0.546504 0.229952
0.947662 0.547716 0.337018
0.948853 0.548906 0.442237
0.950030 0.550083 0.546208
0.951196 0.551249 0.649235
0.952353 0.552406 0.751507
0.953503 0.553557 0.853147
0.954647 0.554701 0.954245
0.956744 0.658628 0.130781
0.957997 0.659881 0.241498
0.959208 0.661093 0.348564
0.960399 0.662283 0.453783
0.961576 0.663460 0.557754
0.962742 0.664626 0.660782
0.963899 0.665783 0.763053
0.965049 0.666934 0.864693
0.966193 0.668078 0.965791
0.968206 0.771178 0.142243
0.969459 0.772431 0.252960
0.970670 0.773643 0.360026
0.971861 0.774834 0.465245
0.973038 0.776010 0.569216
0.974204 0.777176 0.672244
0.975361 0.778334 0.774515
0.976511 0.779484 0.876155
0.977655 0.780628 0.977253
0.979597 0.883038 0.153634
0.980850 0.884291 0.264352
0.982062 0.885502 0.371417
0.983253 0.886693 0.476636
0.984429 0.887870 0.580607
0.985595 0.889036 0.683635
0.986753 0.890193 0.785906
0.987903 0.891343 0.887546
0.989047 0.892487 0.988645
0.990546 0.990546 0.164583
0.991799 0.991799 0.275300
0.993010 0.993010 0.382366
0.994201 0.994201 0.487585
0.995378 0.995378 0.591556
0.996544 0.996544 0.694584
0.997701 0.997701 0.796855
0.998851 0.998851 0.898495
0.999995 0.999995 0.999593
