skills/creativeops-grade/assets/grade/luts/soft_pastel_v19.cube
TITLE "soft_pastel_v19"
LUT_3D_SIZE 9
DOMAIN_MIN 0.0 0.0 0.0
DOMAIN_MAX 1.0 1.0 1.0
0.088925 0.081115 0.073247
0.090669 0.082858 0.175498
0.092341 0.084530 0.273579
0.093973 0.086163 0.369367
0.095579 0.087769 0.463569
0.097165 0.089354 0.556561
0.098733 0.090923 0.648577
0.100288 0.092478 0.739777
0.101831 0.094021 0.830274
0.106114 0.198357 0.090436
0.107857 0.200100 0.192687
0.109529 0.201772 0.290768
0.111162 0.203405 0.386556
0.112768 0.205011 0.480758
0.114354 0.206596 0.573750
0.115922 0.208165 0.665766
0.117477 0.209720 0.756966
0.119020 0.211262 0.847463
0.122641 0.311082 0.106962
0.124384 0.312826 0.209214
0.126056 0.314498 0.307295
0.127689 0.316130 0.403082
0.129295 0.317736 0.497284
0.130880 0.319322 0.590277
0.132449 0.320890 0.682293
0.134004 0.322445 0.773492
0.135546 0.323988 0.863990
0.138793 0.421253 0.123114
0.140536 0.422996 0.225366
0.142208 0.424668 0.323447
0.143841 0.426301 0.419234
0.145447 0.427907 0.513436
0.147032 0.429492 0.606429
0.148601 0.431061 0.698445
0.150156 0.432615 0.789644
0.151698 0.434158 0.880142
0.154684 0.529639 0.139005
0.156427 0.531382 0.241256
0.158099 0.533054 0.339337
0.159732 0.534687 0.435125
0.161337 0.536293 0.529327
0.162923 0.537878 0.622319
0.164491 0.539447 0.714336
0.166046 0.541001 0.805535
0.167589 0.542544 0.896032
0.170373 0.636656 0.154695
0.172116 0.638399 0.256946
0.173788 0.640071 0.355027
0.175421 0.641704 0.450815
0.177027 0.643310 0.545017
0.178613 0.644895 0.638009
0.180181 0.646464 0.730025
0.181736 0.648019 0.821225
0.183279 0.649561 0.911722
0.185901 0.742565 0.170222
0.187644 0.744309 0.272474
0.189316 0.745981 0.370554
0.190949 0.747614 0.466342
0.192555 0.749219 0.560544
0.194140 0.750805 0.653536
0.195709 0.752373 0.745553
0.197263 0.753928 0.836752
0.198806 0.755471 0.927250
0.201292 0.847545 0.185613
0.203035 0.849289 0.287865
0.204707 0.850961 0.385946
0.206340 0.852593 0.481733
0.207946 0.854199 0.575935
0.209531 0.855785 0.668928
0.211100 0.857353 0.760944
0.212654 0.858908 0.852143
0.214197 0.860451 0.942641
0.216248 0.949561 0.200570
0.217992 0.951304 0.302821
0.219664 0.952976 0.400902
0.221296 0.954609 0.496690
0.222902 0.956215 0.590892
0.224488 0.957800 0.683884
0.226056 0.959369 0.775900
0.227611 0.960924 0.867100
0.229154 0.962466 0.957597
0.193649 0.086203 0.078335
0.195392 0.087947 0.180587
0.197064 0.089619 0.278667
0.198697 0.091251 0.374455
0.200303 0.092857 0.468657
0.201888 0.094443 0.561649
0.203457 0.096011 0.653666
0.205012 0.097566 0.744865
0.206554 0.099109 0.835363
0.210838 0.203445 0.095524
0.212581 0.205188 0.197775
0.214253 0.206860 0.295856
0.215886 0.208493 0.391644
0.217492 0.210099 0.485846
0.219077 0.211684 0.578838
0.220646 0.213253 0.670854
0.222200 0.214808 0.762054
0.223743 0.216351 0.852551
0.227364 0.316171 0.112051
0.229108 0.317914 0.214302
0.230780 0.319586 0.312383
0.232413 0.321219 0.408170
0.234018 0.322825 0.502372
0.235604 0.324410 0.595365
0.237172 0.325979 0.687381
0.238727 0.327533 0.778581
0.240270 0.329076 0.869078
0.243517 0.426341 0.128203
0.245260 0.428084 0.230454
0.246932 0.429756 0.328535
0.248565 0.431389 0.424323
0.250171 0.432995 0.518525
0.251756 0.434580 0.611517
0.253324 0.436149 0.703533
0.254879 0.437704 0.794733
0.256422 0.439246 0.885230
0.259407 0.534727 0.144093
0.261150 0.536470 0.246345
0.262822 0.538142 0.344425
0.264455 0.539775 0.440213
0.266061 0.541381 0.534415
0.267646 0.542966 0.627407
0.269215 0.544535 0.719424
0.270770 0.546090 0.810623
0.272312 0.547632 0.901121
0.275097 0.641744 0.159783
0.276840 0.643487 0.262035
0.278512 0.645159 0.360115
0.280145 0.646792 0.455903
0.281751 0.648398 0.550105
0.283336 0.649984 0.643097
0.284905 0.651552 0.735114
0.286459 0.653107 0.826313
0.288002 0.654650 0.916811
0.290624 0.747654 0.175310
0.292367 0.749397 0.277562
0.294039 0.751069 0.375643
0.295672 0.752702 0.471430
0.297278 0.754308 0.565632
0.298863 0.755893 0.658625
0.300432 0.757462 0.750641
0.301987 0.759016 0.841840
0.303530 0.760559 0.932338
0.306015 0.852634 0.190702
0.307758 0.854377 0.292953
0.309430 0.856049 0.391034
0.311063 0.857682 0.486821
0.312669 0.859288 0.581023
0.314255 0.860873 0.674016
0.315823 0.862442 0.766032
0.317378 0.863996 0.857231
0.318921 0.865539 0.947729
0.320972 0.954649 0.205658
0.322715 0.956392 0.307910
0.324387 0.958064 0.405990
0.326020 0.959697 0.501778
0.327626 0.961303 0.595980
0.329211 0.962889 0.688972
0.330780 0.964457 0.780989
0.332334 0.966012 0.872188
0.333877 0.967555 0.962686
0.294548 0.091106 0.083237
0.296291 0.092849 0.185489
0.297963 0.094521 0.283570
0.299596 0.096154 0.379357
0.301202 0.097760 0.473559
0.302787 0.099345 0.566552
0.304356 0.100914 0.658568
0.305911 0.102468 0.749767
0.307454 0.104011 0.840265
0.311737 0.208348 0.100426
0.313480 0.210091 0.202678
0.315152 0.211763 0.300759
0.316785 0.213396 0.396546
0.318391 0.215002 0.490748
0.319976 0.216587 0.583741
0.321545 0.218156 0.675757
0.323100 0.219710 0.766956
0.324642 0.221253 0.857454
0.328264 0.321073 0.116953
0.330007 0.322816 0.219205
0.331679 0.324488 0.317285
0.333312 0.326121 0.413073
0.334918 0.327727 0.507275
0.336503 0.329312 0.600267
0.338072 0.330881 0.692284
0.339626 0.332436 0.783483
0.341169 0.333978 0.873981
0.344416 0.431243 0.133105
0.346159 0.432987 0.235357
0.347831 0.434659 0.333437
0.349464 0.436291 0.429225
0.351070 0.437897 0.523427
0.352655 0.439483 0.616419
0.354224 0.441051 0.708436
0.355778 0.442606 0.799635
0.357321 0.444149 0.890133
0.360306 0.539629 0.148996
0.362049 0.541372 0.251247
0.363721 0.543044 0.349328
0.365354 0.544677 0.445115
0.366960 0.546283 0.539317
0.368546 0.547869 0.632310
0.370114 0.549437 0.724326
0.371669 0.550992 0.815526
0.373212 0.552535 0.906023
0.375996 0.646647 0.164685
0.377739 0.648390 0.266937
0.379411 0.650062 0.365018
0.381044 0.651695 0.460805
0.382650 0.653301 0.555007
0.384235 0.654886 0.648000
0.385804 0.656455 0.740016
0.387359 0.658009 0.831215
0.388902 0.659552 0.921713
0.391524 0.752556 0.180213
0.393267 0.754299 0.282464
0.394939 0.755971 0.380545
0.396572 0.757604 0.476333
0.398178 0.759210 0.570535
0.399763 0.760795 0.663527
0.401331 0.762364 0.755543
0.402886 0.763919 0.846743
0.404429 0.765461 0.937240
0.406915 0.857536 0.195604
0.408658 0.859279 0.297855
0.410330 0.860951 0.395936
0.411963 0.862584 0.491724
0.413569 0.864190 0.585926
0.415154 0.865775 0.678918
0.416723 0.867344 0.770935
0.418277 0.868899 0.862134
0.419820 0.870441 0.952631
0.421871 0.959552 0.210560
0.423614 0.961295 0.312812
0.425286 0.962967 0.410893
0.426919 0.964600 0.506680
0.428525 0.966206 0.600882
0.430110 0.967791 0.693875
0.431679 0.969360 0.785891
0.433234 0.970914 0.877090
0.434777 0.972457 0.967588
0.393228 0.095900 0.088032
0.394971 0.097643 0.190284
0.396643 0.099316 0.288364
0.398276 0.100948 0.384152
0.399882 0.102554 0.478354
0.401468 0.104140 0.571346
0.403036 0.105708 0.663363
0.404591 0.107263 0.754562
0.406134 0.108806 0.845060
0.410417 0.213142 0.105221
0.412160 0.214885 0.207472
0.413832 0.216557 0.305553
0.415465 0.218190 0.401341
0.417071 0.219796 0.495543
0.418656 0.221381 0.588535
0.420225 0.222950 0.680551
0.421780 0.224505 0.771751
0.423322 0.226048 0.862248
0.426944 0.325868 0.121748
0.428687 0.327611 0.223999
0.430359 0.329283 0.322080
0.431992 0.330916 0.417867
0.433598 0.332522 0.512069
0.435183 0.334107 0.605062
0.436752 0.335675 0.697078
0.438306 0.337230 0.788278
0.439849 0.338773 0.878775
0.443096 0.436038 0.137900
0.444839 0.437781 0.240151
0.446511 0.439453 0.338232
0.448144 0.441086 0.434020
0.449750 0.442692 0.528222
0.451335 0.444277 0.621214
0.452904 0.445846 0.713230
0.454459 0.447401 0.804430
0.456001 0.448943 0.894927
0.458986 0.544424 0.153790
0.460729 0.546167 0.256042
0.462402 0.547839 0.354122
0.464034 0.549472 0.449910
0.465640 0.551078 0.544112
0.467226 0.552663 0.637104
0.468794 0.554232 0.729121
0.470349 0.555787 0.820320
0.471892 0.557329 0.910818
0.474676 0.651441 0.169480
0.476419 0.653184 0.271732
0.478091 0.654856 0.369812
0.479724 0.656489 0.465600
0.481330 0.658095 0.559802
0.482915 0.659681 0.652794
0.484484 0.661249 0.744811
0.486039 0.662804 0.836010
0.487582 0.664347 0.926508
0.490204 0.757351 0.185007
0.491947 0.759094 0.287259
0.493619 0.760766 0.385340
0.495252 0.762399 0.481127
0.496858 0.764005 0.575329
0.498443 0.765590 0.668322
0.500011 0.767159 0.760338
0.501566 0.768713 0.851537
0.503109 0.770256 0.942035
0.505595 0.862331 0.200399
0.507338 0.864074 0.302650
0.509010 0.865746 0.400731
0.510643 0.867379 0.496518
0.512249 0.868985 0.590720
0.513834 0.870570 0.683713
0.515403 0.872138 0.775729
0.516957 0.873693 0.866928
0.518500 0.875236 0.957426
0.520551 0.964346 0.215355
0.522294 0.966089 0.317607
0.523966 0.967761 0.415687
0.525599 0.969394 0.511475
0.527205 0.971000 0.605677
0.528791 0.972586 0.698669
0.530359 0.974154 0.790686
0.531914 0.975709 0.881885
0.533457 0.977252 0.972383
0.490344 0.100619 0.092751
0.492087 0.102362 0.195002
0.493759 0.104034 0.293083
0.495392 0.105667 0.388870
0.496998 0.107273 0.483072
0.498583 0.108858 0.576065
0.500151 0.110427 0.668081
0.501706 0.111982 0.759281
0.503249 0.113524 0.849778
0.507532 0.217861 0.109939
0.509276 0.219604 0.212191
0.510948 0.221276 0.310272
0.512580 0.222909 0.406059
0.514186 0.224515 0.500261
0.515772 0.226100 0.593254
0.517340 0.227669 0.685270
0.518895 0.229223 0.776469
0.520438 0.230766 0.866967
0.524059 0.330586 0.126466
0.525802 0.332329 0.228718
0.527474 0.334001 0.326798
0.529107 0.335634 0.422586
0.530713 0.337240 0.516788
0.532298 0.338825 0.609780
0.533867 0.340394 0.701797
0.535422 0.341949 0.792996
0.536964 0.343492 0.883494
0.540211 0.440757 0.142618
0.541954 0.442500 0.244870
0.543626 0.444172 0.342950
0.545259 0.445805 0.438738
0.546865 0.447411 0.532940
0.548450 0.448996 0.625933
0.550019 0.450564 0.717949
0.551574 0.452119 0.809148
0.553117 0.453662 0.899646
0.556102 0.549142 0.158509
0.557845 0.550886 0.260760
0.559517 0.552558 0.358841
0.561150 0.554191 0.454629
0.562756 0.555796 0.548831
0.564341 0.557382 0.641823
0.565910 0.558950 0.733839
0.567464 0.560505 0.825039
0.569007 0.562048 0.915536
0.571791 0.656160 0.174199
0.573535 0.657903 0.276450
0.575207 0.659575 0.374531
0.576840 0.661208 0.470318
0.578445 0.662814 0.564520
0.580031 0.664399 0.657513
0.581599 0.665968 0.749529
0.583154 0.667522 0.840728
0.584697 0.669065 0.931226
0.587319 0.762069 0.189726
0.589062 0.763812 0.291977
0.590734 0.765484 0.390058
0.592367 0.767117 0.485846
0.593973 0.768723 0.580048
0.595558 0.770308 0.673040
0.597127 0.771877 0.765057
0.598682 0.773432 0.856256
0.600224 0.774975 0.946753
0.602710 0.867049 0.205117
0.604453 0.868792 0.307369
0.606125 0.870464 0.405449
0.607758 0.872097 0.501237
0.609364 0.873703 0.595439
0.610949 0.875288 0.688431
0.612518 0.876857 0.780448
0.614073 0.878412 0.871647
0.615615 0.879955 0.962145
0.617667 0.969065 0.220074
0.619410 0.970808 0.322325
0.621082 0.972480 0.420406
0.622715 0.974113 0.516193
0.624321 0.975719 0.610395
0.625906 0.977304 0.703388
0.627474 0.978873 0.795404
0.629029 0.980427 0.886604
0.630572 0.981970 0.977101
0.586253 0.105279 0.097411
0.587996 0.107022 0.199662
0.589668 0.108694 0.297743
0.591301 0.110327 0.393530
0.592907 0.111933 0.487732
0.594492 0.113518 0.580725
0.596061 0.115087 0.672741
0.597615 0.116641 0.763940
0.599158 0.118184 0.854438
0.603442 0.222521 0.114599
0.605185 0.224264 0.216851
0.606857 0.225936 0.314932
0.608490 0.227569 0.410719
0.610096 0.229175 0.504921
0.611681 0.230760 0.597914
0.613249 0.232329 0.689930
0.614804 0.233883 0.781129
0.616347 0.235426 0.871627
0.619968 0.335246 0.131126
0.621711 0.336989 0.233378
0.623383 0.338661 0.331458
0.625016 0.340294 0.427246
0.626622 0.341900 0.521448
0.628208 0.343485 0.614440
0.629776 0.345054 0.706457
0.631331 0.346609 0.797656
0.632874 0.348151 0.888154
0.636120 0.445417 0.147278
0.637863 0.447160 0.249530
0.639536 0.448832 0.347610
0.641168 0.450465 0.443398
0.642774 0.452070 0.537600
0.644360 0.453656 0.630592
0.645928 0.455224 0.722609
0.647483 0.456779 0.813808
0.649026 0.458322 0.904306
0.652011 0.553802 0.163169
0.653754 0.555546 0.265420
0.655426 0.557218 0.363501
0.657059 0.558851 0.459289
0.658665 0.560456 0.553491
0.660250 0.562042 0.646483
0.661819 0.563610 0.738499
0.663373 0.565165 0.829699
0.664916 0.566708 0.920196
0.667701 0.660820 0.178858
0.669444 0.662563 0.281110
0.671116 0.664235 0.379191
0.672749 0.665868 0.474978
0.674355 0.667474 0.569180
0.675940 0.669059 0.662173
0.677509 0.670628 0.754189
0.679063 0.672182 0.845388
0.680606 0.673725 0.935886
0.683228 0.766729 0.194386
0.684971 0.768472 0.296637
0.686643 0.770144 0.394718
0.688276 0.771777 0.490506
0.689882 0.773383 0.584708
0.691467 0.774968 0.677700
0.693036 0.776537 0.769716
0.694591 0.778092 0.860916
0.696133 0.779635 0.951413
0.698619 0.871709 0.209777
0.700362 0.873452 0.312029
0.702034 0.875124 0.410109
0.703667 0.876757 0.505897
0.705273 0.878363 0.600099
0.706858 0.879948 0.693091
0.708427 0.881517 0.785108
0.709982 0.883072 0.876307
0.711525 0.884614 0.966805
0.713576 0.973725 0.224734
0.715319 0.975468 0.326985
0.716991 0.977140 0.425066
0.718624 0.978773 0.520853
0.720230 0.980379 0.615055
0.721815 0.981964 0.708048
0.723384 0.983533 0.800064
0.724938 0.985087 0.891263
0.726481 0.986630 0.981761
0.681182 0.109891 0.102023
0.682925 0.111634 0.204274
0.684597 0.113306 0.302355
0.686230 0.114939 0.398143
0.687836 0.116545 0.492345
0.689422 0.118130 0.585337
0.690990 0.119699 0.677354
0.692545 0.121254 0.768553
0.694088 0.122797 0.859050
0.698371 0.227133 0.119212
0.700114 0.228876 0.221463
0.701786 0.230548 0.319544
0.703419 0.232181 0.415332
0.705025 0.233787 0.509534
0.706610 0.235372 0.602526
0.708179 0.236941 0.694542
0.709734 0.238496 0.785742
0.711277 0.240038 0.876239
0.714898 0.339858 0.135738
0.716641 0.341602 0.237990
0.718313 0.343274 0.336071
0.719946 0.344907 0.431858
0.721552 0.346512 0.526060
0.723137 0.348098 0.619053
0.724706 0.349666 0.711069
0.726260 0.351221 0.802268
0.727803 0.352764 0.892766
0.731050 0.450029 0.151891
0.732793 0.451772 0.254142
0.734465 0.453444 0.352223
0.736098 0.455077 0.448010
0.737704 0.456683 0.542212
0.739289 0.458268 0.635205
0.740858 0.459837 0.727221
0.742413 0.461391 0.818420
0.743955 0.462934 0.908918
0.746940 0.558415 0.167781
0.748684 0.560158 0.270033
0.750356 0.561830 0.368113
0.751988 0.563463 0.463901
0.753594 0.565069 0.558103
0.755180 0.566654 0.651095
0.756748 0.568223 0.743112
0.758303 0.569777 0.834311
0.759846 0.571320 0.924809
0.762630 0.665432 0.183471
0.764373 0.667175 0.285722
0.766045 0.668847 0.383803
0.767678 0.670480 0.479591
0.769284 0.672086 0.573793
0.770869 0.673671 0.666785
0.772438 0.675240 0.758801
0.773993 0.676795 0.850001
0.775536 0.678338 0.940498
0.778158 0.771342 0.198998
0.779901 0.773085 0.301250
0.781573 0.774757 0.399330
0.783206 0.776390 0.495118
0.784812 0.777996 0.589320
0.786397 0.779581 0.682313
0.787966 0.781149 0.774329
0.789520 0.782704 0.865528
0.791063 0.784247 0.956026
0.793549 0.876321 0.214389
0.795292 0.878065 0.316641
0.796964 0.879737 0.414722
0.798597 0.881370 0.510509
0.800203 0.882975 0.604711
0.801788 0.884561 0.697704
0.803357 0.886129 0.789720
0.804911 0.887684 0.880919
0.806454 0.889227 0.971417
0.808505 0.978337 0.229346
0.810248 0.980080 0.331597
0.811920 0.981752 0.429678
0.813553 0.983385 0.525466
0.815159 0.984991 0.619668
0.816745 0.986576 0.712660
0.818313 0.988145 0.804676
0.819868 0.989700 0.895876
0.821411 0.991243 0.986373
0.775288 0.114464 0.106595
0.777031 0.116207 0.208847
0.778703 0.117879 0.306928
0.780336 0.119512 0.402715
0.781942 0.121118 0.496917
0.783527 0.122703 0.589910
0.785096 0.124271 0.681926
0.786651 0.125826 0.773125
0.788194 0.127369 0.863623
0.792477 0.231705 0.123784
0.794220 0.233449 0.226036
0.795892 0.235121 0.324116
0.797525 0.236753 0.419904
0.799131 0.238359 0.514106
0.800716 0.239945 0.607098
0.802285 0.241513 0.699115
0.803840 0.243068 0.790314
0.805382 0.244611 0.880812
0.809004 0.344431 0.140311
0.810747 0.346174 0.242562
0.812419 0.347846 0.340643
0.814052 0.349479 0.436431
0.815658 0.351085 0.530633
0.817243 0.352670 0.623625
0.818812 0.354239 0.715641
0.820366 0.355793 0.806841
0.821909 0.357336 0.897338
0.825156 0.454601 0.156463
0.826899 0.456344 0.258714
0.828571 0.458016 0.356795
0.830204 0.459649 0.452583
0.831810 0.461255 0.546785
0.833395 0.462840 0.639777
0.834964 0.464409 0.731793
0.836518 0.465964 0.822993
0.838061 0.467507 0.913490
0.841046 0.562987 0.172353
0.842789 0.564730 0.274605
0.844461 0.566402 0.372686
0.846094 0.568035 0.468473
0.847700 0.569641 0.562675
0.849286 0.571226 0.655668
0.850854 0.572795 0.747684
0.852409 0.574350 0.838883
0.853952 0.575892 0.929381
0.856736 0.670004 0.188043
0.858479 0.671748 0.290295
0.860151 0.673420 0.388375
0.861784 0.675053 0.484163
0.863390 0.676658 0.578365
0.864975 0.678244 0.671357
0.866544 0.679812 0.763374
0.868099 0.681367 0.854573
0.869642 0.682910 0.945071
0.872264 0.775914 0.203571
0.874007 0.777657 0.305822
0.875679 0.779329 0.403903
0.877312 0.780962 0.499690
0.878918 0.782568 0.593892
0.880503 0.784153 0.686885
0.882071 0.785722 0.778901
0.883626 0.787277 0.870101
0.885169 0.788819 0.960598
0.887655 0.880894 0.218962
0.889398 0.882637 0.321213
0.891070 0.884309 0.419294
0.892703 0.885942 0.515082
0.894309 0.887548 0.609284
0.895894 0.889133 0.702276
0.897463 0.890702 0.794292
0.899017 0.892256 0.885492
0.900560 0.893799 0.975989
0.902611 0.982909 0.233918
0.904354 0.984653 0.336170
0.906026 0.986325 0.434250
0.907659 0.987958 0.530038
0.909265 0.989563 0.624240
0.910850 0.991149 0.717233
0.912419 0.992717 0.809249
0.913974 0.994272 0.900448
0.915517 0.995815 0.990946
0.859687 0.118564 0.110696
0.861430 0.120307 0.212947
0.863102 0.121979 0.311028
0.864735 0.123612 0.406816
0.866341 0.125218 0.501018
0.867926 0.126804 0.594010
0.869495 0.128372 0.686027
0.871050 0.129927 0.777226
0.872593 0.131470 0.867723
0.876876 0.235806 0.127885
0.878619 0.237549 0.230136
0.880291 0.239221 0.328217
0.881924 0.240854 0.424005
0.883530 0.242460 0.518207
0.885115 0.244045 0.611199
0.886684 0.245614 0.703215
0.888239 0.247169 0.794415
0.889781 0.248711 0.884912
0.893403 0.348531 0.144411
0.895146 0.350275 0.246663
0.896818 0.351947 0.344744
0.898451 0.353580 0.440531
0.900057 0.355185 0.534733
0.901642 0.356771 0.627726
0.903211 0.358339 0.719742
0.904765 0.359894 0.810941
0.906308 0.361437 0.901439
0.909555 0.458702 0.160564
0.911298 0.460445 0.262815
0.912970 0.462117 0.360896
0.914603 0.463750 0.456683
0.916209 0.465356 0.550885
0.917794 0.466941 0.643878
0.919363 0.468510 0.735894
0.920917 0.470065 0.827094
0.922460 0.471607 0.917591
0.925445 0.567088 0.176454
0.927188 0.568831 0.278706
0.928860 0.570503 0.376786
0.930493 0.572136 0.472574
0.932099 0.573742 0.566776
0.933685 0.575327 0.659768
0.935253 0.576896 0.751785
0.936808 0.578450 0.842984
0.938351 0.579993 0.933482
0.941135 0.674105 0.192144
0.942878 0.675848 0.294395
0.944550 0.677520 0.392476
0.946183 0.679153 0.488264
0.947789 0.680759 0.582466
0.949374 0.682344 0.675458
0.950943 0.683913 0.767474
0.952498 0.685468 0.858674
0.954041 0.687011 0.949171
0.956663 0.780015 0.207671
0.958406 0.781758 0.309923
0.960078 0.783430 0.408004
0.961711 0.785063 0.503791
0.963317 0.786669 0.597993
0.964902 0.788254 0.690986
0.966470 0.789822 0.783002
0.968025 0.791377 0.874201
0.969568 0.792920 0.964699
0.972054 0.884994 0.223062
0.973797 0.886738 0.325314
0.975469 0.888410 0.423395
0.977102 0.890043 0.519182
0.978708 0.891648 0.613384
0.980293 0.893234 0.706377
0.981862 0.894802 0.798393
0.983416 0.896357 0.889592
0.984959 0.897900 0.980090
0.987010 0.987010 0.238019
0.988753 0.988753 0.340270
0.990425 0.990425 0.438351
0.992058 0.992058 0.534139
0.993664 0.993664 0.628341
0.995249 0.995249 0.721333
0.996818 0.996818 0.813350
0.998373 0.998373 0.904549
0.999916 0.999916 0.995046
