skills/creativeops-grade/assets/grade/luts/soft_pastel_v19.cube
TITLE "soft_pastel_v19"
LUT_3D_SIZE 5
DOMAIN_MIN 0.0 0.0 0.0
DOMAIN_MAX 1.0 1.0 1.0
0.088925 0.081115 0.073247
0.092341 0.084530 0.273579
0.095579 0.087769 0.463569
0.098733 0.090923 0.648577
0.101831 0.094021 0.830274
0.122641 0.311082 0.106962
0.126056 0.314498 0.307295
0.129295 0.317736 0.497284
0.132449 0.320890 0.682293
0.135546 0.323988 0.863990
0.154684 0.529639 0.139005
0.158099 0.533054 0.339337
0.161337 0.536293 0.529327
0.164491 0.539447 0.714336
0.167589 0.542544 0.896032
0.185901 0.742565 0.170222
0.189316 0.745981 0.370554
0.192555 0.749219 0.560544
0.195709 0.752373 0.745553
0.198806 0.755471 0.927250
0.216248 0.949561 0.200570
0.219664 0.952976 0.400902
0.222902 0.956215 0.590892
0.226056 0.959369 0.775900
0.229154 0.962466 0.957597
0.294548 0.091106 0.083237
0.297963 0.094521 0.283570
0.301202 0.097760 0.473559
0.304356 0.100914 0.658568
0.307454 0.104011 0.840265
0.328264 0.321073 0.116953
0.331679 0.324488 0.317285
0.334918 0.327727 0.507275
0.338072 0.330881 0.692284
0.341169 0.333978 0.873981
0.360306 0.539629 0.148996
0.363721 0.543044 0.349328
0.366960 0.546283 0.539317
0.370114 0.549437 0.724326
0.373212 0.552535 0.906023
0.391524 0.752556 0.180213
0.394939 0.755971 0.380545
0.398178 0.759210 0.570535
0.401331 0.762364 0.755543
0.404429 0.765461 0.937240
0.421871 0.959552 0.210560
0.425286 0.962967 0.410893
0.428525 0.966206 0.600882
0.431679 0.969360 0.785891
0.434777 0.972457 0.967588
0.490344 0.100619 0.092751
0.493759 0.104034 0.293083
0.496998 0.107273 0.483072
0.500151 0.110427 0.668081
0.503249 0.113524 0.849778
0.524059 0.330586 0.126466
0.527474 0.334001 0.326798
0.530713 0.337240 0.516788
0.533867 0.340394 0.701797
0.536964 0.343492 0.883494
0.556102 0.549142 0.158509
0.559517 0.552558 0.358841
0.562756 0.555796 0.548831
0.565910 0.558950 0.733839
0.569007 0.562048 0.915536
0.587319 0.762069 0.189726
0.590734 0.765484 0.390058
0.593973 0.768723 0.580048
0.597127 0.771877 0.765057
0.600224 0.774975 0.946753
0.617667 0.969065 0.220074
0.621082 0.972480 0.420406
0.624321 0.975719 0.610395
0.627474 0.978873 0.795404
0.630572 0.981970 0.977101
0.681182 0.109891 0.102023
0.684597 0.113306 0.302355
0.687836 0.116545 0.492345
0.690990 0.119699 0.677354
0.694088 0.122797 0.859050
0.714898 0.339858 0.135738
0.718313 0.343274 0.336071
0.721552 0.346512 0.526060
0.724706 0.349666 0.711069
0.727803 0.352764 0.892766
0.746940 0.558415 0.167781
0.750356 0.561830 0.368113
0.753594 0.565069 0.558103
0.756748 0.568223 0.743112
0.759846 0.571320 0.924809
0.778158 0.771342 0.198998
0.781573 0.774757 0.399330
0.784812 0.777996 0.589320
0.787966 0.781149 0.774329
0.791063 0.784247 0.956026
0.808505 0.978337 0.229346
0.811920 0.981752 0.429678
0.815159 0.984991 0.619668
0.818313 0.988145 0.804676
0.821411 0.991243 0.986373
0.859687 0.118564 0.110696
0.863102 0.121979 0.311028
0.866341 0.125218 0.501018
0.869495 0.128372 0.686027
0.872593 0.131470 0.867723
0.893403 0.348531 0.144411
0.896818 0.351947 0.344744
0.900057 0.355185 0.534733
0.903211 0.358339 0.719742
0.906308 0.361437 0.901439
0.925445 0.567088 0.176454
0.928860 0.570503 0.376786
0.932099 0.573742 0.566776
0.935253 0.576896 0.751785
0.938351 0.579993 0.933482
0.956663 0.780015 0.207671
0.960078 0.783430 0.408004
0.963317 0.786669 0.597993
0.966470 0.789822 0.783002
0.969568 0.792920 0.964699
0.987010 0.987010 0.238019
0.990425 0.990425 0.438351
0.993664 0.993664 0.628341
0.996818 0.996818 0.813350
0.999916 0.999916 0.995046
