skills/creativeops-grade/assets/grade/luts/trailer_punch_v07.cube
TITLE "trailer_punch_v07"
LUT_3D_SIZE 5
DOMAIN_MIN 0.0 0.0 0.0
DOMAIN_MAX 1.0 1.0 1.0
0.000000 0.000000 0.000000
0.000000 0.000000 0.234521
0.000000 0.000000 0.527860
0.000000 0.000000 0.827803
0.000000 0.000000 1.000000
0.000000 0.218625 0.000000
0.000000 0.216840 0.216840
0.000000 0.214607 0.510179
0.000000 0.212325 0.810122
0.000000 0.210189 1.000000
0.000000 0.492081 0.000000
0.000000 0.490296 0.194724
0.000000 0.488064 0.488064
0.000000 0.485781 0.788006
0.000000 0.483645 1.000000
0.000000 0.771693 0.000000
0.000000 0.769908 0.172111
0.000000 0.767676 0.465450
0.000000 0.765393 0.765393
0.000000 0.763257 1.000000
0.000000 1.000000 0.000000
0.000000 1.000000 0.150956
0.000000 1.000000 0.444295
0.000000 1.000000 0.744238
0.000000 1.000000 1.000000
0.231050 0.000000 0.000000
0.229265 0.000000 0.229265
0.227033 0.000000 0.522604
0.224750 0.000000 0.822547
0.222614 0.000000 1.000000
0.213369 0.213369 0.000000
0.211584 0.211584 0.211584
0.209352 0.209352 0.504923
0.207069 0.207069 0.804866
0.204933 0.204933 1.000000
0.191253 0.486825 0.000000
0.189469 0.485040 0.189469
0.187236 0.482808 0.482808
0.184953 0.480525 0.782751
0.182817 0.478389 1.000000
0.168640 0.766437 0.000000
0.166855 0.764653 0.166855
0.164623 0.762420 0.460194
0.162340 0.760137 0.760137
0.160204 0.758001 1.000000
0.147485 1.000000 0.000000
0.145700 1.000000 0.145700
0.143467 1.000000 0.439039
0.141184 1.000000 0.738982
0.139049 1.000000 1.000000
0.520048 0.000000 0.000000
0.518263 0.000000 0.222691
0.516030 0.000000 0.516030
0.513748 0.000000 0.815973
0.511612 0.000000 1.000000
0.502367 0.206795 0.000000
0.500582 0.205010 0.205010
0.498349 0.202777 0.498349
0.496066 0.200495 0.798292
0.493931 0.198359 1.000000
0.480251 0.480251 0.000000
0.478466 0.478466 0.182894
0.476234 0.476234 0.476234
0.473951 0.473951 0.776176
0.471815 0.471815 1.000000
0.457638 0.759863 0.000000
0.455853 0.758078 0.160281
0.453620 0.755846 0.453620
0.451337 0.753563 0.753563
0.449202 0.751427 1.000000
0.436482 1.000000 0.000000
0.434698 1.000000 0.139126
0.432465 1.000000 0.432465
0.430182 1.000000 0.732408
0.428046 1.000000 1.000000
0.815551 0.000000 0.000000
0.813767 0.000000 0.215969
0.811534 0.000000 0.509308
0.809251 0.000000 0.809251
0.807115 0.000000 1.000000
0.797870 0.200073 0.000000
0.796085 0.198288 0.198288
0.793853 0.196055 0.491627
0.791570 0.193773 0.791570
0.789434 0.191637 1.000000
0.775755 0.473529 0.000000
0.773970 0.471744 0.176172
0.771737 0.469512 0.469512
0.769454 0.467229 0.769454
0.767319 0.465093 1.000000
0.753141 0.753141 0.000000
0.751356 0.751356 0.153559
0.749124 0.749124 0.446898
0.746841 0.746841 0.746841
0.744705 0.744705 1.000000
0.731986 1.000000 0.000000
0.730201 1.000000 0.132404
0.727968 1.000000 0.425743
0.725686 1.000000 0.725686
0.723550 1.000000 1.000000
1.000000 0.000000 0.000000
1.000000 0.000000 0.209681
1.000000 0.000000 0.503020
1.000000 0.000000 0.802962
1.000000 0.000000 1.000000
1.000000 0.193784 0.000000
1.000000 0.191999 0.191999
1.000000 0.189767 0.485339
1.000000 0.187484 0.785281
1.000000 0.185348 1.000000
1.000000 0.467241 0.000000
1.000000 0.465456 0.169884
1.000000 0.463223 0.463223
1.000000 0.460940 0.763166
1.000000 0.458805 1.000000
1.000000 0.746853 0.000000
1.000000 0.745068 0.147270
1.000000 0.742835 0.440610
1.000000 0.740552 0.740552
1.000000 0.738417 1.000000
1.000000 1.000000 0.000000
1.000000 1.000000 0.126115
1.000000 1.000000 0.419454
1.000000 1.000000 0.719397
1.000000 1.000000 1.000000
