skills/creativeops-grade/assets/grade/luts/trailer_punch_v07.cube
TITLE "trailer_punch_v07"
LUT_3D_SIZE 17
DOMAIN_MIN 0.0 0.0 0.0
DOMAIN_MAX 1.0 1.0 1.0
0.000000 0.000000 0.000000
0.000000 0.000000 0.024224
0.000000 0.000000 0.092475
0.000000 0.000000 0.162899
0.000000 0.000000 0.234521
0.000000 0.000000 0.306986
0.000000 0.000000 0.380104
0.000000 0.000000 0.453756
0.000000 0.000000 0.527860
0.000000 0.000000 0.602358
0.000000 0.000000 0.677204
0.000000 0.000000 0.752362
0.000000 0.000000 0.827803
0.000000 0.000000 0.903503
0.000000 0.000000 0.979442
0.000000 0.000000 1.000000
0.000000 0.000000 1.000000
0.000000 0.022582 0.000000
0.000000 0.022398 0.022398
0.000000 0.021878 0.090648
0.000000 0.021342 0.161072
0.000000 0.020797 0.232695
0.000000 0.020246 0.305160
0.000000 0.019689 0.378277
0.000000 0.019129 0.451929
0.000000 0.018565 0.526034
0.000000 0.017998 0.600532
0.000000 0.017428 0.675378
0.000000 0.016856 0.750536
0.000000 0.016282 0.825977
0.000000 0.015706 0.901677
0.000000 0.015128 0.977615
0.000000 0.014548 1.000000
0.000000 0.014146 1.000000
0.000000 0.086207 0.000000
0.000000 0.086022 0.017252
0.000000 0.085503 0.085503
0.000000 0.084967 0.155927
0.000000 0.084422 0.227549
0.000000 0.083870 0.300014
0.000000 0.083314 0.373132
0.000000 0.082753 0.446784
0.000000 0.082189 0.520888
0.000000 0.081622 0.595387
0.000000 0.081052 0.670232
0.000000 0.080480 0.745390
0.000000 0.079906 0.820831
0.000000 0.079330 0.896531
0.000000 0.078752 0.972470
0.000000 0.078172 1.000000
0.000000 0.077771 1.000000
0.000000 0.151857 0.000000
0.000000 0.151673 0.011943
0.000000 0.151153 0.080193
0.000000 0.150617 0.150617
0.000000 0.150072 0.222240
0.000000 0.149521 0.294705
0.000000 0.148964 0.367822
0.000000 0.148404 0.441474
0.000000 0.147840 0.515579
0.000000 0.147273 0.590077
0.000000 0.146703 0.664923
0.000000 0.146131 0.740081
0.000000 0.145557 0.815522
0.000000 0.144981 0.891222
0.000000 0.144403 0.967160
0.000000 0.143823 1.000000
0.000000 0.143421 1.000000
0.000000 0.218625 0.000000
0.000000 0.218441 0.006543
0.000000 0.217921 0.074793
0.000000 0.217385 0.145218
0.000000 0.216840 0.216840
0.000000 0.216288 0.289305
0.000000 0.215732 0.362422
0.000000 0.215171 0.436074
0.000000 0.214607 0.510179
0.000000 0.214040 0.584677
0.000000 0.213471 0.659523
0.000000 0.212899 0.734681
0.000000 0.212325 0.810122
0.000000 0.211748 0.885822
0.000000 0.211170 0.961760
0.000000 0.210591 1.000000
0.000000 0.210189 1.000000
0.000000 0.286178 0.000000
0.000000 0.285994 0.001080
0.000000 0.285474 0.069330
0.000000 0.284938 0.139754
0.000000 0.284393 0.211377
0.000000 0.283842 0.283842
0.000000 0.283285 0.356959
0.000000 0.282724 0.430611
0.000000 0.282160 0.504716
0.000000 0.281593 0.579214
0.000000 0.281024 0.654060
0.000000 0.280452 0.729218
0.000000 0.279878 0.804659
0.000000 0.279301 0.880359
0.000000 0.278724 0.956297
0.000000 0.278144 1.000000
0.000000 0.277742 1.000000
0.000000 0.354340 0.000000
0.000000 0.354155 0.000000
0.000000 0.353636 0.063818
0.000000 0.353100 0.134242
0.000000 0.352555 0.205864
0.000000 0.352003 0.278329
0.000000 0.351447 0.351447
0.000000 0.350886 0.425099
0.000000 0.350322 0.499203
0.000000 0.349755 0.573701
0.000000 0.349185 0.648547
0.000000 0.348613 0.723705
0.000000 0.348039 0.799146
0.000000 0.347463 0.874846
0.000000 0.346885 0.950785
0.000000 0.346306 1.000000
0.000000 0.345904 1.000000
0.000000 0.422999 0.000000
0.000000 0.422815 0.000000
0.000000 0.422296 0.058265
0.000000 0.421760 0.128689
0.000000 0.421214 0.200311
0.000000 0.420663 0.272776
0.000000 0.420106 0.345894
0.000000 0.419546 0.419546
0.000000 0.418982 0.493651
0.000000 0.418415 0.568149
0.000000 0.417845 0.642995
0.000000 0.417273 0.718152
0.000000 0.416699 0.793593
0.000000 0.416123 0.869293
0.000000 0.415545 0.945232
0.000000 0.414965 1.000000
0.000000 0.414563 1.000000
0.000000 0.492081 0.000000
0.000000 0.491897 0.000000
0.000000 0.491377 0.052678
0.000000 0.490841 0.123102
0.000000 0.490296 0.194724
0.000000 0.489745 0.267189
0.000000 0.489188 0.340307
0.000000 0.488628 0.413959
0.000000 0.488064 0.488064
0.000000 0.487497 0.562562
0.000000 0.486927 0.637408
0.000000 0.486355 0.712566
0.000000 0.485781 0.788006
0.000000 0.485205 0.863706
0.000000 0.484627 0.939645
0.000000 0.484047 1.000000
0.000000 0.483645 1.000000
0.000000 0.561530 0.000000
0.000000 0.561345 0.000000
0.000000 0.560826 0.047061
0.000000 0.560290 0.117485
0.000000 0.559745 0.189108
0.000000 0.559193 0.261573
0.000000 0.558637 0.334690
0.000000 0.558076 0.408342
0.000000 0.557512 0.482447
0.000000 0.556945 0.556945
0.000000 0.556375 0.631791
0.000000 0.555803 0.706949
0.000000 0.555229 0.782390
0.000000 0.554653 0.858090
0.000000 0.554075 0.934028
0.000000 0.553496 1.000000
0.000000 0.553094 1.000000
0.000000 0.631302 0.000000
0.000000 0.631118 0.000000
0.000000 0.630599 0.041418
0.000000 0.630063 0.111843
0.000000 0.629517 0.183465
0.000000 0.628966 0.255930
0.000000 0.628409 0.329048
0.000000 0.627849 0.402699
0.000000 0.627285 0.476804
0.000000 0.626718 0.551302
0.000000 0.626148 0.626148
0.000000 0.625576 0.701306
0.000000 0.625002 0.776747
0.000000 0.624426 0.852447
0.000000 0.623848 0.928385
0.000000 0.623268 1.000000
0.000000 0.622866 1.000000
0.000000 0.701366 0.000000
0.000000 0.701182 0.000000
0.000000 0.700662 0.035752
0.000000 0.700126 0.106176
0.000000 0.699581 0.177799
0.000000 0.699030 0.250264
0.000000 0.698473 0.323381
0.000000 0.697912 0.397033
0.000000 0.697348 0.471138
0.000000 0.696781 0.545636
0.000000 0.696212 0.620482
0.000000 0.695640 0.695640
0.000000 0.695066 0.771081
0.000000 0.694489 0.846781
0.000000 0.693912 0.922719
0.000000 0.693332 0.998879
0.000000 0.692930 1.000000
0.000000 0.771693 0.000000
0.000000 0.771509 0.000000
0.000000 0.770990 0.030064
0.000000 0.770454 0.100489
0.000000 0.769908 0.172111
0.000000 0.769357 0.244576
0.000000 0.768800 0.317694
0.000000 0.768240 0.391345
0.000000 0.767676 0.465450
0.000000 0.767109 0.539948
0.000000 0.766539 0.614794
0.000000 0.765967 0.689952
0.000000 0.765393 0.765393
0.000000 0.764817 0.841093
0.000000 0.764239 0.917031
0.000000 0.763659 0.993192
0.000000 0.763257 1.000000
0.000000 0.842262 0.000000
0.000000 0.842078 0.000000
0.000000 0.841558 0.024357
0.000000 0.841022 0.094781
0.000000 0.840477 0.166404
0.000000 0.839926 0.238869
0.000000 0.839369 0.311986
0.000000 0.838809 0.385638
0.000000 0.838245 0.459743
0.000000 0.837678 0.534241
0.000000 0.837108 0.609087
0.000000 0.836536 0.684245
0.000000 0.835962 0.759686
0.000000 0.835386 0.835386
0.000000 0.834808 0.911324
0.000000 0.834228 0.987484
0.000000 0.833826 1.000000
0.000000 0.913054 0.000000
0.000000 0.912869 0.000000
0.000000 0.912350 0.018632
0.000000 0.911814 0.089056
0.000000 0.911269 0.160679
0.000000 0.910717 0.233143
0.000000 0.910161 0.306261
0.000000 0.909600 0.379913
0.000000 0.909036 0.454018
0.000000 0.908469 0.528516
0.000000 0.907899 0.603362
0.000000 0.907327 0.678520
0.000000 0.906753 0.753961
0.000000 0.906177 0.829660
0.000000 0.905599 0.905599
0.000000 0.905019 0.981759
0.000000 0.904618 1.000000
0.000000 0.984051 0.000000
0.000000 0.983867 0.000000
0.000000 0.983348 0.012890
0.000000 0.982812 0.083314
0.000000 0.982267 0.154937
0.000000 0.981715 0.227402
0.000000 0.981159 0.300519
0.000000 0.980598 0.374171
0.000000 0.980034 0.448276
0.000000 0.979467 0.522774
0.000000 0.978897 0.597620
0.000000 0.978325 0.672778
0.000000 0.977751 0.748219
0.000000 0.977175 0.823919
0.000000 0.976597 0.899857
0.000000 0.976017 0.976017
0.000000 0.975615 1.000000
0.000000 1.000000 0.000000
0.000000 1.000000 0.000000
0.000000 1.000000 0.008909
0.000000 1.000000 0.079333
0.000000 1.000000 0.150956
0.000000 1.000000 0.223420
0.000000 1.000000 0.296538
0.000000 1.000000 0.370190
0.000000 1.000000 0.444295
0.000000 1.000000 0.518793
0.000000 1.000000 0.593639
0.000000 1.000000 0.668797
0.000000 1.000000 0.744238
0.000000 1.000000 0.819937
0.000000 1.000000 0.895876
0.000000 1.000000 0.972036
0.000000 1.000000 1.000000
0.023865 0.000000 0.000000
0.023681 0.000000 0.023681
0.023162 0.000000 0.091932
0.022626 0.000000 0.162356
0.022081 0.000000 0.233978
0.021529 0.000000 0.306443
0.020973 0.000000 0.379561
0.020412 0.000000 0.453213
0.019848 0.000000 0.527317
0.019281 0.000000 0.601816
0.018711 0.000000 0.676661
0.018139 0.000000 0.751819
0.017565 0.000000 0.827260
0.016989 0.000000 0.902960
0.016411 0.000000 0.978899
0.015831 0.000000 1.000000
0.015429 0.000000 1.000000
0.022039 0.022039 0.000000
0.021855 0.021855 0.021855
0.021335 0.021335 0.090105
0.020799 0.020799 0.160530
0.020254 0.020254 0.232152
0.019703 0.019703 0.304617
0.019146 0.019146 0.377734
0.018586 0.018586 0.451386
0.018022 0.018022 0.525491
0.017455 0.017455 0.599989
0.016885 0.016885 0.674835
0.016313 0.016313 0.749993
0.015739 0.015739 0.825434
0.015163 0.015163 0.901134
0.014585 0.014585 0.977072
0.014005 0.014005 1.000000
0.013603 0.013603 1.000000
0.016894 0.085664 0.000000
0.016709 0.085479 0.016709
0.016190 0.084960 0.084960
0.015654 0.084424 0.155384
0.015109 0.083879 0.227006
0.014557 0.083327 0.299471
0.014001 0.082771 0.372589
0.013440 0.082210 0.446241
0.012876 0.081646 0.520346
0.012309 0.081079 0.594844
0.011739 0.080509 0.669690
0.011167 0.079937 0.744847
0.010593 0.079363 0.820288
0.010017 0.078787 0.895988
0.009439 0.078209 0.971927
0.008859 0.077630 1.000000
0.008458 0.077228 1.000000
0.011584 0.151314 0.000000
0.011400 0.151130 0.011400
0.010880 0.150611 0.079650
0.010344 0.150075 0.150075
0.009799 0.149529 0.221697
0.009248 0.148978 0.294162
0.008691 0.148421 0.367279
0.008131 0.147861 0.440931
0.007567 0.147297 0.515036
0.007000 0.146730 0.589534
0.006430 0.146160 0.664380
0.005858 0.145588 0.739538
0.005284 0.145014 0.814979
0.004708 0.144438 0.890679
0.004130 0.143860 0.966617
0.003550 0.143280 1.000000
0.003148 0.142878 1.000000
0.006184 0.218082 0.000000
0.006000 0.217898 0.006000
0.005481 0.217378 0.074251
0.004945 0.216842 0.144675
0.004399 0.216297 0.216297
0.003848 0.215746 0.288762
0.003291 0.215189 0.361880
0.002731 0.214629 0.435532
0.002167 0.214065 0.509636
0.001600 0.213498 0.584134
0.001030 0.212928 0.658980
0.000458 0.212356 0.734138
0.000000 0.211782 0.809579
0.000000 0.211206 0.885279
0.000000 0.210628 0.961218
0.000000 0.210048 1.000000
0.000000 0.209646 1.000000
0.000721 0.285635 0.000000
0.000537 0.285451 0.000537
0.000017 0.284931 0.068787
0.000000 0.284395 0.139211
0.000000 0.283850 0.210834
0.000000 0.283299 0.283299
0.000000 0.282742 0.356416
0.000000 0.282182 0.430068
0.000000 0.281618 0.504173
0.000000 0.281051 0.578671
0.000000 0.280481 0.653517
0.000000 0.279909 0.728675
0.000000 0.279335 0.804116
0.000000 0.278759 0.879816
0.000000 0.278181 0.955754
0.000000 0.277601 1.000000
0.000000 0.277199 1.000000
0.000000 0.353797 0.000000
0.000000 0.353612 0.000000
0.000000 0.353093 0.063275
0.000000 0.352557 0.133699
0.000000 0.352012 0.205321
0.000000 0.351460 0.277786
0.000000 0.350904 0.350904
0.000000 0.350343 0.424556
0.000000 0.349779 0.498661
0.000000 0.349212 0.573159
0.000000 0.348643 0.648004
0.000000 0.348071 0.723162
0.000000 0.347496 0.798603
0.000000 0.346920 0.874303
0.000000 0.346342 0.950242
0.000000 0.345763 1.000000
0.000000 0.345361 1.000000
0.000000 0.422456 0.000000
0.000000 0.422272 0.000000
0.000000 0.421753 0.057722
0.000000 0.421217 0.128146
0.000000 0.420672 0.199768
0.000000 0.420120 0.272233
0.000000 0.419564 0.345351
0.000000 0.419003 0.419003
0.000000 0.418439 0.493108
0.000000 0.417872 0.567606
0.000000 0.417302 0.642452
0.000000 0.416730 0.717610
0.000000 0.416156 0.793050
0.000000 0.415580 0.868750
0.000000 0.415002 0.944689
0.000000 0.414422 1.000000
0.000000 0.414020 1.000000
0.000000 0.491538 0.000000
0.000000 0.491354 0.000000
0.000000 0.490834 0.052135
0.000000 0.490298 0.122559
0.000000 0.489753 0.194182
0.000000 0.489202 0.266646
0.000000 0.488645 0.339764
0.000000 0.488085 0.413416
0.000000 0.487521 0.487521
0.000000 0.486954 0.562019
0.000000 0.486384 0.636865
0.000000 0.485812 0.712023
0.000000 0.485238 0.787464
0.000000 0.484662 0.863163
0.000000 0.484084 0.939102
0.000000 0.483504 1.000000
0.000000 0.483102 1.000000
0.000000 0.560987 0.000000
0.000000 0.560802 0.000000
0.000000 0.560283 0.046518
0.000000 0.559747 0.116943
0.000000 0.559202 0.188565
0.000000 0.558650 0.261030
0.000000 0.558094 0.334147
0.000000 0.557533 0.407799
0.000000 0.556969 0.481904
0.000000 0.556402 0.556402
0.000000 0.555833 0.631248
0.000000 0.555261 0.706406
0.000000 0.554686 0.781847
0.000000 0.554110 0.857547
0.000000 0.553532 0.933485
0.000000 0.552953 1.000000
0.000000 0.552551 1.000000
0.000000 0.630759 0.000000
0.000000 0.630575 0.000000
0.000000 0.630056 0.040876
0.000000 0.629520 0.111300
0.000000 0.628975 0.182922
0.000000 0.628423 0.255387
0.000000 0.627867 0.328505
0.000000 0.627306 0.402157
0.000000 0.626742 0.476261
0.000000 0.626175 0.550759
0.000000 0.625605 0.625605
0.000000 0.625033 0.700763
0.000000 0.624459 0.776204
0.000000 0.623883 0.851904
0.000000 0.623305 0.927843
0.000000 0.622725 1.000000
0.000000 0.622323 1.000000
0.000000 0.700823 0.000000
0.000000 0.700639 0.000000
0.000000 0.700119 0.035209
0.000000 0.699583 0.105633
0.000000 0.699038 0.177256
0.000000 0.698487 0.249721
0.000000 0.697930 0.322838
0.000000 0.697370 0.396490
0.000000 0.696806 0.470595
0.000000 0.696239 0.545093
0.000000 0.695669 0.619939
0.000000 0.695097 0.695097
0.000000 0.694523 0.770538
0.000000 0.693947 0.846238
0.000000 0.693369 0.922176
0.000000 0.692789 0.998336
0.000000 0.692387 1.000000
0.000000 0.771150 0.000000
0.000000 0.770966 0.000000
0.000000 0.770447 0.029522
0.000000 0.769911 0.099946
0.000000 0.769366 0.171568
0.000000 0.768814 0.244033
0.000000 0.768258 0.317151
0.000000 0.767697 0.390803
0.000000 0.767133 0.464907
0.000000 0.766566 0.539405
0.000000 0.765996 0.614251
0.000000 0.765424 0.689409
0.000000 0.764850 0.764850
0.000000 0.764274 0.840550
0.000000 0.763696 0.916489
0.000000 0.763116 0.992649
0.000000 0.762714 1.000000
0.000000 0.841719 0.000000
0.000000 0.841535 0.000000
0.000000 0.841015 0.023814
0.000000 0.840479 0.094239
0.000000 0.839934 0.165861
0.000000 0.839383 0.238326
0.000000 0.838826 0.311443
0.000000 0.838266 0.385095
0.000000 0.837702 0.459200
0.000000 0.837135 0.533698
0.000000 0.836565 0.608544
0.000000 0.835993 0.683702
0.000000 0.835419 0.759143
0.000000 0.834843 0.834843
0.000000 0.834265 0.910781
0.000000 0.833685 0.986942
0.000000 0.833283 1.000000
0.000000 0.912511 0.000000
0.000000 0.912326 0.000000
0.000000 0.911807 0.018089
0.000000 0.911271 0.088513
0.000000 0.910726 0.160136
0.000000 0.910174 0.232601
0.000000 0.909618 0.305718
0.000000 0.909057 0.379370
0.000000 0.908493 0.453475
0.000000 0.907926 0.527973
0.000000 0.907356 0.602819
0.000000 0.906784 0.677977
0.000000 0.906210 0.753418
0.000000 0.905634 0.829118
0.000000 0.905056 0.905056
0.000000 0.904477 0.981216
0.000000 0.904075 1.000000
0.000000 0.983509 0.000000
0.000000 0.983324 0.000000
0.000000 0.982805 0.012347
0.000000 0.982269 0.082771
0.000000 0.981724 0.154394
0.000000 0.981172 0.226859
0.000000 0.980616 0.299976
0.000000 0.980055 0.373628
0.000000 0.979491 0.447733
0.000000 0.978924 0.522231
0.000000 0.978354 0.597077
0.000000 0.977782 0.672235
0.000000 0.977208 0.747676
0.000000 0.976632 0.823376
0.000000 0.976054 0.899314
0.000000 0.975474 0.975474
0.000000 0.975073 1.000000
0.000000 1.000000 0.000000
0.000000 1.000000 0.000000
0.000000 1.000000 0.008366
0.000000 1.000000 0.078790
0.000000 1.000000 0.150413
0.000000 1.000000 0.222878
0.000000 1.000000 0.295995
0.000000 1.000000 0.369647
0.000000 1.000000 0.443752
0.000000 1.000000 0.518250
0.000000 1.000000 0.593096
0.000000 1.000000 0.668254
0.000000 1.000000 0.743695
0.000000 1.000000 0.819395
0.000000 1.000000 0.895333
0.000000 1.000000 0.971493
0.000000 1.000000 1.000000
0.091106 0.000000 0.000000
0.090922 0.000000 0.022152
0.090402 0.000000 0.090402
0.089866 0.000000 0.160826
0.089321 0.000000 0.232449
0.088769 0.000000 0.304913
0.088213 0.000000 0.378031
0.087652 0.000000 0.451683
0.087088 0.000000 0.525788
0.086521 0.000000 0.600286
0.085952 0.000000 0.675132
0.085380 0.000000 0.750290
0.084806 0.000000 0.825731
0.084229 0.000000 0.901431
0.083651 0.000000 0.977369
0.083072 0.000000 1.000000
0.082670 0.000000 1.000000
0.089280 0.020510 0.000000
0.089095 0.020325 0.020325
0.088576 0.019806 0.088576
0.088040 0.019270 0.159000
0.087495 0.018725 0.230622
0.086943 0.018173 0.303087
0.086387 0.017617 0.376205
0.085826 0.017056 0.449857
0.085262 0.016492 0.523962
0.084695 0.015925 0.598460
0.084125 0.015355 0.673306
0.083553 0.014783 0.748463
0.082979 0.014209 0.823904
0.082403 0.013633 0.899604
0.081825 0.013055 0.975543
0.081246 0.012475 1.000000
0.080844 0.012074 1.000000
0.084134 0.084134 0.000000
0.083950 0.083950 0.015180
0.083430 0.083430 0.083430
0.082894 0.082894 0.153854
0.082349 0.082349 0.225477
0.081798 0.081798 0.297942
0.081241 0.081241 0.371059
0.080681 0.080681 0.444711
0.080117 0.080117 0.518816
0.079550 0.079550 0.593314
0.078980 0.078980 0.668160
0.078408 0.078408 0.743318
0.077834 0.077834 0.818759
0.077258 0.077258 0.894459
0.076680 0.076680 0.970397
0.076100 0.076100 1.000000
0.075698 0.075698 1.000000
0.078825 0.149785 0.000000
0.078640 0.149600 0.009870
0.078121 0.149081 0.078121
0.077585 0.148545 0.148545
0.077040 0.148000 0.220167
0.076488 0.147448 0.292632
0.075932 0.146892 0.365750
0.075371 0.146331 0.439402
0.074807 0.145767 0.513507
0.074240 0.145200 0.588005
0.073670 0.144631 0.662851
0.073098 0.144059 0.738008
0.072524 0.143484 0.813449
0.071948 0.142908 0.889149
0.071370 0.142330 0.965088
0.070790 0.141751 1.000000
0.070389 0.141349 1.000000
0.073425 0.216552 0.000000
0.073240 0.216368 0.004470
0.072721 0.215849 0.072721
0.072185 0.215313 0.143145
0.071640 0.214768 0.214768
0.071088 0.214216 0.287232
0.070532 0.213660 0.360350
0.069971 0.213099 0.434002
0.069407 0.212535 0.508107
0.068840 0.211968 0.582605
0.068271 0.211398 0.657451
0.067699 0.210826 0.732609
0.067124 0.210252 0.808050
0.066548 0.209676 0.883749
0.065970 0.209098 0.959688
0.065391 0.208518 1.000000
0.064989 0.208116 1.000000
0.067962 0.284106 0.000000
0.067777 0.283921 0.000000
0.067258 0.283402 0.067258
0.066722 0.282866 0.137682
0.066177 0.282321 0.209304
0.065625 0.281769 0.281769
0.065069 0.281213 0.354887
0.064508 0.280652 0.428539
0.063944 0.280088 0.502643
0.063377 0.279521 0.577142
0.062807 0.278951 0.651987
0.062235 0.278379 0.727145
0.061661 0.277805 0.802586
0.061085 0.277229 0.878286
0.060507 0.276651 0.954225
0.059927 0.276071 1.000000
0.059526 0.275670 1.000000
0.062449 0.352267 0.000000
0.062265 0.352083 0.000000
0.061745 0.351563 0.061745
0.061209 0.351027 0.132169
0.060664 0.350482 0.203792
0.060113 0.349931 0.276257
0.059556 0.349374 0.349374
0.058995 0.348814 0.423026
0.058431 0.348250 0.497131
0.057864 0.347683 0.571629
0.057295 0.347113 0.646475
0.056723 0.346541 0.721633
0.056149 0.345967 0.797074
0.055572 0.345391 0.872774
0.054995 0.344813 0.948712
0.054415 0.344233 1.000000
0.054013 0.343831 1.000000
0.056896 0.420927 0.000000
0.056712 0.420743 0.000000
0.056192 0.420223 0.056192
0.055656 0.419687 0.126617
0.055111 0.419142 0.198239
0.054560 0.418590 0.270704
0.054003 0.418034 0.343821
0.053443 0.417473 0.417473
0.052879 0.416909 0.491578
0.052312 0.416342 0.566076
0.051742 0.415773 0.640922
0.051170 0.415201 0.716080
0.050596 0.414627 0.791521
0.050020 0.414050 0.867221
0.049442 0.413472 0.943159
0.048862 0.412893 1.000000
0.048460 0.412491 1.000000
0.051309 0.490009 0.000000
0.051125 0.489824 0.000000
0.050605 0.489305 0.050605
0.050069 0.488769 0.121030
0.049524 0.488224 0.192652
0.048973 0.487672 0.265117
0.048416 0.487116 0.338234
0.047856 0.486555 0.411886
0.047292 0.485991 0.485991
0.046725 0.485424 0.560489
0.046155 0.484855 0.635335
0.045583 0.484283 0.710493
0.045009 0.483708 0.785934
0.044433 0.483132 0.861634
0.043855 0.482554 0.937572
0.043275 0.481975 1.000000
0.042873 0.481573 1.000000
0.045693 0.559457 0.000000
0.045508 0.559273 0.000000
0.044989 0.558753 0.044989
0.044453 0.558217 0.115413
0.043908 0.557672 0.187035
0.043356 0.557121 0.259500
0.042800 0.556564 0.332618
0.042239 0.556004 0.406270
0.041675 0.555440 0.480375
0.041108 0.554873 0.554873
0.040538 0.554303 0.629719
0.039966 0.553731 0.704877
0.039392 0.553157 0.780317
0.038816 0.552581 0.856017
0.038238 0.552003 0.931956
0.037659 0.551423 1.000000
0.037257 0.551021 1.000000
0.040050 0.629230 0.000000
0.039865 0.629046 0.000000
0.039346 0.628526 0.039346
0.038810 0.627990 0.109770
0.038265 0.627445 0.181393
0.037713 0.626893 0.253857
0.037157 0.626337 0.326975
0.036596 0.625776 0.400627
0.036032 0.625212 0.474732
0.035465 0.624645 0.549230
0.034896 0.624076 0.624076
0.034324 0.623504 0.699234
0.033749 0.622930 0.774675
0.033173 0.622353 0.850374
0.032595 0.621775 0.926313
0.032016 0.621196 1.000000
0.031614 0.620794 1.000000
0.034383 0.699294 0.000000
0.034199 0.699109 0.000000
0.033680 0.698590 0.033680
0.033144 0.698054 0.104104
0.032599 0.697509 0.175726
0.032047 0.696957 0.248191
0.031491 0.696401 0.321309
0.030930 0.695840 0.394961
0.030366 0.695276 0.469065
0.029799 0.694709 0.543564
0.029229 0.694139 0.618409
0.028657 0.693567 0.693567
0.028083 0.692993 0.769008
0.027507 0.692417 0.844708
0.026929 0.691839 0.920647
0.026349 0.691259 0.996807
0.025947 0.690858 1.000000
0.028696 0.769621 0.000000
0.028511 0.769437 0.000000
0.027992 0.768917 0.027992
0.027456 0.768381 0.098416
0.026911 0.767836 0.170039
0.026359 0.767284 0.242503
0.025803 0.766728 0.315621
0.025242 0.766167 0.389273
0.024678 0.765603 0.463378
0.024111 0.765036 0.537876
0.023542 0.764467 0.612722
0.022970 0.763895 0.687880
0.022395 0.763321 0.763321
0.021819 0.762744 0.839020
0.021241 0.762166 0.914959
0.020662 0.761587 0.991119
0.020260 0.761185 1.000000
0.022989 0.840190 0.000000
0.022804 0.840005 0.000000
0.022285 0.839486 0.022285
0.021749 0.838950 0.092709
0.021204 0.838405 0.164331
0.020652 0.837853 0.236796
0.020096 0.837297 0.309914
0.019535 0.836736 0.383566
0.018971 0.836172 0.457671
0.018404 0.835605 0.532169
0.017834 0.835036 0.607015
0.017262 0.834464 0.682172
0.016688 0.833889 0.757613
0.016112 0.833313 0.833313
0.015534 0.832735 0.909252
0.014955 0.832156 0.985412
0.014553 0.831754 1.000000
0.017263 0.910981 0.000000
0.017079 0.910797 0.000000
0.016560 0.910277 0.016560
0.016024 0.909741 0.086984
0.015478 0.909196 0.158606
0.014927 0.908645 0.231071
0.014370 0.908088 0.304189
0.013810 0.907528 0.377841
0.013246 0.906964 0.451945
0.012679 0.906397 0.526443
0.012109 0.905827 0.601289
0.011537 0.905255 0.676447
0.010963 0.904681 0.751888
0.010387 0.904105 0.827588
0.009809 0.903527 0.903527
0.009229 0.902947 0.979687
0.008827 0.902545 1.000000
0.011522 0.981979 0.000000
0.011337 0.981795 0.000000
0.010818 0.981275 0.010818
0.010282 0.980739 0.081242
0.009737 0.980194 0.152864
0.009185 0.979643 0.225329
0.008629 0.979086 0.298447
0.008068 0.978525 0.372099
0.007504 0.977961 0.446203
0.006937 0.977394 0.520702
0.006367 0.976825 0.595547
0.005795 0.976253 0.670705
0.005221 0.975679 0.746146
0.004645 0.975102 0.821846
0.004067 0.974525 0.897785
0.003487 0.973945 0.973945
0.003086 0.973543 1.000000
0.007540 1.000000 0.000000
0.007356 1.000000 0.000000
0.006837 1.000000 0.006837
0.006301 1.000000 0.077261
0.005756 1.000000 0.148883
0.005204 1.000000 0.221348
0.004648 1.000000 0.294466
0.004087 1.000000 0.368118
0.003523 1.000000 0.442222
0.002956 1.000000 0.516720
0.002386 1.000000 0.591566
0.001814 1.000000 0.666724
0.001240 1.000000 0.742165
0.000664 1.000000 0.817865
0.000086 1.000000 0.893804
0.000000 1.000000 0.969964
0.000000 1.000000 1.000000
0.160488 0.000000 0.000000
0.160303 0.000000 0.020573
0.159784 0.000000 0.088824
0.159248 0.000000 0.159248
0.158703 0.000000 0.230870
0.158151 0.000000 0.303335
0.157595 0.000000 0.376453
0.157034 0.000000 0.450105
0.156470 0.000000 0.524210
0.155903 0.000000 0.598708
0.155334 0.000000 0.673554
0.154762 0.000000 0.748712
0.154187 0.000000 0.824152
0.153611 0.000000 0.899852
0.153033 0.000000 0.975791
0.152454 0.000000 1.000000
0.152052 0.000000 1.000000
0.158661 0.018931 0.000000
