skills/creativeops-grade/assets/grade/luts/trailer_punch_v07.cube
TITLE "trailer_punch_v07"
LUT_3D_SIZE 9
DOMAIN_MIN 0.0 0.0 0.0
DOMAIN_MAX 1.0 1.0 1.0
0.000000 0.000000 0.000000
0.000000 0.000000 0.092475
0.000000 0.000000 0.234521
0.000000 0.000000 0.380104
0.000000 0.000000 0.527860
0.000000 0.000000 0.677204
0.000000 0.000000 0.827803
0.000000 0.000000 0.979442
0.000000 0.000000 1.000000
0.000000 0.086207 0.000000
0.000000 0.085503 0.085503
0.000000 0.084422 0.227549
0.000000 0.083314 0.373132
0.000000 0.082189 0.520888
0.000000 0.081052 0.670232
0.000000 0.079906 0.820831
0.000000 0.078752 0.972470
0.000000 0.077771 1.000000
0.000000 0.218625 0.000000
0.000000 0.217921 0.074793
0.000000 0.216840 0.216840
0.000000 0.215732 0.362422
0.000000 0.214607 0.510179
0.000000 0.213471 0.659523
0.000000 0.212325 0.810122
0.000000 0.211170 0.961760
0.000000 0.210189 1.000000
0.000000 0.354340 0.000000
0.000000 0.353636 0.063818
0.000000 0.352555 0.205864
0.000000 0.351447 0.351447
0.000000 0.350322 0.499203
0.000000 0.349185 0.648547
0.000000 0.348039 0.799146
0.000000 0.346885 0.950785
0.000000 0.345904 1.000000
0.000000 0.492081 0.000000
0.000000 0.491377 0.052678
0.000000 0.490296 0.194724
0.000000 0.489188 0.340307
0.000000 0.488064 0.488064
0.000000 0.486927 0.637408
0.000000 0.485781 0.788006
0.000000 0.484627 0.939645
0.000000 0.483645 1.000000
0.000000 0.631302 0.000000
0.000000 0.630599 0.041418
0.000000 0.629517 0.183465
0.000000 0.628409 0.329048
0.000000 0.627285 0.476804
0.000000 0.626148 0.626148
0.000000 0.625002 0.776747
0.000000 0.623848 0.928385
0.000000 0.622866 1.000000
0.000000 0.771693 0.000000
0.000000 0.770990 0.030064
0.000000 0.769908 0.172111
0.000000 0.768800 0.317694
0.000000 0.767676 0.465450
0.000000 0.766539 0.614794
0.000000 0.765393 0.765393
0.000000 0.764239 0.917031
0.000000 0.763257 1.000000
0.000000 0.913054 0.000000
0.000000 0.912350 0.018632
0.000000 0.911269 0.160679
0.000000 0.910161 0.306261
0.000000 0.909036 0.454018
0.000000 0.907899 0.603362
0.000000 0.906753 0.753961
0.000000 0.905599 0.905599
0.000000 0.904618 1.000000
0.000000 1.000000 0.000000
0.000000 1.000000 0.008909
0.000000 1.000000 0.150956
0.000000 1.000000 0.296538
0.000000 1.000000 0.444295
0.000000 1.000000 0.593639
0.000000 1.000000 0.744238
0.000000 1.000000 0.895876
0.000000 1.000000 1.000000
0.091106 0.000000 0.000000
0.090402 0.000000 0.090402
0.089321 0.000000 0.232449
0.088213 0.000000 0.378031
0.087088 0.000000 0.525788
0.085952 0.000000 0.675132
0.084806 0.000000 0.825731
0.083651 0.000000 0.977369
0.082670 0.000000 1.000000
0.084134 0.084134 0.000000
0.083430 0.083430 0.083430
0.082349 0.082349 0.225477
0.081241 0.081241 0.371059
0.080117 0.080117 0.518816
0.078980 0.078980 0.668160
0.077834 0.077834 0.818759
0.076680 0.076680 0.970397
0.075698 0.075698 1.000000
0.073425 0.216552 0.000000
0.072721 0.215849 0.072721
0.071640 0.214768 0.214768
0.070532 0.213660 0.360350
0.069407 0.212535 0.508107
0.068271 0.211398 0.657451
0.067124 0.210252 0.808050
0.065970 0.209098 0.959688
0.064989 0.208116 1.000000
0.062449 0.352267 0.000000
0.061745 0.351563 0.061745
0.060664 0.350482 0.203792
0.059556 0.349374 0.349374
0.058431 0.348250 0.497131
0.057295 0.347113 0.646475
0.056149 0.345967 0.797074
0.054995 0.344813 0.948712
0.054013 0.343831 1.000000
0.051309 0.490009 0.000000
0.050605 0.489305 0.050605
0.049524 0.488224 0.192652
0.048416 0.487116 0.338234
0.047292 0.485991 0.485991
0.046155 0.484855 0.635335
0.045009 0.483708 0.785934
0.043855 0.482554 0.937572
0.042873 0.481573 1.000000
0.040050 0.629230 0.000000
0.039346 0.628526 0.039346
0.038265 0.627445 0.181393
0.037157 0.626337 0.326975
0.036032 0.625212 0.474732
0.034896 0.624076 0.624076
0.033749 0.622930 0.774675
0.032595 0.621775 0.926313
0.031614 0.620794 1.000000
0.028696 0.769621 0.000000
0.027992 0.768917 0.027992
0.026911 0.767836 0.170039
0.025803 0.766728 0.315621
0.024678 0.765603 0.463378
0.023542 0.764467 0.612722
0.022395 0.763321 0.763321
0.021241 0.762166 0.914959
0.020260 0.761185 1.000000
0.017263 0.910981 0.000000
0.016560 0.910277 0.016560
0.015478 0.909196 0.158606
0.014370 0.908088 0.304189
0.013246 0.906964 0.451945
0.012109 0.905827 0.601289
0.010963 0.904681 0.751888
0.009809 0.903527 0.903527
0.008827 0.902545 1.000000
0.007540 1.000000 0.000000
0.006837 1.000000 0.006837
0.005756 1.000000 0.148883
0.004648 1.000000 0.294466
0.003523 1.000000 0.442222
0.002386 1.000000 0.591566
0.001240 1.000000 0.742165
0.000086 1.000000 0.893804
0.000000 1.000000 1.000000
0.231050 0.000000 0.000000
0.230346 0.000000 0.087219
0.229265 0.000000 0.229265
0.228157 0.000000 0.374848
0.227033 0.000000 0.522604
0.225896 0.000000 0.671948
0.224750 0.000000 0.822547
0.223596 0.000000 0.974186
0.222614 0.000000 1.000000
0.224078 0.080951 0.000000
0.223374 0.080247 0.080247
0.222293 0.079166 0.222293
0.221185 0.078058 0.367876
0.220061 0.076933 0.515633
0.218924 0.075796 0.664977
0.217778 0.074650 0.815575
0.216624 0.073496 0.967214
0.215642 0.072515 1.000000
0.213369 0.213369 0.000000
0.212665 0.212665 0.069538
0.211584 0.211584 0.211584
0.210476 0.210476 0.357167
0.209352 0.209352 0.504923
0.208215 0.208215 0.654267
0.207069 0.207069 0.804866
0.205915 0.205915 0.956505
0.204933 0.204933 1.000000
0.202393 0.349084 0.000000
0.201689 0.348380 0.058562
0.200608 0.347299 0.200608
0.199500 0.346191 0.346191
0.198376 0.345066 0.493948
0.197239 0.343930 0.643292
0.196093 0.342783 0.793890
0.194939 0.341629 0.945529
0.193957 0.340648 1.000000
0.191253 0.486825 0.000000
0.190550 0.486121 0.047422
0.189469 0.485040 0.189469
0.188361 0.483932 0.335051
0.187236 0.482808 0.482808
0.186099 0.481671 0.632152
0.184953 0.480525 0.782751
0.183799 0.479371 0.934389
0.182817 0.478389 1.000000
0.179994 0.626046 0.000000
0.179290 0.625343 0.036163
0.178209 0.624262 0.178209
0.177101 0.623154 0.323792
0.175977 0.622029 0.471548
0.174840 0.620892 0.620892
0.173694 0.619746 0.771491
0.172540 0.618592 0.923130
0.171558 0.617610 1.000000
0.168640 0.766437 0.000000
0.167936 0.765734 0.024809
0.166855 0.764653 0.166855
0.165747 0.763545 0.312438
0.164623 0.762420 0.460194
0.163486 0.761283 0.609538
0.162340 0.760137 0.760137
0.161186 0.758983 0.911776
0.160204 0.758001 1.000000
0.157208 0.907798 0.000000
0.156504 0.907094 0.013376
0.155423 0.906013 0.155423
0.154315 0.904905 0.301005
0.153190 0.903780 0.448762
0.152054 0.902643 0.598106
0.150907 0.901497 0.748705
0.149753 0.900343 0.900343
0.148772 0.899362 1.000000
0.147485 1.000000 0.000000
0.146781 1.000000 0.003653
0.145700 1.000000 0.145700
0.144592 1.000000 0.291282
0.143467 1.000000 0.439039
0.142331 1.000000 0.588383
0.141184 1.000000 0.738982
0.140030 1.000000 0.890620
0.139049 1.000000 1.000000
0.374478 0.000000 0.000000
0.373774 0.000000 0.083956
0.372693 0.000000 0.226003
0.371585 0.000000 0.371585
0.370461 0.000000 0.519342
0.369324 0.000000 0.668686
0.368178 0.000000 0.819285
0.367024 0.000000 0.970923
0.366042 0.000000 1.000000
0.367506 0.077688 0.000000
0.366802 0.076984 0.076984
0.365721 0.075903 0.219031
0.364613 0.074795 0.364613
0.363489 0.073670 0.512370
0.362352 0.072534 0.661714
0.361206 0.071388 0.812313
0.360052 0.070234 0.963951
0.359070 0.069252 1.000000
0.356797 0.210106 0.000000
0.356093 0.209403 0.066275
0.355012 0.208321 0.208321
0.353904 0.207213 0.353904
0.352779 0.206089 0.501661
0.351643 0.204952 0.651005
0.350497 0.203806 0.801603
0.349342 0.202652 0.953242
0.348361 0.201670 1.000000
0.345821 0.345821 0.000000
0.345117 0.345117 0.055299
0.344036 0.344036 0.197346
0.342928 0.342928 0.342928
0.341804 0.341804 0.490685
0.340667 0.340667 0.640029
0.339521 0.339521 0.790628
0.338367 0.338367 0.942266
0.337385 0.337385 1.000000
0.334681 0.483563 0.000000
0.333978 0.482859 0.044159
0.332896 0.481778 0.186206
0.331788 0.480670 0.331788
0.330664 0.479545 0.479545
0.329527 0.478408 0.628889
0.328381 0.477262 0.779488
0.327227 0.476108 0.931126
0.326245 0.475127 1.000000
0.323422 0.622784 0.000000
0.322718 0.622080 0.032900
0.321637 0.620999 0.174946
0.320529 0.619891 0.320529
0.319404 0.618766 0.468286
0.318268 0.617630 0.617630
0.317122 0.616483 0.768228
0.315967 0.615329 0.919867
0.314986 0.614348 1.000000
0.312068 0.763175 0.000000
0.311364 0.762471 0.021546
0.310283 0.761390 0.163592
0.309175 0.760282 0.309175
0.308050 0.759157 0.456932
0.306914 0.758021 0.606276
0.305768 0.756874 0.756874
0.304613 0.755720 0.908513
0.303632 0.754739 1.000000
0.300635 0.904535 0.000000
0.299932 0.903831 0.010114
0.298851 0.902750 0.152160
0.297743 0.901642 0.297743
0.296618 0.900517 0.445499
0.295481 0.899381 0.594843
0.294335 0.898235 0.745442
0.293181 0.897081 0.897081
0.292199 0.896099 1.000000
0.290913 1.000000 0.000000
0.290209 1.000000 0.000391
0.289128 1.000000 0.142437
0.288020 1.000000 0.288020
0.286895 1.000000 0.435776
0.285758 1.000000 0.585120
0.284612 1.000000 0.735719
0.283458 1.000000 0.887358
0.282477 1.000000 1.000000
0.520048 0.000000 0.000000
0.519344 0.000000 0.080645
0.518263 0.000000 0.222691
0.517155 0.000000 0.368274
0.516030 0.000000 0.516030
0.514894 0.000000 0.665374
0.513748 0.000000 0.815973
0.512593 0.000000 0.967612
0.511612 0.000000 1.000000
0.513076 0.074377 0.000000
0.512372 0.073673 0.073673
0.511291 0.072592 0.215719
0.510183 0.071484 0.361302
0.509059 0.070359 0.509059
0.507922 0.069222 0.658403
0.506776 0.068076 0.809001
0.505622 0.066922 0.960640
0.504640 0.065941 1.000000
0.502367 0.206795 0.000000
0.501663 0.206091 0.062964
0.500582 0.205010 0.205010
0.499474 0.203902 0.350593
0.498349 0.202777 0.498349
0.497213 0.201641 0.647693
0.496066 0.200495 0.798292
0.494912 0.199341 0.949931
0.493931 0.198359 1.000000
0.491391 0.342510 0.000000
0.490687 0.341806 0.051988
0.489606 0.340725 0.194034
0.488498 0.339617 0.339617
0.487373 0.338492 0.487373
0.486237 0.337356 0.636717
0.485091 0.336209 0.787316
0.483937 0.335055 0.938955
0.482955 0.334074 1.000000
0.480251 0.480251 0.000000
0.479547 0.479547 0.040848
0.478466 0.478466 0.182894
0.477358 0.477358 0.328477
0.476234 0.476234 0.476234
0.475097 0.475097 0.625578
0.473951 0.473951 0.776176
0.472797 0.472797 0.927815
0.471815 0.471815 1.000000
0.468992 0.619472 0.000000
0.468288 0.618769 0.029589
0.467207 0.617688 0.171635
0.466099 0.616579 0.317218
0.464974 0.615455 0.464974
0.463838 0.614318 0.614318
0.462691 0.613172 0.764917
0.461537 0.612018 0.916556
0.460556 0.611036 1.000000
0.457638 0.759863 0.000000
0.456934 0.759160 0.018235
0.455853 0.758078 0.160281
0.454745 0.756970 0.305864
0.453620 0.755846 0.453620
0.452484 0.754709 0.602964
0.451337 0.753563 0.753563
0.450183 0.752409 0.905202
0.449202 0.751427 1.000000
0.446205 0.901224 0.000000
0.445502 0.900520 0.006802
0.444420 0.899439 0.148849
0.443312 0.898331 0.294431
0.442188 0.897206 0.442188
0.441051 0.896069 0.591532
0.439905 0.894923 0.742131
0.438751 0.893769 0.893769
0.437769 0.892788 1.000000
0.436482 1.000000 0.000000
0.435779 1.000000 0.000000
0.434698 1.000000 0.139126
0.433589 1.000000 0.284708
0.432465 1.000000 0.432465
0.431328 1.000000 0.581809
0.430182 1.000000 0.732408
0.429028 1.000000 0.884046
0.428046 1.000000 1.000000
0.667182 0.000000 0.000000
0.666478 0.000000 0.077298
0.665397 0.000000 0.219344
0.664289 0.000000 0.364927
0.663164 0.000000 0.512683
0.662027 0.000000 0.662027
0.660881 0.000000 0.812626
0.659727 0.000000 0.964265
0.658746 0.000000 1.000000
0.660210 0.071030 0.000000
0.659506 0.070326 0.070326
0.658425 0.069245 0.212372
0.657317 0.068137 0.357955
0.656192 0.067012 0.505712
0.655056 0.065875 0.655056
0.653909 0.064729 0.805654
0.652755 0.063575 0.957293
0.651774 0.062594 1.000000
0.649500 0.203448 0.000000
0.648797 0.202744 0.059617
0.647716 0.201663 0.201663
0.646608 0.200555 0.347246
0.645483 0.199431 0.495002
0.644346 0.198294 0.644346
0.643200 0.197148 0.794945
0.642046 0.195994 0.946584
0.641064 0.195012 1.000000
0.638525 0.339163 0.000000
0.637821 0.338459 0.048641
0.636740 0.337378 0.190687
0.635632 0.336270 0.336270
0.634507 0.335145 0.484026
0.633370 0.334009 0.633370
0.632224 0.332862 0.783969
0.631070 0.331708 0.935608
0.630089 0.330727 1.000000
0.627385 0.476904 0.000000
0.626681 0.476200 0.037501
0.625600 0.475119 0.179548
0.624492 0.474011 0.325130
0.623367 0.472887 0.472887
0.622231 0.471750 0.622231
0.621085 0.470604 0.772830
0.619930 0.469450 0.924468
0.618949 0.468468 1.000000
0.616125 0.616125 0.000000
0.615422 0.615422 0.026242
0.614341 0.614341 0.168288
0.613233 0.613233 0.313871
0.612108 0.612108 0.461627
0.610971 0.610971 0.610971
0.609825 0.609825 0.761570
0.608671 0.608671 0.913209
0.607689 0.607689 1.000000
0.604771 0.756516 0.000000
0.604068 0.755813 0.014888
0.602987 0.754732 0.156934
0.601879 0.753624 0.302517
0.600754 0.752499 0.450273
0.599617 0.751362 0.599617
0.598471 0.750216 0.750216
0.597317 0.749062 0.901855
0.596335 0.748080 1.000000
0.593339 0.897877 0.000000
0.592635 0.897173 0.003455
0.591554 0.896092 0.145502
0.590446 0.894984 0.291084
0.589322 0.893859 0.438841
0.588185 0.892722 0.588185
0.587039 0.891576 0.738784
0.585885 0.890422 0.890422
0.584903 0.889441 1.000000
0.583616 1.000000 0.000000
0.582912 1.000000 0.000000
0.581831 1.000000 0.135779
0.580723 1.000000 0.281361
0.579599 1.000000 0.429118
0.578462 1.000000 0.578462
0.577316 1.000000 0.729061
0.576162 1.000000 0.880699
0.575180 1.000000 1.000000
0.815551 0.000000 0.000000
0.814848 0.000000 0.073923
0.813767 0.000000 0.215969
0.812659 0.000000 0.361552
0.811534 0.000000 0.509308
0.810397 0.000000 0.658652
0.809251 0.000000 0.809251
0.808097 0.000000 0.960890
0.807115 0.000000 1.000000
0.808580 0.067655 0.000000
0.807876 0.066951 0.066951
0.806795 0.065870 0.208997
0.805687 0.064762 0.354580
0.804562 0.063637 0.502336
0.803425 0.062500 0.651680
0.802279 0.061354 0.802279
0.801125 0.060200 0.953918
0.800144 0.059219 1.000000
0.797870 0.200073 0.000000
0.797167 0.199369 0.056241
0.796085 0.198288 0.198288
0.794977 0.197180 0.343870
0.793853 0.196055 0.491627
0.792716 0.194919 0.640971
0.791570 0.193773 0.791570
0.790416 0.192618 0.943208
0.789434 0.191637 1.000000
0.786895 0.335788 0.000000
0.786191 0.335084 0.045266
0.785110 0.334003 0.187312
0.784002 0.332895 0.332895
0.782877 0.331770 0.480651
0.781740 0.330633 0.629995
0.780594 0.329487 0.780594
0.779440 0.328333 0.932233
0.778459 0.327352 1.000000
0.775755 0.473529 0.000000
0.775051 0.472825 0.034126
0.773970 0.471744 0.176172
0.772862 0.470636 0.321755
0.771737 0.469512 0.469512
0.770601 0.468375 0.618856
0.769454 0.467229 0.769454
0.768300 0.466075 0.921093
0.767319 0.465093 1.000000
0.764495 0.612750 0.000000
0.763792 0.612047 0.022866
0.762710 0.610965 0.164913
0.761602 0.609857 0.310496
0.760478 0.608733 0.458252
0.759341 0.607596 0.607596
0.758195 0.606450 0.758195
0.757041 0.605296 0.909833
0.756059 0.604314 1.000000
0.753141 0.753141 0.000000
0.752438 0.752438 0.011512
0.751356 0.751356 0.153559
0.750248 0.750248 0.299142
0.749124 0.749124 0.446898
0.747987 0.747987 0.596242
0.746841 0.746841 0.746841
0.745687 0.745687 0.898479
0.744705 0.744705 1.000000
0.741709 0.894502 0.000000
0.741005 0.893798 0.000080
0.739924 0.892717 0.142127
0.738816 0.891609 0.287709
0.737691 0.890484 0.435466
0.736555 0.889347 0.584810
0.735409 0.888201 0.735409
0.734254 0.887047 0.887047
0.733273 0.886066 1.000000
0.731986 1.000000 0.000000
0.731282 1.000000 0.000000
0.730201 1.000000 0.132404
0.729093 1.000000 0.277986
0.727968 1.000000 0.425743
0.726832 1.000000 0.575087
0.725686 1.000000 0.725686
0.724532 1.000000 0.877324
0.723550 1.000000 1.000000
0.964946 0.000000 0.000000
0.964242 0.000000 0.070524
0.963161 0.000000 0.212571
0.962053 0.000000 0.358153
0.960928 0.000000 0.505910
0.959791 0.000000 0.655254
0.958645 0.000000 0.805853
0.957491 0.000000 0.957491
0.956510 0.000000 1.000000
0.957974 0.064256 0.000000
0.957270 0.063552 0.063552
0.956189 0.062471 0.205599
0.955081 0.061363 0.351181
0.953956 0.060239 0.498938
0.952820 0.059102 0.648282
0.951673 0.057956 0.798881
0.950519 0.056802 0.950519
0.949538 0.055820 1.000000
0.947265 0.196675 0.000000
0.946561 0.195971 0.052843
0.945480 0.194890 0.194890
0.944372 0.193782 0.340472
0.943247 0.192657 0.488229
0.942110 0.191520 0.637573
0.940964 0.190374 0.788172
0.939810 0.189220 0.939810
0.938829 0.188239 1.000000
0.936289 0.332389 0.000000
0.935585 0.331685 0.041867
0.934504 0.330604 0.183914
0.933396 0.329496 0.329496
0.932271 0.328372 0.477253
0.931135 0.327235 0.626597
0.929988 0.326089 0.777196
0.928834 0.324935 0.928834
0.927853 0.323953 1.000000
0.925149 0.470131 0.000000
0.924445 0.469427 0.030727
0.923364 0.468346 0.172774
0.922256 0.467238 0.318357
0.921131 0.466113 0.466113
0.919995 0.464977 0.615457
0.918849 0.463830 0.766056
0.917694 0.462676 0.917694
0.916713 0.461695 1.000000
0.913890 0.609352 0.000000
0.913186 0.608648 0.019468
0.912105 0.607567 0.161515
0.910997 0.606459 0.307097
0.909872 0.605334 0.454854
0.908735 0.604198 0.604198
0.907589 0.603052 0.754797
0.906435 0.601898 0.906435
0.905454 0.600916 1.000000
0.902536 0.749743 0.000000
0.901832 0.749039 0.008114
0.900751 0.747958 0.150161
0.899643 0.746850 0.295743
0.898518 0.745725 0.443500
0.897381 0.744589 0.592844
0.896235 0.743443 0.743443
0.895081 0.742289 0.895081
0.894100 0.741307 1.000000
0.891103 0.891103 0.000000
0.890399 0.890399 0.000000
0.889318 0.889318 0.138728
0.888210 0.888210 0.284311
0.887086 0.887086 0.432067
0.885949 0.885949 0.581411
0.884803 0.884803 0.732010
0.883649 0.883649 0.883649
0.882667 0.882667 1.000000
0.881380 1.000000 0.000000
0.880676 1.000000 0.000000
0.879595 1.000000 0.129005
0.878487 1.000000 0.274588
0.877363 1.000000 0.422344
0.876226 1.000000 0.571688
0.875080 1.000000 0.722287
0.873926 1.000000 0.873926
0.872944 1.000000 1.000000
1.000000 0.000000 0.000000
1.000000 0.000000 0.067634
1.000000 0.000000 0.209681
1.000000 0.000000 0.355263
1.000000 0.000000 0.503020
1.000000 0.000000 0.652364
1.000000 0.000000 0.802962
1.000000 0.000000 0.954601
1.000000 0.000000 1.000000
1.000000 0.061366 0.000000
1.000000 0.060662 0.060662
1.000000 0.059581 0.202709
1.000000 0.058473 0.348291
1.000000 0.057348 0.496048
1.000000 0.056212 0.645392
1.000000 0.055066 0.795991
1.000000 0.053911 0.947629
1.000000 0.052930 1.000000
1.000000 0.193784 0.000000
1.000000 0.193080 0.049953
1.000000 0.191999 0.191999
1.000000 0.190891 0.337582
1.000000 0.189767 0.485339
1.000000 0.188630 0.634683
1.000000 0.187484 0.785281
1.000000 0.186330 0.936920
1.000000 0.185348 1.000000
1.000000 0.329499 0.000000
1.000000 0.328795 0.038977
1.000000 0.327714 0.181024
1.000000 0.326606 0.326606
1.000000 0.325481 0.474363
1.000000 0.324345 0.623707
1.000000 0.323199 0.774306
1.000000 0.322045 0.925944
1.000000 0.321063 1.000000
1.000000 0.467241 0.000000
1.000000 0.466537 0.027837
1.000000 0.465456 0.169884
1.000000 0.464348 0.315466
1.000000 0.463223 0.463223
1.000000 0.462086 0.612567
1.000000 0.460940 0.763166
1.000000 0.459786 0.914804
1.000000 0.458805 1.000000
1.000000 0.606462 0.000000
1.000000 0.605758 0.016578
1.000000 0.604677 0.158624
1.000000 0.603569 0.304207
1.000000 0.602444 0.451964
1.000000 0.601308 0.601308
1.000000 0.600161 0.751906
1.000000 0.599007 0.903545
1.000000 0.598026 1.000000
1.000000 0.746853 0.000000
1.000000 0.746149 0.005224
1.000000 0.745068 0.147270
1.000000 0.743960 0.292853
1.000000 0.742835 0.440610
1.000000 0.741699 0.589954
1.000000 0.740552 0.740552
1.000000 0.739398 0.892191
1.000000 0.738417 1.000000
1.000000 0.888213 0.000000
1.000000 0.887509 0.000000
1.000000 0.886428 0.135838
1.000000 0.885320 0.281420
1.000000 0.884195 0.429177
1.000000 0.883059 0.578521
1.000000 0.881913 0.729120
1.000000 0.880758 0.880758
1.000000 0.879777 1.000000
1.000000 1.000000 0.000000
1.000000 1.000000 0.000000
1.000000 1.000000 0.126115
1.000000 1.000000 0.271698
1.000000 1.000000 0.419454
1.000000 1.000000 0.568798
1.000000 1.000000 0.719397
1.000000 1.000000 0.871035
1.000000 1.000000 1.000000
