skills/creativeops-producer-ios/assets/grade/luts/ad_warm_v15.cube
TITLE "ad_warm_v15"
LUT_3D_SIZE 17
DOMAIN_MIN 0.0 0.0 0.0
DOMAIN_MAX 1.0 1.0 1.0
0.040099 0.000000 0.000000
0.039971 0.000000 0.019781
0.039506 0.000000 0.094576
0.039054 0.000000 0.167206
0.038608 0.000000 0.238773
0.038167 0.000000 0.309626
0.037730 0.000000 0.379942
0.037295 0.000000 0.449828
0.036862 0.000000 0.519354
0.036431 0.000000 0.588572
0.036002 0.000000 0.657521
0.035575 0.000000 0.726231
0.035149 0.000000 0.794725
0.034723 0.000000 0.863025
0.034300 0.000000 0.931145
0.033877 0.000000 0.999101
0.033455 0.000000 1.000000
0.035898 0.063623 0.000000
0.035770 0.063495 0.015580
0.035305 0.063029 0.090376
0.034853 0.062577 0.163005
0.034408 0.062132 0.234572
0.033967 0.061691 0.305426
0.033529 0.061253 0.375742
0.033094 0.060819 0.445627
0.032662 0.060386 0.515153
0.032231 0.059955 0.584371
0.031802 0.059526 0.653320
0.031374 0.059098 0.722030
0.030948 0.058672 0.790525
0.030523 0.058247 0.858824
0.030099 0.057823 0.926944
0.029676 0.057400 0.994900
0.029254 0.056978 1.000000
0.031386 0.132767 0.000000
0.031258 0.132639 0.011068
0.030792 0.132174 0.085863
0.030341 0.131722 0.158493
0.029895 0.131276 0.230060
0.029454 0.130835 0.300913
0.029017 0.130398 0.371229
0.028582 0.129963 0.441115
0.028149 0.129530 0.510641
0.027718 0.129099 0.579859
0.027289 0.128670 0.648808
0.026862 0.128243 0.717518
0.026435 0.127817 0.786012
0.026010 0.127392 0.854312
0.025586 0.126968 0.922432
0.025164 0.126545 0.990388
0.024742 0.126123 1.000000
0.026953 0.200684 0.000000
0.026826 0.200556 0.006635
0.026360 0.200090 0.081431
0.025908 0.199638 0.154060
0.025463 0.199193 0.225627
0.025022 0.198752 0.296481
0.024584 0.198315 0.366797
0.024149 0.197880 0.436682
0.023717 0.197447 0.506208
0.023286 0.197016 0.575426
0.022857 0.196587 0.644375
0.022429 0.196160 0.713085
0.022003 0.195733 0.781580
0.021578 0.195308 0.849879
0.021154 0.194884 0.918000
0.020731 0.194462 0.985955
0.020309 0.194040 1.000000
0.022571 0.267834 0.000000
0.022443 0.267706 0.002253
0.021978 0.267241 0.077049
0.021526 0.266789 0.149678
0.021080 0.266343 0.221245
0.020640 0.265902 0.292099
0.020202 0.265465 0.362415
0.019767 0.265030 0.432300
0.019334 0.264597 0.501826
0.018904 0.264167 0.571044
0.018475 0.263737 0.639993
0.018047 0.263310 0.708703
0.017621 0.262884 0.777197
0.017196 0.262459 0.845497
0.016772 0.262035 0.913617
0.016349 0.261612 0.981573
0.015927 0.261190 1.000000
0.018225 0.334426 0.000000
0.018097 0.334298 0.000000
0.017632 0.333833 0.072703
0.017180 0.333381 0.145332
0.016735 0.332935 0.216899
0.016294 0.332494 0.287753
0.015856 0.332057 0.358069
0.015421 0.331622 0.427954
0.014988 0.331189 0.497480
0.014558 0.330758 0.566698
0.014129 0.330329 0.635647
0.013701 0.329902 0.704357
0.013275 0.329475 0.772852
0.012850 0.329050 0.841151
0.012426 0.328627 0.909271
0.012003 0.328204 0.977227
0.011581 0.327782 1.000000
0.013908 0.400579 0.000000
0.013780 0.400451 0.000000
0.013315 0.399985 0.068385
0.012863 0.399533 0.141015
0.012417 0.399088 0.212582
0.011976 0.398647 0.283435
0.011539 0.398210 0.353751
0.011104 0.397775 0.423637
0.010671 0.397342 0.493163
0.010240 0.396911 0.562381
0.009811 0.396482 0.631330
0.009384 0.396055 0.700040
0.008958 0.395628 0.768534
0.008533 0.395203 0.836834
0.008109 0.394779 0.904954
0.007686 0.394356 0.972910
0.007264 0.393935 1.000000
0.009614 0.466370 0.000000
0.009486 0.466242 0.000000
0.009021 0.465777 0.064092
0.008569 0.465325 0.136721
0.008124 0.464879 0.208288
0.007683 0.464438 0.279142
0.007245 0.464001 0.349458
0.006810 0.463566 0.419343
0.006378 0.463133 0.488869
0.005947 0.462703 0.558087
0.005518 0.462274 0.627036
0.005090 0.461846 0.695746
0.004664 0.461420 0.764241
0.004239 0.460995 0.832540
0.003815 0.460571 0.900660
0.003392 0.460148 0.968616
0.002970 0.459726 1.000000
0.005341 0.531854 0.000000
0.005213 0.531727 0.000000
0.004747 0.531261 0.059818
0.004295 0.530809 0.132448
0.003850 0.530364 0.204015
0.003409 0.529923 0.274868
0.002972 0.529485 0.345184
0.002537 0.529050 0.415069
0.002104 0.528618 0.484596
0.001673 0.528187 0.553814
0.001244 0.527758 0.622763
0.000817 0.527330 0.691472
0.000390 0.526904 0.759967
0.000000 0.526479 0.828266
0.000000 0.526055 0.896387
0.000000 0.525632 0.964342
0.000000 0.525210 1.000000
0.001084 0.597072 0.000000
0.000957 0.596944 0.000000
0.000491 0.596479 0.055562
0.000039 0.596027 0.128192
0.000000 0.595581 0.199758
0.000000 0.595141 0.270612
0.000000 0.594703 0.340928
0.000000 0.594268 0.410813
0.000000 0.593835 0.480339
0.000000 0.593405 0.549558
0.000000 0.592976 0.618506
0.000000 0.592548 0.687216
0.000000 0.592122 0.755711
0.000000 0.591697 0.824010
0.000000 0.591273 0.892131
0.000000 0.590850 0.960086
0.000000 0.590428 1.000000
0.000000 0.662054 0.000000
0.000000 0.661926 0.000000
0.000000 0.661461 0.051321
0.000000 0.661009 0.123951
0.000000 0.660564 0.195518
0.000000 0.660123 0.266371
0.000000 0.659685 0.336687
0.000000 0.659250 0.406572
0.000000 0.658817 0.476098
0.000000 0.658387 0.545317
0.000000 0.657958 0.614266
0.000000 0.657530 0.682975
0.000000 0.657104 0.751470
0.000000 0.656679 0.819769
0.000000 0.656255 0.887890
0.000000 0.655832 0.955845
0.000000 0.655410 1.000000
0.000000 0.726825 0.000000
0.000000 0.726697 0.000000
0.000000 0.726232 0.047094
0.000000 0.725780 0.119724
0.000000 0.725335 0.191291
0.000000 0.724894 0.262144
0.000000 0.724456 0.332460
0.000000 0.724021 0.402345
0.000000 0.723589 0.471871
0.000000 0.723158 0.541090
0.000000 0.722729 0.610039
0.000000 0.722301 0.678748
0.000000 0.721875 0.747243
0.000000 0.721450 0.815542
0.000000 0.721026 0.883663
0.000000 0.720603 0.951618
0.000000 0.720181 1.000000
0.000000 0.791405 0.000000
0.000000 0.791277 0.000000
0.000000 0.790812 0.042879
0.000000 0.790360 0.115509
0.000000 0.789915 0.187076
0.000000 0.789474 0.257929
0.000000 0.789036 0.328245
0.000000 0.788601 0.398131
0.000000 0.788169 0.467657
0.000000 0.787738 0.536875
0.000000 0.787309 0.605824
0.000000 0.786881 0.674534
0.000000 0.786455 0.743028
0.000000 0.786030 0.811328
0.000000 0.785606 0.879448
0.000000 0.785183 0.947404
0.000000 0.784761 1.000000
0.000000 0.855811 0.000000
0.000000 0.855683 0.000000
0.000000 0.855218 0.038676
0.000000 0.854766 0.111306
0.000000 0.854320 0.182873
0.000000 0.853879 0.253726
0.000000 0.853442 0.324042
0.000000 0.853007 0.393928
0.000000 0.852574 0.463454
0.000000 0.852144 0.532672
0.000000 0.851715 0.601621
0.000000 0.851287 0.670330
0.000000 0.850861 0.738825
0.000000 0.850436 0.807124
0.000000 0.850012 0.875245
0.000000 0.849589 0.943200
0.000000 0.849167 1.000000
0.000000 0.920056 0.000000
0.000000 0.919929 0.000000
0.000000 0.919463 0.034484
0.000000 0.919011 0.107113
0.000000 0.918566 0.178680
0.000000 0.918125 0.249533
0.000000 0.917687 0.319849
0.000000 0.917252 0.389735
0.000000 0.916820 0.459261
0.000000 0.916389 0.528479
0.000000 0.915960 0.597428
0.000000 0.915532 0.666138
0.000000 0.915106 0.734632
0.000000 0.914681 0.802932
0.000000 0.914257 0.871052
0.000000 0.913834 0.939008
0.000000 0.913412 1.000000
0.000000 0.984153 0.000000
0.000000 0.984025 0.000000
0.000000 0.983560 0.030300
0.000000 0.983108 0.102930
0.000000 0.982663 0.174497
0.000000 0.982222 0.245350
0.000000 0.981784 0.315666
0.000000 0.981349 0.385552
0.000000 0.980917 0.455078
0.000000 0.980486 0.524296
0.000000 0.980057 0.593245
0.000000 0.979629 0.661955
0.000000 0.979203 0.730449
0.000000 0.978778 0.798749
0.000000 0.978354 0.866869
0.000000 0.977931 0.934825
0.000000 0.977509 1.000000
0.000000 1.000000 0.000000
0.000000 1.000000 0.000000
0.000000 1.000000 0.027574
0.000000 1.000000 0.100203
0.000000 1.000000 0.171770
0.000000 1.000000 0.242623
0.000000 1.000000 0.312939
0.000000 1.000000 0.382825
0.000000 1.000000 0.452351
0.000000 1.000000 0.521569
0.000000 1.000000 0.590518
0.000000 1.000000 0.659228
0.000000 1.000000 0.727722
0.000000 1.000000 0.796022
0.000000 1.000000 0.864142
0.000000 1.000000 0.932098
0.000000 1.000000 0.999900
0.113184 0.000000 0.000000
0.113056 0.000000 0.018425
0.112591 0.000000 0.093221
0.112139 0.000000 0.165850
0.111693 0.000000 0.237417
0.111252 0.000000 0.308271
0.110815 0.000000 0.378587
0.110380 0.000000 0.448472
0.109947 0.000000 0.517998
0.109517 0.000000 0.587216
0.109087 0.000000 0.656165
0.108660 0.000000 0.724875
0.108234 0.000000 0.793370
0.107809 0.000000 0.861669
0.107385 0.000000 0.929789
0.106962 0.000000 0.997745
0.106540 0.000000 1.000000
0.108983 0.062267 0.000000
0.108855 0.062139 0.014225
0.108390 0.061674 0.089020
0.107938 0.061222 0.161650
0.107493 0.060776 0.233217
0.107052 0.060335 0.304070
0.106614 0.059898 0.374386
0.106179 0.059463 0.444271
0.105747 0.059030 0.513797
0.105316 0.058600 0.583016
0.104887 0.058170 0.651965
0.104459 0.057743 0.720674
0.104033 0.057317 0.789169
0.103608 0.056892 0.857468
0.103184 0.056468 0.925589
0.102761 0.056045 0.993544
0.102339 0.055623 1.000000
0.104471 0.131411 0.000000
0.104343 0.131283 0.009712
0.103878 0.130818 0.084508
0.103426 0.130366 0.157137
0.102980 0.129921 0.228704
0.102539 0.129480 0.299558
0.102102 0.129042 0.369874
0.101667 0.128607 0.439759
0.101234 0.128175 0.509285
0.100803 0.127744 0.578503
0.100374 0.127315 0.647452
0.099947 0.126887 0.716162
0.099520 0.126461 0.784657
0.099095 0.126036 0.852956
0.098672 0.125612 0.921076
0.098249 0.125189 0.989032
0.097827 0.124767 1.000000
0.100038 0.199328 0.000000
0.099911 0.199200 0.005280
0.099445 0.198735 0.080075
0.098993 0.198283 0.152705
0.098548 0.197837 0.224272
0.098107 0.197397 0.295125
0.097669 0.196959 0.365441
0.097234 0.196524 0.435327
0.096802 0.196091 0.504853
0.096371 0.195661 0.574071
0.095942 0.195232 0.643020
0.095514 0.194804 0.711729
0.095088 0.194378 0.780224
0.094663 0.193953 0.848523
0.094239 0.193529 0.916644
0.093816 0.193106 0.984600
0.093394 0.192684 1.000000
0.095656 0.266478 0.000000
0.095528 0.266351 0.000897
0.095063 0.265885 0.075693
0.094611 0.265433 0.148322
0.094166 0.264988 0.219889
0.093725 0.264547 0.290743
0.093287 0.264109 0.361059
0.092852 0.263674 0.430944
0.092419 0.263242 0.500470
0.091989 0.262811 0.569688
0.091560 0.262382 0.638637
0.091132 0.261954 0.707347
0.090706 0.261528 0.775842
0.090281 0.261103 0.844141
0.089857 0.260679 0.912262
0.089434 0.260256 0.980217
0.089012 0.259834 1.000000
0.091310 0.333070 0.000000
0.091182 0.332942 0.000000
0.090717 0.332477 0.071347
0.090265 0.332025 0.143977
0.089820 0.331580 0.215544
0.089379 0.331139 0.286397
0.088941 0.330701 0.356713
0.088506 0.330266 0.426598
0.088074 0.329833 0.496124
0.087643 0.329403 0.565343
0.087214 0.328974 0.634292
0.086786 0.328546 0.703001
0.086360 0.328120 0.771496
0.085935 0.327695 0.839795
0.085511 0.327271 0.907916
0.085088 0.326848 0.975871
0.084666 0.326426 1.000000
0.086993 0.399223 0.000000
0.086865 0.399095 0.000000
0.086400 0.398630 0.067030
0.085948 0.398178 0.139659
0.085502 0.397732 0.211226
0.085061 0.397291 0.282080
0.084624 0.396854 0.352396
0.084189 0.396419 0.422281
0.083756 0.395986 0.491807
0.083326 0.395556 0.561025
0.082896 0.395126 0.629974
0.082469 0.394699 0.698684
0.082043 0.394273 0.767179
0.081618 0.393848 0.835478
0.081194 0.393424 0.903598
0.080771 0.393001 0.971554
0.080349 0.392579 1.000000
0.082699 0.465014 0.000000
0.082572 0.464887 0.000000
0.082106 0.464421 0.062736
0.081654 0.463969 0.135366
0.081209 0.463524 0.206933
0.080768 0.463083 0.277786
0.080330 0.462645 0.348102
0.079895 0.462210 0.417987
0.079463 0.461778 0.487514
0.079032 0.461347 0.556732
0.078603 0.460918 0.625681
0.078175 0.460490 0.694390
0.077749 0.460064 0.762885
0.077324 0.459639 0.831184
0.076900 0.459215 0.899305
0.076477 0.458792 0.967260
0.076055 0.458370 1.000000
0.078426 0.530499 0.000000
0.078298 0.530371 0.000000
0.077832 0.529905 0.058463
0.077380 0.529454 0.131092
0.076935 0.529008 0.202659
0.076494 0.528567 0.273512
0.076057 0.528130 0.343829
0.075622 0.527695 0.413714
0.075189 0.527262 0.483240
0.074758 0.526831 0.552458
0.074329 0.526402 0.621407
0.073902 0.525975 0.690117
0.073475 0.525548 0.758611
0.073050 0.525123 0.826911
0.072626 0.524699 0.895031
0.072204 0.524277 0.962987
0.071782 0.523855 1.000000
0.074169 0.595716 0.000000
0.074042 0.595589 0.000000
0.073576 0.595123 0.054206
0.073124 0.594671 0.126836
0.072679 0.594226 0.198403
0.072238 0.593785 0.269256
0.071800 0.593347 0.339572
0.071365 0.592912 0.409458
0.070933 0.592480 0.478984
0.070502 0.592049 0.548202
0.070073 0.591620 0.617151
0.069645 0.591192 0.685861
0.069219 0.590766 0.754355
0.068794 0.590341 0.822655
0.068370 0.589917 0.890775
0.067947 0.589494 0.958731
0.067525 0.589072 1.000000
0.069929 0.660698 0.000000
0.069801 0.660571 0.000000
0.069335 0.660105 0.049966
0.068883 0.659653 0.122595
0.068438 0.659208 0.194162
0.067997 0.658767 0.265015
0.067560 0.658329 0.335331
0.067125 0.657894 0.405217
0.066692 0.657462 0.474743
0.066261 0.657031 0.543961
0.065832 0.656602 0.612910
0.065405 0.656174 0.681620
0.064978 0.655748 0.750114
0.064553 0.655323 0.818414
0.064129 0.654899 0.886534
0.063706 0.654476 0.954490
0.063285 0.654054 1.000000
0.065702 0.725469 0.000000
0.065574 0.725342 0.000000
0.065108 0.724876 0.045738
0.064656 0.724424 0.118368
0.064211 0.723979 0.189935
0.063770 0.723538 0.260788
0.063332 0.723100 0.331104
0.062898 0.722666 0.400990
0.062465 0.722233 0.470516
0.062034 0.721802 0.539734
0.061605 0.721373 0.608683
0.061177 0.720945 0.677393
0.060751 0.720519 0.745887
0.060326 0.720094 0.814187
0.059902 0.719670 0.882307
0.059479 0.719247 0.950263
0.059057 0.718825 1.000000
0.061487 0.790050 0.000000
0.061359 0.789922 0.000000
0.060894 0.789456 0.041524
0.060442 0.789004 0.114153
0.059996 0.788559 0.185720
0.059555 0.788118 0.256574
0.059118 0.787681 0.326890
0.058683 0.787246 0.396775
0.058250 0.786813 0.466301
0.057820 0.786382 0.535519
0.057390 0.785953 0.604468
0.056963 0.785526 0.673178
0.056537 0.785099 0.741673
0.056112 0.784674 0.809972
0.055688 0.784250 0.878092
0.055265 0.783827 0.946048
0.054843 0.783406 1.000000
0.057284 0.854455 0.000000
0.057156 0.854328 0.000000
0.056690 0.853862 0.037321
0.056239 0.853410 0.109950
0.055793 0.852965 0.181517
0.055352 0.852524 0.252371
0.054915 0.852086 0.322687
0.054480 0.851651 0.392572
0.054047 0.851219 0.462098
0.053616 0.850788 0.531316
0.053187 0.850359 0.600265
0.052760 0.849931 0.668975
0.052333 0.849505 0.737469
0.051908 0.849080 0.805769
0.051484 0.848656 0.873889
0.051062 0.848233 0.941845
0.050640 0.847811 1.000000
0.053091 0.918701 0.000000
0.052963 0.918573 0.000000
0.052498 0.918107 0.033128
0.052046 0.917655 0.105757
0.051600 0.917210 0.177324
0.051159 0.916769 0.248178
0.050722 0.916332 0.318494
0.050287 0.915897 0.388379
0.049854 0.915464 0.457905
0.049424 0.915033 0.527123
0.048994 0.914604 0.596072
0.048567 0.914177 0.664782
0.048141 0.913750 0.733277
0.047716 0.913325 0.801576
0.047292 0.912901 0.869696
0.046869 0.912478 0.937652
0.046447 0.912057 1.000000
0.048908 0.982797 0.000000
0.048780 0.982670 0.000000
0.048315 0.982204 0.028945
0.047863 0.981752 0.101574
0.047417 0.981307 0.173141
0.046976 0.980866 0.243995
0.046539 0.980428 0.314311
0.046104 0.979994 0.384196
0.045671 0.979561 0.453722
0.045240 0.979130 0.522940
0.044811 0.978701 0.591889
0.044384 0.978273 0.660599
0.043958 0.977847 0.729094
0.043533 0.977422 0.797393
0.043109 0.976998 0.865513
0.042686 0.976575 0.933469
0.042264 0.976153 1.000000
0.046181 1.000000 0.000000
0.046053 1.000000 0.000000
0.045588 1.000000 0.026218
0.045136 1.000000 0.098847
0.044690 1.000000 0.170414
0.044249 1.000000 0.241268
0.043812 1.000000 0.311584
0.043377 1.000000 0.381469
0.042944 1.000000 0.450995
0.042514 1.000000 0.520213
0.042084 1.000000 0.589162
0.041657 1.000000 0.657872
0.041231 1.000000 0.726367
0.040806 1.000000 0.794666
0.040382 1.000000 0.862787
0.039959 1.000000 0.930742
0.039537 1.000000 0.998545
0.184606 0.000000 0.000000
0.184478 0.000000 0.017100
0.184012 0.000000 0.091896
0.183560 0.000000 0.164526
0.183115 0.000000 0.236092
0.182674 0.000000 0.306946
0.182237 0.000000 0.377262
0.181802 0.000000 0.447147
0.181369 0.000000 0.516673
0.180938 0.000000 0.585892
0.180509 0.000000 0.654840
0.180082 0.000000 0.723550
0.179655 0.000000 0.792045
0.179230 0.000000 0.860344
0.178806 0.000000 0.928465
0.178383 0.000000 0.996420
0.177962 0.000000 1.000000
0.180405 0.060942 0.000000
0.180277 0.060814 0.012900
0.179812 0.060349 0.087695
0.179360 0.059897 0.160325
0.178914 0.059452 0.231892
0.178473 0.059011 0.302745
0.178036 0.058573 0.373061
0.177601 0.058138 0.442947
0.177168 0.057705 0.512473
0.176738 0.057275 0.581691
0.176309 0.056846 0.650640
0.175881 0.056418 0.719350
0.175455 0.055992 0.787844
0.175030 0.055567 0.856144
0.174606 0.055143 0.924264
0.174183 0.054720 0.992220
0.173761 0.054298 1.000000
0.175892 0.130086 0.000000
0.175765 0.129959 0.008387
0.175299 0.129493 0.083183
0.174847 0.129041 0.155812
0.174402 0.128596 0.227379
0.173961 0.128155 0.298233
0.173523 0.127717 0.368549
0.173089 0.127282 0.438434
0.172656 0.126850 0.507960
0.172225 0.126419 0.577178
0.171796 0.125990 0.646127
0.171368 0.125562 0.714837
0.170942 0.125136 0.783332
0.170517 0.124711 0.851631
0.170093 0.124287 0.919752
0.169670 0.123864 0.987707
0.169248 0.123442 1.000000
0.171460 0.198003 0.000000
0.171332 0.197875 0.003955
0.170867 0.197410 0.078751
0.170415 0.196958 0.151380
0.169970 0.196513 0.222947
0.169529 0.196072 0.293800
0.169091 0.195634 0.364116
0.168656 0.195199 0.434002
0.168223 0.194767 0.503528
0.167793 0.194336 0.572746
0.167364 0.193907 0.641695
0.166936 0.193479 0.710405
0.166510 0.193053 0.778899
0.166085 0.192628 0.847199
0.165661 0.192204 0.915319
0.165238 0.191781 0.983275
0.164816 0.191359 1.000000
0.167078 0.265153 0.000000
0.166950 0.265026 0.000000
0.166485 0.264560 0.074368
0.166033 0.264108 0.146998
0.165587 0.263663 0.218565
0.165146 0.263222 0.289418
0.164709 0.262784 0.359734
0.164274 0.262350 0.429619
0.163841 0.261917 0.499146
0.163410 0.261486 0.568364
0.162981 0.261057 0.637313
0.162554 0.260629 0.706022
0.162127 0.260203 0.774517
0.161702 0.259778 0.842816
0.161279 0.259354 0.910937
0.160856 0.258931 0.978892
0.160434 0.258509 1.000000
0.162732 0.331745 0.000000
0.162604 0.331618 0.000000
0.162139 0.331152 0.070022
0.161687 0.330700 0.142652
0.161241 0.330255 0.214219
0.160800 0.329814 0.285072
0.160363 0.329376 0.355388
0.159928 0.328941 0.425274
0.159495 0.328509 0.494800
0.159065 0.328078 0.564018
0.158635 0.327649 0.632967
0.158208 0.327221 0.701676
0.157782 0.326795 0.770171
0.157357 0.326370 0.838470
0.156933 0.325946 0.906591
0.156510 0.325523 0.974546
0.156088 0.325101 1.000000
0.158415 0.397898 0.000000
0.158287 0.397770 0.000000
0.157821 0.397305 0.065705
0.157369 0.396853 0.138335
0.156924 0.396408 0.209902
0.156483 0.395967 0.280755
0.156046 0.395529 0.351071
0.155611 0.395094 0.420956
0.155178 0.394662 0.490482
0.154747 0.394231 0.559701
0.154318 0.393802 0.628649
0.153891 0.393374 0.697359
0.153464 0.392948 0.765854
0.153039 0.392523 0.834153
0.152615 0.392099 0.902274
0.152193 0.391676 0.970229
0.151771 0.391254 1.000000
0.154121 0.463689 0.000000
0.153993 0.463562 0.000000
0.153528 0.463096 0.061411
0.153076 0.462644 0.134041
0.152630 0.462199 0.205608
0.152190 0.461758 0.276461
0.151752 0.461320 0.346777
0.151317 0.460886 0.416663
0.150884 0.460453 0.486189
0.150454 0.460022 0.555407
0.150025 0.459593 0.624356
0.149597 0.459165 0.693066
0.149171 0.458739 0.761560
0.148746 0.458314 0.829860
0.148322 0.457890 0.897980
0.147899 0.457467 0.965936
0.147477 0.457045 1.000000
0.149847 0.529174 0.000000
0.149720 0.529046 0.000000
0.149254 0.528581 0.057138
0.148802 0.528129 0.129767
0.148357 0.527683 0.201334
0.147916 0.527242 0.272188
0.147478 0.526805 0.342504
0.147043 0.526370 0.412389
0.146611 0.525937 0.481915
0.146180 0.525507 0.551133
0.145751 0.525077 0.620082
0.145323 0.524650 0.688792
0.144897 0.524224 0.757287
0.144472 0.523799 0.825586
0.144048 0.523375 0.893706
0.143625 0.522952 0.961662
0.143203 0.522530 1.000000
0.145591 0.594392 0.000000
0.145463 0.594264 0.000000
0.144998 0.593798 0.052882
0.144546 0.593346 0.125511
0.144101 0.592901 0.197078
0.143660 0.592460 0.267931
0.143222 0.592023 0.338247
0.142787 0.591588 0.408133
0.142355 0.591155 0.477659
0.141924 0.590724 0.546877
0.141495 0.590295 0.615826
0.141067 0.589868 0.684536
0.140641 0.589441 0.753030
0.140216 0.589016 0.821330
0.139792 0.588592 0.889450
0.139369 0.588169 0.957406
0.138947 0.587748 1.000000
0.141350 0.659374 0.000000
0.141223 0.659246 0.000000
0.140757 0.658780 0.048641
0.140305 0.658328 0.121270
0.139860 0.657883 0.192837
0.139419 0.657442 0.263691
0.138981 0.657005 0.334007
0.138546 0.656570 0.403892
0.138114 0.656137 0.473418
0.137683 0.655706 0.542636
0.137254 0.655277 0.611585
0.136826 0.654850 0.680295
0.136400 0.654423 0.748790
0.135975 0.653998 0.817089
0.135551 0.653574 0.885209
0.135128 0.653151 0.953165
0.134706 0.652730 1.000000
0.137123 0.724145 0.000000
0.136995 0.724017 0.000000
0.136530 0.723551 0.044414
0.136078 0.723100 0.117043
0.135633 0.722654 0.188610
0.135192 0.722213 0.259464
0.134754 0.721776 0.329780
0.134319 0.721341 0.399665
0.133887 0.720908 0.469191
0.133456 0.720477 0.538409
0.133027 0.720048 0.607358
0.132599 0.719621 0.676068
0.132173 0.719194 0.744562
0.131748 0.718769 0.812862
0.131324 0.718345 0.880982
0.130901 0.717923 0.948938
0.130479 0.717501 1.000000
0.132909 0.788725 0.000000
0.132781 0.788597 0.000000
0.132315 0.788132 0.040199
0.131863 0.787680 0.112829
0.131418 0.787234 0.184396
0.130977 0.786793 0.255249
0.130540 0.786356 0.325565
0.130105 0.785921 0.395450
0.129672 0.785488 0.464976
0.129241 0.785057 0.534195
0.128812 0.784628 0.603143
0.128385 0.784201 0.671853
0.127958 0.783774 0.740348
0.127533 0.783349 0.808647
0.127109 0.782926 0.876768
0.126687 0.782503 0.944723
0.126265 0.782081 1.000000
0.128705 0.853130 0.000000
0.128578 0.853003 0.000000
0.128112 0.852537 0.035996
0.127660 0.852085 0.108625
0.127215 0.851640 0.180192
0.126774 0.851199 0.251046
0.126336 0.850761 0.321362
0.125901 0.850327 0.391247
0.125469 0.849894 0.460773
0.125038 0.849463 0.529991
0.124609 0.849034 0.598940
0.124181 0.848606 0.667650
0.123755 0.848180 0.736145
0.123330 0.847755 0.804444
0.122906 0.847331 0.872564
0.122483 0.846908 0.940520
0.122061 0.846486 1.000000
0.124513 0.917376 0.000000
0.124385 0.917248 0.000000
0.123919 0.916783 0.031803
0.123467 0.916331 0.104433
0.123022 0.915885 0.176000
0.122581 0.915444 0.246853
0.122144 0.915007 0.317169
0.121709 0.914572 0.387054
0.121276 0.914139 0.456580
0.120845 0.913708 0.525799
0.120416 0.913279 0.594747
0.119989 0.912852 0.663457
0.119562 0.912426 0.731952
0.119137 0.912001 0.800251
0.118713 0.911577 0.868372
0.118291 0.911154 0.936327
0.117869 0.910732 1.000000
0.120330 0.981473 0.000000
0.120202 0.981345 0.000000
0.119736 0.980879 0.027620
0.119284 0.980428 0.100249
0.118839 0.979982 0.171816
0.118398 0.979541 0.242670
0.117961 0.979104 0.312986
0.117526 0.978669 0.382871
0.117093 0.978236 0.452397
0.116662 0.977805 0.521616
0.116233 0.977376 0.590564
0.115806 0.976949 0.659274
0.115379 0.976522 0.727769
0.114954 0.976097 0.796068
0.114530 0.975673 0.864189
0.114107 0.975251 0.932144
0.113686 0.974829 0.999947
0.117603 1.000000 0.000000
0.117475 1.000000 0.000000
0.117009 1.000000 0.024893
0.116557 1.000000 0.097523
0.116112 1.000000 0.169090
0.115671 1.000000 0.239943
0.115234 1.000000 0.310259
0.114799 1.000000 0.380144
0.114366 1.000000 0.449670
0.113935 1.000000 0.518889
0.113506 1.000000 0.587838
0.113079 1.000000 0.656547
0.112652 1.000000 0.725042
0.112227 1.000000 0.793341
0.111803 1.000000 0.861462
0.111381 1.000000 0.929417
0.110959 1.000000 0.997220
0.255098 0.000000 0.000000
0.254970 0.000000 0.015793
0.254505 0.000000 0.090588
0.254053 0.000000 0.163218
0.253607 0.000000 0.234785
0.253166 0.000000 0.305638
0.252729 0.000000 0.375954
0.252294 0.000000 0.445840
0.251861 0.000000 0.515366
0.251430 0.000000 0.584584
0.251001 0.000000 0.653533
0.250574 0.000000 0.722243
0.250147 0.000000 0.790737
0.249722 0.000000 0.859037
0.249298 0.000000 0.927157
0.248876 0.000000 0.995113
0.248454 0.000000 1.000000
0.250897 0.059635 0.000000
