skills/creativeops-producer-ios/assets/grade/luts/ad_warm_v15.cube
TITLE "ad_warm_v15"
LUT_3D_SIZE 9
DOMAIN_MIN 0.0 0.0 0.0
DOMAIN_MAX 1.0 1.0 1.0
0.040099 0.000000 0.000000
0.039506 0.000000 0.094576
0.038608 0.000000 0.238773
0.037730 0.000000 0.379942
0.036862 0.000000 0.519354
0.036002 0.000000 0.657521
0.035149 0.000000 0.794725
0.034300 0.000000 0.931145
0.033455 0.000000 1.000000
0.031386 0.132767 0.000000
0.030792 0.132174 0.085863
0.029895 0.131276 0.230060
0.029017 0.130398 0.371229
0.028149 0.129530 0.510641
0.027289 0.128670 0.648808
0.026435 0.127817 0.786012
0.025586 0.126968 0.922432
0.024742 0.126123 1.000000
0.022571 0.267834 0.000000
0.021978 0.267241 0.077049
0.021080 0.266343 0.221245
0.020202 0.265465 0.362415
0.019334 0.264597 0.501826
0.018475 0.263737 0.639993
0.017621 0.262884 0.777197
0.016772 0.262035 0.913617
0.015927 0.261190 1.000000
0.013908 0.400579 0.000000
0.013315 0.399985 0.068385
0.012417 0.399088 0.212582
0.011539 0.398210 0.353751
0.010671 0.397342 0.493163
0.009811 0.396482 0.631330
0.008958 0.395628 0.768534
0.008109 0.394779 0.904954
0.007264 0.393935 1.000000
0.005341 0.531854 0.000000
0.004747 0.531261 0.059818
0.003850 0.530364 0.204015
0.002972 0.529485 0.345184
0.002104 0.528618 0.484596
0.001244 0.527758 0.622763
0.000390 0.526904 0.759967
0.000000 0.526055 0.896387
0.000000 0.525210 1.000000
0.000000 0.662054 0.000000
0.000000 0.661461 0.051321
0.000000 0.660564 0.195518
0.000000 0.659685 0.336687
0.000000 0.658817 0.476098
0.000000 0.657958 0.614266
0.000000 0.657104 0.751470
0.000000 0.656255 0.887890
0.000000 0.655410 1.000000
0.000000 0.791405 0.000000
0.000000 0.790812 0.042879
0.000000 0.789915 0.187076
0.000000 0.789036 0.328245
0.000000 0.788169 0.467657
0.000000 0.787309 0.605824
0.000000 0.786455 0.743028
0.000000 0.785606 0.879448
0.000000 0.784761 1.000000
0.000000 0.920056 0.000000
0.000000 0.919463 0.034484
0.000000 0.918566 0.178680
0.000000 0.917687 0.319849
0.000000 0.916820 0.459261
0.000000 0.915960 0.597428
0.000000 0.915106 0.734632
0.000000 0.914257 0.871052
0.000000 0.913412 1.000000
0.000000 1.000000 0.000000
0.000000 1.000000 0.027574
0.000000 1.000000 0.171770
0.000000 1.000000 0.312939
0.000000 1.000000 0.452351
0.000000 1.000000 0.590518
0.000000 1.000000 0.727722
0.000000 1.000000 0.864142
0.000000 1.000000 0.999900
0.184606 0.000000 0.000000
0.184012 0.000000 0.091896
0.183115 0.000000 0.236092
0.182237 0.000000 0.377262
0.181369 0.000000 0.516673
0.180509 0.000000 0.654840
0.179655 0.000000 0.792045
0.178806 0.000000 0.928465
0.177962 0.000000 1.000000
0.175892 0.130086 0.000000
0.175299 0.129493 0.083183
0.174402 0.128596 0.227379
0.173523 0.127717 0.368549
0.172656 0.126850 0.507960
0.171796 0.125990 0.646127
0.170942 0.125136 0.783332
0.170093 0.124287 0.919752
0.169248 0.123442 1.000000
0.167078 0.265153 0.000000
0.166485 0.264560 0.074368
0.165587 0.263663 0.218565
0.164709 0.262784 0.359734
0.163841 0.261917 0.499146
0.162981 0.261057 0.637313
0.162127 0.260203 0.774517
0.161279 0.259354 0.910937
0.160434 0.258509 1.000000
0.158415 0.397898 0.000000
0.157821 0.397305 0.065705
0.156924 0.396408 0.209902
0.156046 0.395529 0.351071
0.155178 0.394662 0.490482
0.154318 0.393802 0.628649
0.153464 0.392948 0.765854
0.152615 0.392099 0.902274
0.151771 0.391254 1.000000
0.149847 0.529174 0.000000
0.149254 0.528581 0.057138
0.148357 0.527683 0.201334
0.147478 0.526805 0.342504
0.146611 0.525937 0.481915
0.145751 0.525077 0.620082
0.144897 0.524224 0.757287
0.144048 0.523375 0.893706
0.143203 0.522530 1.000000
0.141350 0.659374 0.000000
0.140757 0.658780 0.048641
0.139860 0.657883 0.192837
0.138981 0.657005 0.334007
0.138114 0.656137 0.473418
0.137254 0.655277 0.611585
0.136400 0.654423 0.748790
0.135551 0.653574 0.885209
0.134706 0.652730 1.000000
0.132909 0.788725 0.000000
0.132315 0.788132 0.040199
0.131418 0.787234 0.184396
0.130540 0.786356 0.325565
0.129672 0.785488 0.464976
0.128812 0.784628 0.603143
0.127958 0.783774 0.740348
0.127109 0.782926 0.876768
0.126265 0.782081 1.000000
0.124513 0.917376 0.000000
0.123919 0.916783 0.031803
0.123022 0.915885 0.176000
0.122144 0.915007 0.317169
0.121276 0.914139 0.456580
0.120416 0.913279 0.594747
0.119562 0.912426 0.731952
0.118713 0.911577 0.868372
0.117869 0.910732 1.000000
0.117603 1.000000 0.000000
0.117009 1.000000 0.024893
0.116112 1.000000 0.169090
0.115234 1.000000 0.310259
0.114366 1.000000 0.449670
0.113506 1.000000 0.587838
0.112652 1.000000 0.725042
0.111803 1.000000 0.861462
0.110959 1.000000 0.997220
0.324941 0.000000 0.000000
0.324348 0.000000 0.089293
0.323450 0.000000 0.233489
0.322572 0.000000 0.374659
0.321704 0.000000 0.514070
0.320844 0.000000 0.652237
0.319991 0.000000 0.789442
0.319142 0.000000 0.925862
0.318297 0.000000 1.000000
0.316228 0.127483 0.000000
0.315635 0.126890 0.080580
0.314737 0.125993 0.224776
0.313859 0.125114 0.365946
0.312991 0.124247 0.505357
0.312131 0.123387 0.643524
0.311277 0.122533 0.780729
0.310429 0.121684 0.917148
0.309584 0.120839 1.000000
0.307413 0.262550 0.000000
0.306820 0.261957 0.071765
0.305923 0.261060 0.215962
0.305044 0.260181 0.357131
0.304176 0.259314 0.496542
0.303317 0.258454 0.634710
0.302463 0.257600 0.771914
0.301614 0.256751 0.908334
0.300769 0.255906 1.000000
0.298750 0.395295 0.000000
0.298157 0.394702 0.063102
0.297259 0.393805 0.207298
0.296381 0.392926 0.348468
0.295513 0.392058 0.487879
0.294653 0.391199 0.626046
0.293800 0.390345 0.763251
0.292951 0.389496 0.899671
0.292106 0.388651 1.000000
0.290183 0.526571 0.000000
0.289589 0.525978 0.054535
0.288692 0.525080 0.198731
0.287814 0.524202 0.339901
0.286946 0.523334 0.479312
0.286086 0.522474 0.617479
0.285232 0.521621 0.754684
0.284383 0.520772 0.891103
0.283539 0.519927 1.000000
0.281686 0.656771 0.000000
0.281092 0.656177 0.046038
0.280195 0.655280 0.190234
0.279317 0.654402 0.331404
0.278449 0.653534 0.470815
0.277589 0.652674 0.608982
0.276735 0.651820 0.746186
0.275886 0.650971 0.882606
0.275042 0.650126 1.000000
0.273244 0.786122 0.000000
0.272651 0.785529 0.037596
0.271753 0.784631 0.181792
0.270875 0.783753 0.322962
0.270007 0.782885 0.462373
0.269147 0.782025 0.600540
0.268294 0.781171 0.737745
0.267445 0.780322 0.874165
0.266600 0.779478 1.000000
0.264848 0.914773 0.000000
0.264255 0.914180 0.029200
0.263357 0.913282 0.173396
0.262479 0.912404 0.314566
0.261611 0.911536 0.453977
0.260751 0.910676 0.592144
0.259898 0.909822 0.729349
0.259049 0.908974 0.865769
0.258204 0.908129 1.000000
0.257938 1.000000 0.000000
0.257345 1.000000 0.022290
0.256447 1.000000 0.166486
0.255569 1.000000 0.307656
0.254701 1.000000 0.447067
0.253841 1.000000 0.585234
0.252988 1.000000 0.722439
0.252139 1.000000 0.858859
0.251294 1.000000 0.994617
0.463226 0.000000 0.000000
0.462633 0.000000 0.086728
0.461735 0.000000 0.230924
0.460857 0.000000 0.372094
0.459989 0.000000 0.511505
0.459129 0.000000 0.649672
0.458276 0.000000 0.786877
0.457427 0.000000 0.923297
0.456582 0.000000 1.000000
0.454513 0.124918 0.000000
0.453920 0.124325 0.078015
0.453022 0.123428 0.222211
0.452144 0.122549 0.363381
0.451276 0.121682 0.502792
0.450416 0.120822 0.640959
0.449563 0.119968 0.778164
0.448714 0.119119 0.914583
0.447869 0.118274 1.000000
0.445698 0.259985 0.000000
0.445105 0.259392 0.069200
0.444208 0.258495 0.213397
0.443329 0.257616 0.354566
0.442461 0.256749 0.493977
0.441602 0.255889 0.632144
0.440748 0.255035 0.769349
0.439899 0.254186 0.905769
0.439054 0.253341 1.000000
0.437035 0.392730 0.000000
0.436442 0.392137 0.060537
0.435544 0.391239 0.204733
0.434666 0.390361 0.345903
0.433798 0.389493 0.485314
0.432939 0.388634 0.623481
0.432085 0.387780 0.760686
0.431236 0.386931 0.897106
0.430391 0.386086 1.000000
0.428468 0.524006 0.000000
0.427874 0.523413 0.051970
0.426977 0.522515 0.196166
0.426099 0.521637 0.337336
0.425231 0.520769 0.476747
0.424371 0.519909 0.614914
0.423517 0.519055 0.752118
0.422668 0.518207 0.888538
0.421824 0.517362 1.000000
0.419971 0.654206 0.000000
0.419377 0.653612 0.043473
0.418480 0.652715 0.187669
0.417602 0.651836 0.328839
0.416734 0.650969 0.468250
0.415874 0.650109 0.606417
0.415020 0.649255 0.743621
0.414171 0.648406 0.880041
0.413327 0.647561 1.000000
0.411529 0.783557 0.000000
0.410936 0.782963 0.035031
0.410038 0.782066 0.179227
0.409160 0.781188 0.320397
0.408292 0.780320 0.459808
0.407433 0.779460 0.597975
0.406579 0.778606 0.735180
0.405730 0.777757 0.871600
0.404885 0.776913 1.000000
0.403133 0.912208 0.000000
0.402540 0.911615 0.026635
0.401642 0.910717 0.170831
0.400764 0.909839 0.312001
0.399896 0.908971 0.451412
0.399037 0.908111 0.589579
0.398183 0.907257 0.726784
0.397334 0.906408 0.863204
0.396489 0.905564 0.998962
0.396223 1.000000 0.000000
0.395630 1.000000 0.019725
0.394732 1.000000 0.163921
0.393854 1.000000 0.305091
0.392986 1.000000 0.444502
0.392127 1.000000 0.582669
0.391273 1.000000 0.719874
0.390424 1.000000 0.856294
0.389579 1.000000 0.992052
0.600134 0.000000 0.000000
0.599540 0.000000 0.084188
0.598643 0.000000 0.228385
0.597765 0.000000 0.369554
0.596897 0.000000 0.508966
0.596037 0.000000 0.647133
0.595183 0.000000 0.784337
0.594334 0.000000 0.920757
0.593489 0.000000 1.000000
0.591420 0.122379 0.000000
0.590827 0.121786 0.075475
0.589930 0.120888 0.219672
0.589051 0.120010 0.360841
0.588184 0.119142 0.500253
0.587324 0.118282 0.638420
0.586470 0.117429 0.775624
0.585621 0.116580 0.912044
0.584776 0.115735 1.000000
0.582606 0.257446 0.000000
0.582013 0.256853 0.066661
0.581115 0.255955 0.210857
0.580237 0.255077 0.352027
0.579369 0.254209 0.491438
0.578509 0.253349 0.629605
0.577655 0.252496 0.766809
0.576806 0.251647 0.903229
0.575962 0.250802 1.000000
0.573943 0.390191 0.000000
0.573349 0.389597 0.057997
0.572452 0.388700 0.202194
0.571574 0.387821 0.343363
0.570706 0.386954 0.482775
0.569846 0.386094 0.620942
0.568992 0.385240 0.758146
0.568143 0.384391 0.894566
0.567299 0.383546 1.000000
0.565375 0.521466 0.000000
0.564782 0.520873 0.049430
0.563885 0.519976 0.193627
0.563006 0.519097 0.334796
0.562139 0.518230 0.474207
0.561279 0.517370 0.612375
0.560425 0.516516 0.749579
0.559576 0.515667 0.885999
0.558731 0.514822 1.000000
0.556878 0.651666 0.000000
0.556285 0.651073 0.040933
0.555388 0.650175 0.185130
0.554509 0.649297 0.326299
0.553642 0.648429 0.465710
0.552782 0.647570 0.603878
0.551928 0.646716 0.741082
0.551079 0.645867 0.877502
0.550234 0.645022 1.000000
0.548437 0.781017 0.000000
0.547843 0.780424 0.032491
0.546946 0.779527 0.176688
0.546068 0.778648 0.317857
0.545200 0.777781 0.457269
0.544340 0.776921 0.595436
0.543486 0.776067 0.732640
0.542637 0.775218 0.869060
0.541793 0.774373 1.000000
0.540041 0.909668 0.000000
0.539447 0.909075 0.024095
0.538550 0.908178 0.168292
0.537672 0.907299 0.309461
0.536804 0.906432 0.448873
0.535944 0.905572 0.587040
0.535090 0.904718 0.724244
0.534241 0.903869 0.860664
0.533397 0.903024 0.996422
0.533131 1.000000 0.000000
0.532537 1.000000 0.017185
0.531640 1.000000 0.161382
0.530762 1.000000 0.302551
0.529894 1.000000 0.441963
0.529034 1.000000 0.580130
0.528180 1.000000 0.717334
0.527331 1.000000 0.853754
0.526487 1.000000 0.989512
0.736004 0.000000 0.000000
0.735410 0.000000 0.081668
0.734513 0.000000 0.225865
0.733634 0.000000 0.367034
0.732767 0.000000 0.506445
0.731907 0.000000 0.644613
0.731053 0.000000 0.781817
0.730204 0.000000 0.918237
0.729359 0.000000 1.000000
0.727290 0.119859 0.000000
0.726697 0.119265 0.072955
0.725800 0.118368 0.217151
0.724921 0.117489 0.358321
0.724054 0.116622 0.497732
0.723194 0.115762 0.635899
0.722340 0.114908 0.773104
0.721491 0.114059 0.909524
0.720646 0.113214 1.000000
0.718476 0.254926 0.000000
0.717883 0.254332 0.064140
0.716985 0.253435 0.208337
0.716107 0.252557 0.349506
0.715239 0.251689 0.488918
0.714379 0.250829 0.627085
0.713525 0.249975 0.764289
0.712676 0.249126 0.900709
0.711832 0.248282 1.000000
0.709813 0.387670 0.000000
0.709219 0.387077 0.055477
0.708322 0.386180 0.199674
0.707444 0.385301 0.340843
0.706576 0.384434 0.480255
0.705716 0.383574 0.618422
0.704862 0.382720 0.755626
0.704013 0.381871 0.892046
0.703169 0.381026 1.000000
0.701245 0.518946 0.000000
0.700652 0.518353 0.046910
0.699755 0.517455 0.191106
0.698876 0.516577 0.332276
0.698009 0.515709 0.471687
0.697149 0.514850 0.609854
0.696295 0.513996 0.747059
0.695446 0.513147 0.883479
0.694601 0.512302 1.000000
0.692748 0.649146 0.000000
0.692155 0.648553 0.038413
0.691258 0.647655 0.182609
0.690379 0.646777 0.323779
0.689512 0.645909 0.463190
0.688652 0.645049 0.601357
0.687798 0.644195 0.738562
0.686949 0.643347 0.874981
0.686104 0.642502 1.000000
0.684307 0.778497 0.000000
0.683713 0.777904 0.029971
0.682816 0.777006 0.174168
0.681938 0.776128 0.315337
0.681070 0.775260 0.454749
0.680210 0.774400 0.592916
0.679356 0.773547 0.730120
0.678507 0.772698 0.866540
0.677662 0.771853 1.000000
0.675911 0.907148 0.000000
0.675317 0.906555 0.021575
0.674420 0.905657 0.165772
0.673542 0.904779 0.306941
0.672674 0.903911 0.446353
0.671814 0.903052 0.584520
0.670960 0.902198 0.721724
0.670111 0.901349 0.858144
0.669267 0.900504 0.993902
0.669001 1.000000 0.000000
0.668407 1.000000 0.014665
0.667510 1.000000 0.158862
0.666632 1.000000 0.300031
0.665764 1.000000 0.439443
0.664904 1.000000 0.577610
0.664050 1.000000 0.714814
0.663201 1.000000 0.851234
0.662357 1.000000 0.986992
0.871042 0.000000 0.000000
0.870448 0.000000 0.079163
0.869551 0.000000 0.223360
0.868673 0.000000 0.364529
0.867805 0.000000 0.503941
0.866945 0.000000 0.642108
0.866091 0.000000 0.779312
0.865242 0.000000 0.915732
0.864398 0.000000 1.000000
0.862329 0.117354 0.000000
0.861735 0.116761 0.070450
0.860838 0.115863 0.214647
0.859959 0.114985 0.355816
0.859092 0.114117 0.495228
0.858232 0.113257 0.633395
0.857378 0.112403 0.770599
0.856529 0.111554 0.907019
0.855684 0.110710 1.000000
0.853514 0.252421 0.000000
0.852921 0.251828 0.061636
0.852023 0.250930 0.205832
0.851145 0.250052 0.347001
0.850277 0.249184 0.486413
0.849417 0.248324 0.624580
0.848564 0.247470 0.761784
0.847715 0.246622 0.898204
0.846870 0.245777 1.000000
0.844851 0.385165 0.000000
0.844257 0.384572 0.052972
0.843360 0.383675 0.197169
0.842482 0.382796 0.338338
0.841614 0.381929 0.477750
0.840754 0.381069 0.615917
0.839900 0.380215 0.753121
0.839051 0.379366 0.889541
0.838207 0.378521 1.000000
0.836283 0.516441 0.000000
0.835690 0.515848 0.044405
0.834793 0.514951 0.188602
0.833914 0.514072 0.329771
0.833047 0.513205 0.469182
0.832187 0.512345 0.607350
0.831333 0.511491 0.744554
0.830484 0.510642 0.880974
0.829639 0.509797 1.000000
0.827786 0.646641 0.000000
0.827193 0.646048 0.035908
0.826296 0.645150 0.180105
0.825417 0.644272 0.321274
0.824550 0.643404 0.460685
0.823690 0.642545 0.598852
0.822836 0.641691 0.736057
0.821987 0.640842 0.872477
0.821142 0.639997 1.000000
0.819345 0.775992 0.000000
0.818751 0.775399 0.027466
0.817854 0.774502 0.171663
0.816976 0.773623 0.312832
0.816108 0.772755 0.452244
0.815248 0.771896 0.590411
0.814394 0.771042 0.727615
0.813545 0.770193 0.864035
0.812701 0.769348 0.999793
0.810949 0.904643 0.000000
0.810356 0.904050 0.019070
0.809458 0.903153 0.163267
0.808580 0.902274 0.304436
0.807712 0.901407 0.443848
0.806852 0.900547 0.582015
0.805998 0.899693 0.719219
0.805149 0.898844 0.855639
0.804305 0.897999 0.991397
0.804039 1.000000 0.000000
0.803446 1.000000 0.012160
0.802548 1.000000 0.156357
0.801670 1.000000 0.297526
0.800802 1.000000 0.436938
0.799942 1.000000 0.575105
0.799088 1.000000 0.712309
0.798239 1.000000 0.848729
0.797395 1.000000 0.984487
1.000000 0.000000 0.000000
1.000000 0.000000 0.076671
1.000000 0.000000 0.220868
1.000000 0.000000 0.362037
1.000000 0.000000 0.501449
1.000000 0.000000 0.639616
1.000000 0.000000 0.776820
0.999587 0.000000 0.913240
0.998742 0.000000 1.000000
0.996673 0.114862 0.000000
0.996080 0.114269 0.067958
0.995182 0.113371 0.212155
0.994304 0.112493 0.353324
0.993436 0.111625 0.492736
0.992576 0.110765 0.630903
0.991723 0.109911 0.768107
0.990874 0.109063 0.904527
0.990029 0.108218 1.000000
0.987858 0.249929 0.000000
0.987265 0.249336 0.059144
0.986368 0.248438 0.203340
0.985489 0.247560 0.344510
0.984622 0.246692 0.483921
0.983762 0.245832 0.622088
0.982908 0.244979 0.759292
0.982059 0.244130 0.895712
0.981214 0.243285 1.000000
0.979195 0.382673 0.000000
0.978602 0.382080 0.050480
0.977704 0.381183 0.194677
0.976826 0.380304 0.335846
0.975958 0.379437 0.475258
0.975099 0.378577 0.613425
0.974245 0.377723 0.750629
0.973396 0.376874 0.887049
0.972551 0.376029 1.000000
0.970628 0.513949 0.000000
0.970035 0.513356 0.041913
0.969137 0.512459 0.186110
0.968259 0.511580 0.327279
0.967391 0.510713 0.466690
0.966531 0.509853 0.604858
0.965677 0.508999 0.742062
0.964829 0.508150 0.878482
0.963984 0.507305 1.000000
0.962131 0.644149 0.000000
0.961538 0.643556 0.033416
0.960640 0.642658 0.177613
0.959762 0.641780 0.318782
0.958894 0.640912 0.458193
0.958034 0.640053 0.596361
0.957180 0.639199 0.733565
0.956331 0.638350 0.869985
0.955487 0.637505 1.000000
0.953689 0.773500 0.000000
0.953096 0.772907 0.024974
0.952198 0.772010 0.169171
0.951320 0.771131 0.310340
0.950452 0.770264 0.449752
0.949593 0.769404 0.587919
0.948739 0.768550 0.725123
0.947890 0.767701 0.861543
0.947045 0.766856 0.997301
0.945293 0.902151 0.000000
0.944700 0.901558 0.016578
0.943803 0.900661 0.160775
0.942924 0.899782 0.301944
0.942056 0.898915 0.441356
0.941197 0.898055 0.579523
0.940343 0.897201 0.716727
0.939494 0.896352 0.853147
0.938649 0.895507 0.988905
0.938383 1.000000 0.000000
0.937790 1.000000 0.009668
0.936893 1.000000 0.153865
0.936014 1.000000 0.295034
0.935146 1.000000 0.434446
0.934287 1.000000 0.572613
0.933433 1.000000 0.709817
0.932584 1.000000 0.846237
0.931739 1.000000 0.981995
1.000000 0.000000 0.000000
1.000000 0.000000 0.075403
1.000000 0.000000 0.219599
1.000000 0.000000 0.360769
1.000000 0.000000 0.500180
1.000000 0.000000 0.638347
1.000000 0.000000 0.775552
1.000000 0.000000 0.911972
1.000000 0.000000 1.000000
1.000000 0.113593 0.000000
1.000000 0.113000 0.066690
1.000000 0.112103 0.210886
1.000000 0.111224 0.352056
1.000000 0.110357 0.491467
1.000000 0.109497 0.629634
1.000000 0.108643 0.766839
1.000000 0.107794 0.903259
1.000000 0.106949 1.000000
1.000000 0.248660 0.000000
1.000000 0.248067 0.057875
1.000000 0.247170 0.202072
1.000000 0.246291 0.343241
1.000000 0.245424 0.482652
1.000000 0.244564 0.620820
1.000000 0.243710 0.758024
1.000000 0.242861 0.894444
1.000000 0.242016 1.000000
1.000000 0.381405 0.000000
1.000000 0.380812 0.049212
1.000000 0.379915 0.193408
1.000000 0.379036 0.334578
1.000000 0.378168 0.473989
1.000000 0.377309 0.612156
1.000000 0.376455 0.749361
1.000000 0.375606 0.885781
1.000000 0.374761 1.000000
1.000000 0.512681 0.000000
1.000000 0.512088 0.040645
1.000000 0.511190 0.184841
1.000000 0.510312 0.326011
1.000000 0.509444 0.465422
1.000000 0.508584 0.603589
1.000000 0.507731 0.740794
1.000000 0.506882 0.877213
1.000000 0.506037 1.000000
1.000000 0.642881 0.000000
1.000000 0.642287 0.032148
1.000000 0.641390 0.176344
1.000000 0.640512 0.317514
1.000000 0.639644 0.456925
1.000000 0.638784 0.595092
1.000000 0.637930 0.732297
1.000000 0.637081 0.868716
1.000000 0.636237 1.000000
1.000000 0.772232 0.000000
1.000000 0.771639 0.023706
1.000000 0.770741 0.167902
1.000000 0.769863 0.309072
1.000000 0.768995 0.448483
1.000000 0.768135 0.586650
1.000000 0.767281 0.723855
1.000000 0.766433 0.860275
1.000000 0.765588 0.996033
1.000000 0.900883 0.000000
1.000000 0.900290 0.015310
1.000000 0.899392 0.159507
1.000000 0.898514 0.300676
1.000000 0.897646 0.440087
1.000000 0.896786 0.578254
1.000000 0.895933 0.715459
1.000000 0.895084 0.851879
1.000000 0.894239 0.987637
1.000000 1.000000 0.000000
1.000000 1.000000 0.008400
1.000000 1.000000 0.152597
1.000000 1.000000 0.293766
1.000000 1.000000 0.433177
1.000000 1.000000 0.571344
1.000000 1.000000 0.708549
1.000000 1.000000 0.844969
1.000000 1.000000 0.980727
