skills/creativeops-producer-ios/assets/grade/luts/ad_warm_v19.cube
TITLE "ad_warm_v19"
LUT_3D_SIZE 17
DOMAIN_MIN 0.0 0.0 0.0
DOMAIN_MAX 1.0 1.0 1.0
0.050061 0.000000 0.000000
0.050000 0.000000 0.007018
0.049411 0.000000 0.085738
0.048847 0.000000 0.161094
0.048293 0.000000 0.235021
0.047747 0.000000 0.308019
0.047205 0.000000 0.380327
0.046668 0.000000 0.452089
0.046134 0.000000 0.523397
0.045603 0.000000 0.594319
0.045075 0.000000 0.664904
0.044548 0.000000 0.735191
0.044024 0.000000 0.805210
0.043502 0.000000 0.874987
0.042981 0.000000 0.944542
0.042462 0.000000 1.000000
0.041944 0.000000 1.000000
0.044949 0.063209 0.000000
0.044888 0.063148 0.001906
0.044299 0.062559 0.080627
0.043735 0.061995 0.155982
0.043181 0.061441 0.229909
0.042635 0.060895 0.302907
0.042093 0.060353 0.375215
0.041556 0.059816 0.446977
0.041022 0.059282 0.518285
0.040491 0.058751 0.589207
0.039963 0.058223 0.659792
0.039437 0.057696 0.730079
0.038912 0.057172 0.800098
0.038390 0.056650 0.869875
0.037869 0.056129 0.939431
0.037350 0.055610 1.000000
0.036832 0.055092 1.000000
0.039325 0.133989 0.000000
0.039264 0.133928 0.000000
0.038675 0.133339 0.075002
0.038110 0.132775 0.150358
0.037557 0.132221 0.224285
0.037010 0.131674 0.297283
0.036469 0.131133 0.369591
0.035932 0.130596 0.441353
0.035398 0.130062 0.512661
0.034867 0.129531 0.583583
0.034338 0.129002 0.654168
0.033812 0.128476 0.724455
0.033288 0.127952 0.794474
0.032765 0.127430 0.864251
0.032245 0.126909 0.933806
0.031725 0.126390 1.000000
0.031208 0.125872 1.000000
0.033822 0.203241 0.000000
0.033761 0.203180 0.000000
0.033172 0.202591 0.069499
0.032607 0.202027 0.144855
0.032054 0.201473 0.218782
0.031507 0.200927 0.291780
0.030966 0.200385 0.364088
0.030429 0.199848 0.435850
0.029895 0.199314 0.507158
0.029364 0.198783 0.578080
0.028835 0.198255 0.648665
0.028309 0.197728 0.718952
0.027785 0.197204 0.788971
0.027262 0.196682 0.858748
0.026742 0.196161 0.928303
0.026222 0.195642 0.997654
0.025705 0.195124 1.000000
0.028394 0.271549 0.000000
0.028333 0.271488 0.000000
0.027744 0.270899 0.064071
0.027179 0.270334 0.139427
0.026626 0.269781 0.213354
0.026079 0.269234 0.286352
0.025538 0.268693 0.358660
0.025001 0.268156 0.430422
0.024467 0.267622 0.501730
0.023936 0.267091 0.572652
0.023407 0.266562 0.643237
0.022881 0.266036 0.713524
0.022357 0.265512 0.783543
0.021835 0.264990 0.853320
0.021314 0.264469 0.922875
0.020795 0.263950 0.992226
0.020277 0.263432 1.000000
0.023020 0.339172 0.000000
0.022959 0.339111 0.000000
0.022370 0.338522 0.058698
0.021806 0.337958 0.134054
0.021252 0.337404 0.207980
0.020706 0.336858 0.280978
0.020164 0.336316 0.353287
0.019627 0.335779 0.425048
0.019093 0.335245 0.496356
0.018562 0.334714 0.567278
0.018034 0.334186 0.637863
0.017508 0.333659 0.708150
0.016983 0.333135 0.778169
0.016461 0.332613 0.847946
0.015940 0.332092 0.917502
0.015421 0.331573 0.986853
0.014903 0.331055 1.000000
0.017689 0.406259 0.000000
0.017629 0.406198 0.000000
0.017039 0.405609 0.053367
0.016475 0.405045 0.128723
0.015921 0.404491 0.202650
0.015375 0.403944 0.275647
0.014834 0.403403 0.347956
0.014296 0.402866 0.419717
0.013762 0.402332 0.491025
0.013231 0.401801 0.561947
0.012703 0.401272 0.632532
0.012177 0.400746 0.702819
0.011652 0.400222 0.772838
0.011130 0.399700 0.842615
0.010609 0.399179 0.912171
0.010090 0.398660 0.981522
0.009572 0.398142 1.000000
0.012394 0.472905 0.000000
0.012333 0.472844 0.000000
0.011743 0.472255 0.048071
0.011179 0.471691 0.123427
0.010626 0.471137 0.197354
0.010079 0.470591 0.270351
0.009538 0.470049 0.342660
0.009000 0.469512 0.414421
0.008466 0.468978 0.485730
0.007935 0.468447 0.556651
0.007407 0.467919 0.627236
0.006881 0.467392 0.697523
0.006357 0.466868 0.767543
0.005834 0.466346 0.837319
0.005313 0.465825 0.906875
0.004794 0.465306 0.976226
0.004276 0.464788 1.000000
0.007127 0.539178 0.000000
0.007066 0.539117 0.000000
0.006477 0.538527 0.042805
0.005913 0.537963 0.118160
0.005359 0.537410 0.192087
0.004813 0.536863 0.265085
0.004271 0.536322 0.337393
0.003734 0.535785 0.409155
0.003200 0.535251 0.480463
0.002669 0.534720 0.551385
0.002141 0.534191 0.621970
0.001615 0.533665 0.692257
0.001090 0.533141 0.762276
0.000568 0.532618 0.832053
0.000047 0.532098 0.901609
0.000000 0.531578 0.970960
0.000000 0.531061 1.000000
0.001887 0.605126 0.000000
0.001826 0.605065 0.000000
0.001237 0.604476 0.037564
0.000672 0.603912 0.112920
0.000119 0.603358 0.186847
0.000000 0.602812 0.259844
0.000000 0.602270 0.332153
0.000000 0.601733 0.403914
0.000000 0.601199 0.475223
0.000000 0.600668 0.546145
0.000000 0.600140 0.616730
0.000000 0.599614 0.687017
0.000000 0.599089 0.757036
0.000000 0.598567 0.826813
0.000000 0.598046 0.896368
0.000000 0.597527 0.965719
0.000000 0.597009 1.000000
0.000000 0.670789 0.000000
0.000000 0.670728 0.000000
0.000000 0.670138 0.032346
0.000000 0.669574 0.107702
0.000000 0.669021 0.181629
0.000000 0.668474 0.254627
0.000000 0.667933 0.326935
0.000000 0.667396 0.398697
0.000000 0.666862 0.470005
0.000000 0.666331 0.540927
0.000000 0.665802 0.611512
0.000000 0.665276 0.681799
0.000000 0.664752 0.751818
0.000000 0.664229 0.821595
0.000000 0.663709 0.891150
0.000000 0.663189 0.960502
0.000000 0.662672 1.000000
0.000000 0.736195 0.000000
0.000000 0.736135 0.000000
0.000000 0.735545 0.027149
0.000000 0.734981 0.102505
0.000000 0.734427 0.176432
0.000000 0.733881 0.249429
0.000000 0.733340 0.321738
0.000000 0.732802 0.393499
0.000000 0.732268 0.464808
0.000000 0.731737 0.535729
0.000000 0.731209 0.606315
0.000000 0.730683 0.676601
0.000000 0.730158 0.746621
0.000000 0.729636 0.816398
0.000000 0.729115 0.885953
0.000000 0.728596 0.955304
0.000000 0.728078 1.000000
0.000000 0.801371 0.000000
0.000000 0.801310 0.000000
0.000000 0.800720 0.021970
0.000000 0.800156 0.097326
0.000000 0.799603 0.171253
0.000000 0.799056 0.244250
0.000000 0.798515 0.316559
0.000000 0.797978 0.388320
0.000000 0.797444 0.459629
0.000000 0.796913 0.530550
0.000000 0.796384 0.601135
0.000000 0.795858 0.671422
0.000000 0.795334 0.741442
0.000000 0.794811 0.811219
0.000000 0.794291 0.880774
0.000000 0.793771 0.950125
0.000000 0.793254 1.000000
0.000000 0.866335 0.000000
0.000000 0.866274 0.000000
0.000000 0.865685 0.016808
0.000000 0.865121 0.092163
0.000000 0.864567 0.166090
0.000000 0.864021 0.239088
0.000000 0.863479 0.311397
0.000000 0.862942 0.383158
0.000000 0.862408 0.454466
0.000000 0.861877 0.525388
0.000000 0.861349 0.595973
0.000000 0.860822 0.666260
0.000000 0.860298 0.736279
0.000000 0.859776 0.806056
0.000000 0.859255 0.875612
0.000000 0.858736 0.944963
0.000000 0.858218 1.000000
0.000000 0.931105 0.000000
0.000000 0.931044 0.000000
0.000000 0.930455 0.011661
0.000000 0.929891 0.087017
0.000000 0.929337 0.160944
0.000000 0.928791 0.233941
0.000000 0.928249 0.306250
0.000000 0.927712 0.378011
0.000000 0.927178 0.449319
0.000000 0.926647 0.520241
0.000000 0.926119 0.590826
0.000000 0.925593 0.661113
0.000000 0.925068 0.731133
0.000000 0.924546 0.800909
0.000000 0.924025 0.870465
0.000000 0.923506 0.939816
0.000000 0.922988 1.000000
0.000000 0.995696 0.000000
0.000000 0.995635 0.000000
0.000000 0.995046 0.006528
0.000000 0.994482 0.081884
0.000000 0.993928 0.155811
0.000000 0.993382 0.228809
0.000000 0.992840 0.301117
0.000000 0.992303 0.372879
0.000000 0.991769 0.444187
0.000000 0.991238 0.515109
0.000000 0.990710 0.585694
0.000000 0.990183 0.655981
0.000000 0.989659 0.726000
0.000000 0.989137 0.795777
0.000000 0.988616 0.865332
0.000000 0.988097 0.934683
0.000000 0.987579 1.000000
0.000000 1.000000 0.000000
0.000000 1.000000 0.000000
0.000000 1.000000 0.003679
0.000000 1.000000 0.079034
0.000000 1.000000 0.152961
0.000000 1.000000 0.225959
0.000000 1.000000 0.298267
0.000000 1.000000 0.370029
0.000000 1.000000 0.441337
0.000000 1.000000 0.512259
0.000000 1.000000 0.582844
0.000000 1.000000 0.653131
0.000000 1.000000 0.723150
0.000000 1.000000 0.792927
0.000000 1.000000 0.862483
0.000000 1.000000 0.931834
0.000000 1.000000 1.000000
0.125371 0.000000 0.000000
0.125311 0.000000 0.005333
0.124721 0.000000 0.084054
0.124157 0.000000 0.159409
0.123604 0.000000 0.233336
0.123057 0.000000 0.306334
0.122516 0.000000 0.378642
0.121978 0.000000 0.450404
0.121444 0.000000 0.521712
0.120913 0.000000 0.592634
0.120385 0.000000 0.663219
0.119859 0.000000 0.733506
0.119335 0.000000 0.803525
0.118812 0.000000 0.873302
0.118291 0.000000 0.942857
0.117772 0.000000 1.000000
0.117254 0.000000 1.000000
0.120260 0.061524 0.000000
0.120199 0.061463 0.000221
0.119609 0.060874 0.078942
0.119045 0.060310 0.154298
0.118492 0.059756 0.228225
0.117945 0.059210 0.301222
0.117404 0.058668 0.373531
0.116867 0.058131 0.445292
0.116333 0.057597 0.516600
0.115802 0.057066 0.587522
0.115273 0.056538 0.658107
0.114747 0.056012 0.728394
0.114223 0.055487 0.798413
0.113700 0.054965 0.868190
0.113180 0.054444 0.937746
0.112660 0.053925 1.000000
0.112142 0.053407 1.000000
0.114635 0.132304 0.000000
0.114574 0.132243 0.000000
0.113985 0.131654 0.073317
0.113421 0.131090 0.148673
0.112867 0.130536 0.222600
0.112321 0.129990 0.295598
0.111779 0.129448 0.367906
0.111242 0.128911 0.439668
0.110708 0.128377 0.510976
0.110177 0.127846 0.581898
0.109649 0.127318 0.652483
0.109123 0.126791 0.722770
0.108598 0.126267 0.792789
0.108076 0.125745 0.862566
0.107555 0.125224 0.932121
0.107036 0.124705 1.000000
0.106518 0.124187 1.000000
0.109132 0.201556 0.000000
0.109071 0.201495 0.000000
0.108482 0.200906 0.067814
0.107918 0.200342 0.143170
0.107364 0.199788 0.217097
0.106818 0.199242 0.290095
0.106276 0.198700 0.362403
0.105739 0.198163 0.434165
0.105205 0.197629 0.505473
0.104674 0.197098 0.576395
0.104146 0.196570 0.646980
0.103620 0.196044 0.717267
0.103095 0.195519 0.787286
0.102573 0.194997 0.857063
0.102052 0.194476 0.926618
0.101533 0.193957 0.995970
0.101015 0.193439 1.000000
0.103704 0.269864 0.000000
0.103643 0.269803 0.000000
0.103054 0.269214 0.062386
0.102490 0.268650 0.137742
0.101936 0.268096 0.211669
0.101390 0.267550 0.284667
0.100848 0.267008 0.356975
0.100311 0.266471 0.428737
0.099777 0.265937 0.500045
0.099246 0.265406 0.570967
0.098718 0.264878 0.641552
0.098192 0.264351 0.711839
0.097667 0.263827 0.781858
0.097145 0.263305 0.851635
0.096624 0.262784 0.921190
0.096105 0.262265 0.990542
0.095587 0.261747 1.000000
0.098331 0.337487 0.000000
0.098270 0.337426 0.000000
0.097681 0.336837 0.057013
0.097116 0.336273 0.132369
0.096563 0.335719 0.206296
0.096016 0.335173 0.279293
0.095475 0.334631 0.351602
0.094938 0.334094 0.423363
0.094404 0.333560 0.494672
0.093873 0.333029 0.565593
0.093344 0.332501 0.636178
0.092818 0.331975 0.706465
0.092294 0.331450 0.776485
0.091771 0.330928 0.846261
0.091251 0.330407 0.915817
0.090731 0.329888 0.985168
0.090214 0.329370 1.000000
0.093000 0.404574 0.000000
0.092939 0.404513 0.000000
0.092350 0.403924 0.051682
0.091785 0.403360 0.127038
0.091232 0.402806 0.200965
0.090685 0.402260 0.273962
0.090144 0.401718 0.346271
0.089607 0.401181 0.418032
0.089073 0.400647 0.489341
0.088542 0.400116 0.560262
0.088013 0.399588 0.630847
0.087487 0.399061 0.701134
0.086963 0.398537 0.771154
0.086440 0.398015 0.840931
0.085920 0.397494 0.910486
0.085400 0.396975 0.979837
0.084883 0.396457 1.000000
0.087704 0.471220 0.000000
0.087643 0.471159 0.000000
0.087054 0.470570 0.046386
0.086489 0.470006 0.121742
0.085936 0.469452 0.195669
0.085389 0.468906 0.268666
0.084848 0.468364 0.340975
0.084311 0.467827 0.412736
0.083777 0.467293 0.484045
0.083246 0.466762 0.554966
0.082717 0.466234 0.625552
0.082191 0.465708 0.695838
0.081667 0.465183 0.765858
0.081145 0.464661 0.835635
0.080624 0.464140 0.905190
0.080105 0.463621 0.974541
0.079587 0.463103 1.000000
0.082438 0.537493 0.000000
0.082377 0.537432 0.000000
0.081787 0.536843 0.041120
0.081223 0.536278 0.116476
0.080670 0.535725 0.190403
0.080123 0.535178 0.263400
0.079582 0.534637 0.335709
0.079045 0.534100 0.407470
0.078511 0.533566 0.478778
0.077980 0.533035 0.549700
0.077451 0.532506 0.620285
0.076925 0.531980 0.690572
0.076401 0.531456 0.760591
0.075878 0.530934 0.830368
0.075358 0.530413 0.899924
0.074838 0.529894 0.969275
0.074321 0.529376 1.000000
0.077197 0.603441 0.000000
0.077136 0.603381 0.000000
0.076547 0.602791 0.035879
0.075983 0.602227 0.111235
0.075429 0.601673 0.185162
0.074883 0.601127 0.258160
0.074341 0.600586 0.330468
0.073804 0.600048 0.402230
0.073270 0.599514 0.473538
0.072739 0.598983 0.544460
0.072211 0.598455 0.615045
0.071685 0.597929 0.685332
0.071160 0.597404 0.755351
0.070638 0.596882 0.825128
0.070117 0.596361 0.894683
0.069598 0.595842 0.964035
0.069080 0.595324 1.000000
0.071980 0.669104 0.000000
0.071919 0.669043 0.000000
0.071329 0.668454 0.030662
0.070765 0.667889 0.106017
0.070212 0.667336 0.179944
0.069665 0.666789 0.252942
0.069124 0.666248 0.325250
0.068586 0.665711 0.397012
0.068052 0.665177 0.468320
0.067521 0.664646 0.539242
0.066993 0.664117 0.609827
0.066467 0.663591 0.680114
0.065943 0.663067 0.750133
0.065420 0.662545 0.819910
0.064899 0.662024 0.889465
0.064380 0.661505 0.958817
0.063862 0.660987 1.000000
0.066782 0.734511 0.000000
0.066721 0.734450 0.000000
0.066132 0.733860 0.025464
0.065568 0.733296 0.100820
0.065014 0.732743 0.174747
0.064468 0.732196 0.247744
0.063926 0.731655 0.320053
0.063389 0.731117 0.391814
0.062855 0.730584 0.463123
0.062324 0.730053 0.534045
0.061796 0.729524 0.604630
0.061269 0.728998 0.674916
0.060745 0.728474 0.744936
0.060223 0.727951 0.814713
0.059702 0.727430 0.884268
0.059183 0.726911 0.953619
0.058665 0.726393 1.000000
0.061603 0.799686 0.000000
0.061542 0.799625 0.000000
0.060953 0.799036 0.020285
0.060389 0.798471 0.095641
0.059835 0.797918 0.169568
0.059289 0.797371 0.242565
0.058747 0.796830 0.314874
0.058210 0.796293 0.386635
0.057676 0.795759 0.457944
0.057145 0.795228 0.528866
0.056617 0.794699 0.599451
0.056090 0.794173 0.669737
0.055566 0.793649 0.739757
0.055044 0.793127 0.809534
0.054523 0.792606 0.879089
0.054004 0.792087 0.948440
0.053486 0.791569 1.000000
0.056441 0.864650 0.000000
0.056380 0.864589 0.000000
0.055790 0.864000 0.015123
0.055226 0.863436 0.090479
0.054673 0.862882 0.164406
0.054126 0.862336 0.237403
0.053585 0.861794 0.309712
0.053048 0.861257 0.381473
0.052514 0.860723 0.452781
0.051983 0.860192 0.523703
0.051454 0.859664 0.594288
0.050928 0.859137 0.664575
0.050404 0.858613 0.734595
0.049881 0.858091 0.804371
0.049361 0.857570 0.873927
0.048841 0.857051 0.943278
0.048324 0.856533 1.000000
0.051294 0.929421 0.000000
0.051233 0.929360 0.000000
0.050644 0.928770 0.009976
0.050079 0.928206 0.085332
0.049526 0.927653 0.159259
0.048979 0.927106 0.232256
0.048438 0.926565 0.304565
0.047901 0.926027 0.376326
0.047367 0.925493 0.447635
0.046836 0.924962 0.518556
0.046307 0.924434 0.589142
0.045781 0.923908 0.659428
0.045257 0.923384 0.729448
0.044735 0.922861 0.799225
0.044214 0.922340 0.868780
0.043695 0.921821 0.938131
0.043177 0.921303 1.000000
0.046161 0.994011 0.000000
0.046100 0.993950 0.000000
0.045511 0.993361 0.004843
0.044947 0.992797 0.080199
0.044393 0.992243 0.154126
0.043847 0.991697 0.227124
0.043305 0.991155 0.299432
0.042768 0.990618 0.371194
0.042234 0.990084 0.442502
0.041703 0.989553 0.513424
0.041175 0.989025 0.584009
0.040649 0.988499 0.654296
0.040124 0.987974 0.724315
0.039602 0.987452 0.794092
0.039081 0.986931 0.863647
0.038562 0.986412 0.932999
0.038044 0.985894 1.000000
0.043312 1.000000 0.000000
0.043251 1.000000 0.000000
0.042661 1.000000 0.001994
0.042097 1.000000 0.077350
0.041544 1.000000 0.151277
0.040997 1.000000 0.224274
0.040456 1.000000 0.296583
0.039919 1.000000 0.368344
0.039385 1.000000 0.439652
0.038854 1.000000 0.510574
0.038325 1.000000 0.581159
0.037799 1.000000 0.651446
0.037275 1.000000 0.721465
0.036752 1.000000 0.791242
0.036232 1.000000 0.860798
0.035712 1.000000 0.930149
0.035194 1.000000 0.999311
0.198790 0.000000 0.000000
0.198729 0.000000 0.003690
0.198139 0.000000 0.082411
0.197575 0.000000 0.157767
0.197022 0.000000 0.231694
0.196475 0.000000 0.304691
0.195934 0.000000 0.377000
0.195396 0.000000 0.448761
0.194863 0.000000 0.520070
0.194332 0.000000 0.590992
0.193803 0.000000 0.661577
0.193277 0.000000 0.731863
0.192753 0.000000 0.801883
0.192230 0.000000 0.871660
0.191709 0.000000 0.941215
0.191190 0.000000 1.000000
0.190672 0.000000 1.000000
0.193678 0.059882 0.000000
0.193617 0.059821 0.000000
0.193028 0.059232 0.077299
0.192463 0.058667 0.152655
0.191910 0.058114 0.226582
0.191363 0.057567 0.299580
0.190822 0.057026 0.371888
0.190285 0.056489 0.443650
0.189751 0.055955 0.514958
0.189220 0.055424 0.585880
0.188691 0.054895 0.656465
0.188165 0.054369 0.726752
0.187641 0.053845 0.796771
0.187118 0.053322 0.866548
0.186598 0.052802 0.936103
0.186078 0.052282 1.000000
0.185561 0.051765 1.000000
0.188053 0.130662 0.000000
0.187993 0.130601 0.000000
0.187403 0.130011 0.071675
0.186839 0.129447 0.147031
0.186285 0.128894 0.220958
0.185739 0.128347 0.293955
0.185198 0.127806 0.366264
0.184660 0.127268 0.438025
0.184126 0.126735 0.509334
0.183595 0.126204 0.580255
0.183067 0.125675 0.650840
0.182541 0.125149 0.721127
0.182016 0.124625 0.791147
0.181494 0.124102 0.860923
0.180973 0.123582 0.930479
0.180454 0.123062 0.999830
0.179936 0.122544 1.000000
0.182550 0.199914 0.000000
0.182490 0.199853 0.000000
0.181900 0.199263 0.066172
0.181336 0.198699 0.141528
0.180782 0.198146 0.215455
0.180236 0.197599 0.288452
0.179695 0.197058 0.360761
0.179157 0.196521 0.432522
0.178623 0.195987 0.503831
0.178092 0.195456 0.574752
0.177564 0.194927 0.645337
0.177038 0.194401 0.715624
0.176513 0.193877 0.785644
0.175991 0.193354 0.855420
0.175470 0.192834 0.924976
0.174951 0.192314 0.994327
0.174433 0.191797 1.000000
0.177123 0.268222 0.000000
0.177062 0.268161 0.000000
0.176472 0.267571 0.060744
0.175908 0.267007 0.136100
0.175355 0.266454 0.210027
0.174808 0.265907 0.283024
0.174267 0.265366 0.355333
0.173729 0.264828 0.427094
0.173195 0.264295 0.498403
0.172664 0.263764 0.569324
0.172136 0.263235 0.639909
0.171610 0.262709 0.710196
0.171086 0.262185 0.780216
0.170563 0.261662 0.849993
0.170042 0.261141 0.919548
0.169523 0.260622 0.988899
0.169005 0.260104 1.000000
0.171749 0.335845 0.000000
0.171688 0.335784 0.000000
0.171099 0.335195 0.055370
0.170534 0.334630 0.130726
0.169981 0.334077 0.204653
0.169434 0.333530 0.277651
0.168893 0.332989 0.349959
0.168356 0.332452 0.421721
0.167822 0.331918 0.493029
0.167291 0.331387 0.563951
0.166762 0.330858 0.634536
0.166236 0.330332 0.704823
0.165712 0.329808 0.774842
0.165190 0.329285 0.844619
0.164669 0.328765 0.914174
0.164150 0.328245 0.983526
0.163632 0.327728 1.000000
0.166418 0.402932 0.000000
0.166357 0.402871 0.000000
0.165768 0.402281 0.050040
0.165204 0.401717 0.125395
0.164650 0.401164 0.199322
0.164104 0.400617 0.272320
0.163562 0.400076 0.344628
0.163025 0.399538 0.416390
0.162491 0.399005 0.487698
0.161960 0.398474 0.558620
0.161432 0.397945 0.629205
0.160905 0.397419 0.699492
0.160381 0.396895 0.769511
0.159859 0.396372 0.839288
0.159338 0.395851 0.908843
0.158819 0.395332 0.978195
0.158301 0.394814 1.000000
0.161122 0.469578 0.000000
0.161061 0.469517 0.000000
0.160472 0.468928 0.044744
0.159908 0.468363 0.120099
0.159354 0.467810 0.194026
0.158808 0.467263 0.267024
0.158266 0.466722 0.339332
0.157729 0.466185 0.411094
0.157195 0.465651 0.482402
0.156664 0.465120 0.553324
0.156136 0.464591 0.623909
0.155609 0.464065 0.694196
0.155085 0.463541 0.764215
0.154563 0.463018 0.833992
0.154042 0.462498 0.903547
0.153523 0.461978 0.972899
0.153005 0.461461 1.000000
0.155856 0.535850 0.000000
0.155795 0.535789 0.000000
0.155206 0.535200 0.039477
0.154641 0.534636 0.114833
0.154088 0.534082 0.188760
0.153541 0.533536 0.261758
0.153000 0.532995 0.334066
0.152463 0.532457 0.405828
0.151929 0.531923 0.477136
0.151398 0.531392 0.548058
0.150869 0.530864 0.618643
0.150343 0.530338 0.688930
0.149819 0.529813 0.758949
0.149296 0.529291 0.828726
0.148776 0.528770 0.898281
0.148256 0.528251 0.967633
0.147739 0.527733 1.000000
0.150615 0.601799 0.000000
0.150554 0.601738 0.000000
0.149965 0.601149 0.034237
0.149401 0.600584 0.109593
0.148847 0.600031 0.183520
0.148301 0.599484 0.256517
0.147760 0.598943 0.328826
0.147222 0.598406 0.400587
0.146688 0.597872 0.471895
0.146157 0.597341 0.542817
0.145629 0.596812 0.613402
0.145103 0.596286 0.683689
0.144578 0.595762 0.753708
0.144056 0.595240 0.823485
0.143535 0.594719 0.893041
0.143016 0.594200 0.962392
0.142498 0.593682 1.000000
0.145398 0.667461 0.000000
0.145337 0.667401 0.000000
0.144747 0.666811 0.029019
0.144183 0.666247 0.104375
0.143630 0.665693 0.178302
0.143083 0.665147 0.251299
0.142542 0.664606 0.323608
0.142004 0.664068 0.395369
0.141471 0.663534 0.466678
0.140940 0.663003 0.537600
0.140411 0.662475 0.608185
0.139885 0.661949 0.678471
0.139361 0.661424 0.748491
0.138838 0.660902 0.818268
0.138317 0.660381 0.887823
0.137798 0.659862 0.957174
0.137280 0.659344 1.000000
0.140200 0.732868 0.000000
0.140139 0.732807 0.000000
0.139550 0.732218 0.023822
0.138986 0.731654 0.099177
0.138432 0.731100 0.173104
0.137886 0.730554 0.246102
0.137344 0.730012 0.318410
0.136807 0.729475 0.390172
0.136273 0.728941 0.461480
0.135742 0.728410 0.532402
0.135214 0.727882 0.602987
0.134687 0.727355 0.673274
0.134163 0.726831 0.743293
0.133641 0.726309 0.813070
0.133120 0.725788 0.882626
0.132601 0.725269 0.951977
0.132083 0.724751 1.000000
0.135021 0.798043 0.000000
0.134960 0.797983 0.000000
0.134371 0.797393 0.018643
0.133807 0.796829 0.093998
0.133253 0.796275 0.167925
0.132707 0.795729 0.240923
0.132165 0.795188 0.313231
0.131628 0.794650 0.384993
0.131094 0.794116 0.456301
0.130563 0.793585 0.527223
0.130035 0.793057 0.597808
0.129508 0.792531 0.668095
0.128984 0.792006 0.738114
0.128462 0.791484 0.807891
0.127941 0.790963 0.877447
0.127422 0.790444 0.946798
0.126904 0.789926 1.000000
0.129859 0.863008 0.000000
0.129798 0.862947 0.000000
0.129209 0.862357 0.013480
0.128644 0.861793 0.088836
0.128091 0.861240 0.162763
0.127544 0.860693 0.235761
0.127003 0.860152 0.308069
0.126466 0.859615 0.379831
0.125932 0.859081 0.451139
0.125401 0.858550 0.522061
0.124872 0.858021 0.592646
0.124346 0.857495 0.662933
0.123822 0.856971 0.732952
0.123300 0.856448 0.802729
0.122779 0.855928 0.872284
0.122260 0.855408 0.941636
0.121742 0.854891 1.000000
0.124712 0.927778 0.000000
0.124651 0.927717 0.000000
0.124062 0.927128 0.008334
0.123498 0.926564 0.083689
0.122944 0.926010 0.157616
0.122398 0.925463 0.230614
0.121856 0.924922 0.302922
0.121319 0.924385 0.374684
0.120785 0.923851 0.445992
0.120254 0.923320 0.516914
0.119726 0.922792 0.587499
0.119199 0.922265 0.657786
0.118675 0.921741 0.727805
0.118153 0.921219 0.797582
0.117632 0.920698 0.867137
0.117113 0.920179 0.936489
0.116595 0.919661 1.000000
0.119579 0.992369 0.000000
0.119519 0.992308 0.000000
0.118929 0.991719 0.003201
0.118365 0.991154 0.078557
0.117811 0.990601 0.152484
0.117265 0.990054 0.225481
0.116724 0.989513 0.297790
0.116186 0.988976 0.369551
0.115652 0.988442 0.440860
0.115121 0.987911 0.511781
0.114593 0.987382 0.582366
0.114067 0.986856 0.652653
0.113542 0.986332 0.722673
0.113020 0.985809 0.792449
0.112499 0.985289 0.862005
0.111980 0.984769 0.931356
0.111462 0.984252 1.000000
0.116730 1.000000 0.000000
0.116669 1.000000 0.000000
0.116080 1.000000 0.000351
0.115515 1.000000 0.075707
0.114962 1.000000 0.149634
0.114415 1.000000 0.222632
0.113874 1.000000 0.294940
0.113337 1.000000 0.366702
0.112803 1.000000 0.438010
0.112272 1.000000 0.508932
0.111743 1.000000 0.579517
0.111217 1.000000 0.649804
0.110693 1.000000 0.719823
0.110170 1.000000 0.789600
0.109650 1.000000 0.859155
0.109130 1.000000 0.928506
0.108613 1.000000 0.997669
0.271114 0.000000 0.000000
0.271053 0.000000 0.002072
0.270463 0.000000 0.080793
0.269899 0.000000 0.156149
0.269346 0.000000 0.230076
0.268799 0.000000 0.303073
0.268258 0.000000 0.375382
0.267720 0.000000 0.447143
0.267187 0.000000 0.518452
0.266656 0.000000 0.589374
0.266127 0.000000 0.659959
0.265601 0.000000 0.730245
0.265077 0.000000 0.800265
0.264554 0.000000 0.870042
0.264033 0.000000 0.939597
0.263514 0.000000 1.000000
0.262996 0.000000 1.000000
0.266002 0.058264 0.000000
