skills/creativeops-producer-ios/assets/grade/luts/ad_warm_v19.cube
TITLE "ad_warm_v19"
LUT_3D_SIZE 9
DOMAIN_MIN 0.0 0.0 0.0
DOMAIN_MAX 1.0 1.0 1.0
0.050061 0.000000 0.000000
0.049411 0.000000 0.085738
0.048293 0.000000 0.235021
0.047205 0.000000 0.380327
0.046134 0.000000 0.523397
0.045075 0.000000 0.664904
0.044024 0.000000 0.805210
0.042981 0.000000 0.944542
0.041944 0.000000 1.000000
0.039325 0.133989 0.000000
0.038675 0.133339 0.075002
0.037557 0.132221 0.224285
0.036469 0.131133 0.369591
0.035398 0.130062 0.512661
0.034338 0.129002 0.654168
0.033288 0.127952 0.794474
0.032245 0.126909 0.933806
0.031208 0.125872 1.000000
0.028394 0.271549 0.000000
0.027744 0.270899 0.064071
0.026626 0.269781 0.213354
0.025538 0.268693 0.358660
0.024467 0.267622 0.501730
0.023407 0.266562 0.643237
0.022357 0.265512 0.783543
0.021314 0.264469 0.922875
0.020277 0.263432 1.000000
0.017689 0.406259 0.000000
0.017039 0.405609 0.053367
0.015921 0.404491 0.202650
0.014834 0.403403 0.347956
0.013762 0.402332 0.491025
0.012703 0.401272 0.632532
0.011652 0.400222 0.772838
0.010609 0.399179 0.912171
0.009572 0.398142 1.000000
0.007127 0.539178 0.000000
0.006477 0.538527 0.042805
0.005359 0.537410 0.192087
0.004271 0.536322 0.337393
0.003200 0.535251 0.480463
0.002141 0.534191 0.621970
0.001090 0.533141 0.762276
0.000047 0.532098 0.901609
0.000000 0.531061 1.000000
0.000000 0.670789 0.000000
0.000000 0.670138 0.032346
0.000000 0.669021 0.181629
0.000000 0.667933 0.326935
0.000000 0.666862 0.470005
0.000000 0.665802 0.611512
0.000000 0.664752 0.751818
0.000000 0.663709 0.891150
0.000000 0.662672 1.000000
0.000000 0.801371 0.000000
0.000000 0.800720 0.021970
0.000000 0.799603 0.171253
0.000000 0.798515 0.316559
0.000000 0.797444 0.459629
0.000000 0.796384 0.601135
0.000000 0.795334 0.741442
0.000000 0.794291 0.880774
0.000000 0.793254 1.000000
0.000000 0.931105 0.000000
0.000000 0.930455 0.011661
0.000000 0.929337 0.160944
0.000000 0.928249 0.306250
0.000000 0.927178 0.449319
0.000000 0.926119 0.590826
0.000000 0.925068 0.731133
0.000000 0.924025 0.870465
0.000000 0.922988 1.000000
0.000000 1.000000 0.000000
0.000000 1.000000 0.003679
0.000000 1.000000 0.152961
0.000000 1.000000 0.298267
0.000000 1.000000 0.441337
0.000000 1.000000 0.582844
0.000000 1.000000 0.723150
0.000000 1.000000 0.862483
0.000000 1.000000 1.000000
0.198790 0.000000 0.000000
0.198139 0.000000 0.082411
0.197022 0.000000 0.231694
0.195934 0.000000 0.377000
0.194863 0.000000 0.520070
0.193803 0.000000 0.661577
0.192753 0.000000 0.801883
0.191709 0.000000 0.941215
0.190672 0.000000 1.000000
0.188053 0.130662 0.000000
0.187403 0.130011 0.071675
0.186285 0.128894 0.220958
0.185198 0.127806 0.366264
0.184126 0.126735 0.509334
0.183067 0.125675 0.650840
0.182016 0.124625 0.791147
0.180973 0.123582 0.930479
0.179936 0.122544 1.000000
0.177123 0.268222 0.000000
0.176472 0.267571 0.060744
0.175355 0.266454 0.210027
0.174267 0.265366 0.355333
0.173195 0.264295 0.498403
0.172136 0.263235 0.639909
0.171086 0.262185 0.780216
0.170042 0.261141 0.919548
0.169005 0.260104 1.000000
0.166418 0.402932 0.000000
0.165768 0.402281 0.050040
0.164650 0.401164 0.199322
0.163562 0.400076 0.344628
0.162491 0.399005 0.487698
0.161432 0.397945 0.629205
0.160381 0.396895 0.769511
0.159338 0.395851 0.908843
0.158301 0.394814 1.000000
0.155856 0.535850 0.000000
0.155206 0.535200 0.039477
0.154088 0.534082 0.188760
0.153000 0.532995 0.334066
0.151929 0.531923 0.477136
0.150869 0.530864 0.618643
0.149819 0.529813 0.758949
0.148776 0.528770 0.898281
0.147739 0.527733 1.000000
0.145398 0.667461 0.000000
0.144747 0.666811 0.029019
0.143630 0.665693 0.178302
0.142542 0.664606 0.323608
0.141471 0.663534 0.466678
0.140411 0.662475 0.608185
0.139361 0.661424 0.748491
0.138317 0.660381 0.887823
0.137280 0.659344 1.000000
0.135021 0.798043 0.000000
0.134371 0.797393 0.018643
0.133253 0.796275 0.167925
0.132165 0.795188 0.313231
0.131094 0.794116 0.456301
0.130035 0.793057 0.597808
0.128984 0.792006 0.738114
0.127941 0.790963 0.877447
0.126904 0.789926 1.000000
0.124712 0.927778 0.000000
0.124062 0.927128 0.008334
0.122944 0.926010 0.157616
0.121856 0.924922 0.302922
0.120785 0.923851 0.445992
0.119726 0.922792 0.587499
0.118675 0.921741 0.727805
0.117632 0.920698 0.867137
0.116595 0.919661 1.000000
0.116730 1.000000 0.000000
0.116080 1.000000 0.000351
0.114962 1.000000 0.149634
0.113874 1.000000 0.294940
0.112803 1.000000 0.438010
0.111743 1.000000 0.579517
0.110693 1.000000 0.719823
0.109650 1.000000 0.859155
0.108613 1.000000 0.997669
0.342665 0.000000 0.000000
0.342015 0.000000 0.079192
0.340897 0.000000 0.228475
0.339809 0.000000 0.373781
0.338738 0.000000 0.516851
0.337679 0.000000 0.658358
0.336628 0.000000 0.798664
0.335585 0.000000 0.937996
0.334548 0.000000 1.000000
0.331929 0.127443 0.000000
0.331279 0.126793 0.068456
0.330161 0.125675 0.217739
0.329073 0.124587 0.363045
0.328002 0.123516 0.506115
0.326942 0.122456 0.647622
0.325892 0.121406 0.787928
0.324849 0.120363 0.927260
0.323812 0.119326 1.000000
0.320998 0.265003 0.000000
0.320348 0.264353 0.057525
0.319230 0.263235 0.206808
0.318142 0.262147 0.352114
0.317071 0.261076 0.495184
0.316011 0.260016 0.636691
0.314961 0.258966 0.776997
0.313918 0.257923 0.916329
0.312881 0.256886 1.000000
0.310293 0.399713 0.000000
0.309643 0.399063 0.046821
0.308525 0.397945 0.196103
0.307438 0.396857 0.341410
0.306366 0.395786 0.484479
0.305307 0.394726 0.625986
0.304256 0.393676 0.766292
0.303213 0.392633 0.905625
0.302176 0.391596 1.000000
0.299731 0.532632 0.000000
0.299081 0.531981 0.036259
0.297963 0.530864 0.185541
0.296875 0.529776 0.330847
0.295804 0.528705 0.473917
0.294745 0.527645 0.615424
0.293694 0.526595 0.755730
0.292651 0.525551 0.895062
0.291614 0.524514 1.000000
0.289273 0.664243 0.000000
0.288623 0.663592 0.025800
0.287505 0.662475 0.175083
0.286417 0.661387 0.320389
0.285346 0.660316 0.463459
0.284287 0.659256 0.604966
0.283236 0.658206 0.745272
0.282193 0.657163 0.884604
0.281156 0.656125 1.000000
0.278897 0.794825 0.000000
0.278246 0.794174 0.015424
0.277129 0.793057 0.164707
0.276041 0.791969 0.310013
0.274970 0.790898 0.453082
0.273910 0.789838 0.594589
0.272860 0.788788 0.734896
0.271816 0.787745 0.874228
0.270779 0.786707 1.000000
0.268588 0.924559 0.000000
0.267937 0.923909 0.005115
0.266820 0.922791 0.154397
0.265732 0.921703 0.299704
0.264660 0.920632 0.442773
0.263601 0.919573 0.584280
0.262551 0.918522 0.724586
0.261507 0.917479 0.863919
0.260470 0.916442 1.000000
0.260605 1.000000 0.000000
0.259955 1.000000 0.000000
0.258837 1.000000 0.146415
0.257749 1.000000 0.291721
0.256678 1.000000 0.434791
0.255619 1.000000 0.576298
0.254568 1.000000 0.716604
0.253525 1.000000 0.855936
0.252488 1.000000 0.994450
0.484089 0.000000 0.000000
0.483439 0.000000 0.076028
0.482321 0.000000 0.225311
0.481233 0.000000 0.370617
0.480162 0.000000 0.513687
0.479103 0.000000 0.655194
0.478052 0.000000 0.795500
0.477009 0.000000 0.934832
0.475972 0.000000 1.000000
0.473353 0.124279 0.000000
0.472703 0.123629 0.065292
0.471585 0.122511 0.214575
0.470497 0.121423 0.359881
0.469426 0.120352 0.502951
0.468367 0.119292 0.644458
0.467316 0.118242 0.784764
0.466273 0.117199 0.924096
0.465236 0.116162 1.000000
0.462422 0.261839 0.000000
0.461772 0.261189 0.054361
0.460654 0.260071 0.203644
0.459566 0.258983 0.348950
0.458495 0.257912 0.492020
0.457436 0.256852 0.633527
0.456385 0.255802 0.773833
0.455342 0.254759 0.913165
0.454305 0.253722 1.000000
0.451718 0.396549 0.000000
0.451067 0.395899 0.043657
0.449950 0.394781 0.192940
0.448862 0.393693 0.338246
0.447791 0.392622 0.481315
0.446731 0.391562 0.622822
0.445681 0.390512 0.763128
0.444638 0.389469 0.902461
0.443601 0.388432 1.000000
0.441156 0.529468 0.000000
0.440505 0.528817 0.033095
0.439388 0.527700 0.182377
0.438300 0.526612 0.327683
0.437229 0.525541 0.470753
0.436169 0.524481 0.612260
0.435119 0.523431 0.752566
0.434075 0.522388 0.891899
0.433038 0.521351 1.000000
0.430697 0.661079 0.000000
0.430047 0.660428 0.022636
0.428929 0.659311 0.171919
0.427841 0.658223 0.317225
0.426770 0.657152 0.460295
0.425711 0.656092 0.601802
0.424660 0.655042 0.742108
0.423617 0.653999 0.881440
0.422580 0.652962 1.000000
0.420321 0.791661 0.000000
0.419671 0.791010 0.012260
0.418553 0.789893 0.161543
0.417465 0.788805 0.306849
0.416394 0.787734 0.449919
0.415334 0.786674 0.591425
0.414284 0.785624 0.731732
0.413241 0.784581 0.871064
0.412204 0.783544 1.000000
0.410012 0.921395 0.000000
0.409361 0.920745 0.001951
0.408244 0.919627 0.151234
0.407156 0.918539 0.296540
0.406085 0.917468 0.439609
0.405025 0.916409 0.581116
0.403975 0.915358 0.721422
0.402932 0.914315 0.860755
0.401895 0.913278 0.999268
0.402030 1.000000 0.000000
0.401379 1.000000 0.000000
0.400262 1.000000 0.143251
0.399174 1.000000 0.288557
0.398103 1.000000 0.431627
0.397043 1.000000 0.573134
0.395993 1.000000 0.713440
0.394949 1.000000 0.852772
0.393912 1.000000 0.991286
0.623857 0.000000 0.000000
0.623207 0.000000 0.072902
0.622089 0.000000 0.222184
0.621001 0.000000 0.367490
0.619930 0.000000 0.510560
0.618870 0.000000 0.652067
0.617820 0.000000 0.792373
0.616777 0.000000 0.931705
0.615740 0.000000 1.000000
0.613121 0.121152 0.000000
0.612470 0.120502 0.062165
0.611353 0.119384 0.211448
0.610265 0.118296 0.356754
0.609194 0.117225 0.499824
0.608134 0.116166 0.641331
0.607084 0.115115 0.781637
0.606041 0.114072 0.920969
0.605003 0.113035 1.000000
0.602190 0.258712 0.000000
0.601539 0.258062 0.051234
0.600422 0.256944 0.200517
0.599334 0.255856 0.345823
0.598263 0.254785 0.488893
0.597203 0.253726 0.630400
0.596153 0.252675 0.770706
0.595110 0.251632 0.910038
0.594073 0.250595 1.000000
0.591485 0.393422 0.000000
0.590835 0.392772 0.040530
0.589717 0.391654 0.189813
0.588629 0.390566 0.335119
0.587558 0.389495 0.478189
0.586499 0.388436 0.619695
0.585448 0.387385 0.760002
0.584405 0.386342 0.899334
0.583368 0.385305 1.000000
0.580923 0.526341 0.000000
0.580273 0.525691 0.029968
0.579155 0.524573 0.179251
0.578067 0.523485 0.324557
0.576996 0.522414 0.467626
0.575937 0.521354 0.609133
0.574886 0.520304 0.749439
0.573843 0.519261 0.888772
0.572806 0.518224 1.000000
0.570465 0.657952 0.000000
0.569815 0.657302 0.019510
0.568697 0.656184 0.168792
0.567609 0.655096 0.314098
0.566538 0.654025 0.457168
0.565478 0.652965 0.598675
0.564428 0.651915 0.738981
0.563385 0.650872 0.878313
0.562348 0.649835 1.000000
0.560088 0.788534 0.000000
0.559438 0.787884 0.009133
0.558320 0.786766 0.158416
0.557233 0.785678 0.303722
0.556161 0.784607 0.446792
0.555102 0.783547 0.588299
0.554051 0.782497 0.728605
0.553008 0.781454 0.867937
0.551971 0.780417 1.000000
0.549779 0.918268 0.000000
0.549129 0.917618 0.000000
0.548011 0.916500 0.148107
0.546923 0.915413 0.293413
0.545852 0.914341 0.436483
0.544793 0.913282 0.577989
0.543742 0.912231 0.718296
0.542699 0.911188 0.857628
0.541662 0.910151 0.996141
0.541797 1.000000 0.000000
0.541147 1.000000 0.000000
0.540029 1.000000 0.140124
0.538941 1.000000 0.285431
0.537870 1.000000 0.428500
0.536811 1.000000 0.570007
0.535760 1.000000 0.710313
0.534717 1.000000 0.849646
0.533680 1.000000 0.988159
0.762373 0.000000 0.000000
0.761723 0.000000 0.069803
0.760605 0.000000 0.219085
0.759517 0.000000 0.364391
0.758446 0.000000 0.507461
0.757387 0.000000 0.648968
0.756336 0.000000 0.789274
0.755293 0.000000 0.928607
0.754256 0.000000 1.000000
0.751637 0.118053 0.000000
0.750987 0.117403 0.059067
0.749869 0.116285 0.208349
0.748781 0.115197 0.353655
0.747710 0.114126 0.496725
0.746651 0.113067 0.638232
0.745600 0.112016 0.778538
0.744557 0.110973 0.917870
0.743520 0.109936 1.000000
0.740706 0.255613 0.000000
0.740056 0.254963 0.048136
0.738938 0.253845 0.197418
0.737850 0.252757 0.342724
0.736779 0.251686 0.485794
0.735720 0.250627 0.627301
0.734669 0.249576 0.767607
0.733626 0.248533 0.906939
0.732589 0.247496 1.000000
0.730002 0.390323 0.000000
0.729351 0.389673 0.037431
0.728234 0.388555 0.186714
0.727146 0.387467 0.332020
0.726075 0.386396 0.475090
0.725015 0.385337 0.616597
0.723965 0.384286 0.756903
0.722922 0.383243 0.896235
0.721884 0.382206 1.000000
0.719440 0.523242 0.000000
0.718789 0.522592 0.026869
0.717672 0.521474 0.176152
0.716584 0.520386 0.321458
0.715512 0.519315 0.464528
0.714453 0.518255 0.606034
0.713403 0.517205 0.746341
0.712359 0.516162 0.885673
0.711322 0.515125 1.000000
0.708981 0.654853 0.000000
0.708331 0.654203 0.016411
0.707213 0.653085 0.165693
0.706125 0.651997 0.310999
0.705054 0.650926 0.454069
0.703995 0.649866 0.595576
0.702944 0.648816 0.735882
0.701901 0.647773 0.875215
0.700864 0.646736 1.000000
0.698605 0.785435 0.000000
0.697955 0.784785 0.006034
0.696837 0.783667 0.155317
0.695749 0.782579 0.300623
0.694678 0.781508 0.443693
0.693618 0.780449 0.585200
0.692568 0.779398 0.725506
0.691525 0.778355 0.864838
0.690488 0.777318 1.000000
0.688296 0.915170 0.000000
0.687645 0.914519 0.000000
0.686528 0.913402 0.145008
0.685440 0.912314 0.290314
0.684369 0.911243 0.433384
0.683309 0.910183 0.574891
0.682259 0.909133 0.715197
0.681216 0.908089 0.854529
0.680178 0.907052 0.993043
0.680313 1.000000 0.000000
0.679663 1.000000 0.000000
0.678546 1.000000 0.137026
0.677458 1.000000 0.282332
0.676386 1.000000 0.425401
0.675327 1.000000 0.566908
0.674277 1.000000 0.707215
0.673233 1.000000 0.846547
0.672196 1.000000 0.985060
0.899886 0.000000 0.000000
0.899235 0.000000 0.066726
0.898118 0.000000 0.216009
0.897030 0.000000 0.361315
0.895958 0.000000 0.504385
0.894899 0.000000 0.645892
0.893849 0.000000 0.786198
0.892805 0.000000 0.925530
0.891768 0.000000 1.000000
0.889149 0.114977 0.000000
0.888499 0.114327 0.055990
0.887381 0.113209 0.205273
0.886293 0.112121 0.350579
0.885222 0.111050 0.493649
0.884163 0.109990 0.635156
0.883112 0.108940 0.775462
0.882069 0.107897 0.914794
0.881032 0.106860 1.000000
0.878218 0.252537 0.000000
0.877568 0.251886 0.045059
0.876450 0.250769 0.194342
0.875363 0.249681 0.339648
0.874291 0.248610 0.482718
0.873232 0.247550 0.624225
0.872181 0.246500 0.764531
0.871138 0.245457 0.903863
0.870101 0.244420 1.000000
0.867514 0.387247 0.000000
0.866864 0.386597 0.034355
0.865746 0.385479 0.183637
0.864658 0.384391 0.328943
0.863587 0.383320 0.472013
0.862527 0.382260 0.613520
0.861477 0.381210 0.753826
0.860434 0.380167 0.893159
0.859397 0.379130 1.000000
0.856952 0.520166 0.000000
0.856301 0.519515 0.023793
0.855184 0.518398 0.173075
0.854096 0.517310 0.318381
0.853025 0.516239 0.461451
0.851965 0.515179 0.602958
0.850915 0.514129 0.743264
0.849872 0.513085 0.882596
0.848835 0.512048 1.000000
0.846494 0.651777 0.000000
0.845843 0.651126 0.013334
0.844726 0.650009 0.162617
0.843638 0.648921 0.307923
0.842566 0.647850 0.450993
0.841507 0.646790 0.592500
0.840457 0.645740 0.732806
0.839413 0.644696 0.872138
0.838376 0.643659 1.000000
0.836117 0.782359 0.000000
0.835467 0.781708 0.002958
0.834349 0.780591 0.152241
0.833261 0.779503 0.297547
0.832190 0.778432 0.440616
0.831131 0.777372 0.582123
0.830080 0.776322 0.722429
0.829037 0.775278 0.861762
0.828000 0.774241 1.000000
0.825808 0.912093 0.000000
0.825158 0.911443 0.000000
0.824040 0.910325 0.141931
0.822952 0.909237 0.287237
0.821881 0.908166 0.430307
0.820821 0.907107 0.571814
0.819771 0.906056 0.712120
0.818728 0.905013 0.851453
0.817691 0.903976 0.989966
0.817826 1.000000 0.000000
0.817175 1.000000 0.000000
0.816058 1.000000 0.133949
0.814970 1.000000 0.279255
0.813899 1.000000 0.422325
0.812839 1.000000 0.563832
0.811789 1.000000 0.704138
0.810746 1.000000 0.843470
0.809709 1.000000 0.981984
1.000000 0.000000 0.000000
1.000000 0.000000 0.063669
1.000000 0.000000 0.212951
1.000000 0.000000 0.358257
1.000000 0.000000 0.501327
1.000000 0.000000 0.642834
1.000000 0.000000 0.783140
1.000000 0.000000 0.922472
1.000000 0.000000 1.000000
1.000000 0.111919 0.000000
1.000000 0.111269 0.052932
1.000000 0.110151 0.202215
1.000000 0.109063 0.347521
1.000000 0.107992 0.490591
1.000000 0.106933 0.632098
1.000000 0.105882 0.772404
1.000000 0.104839 0.911736
1.000000 0.103802 1.000000
1.000000 0.249479 0.000000
1.000000 0.248829 0.042001
1.000000 0.247711 0.191284
1.000000 0.246623 0.336590
1.000000 0.245552 0.479660
1.000000 0.244493 0.621167
1.000000 0.243442 0.761473
1.000000 0.242399 0.900805
1.000000 0.241362 1.000000
1.000000 0.384189 0.000000
1.000000 0.383539 0.031297
1.000000 0.382421 0.180580
1.000000 0.381333 0.325886
1.000000 0.380262 0.468956
0.999202 0.379203 0.610462
0.998151 0.378152 0.750769
0.997108 0.377109 0.890101
0.996071 0.376072 1.000000
0.993626 0.517108 0.000000
0.992976 0.516458 0.020735
0.991858 0.515340 0.170018
0.990770 0.514252 0.315324
0.989699 0.513181 0.458393
0.988640 0.512121 0.599900
0.987589 0.511071 0.740206
0.986546 0.510028 0.879539
0.985509 0.508991 1.000000
0.983168 0.648719 0.000000
0.982518 0.648069 0.010277
0.981400 0.646951 0.159559
0.980312 0.645863 0.304865
0.979241 0.644792 0.447935
0.978181 0.643732 0.589442
0.977131 0.642682 0.729748
0.976088 0.641639 0.869080
0.975051 0.640602 1.000000
0.972791 0.779301 0.000000
0.972141 0.778651 0.000000
0.971023 0.777533 0.149183
0.969935 0.776445 0.294489
0.968864 0.775374 0.437559
0.967805 0.774314 0.579066
0.966754 0.773264 0.719372
0.965711 0.772221 0.858704
0.964674 0.771184 0.997218
0.962482 0.909036 0.000000
0.961832 0.908385 0.000000
0.960714 0.907268 0.138874
0.959626 0.906180 0.284180
0.958555 0.905108 0.427250
0.957496 0.904049 0.568757
0.956445 0.902999 0.709063
0.955402 0.901955 0.848395
0.954365 0.900918 0.986909
0.954500 1.000000 0.000000
0.953850 1.000000 0.000000
0.952732 1.000000 0.130892
0.951644 1.000000 0.276198
0.950573 1.000000 0.419267
0.949514 1.000000 0.560774
0.948463 1.000000 0.701080
0.947420 1.000000 0.840413
0.946383 1.000000 0.978926
1.000000 0.000000 0.000000
1.000000 0.000000 0.062465
1.000000 0.000000 0.211748
1.000000 0.000000 0.357054
1.000000 0.000000 0.500124
1.000000 0.000000 0.641631
1.000000 0.000000 0.781937
1.000000 0.000000 0.921269
1.000000 0.000000 1.000000
1.000000 0.110716 0.000000
1.000000 0.110066 0.051729
1.000000 0.108948 0.201012
1.000000 0.107860 0.346318
1.000000 0.106789 0.489388
1.000000 0.105729 0.630895
1.000000 0.104679 0.771201
1.000000 0.103636 0.910533
1.000000 0.102599 1.000000
1.000000 0.248276 0.000000
1.000000 0.247626 0.040798
1.000000 0.246508 0.190081
1.000000 0.245420 0.335387
1.000000 0.244349 0.478457
1.000000 0.243289 0.619964
1.000000 0.242239 0.760270
1.000000 0.241196 0.899602
1.000000 0.240159 1.000000
1.000000 0.382986 0.000000
1.000000 0.382336 0.030094
1.000000 0.381218 0.179376
1.000000 0.380130 0.324683
1.000000 0.379059 0.467752
1.000000 0.377999 0.609259
1.000000 0.376949 0.749565
1.000000 0.375906 0.888898
1.000000 0.374869 1.000000
1.000000 0.515905 0.000000
1.000000 0.515254 0.019532
1.000000 0.514137 0.168814
1.000000 0.513049 0.314120
1.000000 0.511978 0.457190
1.000000 0.510918 0.598697
1.000000 0.509868 0.739003
1.000000 0.508825 0.878335
1.000000 0.507787 1.000000
1.000000 0.647516 0.000000
1.000000 0.646865 0.009073
1.000000 0.645748 0.158356
1.000000 0.644660 0.303662
1.000000 0.643589 0.446732
1.000000 0.642529 0.588239
1.000000 0.641479 0.728545
1.000000 0.640436 0.867877
1.000000 0.639398 1.000000
1.000000 0.778098 0.000000
1.000000 0.777447 0.000000
1.000000 0.776330 0.147980
1.000000 0.775242 0.293286
1.000000 0.774171 0.436356
1.000000 0.773111 0.577862
1.000000 0.772061 0.718169
1.000000 0.771018 0.857501
1.000000 0.769980 0.996014
1.000000 0.907832 0.000000
1.000000 0.907182 0.000000
1.000000 0.906064 0.137671
1.000000 0.904976 0.282977
1.000000 0.903905 0.426046
1.000000 0.902846 0.567553
1.000000 0.901795 0.707859
1.000000 0.900752 0.847192
1.000000 0.899715 0.985705
1.000000 1.000000 0.000000
1.000000 1.000000 0.000000
1.000000 1.000000 0.129688
1.000000 1.000000 0.274994
1.000000 1.000000 0.418064
1.000000 1.000000 0.559571
1.000000 1.000000 0.699877
1.000000 1.000000 0.839209
1.000000 1.000000 0.977723
