skills/creativeops-producer-ios/assets/grade/luts/ad_warm_v19.cube
TITLE "ad_warm_v19"
LUT_3D_SIZE 5
DOMAIN_MIN 0.0 0.0 0.0
DOMAIN_MAX 1.0 1.0 1.0
0.050061 0.000000 0.000000
0.048293 0.000000 0.235021
0.046134 0.000000 0.523397
0.044024 0.000000 0.805210
0.041944 0.000000 1.000000
0.028394 0.271549 0.000000
0.026626 0.269781 0.213354
0.024467 0.267622 0.501730
0.022357 0.265512 0.783543
0.020277 0.263432 1.000000
0.007127 0.539178 0.000000
0.005359 0.537410 0.192087
0.003200 0.535251 0.480463
0.001090 0.533141 0.762276
0.000000 0.531061 1.000000
0.000000 0.801371 0.000000
0.000000 0.799603 0.171253
0.000000 0.797444 0.459629
0.000000 0.795334 0.741442
0.000000 0.793254 1.000000
0.000000 1.000000 0.000000
0.000000 1.000000 0.152961
0.000000 1.000000 0.441337
0.000000 1.000000 0.723150
0.000000 1.000000 1.000000
0.342665 0.000000 0.000000
0.340897 0.000000 0.228475
0.338738 0.000000 0.516851
0.336628 0.000000 0.798664
0.334548 0.000000 1.000000
0.320998 0.265003 0.000000
0.319230 0.263235 0.206808
0.317071 0.261076 0.495184
0.314961 0.258966 0.776997
0.312881 0.256886 1.000000
0.299731 0.532632 0.000000
0.297963 0.530864 0.185541
0.295804 0.528705 0.473917
0.293694 0.526595 0.755730
0.291614 0.524514 1.000000
0.278897 0.794825 0.000000
0.277129 0.793057 0.164707
0.274970 0.790898 0.453082
0.272860 0.788788 0.734896
0.270779 0.786707 1.000000
0.260605 1.000000 0.000000
0.258837 1.000000 0.146415
0.256678 1.000000 0.434791
0.254568 1.000000 0.716604
0.252488 1.000000 0.994450
0.623857 0.000000 0.000000
0.622089 0.000000 0.222184
0.619930 0.000000 0.510560
0.617820 0.000000 0.792373
0.615740 0.000000 1.000000
0.602190 0.258712 0.000000
0.600422 0.256944 0.200517
0.598263 0.254785 0.488893
0.596153 0.252675 0.770706
0.594073 0.250595 1.000000
0.580923 0.526341 0.000000
0.579155 0.524573 0.179251
0.576996 0.522414 0.467626
0.574886 0.520304 0.749439
0.572806 0.518224 1.000000
0.560088 0.788534 0.000000
0.558320 0.786766 0.158416
0.556161 0.784607 0.446792
0.554051 0.782497 0.728605
0.551971 0.780417 1.000000
0.541797 1.000000 0.000000
0.540029 1.000000 0.140124
0.537870 1.000000 0.428500
0.535760 1.000000 0.710313
0.533680 1.000000 0.988159
0.899886 0.000000 0.000000
0.898118 0.000000 0.216009
0.895958 0.000000 0.504385
0.893849 0.000000 0.786198
0.891768 0.000000 1.000000
0.878218 0.252537 0.000000
0.876450 0.250769 0.194342
0.874291 0.248610 0.482718
0.872181 0.246500 0.764531
0.870101 0.244420 1.000000
0.856952 0.520166 0.000000
0.855184 0.518398 0.173075
0.853025 0.516239 0.461451
0.850915 0.514129 0.743264
0.848835 0.512048 1.000000
0.836117 0.782359 0.000000
0.834349 0.780591 0.152241
0.832190 0.778432 0.440616
0.830080 0.776322 0.722429
0.828000 0.774241 1.000000
0.817826 1.000000 0.000000
0.816058 1.000000 0.133949
0.813899 1.000000 0.422325
0.811789 1.000000 0.704138
0.809709 1.000000 0.981984
1.000000 0.000000 0.000000
1.000000 0.000000 0.211748
1.000000 0.000000 0.500124
1.000000 0.000000 0.781937
1.000000 0.000000 1.000000
1.000000 0.248276 0.000000
1.000000 0.246508 0.190081
1.000000 0.244349 0.478457
1.000000 0.242239 0.760270
1.000000 0.240159 1.000000
1.000000 0.515905 0.000000
1.000000 0.514137 0.168814
1.000000 0.511978 0.457190
1.000000 0.509868 0.739003
1.000000 0.507787 1.000000
1.000000 0.778098 0.000000
1.000000 0.776330 0.147980
1.000000 0.774171 0.436356
1.000000 0.772061 0.718169
1.000000 0.769980 0.996014
1.000000 1.000000 0.000000
1.000000 1.000000 0.129688
1.000000 1.000000 0.418064
1.000000 1.000000 0.699877
1.000000 1.000000 0.977723
