skills/creativeops-producer-ios/assets/grade/luts/ad_warm_v15.cube
TITLE "ad_warm_v15"
LUT_3D_SIZE 5
DOMAIN_MIN 0.0 0.0 0.0
DOMAIN_MAX 1.0 1.0 1.0
0.040099 0.000000 0.000000
0.038608 0.000000 0.238773
0.036862 0.000000 0.519354
0.035149 0.000000 0.794725
0.033455 0.000000 1.000000
0.022571 0.267834 0.000000
0.021080 0.266343 0.221245
0.019334 0.264597 0.501826
0.017621 0.262884 0.777197
0.015927 0.261190 1.000000
0.005341 0.531854 0.000000
0.003850 0.530364 0.204015
0.002104 0.528618 0.484596
0.000390 0.526904 0.759967
0.000000 0.525210 1.000000
0.000000 0.791405 0.000000
0.000000 0.789915 0.187076
0.000000 0.788169 0.467657
0.000000 0.786455 0.743028
0.000000 0.784761 1.000000
0.000000 1.000000 0.000000
0.000000 1.000000 0.171770
0.000000 1.000000 0.452351
0.000000 1.000000 0.727722
0.000000 1.000000 0.999900
0.324941 0.000000 0.000000
0.323450 0.000000 0.233489
0.321704 0.000000 0.514070
0.319991 0.000000 0.789442
0.318297 0.000000 1.000000
0.307413 0.262550 0.000000
0.305923 0.261060 0.215962
0.304176 0.259314 0.496542
0.302463 0.257600 0.771914
0.300769 0.255906 1.000000
0.290183 0.526571 0.000000
0.288692 0.525080 0.198731
0.286946 0.523334 0.479312
0.285232 0.521621 0.754684
0.283539 0.519927 1.000000
0.273244 0.786122 0.000000
0.271753 0.784631 0.181792
0.270007 0.782885 0.462373
0.268294 0.781171 0.737745
0.266600 0.779478 1.000000
0.257938 1.000000 0.000000
0.256447 1.000000 0.166486
0.254701 1.000000 0.447067
0.252988 1.000000 0.722439
0.251294 1.000000 0.994617
0.600134 0.000000 0.000000
0.598643 0.000000 0.228385
0.596897 0.000000 0.508966
0.595183 0.000000 0.784337
0.593489 0.000000 1.000000
0.582606 0.257446 0.000000
0.581115 0.255955 0.210857
0.579369 0.254209 0.491438
0.577655 0.252496 0.766809
0.575962 0.250802 1.000000
0.565375 0.521466 0.000000
0.563885 0.519976 0.193627
0.562139 0.518230 0.474207
0.560425 0.516516 0.749579
0.558731 0.514822 1.000000
0.548437 0.781017 0.000000
0.546946 0.779527 0.176688
0.545200 0.777781 0.457269
0.543486 0.776067 0.732640
0.541793 0.774373 1.000000
0.533131 1.000000 0.000000
0.531640 1.000000 0.161382
0.529894 1.000000 0.441963
0.528180 1.000000 0.717334
0.526487 1.000000 0.989512
0.871042 0.000000 0.000000
0.869551 0.000000 0.223360
0.867805 0.000000 0.503941
0.866091 0.000000 0.779312
0.864398 0.000000 1.000000
0.853514 0.252421 0.000000
0.852023 0.250930 0.205832
0.850277 0.249184 0.486413
0.848564 0.247470 0.761784
0.846870 0.245777 1.000000
0.836283 0.516441 0.000000
0.834793 0.514951 0.188602
0.833047 0.513205 0.469182
0.831333 0.511491 0.744554
0.829639 0.509797 1.000000
0.819345 0.775992 0.000000
0.817854 0.774502 0.171663
0.816108 0.772755 0.452244
0.814394 0.771042 0.727615
0.812701 0.769348 0.999793
0.804039 1.000000 0.000000
0.802548 1.000000 0.156357
0.800802 1.000000 0.436938
0.799088 1.000000 0.712309
0.797395 1.000000 0.984487
1.000000 0.000000 0.000000
1.000000 0.000000 0.219599
1.000000 0.000000 0.500180
1.000000 0.000000 0.775552
1.000000 0.000000 1.000000
1.000000 0.248660 0.000000
1.000000 0.247170 0.202072
1.000000 0.245424 0.482652
1.000000 0.243710 0.758024
1.000000 0.242016 1.000000
1.000000 0.512681 0.000000
1.000000 0.511190 0.184841
1.000000 0.509444 0.465422
1.000000 0.507731 0.740794
1.000000 0.506037 1.000000
1.000000 0.772232 0.000000
1.000000 0.770741 0.167902
1.000000 0.768995 0.448483
1.000000 0.767281 0.723855
1.000000 0.765588 0.996033
1.000000 1.000000 0.000000
1.000000 1.000000 0.152597
1.000000 1.000000 0.433177
1.000000 1.000000 0.708549
1.000000 1.000000 0.980727
