skills/creativeops-producer-ios/assets/grade/luts/clean_bright_v05.cube
TITLE "clean_bright_v05"
LUT_3D_SIZE 5
DOMAIN_MIN 0.0 0.0 0.0
DOMAIN_MAX 1.0 1.0 1.0
0.017580 0.017580 0.017580
0.017381 0.017381 0.281658
0.017189 0.017189 0.536235
0.017001 0.017001 0.786906
0.016833 0.016833 1.000000
0.015611 0.279888 0.015611
0.015412 0.279689 0.279689
0.015220 0.279497 0.534266
0.015032 0.279309 0.784937
0.014864 0.279141 1.000000
0.013713 0.532759 0.013713
0.013514 0.532560 0.277791
0.013322 0.532368 0.532368
0.013134 0.532180 0.783039
0.012966 0.532012 1.000000
0.011844 0.781749 0.011844
0.011645 0.781550 0.275922
0.011453 0.781359 0.530499
0.011265 0.781170 0.781170
0.011097 0.781002 1.000000
0.010184 1.000000 0.010184
0.009985 1.000000 0.274262
0.009793 1.000000 0.528839
0.009605 1.000000 0.779510
0.009437 1.000000 1.000000
0.281271 0.016994 0.016994
0.281073 0.016796 0.281073
0.280881 0.016604 0.535650
0.280692 0.016415 0.786321
0.280525 0.016248 1.000000
0.279303 0.279303 0.015025
0.279104 0.279104 0.279104
0.278912 0.278912 0.533681
0.278724 0.278724 0.784352
0.278556 0.278556 1.000000
0.277405 0.532173 0.013127
0.277206 0.531975 0.277206
0.277014 0.531783 0.531783
0.276826 0.531594 0.782454
0.276658 0.531427 1.000000
0.275536 0.781164 0.011259
0.275337 0.780965 0.275337
0.275145 0.780773 0.529914
0.274957 0.780585 0.780585
0.274789 0.780417 1.000000
0.273875 1.000000 0.009598
0.273677 1.000000 0.273677
0.273485 1.000000 0.528254
0.273296 1.000000 0.778924
0.273129 1.000000 1.000000
0.535476 0.016430 0.016430
0.535277 0.016231 0.280508
0.535086 0.016040 0.535086
0.534897 0.015851 0.785756
0.534729 0.015684 1.000000
0.533507 0.278738 0.014461
0.533308 0.278540 0.278540
0.533117 0.278348 0.533117
0.532928 0.278159 0.783787
0.532760 0.277992 1.000000
0.531609 0.531609 0.012563
0.531410 0.531410 0.276642
0.531219 0.531219 0.531219
0.531030 0.531030 0.781889
0.530862 0.530862 1.000000
0.529740 0.780600 0.010694
0.529541 0.780401 0.274773
0.529350 0.780209 0.529350
0.529161 0.780021 0.780021
0.528994 0.779853 1.000000
0.528080 1.000000 0.009034
0.527881 1.000000 0.273112
0.527690 1.000000 0.527690
0.527501 1.000000 0.778360
0.527333 1.000000 1.000000
0.785780 0.015875 0.015875
0.785581 0.015676 0.279953
0.785389 0.015484 0.534530
0.785201 0.015296 0.785201
0.785033 0.015128 1.000000
0.783811 0.278183 0.013906
0.783612 0.277984 0.277984
0.783421 0.277792 0.532561
0.783232 0.277604 0.783232
0.783064 0.277436 1.000000
0.781913 0.531054 0.012008
0.781714 0.530855 0.276086
0.781523 0.530663 0.530663
0.781334 0.530475 0.781334
0.781166 0.530307 1.000000
0.780044 0.780044 0.010139
0.779845 0.779845 0.274217
0.779654 0.779654 0.528794
0.779465 0.779465 0.779465
0.779297 0.779297 1.000000
0.778384 1.000000 0.008479
0.778185 1.000000 0.272557
0.777993 1.000000 0.527134
0.777805 1.000000 0.777805
0.777637 1.000000 1.000000
1.000000 0.015381 0.015381
1.000000 0.015182 0.279459
1.000000 0.014991 0.534037
1.000000 0.014802 0.784707
1.000000 0.014634 1.000000
1.000000 0.277689 0.013412
1.000000 0.277491 0.277491
1.000000 0.277299 0.532068
1.000000 0.277110 0.782738
1.000000 0.276943 1.000000
1.000000 0.530560 0.011514
1.000000 0.530361 0.275592
1.000000 0.530170 0.530170
1.000000 0.529981 0.780840
1.000000 0.529813 1.000000
1.000000 0.779550 0.009645
1.000000 0.779352 0.273724
1.000000 0.779160 0.528301
1.000000 0.778971 0.778971
1.000000 0.778804 1.000000
1.000000 1.000000 0.007985
1.000000 1.000000 0.272063
1.000000 1.000000 0.526640
1.000000 1.000000 0.777311
1.000000 1.000000 1.000000
