skills/creativeops-producer-ios/assets/grade/luts/clean_bright_v05.cube
TITLE "clean_bright_v05"
LUT_3D_SIZE 17
DOMAIN_MIN 0.0 0.0 0.0
DOMAIN_MAX 1.0 1.0 1.0
0.017580 0.017580 0.017580
0.017528 0.017528 0.085643
0.017479 0.017479 0.151806
0.017429 0.017429 0.217042
0.017381 0.017381 0.281658
0.017333 0.017333 0.345806
0.017285 0.017285 0.409580
0.017237 0.017237 0.473041
0.017189 0.017189 0.536235
0.017142 0.017142 0.599195
0.017095 0.017095 0.661946
0.017048 0.017048 0.724511
0.017001 0.017001 0.786906
0.016954 0.016954 0.849145
0.016907 0.016907 0.911241
0.016860 0.016860 0.973204
0.016833 0.016833 1.000000
0.017072 0.085187 0.017072
0.017021 0.085135 0.085135
0.016971 0.085086 0.151298
0.016922 0.085037 0.216535
0.016873 0.084988 0.281150
0.016825 0.084940 0.345299
0.016777 0.084892 0.409073
0.016729 0.084844 0.472534
0.016682 0.084796 0.535728
0.016634 0.084749 0.598687
0.016587 0.084702 0.661439
0.016540 0.084655 0.724004
0.016493 0.084608 0.786398
0.016446 0.084561 0.848638
0.016400 0.084514 0.910733
0.016353 0.084467 0.972696
0.016326 0.084440 1.000000
0.016579 0.150906 0.016579
0.016528 0.150855 0.084642
0.016478 0.150805 0.150805
0.016429 0.150756 0.216041
0.016380 0.150707 0.280657
0.016332 0.150659 0.344806
0.016284 0.150611 0.408579
0.016236 0.150563 0.472041
0.016189 0.150515 0.535234
0.016141 0.150468 0.598194
0.016094 0.150421 0.660946
0.016047 0.150374 0.723510
0.016000 0.150327 0.785905
0.015953 0.150280 0.848144
0.015906 0.150233 0.910240
0.015860 0.150187 0.972203
0.015832 0.150159 1.000000
0.016093 0.215705 0.016093
0.016041 0.215654 0.084156
0.015991 0.215604 0.150318
0.015942 0.215555 0.215555
0.015894 0.215506 0.280171
0.015845 0.215458 0.344319
0.015797 0.215410 0.408093
0.015750 0.215362 0.471554
0.015702 0.215315 0.534748
0.015655 0.215267 0.597708
0.015608 0.215220 0.660459
0.015560 0.215173 0.723024
0.015513 0.215126 0.785419
0.015467 0.215079 0.847658
0.015420 0.215033 0.909754
0.015373 0.214986 0.971717
0.015346 0.214959 1.000000
0.015611 0.279888 0.015611
0.015560 0.279837 0.083674
0.015510 0.279787 0.149837
0.015461 0.279738 0.215073
0.015412 0.279689 0.279689
0.015364 0.279641 0.343837
0.015316 0.279593 0.407611
0.015268 0.279545 0.471073
0.015220 0.279497 0.534266
0.015173 0.279450 0.597226
0.015126 0.279403 0.659977
0.015079 0.279356 0.722542
0.015032 0.279309 0.784937
0.014985 0.279262 0.847176
0.014938 0.279215 0.909272
0.014892 0.279169 0.971235
0.014864 0.279141 1.000000
0.015132 0.343606 0.015132
0.015081 0.343555 0.083196
0.015031 0.343505 0.149358
0.014982 0.343456 0.214595
0.014934 0.343407 0.279211
0.014885 0.343359 0.343359
0.014837 0.343311 0.407133
0.014790 0.343263 0.470594
0.014742 0.343216 0.533788
0.014695 0.343168 0.596748
0.014648 0.343121 0.659499
0.014600 0.343074 0.722064
0.014553 0.343027 0.784459
0.014507 0.342980 0.846698
0.014460 0.342934 0.908794
0.014413 0.342887 0.970757
0.014386 0.342860 1.000000
0.014657 0.406952 0.014657
0.014606 0.406901 0.082720
0.014556 0.406851 0.148883
0.014507 0.406802 0.214120
0.014458 0.406754 0.278735
0.014410 0.406705 0.342884
0.014362 0.406657 0.406657
0.014314 0.406610 0.470119
0.014267 0.406562 0.533312
0.014219 0.406515 0.596272
0.014172 0.406467 0.659024
0.014125 0.406420 0.721588
0.014078 0.406373 0.783983
0.014031 0.406327 0.846222
0.013984 0.406280 0.908318
0.013938 0.406233 0.970281
0.013910 0.406206 1.000000
0.014184 0.469988 0.014184
0.014133 0.469937 0.082247
0.014083 0.469887 0.148410
0.014034 0.469838 0.213646
0.013985 0.469790 0.278262
0.013937 0.469741 0.342411
0.013889 0.469693 0.406184
0.013841 0.469646 0.469646
0.013794 0.469598 0.532839
0.013746 0.469551 0.595799
0.013699 0.469503 0.658551
0.013652 0.469456 0.721115
0.013605 0.469409 0.783510
0.013558 0.469363 0.845749
0.013511 0.469316 0.907845
0.013465 0.469269 0.969808
0.013437 0.469242 1.000000
0.013713 0.532759 0.013713
0.013662 0.532707 0.081776
0.013612 0.532658 0.147939
0.013563 0.532608 0.213175
0.013514 0.532560 0.277791
0.013466 0.532512 0.341939
0.013418 0.532464 0.405713
0.013370 0.532416 0.469174
0.013322 0.532368 0.532368
0.013275 0.532321 0.595328
0.013228 0.532274 0.658079
0.013181 0.532226 0.720644
0.013134 0.532180 0.783039
0.013087 0.532133 0.845278
0.013040 0.532086 0.907374
0.012993 0.532039 0.969337
0.012966 0.532012 1.000000
0.013243 0.595296 0.013243
0.013192 0.595245 0.081307
0.013142 0.595195 0.147469
0.013093 0.595146 0.212706
0.013045 0.595097 0.277322
0.012996 0.595049 0.341470
0.012948 0.595001 0.405244
0.012901 0.594953 0.468705
0.012853 0.594906 0.531899
0.012806 0.594858 0.594858
0.012758 0.594811 0.657610
0.012711 0.594764 0.720175
0.012664 0.594717 0.782569
0.012617 0.594670 0.844809
0.012571 0.594624 0.906905
0.012524 0.594577 0.968867
0.012497 0.594550 1.000000
0.012775 0.657627 0.012775
0.012724 0.657576 0.080839
0.012674 0.657526 0.147001
0.012625 0.657477 0.212238
0.012577 0.657428 0.276854
0.012528 0.657380 0.341002
0.012480 0.657332 0.404776
0.012433 0.657284 0.468237
0.012385 0.657237 0.531431
0.012338 0.657189 0.594391
0.012290 0.657142 0.657142
0.012243 0.657095 0.719707
0.012196 0.657048 0.782102
0.012150 0.657001 0.844341
0.012103 0.656955 0.906437
0.012056 0.656908 0.968400
0.012029 0.656881 1.000000
0.012309 0.719772 0.012309
0.012258 0.719721 0.080372
0.012208 0.719671 0.146535
0.012159 0.719622 0.211772
0.012110 0.719574 0.276387
0.012062 0.719525 0.340536
0.012014 0.719477 0.404309
0.011966 0.719430 0.467771
0.011919 0.719382 0.530964
0.011871 0.719335 0.593924
0.011824 0.719287 0.656676
0.011777 0.719240 0.719240
0.011730 0.719193 0.781635
0.011683 0.719147 0.843874
0.011636 0.719100 0.905970
0.011590 0.719053 0.967933
0.011562 0.719026 1.000000
0.011844 0.781749 0.011844
0.011793 0.781698 0.079907
0.011743 0.781648 0.146070
0.011694 0.781599 0.211306
0.011645 0.781550 0.275922
0.011597 0.781502 0.340070
0.011549 0.781454 0.403844
0.011501 0.781406 0.467306
0.011453 0.781359 0.530499
0.011406 0.781311 0.593459
0.011359 0.781264 0.656211
0.011312 0.781217 0.718775
0.011265 0.781170 0.781170
0.011218 0.781123 0.843409
0.011171 0.781076 0.905505
0.011125 0.781030 0.967468
0.011097 0.781002 1.000000
0.011380 0.843571 0.011380
0.011329 0.843520 0.079443
0.011279 0.843470 0.145606
0.011230 0.843421 0.210842
0.011181 0.843372 0.275458
0.011133 0.843324 0.339606
0.011085 0.843276 0.403380
0.011037 0.843228 0.466842
0.010989 0.843181 0.530035
0.010942 0.843133 0.592995
0.010895 0.843086 0.655747
0.010848 0.843039 0.718311
0.010801 0.842992 0.780706
0.010754 0.842945 0.842945
0.010707 0.842898 0.905041
0.010661 0.842852 0.967004
0.010633 0.842824 1.000000
0.010917 0.905251 0.010917
0.010866 0.905200 0.078980
0.010816 0.905150 0.145143
0.010767 0.905101 0.210379
0.010718 0.905052 0.274995
0.010670 0.905004 0.339143
0.010622 0.904956 0.402917
0.010574 0.904908 0.466379
0.010526 0.904860 0.529572
0.010479 0.904813 0.592532
0.010432 0.904766 0.655284
0.010385 0.904719 0.717848
0.010338 0.904672 0.780243
0.010291 0.904625 0.842482
0.010244 0.904578 0.904578
0.010198 0.904531 0.966541
0.010170 0.904504 1.000000
0.010455 0.966798 0.010455
0.010404 0.966747 0.078518
0.010354 0.966697 0.144681
0.010305 0.966648 0.209917
0.010256 0.966599 0.274533
0.010208 0.966551 0.338681
0.010160 0.966503 0.402455
0.010112 0.966455 0.465917
0.010064 0.966408 0.529110
0.010017 0.966360 0.592070
0.009970 0.966313 0.654822
0.009923 0.966266 0.717386
0.009876 0.966219 0.779781
0.009829 0.966172 0.842020
0.009782 0.966126 0.904116
0.009736 0.966079 0.966079
0.009708 0.966052 1.000000
0.010184 1.000000 0.010184
0.010132 1.000000 0.078247
0.010083 1.000000 0.144409
0.010033 1.000000 0.209646
0.009985 1.000000 0.274262
0.009937 1.000000 0.338410
0.009889 1.000000 0.402184
0.009841 1.000000 0.465645
0.009793 1.000000 0.528839
0.009746 1.000000 0.591799
0.009699 1.000000 0.654550
0.009651 1.000000 0.717115
0.009605 1.000000 0.779510
0.009558 1.000000 0.841749
0.009511 1.000000 0.903845
0.009464 1.000000 0.965808
0.009437 1.000000 1.000000
0.085543 0.017429 0.017429
0.085492 0.017378 0.085492
0.085442 0.017328 0.151655
0.085393 0.017279 0.216891
0.085344 0.017230 0.281507
0.085296 0.017182 0.345655
0.085248 0.017134 0.409429
0.085200 0.017086 0.472891
0.085153 0.017038 0.536084
0.085105 0.016991 0.599044
0.085058 0.016944 0.661795
0.085011 0.016897 0.724360
0.084964 0.016850 0.786755
0.084917 0.016803 0.848994
0.084871 0.016756 0.911090
0.084824 0.016710 0.973053
0.084797 0.016682 1.000000
0.085036 0.085036 0.016921
0.084985 0.084985 0.084985
0.084935 0.084935 0.151147
0.084886 0.084886 0.216384
0.084837 0.084837 0.281000
0.084789 0.084789 0.345148
0.084741 0.084741 0.408922
0.084693 0.084693 0.472383
0.084645 0.084645 0.535577
0.084598 0.084598 0.598536
0.084551 0.084551 0.661288
0.084504 0.084504 0.723853
0.084457 0.084457 0.786247
0.084410 0.084410 0.848487
0.084363 0.084363 0.910583
0.084317 0.084317 0.972545
0.084289 0.084289 1.000000
0.084543 0.150755 0.016428
0.084491 0.150704 0.084491
0.084441 0.150654 0.150654
0.084392 0.150605 0.215891
0.084344 0.150556 0.280506
0.084295 0.150508 0.344655
0.084247 0.150460 0.408428
0.084200 0.150412 0.471890
0.084152 0.150365 0.535084
0.084105 0.150317 0.598043
0.084058 0.150270 0.660795
0.084010 0.150223 0.723359
0.083963 0.150176 0.785754
0.083917 0.150129 0.847993
0.083870 0.150082 0.910089
0.083823 0.150036 0.972052
0.083796 0.150008 1.000000
0.084056 0.215554 0.015942
0.084005 0.215503 0.084005
0.083955 0.215453 0.150168
0.083906 0.215404 0.215404
0.083857 0.215356 0.280020
0.083809 0.215307 0.344168
0.083761 0.215259 0.407942
0.083713 0.215212 0.471403
0.083666 0.215164 0.534597
0.083618 0.215117 0.597557
0.083571 0.215069 0.660308
0.083524 0.215022 0.722873
0.083477 0.214975 0.785268
0.083430 0.214929 0.847507
0.083384 0.214882 0.909603
0.083337 0.214835 0.971566
0.083309 0.214808 1.000000
0.083574 0.279737 0.015460
0.083523 0.279686 0.083523
0.083473 0.279636 0.149686
0.083424 0.279587 0.214923
0.083376 0.279538 0.279538
0.083327 0.279490 0.343687
0.083279 0.279442 0.407460
0.083232 0.279394 0.470922
0.083184 0.279347 0.534115
0.083137 0.279299 0.597075
0.083089 0.279252 0.659827
0.083042 0.279205 0.722391
0.082995 0.279158 0.784786
0.082948 0.279111 0.847025
0.082902 0.279064 0.909121
0.082855 0.279018 0.971084
0.082828 0.278990 1.000000
0.083096 0.343455 0.014982
0.083045 0.343404 0.083045
0.082995 0.343354 0.149208
0.082946 0.343305 0.214444
0.082897 0.343257 0.279060
0.082849 0.343208 0.343208
0.082801 0.343160 0.406982
0.082753 0.343113 0.470443
0.082706 0.343065 0.533637
0.082658 0.343018 0.596597
0.082611 0.342970 0.659348
0.082564 0.342923 0.721913
0.082517 0.342876 0.784308
0.082470 0.342829 0.846547
0.082423 0.342783 0.908643
0.082377 0.342736 0.970606
0.082349 0.342709 1.000000
0.082621 0.406802 0.014506
0.082569 0.406750 0.082569
0.082520 0.406701 0.148732
0.082471 0.406651 0.213969
0.082422 0.406603 0.278584
0.082374 0.406555 0.342733
0.082326 0.406507 0.406507
0.082278 0.406459 0.469968
0.082230 0.406411 0.533162
0.082183 0.406364 0.596121
0.082136 0.406317 0.658873
0.082089 0.406270 0.721438
0.082042 0.406223 0.783832
0.081995 0.406176 0.846072
0.081948 0.406129 0.908167
0.081901 0.406082 0.970130
0.081874 0.406055 1.000000
0.082147 0.469838 0.014033
0.082096 0.469786 0.082096
0.082046 0.469737 0.148259
0.081997 0.469687 0.213496
0.081949 0.469639 0.278111
0.081900 0.469591 0.342260
0.081852 0.469543 0.406033
0.081805 0.469495 0.469495
0.081757 0.469447 0.532689
0.081710 0.469400 0.595648
0.081663 0.469353 0.658400
0.081615 0.469306 0.720964
0.081568 0.469259 0.783359
0.081522 0.469212 0.845598
0.081475 0.469165 0.907694
0.081428 0.469118 0.969657
0.081401 0.469091 1.000000
0.081676 0.532608 0.013562
0.081625 0.532556 0.081625
0.081575 0.532507 0.147788
0.081526 0.532458 0.213024
0.081478 0.532409 0.277640
0.081429 0.532361 0.341789
0.081381 0.532313 0.405562
0.081334 0.532265 0.469024
0.081286 0.532217 0.532217
0.081239 0.532170 0.595177
0.081191 0.532123 0.657929
0.081144 0.532076 0.720493
0.081097 0.532029 0.782888
0.081050 0.531982 0.845127
0.081004 0.531935 0.907223
0.080957 0.531888 0.969186
0.080930 0.531861 1.000000
0.081207 0.595145 0.013092
0.081156 0.595094 0.081156
0.081106 0.595044 0.147318
0.081057 0.594995 0.212555
0.081008 0.594947 0.277171
0.080960 0.594898 0.341319
0.080912 0.594850 0.405093
0.080864 0.594803 0.468554
0.080817 0.594755 0.531748
0.080769 0.594708 0.594708
0.080722 0.594660 0.657459
0.080675 0.594613 0.720024
0.080628 0.594566 0.782419
0.080581 0.594519 0.844658
0.080534 0.594473 0.906754
0.080488 0.594426 0.968717
0.080460 0.594399 1.000000
0.080739 0.657476 0.012625
0.080688 0.657425 0.080688
0.080638 0.657375 0.146851
0.080589 0.657326 0.212087
0.080540 0.657278 0.276703
0.080492 0.657229 0.340851
0.080444 0.657181 0.404625
0.080396 0.657134 0.468086
0.080349 0.657086 0.531280
0.080301 0.657039 0.594240
0.080254 0.656991 0.656991
0.080207 0.656944 0.719556
0.080160 0.656897 0.781951
0.080113 0.656850 0.844190
0.080066 0.656804 0.906286
0.080020 0.656757 0.968249
0.079992 0.656730 1.000000
0.080273 0.719622 0.012158
0.080221 0.719570 0.080221
0.080172 0.719521 0.146384
0.080123 0.719471 0.211621
0.080074 0.719423 0.276236
0.080026 0.719375 0.340385
0.079978 0.719327 0.404159
0.079930 0.719279 0.467620
0.079882 0.719231 0.530814
0.079835 0.719184 0.593773
0.079788 0.719137 0.656525
0.079741 0.719090 0.719090
0.079694 0.719043 0.781484
0.079647 0.718996 0.843724
0.079600 0.718949 0.905819
0.079553 0.718902 0.967782
0.079526 0.718875 1.000000
0.079807 0.781598 0.011693
0.079756 0.781547 0.079756
0.079706 0.781497 0.145919
0.079657 0.781448 0.211156
0.079609 0.781399 0.275771
0.079560 0.781351 0.339920
0.079512 0.781303 0.403693
0.079465 0.781255 0.467155
0.079417 0.781208 0.530348
0.079370 0.781160 0.593308
0.079322 0.781113 0.656060
0.079275 0.781066 0.718624
0.079228 0.781019 0.781019
0.079182 0.780972 0.843258
0.079135 0.780926 0.905354
0.079088 0.780879 0.967317
0.079061 0.780852 1.000000
0.079343 0.843420 0.011229
0.079292 0.843369 0.079292
0.079242 0.843319 0.145455
0.079193 0.843270 0.210692
0.079145 0.843222 0.275307
0.079096 0.843173 0.339456
0.079048 0.843125 0.403229
0.079001 0.843077 0.466691
0.078953 0.843030 0.529884
0.078906 0.842983 0.592844
0.078858 0.842935 0.655596
0.078811 0.842888 0.718160
0.078764 0.842841 0.780555
0.078718 0.842794 0.842794
0.078671 0.842748 0.904890
0.078624 0.842701 0.966853
0.078597 0.842674 1.000000
0.078880 0.905100 0.010766
0.078829 0.905049 0.078829
0.078779 0.904999 0.144992
0.078730 0.904950 0.210229
0.078682 0.904901 0.274844
0.078633 0.904853 0.338993
0.078585 0.904805 0.402766
0.078538 0.904757 0.466228
0.078490 0.904710 0.529421
0.078443 0.904662 0.592381
0.078395 0.904615 0.655133
0.078348 0.904568 0.717697
0.078301 0.904521 0.780092
0.078255 0.904474 0.842331
0.078208 0.904427 0.904427
0.078161 0.904381 0.966390
0.078134 0.904353 1.000000
0.078418 0.966647 0.010304
0.078367 0.966596 0.078367
0.078317 0.966546 0.144530
0.078268 0.966497 0.209767
0.078220 0.966449 0.274382
0.078171 0.966400 0.338531
0.078123 0.966352 0.402304
0.078076 0.966305 0.465766
0.078028 0.966257 0.528959
0.077981 0.966210 0.591919
0.077933 0.966162 0.654671
0.077886 0.966115 0.717235
0.077839 0.966068 0.779630
0.077793 0.966022 0.841869
0.077746 0.965975 0.903965
0.077699 0.965928 0.965928
0.077672 0.965901 1.000000
0.078147 1.000000 0.010033
0.078096 1.000000 0.078096
0.078046 1.000000 0.144259
0.077997 1.000000 0.209495
0.077948 1.000000 0.274111
0.077900 1.000000 0.338259
0.077852 1.000000 0.402033
0.077804 1.000000 0.465494
0.077757 1.000000 0.528688
0.077709 1.000000 0.591648
0.077662 1.000000 0.654399
0.077615 1.000000 0.716964
0.077568 1.000000 0.779359
0.077521 1.000000 0.841598
0.077475 1.000000 0.903694
0.077428 1.000000 0.965657
0.077401 1.000000 1.000000
0.151609 0.017282 0.017282
0.151558 0.017231 0.085345
0.151508 0.017181 0.151508
0.151459 0.017132 0.216745
0.151410 0.017083 0.281360
0.151362 0.017035 0.345509
0.151314 0.016987 0.409283
0.151266 0.016939 0.472744
0.151219 0.016892 0.535938
0.151171 0.016844 0.598897
0.151124 0.016797 0.661649
0.151077 0.016750 0.724213
0.151030 0.016703 0.786608
0.150983 0.016656 0.848848
0.150936 0.016610 0.910943
0.150890 0.016563 0.972906
0.150862 0.016536 1.000000
0.151102 0.084889 0.016775
0.151050 0.084838 0.084838
0.151001 0.084788 0.151001
0.150952 0.084739 0.216237
0.150903 0.084690 0.280853
0.150855 0.084642 0.345001
0.150807 0.084594 0.408775
0.150759 0.084546 0.472236
0.150711 0.084499 0.535430
0.150664 0.084451 0.598390
0.150617 0.084404 0.661141
0.150570 0.084357 0.723706
0.150523 0.084310 0.786101
0.150476 0.084263 0.848340
0.150429 0.084217 0.910436
0.150382 0.084170 0.972399
0.150355 0.084143 1.000000
0.150608 0.150608 0.016281
0.150557 0.150557 0.084345
0.150507 0.150507 0.150507
0.150458 0.150458 0.215744
0.150410 0.150410 0.280360
0.150361 0.150361 0.344508
0.150313 0.150313 0.408282
0.150266 0.150266 0.471743
0.150218 0.150218 0.534937
0.150171 0.150171 0.597896
0.150123 0.150123 0.660648
0.150076 0.150076 0.723213
0.150029 0.150029 0.785608
0.149982 0.149982 0.847847
0.149936 0.149936 0.909943
0.149889 0.149889 0.971906
0.149862 0.149862 1.000000
0.150122 0.215408 0.015795
0.150071 0.215357 0.083858
0.150021 0.215307 0.150021
0.149972 0.215258 0.215258
0.149923 0.215209 0.279873
0.149875 0.215161 0.344022
0.149827 0.215113 0.407795
0.149779 0.215065 0.471257
0.149732 0.215017 0.534451
0.149684 0.214970 0.597410
0.149637 0.214923 0.660162
0.149590 0.214876 0.722726
0.149543 0.214829 0.785121
0.149496 0.214782 0.847360
0.149449 0.214735 0.909456
0.149403 0.214689 0.971419
0.149375 0.214661 1.000000
0.149640 0.279590 0.015313
0.149589 0.279539 0.083377
0.149539 0.279489 0.149539
0.149490 0.279440 0.214776
0.149441 0.279392 0.279392
0.149393 0.279343 0.343540
0.149345 0.279295 0.407314
0.149297 0.279248 0.470775
0.149250 0.279200 0.533969
0.149202 0.279153 0.596928
0.149155 0.279105 0.659680
0.149108 0.279058 0.722245
0.149061 0.279011 0.784639
0.149014 0.278964 0.846879
0.148968 0.278918 0.908975
0.148921 0.278871 0.970937
0.148894 0.278844 1.000000
0.149162 0.343309 0.014835
0.149111 0.343257 0.082898
0.149061 0.343208 0.149061
0.149012 0.343159 0.214298
0.148963 0.343110 0.278913
0.148915 0.343062 0.343062
0.148867 0.343014 0.406835
0.148819 0.342966 0.470297
0.148772 0.342918 0.533490
0.148724 0.342871 0.596450
0.148677 0.342824 0.659202
0.148630 0.342777 0.721766
0.148583 0.342730 0.784161
0.148536 0.342683 0.846400
0.148489 0.342636 0.908496
0.148443 0.342589 0.970459
0.148415 0.342562 1.000000
0.148686 0.406655 0.014360
0.148635 0.406604 0.082423
0.148585 0.406554 0.148585
0.148536 0.406505 0.213822
0.148488 0.406456 0.278438
0.148439 0.406408 0.342586
0.148391 0.406360 0.406360
0.148344 0.406312 0.469821
0.148296 0.406265 0.533015
0.148249 0.406217 0.595975
0.148201 0.406170 0.658726
0.148154 0.406123 0.721291
0.148107 0.406076 0.783686
0.148061 0.406029 0.845925
0.148014 0.405982 0.908021
0.147967 0.405936 0.969984
0.147940 0.405908 1.000000
0.148213 0.469691 0.013886
0.148162 0.469640 0.081950
0.148112 0.469590 0.148112
0.148063 0.469541 0.213349
0.148015 0.469492 0.277965
0.147966 0.469444 0.342113
0.147918 0.469396 0.405887
0.147871 0.469348 0.469348
0.147823 0.469301 0.532542
0.147776 0.469253 0.595501
0.147728 0.469206 0.658253
0.147681 0.469159 0.720818
0.147634 0.469112 0.783213
0.147587 0.469065 0.845452
0.147541 0.469018 0.907548
0.147494 0.468972 0.969511
0.147467 0.468944 1.000000
0.147742 0.532461 0.013415
0.147691 0.532410 0.081478
0.147641 0.532360 0.147641
0.147592 0.532311 0.212878
0.147543 0.532262 0.277494
0.147495 0.532214 0.341642
0.147447 0.532166 0.405416
0.147399 0.532118 0.468877
0.147352 0.532071 0.532071
0.147304 0.532023 0.595030
0.147257 0.531976 0.657782
0.147210 0.531929 0.720347
0.147163 0.531882 0.782741
0.147116 0.531835 0.844981
0.147070 0.531788 0.907077
0.147023 0.531742 0.969039
0.146996 0.531714 1.000000
0.147273 0.594999 0.012946
0.147222 0.594947 0.081009
0.147172 0.594898 0.147172
0.147123 0.594849 0.212408
0.147074 0.594800 0.277024
0.147026 0.594752 0.341172
0.146978 0.594704 0.404946
0.146930 0.594656 0.468408
0.146882 0.594608 0.531601
0.146835 0.594561 0.594561
0.146788 0.594514 0.657313
0.146741 0.594467 0.719877
0.146694 0.594420 0.782272
0.146647 0.594373 0.844511
0.146600 0.594326 0.906607
0.146554 0.594279 0.968570
0.146526 0.594252 1.000000
0.146805 0.657330 0.012478
0.146754 0.657278 0.080541
0.146704 0.657229 0.146704
0.146655 0.657180 0.211941
0.146606 0.657131 0.276556
0.146558 0.657083 0.340705
0.146510 0.657035 0.404478
0.146462 0.656987 0.467940
0.146415 0.656939 0.531133
0.146367 0.656892 0.594093
0.146320 0.656845 0.656845
0.146273 0.656798 0.719409
0.146226 0.656751 0.781804
0.146179 0.656704 0.844043
0.146132 0.656657 0.906139
0.146086 0.656610 0.968102
0.146058 0.656583 1.000000
0.146338 0.719475 0.012012
0.146287 0.719424 0.080075
0.146237 0.719374 0.146237
0.146188 0.719325 0.211474
0.146140 0.719276 0.276090
0.146091 0.719228 0.340238
0.146043 0.719180 0.404012
0.145996 0.719132 0.467473
0.145948 0.719085 0.530667
0.145901 0.719037 0.593627
0.145853 0.718990 0.656378
0.145806 0.718943 0.718943
0.145759 0.718896 0.781338
0.145713 0.718849 0.843577
0.145666 0.718802 0.905673
0.145619 0.718756 0.967636
0.145592 0.718728 1.000000
0.145873 0.781452 0.011546
0.145822 0.781400 0.079610
0.145772 0.781351 0.145772
0.145723 0.781301 0.211009
0.145675 0.781253 0.275625
0.145626 0.781205 0.339773
0.145578 0.781157 0.403547
0.145530 0.781109 0.467008
0.145483 0.781061 0.530202
0.145436 0.781014 0.593161
0.145388 0.780967 0.655913
0.145341 0.780919 0.718478
0.145294 0.780873 0.780873
0.145247 0.780826 0.843112
0.145201 0.780779 0.905208
0.145154 0.780732 0.967170
0.145127 0.780705 1.000000
0.145409 0.843274 0.011082
0.145358 0.843222 0.079146
0.145308 0.843173 0.145308
0.145259 0.843124 0.210545
0.145210 0.843075 0.275161
0.145162 0.843027 0.339309
0.145114 0.842979 0.403083
0.145066 0.842931 0.466544
0.145019 0.842883 0.529738
0.144972 0.842836 0.592697
0.144924 0.842789 0.655449
0.144877 0.842742 0.718014
0.144830 0.842695 0.780408
0.144783 0.842648 0.842648
0.144737 0.842601 0.904744
0.144690 0.842554 0.966706
0.144663 0.842527 1.000000
0.144946 0.904953 0.010619
0.144895 0.904902 0.078683
0.144845 0.904852 0.144845
0.144796 0.904803 0.210082
0.144748 0.904755 0.274698
0.144699 0.904706 0.338846
0.144651 0.904658 0.402620
0.144603 0.904610 0.466081
0.144556 0.904563 0.529275
0.144509 0.904516 0.592234
0.144461 0.904468 0.654986
0.144414 0.904421 0.717551
0.144367 0.904374 0.779946
0.144320 0.904327 0.842185
0.144274 0.904281 0.904281
0.144227 0.904234 0.966243
0.144200 0.904207 1.000000
0.144484 0.966501 0.010157
0.144433 0.966450 0.078221
0.144383 0.966400 0.144383
0.144334 0.966351 0.209620
0.144286 0.966302 0.274236
0.144237 0.966254 0.338384
0.144189 0.966206 0.402158
0.144142 0.966158 0.465619
0.144094 0.966110 0.528813
0.144047 0.966063 0.591772
0.143999 0.966016 0.654524
0.143952 0.965969 0.717089
0.143905 0.965922 0.779484
0.143858 0.965875 0.841723
0.143812 0.965828 0.903819
0.143765 0.965782 0.965782
0.143738 0.965754 1.000000
0.144213 1.000000 0.009886
0.144162 1.000000 0.077949
0.144112 1.000000 0.144112
0.144063 1.000000 0.209349
0.144014 1.000000 0.273964
0.143966 1.000000 0.338113
0.143918 1.000000 0.401886
0.143870 1.000000 0.465348
0.143823 1.000000 0.528542
0.143775 1.000000 0.591501
0.143728 1.000000 0.654253
0.143681 1.000000 0.716817
0.143634 1.000000 0.779212
0.143587 1.000000 0.841452
0.143540 1.000000 0.903547
0.143494 1.000000 0.965510
0.143466 1.000000 1.000000
0.216750 0.017138 0.017138
0.216699 0.017086 0.085201
0.216649 0.017037 0.151363
0.216600 0.016987 0.216600
0.216552 0.016939 0.281216
0.216503 0.016891 0.345364
0.216455 0.016843 0.409138
0.216407 0.016795 0.472599
0.216360 0.016747 0.535793
0.216313 0.016700 0.598753
0.216265 0.016653 0.661504
0.216218 0.016605 0.724069
0.216171 0.016559 0.786464
0.216124 0.016512 0.848703
0.216078 0.016465 0.910799
0.216031 0.016418 0.972762
0.216004 0.016391 1.000000
0.216243 0.084745 0.016630
