skills/creativeops-producer-ios/assets/grade/luts/clean_bright_v05.cube
TITLE "clean_bright_v05"
LUT_3D_SIZE 9
DOMAIN_MIN 0.0 0.0 0.0
DOMAIN_MAX 1.0 1.0 1.0
0.017580 0.017580 0.017580
0.017479 0.017479 0.151806
0.017381 0.017381 0.281658
0.017285 0.017285 0.409580
0.017189 0.017189 0.536235
0.017095 0.017095 0.661946
0.017001 0.017001 0.786906
0.016907 0.016907 0.911241
0.016833 0.016833 1.000000
0.016579 0.150906 0.016579
0.016478 0.150805 0.150805
0.016380 0.150707 0.280657
0.016284 0.150611 0.408579
0.016189 0.150515 0.535234
0.016094 0.150421 0.660946
0.016000 0.150327 0.785905
0.015906 0.150233 0.910240
0.015832 0.150159 1.000000
0.015611 0.279888 0.015611
0.015510 0.279787 0.149837
0.015412 0.279689 0.279689
0.015316 0.279593 0.407611
0.015220 0.279497 0.534266
0.015126 0.279403 0.659977
0.015032 0.279309 0.784937
0.014938 0.279215 0.909272
0.014864 0.279141 1.000000
0.014657 0.406952 0.014657
0.014556 0.406851 0.148883
0.014458 0.406754 0.278735
0.014362 0.406657 0.406657
0.014267 0.406562 0.533312
0.014172 0.406467 0.659024
0.014078 0.406373 0.783983
0.013984 0.406280 0.908318
0.013910 0.406206 1.000000
0.013713 0.532759 0.013713
0.013612 0.532658 0.147939
0.013514 0.532560 0.277791
0.013418 0.532464 0.405713
0.013322 0.532368 0.532368
0.013228 0.532274 0.658079
0.013134 0.532180 0.783039
0.013040 0.532086 0.907374
0.012966 0.532012 1.000000
0.012775 0.657627 0.012775
0.012674 0.657526 0.147001
0.012577 0.657428 0.276854
0.012480 0.657332 0.404776
0.012385 0.657237 0.531431
0.012290 0.657142 0.657142
0.012196 0.657048 0.782102
0.012103 0.656955 0.906437
0.012029 0.656881 1.000000
0.011844 0.781749 0.011844
0.011743 0.781648 0.146070
0.011645 0.781550 0.275922
0.011549 0.781454 0.403844
0.011453 0.781359 0.530499
0.011359 0.781264 0.656211
0.011265 0.781170 0.781170
0.011171 0.781076 0.905505
0.011097 0.781002 1.000000
0.010917 0.905251 0.010917
0.010816 0.905150 0.145143
0.010718 0.905052 0.274995
0.010622 0.904956 0.402917
0.010526 0.904860 0.529572
0.010432 0.904766 0.655284
0.010338 0.904672 0.780243
0.010244 0.904578 0.904578
0.010170 0.904504 1.000000
0.010184 1.000000 0.010184
0.010083 1.000000 0.144409
0.009985 1.000000 0.274262
0.009889 1.000000 0.402184
0.009793 1.000000 0.528839
0.009699 1.000000 0.654550
0.009605 1.000000 0.779510
0.009511 1.000000 0.903845
0.009437 1.000000 1.000000
0.151609 0.017282 0.017282
0.151508 0.017181 0.151508
0.151410 0.017083 0.281360
0.151314 0.016987 0.409283
0.151219 0.016892 0.535938
0.151124 0.016797 0.661649
0.151030 0.016703 0.786608
0.150936 0.016610 0.910943
0.150862 0.016536 1.000000
0.150608 0.150608 0.016281
0.150507 0.150507 0.150507
0.150410 0.150410 0.280360
0.150313 0.150313 0.408282
0.150218 0.150218 0.534937
0.150123 0.150123 0.660648
0.150029 0.150029 0.785608
0.149936 0.149936 0.909943
0.149862 0.149862 1.000000
0.149640 0.279590 0.015313
0.149539 0.279489 0.149539
0.149441 0.279392 0.279392
0.149345 0.279295 0.407314
0.149250 0.279200 0.533969
0.149155 0.279105 0.659680
0.149061 0.279011 0.784639
0.148968 0.278918 0.908975
0.148894 0.278844 1.000000
0.148686 0.406655 0.014360
0.148585 0.406554 0.148585
0.148488 0.406456 0.278438
0.148391 0.406360 0.406360
0.148296 0.406265 0.533015
0.148201 0.406170 0.658726
0.148107 0.406076 0.783686
0.148014 0.405982 0.908021
0.147940 0.405908 1.000000
0.147742 0.532461 0.013415
0.147641 0.532360 0.147641
0.147543 0.532262 0.277494
0.147447 0.532166 0.405416
0.147352 0.532071 0.532071
0.147257 0.531976 0.657782
0.147163 0.531882 0.782741
0.147070 0.531788 0.907077
0.146996 0.531714 1.000000
0.146805 0.657330 0.012478
0.146704 0.657229 0.146704
0.146606 0.657131 0.276556
0.146510 0.657035 0.404478
0.146415 0.656939 0.531133
0.146320 0.656845 0.656845
0.146226 0.656751 0.781804
0.146132 0.656657 0.906139
0.146058 0.656583 1.000000
0.145873 0.781452 0.011546
0.145772 0.781351 0.145772
0.145675 0.781253 0.275625
0.145578 0.781157 0.403547
0.145483 0.781061 0.530202
0.145388 0.780967 0.655913
0.145294 0.780873 0.780873
0.145201 0.780779 0.905208
0.145127 0.780705 1.000000
0.144946 0.904953 0.010619
0.144845 0.904852 0.144845
0.144748 0.904755 0.274698
0.144651 0.904658 0.402620
0.144556 0.904563 0.529275
0.144461 0.904468 0.654986
0.144367 0.904374 0.779946
0.144274 0.904281 0.904281
0.144200 0.904207 1.000000
0.144213 1.000000 0.009886
0.144112 1.000000 0.144112
0.144014 1.000000 0.273964
0.143918 1.000000 0.401886
0.143823 1.000000 0.528542
0.143728 1.000000 0.654253
0.143634 1.000000 0.779212
0.143540 1.000000 0.903547
0.143466 1.000000 1.000000
0.281271 0.016994 0.016994
0.281170 0.016893 0.151220
0.281073 0.016796 0.281073
0.280976 0.016699 0.408995
0.280881 0.016604 0.535650
0.280786 0.016509 0.661361
0.280692 0.016415 0.786321
0.280599 0.016322 0.910656
0.280525 0.016248 1.000000
0.280271 0.150321 0.015994
0.280170 0.150220 0.150220
0.280072 0.150122 0.280072
0.279976 0.150026 0.407994
0.279880 0.149930 0.534649
0.279786 0.149836 0.660360
0.279692 0.149742 0.785320
0.279598 0.149648 0.909655
0.279524 0.149574 1.000000
0.279303 0.279303 0.015025
0.279202 0.279202 0.149251
0.279104 0.279104 0.279104
0.279008 0.279008 0.407026
0.278912 0.278912 0.533681
0.278818 0.278818 0.659392
0.278724 0.278724 0.784352
0.278630 0.278630 0.908687
0.278556 0.278556 1.000000
0.278349 0.406367 0.014072
0.278248 0.406266 0.148298
0.278150 0.406168 0.278150
0.278054 0.406072 0.406072
0.277958 0.405977 0.532727
0.277864 0.405882 0.658438
0.277770 0.405788 0.783398
0.277676 0.405695 0.907733
0.277602 0.405621 1.000000
0.277405 0.532173 0.013127
0.277304 0.532072 0.147353
0.277206 0.531975 0.277206
0.277110 0.531878 0.405128
0.277014 0.531783 0.531783
0.276920 0.531688 0.657494
0.276826 0.531594 0.782454
0.276732 0.531501 0.906789
0.276658 0.531427 1.000000
0.276467 0.657042 0.012190
0.276366 0.656941 0.146416
0.276269 0.656843 0.276269
0.276172 0.656747 0.404191
0.276077 0.656652 0.530846
0.275982 0.656557 0.656557
0.275888 0.656463 0.781516
0.275795 0.656369 0.905852
0.275721 0.656295 1.000000
0.275536 0.781164 0.011259
0.275435 0.781063 0.145484
0.275337 0.780965 0.275337
0.275241 0.780869 0.403259
0.275145 0.780773 0.529914
0.275051 0.780679 0.655625
0.274957 0.780585 0.780585
0.274863 0.780491 0.904920
0.274789 0.780417 1.000000
0.274609 0.904665 0.010332
0.274508 0.904564 0.144557
0.274410 0.904467 0.274410
0.274314 0.904370 0.402332
0.274218 0.904275 0.528987
0.274124 0.904180 0.654698
0.274030 0.904086 0.779658
0.273936 0.903993 0.903993
0.273862 0.903919 1.000000
0.273875 1.000000 0.009598
0.273774 1.000000 0.143824
0.273677 1.000000 0.273677
0.273580 1.000000 0.401599
0.273485 1.000000 0.528254
0.273390 1.000000 0.653965
0.273296 1.000000 0.778924
0.273203 1.000000 0.903260
0.273129 1.000000 1.000000
0.409006 0.016711 0.016711
0.408905 0.016610 0.150937
0.408807 0.016512 0.280789
0.408711 0.016416 0.408711
0.408616 0.016320 0.535366
0.408521 0.016226 0.661078
0.408427 0.016132 0.786037
0.408334 0.016038 0.910372
0.408260 0.015964 1.000000
0.408006 0.150037 0.015710
0.407904 0.149936 0.149936
0.407807 0.149838 0.279788
0.407710 0.149742 0.407710
0.407615 0.149647 0.534366
0.407521 0.149552 0.660077
0.407426 0.149458 0.785036
0.407333 0.149364 0.909371
0.407259 0.149290 1.000000
0.407037 0.279019 0.014742
0.406936 0.278918 0.148968
0.406839 0.278820 0.278820
0.406742 0.278724 0.406742
0.406647 0.278629 0.533397
0.406552 0.278534 0.659109
0.406458 0.278440 0.784068
0.406365 0.278346 0.908403
0.406291 0.278272 1.000000
0.406084 0.406084 0.013788
0.405983 0.405983 0.148014
0.405885 0.405885 0.277867
0.405789 0.405789 0.405789
0.405693 0.405693 0.532444
0.405599 0.405599 0.658155
0.405505 0.405505 0.783114
0.405411 0.405411 0.907450
0.405337 0.405337 1.000000
0.405139 0.531890 0.012844
0.405038 0.531789 0.147070
0.404941 0.531691 0.276922
0.404844 0.531595 0.404844
0.404749 0.531499 0.531499
0.404654 0.531405 0.657211
0.404560 0.531311 0.782170
0.404467 0.531217 0.906505
0.404393 0.531143 1.000000
0.404202 0.656758 0.011907
0.404101 0.656657 0.146133
0.404003 0.656560 0.275985
0.403907 0.656463 0.403907
0.403812 0.656368 0.530562
0.403717 0.656273 0.656273
0.403623 0.656179 0.781233
0.403529 0.656086 0.905568
0.403455 0.656012 1.000000
0.403270 0.780880 0.010975
0.403169 0.780779 0.145201
0.403072 0.780681 0.275053
0.402975 0.780585 0.402975
0.402880 0.780490 0.529631
0.402785 0.780395 0.655342
0.402691 0.780301 0.780301
0.402598 0.780208 0.904636
0.402524 0.780134 1.000000
0.402343 0.904382 0.010048
0.402242 0.904281 0.144274
0.402145 0.904183 0.274126
0.402048 0.904087 0.402048
0.401953 0.903992 0.528704
0.401858 0.903897 0.654415
0.401764 0.903803 0.779374
0.401671 0.903709 0.903709
0.401597 0.903635 1.000000
0.401610 1.000000 0.009315
0.401509 1.000000 0.143541
0.401411 1.000000 0.273393
0.401315 1.000000 0.401315
0.401220 1.000000 0.527970
0.401125 1.000000 0.653681
0.401031 1.000000 0.778641
0.400938 1.000000 0.902976
0.400864 1.000000 1.000000
0.535476 0.016430 0.016430
0.535375 0.016329 0.150656
0.535277 0.016231 0.280508
0.535181 0.016135 0.408431
0.535086 0.016040 0.535086
0.534991 0.015945 0.660797
0.534897 0.015851 0.785756
0.534803 0.015758 0.910091
0.534729 0.015684 1.000000
0.534475 0.149756 0.015429
0.534374 0.149655 0.149655
0.534276 0.149558 0.279508
0.534180 0.149461 0.407430
0.534085 0.149366 0.534085
0.533990 0.149271 0.659796
0.533896 0.149177 0.784756
0.533803 0.149084 0.909091
0.533729 0.149010 1.000000
0.533507 0.278738 0.014461
0.533406 0.278637 0.148687
0.533308 0.278540 0.278540
0.533212 0.278443 0.406462
0.533117 0.278348 0.533117
0.533022 0.278253 0.658828
0.532928 0.278159 0.783787
0.532835 0.278066 0.908123
0.532760 0.277992 1.000000
0.532553 0.405803 0.013508
0.532452 0.405702 0.147733
0.532355 0.405604 0.277586
0.532258 0.405508 0.405508
0.532163 0.405413 0.532163
0.532068 0.405318 0.657874
0.531974 0.405224 0.782834
0.531881 0.405130 0.907169
0.531807 0.405056 1.000000
0.531609 0.531609 0.012563
0.531508 0.531508 0.146789
0.531410 0.531410 0.276642
0.531314 0.531314 0.404564
0.531219 0.531219 0.531219
0.531124 0.531124 0.656930
0.531030 0.531030 0.781889
0.530936 0.530936 0.906225
0.530862 0.530862 1.000000
0.530672 0.656478 0.011626
0.530571 0.656377 0.145852
0.530473 0.656279 0.275704
0.530377 0.656183 0.403626
0.530281 0.656087 0.530281
0.530187 0.655993 0.655993
0.530093 0.655899 0.780952
0.529999 0.655805 0.905287
0.529925 0.655731 1.000000
0.529740 0.780600 0.010694
0.529639 0.780499 0.144920
0.529541 0.780401 0.274773
0.529445 0.780305 0.402695
0.529350 0.780209 0.529350
0.529255 0.780115 0.655061
0.529161 0.780021 0.780021
0.529068 0.779927 0.904356
0.528994 0.779853 1.000000
0.528813 0.904101 0.009767
0.528712 0.904000 0.143993
0.528614 0.903903 0.273846
0.528518 0.903806 0.401768
0.528423 0.903711 0.528423
0.528328 0.903616 0.654134
0.528234 0.903522 0.779094
0.528141 0.903429 0.903429
0.528067 0.903355 1.000000
0.528080 1.000000 0.009034
0.527979 1.000000 0.143260
0.527881 1.000000 0.273112
0.527785 1.000000 0.401034
0.527690 1.000000 0.527690
0.527595 1.000000 0.653401
0.527501 1.000000 0.778360
0.527407 1.000000 0.902695
0.527333 1.000000 1.000000
0.661003 0.016152 0.016152
0.660902 0.016051 0.150377
0.660804 0.015953 0.280230
0.660708 0.015857 0.408152
0.660613 0.015761 0.534807
0.660518 0.015667 0.660518
0.660424 0.015573 0.785478
0.660331 0.015479 0.909813
0.660257 0.015405 1.000000
0.660003 0.149478 0.015151
0.659901 0.149377 0.149377
0.659804 0.149279 0.279229
0.659707 0.149183 0.407151
0.659612 0.149087 0.533806
0.659518 0.148993 0.659518
0.659423 0.148899 0.784477
0.659330 0.148805 0.908812
0.659256 0.148731 1.000000
0.659034 0.278460 0.014183
0.658933 0.278359 0.148409
0.658836 0.278261 0.278261
0.658739 0.278165 0.406183
0.658644 0.278069 0.532838
0.658549 0.277975 0.658549
0.658455 0.277881 0.783509
0.658362 0.277787 0.907844
0.658288 0.277713 1.000000
0.658081 0.405524 0.013229
0.657980 0.405423 0.147455
0.657882 0.405326 0.277307
0.657786 0.405229 0.405229
0.657690 0.405134 0.531884
0.657596 0.405039 0.657596
0.657502 0.404945 0.782555
0.657408 0.404852 0.906890
0.657334 0.404778 1.000000
0.657136 0.531330 0.012285
0.657035 0.531229 0.146511
0.656938 0.531132 0.276363
0.656841 0.531035 0.404285
0.656746 0.530940 0.530940
0.656651 0.530846 0.656651
0.656557 0.530751 0.781611
0.656464 0.530658 0.905946
0.656390 0.530584 1.000000
0.656199 0.656199 0.011347
0.656098 0.656098 0.145573
0.656000 0.656000 0.275426
0.655904 0.655904 0.403348
0.655809 0.655809 0.530003
0.655714 0.655714 0.655714
0.655620 0.655620 0.780674
0.655526 0.655526 0.905009
0.655452 0.655452 1.000000
0.655267 0.780321 0.010416
0.655166 0.780220 0.144642
0.655069 0.780122 0.274494
0.654972 0.780026 0.402416
0.654877 0.779931 0.529071
0.654782 0.779836 0.654782
0.654688 0.779742 0.779742
0.654595 0.779648 0.904077
0.654521 0.779574 1.000000
0.654340 0.903823 0.009489
0.654239 0.903722 0.143715
0.654142 0.903624 0.273567
0.654045 0.903528 0.401489
0.653950 0.903432 0.528144
0.653855 0.903338 0.653855
0.653761 0.903244 0.778815
0.653668 0.903150 0.903150
0.653594 0.903076 1.000000
0.653607 1.000000 0.008755
0.653506 1.000000 0.142981
0.653408 1.000000 0.272834
0.653312 1.000000 0.400756
0.653217 1.000000 0.527411
0.653122 1.000000 0.653122
0.653028 1.000000 0.778082
0.652935 1.000000 0.902417
0.652861 1.000000 1.000000
0.785780 0.015875 0.015875
0.785679 0.015774 0.150101
0.785581 0.015676 0.279953
0.785485 0.015580 0.407875
0.785389 0.015484 0.534530
0.785295 0.015390 0.660241
0.785201 0.015296 0.785201
0.785107 0.015202 0.909536
0.785033 0.015128 1.000000
0.784779 0.149201 0.014874
0.784678 0.149100 0.149100
0.784580 0.149002 0.278952
0.784484 0.148906 0.406874
0.784389 0.148810 0.533529
0.784294 0.148716 0.659241
0.784200 0.148622 0.784200
0.784106 0.148528 0.908535
0.784032 0.148454 1.000000
0.783811 0.278183 0.013906
0.783710 0.278082 0.148132
0.783612 0.277984 0.277984
0.783516 0.277888 0.405906
0.783421 0.277792 0.532561
0.783326 0.277698 0.658272
0.783232 0.277604 0.783232
0.783138 0.277510 0.907567
0.783064 0.277436 1.000000
0.782857 0.405247 0.012952
0.782756 0.405146 0.147178
0.782658 0.405049 0.277030
0.782562 0.404952 0.404952
0.782467 0.404857 0.531607
0.782372 0.404762 0.657319
0.782278 0.404668 0.782278
0.782185 0.404575 0.906613
0.782111 0.404501 1.000000
0.781913 0.531054 0.012008
0.781812 0.530953 0.146234
0.781714 0.530855 0.276086
0.781618 0.530759 0.404008
0.781523 0.530663 0.530663
0.781428 0.530569 0.656374
0.781334 0.530475 0.781334
0.781240 0.530381 0.905669
0.781166 0.530307 1.000000
0.780976 0.655922 0.011070
0.780875 0.655821 0.145296
0.780777 0.655723 0.275149
0.780681 0.655627 0.403071
0.780585 0.655532 0.529726
0.780491 0.655437 0.655437
0.780397 0.655343 0.780397
0.780303 0.655250 0.904732
0.780229 0.655176 1.000000
0.780044 0.780044 0.010139
0.779943 0.779943 0.144365
0.779845 0.779845 0.274217
0.779749 0.779749 0.402139
0.779654 0.779654 0.528794
0.779559 0.779559 0.654506
0.779465 0.779465 0.779465
0.779371 0.779371 0.903800
0.779297 0.779297 1.000000
0.779117 0.903546 0.009212
0.779016 0.903445 0.143438
0.778918 0.903347 0.273290
0.778822 0.903251 0.401212
0.778727 0.903155 0.527867
0.778632 0.903061 0.653579
0.778538 0.902967 0.778538
0.778444 0.902873 0.902873
0.778370 0.902799 1.000000
0.778384 1.000000 0.008479
0.778283 1.000000 0.142704
0.778185 1.000000 0.272557
0.778089 1.000000 0.400479
0.777993 1.000000 0.527134
0.777899 1.000000 0.652845
0.777805 1.000000 0.777805
0.777711 1.000000 0.902140
0.777637 1.000000 1.000000
0.909933 0.015599 0.015599
0.909832 0.015498 0.149825
0.909734 0.015400 0.279677
0.909638 0.015304 0.407599
0.909543 0.015209 0.534255
0.909448 0.015114 0.659966
0.909354 0.015020 0.784925
0.909260 0.014926 0.909260
0.909186 0.014852 1.000000
0.908932 0.148925 0.014598
0.908831 0.148824 0.148824
0.908733 0.148726 0.278677
0.908637 0.148630 0.406599
0.908542 0.148535 0.533254
0.908447 0.148440 0.658965
0.908353 0.148346 0.783924
0.908260 0.148253 0.908260
0.908186 0.148179 1.000000
0.907964 0.277907 0.013630
0.907863 0.277806 0.147856
0.907765 0.277709 0.277709
0.907669 0.277612 0.405631
0.907574 0.277517 0.532286
0.907479 0.277422 0.657997
0.907385 0.277328 0.782956
0.907291 0.277235 0.907291
0.907217 0.277161 1.000000
0.907010 0.404972 0.012676
0.906909 0.404871 0.146902
0.906812 0.404773 0.276755
0.906715 0.404677 0.404677
0.906620 0.404581 0.531332
0.906525 0.404487 0.657043
0.906431 0.404393 0.782003
0.906338 0.404299 0.906338
0.906264 0.404225 1.000000
0.906066 0.530778 0.011732
0.905965 0.530677 0.145958
0.905867 0.530579 0.275810
0.905771 0.530483 0.403733
0.905676 0.530388 0.530388
0.905581 0.530293 0.656099
0.905487 0.530199 0.781058
0.905393 0.530105 0.905393
0.905319 0.530031 1.000000
0.905129 0.655647 0.010795
0.905028 0.655546 0.145021
0.904930 0.655448 0.274873
0.904834 0.655352 0.402795
0.904738 0.655256 0.529450
0.904644 0.655162 0.655162
0.904550 0.655068 0.780121
0.904456 0.654974 0.904456
0.904382 0.654900 1.000000
0.904197 0.779768 0.009863
0.904096 0.779667 0.144089
0.903998 0.779570 0.273942
0.903902 0.779473 0.401864
0.903807 0.779378 0.528519
0.903712 0.779283 0.654230
0.903618 0.779189 0.779189
0.903525 0.779096 0.903525
0.903451 0.779022 1.000000
0.903270 0.903270 0.008936
0.903169 0.903169 0.143162
0.903071 0.903071 0.273015
0.902975 0.902975 0.400937
0.902880 0.902880 0.527592
0.902785 0.902785 0.653303
0.902691 0.902691 0.778262
0.902598 0.902598 0.902598
0.902524 0.902524 1.000000
0.902537 1.000000 0.008203
0.902436 1.000000 0.142429
0.902338 1.000000 0.272281
0.902242 1.000000 0.400203
0.902147 1.000000 0.526858
0.902052 1.000000 0.652570
0.901958 1.000000 0.777529
0.901864 1.000000 0.901864
0.901790 1.000000 1.000000
1.000000 0.015381 0.015381
1.000000 0.015280 0.149607
1.000000 0.015182 0.279459
1.000000 0.015086 0.407381
1.000000 0.014991 0.534037
1.000000 0.014896 0.659748
1.000000 0.014802 0.784707
1.000000 0.014708 0.909042
1.000000 0.014634 1.000000
1.000000 0.148707 0.014380
1.000000 0.148606 0.148606
1.000000 0.148509 0.278459
1.000000 0.148412 0.406381
1.000000 0.148317 0.533036
1.000000 0.148222 0.658747
1.000000 0.148128 0.783706
1.000000 0.148035 0.908042
1.000000 0.147961 1.000000
1.000000 0.277689 0.013412
1.000000 0.277588 0.147638
1.000000 0.277491 0.277491
1.000000 0.277394 0.405413
1.000000 0.277299 0.532068
1.000000 0.277204 0.657779
1.000000 0.277110 0.782738
1.000000 0.277017 0.907073
1.000000 0.276943 1.000000
1.000000 0.404754 0.012458
1.000000 0.404653 0.146684
1.000000 0.404555 0.276537
1.000000 0.404459 0.404459
1.000000 0.404363 0.531114
1.000000 0.404269 0.656825
1.000000 0.404175 0.781785
1.000000 0.404081 0.906120
1.000000 0.404007 1.000000
1.000000 0.530560 0.011514
1.000000 0.530459 0.145740
1.000000 0.530361 0.275592
1.000000 0.530265 0.403515
1.000000 0.530170 0.530170
1.000000 0.530075 0.655881
1.000000 0.529981 0.780840
1.000000 0.529887 0.905175
1.000000 0.529813 1.000000
1.000000 0.655429 0.010577
1.000000 0.655328 0.144803
1.000000 0.655230 0.274655
1.000000 0.655134 0.402577
1.000000 0.655038 0.529232
1.000000 0.654944 0.654944
1.000000 0.654850 0.779903
1.000000 0.654756 0.904238
1.000000 0.654682 1.000000
1.000000 0.779550 0.009645
1.000000 0.779449 0.143871
1.000000 0.779352 0.273724
1.000000 0.779255 0.401646
1.000000 0.779160 0.528301
1.000000 0.779065 0.654012
1.000000 0.778971 0.778971
1.000000 0.778878 0.903307
1.000000 0.778804 1.000000
1.000000 0.903052 0.008718
1.000000 0.902951 0.142944
1.000000 0.902853 0.272797
1.000000 0.902757 0.400719
1.000000 0.902662 0.527374
1.000000 0.902567 0.653085
1.000000 0.902473 0.778044
1.000000 0.902380 0.902380
1.000000 0.902306 1.000000
1.000000 1.000000 0.007985
1.000000 1.000000 0.142211
1.000000 1.000000 0.272063
1.000000 1.000000 0.399985
1.000000 1.000000 0.526640
1.000000 1.000000 0.652352
1.000000 1.000000 0.777311
1.000000 1.000000 0.901646
1.000000 1.000000 1.000000
