skills/creativeops-producer-ios/assets/grade/luts/moody_teal_v18.cube
TITLE "moody_teal_v18"
LUT_3D_SIZE 9
DOMAIN_MIN 0.0 0.0 0.0
DOMAIN_MAX 1.0 1.0 1.0
0.000000 0.000000 0.000000
0.001145 0.001145 0.092910
0.002524 0.002524 0.204806
0.003960 0.003960 0.321301
0.005433 0.005433 0.440833
0.006935 0.006935 0.562659
0.008459 0.008459 0.686335
0.010003 0.010003 0.811568
0.010640 0.010640 0.863272
0.005663 0.051473 0.005663
0.006808 0.052618 0.098573
0.008187 0.053997 0.210469
0.009623 0.055433 0.326964
0.011096 0.056906 0.446496
0.012598 0.058408 0.568321
0.014122 0.059932 0.691998
0.015666 0.061476 0.817231
0.016303 0.062113 0.868934
0.018935 0.172111 0.018935
0.020080 0.173256 0.111845
0.021459 0.174635 0.223741
0.022895 0.176071 0.340236
0.024368 0.177544 0.459768
0.025870 0.179046 0.581593
0.027394 0.180570 0.705270
0.028938 0.182114 0.830503
0.029575 0.182751 0.882206
0.032947 0.299473 0.032947
0.034092 0.300618 0.125857
0.035471 0.301997 0.237753
0.036907 0.303433 0.354248
0.038380 0.304906 0.473780
0.039882 0.306408 0.595605
0.041406 0.307932 0.719282
0.042949 0.309476 0.844514
0.043587 0.310113 0.896218
0.047393 0.430783 0.047393
0.048538 0.431928 0.140303
0.049917 0.433307 0.252199
0.051353 0.434743 0.368694
0.052826 0.436216 0.488226
0.054328 0.437718 0.610051
0.055852 0.439242 0.733728
0.057395 0.440786 0.858960
0.058033 0.441423 0.910664
0.062152 0.564940 0.062152
0.063297 0.566085 0.155062
0.064676 0.567465 0.266959
0.066112 0.568900 0.383453
0.067585 0.570374 0.502985
0.069087 0.571875 0.624811
0.070611 0.573399 0.748487
0.072155 0.574943 0.873720
0.072792 0.575580 0.925424
0.077158 0.701340 0.077158
0.078303 0.702485 0.170068
0.079682 0.703864 0.281965
0.081118 0.705300 0.398459
0.082592 0.706774 0.517991
0.084093 0.708275 0.639817
0.085617 0.709799 0.763493
0.087161 0.711343 0.888726
0.087798 0.711980 0.940430
0.092368 0.839596 0.092368
0.093514 0.840741 0.185279
0.094893 0.842120 0.297175
0.096329 0.843556 0.413670
0.097802 0.845030 0.533202
0.099303 0.846531 0.655027
0.100828 0.848055 0.778703
0.102371 0.849599 0.903936
0.103008 0.850236 0.955640
0.105398 0.958029 0.105398
0.106543 0.959175 0.198308
0.107922 0.960554 0.310204
0.109358 0.961990 0.426699
0.110831 0.963463 0.546231
0.112333 0.964964 0.668056
0.113857 0.966489 0.791733
0.115401 0.968032 0.916966
0.116038 0.968669 0.968669
0.003584 0.000127 0.000127
0.004729 0.001272 0.093037
0.006108 0.002651 0.204933
0.007544 0.004087 0.321428
0.009017 0.005560 0.440960
0.010519 0.007062 0.562786
0.012043 0.008586 0.686462
0.013587 0.010130 0.811695
0.014224 0.010767 0.863399
0.009247 0.051600 0.005790
0.010392 0.052745 0.098700
0.011771 0.054124 0.210596
0.013207 0.055560 0.327091
0.014680 0.057033 0.446623
0.016182 0.058535 0.568448
0.017706 0.060059 0.692125
0.019250 0.061603 0.817358
0.019887 0.062240 0.869061
0.022519 0.172238 0.019062
0.023664 0.173383 0.111972
0.025043 0.174762 0.223868
0.026479 0.176198 0.340363
0.027952 0.177671 0.459895
0.029454 0.179173 0.581720
0.030978 0.180697 0.705397
0.032522 0.182241 0.830630
0.033159 0.182878 0.882333
0.036531 0.299600 0.033074
0.037676 0.300745 0.125984
0.039055 0.302124 0.237880
0.040491 0.303560 0.354375
0.041964 0.305033 0.473907
0.043465 0.306535 0.595732
0.044990 0.308059 0.719409
0.046533 0.309603 0.844641
0.047171 0.310240 0.896345
0.050977 0.430910 0.047520
0.052122 0.432055 0.140430
0.053501 0.433434 0.252326
0.054937 0.434870 0.368821
0.056410 0.436343 0.488353
0.057912 0.437845 0.610178
0.059436 0.439369 0.733855
0.060979 0.440913 0.859088
0.061617 0.441550 0.910791
0.065736 0.565067 0.062279
0.066881 0.566212 0.155189
0.068260 0.567592 0.267086
0.069696 0.569027 0.383580
0.071169 0.570501 0.503112
0.072671 0.572002 0.624938
0.074195 0.573527 0.748614
0.075739 0.575070 0.873847
0.076376 0.575707 0.925551
0.080742 0.701467 0.077285
0.081887 0.702612 0.170195
0.083266 0.703992 0.282092
0.084702 0.705427 0.398586
0.086175 0.706901 0.518118
0.087677 0.708402 0.639944
0.089201 0.709926 0.763620
0.090745 0.711470 0.888853
0.091382 0.712107 0.940557
0.095952 0.839723 0.092495
0.097098 0.840868 0.185406
0.098477 0.842248 0.297302
0.099913 0.843683 0.413797
0.101386 0.845157 0.533329
0.102887 0.846658 0.655154
0.104412 0.848182 0.778830
0.105955 0.849726 0.904063
0.106592 0.850363 0.955767
0.108982 0.958157 0.105525
0.110127 0.959302 0.198435
0.111506 0.960681 0.310331
0.112942 0.962117 0.426826
0.114415 0.963590 0.546358
0.115917 0.965091 0.668184
0.117441 0.966616 0.791860
0.118985 0.968159 0.917093
0.119622 0.968797 0.968797
0.109007 0.003864 0.003864
0.110152 0.005009 0.096774
0.111531 0.006388 0.208670
0.112967 0.007824 0.325165
0.114440 0.009297 0.444697
0.115942 0.010798 0.566522
0.117466 0.012323 0.690199
0.119010 0.013866 0.815431
0.119647 0.014504 0.867135
0.114670 0.055337 0.009526
0.115815 0.056482 0.102437
0.117194 0.057861 0.214333
0.118630 0.059297 0.330827
0.120103 0.060770 0.450360
0.121605 0.062271 0.572185
0.123129 0.063796 0.695861
0.124672 0.065339 0.821094
0.125310 0.065977 0.872798
0.127942 0.175974 0.022798
0.129087 0.177120 0.115709
0.130466 0.178499 0.227605
0.131902 0.179935 0.344099
0.133375 0.181408 0.463632
0.134877 0.182909 0.585457
0.136401 0.184434 0.709133
0.137944 0.185977 0.834366
0.138582 0.186614 0.886070
0.141953 0.303337 0.036810
0.143099 0.304482 0.129720
0.144478 0.305861 0.241617
0.145914 0.307297 0.358111
0.147387 0.308770 0.477643
0.148888 0.310272 0.599469
0.150413 0.311796 0.723145
0.151956 0.313339 0.848378
0.152593 0.313977 0.900082
0.156400 0.434646 0.051256
0.157545 0.435791 0.144166
0.158924 0.437171 0.256063
0.160360 0.438606 0.372557
0.161833 0.440080 0.492090
0.163334 0.441581 0.613915
0.164859 0.443106 0.737591
0.166402 0.444649 0.862824
0.167040 0.445286 0.914528
0.171159 0.568804 0.066016
0.172304 0.569949 0.158926
0.173683 0.571328 0.270822
0.175119 0.572764 0.387317
0.176592 0.574237 0.506849
0.178094 0.575739 0.628674
0.179618 0.577263 0.752351
0.181162 0.578807 0.877583
0.181799 0.579444 0.929287
0.186165 0.705204 0.081022
0.187310 0.706349 0.173932
0.188689 0.707728 0.285828
0.190125 0.709164 0.402323
0.191598 0.710637 0.521855
0.193100 0.712139 0.643680
0.194624 0.713663 0.767357
0.196168 0.715207 0.892589
0.196805 0.715844 0.944293
0.201375 0.843460 0.096232
0.202520 0.844605 0.189142
0.203900 0.845984 0.301038
0.205335 0.847420 0.417533
0.206809 0.848893 0.537065
0.208310 0.850395 0.658891
0.209834 0.851919 0.782567
0.211378 0.853462 0.907800
0.212015 0.854100 0.959504
0.214405 0.961893 0.109261
0.215550 0.963038 0.202172
0.216929 0.964417 0.314068
0.218365 0.965853 0.430563
0.219838 0.967326 0.550095
0.221340 0.968828 0.671920
0.222864 0.970352 0.795596
0.224407 0.971896 0.920829
0.225045 0.972533 0.972533
0.224322 0.007951 0.007951
0.225468 0.009096 0.100861
0.226847 0.010475 0.212757
0.228283 0.011911 0.329252
0.229756 0.013384 0.448784
0.231257 0.014886 0.570609
0.232782 0.016410 0.694286
0.234325 0.017953 0.819519
0.234962 0.018591 0.871222
0.229985 0.059424 0.013614
0.231130 0.060569 0.106524
0.232510 0.061948 0.218420
0.233945 0.063384 0.334915
0.235419 0.064857 0.454447
0.236920 0.066359 0.576272
0.238444 0.067883 0.699949
0.239988 0.069426 0.825181
0.240625 0.070064 0.876885
0.243257 0.180062 0.026886
0.244402 0.181207 0.119796
0.245782 0.182586 0.231692
0.247217 0.184022 0.348187
0.248691 0.185495 0.467719
0.250192 0.186996 0.589544
0.251716 0.188521 0.713221
0.253260 0.190064 0.838453
0.253897 0.190702 0.890157
0.257269 0.307424 0.040897
0.258414 0.308569 0.133808
0.259793 0.309948 0.245704
0.261229 0.311384 0.362198
0.262702 0.312857 0.481731
0.264204 0.314359 0.603556
0.265728 0.315883 0.727232
0.267272 0.317427 0.852465
0.267909 0.318064 0.904169
0.271715 0.438734 0.055343
0.272860 0.439879 0.148254
0.274239 0.441258 0.260150
0.275675 0.442694 0.376645
0.277148 0.444167 0.496177
0.278650 0.445668 0.618002
0.280174 0.447193 0.741678
0.281718 0.448736 0.866911
0.282355 0.449374 0.918615
0.286475 0.572891 0.070103
0.287620 0.574036 0.163013
0.288999 0.575415 0.274909
0.290435 0.576851 0.391404
0.291908 0.578324 0.510936
0.293409 0.579826 0.632761
0.294934 0.581350 0.756438
0.296477 0.582894 0.881671
0.297115 0.583531 0.933374
0.301481 0.709291 0.085109
0.302626 0.710436 0.178019
0.304005 0.711815 0.289915
0.305441 0.713251 0.406410
0.306914 0.714724 0.525942
0.308415 0.716226 0.647767
0.309940 0.717750 0.771444
0.311483 0.719294 0.896677
0.312121 0.719931 0.948380
0.316691 0.847547 0.100319
0.317836 0.848692 0.193229
0.319215 0.850071 0.305126
0.320651 0.851507 0.421620
0.322124 0.852980 0.541152
0.323626 0.854482 0.662978
0.325150 0.856006 0.786654
0.326694 0.857550 0.911887
0.327331 0.858187 0.963591
0.329720 0.965980 0.113349
0.330865 0.967125 0.206259
0.332245 0.968504 0.318155
0.333680 0.969940 0.434650
0.335154 0.971414 0.554182
0.336655 0.972915 0.676007
0.338180 0.974439 0.799684
0.339723 0.975983 0.924916
0.340360 0.976620 0.976620
0.344056 0.012194 0.012194
0.345201 0.013340 0.105105
0.346580 0.014719 0.217001
0.348016 0.016155 0.333496
0.349489 0.017628 0.453028
0.350991 0.019129 0.574853
0.352515 0.020654 0.698529
0.354059 0.022197 0.823762
0.354696 0.022834 0.875466
0.349719 0.063667 0.017857
0.350864 0.064813 0.110768
0.352243 0.066192 0.222664
0.353679 0.067628 0.339158
0.355152 0.069101 0.458691
0.356653 0.070602 0.580516
0.358178 0.072127 0.704192
0.359721 0.073670 0.829425
0.360359 0.074307 0.881129
0.362991 0.184305 0.031129
0.364136 0.185450 0.124040
0.365515 0.186830 0.235936
0.366951 0.188265 0.352430
0.368424 0.189739 0.471963
0.369925 0.191240 0.593788
0.371450 0.192765 0.717464
0.372993 0.194308 0.842697
0.373631 0.194945 0.894401
0.377002 0.311668 0.045141
0.378148 0.312813 0.138051
0.379527 0.314192 0.249948
0.380962 0.315628 0.366442
0.382436 0.317101 0.485974
0.383937 0.318602 0.607800
0.385462 0.320127 0.731476
0.387005 0.321670 0.856709
0.387642 0.322308 0.908413
0.391448 0.442977 0.059587
0.392594 0.444122 0.152497
0.393973 0.445502 0.264394
0.395409 0.446937 0.380888
0.396882 0.448411 0.500420
0.398383 0.449912 0.622246
0.399908 0.451436 0.745922
0.401451 0.452980 0.871155
0.402088 0.453617 0.922859
0.406208 0.577135 0.074347
0.407353 0.578280 0.167257
0.408732 0.579659 0.279153
0.410168 0.581095 0.395648
0.411641 0.582568 0.515180
0.413143 0.584070 0.637005
0.414667 0.585594 0.760682
0.416211 0.587137 0.885914
0.416848 0.587775 0.937618
0.421214 0.713535 0.089353
0.422359 0.714680 0.182263
0.423738 0.716059 0.294159
0.425174 0.717495 0.410654
0.426647 0.718968 0.530186
0.428149 0.720470 0.652011
0.429673 0.721994 0.775688
0.431217 0.723537 0.900920
0.431854 0.724175 0.952624
0.436424 0.851791 0.104563
0.437569 0.852936 0.197473
0.438948 0.854315 0.309369
0.440384 0.855751 0.425864
0.441858 0.857224 0.545396
0.443359 0.858726 0.667221
0.444883 0.860250 0.790898
0.446427 0.861793 0.916131
0.447064 0.862431 0.967834
0.449454 0.970224 0.117592
0.450599 0.971369 0.210503
0.451978 0.972748 0.322399
0.453414 0.974184 0.438893
0.454887 0.975657 0.558426
0.456389 0.977159 0.680251
0.457913 0.978683 0.803927
0.459456 0.980227 0.929160
0.460094 0.980864 0.980864
0.466777 0.016544 0.016544
0.467922 0.017689 0.109454
0.469301 0.019068 0.221351
0.470737 0.020504 0.337845
0.472211 0.021977 0.457377
0.473712 0.023479 0.579203
0.475236 0.025003 0.702879
0.476780 0.026547 0.828112
0.477417 0.027184 0.879816
0.472440 0.068017 0.022207
0.473585 0.069162 0.115117
0.474964 0.070541 0.227013
0.476400 0.071977 0.343508
0.477873 0.073450 0.463040
0.479375 0.074952 0.584866
0.480899 0.076476 0.708542
0.482443 0.078020 0.833775
0.483080 0.078657 0.885479
0.485712 0.188655 0.035479
0.486857 0.189800 0.128389
0.488236 0.191179 0.240285
0.489672 0.192615 0.356780
0.491145 0.194088 0.476312
0.492647 0.195590 0.598138
0.494171 0.197114 0.721814
0.495715 0.198658 0.847047
0.496352 0.199295 0.898751
0.499724 0.316017 0.049491
0.500869 0.317162 0.142401
0.502248 0.318541 0.254297
0.503684 0.319977 0.370792
0.505157 0.321451 0.490324
0.506659 0.322952 0.612149
0.508183 0.324476 0.735826
0.509727 0.326020 0.861059
0.510364 0.326657 0.912762
0.514170 0.447327 0.063937
0.515315 0.448472 0.156847
0.516694 0.449851 0.268743
0.518130 0.451287 0.385238
0.519603 0.452760 0.504770
0.521105 0.454262 0.626595
0.522629 0.455786 0.750272
0.524173 0.457330 0.875505
0.524810 0.457967 0.927208
0.528929 0.581484 0.078696
0.530074 0.582630 0.171606
0.531454 0.584009 0.283503
0.532889 0.585444 0.399997
0.534363 0.586918 0.519529
0.535864 0.588419 0.641355
0.537388 0.589944 0.765031
0.538932 0.591487 0.890264
0.539569 0.592124 0.941968
0.543935 0.717884 0.093702
0.545080 0.719029 0.186612
0.546460 0.720409 0.298509
0.547895 0.721844 0.415003
0.549369 0.723318 0.534536
0.550870 0.724819 0.656361
0.552395 0.726344 0.780037
0.553938 0.727887 0.905270
0.554575 0.728524 0.956974
0.559146 0.856140 0.108913
0.560291 0.857285 0.201823
0.561670 0.858665 0.313719
0.563106 0.860100 0.430214
0.564579 0.861574 0.549746
0.566080 0.863075 0.671571
0.567605 0.864600 0.795248
0.569148 0.866143 0.920480
0.569786 0.866780 0.972184
0.572175 0.974574 0.121942
0.573320 0.975719 0.214852
0.574699 0.977098 0.326748
0.576135 0.978534 0.443243
0.577608 0.980007 0.562775
0.579110 0.981508 0.684601
0.580634 0.983033 0.808277
0.582178 0.984576 0.933510
0.582815 0.985214 0.985214
0.591778 0.020975 0.020975
0.592924 0.022120 0.113885
0.594303 0.023499 0.225781
0.595738 0.024935 0.342276
0.597212 0.026408 0.461808
0.598713 0.027909 0.583633
0.600238 0.029434 0.707310
0.601781 0.030977 0.832542
0.602418 0.031615 0.884246
0.597441 0.072448 0.026637
0.598586 0.073593 0.119548
0.599965 0.074972 0.231444
0.601401 0.076408 0.347938
0.602875 0.077881 0.467471
0.604376 0.079382 0.589296
0.605900 0.080907 0.712972
0.607444 0.082450 0.838205
0.608081 0.083088 0.889909
0.610713 0.193085 0.039909
0.611858 0.194231 0.132820
0.613238 0.195610 0.244716
0.614673 0.197046 0.361211
0.616147 0.198519 0.480743
0.617648 0.200020 0.602568
0.619172 0.201545 0.726244
0.620716 0.203088 0.851477
0.621353 0.203725 0.903181
0.624725 0.320448 0.053921
0.625870 0.321593 0.146831
0.627249 0.322972 0.258728
0.628685 0.324408 0.375222
0.630158 0.325881 0.494754
0.631660 0.327383 0.616580
0.633184 0.328907 0.740256
0.634728 0.330450 0.865489
0.635365 0.331088 0.917193
0.639171 0.451757 0.068367
0.640316 0.452902 0.161277
0.641695 0.454282 0.273174
0.643131 0.455717 0.389668
0.644604 0.457191 0.509201
0.646106 0.458692 0.631026
0.647630 0.460217 0.754702
0.649174 0.461760 0.879935
0.649811 0.462397 0.931639
0.653930 0.585915 0.083127
0.655076 0.587060 0.176037
0.656455 0.588439 0.287933
0.657891 0.589875 0.404428
0.659364 0.591348 0.523960
0.660865 0.592850 0.645785
0.662390 0.594374 0.769462
0.663933 0.595918 0.894694
0.664570 0.596555 0.946398
0.668937 0.722315 0.098133
0.670082 0.723460 0.191043
0.671461 0.724839 0.302939
0.672897 0.726275 0.419434
0.674370 0.727748 0.538966
0.675871 0.729250 0.660791
0.677396 0.730774 0.784468
0.678939 0.732318 0.909701
0.679577 0.732955 0.961404
0.684147 0.860571 0.113343
0.685292 0.861716 0.206253
0.686671 0.863095 0.318149
0.688107 0.864531 0.434644
0.689580 0.866004 0.554176
0.691082 0.867506 0.676002
0.692606 0.869030 0.799678
0.694150 0.870574 0.924911
0.694787 0.871211 0.976615
0.697176 0.979004 0.126372
0.698321 0.980149 0.219283
0.699701 0.981528 0.331179
0.701136 0.982964 0.447674
0.702610 0.984437 0.567206
0.704111 0.985939 0.689031
0.705636 0.987463 0.812707
0.707179 0.989007 0.937940
0.707816 0.989644 0.989644
0.718631 0.025471 0.025471
0.719776 0.026616 0.118381
0.721155 0.027995 0.230277
0.722591 0.029431 0.346772
0.724065 0.030904 0.466304
0.725566 0.032406 0.588129
0.727090 0.033930 0.711806
0.728634 0.035473 0.837038
0.729271 0.036111 0.888742
0.724294 0.076944 0.031133
0.725439 0.078089 0.124044
0.726818 0.079468 0.235940
0.728254 0.080904 0.352435
0.729727 0.082377 0.471967
0.731229 0.083879 0.593792
0.732753 0.085403 0.717468
0.734297 0.086946 0.842701
0.734934 0.087584 0.894405
0.737566 0.197582 0.044405
0.738711 0.198727 0.137316
0.740090 0.200106 0.249212
0.741526 0.201542 0.365707
0.742999 0.203015 0.485239
0.744501 0.204516 0.607064
0.746025 0.206041 0.730740
0.747569 0.207584 0.855973
0.748206 0.208222 0.907677
0.751578 0.324944 0.058417
0.752723 0.326089 0.151327
0.754102 0.327468 0.263224
0.755538 0.328904 0.379718
0.757011 0.330377 0.499251
0.758513 0.331879 0.621076
0.760037 0.333403 0.744752
0.761581 0.334946 0.869985
0.762218 0.335584 0.921689
0.766024 0.456253 0.072863
0.767169 0.457399 0.165774
0.768548 0.458778 0.277670
0.769984 0.460214 0.394164
0.771457 0.461687 0.513697
0.772959 0.463188 0.635522
0.774483 0.464713 0.759198
0.776027 0.466256 0.884431
0.776664 0.466893 0.936135
0.780783 0.590411 0.087623
0.781928 0.591556 0.180533
0.783308 0.592935 0.292429
0.784743 0.594371 0.408924
0.786217 0.595844 0.528456
0.787718 0.597346 0.650281
0.789242 0.598870 0.773958
0.790786 0.600414 0.899191
0.791423 0.601051 0.950894
0.795789 0.726811 0.102629
0.796934 0.727956 0.195539
0.798314 0.729335 0.307435
0.799749 0.730771 0.423930
0.801223 0.732244 0.543462
0.802724 0.733746 0.665287
0.804249 0.735270 0.788964
0.805792 0.736814 0.914197
0.806429 0.737451 0.965900
0.811000 0.865067 0.117839
0.812145 0.866212 0.210749
0.813524 0.867591 0.322646
0.814960 0.869027 0.439140
0.816433 0.870500 0.558672
0.817934 0.872002 0.680498
0.819459 0.873526 0.804174
0.821002 0.875070 0.929407
0.821640 0.875707 0.981111
0.824029 0.983500 0.130869
0.825174 0.984645 0.223779
0.826553 0.986024 0.335675
0.827989 0.987460 0.452170
0.829462 0.988933 0.571702
0.830964 0.990435 0.693527
0.832488 0.991959 0.817204
0.834032 0.993503 0.942436
0.834669 0.994140 0.994140
0.847047 0.030022 0.030022
0.848192 0.031167 0.122932
0.849571 0.032546 0.234829
0.851007 0.033982 0.351323
0.852480 0.035455 0.470855
0.853982 0.036957 0.592681
0.855506 0.038481 0.716357
0.857050 0.040025 0.841590
0.857687 0.040662 0.893294
0.852710 0.081495 0.035685
0.853855 0.082640 0.128595
0.855234 0.084019 0.240491
0.856670 0.085455 0.356986
0.858143 0.086929 0.476518
0.859645 0.088430 0.598344
0.861169 0.089954 0.722020
0.862713 0.091498 0.847253
0.863350 0.092135 0.898957
0.865982 0.202133 0.048957
0.867127 0.203278 0.141867
0.868506 0.204657 0.253763
0.869942 0.206093 0.370258
0.871415 0.207566 0.489790
0.872917 0.209068 0.611616
0.874441 0.210592 0.735292
0.875985 0.212136 0.860525
0.876622 0.212773 0.912229
0.879994 0.329495 0.062969
0.881139 0.330640 0.155879
0.882518 0.332019 0.267775
0.883954 0.333455 0.384270
0.885427 0.334929 0.503802
0.886929 0.336430 0.625627
0.888453 0.337954 0.749304
0.889996 0.339498 0.874537
0.890634 0.340135 0.926240
0.894440 0.460805 0.077415
0.895585 0.461950 0.170325
0.896964 0.463329 0.282221
0.898400 0.464765 0.398716
0.899873 0.466238 0.518248
0.901375 0.467740 0.640073
0.902899 0.469264 0.763750
0.904443 0.470808 0.888983
0.905080 0.471445 0.940686
0.909199 0.594962 0.092174
0.910344 0.596108 0.185084
0.911723 0.597487 0.296981
0.913159 0.598923 0.413475
0.914632 0.600396 0.533007
0.916134 0.601897 0.654833
0.917658 0.603422 0.778509
0.919202 0.604965 0.903742
0.919839 0.605602 0.955446
0.924205 0.731362 0.107180
0.925350 0.732507 0.200091
0.926729 0.733887 0.311987
0.928165 0.735322 0.428481
0.929639 0.736796 0.548014
0.931140 0.738297 0.669839
0.932664 0.739822 0.793515
0.934208 0.741365 0.918748
0.934845 0.742002 0.970452
0.939415 0.869618 0.122391
0.940561 0.870763 0.215301
0.941940 0.872143 0.327197
0.943376 0.873578 0.443692
0.944849 0.875052 0.563224
0.946350 0.876553 0.685049
0.947875 0.878078 0.808726
0.949418 0.879621 0.933958
0.950055 0.880258 0.985662
0.952445 0.988052 0.135420
0.953590 0.989197 0.228330
0.954969 0.990576 0.340226
0.956405 0.992012 0.456721
0.957878 0.993485 0.576253
0.959380 0.994986 0.698079
0.960904 0.996511 0.821755
0.962448 0.998054 0.946988
0.963085 0.998692 0.998692
