skills/creativeops-producer-ios/assets/grade/luts/moody_teal_v18.cube
TITLE "moody_teal_v18"
LUT_3D_SIZE 5
DOMAIN_MIN 0.0 0.0 0.0
DOMAIN_MAX 1.0 1.0 1.0
0.000000 0.000000 0.000000
0.002524 0.002524 0.204806
0.005433 0.005433 0.440833
0.008459 0.008459 0.686335
0.010640 0.010640 0.863272
0.018935 0.172111 0.018935
0.021459 0.174635 0.223741
0.024368 0.177544 0.459768
0.027394 0.180570 0.705270
0.029575 0.182751 0.882206
0.047393 0.430783 0.047393
0.049917 0.433307 0.252199
0.052826 0.436216 0.488226
0.055852 0.439242 0.733728
0.058033 0.441423 0.910664
0.077158 0.701340 0.077158
0.079682 0.703864 0.281965
0.082592 0.706774 0.517991
0.085617 0.709799 0.763493
0.087798 0.711980 0.940430
0.105398 0.958029 0.105398
0.107922 0.960554 0.310204
0.110831 0.963463 0.546231
0.113857 0.966489 0.791733
0.116038 0.968669 0.968669
0.109007 0.003864 0.003864
0.111531 0.006388 0.208670
0.114440 0.009297 0.444697
0.117466 0.012323 0.690199
0.119647 0.014504 0.867135
0.127942 0.175974 0.022798
0.130466 0.178499 0.227605
0.133375 0.181408 0.463632
0.136401 0.184434 0.709133
0.138582 0.186614 0.886070
0.156400 0.434646 0.051256
0.158924 0.437171 0.256063
0.161833 0.440080 0.492090
0.164859 0.443106 0.737591
0.167040 0.445286 0.914528
0.186165 0.705204 0.081022
0.188689 0.707728 0.285828
0.191598 0.710637 0.521855
0.194624 0.713663 0.767357
0.196805 0.715844 0.944293
0.214405 0.961893 0.109261
0.216929 0.964417 0.314068
0.219838 0.967326 0.550095
0.222864 0.970352 0.795596
0.225045 0.972533 0.972533
0.344056 0.012194 0.012194
0.346580 0.014719 0.217001
0.349489 0.017628 0.453028
0.352515 0.020654 0.698529
0.354696 0.022834 0.875466
0.362991 0.184305 0.031129
0.365515 0.186830 0.235936
0.368424 0.189739 0.471963
0.371450 0.192765 0.717464
0.373631 0.194945 0.894401
0.391448 0.442977 0.059587
0.393973 0.445502 0.264394
0.396882 0.448411 0.500420
0.399908 0.451436 0.745922
0.402088 0.453617 0.922859
0.421214 0.713535 0.089353
0.423738 0.716059 0.294159
0.426647 0.718968 0.530186
0.429673 0.721994 0.775688
0.431854 0.724175 0.952624
0.449454 0.970224 0.117592
0.451978 0.972748 0.322399
0.454887 0.975657 0.558426
0.457913 0.978683 0.803927
0.460094 0.980864 0.980864
0.591778 0.020975 0.020975
0.594303 0.023499 0.225781
0.597212 0.026408 0.461808
0.600238 0.029434 0.707310
0.602418 0.031615 0.884246
0.610713 0.193085 0.039909
0.613238 0.195610 0.244716
0.616147 0.198519 0.480743
0.619172 0.201545 0.726244
0.621353 0.203725 0.903181
0.639171 0.451757 0.068367
0.641695 0.454282 0.273174
0.644604 0.457191 0.509201
0.647630 0.460217 0.754702
0.649811 0.462397 0.931639
0.668937 0.722315 0.098133
0.671461 0.724839 0.302939
0.674370 0.727748 0.538966
0.677396 0.730774 0.784468
0.679577 0.732955 0.961404
0.697176 0.979004 0.126372
0.699701 0.981528 0.331179
0.702610 0.984437 0.567206
0.705636 0.987463 0.812707
0.707816 0.989644 0.989644
0.847047 0.030022 0.030022
0.849571 0.032546 0.234829
0.852480 0.035455 0.470855
0.855506 0.038481 0.716357
0.857687 0.040662 0.893294
0.865982 0.202133 0.048957
0.868506 0.204657 0.253763
0.871415 0.207566 0.489790
0.874441 0.210592 0.735292
0.876622 0.212773 0.912229
0.894440 0.460805 0.077415
0.896964 0.463329 0.282221
0.899873 0.466238 0.518248
0.902899 0.469264 0.763750
0.905080 0.471445 0.940686
0.924205 0.731362 0.107180
0.926729 0.733887 0.311987
0.929639 0.736796 0.548014
0.932664 0.739822 0.793515
0.934845 0.742002 0.970452
0.952445 0.988052 0.135420
0.954969 0.990576 0.340226
0.957878 0.993485 0.576253
0.960904 0.996511 0.821755
0.963085 0.998692 0.998692
