skills/creativeops-producer-ios/assets/grade/luts/moody_teal_v18.cube
TITLE "moody_teal_v18"
LUT_3D_SIZE 17
DOMAIN_MIN 0.0 0.0 0.0
DOMAIN_MAX 1.0 1.0 1.0
0.000000 0.000000 0.000000
0.000493 0.000493 0.039987
0.001145 0.001145 0.092910
0.001826 0.001826 0.148117
0.002524 0.002524 0.204806
0.003237 0.003237 0.262607
0.003960 0.003960 0.321301
0.004693 0.004693 0.380744
0.005433 0.005433 0.440833
0.006181 0.006181 0.501492
0.006935 0.006935 0.562659
0.007694 0.007694 0.624286
0.008459 0.008459 0.686335
0.009229 0.009229 0.748772
0.010003 0.010003 0.811568
0.010640 0.010640 0.863272
0.010640 0.010640 0.863272
0.000000 0.000000 0.000000
0.000493 0.000493 0.039987
0.001145 0.001145 0.092910
0.001826 0.001826 0.148117
0.002524 0.002524 0.204806
0.003237 0.003237 0.262607
0.003960 0.003960 0.321301
0.004693 0.004693 0.380744
0.005433 0.005433 0.440833
0.006181 0.006181 0.501492
0.006935 0.006935 0.562659
0.007694 0.007694 0.624286
0.008459 0.008459 0.686335
0.009229 0.009229 0.748772
0.010003 0.010003 0.811568
0.010640 0.010640 0.863272
0.010640 0.010640 0.863272
0.005663 0.051473 0.005663
0.006156 0.051966 0.045650
0.006808 0.052618 0.098573
0.007488 0.053299 0.153780
0.008187 0.053997 0.210469
0.008900 0.054710 0.268270
0.009623 0.055433 0.326964
0.010356 0.056166 0.386407
0.011096 0.056906 0.446496
0.011844 0.057654 0.507154
0.012598 0.058408 0.568321
0.013357 0.059167 0.629949
0.014122 0.059932 0.691998
0.014892 0.060702 0.754434
0.015666 0.061476 0.817231
0.016303 0.062113 0.868934
0.016303 0.062113 0.868934
0.012168 0.110607 0.012168
0.012661 0.111100 0.052156
0.013314 0.111752 0.105079
0.013994 0.112433 0.160285
0.014693 0.113131 0.216975
0.015405 0.113844 0.274776
0.016129 0.114567 0.333470
0.016861 0.115300 0.392913
0.017602 0.116040 0.453002
0.018349 0.116788 0.513660
0.019103 0.117542 0.574827
0.019863 0.118301 0.636455
0.020628 0.119066 0.698503
0.021397 0.119836 0.760940
0.022171 0.120610 0.823736
0.022808 0.121247 0.875440
0.022808 0.121247 0.875440
0.018935 0.172111 0.018935
0.019428 0.172604 0.058922
0.020080 0.173256 0.111845
0.020760 0.173936 0.167052
0.021459 0.174635 0.223741
0.022172 0.175348 0.281542
0.022895 0.176071 0.340236
0.023628 0.176804 0.399679
0.024368 0.177544 0.459768
0.025116 0.178292 0.520426
0.025870 0.179046 0.581593
0.026629 0.179805 0.643221
0.027394 0.180570 0.705270
0.028164 0.181340 0.767706
0.028938 0.182114 0.830503
0.029575 0.182751 0.882206
0.029575 0.182751 0.882206
0.025875 0.235194 0.025875
0.026368 0.235687 0.065862
0.027020 0.236339 0.118785
0.027700 0.237019 0.173992
0.028399 0.237718 0.230681
0.029112 0.238430 0.288482
0.029835 0.239154 0.347176
0.030568 0.239886 0.406619
0.031308 0.240627 0.466708
0.032056 0.241375 0.527366
0.032810 0.242129 0.588534
0.033569 0.242888 0.650161
0.034334 0.243653 0.712210
0.035104 0.244422 0.774646
0.035878 0.245196 0.837443
0.036515 0.245834 0.889146
0.036515 0.245834 0.889146
0.032947 0.299473 0.032947
0.033439 0.299966 0.072934
0.034092 0.300618 0.125857
0.034772 0.301299 0.181064
0.035471 0.301997 0.237753
0.036183 0.302710 0.295554
0.036907 0.303433 0.354248
0.037639 0.304166 0.413691
0.038380 0.304906 0.473780
0.039128 0.305654 0.534438
0.039882 0.306408 0.595605
0.040641 0.307168 0.657233
0.041406 0.307932 0.719282
0.042175 0.308702 0.781718
0.042949 0.309476 0.844514
0.043587 0.310113 0.896218
0.043587 0.310113 0.896218
0.040125 0.364720 0.040125
0.040618 0.365213 0.080112
0.041270 0.365866 0.133035
0.041950 0.366546 0.188242
0.042649 0.367245 0.244931
0.043362 0.367957 0.302732
0.044085 0.368680 0.361426
0.044818 0.369413 0.420869
0.045558 0.370154 0.480958
0.046306 0.370901 0.541616
0.047060 0.371655 0.602783
0.047819 0.372415 0.664411
0.048584 0.373180 0.726460
0.049354 0.373949 0.788896
0.050128 0.374723 0.851693
0.050765 0.375360 0.903396
0.050765 0.375360 0.903396
0.047393 0.430783 0.047393
0.047886 0.431276 0.087380
0.048538 0.431928 0.140303
0.049218 0.432608 0.195510
0.049917 0.433307 0.252199
0.050629 0.434019 0.310000
0.051353 0.434743 0.368694
0.052085 0.435476 0.428137
0.052826 0.436216 0.488226
0.053574 0.436964 0.548884
0.054328 0.437718 0.610051
0.055087 0.438477 0.671679
0.055852 0.439242 0.733728
0.056621 0.440012 0.796164
0.057395 0.440786 0.858960
0.058033 0.441423 0.910664
0.058033 0.441423 0.910664
0.054738 0.497550 0.054738
0.055231 0.498043 0.094725
0.055883 0.498696 0.147648
0.056564 0.499376 0.202855
0.057262 0.500075 0.259545
0.057975 0.500787 0.317345
0.058698 0.501510 0.376039
0.059431 0.502243 0.435482
0.060172 0.502984 0.495571
0.060919 0.503731 0.556230
0.061673 0.504485 0.617397
0.062433 0.505245 0.679024
0.063197 0.506010 0.741073
0.063967 0.506779 0.803510
0.064741 0.507553 0.866306
0.065378 0.508190 0.918010
0.065378 0.508190 0.918010
0.062152 0.564940 0.062152
0.062645 0.565433 0.102139
0.063297 0.566085 0.155062
0.063978 0.566766 0.210269
0.064676 0.567465 0.266959
0.065389 0.568177 0.324759
0.066112 0.568900 0.383453
0.066845 0.569633 0.442896
0.067585 0.570374 0.502985
0.068333 0.571121 0.563644
0.069087 0.571875 0.624811
0.069847 0.572635 0.686438
0.070611 0.573399 0.748487
0.071381 0.574169 0.810924
0.072155 0.574943 0.873720
0.072792 0.575580 0.925424
0.072792 0.575580 0.925424
0.069627 0.632888 0.069627
0.070120 0.633380 0.109615
0.070772 0.634033 0.162538
0.071453 0.634713 0.217744
0.072152 0.635412 0.274434
0.072864 0.636124 0.332234
0.073587 0.636848 0.390928
0.074320 0.637580 0.450371
0.075061 0.638321 0.510461
0.075808 0.639069 0.571119
0.076562 0.639823 0.632286
0.077322 0.640582 0.693914
0.078087 0.641347 0.755962
0.078856 0.642116 0.818399
0.079630 0.642890 0.881195
0.080267 0.643528 0.932899
0.080267 0.643528 0.932899
0.077158 0.701340 0.077158
0.077651 0.701833 0.117145
0.078303 0.702485 0.170068
0.078984 0.703166 0.225275
0.079682 0.703864 0.281965
0.080395 0.704577 0.339765
0.081118 0.705300 0.398459
0.081851 0.706033 0.457902
0.082592 0.706774 0.517991
0.083339 0.707521 0.578650
0.084093 0.708275 0.639817
0.084853 0.709035 0.701444
0.085617 0.709799 0.763493
0.086387 0.710569 0.825930
0.087161 0.711343 0.888726
0.087798 0.711980 0.940430
0.087798 0.711980 0.940430
0.084740 0.770255 0.084740
0.085233 0.770748 0.124727
0.085885 0.771400 0.177650
0.086565 0.772081 0.232857
0.087264 0.772779 0.289546
0.087977 0.773492 0.347347
0.088700 0.774215 0.406041
0.089433 0.774948 0.465484
0.090173 0.775688 0.525573
0.090921 0.776436 0.586231
0.091675 0.777190 0.647398
0.092434 0.777950 0.709026
0.093199 0.778714 0.771075
0.093969 0.779484 0.833511
0.094743 0.780258 0.896308
0.095380 0.780895 0.948011
0.095380 0.780895 0.948011
0.092368 0.839596 0.092368
0.092861 0.840089 0.132356
0.093514 0.840741 0.185279
0.094194 0.841422 0.240485
0.094893 0.842120 0.297175
0.095605 0.842833 0.354976
0.096329 0.843556 0.413670
0.097061 0.844289 0.473113
0.097802 0.845030 0.533202
0.098549 0.845777 0.593860
0.099303 0.846531 0.655027
0.100063 0.847291 0.716655
0.100828 0.848055 0.778703
0.101597 0.848825 0.841140
0.102371 0.849599 0.903936
0.103008 0.850236 0.955640
0.103008 0.850236 0.955640
0.100041 0.909333 0.100041
0.100533 0.909826 0.140028
0.101186 0.910478 0.192951
0.101866 0.911159 0.248157
0.102565 0.911857 0.304847
0.103277 0.912570 0.362648
0.104001 0.913293 0.421342
0.104733 0.914026 0.480785
0.105474 0.914766 0.540874
0.106222 0.915514 0.601532
0.106975 0.916268 0.662699
0.107735 0.917027 0.724327
0.108500 0.917792 0.786376
0.109269 0.918562 0.848812
0.110043 0.919336 0.911608
0.110681 0.919973 0.963312
0.110681 0.919973 0.963312
0.105398 0.958029 0.105398
0.105891 0.958522 0.145385
0.106543 0.959175 0.198308
0.107223 0.959855 0.253515
0.107922 0.960554 0.310204
0.108635 0.961266 0.368005
0.109358 0.961990 0.426699
0.110091 0.962722 0.486142
0.110831 0.963463 0.546231
0.111579 0.964210 0.606889
0.112333 0.964964 0.668056
0.113092 0.965724 0.729684
0.113857 0.966489 0.791733
0.114627 0.967258 0.854169
0.115401 0.968032 0.916966
0.116038 0.968669 0.968669
0.116038 0.968669 0.968669
0.000000 0.000000 0.000000
0.000493 0.000493 0.039987
0.001145 0.001145 0.092910
0.001826 0.001826 0.148117
0.002524 0.002524 0.204806
0.003237 0.003237 0.262607
0.003960 0.003960 0.321301
0.004693 0.004693 0.380744
0.005433 0.005433 0.440833
0.006181 0.006181 0.501492
0.006935 0.006935 0.562659
0.007694 0.007694 0.624286
0.008459 0.008459 0.686335
0.009229 0.009229 0.748772
0.010003 0.010003 0.811568
0.010640 0.010640 0.863272
0.010640 0.010640 0.863272
0.000000 0.000000 0.000000
0.000493 0.000493 0.039987
0.001145 0.001145 0.092910
0.001826 0.001826 0.148117
0.002524 0.002524 0.204806
0.003237 0.003237 0.262607
0.003960 0.003960 0.321301
0.004693 0.004693 0.380744
0.005433 0.005433 0.440833
0.006181 0.006181 0.501492
0.006935 0.006935 0.562659
0.007694 0.007694 0.624286
0.008459 0.008459 0.686335
0.009229 0.009229 0.748772
0.010003 0.010003 0.811568
0.010640 0.010640 0.863272
0.010640 0.010640 0.863272
0.005663 0.051473 0.005663
0.006156 0.051966 0.045650
0.006808 0.052618 0.098573
0.007488 0.053299 0.153780
0.008187 0.053997 0.210469
0.008900 0.054710 0.268270
0.009623 0.055433 0.326964
0.010356 0.056166 0.386407
0.011096 0.056906 0.446496
0.011844 0.057654 0.507154
0.012598 0.058408 0.568321
0.013357 0.059167 0.629949
0.014122 0.059932 0.691998
0.014892 0.060702 0.754434
0.015666 0.061476 0.817231
0.016303 0.062113 0.868934
0.016303 0.062113 0.868934
0.012168 0.110607 0.012168
0.012661 0.111100 0.052156
0.013314 0.111752 0.105079
0.013994 0.112433 0.160285
0.014693 0.113131 0.216975
0.015405 0.113844 0.274776
0.016129 0.114567 0.333470
0.016861 0.115300 0.392913
0.017602 0.116040 0.453002
0.018349 0.116788 0.513660
0.019103 0.117542 0.574827
0.019863 0.118301 0.636455
0.020628 0.119066 0.698503
0.021397 0.119836 0.760940
0.022171 0.120610 0.823736
0.022808 0.121247 0.875440
0.022808 0.121247 0.875440
0.018935 0.172111 0.018935
0.019428 0.172604 0.058922
0.020080 0.173256 0.111845
0.020760 0.173936 0.167052
0.021459 0.174635 0.223741
0.022172 0.175348 0.281542
0.022895 0.176071 0.340236
0.023628 0.176804 0.399679
0.024368 0.177544 0.459768
0.025116 0.178292 0.520426
0.025870 0.179046 0.581593
0.026629 0.179805 0.643221
0.027394 0.180570 0.705270
0.028164 0.181340 0.767706
0.028938 0.182114 0.830503
0.029575 0.182751 0.882206
0.029575 0.182751 0.882206
0.025875 0.235194 0.025875
0.026368 0.235687 0.065862
0.027020 0.236339 0.118785
0.027700 0.237019 0.173992
0.028399 0.237718 0.230681
0.029112 0.238430 0.288482
0.029835 0.239154 0.347176
0.030568 0.239886 0.406619
0.031308 0.240627 0.466708
0.032056 0.241375 0.527366
0.032810 0.242129 0.588534
0.033569 0.242888 0.650161
0.034334 0.243653 0.712210
0.035104 0.244422 0.774646
0.035878 0.245196 0.837443
0.036515 0.245834 0.889146
0.036515 0.245834 0.889146
0.032947 0.299473 0.032947
0.033439 0.299966 0.072934
0.034092 0.300618 0.125857
0.034772 0.301299 0.181064
0.035471 0.301997 0.237753
0.036183 0.302710 0.295554
0.036907 0.303433 0.354248
0.037639 0.304166 0.413691
0.038380 0.304906 0.473780
0.039128 0.305654 0.534438
0.039882 0.306408 0.595605
0.040641 0.307168 0.657233
0.041406 0.307932 0.719282
0.042175 0.308702 0.781718
0.042949 0.309476 0.844514
0.043587 0.310113 0.896218
0.043587 0.310113 0.896218
0.040125 0.364720 0.040125
0.040618 0.365213 0.080112
0.041270 0.365866 0.133035
0.041950 0.366546 0.188242
0.042649 0.367245 0.244931
0.043362 0.367957 0.302732
0.044085 0.368680 0.361426
0.044818 0.369413 0.420869
0.045558 0.370154 0.480958
0.046306 0.370901 0.541616
0.047060 0.371655 0.602783
0.047819 0.372415 0.664411
0.048584 0.373180 0.726460
0.049354 0.373949 0.788896
0.050128 0.374723 0.851693
0.050765 0.375360 0.903396
0.050765 0.375360 0.903396
0.047393 0.430783 0.047393
0.047886 0.431276 0.087380
0.048538 0.431928 0.140303
0.049218 0.432608 0.195510
0.049917 0.433307 0.252199
0.050629 0.434019 0.310000
0.051353 0.434743 0.368694
0.052085 0.435476 0.428137
0.052826 0.436216 0.488226
0.053574 0.436964 0.548884
0.054328 0.437718 0.610051
0.055087 0.438477 0.671679
0.055852 0.439242 0.733728
0.056621 0.440012 0.796164
0.057395 0.440786 0.858960
0.058033 0.441423 0.910664
0.058033 0.441423 0.910664
0.054738 0.497550 0.054738
0.055231 0.498043 0.094725
0.055883 0.498696 0.147648
0.056564 0.499376 0.202855
0.057262 0.500075 0.259545
0.057975 0.500787 0.317345
0.058698 0.501510 0.376039
0.059431 0.502243 0.435482
0.060172 0.502984 0.495571
0.060919 0.503731 0.556230
0.061673 0.504485 0.617397
0.062433 0.505245 0.679024
0.063197 0.506010 0.741073
0.063967 0.506779 0.803510
0.064741 0.507553 0.866306
0.065378 0.508190 0.918010
0.065378 0.508190 0.918010
0.062152 0.564940 0.062152
0.062645 0.565433 0.102139
0.063297 0.566085 0.155062
0.063978 0.566766 0.210269
0.064676 0.567465 0.266959
0.065389 0.568177 0.324759
0.066112 0.568900 0.383453
0.066845 0.569633 0.442896
0.067585 0.570374 0.502985
0.068333 0.571121 0.563644
0.069087 0.571875 0.624811
0.069847 0.572635 0.686438
0.070611 0.573399 0.748487
0.071381 0.574169 0.810924
0.072155 0.574943 0.873720
0.072792 0.575580 0.925424
0.072792 0.575580 0.925424
0.069627 0.632888 0.069627
0.070120 0.633380 0.109615
0.070772 0.634033 0.162538
0.071453 0.634713 0.217744
0.072152 0.635412 0.274434
0.072864 0.636124 0.332234
0.073587 0.636848 0.390928
0.074320 0.637580 0.450371
0.075061 0.638321 0.510461
0.075808 0.639069 0.571119
0.076562 0.639823 0.632286
0.077322 0.640582 0.693914
0.078087 0.641347 0.755962
0.078856 0.642116 0.818399
0.079630 0.642890 0.881195
0.080267 0.643528 0.932899
0.080267 0.643528 0.932899
0.077158 0.701340 0.077158
0.077651 0.701833 0.117145
0.078303 0.702485 0.170068
0.078984 0.703166 0.225275
0.079682 0.703864 0.281965
0.080395 0.704577 0.339765
0.081118 0.705300 0.398459
0.081851 0.706033 0.457902
0.082592 0.706774 0.517991
0.083339 0.707521 0.578650
0.084093 0.708275 0.639817
0.084853 0.709035 0.701444
0.085617 0.709799 0.763493
0.086387 0.710569 0.825930
0.087161 0.711343 0.888726
0.087798 0.711980 0.940430
0.087798 0.711980 0.940430
0.084740 0.770255 0.084740
0.085233 0.770748 0.124727
0.085885 0.771400 0.177650
0.086565 0.772081 0.232857
0.087264 0.772779 0.289546
0.087977 0.773492 0.347347
0.088700 0.774215 0.406041
0.089433 0.774948 0.465484
0.090173 0.775688 0.525573
0.090921 0.776436 0.586231
0.091675 0.777190 0.647398
0.092434 0.777950 0.709026
0.093199 0.778714 0.771075
0.093969 0.779484 0.833511
0.094743 0.780258 0.896308
0.095380 0.780895 0.948011
0.095380 0.780895 0.948011
0.092368 0.839596 0.092368
0.092861 0.840089 0.132356
0.093514 0.840741 0.185279
0.094194 0.841422 0.240485
0.094893 0.842120 0.297175
0.095605 0.842833 0.354976
0.096329 0.843556 0.413670
0.097061 0.844289 0.473113
0.097802 0.845030 0.533202
0.098549 0.845777 0.593860
0.099303 0.846531 0.655027
0.100063 0.847291 0.716655
0.100828 0.848055 0.778703
0.101597 0.848825 0.841140
0.102371 0.849599 0.903936
0.103008 0.850236 0.955640
0.103008 0.850236 0.955640
0.100041 0.909333 0.100041
0.100533 0.909826 0.140028
0.101186 0.910478 0.192951
0.101866 0.911159 0.248157
0.102565 0.911857 0.304847
0.103277 0.912570 0.362648
0.104001 0.913293 0.421342
0.104733 0.914026 0.480785
0.105474 0.914766 0.540874
0.106222 0.915514 0.601532
0.106975 0.916268 0.662699
0.107735 0.917027 0.724327
0.108500 0.917792 0.786376
0.109269 0.918562 0.848812
0.110043 0.919336 0.911608
0.110681 0.919973 0.963312
0.110681 0.919973 0.963312
0.105398 0.958029 0.105398
0.105891 0.958522 0.145385
0.106543 0.959175 0.198308
0.107223 0.959855 0.253515
0.107922 0.960554 0.310204
0.108635 0.961266 0.368005
0.109358 0.961990 0.426699
0.110091 0.962722 0.486142
0.110831 0.963463 0.546231
0.111579 0.964210 0.606889
0.112333 0.964964 0.668056
0.113092 0.965724 0.729684
0.113857 0.966489 0.791733
0.114627 0.967258 0.854169
0.115401 0.968032 0.916966
0.116038 0.968669 0.968669
0.116038 0.968669 0.968669
0.003584 0.000127 0.000127
0.004077 0.000620 0.040114
0.004729 0.001272 0.093037
0.005410 0.001953 0.148244
0.006108 0.002651 0.204933
0.006821 0.003364 0.262734
0.007544 0.004087 0.321428
0.008277 0.004820 0.380871
0.009017 0.005560 0.440960
0.009765 0.006308 0.501619
0.010519 0.007062 0.562786
0.011278 0.007821 0.624413
0.012043 0.008586 0.686462
0.012813 0.009356 0.748899
0.013587 0.010130 0.811695
0.014224 0.010767 0.863399
0.014224 0.010767 0.863399
0.003584 0.000127 0.000127
0.004077 0.000620 0.040114
0.004729 0.001272 0.093037
0.005410 0.001953 0.148244
0.006108 0.002651 0.204933
0.006821 0.003364 0.262734
0.007544 0.004087 0.321428
0.008277 0.004820 0.380871
0.009017 0.005560 0.440960
0.009765 0.006308 0.501619
0.010519 0.007062 0.562786
0.011278 0.007821 0.624413
0.012043 0.008586 0.686462
0.012813 0.009356 0.748899
0.013587 0.010130 0.811695
0.014224 0.010767 0.863399
0.014224 0.010767 0.863399
0.009247 0.051600 0.005790
0.009740 0.052093 0.045777
0.010392 0.052745 0.098700
0.011072 0.053426 0.153907
0.011771 0.054124 0.210596
0.012483 0.054837 0.268397
0.013207 0.055560 0.327091
0.013940 0.056293 0.386534
0.014680 0.057033 0.446623
0.015428 0.057781 0.507281
0.016182 0.058535 0.568448
0.016941 0.059294 0.630076
0.017706 0.060059 0.692125
0.018476 0.060829 0.754561
0.019250 0.061603 0.817358
0.019887 0.062240 0.869061
0.019887 0.062240 0.869061
0.015752 0.110734 0.012295
0.016245 0.111227 0.052283
0.016898 0.111879 0.105206
0.017578 0.112560 0.160412
0.018277 0.113258 0.217102
0.018989 0.113971 0.274903
0.019713 0.114694 0.333597
0.020445 0.115427 0.393040
0.021186 0.116167 0.453129
0.021933 0.116915 0.513787
0.022687 0.117669 0.574954
0.023447 0.118429 0.636582
0.024212 0.119193 0.698630
0.024981 0.119963 0.761067
0.025755 0.120737 0.823863
0.026392 0.121374 0.875567
0.026392 0.121374 0.875567
0.022519 0.172238 0.019062
0.023012 0.172731 0.059049
0.023664 0.173383 0.111972
0.024344 0.174063 0.167179
0.025043 0.174762 0.223868
0.025756 0.175475 0.281669
0.026479 0.176198 0.340363
0.027212 0.176931 0.399806
0.027952 0.177671 0.459895
0.028700 0.178419 0.520553
0.029454 0.179173 0.581720
0.030213 0.179932 0.643348
0.030978 0.180697 0.705397
0.031748 0.181467 0.767833
0.032522 0.182241 0.830630
0.033159 0.182878 0.882333
0.033159 0.182878 0.882333
0.029459 0.235321 0.026002
0.029952 0.235814 0.065989
0.030604 0.236466 0.118912
0.031284 0.237146 0.174119
0.031983 0.237845 0.230808
0.032696 0.238557 0.288609
0.033419 0.239281 0.347303
0.034152 0.240013 0.406746
0.034892 0.240754 0.466835
0.035640 0.241502 0.527493
0.036394 0.242256 0.588661
0.037153 0.243015 0.650288
0.037918 0.243780 0.712337
0.038688 0.244549 0.774773
0.039462 0.245323 0.837570
0.040099 0.245961 0.889274
0.040099 0.245961 0.889274
0.036531 0.299600 0.033074
0.037023 0.300093 0.073061
0.037676 0.300745 0.125984
0.038356 0.301426 0.181191
0.039055 0.302124 0.237880
0.039767 0.302837 0.295681
0.040491 0.303560 0.354375
0.041223 0.304293 0.413818
0.041964 0.305033 0.473907
0.042712 0.305781 0.534565
0.043465 0.306535 0.595732
0.044225 0.307295 0.657360
0.044990 0.308059 0.719409
0.045759 0.308829 0.781845
0.046533 0.309603 0.844641
0.047171 0.310240 0.896345
0.047171 0.310240 0.896345
0.043709 0.364847 0.040252
0.044202 0.365340 0.080239
0.044854 0.365993 0.133162
0.045534 0.366673 0.188369
0.046233 0.367372 0.245058
0.046945 0.368084 0.302859
0.047669 0.368808 0.361553
0.048402 0.369540 0.420996
0.049142 0.370281 0.481085
0.049890 0.371028 0.541743
0.050644 0.371782 0.602910
0.051403 0.372542 0.664538
0.052168 0.373307 0.726587
0.052938 0.374076 0.789023
0.053712 0.374850 0.851820
0.054349 0.375487 0.903523
0.054349 0.375487 0.903523
0.050977 0.430910 0.047520
0.051470 0.431403 0.087507
0.052122 0.432055 0.140430
0.052802 0.432735 0.195637
0.053501 0.433434 0.252326
0.054213 0.434146 0.310127
0.054937 0.434870 0.368821
0.055669 0.435603 0.428264
0.056410 0.436343 0.488353
0.057158 0.437091 0.549011
0.057912 0.437845 0.610178
0.058671 0.438604 0.671806
0.059436 0.439369 0.733855
0.060205 0.440139 0.796291
0.060979 0.440913 0.859088
0.061617 0.441550 0.910791
0.061617 0.441550 0.910791
0.058322 0.497677 0.054865
0.058815 0.498170 0.094852
0.059467 0.498823 0.147775
0.060148 0.499503 0.202982
0.060846 0.500202 0.259672
0.061559 0.500914 0.317472
0.062282 0.501637 0.376166
0.063015 0.502370 0.435609
0.063755 0.503111 0.495698
0.064503 0.503858 0.556357
0.065257 0.504612 0.617524
0.066017 0.505372 0.679151
0.066781 0.506137 0.741200
0.067551 0.506906 0.803637
0.068325 0.507680 0.866433
0.068962 0.508317 0.918137
0.068962 0.508317 0.918137
0.065736 0.565067 0.062279
0.066229 0.565560 0.102266
0.066881 0.566212 0.155189
0.067562 0.566893 0.210396
0.068260 0.567592 0.267086
0.068973 0.568304 0.324886
0.069696 0.569027 0.383580
0.070429 0.569760 0.443023
0.071169 0.570501 0.503112
0.071917 0.571248 0.563771
0.072671 0.572002 0.624938
0.073431 0.572762 0.686565
0.074195 0.573527 0.748614
0.074965 0.574296 0.811051
0.075739 0.575070 0.873847
0.076376 0.575707 0.925551
0.076376 0.575707 0.925551
0.073211 0.633015 0.069754
0.073704 0.633508 0.109742
0.074356 0.634160 0.162665
0.075037 0.634840 0.217871
0.075736 0.635539 0.274561
0.076448 0.636251 0.332361
0.077171 0.636975 0.391055
0.077904 0.637707 0.450498
0.078645 0.638448 0.510588
0.079392 0.639196 0.571246
0.080146 0.639950 0.632413
0.080906 0.640709 0.694041
0.081671 0.641474 0.756089
0.082440 0.642243 0.818526
0.083214 0.643017 0.881322
0.083851 0.643655 0.933026
0.083851 0.643655 0.933026
0.080742 0.701467 0.077285
0.081235 0.701960 0.117272
0.081887 0.702612 0.170195
0.082568 0.703293 0.225402
0.083266 0.703992 0.282092
0.083979 0.704704 0.339892
0.084702 0.705427 0.398586
0.085435 0.706160 0.458029
0.086175 0.706901 0.518118
0.086923 0.707648 0.578777
0.087677 0.708402 0.639944
0.088437 0.709162 0.701571
0.089201 0.709926 0.763620
0.089971 0.710696 0.826057
0.090745 0.711470 0.888853
0.091382 0.712107 0.940557
0.091382 0.712107 0.940557
0.088324 0.770382 0.084867
0.088817 0.770875 0.124854
0.089469 0.771527 0.177777
0.090149 0.772208 0.232984
0.090848 0.772906 0.289673
0.091561 0.773619 0.347474
0.092284 0.774342 0.406168
0.093017 0.775075 0.465611
0.093757 0.775815 0.525700
0.094505 0.776563 0.586358
0.095259 0.777317 0.647525
0.096018 0.778077 0.709153
0.096783 0.778841 0.771202
0.097553 0.779611 0.833638
0.098327 0.780385 0.896435
0.098964 0.781022 0.948138
0.098964 0.781022 0.948138
0.095952 0.839723 0.092495
0.096445 0.840216 0.132483
0.097098 0.840868 0.185406
0.097778 0.841549 0.240612
0.098477 0.842248 0.297302
0.099189 0.842960 0.355103
0.099913 0.843683 0.413797
0.100645 0.844416 0.473240
0.101386 0.845157 0.533329
0.102133 0.845904 0.593987
0.102887 0.846658 0.655154
0.103647 0.847418 0.716782
0.104412 0.848182 0.778830
0.105181 0.848952 0.841267
0.105955 0.849726 0.904063
0.106592 0.850363 0.955767
0.106592 0.850363 0.955767
0.103625 0.909460 0.100168
0.104117 0.909953 0.140155
0.104770 0.910605 0.193078
0.105450 0.911286 0.248284
0.106149 0.911984 0.304974
0.106861 0.912697 0.362775
0.107585 0.913420 0.421469
0.108317 0.914153 0.480912
0.109058 0.914893 0.541001
0.109806 0.915641 0.601659
0.110559 0.916395 0.662826
0.111319 0.917154 0.724454
0.112084 0.917919 0.786503
0.112853 0.918689 0.848939
0.113627 0.919463 0.911735
0.114265 0.920100 0.963439
0.114265 0.920100 0.963439
0.108982 0.958157 0.105525
0.109475 0.958649 0.145512
0.110127 0.959302 0.198435
0.110807 0.959982 0.253642
0.111506 0.960681 0.310331
0.112219 0.961393 0.368132
0.112942 0.962117 0.426826
0.113675 0.962849 0.486269
0.114415 0.963590 0.546358
0.115163 0.964337 0.607016
0.115917 0.965091 0.668184
0.116676 0.965851 0.729811
0.117441 0.966616 0.791860
0.118211 0.967385 0.854296
0.118985 0.968159 0.917093
0.119622 0.968797 0.968797
0.119622 0.968797 0.968797
0.054104 0.001918 0.001918
0.054597 0.002410 0.041905
0.055249 0.003063 0.094828
0.055930 0.003743 0.150035
0.056628 0.004442 0.206724
0.057341 0.005154 0.264525
0.058064 0.005878 0.323219
0.058797 0.006610 0.382662
0.059538 0.007351 0.442751
0.060285 0.008099 0.503409
0.061039 0.008853 0.564576
0.061799 0.009612 0.626204
0.062563 0.010377 0.688253
0.063333 0.011146 0.750689
0.064107 0.011920 0.813485
0.064744 0.012558 0.865189
0.064744 0.012558 0.865189
0.054104 0.001918 0.001918
