skills/creativeops-producer-ios/assets/grade/luts/night_blue_v14.cube
TITLE "night_blue_v14"
LUT_3D_SIZE 5
DOMAIN_MIN 0.0 0.0 0.0
DOMAIN_MAX 1.0 1.0 1.0
0.000000 0.000000 0.000000
0.002322 0.002322 0.186839
0.005156 0.005156 0.414883
0.008114 0.008114 0.652884
0.010716 0.010716 0.862295
0.016440 0.148323 0.016440
0.018761 0.150645 0.203278
0.021595 0.153479 0.431322
0.024553 0.156437 0.669324
0.027156 0.159039 0.878734
0.044079 0.397698 0.044079
0.046401 0.400020 0.230918
0.049235 0.402854 0.458962
0.052193 0.405812 0.696963
0.054795 0.408414 0.906374
0.073132 0.659819 0.073132
0.075453 0.662141 0.259970
0.078287 0.664975 0.488014
0.081245 0.667932 0.726016
0.083848 0.670535 0.935426
0.103065 0.929893 0.103065
0.105387 0.932214 0.289904
0.108221 0.935048 0.517948
0.111179 0.938006 0.755950
0.113781 0.940609 0.965360
0.083754 0.002993 0.002993
0.086076 0.005314 0.189831
0.088910 0.008148 0.417875
0.091867 0.011106 0.655877
0.094470 0.013709 0.865287
0.100193 0.151316 0.019432
0.102515 0.153638 0.206271
0.105349 0.156472 0.434315
0.108307 0.159430 0.672316
0.110909 0.162032 0.881727
0.127833 0.400690 0.047072
0.130155 0.403012 0.233911
0.132989 0.405846 0.461954
0.135947 0.408804 0.699956
0.138549 0.411406 0.909367
0.156885 0.662811 0.076124
0.159207 0.665133 0.262963
0.162041 0.667967 0.491007
0.164999 0.670925 0.729008
0.167601 0.673527 0.938419
0.186819 0.932885 0.106058
0.189141 0.935207 0.292897
0.191975 0.938041 0.520941
0.194933 0.940999 0.758942
0.197535 0.943601 0.968353
0.309197 0.011048 0.011048
0.311519 0.013369 0.197886
0.314353 0.016203 0.425930
0.317310 0.019161 0.663932
0.319913 0.021764 0.873343
0.325636 0.159371 0.027487
0.327958 0.161693 0.214326
0.330792 0.164527 0.442370
0.333750 0.167485 0.680371
0.336352 0.170087 0.889782
0.353276 0.408746 0.055127
0.355598 0.411067 0.241966
0.358432 0.413901 0.470009
0.361389 0.416859 0.708011
0.363992 0.419462 0.917422
0.382328 0.670866 0.084179
0.384650 0.673188 0.271018
0.387484 0.676022 0.499062
0.390442 0.678980 0.737063
0.393044 0.681582 0.946474
0.412262 0.940940 0.114113
0.414584 0.943262 0.300952
0.417418 0.946096 0.528996
0.420376 0.949054 0.766997
0.422978 0.951656 0.976408
0.548619 0.019602 0.019602
0.550941 0.021924 0.206441
0.553775 0.024758 0.434485
0.556733 0.027716 0.672486
0.559335 0.030318 0.881897
0.565059 0.167926 0.036042
0.567380 0.170247 0.222881
0.570214 0.173081 0.450924
0.573172 0.176039 0.688926
0.575775 0.178642 0.898337
0.592698 0.417300 0.063681
0.595020 0.419622 0.250520
0.597854 0.422456 0.478564
0.600812 0.425414 0.716565
0.603414 0.428016 0.925976
0.621751 0.679421 0.092734
0.624072 0.681743 0.279573
0.626906 0.684577 0.507616
0.629864 0.687534 0.745618
0.632467 0.690137 0.955029
0.651684 0.949495 0.122668
0.654006 0.951817 0.309506
0.656840 0.954651 0.537550
0.659798 0.957608 0.775552
0.662400 0.960211 0.984962
0.796093 0.028444 0.028444
0.798415 0.030766 0.215283
0.801249 0.033600 0.443327
0.804206 0.036558 0.681329
0.806809 0.039160 0.890739
0.812532 0.176768 0.044884
0.814854 0.179090 0.231723
0.817688 0.181924 0.459767
0.820646 0.184881 0.697768
0.823248 0.187484 0.907179
0.840172 0.426142 0.072524
0.842494 0.428464 0.259362
0.845328 0.431298 0.487406
0.848286 0.434256 0.725408
0.850888 0.436858 0.934818
0.869224 0.688263 0.101576
0.871546 0.690585 0.288415
0.874380 0.693419 0.516459
0.877338 0.696377 0.754460
0.879940 0.698979 0.963871
0.899158 0.958337 0.131510
0.901480 0.960659 0.318349
0.904314 0.963493 0.546392
0.907272 0.966451 0.784394
0.909874 0.969053 0.993805
