skills/creativeops-producer-ios/assets/grade/luts/night_blue_v14.cube
TITLE "night_blue_v14"
LUT_3D_SIZE 9
DOMAIN_MIN 0.0 0.0 0.0
DOMAIN_MAX 1.0 1.0 1.0
0.000000 0.000000 0.000000
0.000986 0.000986 0.079372
0.002322 0.002322 0.186839
0.003719 0.003719 0.299255
0.005156 0.005156 0.414883
0.006623 0.006623 0.532916
0.008114 0.008114 0.652884
0.009625 0.009625 0.774475
0.010716 0.010716 0.862295
0.003714 0.033513 0.003714
0.004701 0.034499 0.083087
0.006036 0.035835 0.190553
0.007433 0.037232 0.302970
0.008870 0.038669 0.418597
0.010337 0.040136 0.536630
0.011828 0.041626 0.656599
0.013339 0.043137 0.778190
0.014430 0.044229 0.866009
0.016440 0.148323 0.016440
0.017426 0.149310 0.095812
0.018761 0.150645 0.203278
0.020158 0.152042 0.315695
0.021595 0.153479 0.431322
0.023062 0.154946 0.549356
0.024553 0.156437 0.669324
0.026064 0.157948 0.790915
0.027156 0.159039 0.878734
0.030022 0.270866 0.030022
0.031008 0.271853 0.109394
0.032344 0.273188 0.216861
0.033741 0.274585 0.329277
0.035178 0.276022 0.444904
0.036644 0.277489 0.562938
0.038135 0.278980 0.682906
0.039646 0.280491 0.804497
0.040738 0.281582 0.892317
0.044079 0.397698 0.044079
0.045066 0.398684 0.123451
0.046401 0.400020 0.230918
0.047798 0.401417 0.343335
0.049235 0.402854 0.458962
0.050702 0.404321 0.576995
0.052193 0.405812 0.696963
0.053704 0.407323 0.818554
0.054795 0.408414 0.906374
0.058474 0.527571 0.058474
0.059460 0.528557 0.137846
0.060796 0.529893 0.245313
0.062193 0.531290 0.357729
0.063630 0.532727 0.473356
0.065096 0.534194 0.591390
0.066587 0.535684 0.711358
0.068098 0.537196 0.832949
0.069190 0.538287 0.920769
0.073132 0.659819 0.073132
0.074118 0.660805 0.152504
0.075453 0.662141 0.259970
0.076850 0.663538 0.372387
0.078287 0.664975 0.488014
0.079754 0.666441 0.606048
0.081245 0.667932 0.726016
0.082756 0.669443 0.847607
0.083848 0.670535 0.935426
0.088006 0.794022 0.088006
0.088992 0.795009 0.167378
0.090328 0.796344 0.274845
0.091725 0.797741 0.387262
0.093162 0.799178 0.502889
0.094629 0.800645 0.620922
0.096120 0.802136 0.740890
0.097631 0.803647 0.862481
0.098722 0.804738 0.950301
0.103065 0.929893 0.103065
0.104052 0.930879 0.182438
0.105387 0.932214 0.289904
0.106784 0.933611 0.402321
0.108221 0.935048 0.517948
0.109688 0.936515 0.635981
0.111179 0.938006 0.755950
0.112690 0.939517 0.877541
0.113781 0.940609 0.965360
0.000000 0.000000 0.000000
0.000986 0.000986 0.079372
0.002322 0.002322 0.186839
0.003719 0.003719 0.299255
0.005156 0.005156 0.414883
0.006623 0.006623 0.532916
0.008114 0.008114 0.652884
0.009625 0.009625 0.774475
0.010716 0.010716 0.862295
0.003714 0.033513 0.003714
0.004701 0.034499 0.083087
0.006036 0.035835 0.190553
0.007433 0.037232 0.302970
0.008870 0.038669 0.418597
0.010337 0.040136 0.536630
0.011828 0.041626 0.656599
0.013339 0.043137 0.778190
0.014430 0.044229 0.866009
0.016440 0.148323 0.016440
0.017426 0.149310 0.095812
0.018761 0.150645 0.203278
0.020158 0.152042 0.315695
0.021595 0.153479 0.431322
0.023062 0.154946 0.549356
0.024553 0.156437 0.669324
0.026064 0.157948 0.790915
0.027156 0.159039 0.878734
0.030022 0.270866 0.030022
0.031008 0.271853 0.109394
0.032344 0.273188 0.216861
0.033741 0.274585 0.329277
0.035178 0.276022 0.444904
0.036644 0.277489 0.562938
0.038135 0.278980 0.682906
0.039646 0.280491 0.804497
0.040738 0.281582 0.892317
0.044079 0.397698 0.044079
0.045066 0.398684 0.123451
0.046401 0.400020 0.230918
0.047798 0.401417 0.343335
0.049235 0.402854 0.458962
0.050702 0.404321 0.576995
0.052193 0.405812 0.696963
0.053704 0.407323 0.818554
0.054795 0.408414 0.906374
0.058474 0.527571 0.058474
0.059460 0.528557 0.137846
0.060796 0.529893 0.245313
0.062193 0.531290 0.357729
0.063630 0.532727 0.473356
0.065096 0.534194 0.591390
0.066587 0.535684 0.711358
0.068098 0.537196 0.832949
0.069190 0.538287 0.920769
0.073132 0.659819 0.073132
0.074118 0.660805 0.152504
0.075453 0.662141 0.259970
0.076850 0.663538 0.372387
0.078287 0.664975 0.488014
0.079754 0.666441 0.606048
0.081245 0.667932 0.726016
0.082756 0.669443 0.847607
0.083848 0.670535 0.935426
0.088006 0.794022 0.088006
0.088992 0.795009 0.167378
0.090328 0.796344 0.274845
0.091725 0.797741 0.387262
0.093162 0.799178 0.502889
0.094629 0.800645 0.620922
0.096120 0.802136 0.740890
0.097631 0.803647 0.862481
0.098722 0.804738 0.950301
0.103065 0.929893 0.103065
0.104052 0.930879 0.182438
0.105387 0.932214 0.289904
0.106784 0.933611 0.402321
0.108221 0.935048 0.517948
0.109688 0.936515 0.635981
0.111179 0.938006 0.755950
0.112690 0.939517 0.877541
0.113781 0.940609 0.965360
0.083754 0.002993 0.002993
0.084740 0.003979 0.082365
0.086076 0.005314 0.189831
0.087473 0.006711 0.302248
0.088910 0.008148 0.417875
0.090377 0.009615 0.535909
0.091867 0.011106 0.655877
0.093378 0.012617 0.777468
0.094470 0.013709 0.865287
0.087468 0.036505 0.006707
0.088455 0.037492 0.086079
0.089790 0.038827 0.193546
0.091187 0.040224 0.305962
0.092624 0.041661 0.421590
0.094091 0.043128 0.539623
0.095582 0.044619 0.659591
0.097093 0.046130 0.781182
0.098184 0.047221 0.869002
0.100193 0.151316 0.019432
0.101180 0.152302 0.098804
0.102515 0.153638 0.206271
0.103912 0.155035 0.318688
0.105349 0.156472 0.434315
0.106816 0.157939 0.552348
0.108307 0.159430 0.672316
0.109818 0.160941 0.793907
0.110909 0.162032 0.881727
0.113775 0.273859 0.033014
0.114762 0.274845 0.112386
0.116097 0.276181 0.219853
0.117494 0.277578 0.332270
0.118931 0.279015 0.447897
0.120398 0.280482 0.565930
0.121889 0.281972 0.685898
0.123400 0.283484 0.807489
0.124491 0.284575 0.895309
0.127833 0.400690 0.047072
0.128819 0.401677 0.126444
0.130155 0.403012 0.233911
0.131552 0.404409 0.346327
0.132989 0.405846 0.461954
0.134456 0.407313 0.579988
0.135947 0.408804 0.699956
0.137458 0.410315 0.821547
0.138549 0.411406 0.909367
0.142228 0.530563 0.061466
0.143214 0.531550 0.140838
0.144549 0.532885 0.248305
0.145946 0.534282 0.360722
0.147383 0.535719 0.476349
0.148850 0.537186 0.594382
0.150341 0.538677 0.714350
0.151852 0.540188 0.835941
0.152944 0.541279 0.923761
0.156885 0.662811 0.076124
0.157872 0.663798 0.155496
0.159207 0.665133 0.262963
0.160604 0.666530 0.375380
0.162041 0.667967 0.491007
0.163508 0.669434 0.609040
0.164999 0.670925 0.729008
0.166510 0.672436 0.850599
0.167601 0.673527 0.938419
0.171760 0.797015 0.090999
0.172746 0.798001 0.170371
0.174082 0.799337 0.277837
0.175479 0.800734 0.390254
0.176916 0.802171 0.505881
0.178383 0.803637 0.623915
0.179873 0.805128 0.743883
0.181385 0.806639 0.865474
0.182476 0.807731 0.953294
0.186819 0.932885 0.106058
0.187806 0.933871 0.185430
0.189141 0.935207 0.292897
0.190538 0.936604 0.405313
0.191975 0.938041 0.520941
0.193442 0.939508 0.638974
0.194933 0.940999 0.758942
0.196444 0.942510 0.880533
0.197535 0.943601 0.968353
0.193973 0.006931 0.006931
0.194960 0.007917 0.086303
0.196295 0.009253 0.193770
0.197692 0.010650 0.306186
0.199129 0.012087 0.421813
0.200596 0.013553 0.539847
0.202087 0.015044 0.659815
0.203598 0.016555 0.781406
0.204689 0.017647 0.869226
0.197688 0.040443 0.010645
0.198674 0.041430 0.090017
0.200010 0.042765 0.197484
0.201407 0.044162 0.309901
0.202844 0.045599 0.425528
0.204310 0.047066 0.543561
0.205801 0.048557 0.663529
0.207312 0.050068 0.785120
0.208404 0.051159 0.872940
0.210413 0.155254 0.023370
0.211399 0.156240 0.102742
0.212735 0.157576 0.210209
0.214132 0.158973 0.322626
0.215569 0.160410 0.438253
0.217035 0.161877 0.556286
0.218526 0.163368 0.676254
0.220037 0.164879 0.797845
0.221129 0.165970 0.885665
0.223995 0.277797 0.036952
0.224981 0.278783 0.116325
0.226317 0.280119 0.223791
0.227714 0.281516 0.336208
0.229151 0.282953 0.451835
0.230618 0.284420 0.569868
0.232108 0.285911 0.689837
0.233620 0.287422 0.811428
0.234711 0.288513 0.899247
0.238052 0.404629 0.051010
0.239039 0.405615 0.130382
0.240374 0.406950 0.237849
0.241771 0.408348 0.350265
0.243208 0.409784 0.465893
0.244675 0.411251 0.583926
0.246166 0.412742 0.703894
0.247677 0.414253 0.825485
0.248768 0.415345 0.913305
0.252447 0.534502 0.065404
0.253433 0.535488 0.144777
0.254769 0.536823 0.252243
0.256166 0.538220 0.364660
0.257603 0.539657 0.480287
0.259070 0.541124 0.598320
0.260561 0.542615 0.718289
0.262072 0.544126 0.839880
0.263163 0.545218 0.927699
0.267105 0.666749 0.080062
0.268091 0.667736 0.159434
0.269427 0.669071 0.266901
0.270824 0.670468 0.379318
0.272261 0.671905 0.494945
0.273727 0.673372 0.612978
0.275218 0.674863 0.732946
0.276729 0.676374 0.854537
0.277821 0.677465 0.942357
0.281979 0.800953 0.094937
0.282966 0.801939 0.174309
0.284301 0.803275 0.281776
0.285698 0.804672 0.394192
0.287135 0.806109 0.509819
0.288602 0.807576 0.627853
0.290093 0.809066 0.747821
0.291604 0.810578 0.869412
0.292695 0.811669 0.957232
0.297039 0.936823 0.109996
0.298025 0.937810 0.189368
0.299361 0.939145 0.296835
0.300758 0.940542 0.409252
0.302194 0.941979 0.524879
0.303661 0.943446 0.642912
0.305152 0.944937 0.762880
0.306663 0.946448 0.884471
0.307755 0.947539 0.972291
0.309197 0.011048 0.011048
0.310183 0.012034 0.090420
0.311519 0.013369 0.197886
0.312916 0.014767 0.310303
0.314353 0.016203 0.425930
0.315819 0.017670 0.543964
0.317310 0.019161 0.663932
0.318821 0.020672 0.785523
0.319913 0.021764 0.873343
0.312911 0.044560 0.014762
0.313898 0.045547 0.094134
0.315233 0.046882 0.201601
0.316630 0.048279 0.314017
0.318067 0.049716 0.429645
0.319534 0.051183 0.547678
0.321025 0.052674 0.667646
0.322536 0.054185 0.789237
0.323627 0.055276 0.877057
0.325636 0.159371 0.027487
0.326623 0.160357 0.106859
0.327958 0.161693 0.214326
0.329355 0.163090 0.326743
0.330792 0.164527 0.442370
0.332259 0.165994 0.560403
0.333750 0.167485 0.680371
0.335261 0.168996 0.801962
0.336352 0.170087 0.889782
0.339218 0.281914 0.041069
0.340205 0.282900 0.120441
0.341540 0.284236 0.227908
0.342937 0.285633 0.340325
0.344374 0.287070 0.455952
0.345841 0.288537 0.573985
0.347332 0.290028 0.693953
0.348843 0.291539 0.815544
0.349934 0.292630 0.903364
0.353276 0.408746 0.055127
0.354262 0.409732 0.134499
0.355598 0.411067 0.241966
0.356995 0.412464 0.354382
0.358432 0.413901 0.470009
0.359899 0.415368 0.588043
0.361389 0.416859 0.708011
0.362901 0.418370 0.829602
0.363992 0.419462 0.917422
0.367670 0.538618 0.069521
0.368657 0.539605 0.148894
0.369992 0.540940 0.256360
0.371389 0.542337 0.368777
0.372826 0.543774 0.484404
0.374293 0.545241 0.602437
0.375784 0.546732 0.722406
0.377295 0.548243 0.843997
0.378386 0.549334 0.931816
0.382328 0.670866 0.084179
0.383315 0.671853 0.163551
0.384650 0.673188 0.271018
0.386047 0.674585 0.383435
0.387484 0.676022 0.499062
0.388951 0.677489 0.617095
0.390442 0.678980 0.737063
0.391953 0.680491 0.858654
0.393044 0.681582 0.946474
0.397203 0.805070 0.099054
0.398189 0.806056 0.178426
0.399525 0.807392 0.285893
0.400922 0.808789 0.398309
0.402359 0.810226 0.513936
0.403826 0.811693 0.631970
0.405316 0.813183 0.751938
0.406827 0.814694 0.873529
0.407919 0.815786 0.961349
0.412262 0.940940 0.114113
0.413248 0.941927 0.193485
0.414584 0.943262 0.300952
0.415981 0.944659 0.413368
0.417418 0.946096 0.528996
0.418885 0.947563 0.647029
0.420376 0.949054 0.766997
0.421887 0.950565 0.888588
0.422978 0.951656 0.976408
0.427683 0.015281 0.015281
0.428669 0.016267 0.094653
0.430005 0.017603 0.202120
0.431402 0.019000 0.314537
0.432839 0.020437 0.430164
0.434305 0.021904 0.548197
0.435796 0.023395 0.668165
0.437307 0.024906 0.789756
0.438399 0.025997 0.877576
0.431397 0.048794 0.018996
0.432383 0.049780 0.098368
0.433719 0.051116 0.205834
0.435116 0.052513 0.318251
0.436553 0.053950 0.433878
0.438020 0.055417 0.551912
0.439511 0.056908 0.671880
0.441022 0.058419 0.793471
0.442113 0.059510 0.881290
0.444122 0.163605 0.031721
0.445109 0.164591 0.111093
0.446444 0.165926 0.218560
0.447841 0.167323 0.330976
0.449278 0.168760 0.446603
0.450745 0.170227 0.564637
0.452236 0.171718 0.684605
0.453747 0.173229 0.806196
0.454838 0.174321 0.894016
0.457704 0.286147 0.045303
0.458691 0.287134 0.124675
0.460026 0.288469 0.232142
0.461423 0.289866 0.344558
0.462860 0.291303 0.460185
0.464327 0.292770 0.578219
0.465818 0.294261 0.698187
0.467329 0.295772 0.819778
0.468420 0.296863 0.907598
0.471762 0.412979 0.059360
0.472748 0.413965 0.138732
0.474084 0.415301 0.246199
0.475481 0.416698 0.358616
0.476918 0.418135 0.474243
0.478385 0.419602 0.592276
0.479875 0.421093 0.712244
0.481386 0.422604 0.833835
0.482478 0.423695 0.921655
0.486156 0.542852 0.073755
0.487143 0.543838 0.153127
0.488478 0.545174 0.260594
0.489875 0.546571 0.373010
0.491312 0.548008 0.488638
0.492779 0.549475 0.606671
0.494270 0.550966 0.726639
0.495781 0.552477 0.848230
0.496872 0.553568 0.936050
0.500814 0.675100 0.088413
0.501801 0.676086 0.167785
0.503136 0.677422 0.275251
0.504533 0.678819 0.387668
0.505970 0.680256 0.503295
0.507437 0.681722 0.621329
0.508928 0.683213 0.741297
0.510439 0.684724 0.862888
0.511530 0.685816 0.950708
0.515689 0.809303 0.103287
0.516675 0.810290 0.182659
0.518011 0.811625 0.290126
0.519408 0.813022 0.402543
0.520845 0.814459 0.518170
0.522311 0.815926 0.636203
0.523802 0.817417 0.756171
0.525313 0.818928 0.877762
0.526405 0.820019 0.965582
0.530748 0.945174 0.118346
0.531734 0.946160 0.197719
0.533070 0.947496 0.305185
0.534467 0.948893 0.417602
0.535904 0.950330 0.533229
0.537371 0.951796 0.651263
0.538862 0.953287 0.771231
0.540373 0.954798 0.892822
0.541464 0.955890 0.980641
0.548619 0.019602 0.019602
0.549605 0.020589 0.098974
0.550941 0.021924 0.206441
0.552338 0.023321 0.318858
0.553775 0.024758 0.434485
0.555242 0.026225 0.552518
0.556733 0.027716 0.672486
0.558244 0.029227 0.794077
0.559335 0.030318 0.881897
0.552333 0.053115 0.023317
0.553320 0.054101 0.102689
0.554655 0.055437 0.210155
0.556052 0.056834 0.322572
0.557489 0.058271 0.438199
0.558956 0.059738 0.556233
0.560447 0.061229 0.676201
0.561958 0.062740 0.797792
0.563049 0.063831 0.885612
0.565059 0.167926 0.036042
0.566045 0.168912 0.115414
0.567380 0.170247 0.222881
0.568777 0.171645 0.335297
0.570214 0.173081 0.450924
0.571681 0.174548 0.568958
0.573172 0.176039 0.688926
0.574683 0.177550 0.810517
0.575775 0.178642 0.898337
0.578641 0.290469 0.049624
0.579627 0.291455 0.128996
0.580963 0.292790 0.236463
0.582360 0.294187 0.348879
0.583797 0.295624 0.464507
0.585263 0.297091 0.582540
0.586754 0.298582 0.702508
0.588265 0.300093 0.824099
0.589357 0.301185 0.911919
0.592698 0.417300 0.063681
0.593685 0.418286 0.143053
0.595020 0.419622 0.250520
0.596417 0.421019 0.362937
0.597854 0.422456 0.478564
0.599321 0.423923 0.596597
0.600812 0.425414 0.716565
0.602323 0.426925 0.838157
0.603414 0.428016 0.925976
0.607093 0.547173 0.078076
0.608079 0.548159 0.157448
0.609415 0.549495 0.264915
0.610812 0.550892 0.377331
0.612249 0.552329 0.492959
0.613715 0.553796 0.610992
0.615206 0.555287 0.730960
0.616717 0.556798 0.852551
0.617809 0.557889 0.940371
0.621751 0.679421 0.092734
0.622737 0.680407 0.172106
0.624072 0.681743 0.279573
0.625469 0.683140 0.391989
0.626906 0.684577 0.507616
0.628373 0.686043 0.625650
0.629864 0.687534 0.745618
0.631375 0.689045 0.867209
0.632467 0.690137 0.955029
0.636625 0.813624 0.107608
0.637611 0.814611 0.186980
0.638947 0.815946 0.294447
0.640344 0.817343 0.406864
0.641781 0.818780 0.522491
0.643248 0.820247 0.640524
0.644739 0.821738 0.760492
0.646250 0.823249 0.882083
0.647341 0.824340 0.969903
0.651684 0.949495 0.122668
0.652671 0.950481 0.202040
0.654006 0.951817 0.309506
0.655403 0.953214 0.421923
0.656840 0.954651 0.537550
0.658307 0.956117 0.655584
0.659798 0.957608 0.775552
0.661309 0.959119 0.897143
0.662400 0.960211 0.984962
0.671528 0.023994 0.023994
0.672514 0.024980 0.103366
0.673850 0.026316 0.210833
0.675247 0.027713 0.323249
0.676684 0.029150 0.438876
0.678151 0.030616 0.556910
0.679641 0.032107 0.676878
0.681153 0.033618 0.798469
0.682244 0.034710 0.886289
0.675242 0.057506 0.027708
0.676229 0.058493 0.107080
0.677564 0.059828 0.214547
0.678961 0.061225 0.326964
0.680398 0.062662 0.442591
0.681865 0.064129 0.560624
0.683356 0.065620 0.680592
0.684867 0.067131 0.802183
0.685958 0.068222 0.890003
0.687967 0.172317 0.040433
0.688954 0.173304 0.119805
0.690289 0.174639 0.227272
0.691686 0.176036 0.339689
0.693123 0.177473 0.455316
0.694590 0.178940 0.573349
0.696081 0.180431 0.693317
0.697592 0.181942 0.814908
0.698683 0.183033 0.902728
0.701550 0.294860 0.054015
0.702536 0.295846 0.133388
0.703872 0.297182 0.240854
0.705269 0.298579 0.353271
0.706705 0.300016 0.468898
0.708172 0.301483 0.586931
0.709663 0.302974 0.706900
0.711174 0.304485 0.828491
0.712266 0.305576 0.916310
0.715607 0.421692 0.068073
0.716593 0.422678 0.147445
0.717929 0.424014 0.254912
0.719326 0.425411 0.367328
0.720763 0.426847 0.482956
0.722230 0.428314 0.600989
0.723721 0.429805 0.720957
0.725232 0.431316 0.842548
0.726323 0.432408 0.930368
0.730002 0.551565 0.082467
0.730988 0.552551 0.161840
0.732324 0.553886 0.269306
0.733721 0.555284 0.381723
0.735158 0.556720 0.497350
0.736624 0.558187 0.615383
0.738115 0.559678 0.735352
0.739626 0.561189 0.856943
0.740718 0.562281 0.944762
0.744659 0.683812 0.097125
0.745646 0.684799 0.176497
0.746981 0.686134 0.283964
0.748378 0.687531 0.396381
0.749815 0.688968 0.512008
0.751282 0.690435 0.630041
0.752773 0.691926 0.750009
0.754284 0.693437 0.871600
0.755375 0.694528 0.959420
0.759534 0.818016 0.112000
0.760520 0.819002 0.191372
0.761856 0.820338 0.298839
0.763253 0.821735 0.411255
0.764690 0.823172 0.526882
0.766157 0.824639 0.644916
0.767648 0.826129 0.764884
0.769159 0.827641 0.886475
0.770250 0.828732 0.974295
0.774593 0.953886 0.127059
0.775580 0.954873 0.206431
0.776915 0.956208 0.313898
0.778312 0.957605 0.426315
0.779749 0.959042 0.541942
0.781216 0.960509 0.659975
0.782707 0.962000 0.779943
0.784218 0.963511 0.901534
0.785309 0.964602 0.989354
0.796093 0.028444 0.028444
0.797079 0.029431 0.107817
0.798415 0.030766 0.215283
0.799812 0.032163 0.327700
0.801249 0.033600 0.443327
0.802716 0.035067 0.561360
0.804206 0.036558 0.681329
0.805717 0.038069 0.802920
0.806809 0.039160 0.890739
0.799807 0.061957 0.032159
0.800794 0.062944 0.111531
0.802129 0.064279 0.218998
0.803526 0.065676 0.331414
0.804963 0.067113 0.447041
0.806430 0.068580 0.565075
0.807921 0.070071 0.685043
0.809432 0.071582 0.806634
0.810523 0.072673 0.894454
0.812532 0.176768 0.044884
0.813519 0.177754 0.124256
0.814854 0.179090 0.231723
0.816251 0.180487 0.344139
0.817688 0.181924 0.459767
0.819155 0.183391 0.577800
0.820646 0.184881 0.697768
0.822157 0.186392 0.819359
0.823248 0.187484 0.907179
0.826115 0.299311 0.058466
0.827101 0.300297 0.137838
0.828436 0.301633 0.245305
0.829833 0.303030 0.357722
0.831270 0.304467 0.473349
0.832737 0.305933 0.591382
0.834228 0.307424 0.711350
0.835739 0.308935 0.832941
0.836831 0.310027 0.920761
0.840172 0.426142 0.072524
0.841158 0.427129 0.151896
0.842494 0.428464 0.259362
0.843891 0.429861 0.371779
0.845328 0.431298 0.487406
0.846795 0.432765 0.605440
0.848286 0.434256 0.725408
0.849797 0.435767 0.846999
0.850888 0.436858 0.934818
0.854567 0.556015 0.086918
0.855553 0.557002 0.166290
0.856888 0.558337 0.273757
0.858286 0.559734 0.386174
0.859722 0.561171 0.501801
0.861189 0.562638 0.619834
0.862680 0.564129 0.739802
0.864191 0.565640 0.861393
0.865283 0.566731 0.949213
0.869224 0.688263 0.101576
0.870211 0.689249 0.180948
0.871546 0.690585 0.288415
0.872943 0.691982 0.400831
0.874380 0.693419 0.516459
0.875847 0.694886 0.634492
0.877338 0.696377 0.754460
0.878849 0.697888 0.876051
0.879940 0.698979 0.963871
0.884099 0.822467 0.116450
0.885085 0.823453 0.195823
0.886421 0.824788 0.303289
0.887818 0.826186 0.415706
0.889255 0.827622 0.531333
0.890722 0.829089 0.649367
0.892213 0.830580 0.769335
0.893724 0.832091 0.890926
0.894815 0.833183 0.978745
0.899158 0.958337 0.131510
0.900145 0.959323 0.210882
0.901480 0.960659 0.318349
0.902877 0.962056 0.430765
0.904314 0.963493 0.546392
0.905781 0.964960 0.664426
0.907272 0.966451 0.784394
0.908783 0.967962 0.905985
0.909874 0.969053 0.993805
