skills/creativeops-producer-ios/assets/grade/luts/night_blue_v14.cube
TITLE "night_blue_v14"
LUT_3D_SIZE 17
DOMAIN_MIN 0.0 0.0 0.0
DOMAIN_MAX 1.0 1.0 1.0
0.000000 0.000000 0.000000
0.000361 0.000361 0.029055
0.000986 0.000986 0.079372
0.001644 0.001644 0.132297
0.002322 0.002322 0.186839
0.003015 0.003015 0.242573
0.003719 0.003719 0.299255
0.004433 0.004433 0.356729
0.005156 0.005156 0.414883
0.005886 0.005886 0.473633
0.006623 0.006623 0.532916
0.007365 0.007365 0.592680
0.008114 0.008114 0.652884
0.008867 0.008867 0.713492
0.009625 0.009625 0.774475
0.010387 0.010387 0.835807
0.010716 0.010716 0.862295
0.000000 0.000000 0.000000
0.000361 0.000361 0.029055
0.000986 0.000986 0.079372
0.001644 0.001644 0.132297
0.002322 0.002322 0.186839
0.003015 0.003015 0.242573
0.003719 0.003719 0.299255
0.004433 0.004433 0.356729
0.005156 0.005156 0.414883
0.005886 0.005886 0.473633
0.006623 0.006623 0.532916
0.007365 0.007365 0.592680
0.008114 0.008114 0.652884
0.008867 0.008867 0.713492
0.009625 0.009625 0.774475
0.010387 0.010387 0.835807
0.010716 0.010716 0.862295
0.003714 0.033513 0.003714
0.004075 0.033874 0.032769
0.004701 0.034499 0.083087
0.005359 0.035157 0.136011
0.006036 0.035835 0.190553
0.006729 0.036527 0.246287
0.007433 0.037232 0.302970
0.008148 0.037946 0.360444
0.008870 0.038669 0.418597
0.009600 0.039399 0.477347
0.010337 0.040136 0.536630
0.011080 0.040878 0.596395
0.011828 0.041626 0.656599
0.012581 0.042380 0.717207
0.013339 0.043137 0.778190
0.014101 0.043900 0.839522
0.014430 0.044229 0.866009
0.009919 0.089492 0.009919
0.010280 0.089853 0.038974
0.010905 0.090478 0.089291
0.011563 0.091136 0.142215
0.012241 0.091814 0.196758
0.012933 0.092506 0.252492
0.013638 0.093211 0.309174
0.014352 0.093925 0.366648
0.015075 0.094648 0.424802
0.015805 0.095378 0.483552
0.016542 0.096114 0.542835
0.017284 0.096857 0.602599
0.018032 0.097605 0.662803
0.018786 0.098359 0.723411
0.019544 0.099116 0.784394
0.020306 0.099879 0.845726
0.020635 0.100208 0.872214
0.016440 0.148323 0.016440
0.016801 0.148685 0.045494
0.017426 0.149310 0.095812
0.018084 0.149968 0.148736
0.018761 0.150645 0.203278
0.019454 0.151338 0.259012
0.020158 0.152042 0.315695
0.020873 0.152757 0.373169
0.021595 0.153479 0.431322
0.022326 0.154209 0.490073
0.023062 0.154946 0.549356
0.023805 0.155689 0.609120
0.024553 0.156437 0.669324
0.025306 0.157190 0.729932
0.026064 0.157948 0.790915
0.026826 0.158710 0.852247
0.027156 0.159039 0.878734
0.023158 0.208937 0.023158
0.023519 0.209298 0.052212
0.024144 0.209924 0.102530
0.024802 0.210581 0.155454
0.025480 0.211259 0.209997
0.026172 0.211952 0.265730
0.026877 0.212656 0.322413
0.027591 0.213370 0.379887
0.028314 0.214093 0.438040
0.029044 0.214823 0.496791
0.029780 0.215560 0.556074
0.030523 0.216303 0.615838
0.031271 0.217051 0.676042
0.032025 0.217804 0.736650
0.032782 0.218562 0.797633
0.033545 0.219324 0.858965
0.033874 0.219653 0.885453
0.030022 0.270866 0.030022
0.030383 0.271227 0.059076
0.031008 0.271853 0.109394
0.031666 0.272510 0.162318
0.032344 0.273188 0.216861
0.033036 0.273881 0.272594
0.033741 0.274585 0.329277
0.034455 0.275300 0.386751
0.035178 0.276022 0.444904
0.035908 0.276752 0.503655
0.036644 0.277489 0.562938
0.037387 0.278232 0.622702
0.038135 0.278980 0.682906
0.038888 0.279733 0.743514
0.039646 0.280491 0.804497
0.040409 0.281253 0.865829
0.040738 0.281582 0.892317
0.037002 0.333845 0.037002
0.037363 0.334206 0.066057
0.037988 0.334831 0.116374
0.038646 0.335489 0.169298
0.039324 0.336166 0.223841
0.040016 0.336859 0.279575
0.040721 0.337563 0.336257
0.041435 0.338278 0.393731
0.042158 0.339000 0.451885
0.042888 0.339731 0.510635
0.043625 0.340467 0.569918
0.044367 0.341210 0.629682
0.045116 0.341958 0.689886
0.045869 0.342711 0.750494
0.046627 0.343469 0.811477
0.047389 0.344231 0.872809
0.047718 0.344561 0.899297
0.044079 0.397698 0.044079
0.044440 0.398059 0.073134
0.045066 0.398684 0.123451
0.045723 0.399342 0.176376
0.046401 0.400020 0.230918
0.047094 0.400712 0.286652
0.047798 0.401417 0.343335
0.048512 0.402131 0.400808
0.049235 0.402854 0.458962
0.049965 0.403584 0.517712
0.050702 0.404321 0.576995
0.051445 0.405063 0.636760
0.052193 0.405812 0.696963
0.052946 0.406565 0.757571
0.053704 0.407323 0.818554
0.054466 0.408085 0.879887
0.054795 0.408414 0.906374
0.051240 0.462304 0.051240
0.051601 0.462665 0.080294
0.052226 0.463290 0.130612
0.052884 0.463948 0.183536
0.053562 0.464626 0.238079
0.054254 0.465318 0.293813
0.054959 0.466023 0.350495
0.055673 0.466737 0.407969
0.056396 0.467460 0.466123
0.057126 0.468190 0.524873
0.057863 0.468927 0.584156
0.058605 0.469669 0.643920
0.059353 0.470417 0.704124
0.060107 0.471171 0.764732
0.060864 0.471929 0.825715
0.061627 0.472691 0.887047
0.061956 0.473020 0.913535
0.058474 0.527571 0.058474
0.058835 0.527932 0.087528
0.059460 0.528557 0.137846
0.060118 0.529215 0.190770
0.060796 0.529893 0.245313
0.061488 0.530585 0.301046
0.062193 0.531290 0.357729
0.062907 0.532004 0.415203
0.063630 0.532727 0.473356
0.064360 0.533457 0.532107
0.065096 0.534194 0.591390
0.065839 0.534936 0.651154
0.066587 0.535684 0.711358
0.067341 0.536438 0.771966
0.068098 0.537196 0.832949
0.068861 0.537958 0.894281
0.069190 0.538287 0.920769
0.065773 0.593428 0.065773
0.066134 0.593789 0.094828
0.066759 0.594414 0.145145
0.067417 0.595072 0.198070
0.068095 0.595750 0.252612
0.068788 0.596443 0.308346
0.069492 0.597147 0.365029
0.070206 0.597861 0.422502
0.070929 0.598584 0.480656
0.071659 0.599314 0.539406
0.072396 0.600051 0.598689
0.073138 0.600793 0.658454
0.073887 0.601542 0.718657
0.074640 0.602295 0.779265
0.075398 0.603053 0.840248
0.076160 0.603815 0.901580
0.076489 0.604144 0.928068
0.073132 0.659819 0.073132
0.073493 0.660180 0.102186
0.074118 0.660805 0.152504
0.074776 0.661463 0.205428
0.075453 0.662141 0.259970
0.076146 0.662833 0.315704
0.076850 0.663538 0.372387
0.077565 0.664252 0.429861
0.078287 0.664975 0.488014
0.079018 0.665705 0.546765
0.079754 0.666441 0.606048
0.080497 0.667184 0.665812
0.081245 0.667932 0.726016
0.081998 0.668685 0.786624
0.082756 0.669443 0.847607
0.083518 0.670205 0.908939
0.083848 0.670535 0.935426
0.080544 0.726696 0.080544
0.080905 0.727057 0.109599
0.081530 0.727683 0.159916
0.082188 0.728340 0.212840
0.082866 0.729018 0.267383
0.083558 0.729711 0.323117
0.084263 0.730415 0.379799
0.084977 0.731129 0.437273
0.085700 0.731852 0.495427
0.086430 0.732582 0.554177
0.087167 0.733319 0.613460
0.087909 0.734062 0.673224
0.088658 0.734810 0.733428
0.089411 0.735563 0.794036
0.090169 0.736321 0.855019
0.090931 0.737083 0.916351
0.091260 0.737412 0.942839
0.088006 0.794022 0.088006
0.088367 0.794383 0.117061
0.088992 0.795009 0.167378
0.089650 0.795666 0.220303
0.090328 0.796344 0.274845
0.091021 0.797037 0.330579
0.091725 0.797741 0.387262
0.092439 0.798455 0.444735
0.093162 0.799178 0.502889
0.093892 0.799908 0.561639
0.094629 0.800645 0.620922
0.095372 0.801388 0.680687
0.096120 0.802136 0.740890
0.096873 0.802889 0.801498
0.097631 0.803647 0.862481
0.098393 0.804409 0.923814
0.098722 0.804738 0.950301
0.095514 0.861764 0.095514
0.095875 0.862125 0.124569
0.096501 0.862750 0.174886
0.097158 0.863408 0.227811
0.097836 0.864086 0.282353
0.098529 0.864778 0.338087
0.099233 0.865483 0.394770
0.099947 0.866197 0.452243
0.100670 0.866920 0.510397
0.101400 0.867650 0.569147
0.102137 0.868386 0.628430
0.102880 0.869129 0.688195
0.103628 0.869877 0.748398
0.104381 0.870630 0.809007
0.105139 0.871388 0.869989
0.105901 0.872151 0.931322
0.106230 0.872480 0.957809
0.103065 0.929893 0.103065
0.103426 0.930254 0.132120
0.104052 0.930879 0.182438
0.104709 0.931537 0.235362
0.105387 0.932214 0.289904
0.106080 0.932907 0.345638
0.106784 0.933611 0.402321
0.107499 0.934326 0.459795
0.108221 0.935048 0.517948
0.108951 0.935779 0.576698
0.109688 0.936515 0.635981
0.110431 0.937258 0.695746
0.111179 0.938006 0.755950
0.111932 0.938759 0.816558
0.112690 0.939517 0.877541
0.113452 0.940279 0.938873
0.113781 0.940609 0.965360
0.000000 0.000000 0.000000
0.000361 0.000361 0.029055
0.000986 0.000986 0.079372
0.001644 0.001644 0.132297
0.002322 0.002322 0.186839
0.003015 0.003015 0.242573
0.003719 0.003719 0.299255
0.004433 0.004433 0.356729
0.005156 0.005156 0.414883
0.005886 0.005886 0.473633
0.006623 0.006623 0.532916
0.007365 0.007365 0.592680
0.008114 0.008114 0.652884
0.008867 0.008867 0.713492
0.009625 0.009625 0.774475
0.010387 0.010387 0.835807
0.010716 0.010716 0.862295
0.000000 0.000000 0.000000
0.000361 0.000361 0.029055
0.000986 0.000986 0.079372
0.001644 0.001644 0.132297
0.002322 0.002322 0.186839
0.003015 0.003015 0.242573
0.003719 0.003719 0.299255
0.004433 0.004433 0.356729
0.005156 0.005156 0.414883
0.005886 0.005886 0.473633
0.006623 0.006623 0.532916
0.007365 0.007365 0.592680
0.008114 0.008114 0.652884
0.008867 0.008867 0.713492
0.009625 0.009625 0.774475
0.010387 0.010387 0.835807
0.010716 0.010716 0.862295
0.003714 0.033513 0.003714
0.004075 0.033874 0.032769
0.004701 0.034499 0.083087
0.005359 0.035157 0.136011
0.006036 0.035835 0.190553
0.006729 0.036527 0.246287
0.007433 0.037232 0.302970
0.008148 0.037946 0.360444
0.008870 0.038669 0.418597
0.009600 0.039399 0.477347
0.010337 0.040136 0.536630
0.011080 0.040878 0.596395
0.011828 0.041626 0.656599
0.012581 0.042380 0.717207
0.013339 0.043137 0.778190
0.014101 0.043900 0.839522
0.014430 0.044229 0.866009
0.009919 0.089492 0.009919
0.010280 0.089853 0.038974
0.010905 0.090478 0.089291
0.011563 0.091136 0.142215
0.012241 0.091814 0.196758
0.012933 0.092506 0.252492
0.013638 0.093211 0.309174
0.014352 0.093925 0.366648
0.015075 0.094648 0.424802
0.015805 0.095378 0.483552
0.016542 0.096114 0.542835
0.017284 0.096857 0.602599
0.018032 0.097605 0.662803
0.018786 0.098359 0.723411
0.019544 0.099116 0.784394
0.020306 0.099879 0.845726
0.020635 0.100208 0.872214
0.016440 0.148323 0.016440
0.016801 0.148685 0.045494
0.017426 0.149310 0.095812
0.018084 0.149968 0.148736
0.018761 0.150645 0.203278
0.019454 0.151338 0.259012
0.020158 0.152042 0.315695
0.020873 0.152757 0.373169
0.021595 0.153479 0.431322
0.022326 0.154209 0.490073
0.023062 0.154946 0.549356
0.023805 0.155689 0.609120
0.024553 0.156437 0.669324
0.025306 0.157190 0.729932
0.026064 0.157948 0.790915
0.026826 0.158710 0.852247
0.027156 0.159039 0.878734
0.023158 0.208937 0.023158
0.023519 0.209298 0.052212
0.024144 0.209924 0.102530
0.024802 0.210581 0.155454
0.025480 0.211259 0.209997
0.026172 0.211952 0.265730
0.026877 0.212656 0.322413
0.027591 0.213370 0.379887
0.028314 0.214093 0.438040
0.029044 0.214823 0.496791
0.029780 0.215560 0.556074
0.030523 0.216303 0.615838
0.031271 0.217051 0.676042
0.032025 0.217804 0.736650
0.032782 0.218562 0.797633
0.033545 0.219324 0.858965
0.033874 0.219653 0.885453
0.030022 0.270866 0.030022
0.030383 0.271227 0.059076
0.031008 0.271853 0.109394
0.031666 0.272510 0.162318
0.032344 0.273188 0.216861
0.033036 0.273881 0.272594
0.033741 0.274585 0.329277
0.034455 0.275300 0.386751
0.035178 0.276022 0.444904
0.035908 0.276752 0.503655
0.036644 0.277489 0.562938
0.037387 0.278232 0.622702
0.038135 0.278980 0.682906
0.038888 0.279733 0.743514
0.039646 0.280491 0.804497
0.040409 0.281253 0.865829
0.040738 0.281582 0.892317
0.037002 0.333845 0.037002
0.037363 0.334206 0.066057
0.037988 0.334831 0.116374
0.038646 0.335489 0.169298
0.039324 0.336166 0.223841
0.040016 0.336859 0.279575
0.040721 0.337563 0.336257
0.041435 0.338278 0.393731
0.042158 0.339000 0.451885
0.042888 0.339731 0.510635
0.043625 0.340467 0.569918
0.044367 0.341210 0.629682
0.045116 0.341958 0.689886
0.045869 0.342711 0.750494
0.046627 0.343469 0.811477
0.047389 0.344231 0.872809
0.047718 0.344561 0.899297
0.044079 0.397698 0.044079
0.044440 0.398059 0.073134
0.045066 0.398684 0.123451
0.045723 0.399342 0.176376
0.046401 0.400020 0.230918
0.047094 0.400712 0.286652
0.047798 0.401417 0.343335
0.048512 0.402131 0.400808
0.049235 0.402854 0.458962
0.049965 0.403584 0.517712
0.050702 0.404321 0.576995
0.051445 0.405063 0.636760
0.052193 0.405812 0.696963
0.052946 0.406565 0.757571
0.053704 0.407323 0.818554
0.054466 0.408085 0.879887
0.054795 0.408414 0.906374
0.051240 0.462304 0.051240
0.051601 0.462665 0.080294
0.052226 0.463290 0.130612
0.052884 0.463948 0.183536
0.053562 0.464626 0.238079
0.054254 0.465318 0.293813
0.054959 0.466023 0.350495
0.055673 0.466737 0.407969
0.056396 0.467460 0.466123
0.057126 0.468190 0.524873
0.057863 0.468927 0.584156
0.058605 0.469669 0.643920
0.059353 0.470417 0.704124
0.060107 0.471171 0.764732
0.060864 0.471929 0.825715
0.061627 0.472691 0.887047
0.061956 0.473020 0.913535
0.058474 0.527571 0.058474
0.058835 0.527932 0.087528
0.059460 0.528557 0.137846
0.060118 0.529215 0.190770
0.060796 0.529893 0.245313
0.061488 0.530585 0.301046
0.062193 0.531290 0.357729
0.062907 0.532004 0.415203
0.063630 0.532727 0.473356
0.064360 0.533457 0.532107
0.065096 0.534194 0.591390
0.065839 0.534936 0.651154
0.066587 0.535684 0.711358
0.067341 0.536438 0.771966
0.068098 0.537196 0.832949
0.068861 0.537958 0.894281
0.069190 0.538287 0.920769
0.065773 0.593428 0.065773
0.066134 0.593789 0.094828
0.066759 0.594414 0.145145
0.067417 0.595072 0.198070
0.068095 0.595750 0.252612
0.068788 0.596443 0.308346
0.069492 0.597147 0.365029
0.070206 0.597861 0.422502
0.070929 0.598584 0.480656
0.071659 0.599314 0.539406
0.072396 0.600051 0.598689
0.073138 0.600793 0.658454
0.073887 0.601542 0.718657
0.074640 0.602295 0.779265
0.075398 0.603053 0.840248
0.076160 0.603815 0.901580
0.076489 0.604144 0.928068
0.073132 0.659819 0.073132
0.073493 0.660180 0.102186
0.074118 0.660805 0.152504
0.074776 0.661463 0.205428
0.075453 0.662141 0.259970
0.076146 0.662833 0.315704
0.076850 0.663538 0.372387
0.077565 0.664252 0.429861
0.078287 0.664975 0.488014
0.079018 0.665705 0.546765
0.079754 0.666441 0.606048
0.080497 0.667184 0.665812
0.081245 0.667932 0.726016
0.081998 0.668685 0.786624
0.082756 0.669443 0.847607
0.083518 0.670205 0.908939
0.083848 0.670535 0.935426
0.080544 0.726696 0.080544
0.080905 0.727057 0.109599
0.081530 0.727683 0.159916
0.082188 0.728340 0.212840
0.082866 0.729018 0.267383
0.083558 0.729711 0.323117
0.084263 0.730415 0.379799
0.084977 0.731129 0.437273
0.085700 0.731852 0.495427
0.086430 0.732582 0.554177
0.087167 0.733319 0.613460
0.087909 0.734062 0.673224
0.088658 0.734810 0.733428
0.089411 0.735563 0.794036
0.090169 0.736321 0.855019
0.090931 0.737083 0.916351
0.091260 0.737412 0.942839
0.088006 0.794022 0.088006
0.088367 0.794383 0.117061
0.088992 0.795009 0.167378
0.089650 0.795666 0.220303
0.090328 0.796344 0.274845
0.091021 0.797037 0.330579
0.091725 0.797741 0.387262
0.092439 0.798455 0.444735
0.093162 0.799178 0.502889
0.093892 0.799908 0.561639
0.094629 0.800645 0.620922
0.095372 0.801388 0.680687
0.096120 0.802136 0.740890
0.096873 0.802889 0.801498
0.097631 0.803647 0.862481
0.098393 0.804409 0.923814
0.098722 0.804738 0.950301
0.095514 0.861764 0.095514
0.095875 0.862125 0.124569
0.096501 0.862750 0.174886
0.097158 0.863408 0.227811
0.097836 0.864086 0.282353
0.098529 0.864778 0.338087
0.099233 0.865483 0.394770
0.099947 0.866197 0.452243
0.100670 0.866920 0.510397
0.101400 0.867650 0.569147
0.102137 0.868386 0.628430
0.102880 0.869129 0.688195
0.103628 0.869877 0.748398
0.104381 0.870630 0.809007
0.105139 0.871388 0.869989
0.105901 0.872151 0.931322
0.106230 0.872480 0.957809
0.103065 0.929893 0.103065
0.103426 0.930254 0.132120
0.104052 0.930879 0.182438
0.104709 0.931537 0.235362
0.105387 0.932214 0.289904
0.106080 0.932907 0.345638
0.106784 0.933611 0.402321
0.107499 0.934326 0.459795
0.108221 0.935048 0.517948
0.108951 0.935779 0.576698
0.109688 0.936515 0.635981
0.110431 0.937258 0.695746
0.111179 0.938006 0.755950
0.111932 0.938759 0.816558
0.112690 0.939517 0.877541
0.113452 0.940279 0.938873
0.113781 0.940609 0.965360
0.000000 0.000000 0.000000
0.000361 0.000361 0.029055
0.000986 0.000986 0.079372
0.001644 0.001644 0.132297
0.002322 0.002322 0.186839
0.003015 0.003015 0.242573
0.003719 0.003719 0.299255
0.004433 0.004433 0.356729
0.005156 0.005156 0.414883
0.005886 0.005886 0.473633
0.006623 0.006623 0.532916
0.007365 0.007365 0.592680
0.008114 0.008114 0.652884
0.008867 0.008867 0.713492
0.009625 0.009625 0.774475
0.010387 0.010387 0.835807
0.010716 0.010716 0.862295
0.000000 0.000000 0.000000
0.000361 0.000361 0.029055
0.000986 0.000986 0.079372
0.001644 0.001644 0.132297
0.002322 0.002322 0.186839
0.003015 0.003015 0.242573
0.003719 0.003719 0.299255
0.004433 0.004433 0.356729
0.005156 0.005156 0.414883
0.005886 0.005886 0.473633
0.006623 0.006623 0.532916
0.007365 0.007365 0.592680
0.008114 0.008114 0.652884
0.008867 0.008867 0.713492
0.009625 0.009625 0.774475
0.010387 0.010387 0.835807
0.010716 0.010716 0.862295
0.003714 0.033513 0.003714
0.004075 0.033874 0.032769
0.004701 0.034499 0.083087
0.005359 0.035157 0.136011
0.006036 0.035835 0.190553
0.006729 0.036527 0.246287
0.007433 0.037232 0.302970
0.008148 0.037946 0.360444
0.008870 0.038669 0.418597
0.009600 0.039399 0.477347
0.010337 0.040136 0.536630
0.011080 0.040878 0.596395
0.011828 0.041626 0.656599
0.012581 0.042380 0.717207
0.013339 0.043137 0.778190
0.014101 0.043900 0.839522
0.014430 0.044229 0.866009
0.009919 0.089492 0.009919
0.010280 0.089853 0.038974
0.010905 0.090478 0.089291
0.011563 0.091136 0.142215
0.012241 0.091814 0.196758
0.012933 0.092506 0.252492
0.013638 0.093211 0.309174
0.014352 0.093925 0.366648
0.015075 0.094648 0.424802
0.015805 0.095378 0.483552
0.016542 0.096114 0.542835
0.017284 0.096857 0.602599
0.018032 0.097605 0.662803
0.018786 0.098359 0.723411
0.019544 0.099116 0.784394
0.020306 0.099879 0.845726
0.020635 0.100208 0.872214
0.016440 0.148323 0.016440
0.016801 0.148685 0.045494
0.017426 0.149310 0.095812
0.018084 0.149968 0.148736
0.018761 0.150645 0.203278
0.019454 0.151338 0.259012
0.020158 0.152042 0.315695
0.020873 0.152757 0.373169
0.021595 0.153479 0.431322
0.022326 0.154209 0.490073
0.023062 0.154946 0.549356
0.023805 0.155689 0.609120
0.024553 0.156437 0.669324
0.025306 0.157190 0.729932
0.026064 0.157948 0.790915
0.026826 0.158710 0.852247
0.027156 0.159039 0.878734
0.023158 0.208937 0.023158
0.023519 0.209298 0.052212
0.024144 0.209924 0.102530
0.024802 0.210581 0.155454
0.025480 0.211259 0.209997
0.026172 0.211952 0.265730
0.026877 0.212656 0.322413
0.027591 0.213370 0.379887
0.028314 0.214093 0.438040
0.029044 0.214823 0.496791
0.029780 0.215560 0.556074
0.030523 0.216303 0.615838
0.031271 0.217051 0.676042
0.032025 0.217804 0.736650
0.032782 0.218562 0.797633
0.033545 0.219324 0.858965
0.033874 0.219653 0.885453
0.030022 0.270866 0.030022
0.030383 0.271227 0.059076
0.031008 0.271853 0.109394
0.031666 0.272510 0.162318
0.032344 0.273188 0.216861
0.033036 0.273881 0.272594
0.033741 0.274585 0.329277
0.034455 0.275300 0.386751
0.035178 0.276022 0.444904
0.035908 0.276752 0.503655
0.036644 0.277489 0.562938
0.037387 0.278232 0.622702
0.038135 0.278980 0.682906
0.038888 0.279733 0.743514
0.039646 0.280491 0.804497
0.040409 0.281253 0.865829
0.040738 0.281582 0.892317
0.037002 0.333845 0.037002
0.037363 0.334206 0.066057
0.037988 0.334831 0.116374
0.038646 0.335489 0.169298
0.039324 0.336166 0.223841
0.040016 0.336859 0.279575
0.040721 0.337563 0.336257
0.041435 0.338278 0.393731
0.042158 0.339000 0.451885
0.042888 0.339731 0.510635
0.043625 0.340467 0.569918
0.044367 0.341210 0.629682
0.045116 0.341958 0.689886
0.045869 0.342711 0.750494
0.046627 0.343469 0.811477
0.047389 0.344231 0.872809
0.047718 0.344561 0.899297
0.044079 0.397698 0.044079
0.044440 0.398059 0.073134
0.045066 0.398684 0.123451
0.045723 0.399342 0.176376
0.046401 0.400020 0.230918
0.047094 0.400712 0.286652
0.047798 0.401417 0.343335
0.048512 0.402131 0.400808
0.049235 0.402854 0.458962
0.049965 0.403584 0.517712
0.050702 0.404321 0.576995
0.051445 0.405063 0.636760
0.052193 0.405812 0.696963
0.052946 0.406565 0.757571
0.053704 0.407323 0.818554
0.054466 0.408085 0.879887
0.054795 0.408414 0.906374
0.051240 0.462304 0.051240
0.051601 0.462665 0.080294
0.052226 0.463290 0.130612
0.052884 0.463948 0.183536
0.053562 0.464626 0.238079
0.054254 0.465318 0.293813
0.054959 0.466023 0.350495
0.055673 0.466737 0.407969
0.056396 0.467460 0.466123
0.057126 0.468190 0.524873
0.057863 0.468927 0.584156
0.058605 0.469669 0.643920
0.059353 0.470417 0.704124
0.060107 0.471171 0.764732
0.060864 0.471929 0.825715
0.061627 0.472691 0.887047
0.061956 0.473020 0.913535
0.058474 0.527571 0.058474
0.058835 0.527932 0.087528
0.059460 0.528557 0.137846
0.060118 0.529215 0.190770
0.060796 0.529893 0.245313
0.061488 0.530585 0.301046
0.062193 0.531290 0.357729
0.062907 0.532004 0.415203
0.063630 0.532727 0.473356
0.064360 0.533457 0.532107
0.065096 0.534194 0.591390
0.065839 0.534936 0.651154
0.066587 0.535684 0.711358
0.067341 0.536438 0.771966
0.068098 0.537196 0.832949
0.068861 0.537958 0.894281
0.069190 0.538287 0.920769
0.065773 0.593428 0.065773
0.066134 0.593789 0.094828
0.066759 0.594414 0.145145
0.067417 0.595072 0.198070
0.068095 0.595750 0.252612
0.068788 0.596443 0.308346
0.069492 0.597147 0.365029
0.070206 0.597861 0.422502
0.070929 0.598584 0.480656
0.071659 0.599314 0.539406
0.072396 0.600051 0.598689
0.073138 0.600793 0.658454
0.073887 0.601542 0.718657
0.074640 0.602295 0.779265
0.075398 0.603053 0.840248
0.076160 0.603815 0.901580
0.076489 0.604144 0.928068
0.073132 0.659819 0.073132
0.073493 0.660180 0.102186
0.074118 0.660805 0.152504
0.074776 0.661463 0.205428
0.075453 0.662141 0.259970
0.076146 0.662833 0.315704
0.076850 0.663538 0.372387
0.077565 0.664252 0.429861
0.078287 0.664975 0.488014
0.079018 0.665705 0.546765
0.079754 0.666441 0.606048
0.080497 0.667184 0.665812
0.081245 0.667932 0.726016
0.081998 0.668685 0.786624
0.082756 0.669443 0.847607
0.083518 0.670205 0.908939
0.083848 0.670535 0.935426
0.080544 0.726696 0.080544
0.080905 0.727057 0.109599
0.081530 0.727683 0.159916
0.082188 0.728340 0.212840
0.082866 0.729018 0.267383
0.083558 0.729711 0.323117
0.084263 0.730415 0.379799
0.084977 0.731129 0.437273
0.085700 0.731852 0.495427
0.086430 0.732582 0.554177
0.087167 0.733319 0.613460
0.087909 0.734062 0.673224
0.088658 0.734810 0.733428
0.089411 0.735563 0.794036
0.090169 0.736321 0.855019
0.090931 0.737083 0.916351
0.091260 0.737412 0.942839
0.088006 0.794022 0.088006
0.088367 0.794383 0.117061
0.088992 0.795009 0.167378
0.089650 0.795666 0.220303
0.090328 0.796344 0.274845
0.091021 0.797037 0.330579
0.091725 0.797741 0.387262
0.092439 0.798455 0.444735
0.093162 0.799178 0.502889
0.093892 0.799908 0.561639
0.094629 0.800645 0.620922
0.095372 0.801388 0.680687
0.096120 0.802136 0.740890
0.096873 0.802889 0.801498
0.097631 0.803647 0.862481
0.098393 0.804409 0.923814
0.098722 0.804738 0.950301
0.095514 0.861764 0.095514
0.095875 0.862125 0.124569
0.096501 0.862750 0.174886
0.097158 0.863408 0.227811
0.097836 0.864086 0.282353
0.098529 0.864778 0.338087
0.099233 0.865483 0.394770
0.099947 0.866197 0.452243
0.100670 0.866920 0.510397
0.101400 0.867650 0.569147
0.102137 0.868386 0.628430
0.102880 0.869129 0.688195
0.103628 0.869877 0.748398
0.104381 0.870630 0.809007
0.105139 0.871388 0.869989
0.105901 0.872151 0.931322
0.106230 0.872480 0.957809
0.103065 0.929893 0.103065
0.103426 0.930254 0.132120
0.104052 0.930879 0.182438
0.104709 0.931537 0.235362
0.105387 0.932214 0.289904
0.106080 0.932907 0.345638
0.106784 0.933611 0.402321
0.107499 0.934326 0.459795
0.108221 0.935048 0.517948
0.108951 0.935779 0.576698
0.109688 0.936515 0.635981
0.110431 0.937258 0.695746
0.111179 0.938006 0.755950
0.111932 0.938759 0.816558
0.112690 0.939517 0.877541
0.113452 0.940279 0.938873
0.113781 0.940609 0.965360
0.032051 0.001145 0.001145
0.032413 0.001506 0.030200
0.033038 0.002132 0.080517
0.033696 0.002789 0.133442
0.034373 0.003467 0.187984
0.035066 0.004160 0.243718
0.035770 0.004864 0.300401
0.036485 0.005578 0.357874
0.037207 0.006301 0.416028
0.037937 0.007031 0.474778
0.038674 0.007768 0.534061
0.039417 0.008511 0.593826
0.040165 0.009259 0.654029
0.040918 0.010012 0.714638
0.041676 0.010770 0.775620
0.042438 0.011532 0.836953
0.042767 0.011861 0.863440
0.032051 0.001145 0.001145
