skills/creativeops-producer-ios/assets/grade/luts/product_clean_v17.cube
TITLE "product_clean_v17"
LUT_3D_SIZE 17
DOMAIN_MIN 0.0 0.0 0.0
DOMAIN_MAX 1.0 1.0 1.0
0.000000 0.000000 0.000000
0.000000 0.000000 0.046145
0.000000 0.000000 0.114330
0.000000 0.000000 0.182515
0.000000 0.000000 0.250700
0.000000 0.000000 0.318885
0.000000 0.000000 0.387069
0.000000 0.000000 0.455254
0.000000 0.000000 0.523439
0.000000 0.000000 0.591624
0.000000 0.000000 0.659809
0.000000 0.000000 0.727994
0.000000 0.000000 0.796179
0.000000 0.000000 0.864363
0.000000 0.000000 0.932548
0.000000 0.000000 1.000000
0.000000 0.000000 1.000000
0.000000 0.044713 0.000000
0.000000 0.044552 0.044552
0.000000 0.044315 0.112737
0.000000 0.044077 0.180922
0.000000 0.043840 0.249107
0.000000 0.043602 0.317292
0.000000 0.043364 0.385477
0.000000 0.043127 0.453661
0.000000 0.042889 0.521846
0.000000 0.042652 0.590031
0.000000 0.042414 0.658216
0.000000 0.042176 0.726401
0.000000 0.041939 0.794586
0.000000 0.041701 0.862770
0.000000 0.041464 0.930955
0.000000 0.041226 0.999140
0.000000 0.041065 1.000000
0.000000 0.110782 0.000000
0.000000 0.110621 0.042199
0.000000 0.110384 0.110384
0.000000 0.110146 0.178568
0.000000 0.109908 0.246753
0.000000 0.109671 0.314938
0.000000 0.109433 0.383123
0.000000 0.109196 0.451308
0.000000 0.108958 0.519493
0.000000 0.108720 0.587678
0.000000 0.108483 0.655862
0.000000 0.108245 0.724047
0.000000 0.108008 0.792232
0.000000 0.107770 0.860417
0.000000 0.107532 0.928602
0.000000 0.107295 0.996787
0.000000 0.107134 1.000000
0.000000 0.176851 0.000000
0.000000 0.176690 0.039845
0.000000 0.176452 0.108030
0.000000 0.176215 0.176215
0.000000 0.175977 0.244400
0.000000 0.175740 0.312585
0.000000 0.175502 0.380769
0.000000 0.175264 0.448954
0.000000 0.175027 0.517139
0.000000 0.174789 0.585324
0.000000 0.174552 0.653509
0.000000 0.174314 0.721694
0.000000 0.174076 0.789878
0.000000 0.173839 0.858063
0.000000 0.173601 0.926248
0.000000 0.173364 0.994433
0.000000 0.173203 1.000000
0.000000 0.242920 0.000000
0.000000 0.242759 0.037492
0.000000 0.242521 0.105676
0.000000 0.242284 0.173861
0.000000 0.242046 0.242046
0.000000 0.241808 0.310231
0.000000 0.241571 0.378416
0.000000 0.241333 0.446601
0.000000 0.241096 0.514785
0.000000 0.240858 0.582970
0.000000 0.240620 0.651155
0.000000 0.240383 0.719340
0.000000 0.240145 0.787525
0.000000 0.239908 0.855710
0.000000 0.239670 0.923894
0.000000 0.239432 0.992079
0.000000 0.239272 1.000000
0.000000 0.308989 0.000000
0.000000 0.308828 0.035138
0.000000 0.308590 0.103323
0.000000 0.308353 0.171508
0.000000 0.308115 0.239692
0.000000 0.307877 0.307877
0.000000 0.307640 0.376062
0.000000 0.307402 0.444247
0.000000 0.307165 0.512432
0.000000 0.306927 0.580617
0.000000 0.306689 0.648801
0.000000 0.306452 0.716986
0.000000 0.306214 0.785171
0.000000 0.305977 0.853356
0.000000 0.305739 0.921541
0.000000 0.305501 0.989726
0.000000 0.305341 1.000000
0.000000 0.375057 0.000000
0.000000 0.374897 0.032784
0.000000 0.374659 0.100969
0.000000 0.374421 0.169154
0.000000 0.374184 0.237339
0.000000 0.373946 0.305524
0.000000 0.373709 0.373709
0.000000 0.373471 0.441893
0.000000 0.373233 0.510078
0.000000 0.372996 0.578263
0.000000 0.372758 0.646448
0.000000 0.372521 0.714633
0.000000 0.372283 0.782818
0.000000 0.372045 0.851002
0.000000 0.371808 0.919187
0.000000 0.371570 0.987372
0.000000 0.371409 1.000000
0.000000 0.441126 0.000000
0.000000 0.440965 0.030431
0.000000 0.440728 0.098616
0.000000 0.440490 0.166800
0.000000 0.440253 0.234985
0.000000 0.440015 0.303170
0.000000 0.439777 0.371355
0.000000 0.439540 0.439540
0.000000 0.439302 0.507725
0.000000 0.439065 0.575909
0.000000 0.438827 0.644094
0.000000 0.438589 0.712279
0.000000 0.438352 0.780464
0.000000 0.438114 0.848649
0.000000 0.437877 0.916834
0.000000 0.437639 0.985018
0.000000 0.437478 1.000000
0.000000 0.507195 0.000000
0.000000 0.507034 0.028077
0.000000 0.506797 0.096262
0.000000 0.506559 0.164447
0.000000 0.506321 0.232632
0.000000 0.506084 0.300816
0.000000 0.505846 0.369001
0.000000 0.505609 0.437186
0.000000 0.505371 0.505371
0.000000 0.505133 0.573556
0.000000 0.504896 0.641741
0.000000 0.504658 0.709925
0.000000 0.504421 0.778110
0.000000 0.504183 0.846295
0.000000 0.503945 0.914480
0.000000 0.503708 0.982665
0.000000 0.503547 1.000000
0.000000 0.573264 0.000000
0.000000 0.573103 0.025723
0.000000 0.572865 0.093908
0.000000 0.572628 0.162093
0.000000 0.572390 0.230278
0.000000 0.572153 0.298463
0.000000 0.571915 0.366648
0.000000 0.571677 0.434832
0.000000 0.571440 0.503017
0.000000 0.571202 0.571202
0.000000 0.570965 0.639387
0.000000 0.570727 0.707572
0.000000 0.570489 0.775757
0.000000 0.570252 0.843942
0.000000 0.570014 0.912126
0.000000 0.569777 0.980311
0.000000 0.569616 1.000000
0.000000 0.639333 0.000000
0.000000 0.639172 0.023370
0.000000 0.638934 0.091555
0.000000 0.638697 0.159740
0.000000 0.638459 0.227924
0.000000 0.638221 0.296109
0.000000 0.637984 0.364294
0.000000 0.637746 0.432479
0.000000 0.637509 0.500664
0.000000 0.637271 0.568849
0.000000 0.637033 0.637033
0.000000 0.636796 0.705218
0.000000 0.636558 0.773403
0.000000 0.636321 0.841588
0.000000 0.636083 0.909773
0.000000 0.635845 0.977958
0.000000 0.635685 1.000000
0.000000 0.705401 0.000000
0.000000 0.705241 0.021016
0.000000 0.705003 0.089201
0.000000 0.704765 0.157386
0.000000 0.704528 0.225571
0.000000 0.704290 0.293756
0.000000 0.704053 0.361940
0.000000 0.703815 0.430125
0.000000 0.703577 0.498310
0.000000 0.703340 0.566495
0.000000 0.703102 0.634680
0.000000 0.702865 0.702865
0.000000 0.702627 0.771049
0.000000 0.702389 0.839234
0.000000 0.702152 0.907419
0.000000 0.701914 0.975604
0.000000 0.701753 1.000000
0.000000 0.771470 0.000000
0.000000 0.771309 0.018663
0.000000 0.771072 0.086847
0.000000 0.770834 0.155032
0.000000 0.770597 0.223217
0.000000 0.770359 0.291402
0.000000 0.770121 0.359587
0.000000 0.769884 0.427772
0.000000 0.769646 0.495956
0.000000 0.769409 0.564141
0.000000 0.769171 0.632326
0.000000 0.768933 0.700511
0.000000 0.768696 0.768696
0.000000 0.768458 0.836881
0.000000 0.768221 0.905065
0.000000 0.767983 0.973250
0.000000 0.767822 1.000000
0.000000 0.837539 0.000000
0.000000 0.837378 0.016309
0.000000 0.837141 0.084494
0.000000 0.836903 0.152679
0.000000 0.836665 0.220863
0.000000 0.836428 0.289048
0.000000 0.836190 0.357233
0.000000 0.835953 0.425418
0.000000 0.835715 0.493603
0.000000 0.835477 0.561788
0.000000 0.835240 0.629973
0.000000 0.835002 0.698157
0.000000 0.834765 0.766342
0.000000 0.834527 0.834527
0.000000 0.834289 0.902712
0.000000 0.834052 0.970897
0.000000 0.833891 1.000000
0.000000 0.903608 0.000000
0.000000 0.903447 0.013955
0.000000 0.903209 0.082140
0.000000 0.902972 0.150325
0.000000 0.902734 0.218510
0.000000 0.902497 0.286695
0.000000 0.902259 0.354880
0.000000 0.902021 0.423064
0.000000 0.901784 0.491249
0.000000 0.901546 0.559434
0.000000 0.901309 0.627619
0.000000 0.901071 0.695804
0.000000 0.900833 0.763989
0.000000 0.900596 0.832173
0.000000 0.900358 0.900358
0.000000 0.900121 0.968543
0.000000 0.899960 1.000000
0.000000 0.969677 0.000000
0.000000 0.969516 0.011602
0.000000 0.969278 0.079787
0.000000 0.969041 0.147971
0.000000 0.968803 0.216156
0.000000 0.968565 0.284341
0.000000 0.968328 0.352526
0.000000 0.968090 0.420711
0.000000 0.967853 0.488896
0.000000 0.967615 0.557080
0.000000 0.967377 0.625265
0.000000 0.967140 0.693450
0.000000 0.966902 0.761635
0.000000 0.966665 0.829820
0.000000 0.966427 0.898005
0.000000 0.966189 0.966189
0.000000 0.966029 1.000000
0.000000 1.000000 0.000000
0.000000 1.000000 0.010009
0.000000 1.000000 0.078194
0.000000 1.000000 0.146379
0.000000 1.000000 0.214563
0.000000 1.000000 0.282748
0.000000 1.000000 0.350933
0.000000 1.000000 0.419118
0.000000 1.000000 0.487303
0.000000 1.000000 0.555488
0.000000 1.000000 0.623672
0.000000 1.000000 0.691857
0.000000 1.000000 0.760042
0.000000 1.000000 0.828227
0.000000 1.000000 0.896412
0.000000 1.000000 0.964597
0.000000 1.000000 1.000000
0.045833 0.000000 0.000000
0.045672 0.000000 0.045672
0.045434 0.000000 0.113857
0.045197 0.000000 0.182041
0.044959 0.000000 0.250226
0.044721 0.000000 0.318411
0.044484 0.000000 0.386596
0.044246 0.000000 0.454781
0.044009 0.000000 0.522966
0.043771 0.000000 0.591151
0.043533 0.000000 0.659335
0.043296 0.000000 0.727520
0.043058 0.000000 0.795705
0.042821 0.000000 0.863890
0.042583 0.000000 0.932075
0.042345 0.000000 1.000000
0.042185 0.000000 1.000000
0.044240 0.044240 0.000000
0.044079 0.044079 0.044079
0.043841 0.043841 0.112264
0.043604 0.043604 0.180449
0.043366 0.043366 0.248633
0.043129 0.043129 0.316818
0.042891 0.042891 0.385003
0.042653 0.042653 0.453188
0.042416 0.042416 0.521373
0.042178 0.042178 0.589558
0.041941 0.041941 0.657742
0.041703 0.041703 0.725927
0.041465 0.041465 0.794112
0.041228 0.041228 0.862297
0.040990 0.040990 0.930482
0.040753 0.040753 0.998667
0.040592 0.040592 1.000000
0.041886 0.110309 0.000000
0.041725 0.110148 0.041725
0.041488 0.109910 0.109910
0.041250 0.109673 0.178095
0.041013 0.109435 0.246280
0.040775 0.109197 0.314465
0.040537 0.108960 0.382650
0.040300 0.108722 0.450834
0.040062 0.108485 0.519019
0.039825 0.108247 0.587204
0.039587 0.108009 0.655389
0.039349 0.107772 0.723574
0.039112 0.107534 0.791759
0.038874 0.107297 0.859943
0.038637 0.107059 0.928128
0.038399 0.106821 0.996313
0.038238 0.106661 1.000000
0.039533 0.176377 0.000000
0.039372 0.176217 0.039372
0.039134 0.175979 0.107557
0.038897 0.175741 0.175741
0.038659 0.175504 0.243926
0.038421 0.175266 0.312111
0.038184 0.175029 0.380296
0.037946 0.174791 0.448481
0.037709 0.174553 0.516666
0.037471 0.174316 0.584850
0.037233 0.174078 0.653035
0.036996 0.173841 0.721220
0.036758 0.173603 0.789405
0.036521 0.173365 0.857590
0.036283 0.173128 0.925775
0.036045 0.172890 0.993959
0.035885 0.172729 1.000000
0.037179 0.242446 0.000000
0.037018 0.242285 0.037018
0.036780 0.242048 0.105203
0.036543 0.241810 0.173388
0.036305 0.241573 0.241573
0.036068 0.241335 0.309757
0.035830 0.241097 0.377942
0.035592 0.240860 0.446127
0.035355 0.240622 0.514312
0.035117 0.240385 0.582497
0.034880 0.240147 0.650682
0.034642 0.239909 0.718866
0.034404 0.239672 0.787051
0.034167 0.239434 0.855236
0.033929 0.239197 0.923421
0.033692 0.238959 0.991606
0.033531 0.238798 1.000000
0.034825 0.308515 0.000000
0.034664 0.308354 0.034664
0.034427 0.308117 0.102849
0.034189 0.307879 0.171034
0.033952 0.307641 0.239219
0.033714 0.307404 0.307404
0.033476 0.307166 0.375589
0.033239 0.306929 0.443773
0.033001 0.306691 0.511958
0.032764 0.306453 0.580143
0.032526 0.306216 0.648328
0.032288 0.305978 0.716513
0.032051 0.305741 0.784698
0.031813 0.305503 0.852883
0.031576 0.305265 0.921067
0.031338 0.305028 0.989252
0.031177 0.304867 1.000000
0.032472 0.374584 0.000000
0.032311 0.374423 0.032311
0.032073 0.374185 0.100496
0.031836 0.373948 0.168681
0.031598 0.373710 0.236865
0.031360 0.373473 0.305050
0.031123 0.373235 0.373235
0.030885 0.372997 0.441420
0.030648 0.372760 0.509605
0.030410 0.372522 0.577790
0.030172 0.372285 0.645974
0.029935 0.372047 0.714159
0.029697 0.371809 0.782344
0.029460 0.371572 0.850529
0.029222 0.371334 0.918714
0.028984 0.371097 0.986899
0.028824 0.370936 1.000000
0.030118 0.440653 0.000000
0.029957 0.440492 0.029957
0.029720 0.440254 0.098142
0.029482 0.440017 0.166327
0.029244 0.439779 0.234512
0.029007 0.439541 0.302697
0.028769 0.439304 0.370881
0.028532 0.439066 0.439066
0.028294 0.438829 0.507251
0.028056 0.438591 0.575436
0.027819 0.438353 0.643621
0.027581 0.438116 0.711806
0.027344 0.437878 0.779990
0.027106 0.437641 0.848175
0.026868 0.437403 0.916360
0.026631 0.437165 0.984545
0.026470 0.437005 1.000000
0.027764 0.506721 0.000000
0.027604 0.506561 0.027604
0.027366 0.506323 0.095788
0.027128 0.506085 0.163973
0.026891 0.505848 0.232158
0.026653 0.505610 0.300343
0.026416 0.505373 0.368528
0.026178 0.505135 0.436713
0.025940 0.504897 0.504897
0.025703 0.504660 0.573082
0.025465 0.504422 0.641267
0.025228 0.504185 0.709452
0.024990 0.503947 0.777637
0.024752 0.503709 0.845822
0.024515 0.503472 0.914006
0.024277 0.503234 0.982191
0.024116 0.503073 1.000000
0.025411 0.572790 0.000000
0.025250 0.572629 0.025250
0.025012 0.572392 0.093435
0.024775 0.572154 0.161620
0.024537 0.571917 0.229804
0.024300 0.571679 0.297989
0.024062 0.571441 0.366174
0.023824 0.571204 0.434359
0.023587 0.570966 0.502544
0.023349 0.570729 0.570729
0.023112 0.570491 0.638914
0.022874 0.570253 0.707098
0.022636 0.570016 0.775283
0.022399 0.569778 0.843468
0.022161 0.569541 0.911653
0.021924 0.569303 0.979838
0.021763 0.569142 1.000000
0.023057 0.638859 0.000000
0.022896 0.638698 0.022896
0.022659 0.638461 0.091081
0.022421 0.638223 0.159266
0.022184 0.637985 0.227451
0.021946 0.637748 0.295636
0.021708 0.637510 0.363821
0.021471 0.637273 0.432005
0.021233 0.637035 0.500190
0.020996 0.636797 0.568375
0.020758 0.636560 0.636560
0.020520 0.636322 0.704745
0.020283 0.636085 0.772930
0.020045 0.635847 0.841114
0.019808 0.635609 0.909299
0.019570 0.635372 0.977484
0.019409 0.635211 1.000000
0.020704 0.704928 0.000000
0.020543 0.704767 0.020543
0.020305 0.704530 0.088728
0.020068 0.704292 0.156912
0.019830 0.704054 0.225097
0.019592 0.703817 0.293282
0.019355 0.703579 0.361467
0.019117 0.703342 0.429652
0.018880 0.703104 0.497837
0.018642 0.702866 0.566021
0.018404 0.702629 0.634206
0.018167 0.702391 0.702391
0.017929 0.702154 0.770576
0.017692 0.701916 0.838761
0.017454 0.701678 0.906946
0.017216 0.701441 0.975130
0.017056 0.701280 1.000000
0.018350 0.770997 0.000000
0.018189 0.770836 0.018189
0.017952 0.770598 0.086374
0.017714 0.770361 0.154559
0.017476 0.770123 0.222744
0.017239 0.769886 0.290928
0.017001 0.769648 0.359113
0.016764 0.769410 0.427298
0.016526 0.769173 0.495483
0.016288 0.768935 0.563668
0.016051 0.768698 0.631853
0.015813 0.768460 0.700037
0.015576 0.768222 0.768222
0.015338 0.767985 0.836407
0.015100 0.767747 0.904592
0.014863 0.767510 0.972777
0.014702 0.767349 1.000000
0.015996 0.837066 0.000000
0.015835 0.836905 0.015835
0.015598 0.836667 0.084020
0.015360 0.836430 0.152205
0.015123 0.836192 0.220390
0.014885 0.835954 0.288575
0.014647 0.835717 0.356760
0.014410 0.835479 0.424945
0.014172 0.835242 0.493129
0.013935 0.835004 0.561314
0.013697 0.834766 0.629499
0.013459 0.834529 0.697684
0.013222 0.834291 0.765869
0.012984 0.834054 0.834054
0.012747 0.833816 0.902238
0.012509 0.833578 0.970423
0.012348 0.833418 1.000000
0.013643 0.903134 0.000000
0.013482 0.902974 0.013482
0.013244 0.902736 0.081667
0.013007 0.902498 0.149852
0.012769 0.902261 0.218036
0.012531 0.902023 0.286221
0.012294 0.901786 0.354406
0.012056 0.901548 0.422591
0.011819 0.901310 0.490776
0.011581 0.901073 0.558961
0.011343 0.900835 0.627145
0.011106 0.900598 0.695330
0.010868 0.900360 0.763515
0.010631 0.900122 0.831700
0.010393 0.899885 0.899885
0.010155 0.899647 0.968070
0.009995 0.899486 1.000000
0.011289 0.969203 0.000000
0.011128 0.969042 0.011128
0.010891 0.968805 0.079313
0.010653 0.968567 0.147498
0.010415 0.968330 0.215683
0.010178 0.968092 0.283868
0.009940 0.967854 0.352052
0.009703 0.967617 0.420237
0.009465 0.967379 0.488422
0.009227 0.967142 0.556607
0.008990 0.966904 0.624792
0.008752 0.966666 0.692977
0.008515 0.966429 0.761161
0.008277 0.966191 0.829346
0.008039 0.965954 0.897531
0.007802 0.965716 0.965716
0.007641 0.965555 1.000000
0.009696 1.000000 0.000000
0.009535 1.000000 0.009535
0.009298 1.000000 0.077720
0.009060 1.000000 0.145905
0.008823 1.000000 0.214090
0.008585 1.000000 0.282275
0.008347 1.000000 0.350460
0.008110 1.000000 0.418644
0.007872 1.000000 0.486829
0.007635 1.000000 0.555014
0.007397 1.000000 0.623199
0.007159 1.000000 0.691384
0.006922 1.000000 0.759569
0.006684 1.000000 0.827753
0.006447 1.000000 0.895938
0.006209 1.000000 0.964123
0.006048 1.000000 1.000000
0.113555 0.000000 0.000000
0.113395 0.000000 0.044972
0.113157 0.000000 0.113157
0.112919 0.000000 0.181342
0.112682 0.000000 0.249527
0.112444 0.000000 0.317712
0.112207 0.000000 0.385896
0.111969 0.000000 0.454081
0.111731 0.000000 0.522266
0.111494 0.000000 0.590451
0.111256 0.000000 0.658636
0.111019 0.000000 0.726821
0.110781 0.000000 0.795005
0.110543 0.000000 0.863190
0.110306 0.000000 0.931375
0.110068 0.000000 0.999560
0.109907 0.000000 1.000000
0.111963 0.043540 0.000000
0.111802 0.043379 0.043379
0.111564 0.043142 0.111564
0.111327 0.042904 0.179749
0.111089 0.042667 0.247934
0.110851 0.042429 0.316119
0.110614 0.042191 0.384303
0.110376 0.041954 0.452488
0.110139 0.041716 0.520673
0.109901 0.041479 0.588858
0.109663 0.041241 0.657043
0.109426 0.041003 0.725228
0.109188 0.040766 0.793413
0.108951 0.040528 0.861597
0.108713 0.040291 0.929782
0.108475 0.040053 0.997967
0.108315 0.039892 1.000000
0.109609 0.109609 0.000000
0.109448 0.109448 0.041026
0.109211 0.109211 0.109211
0.108973 0.108973 0.177395
0.108735 0.108735 0.245580
0.108498 0.108498 0.313765
0.108260 0.108260 0.381950
0.108023 0.108023 0.450135
0.107785 0.107785 0.518320
0.107547 0.107547 0.586504
0.107310 0.107310 0.654689
0.107072 0.107072 0.722874
0.106835 0.106835 0.791059
0.106597 0.106597 0.859244
0.106359 0.106359 0.927429
0.106122 0.106122 0.995613
0.105961 0.105961 1.000000
0.107255 0.175678 0.000000
0.107095 0.175517 0.038672
0.106857 0.175279 0.106857
0.106619 0.175042 0.175042
0.106382 0.174804 0.243227
0.106144 0.174567 0.311411
0.105907 0.174329 0.379596
0.105669 0.174091 0.447781
0.105431 0.173854 0.515966
0.105194 0.173616 0.584151
0.104956 0.173379 0.652336
0.104719 0.173141 0.720520
0.104481 0.172903 0.788705
0.104243 0.172666 0.856890
0.104006 0.172428 0.925075
0.103768 0.172191 0.993260
0.103607 0.172030 1.000000
0.104902 0.241747 0.000000
0.104741 0.241586 0.036318
0.104503 0.241348 0.104503
0.104266 0.241111 0.172688
0.104028 0.240873 0.240873
0.103790 0.240635 0.309058
0.103553 0.240398 0.377243
0.103315 0.240160 0.445427
0.103078 0.239923 0.513612
0.102840 0.239685 0.581797
0.102602 0.239447 0.649982
0.102365 0.239210 0.718167
0.102127 0.238972 0.786352
0.101890 0.238735 0.854536
0.101652 0.238497 0.922721
0.101414 0.238259 0.990906
0.101254 0.238099 1.000000
0.102548 0.307815 0.000000
0.102387 0.307655 0.033965
0.102150 0.307417 0.102150
0.101912 0.307179 0.170334
0.101674 0.306942 0.238519
0.101437 0.306704 0.306704
0.101199 0.306467 0.374889
0.100962 0.306229 0.443074
0.100724 0.305991 0.511259
0.100486 0.305754 0.579444
0.100249 0.305516 0.647628
0.100011 0.305279 0.715813
0.099774 0.305041 0.783998
0.099536 0.304803 0.852183
0.099298 0.304566 0.920368
0.099061 0.304328 0.988553
0.098900 0.304167 1.000000
0.100194 0.373884 0.000000
0.100034 0.373723 0.031611
0.099796 0.373486 0.099796
0.099558 0.373248 0.167981
0.099321 0.373011 0.236166
0.099083 0.372773 0.304351
0.098846 0.372535 0.372535
0.098608 0.372298 0.440720
0.098370 0.372060 0.508905
0.098133 0.371823 0.577090
0.097895 0.371585 0.645275
0.097658 0.371347 0.713460
0.097420 0.371110 0.781644
0.097182 0.370872 0.849829
0.096945 0.370635 0.918014
0.096707 0.370397 0.986199
0.096546 0.370236 1.000000
0.097841 0.439953 0.000000
0.097680 0.439792 0.029258
0.097442 0.439555 0.097442
0.097205 0.439317 0.165627
0.096967 0.439079 0.233812
0.096730 0.438842 0.301997
0.096492 0.438604 0.370182
0.096254 0.438367 0.438367
0.096017 0.438129 0.506551
0.095779 0.437891 0.574736
0.095542 0.437654 0.642921
0.095304 0.437416 0.711106
0.095066 0.437179 0.779291
0.094829 0.436941 0.847476
0.094591 0.436703 0.915660
0.094354 0.436466 0.983845
0.094193 0.436305 1.000000
0.095487 0.506022 0.000000
0.095326 0.505861 0.026904
0.095089 0.505623 0.095089
0.094851 0.505386 0.163274
0.094614 0.505148 0.231458
0.094376 0.504911 0.299643
0.094138 0.504673 0.367828
0.093901 0.504435 0.436013
0.093663 0.504198 0.504198
0.093426 0.503960 0.572383
0.093188 0.503723 0.640567
0.092950 0.503485 0.708752
0.092713 0.503247 0.776937
0.092475 0.503010 0.845122
0.092238 0.502772 0.913307
0.092000 0.502535 0.981492
0.091839 0.502374 1.000000
0.093134 0.572091 0.000000
0.092973 0.571930 0.024550
0.092735 0.571692 0.092735
0.092498 0.571455 0.160920
0.092260 0.571217 0.229105
0.092022 0.570979 0.297290
0.091785 0.570742 0.365475
0.091547 0.570504 0.433659
0.091310 0.570267 0.501844
0.091072 0.570029 0.570029
0.090834 0.569791 0.638214
0.090597 0.569554 0.706399
0.090359 0.569316 0.774584
0.090122 0.569079 0.842768
0.089884 0.568841 0.910953
0.089646 0.568603 0.979138
0.089486 0.568443 1.000000
0.090780 0.638159 0.000000
0.090619 0.637999 0.022197
0.090382 0.637761 0.090382
0.090144 0.637523 0.158566
0.089906 0.637286 0.226751
0.089669 0.637048 0.294936
0.089431 0.636811 0.363121
0.089194 0.636573 0.431306
0.088956 0.636335 0.499491
0.088718 0.636098 0.567675
0.088481 0.635860 0.635860
0.088243 0.635623 0.704045
0.088006 0.635385 0.772230
0.087768 0.635147 0.840415
0.087530 0.634910 0.908600
0.087293 0.634672 0.976784
0.087132 0.634511 1.000000
0.088426 0.704228 0.000000
0.088266 0.704067 0.019843
0.088028 0.703830 0.088028
0.087790 0.703592 0.156213
0.087553 0.703355 0.224398
0.087315 0.703117 0.292582
0.087078 0.702879 0.360767
0.086840 0.702642 0.428952
0.086602 0.702404 0.497137
0.086365 0.702167 0.565322
0.086127 0.701929 0.633507
0.085890 0.701691 0.701691
0.085652 0.701454 0.769876
0.085414 0.701216 0.838061
0.085177 0.700979 0.906246
0.084939 0.700741 0.974431
0.084778 0.700580 1.000000
0.086073 0.770297 0.000000
0.085912 0.770136 0.017489
0.085674 0.769899 0.085674
0.085437 0.769661 0.153859
0.085199 0.769423 0.222044
0.084962 0.769186 0.290229
0.084724 0.768948 0.358414
0.084486 0.768711 0.426598
0.084249 0.768473 0.494783
0.084011 0.768235 0.562968
0.083774 0.767998 0.631153
0.083536 0.767760 0.699338
0.083298 0.767523 0.767523
0.083061 0.767285 0.835708
0.082823 0.767047 0.903892
0.082586 0.766810 0.972077
0.082425 0.766649 1.000000
0.083719 0.836366 0.000000
0.083558 0.836205 0.015136
0.083321 0.835967 0.083321
0.083083 0.835730 0.151506
0.082845 0.835492 0.219690
0.082608 0.835255 0.287875
0.082370 0.835017 0.356060
0.082133 0.834779 0.424245
0.081895 0.834542 0.492430
0.081657 0.834304 0.560615
0.081420 0.834067 0.628799
0.081182 0.833829 0.696984
0.080945 0.833591 0.765169
0.080707 0.833354 0.833354
0.080469 0.833116 0.901539
0.080232 0.832879 0.969724
0.080071 0.832718 1.000000
0.081365 0.902435 0.000000
0.081205 0.902274 0.012782
0.080967 0.902036 0.080967
0.080729 0.901799 0.149152
0.080492 0.901561 0.217337
0.080254 0.901324 0.285522
0.080017 0.901086 0.353706
0.079779 0.900848 0.421891
0.079541 0.900611 0.490076
0.079304 0.900373 0.558261
0.079066 0.900136 0.626446
0.078829 0.899898 0.694631
0.078591 0.899660 0.762815
0.078353 0.899423 0.831000
0.078116 0.899185 0.899185
0.077878 0.898948 0.967370
0.077717 0.898787 1.000000
0.079012 0.968504 0.000000
0.078851 0.968343 0.010429
0.078613 0.968105 0.078613
0.078376 0.967868 0.146798
0.078138 0.967630 0.214983
0.077901 0.967392 0.283168
0.077663 0.967155 0.351353
0.077425 0.966917 0.419538
0.077188 0.966680 0.487722
0.076950 0.966442 0.555907
0.076713 0.966204 0.624092
0.076475 0.965967 0.692277
0.076237 0.965729 0.760462
0.076000 0.965492 0.828647
0.075762 0.965254 0.896831
0.075525 0.965016 0.965016
0.075364 0.964856 1.000000
0.077419 1.000000 0.000000
0.077258 1.000000 0.008836
0.077021 1.000000 0.077021
0.076783 1.000000 0.145205
0.076545 1.000000 0.213390
0.076308 1.000000 0.281575
0.076070 1.000000 0.349760
0.075833 1.000000 0.417945
0.075595 1.000000 0.486130
0.075357 1.000000 0.554314
0.075120 1.000000 0.622499
0.074882 1.000000 0.690684
0.074645 1.000000 0.758869
0.074407 1.000000 0.827054
0.074169 1.000000 0.895239
0.073932 1.000000 0.963423
0.073771 1.000000 1.000000
0.181278 0.000000 0.000000
0.181117 0.000000 0.044273
0.180880 0.000000 0.112457
0.180642 0.000000 0.180642
0.180405 0.000000 0.248827
0.180167 0.000000 0.317012
0.179929 0.000000 0.385197
0.179692 0.000000 0.453382
0.179454 0.000000 0.521566
0.179217 0.000000 0.589751
0.178979 0.000000 0.657936
0.178741 0.000000 0.726121
0.178504 0.000000 0.794306
0.178266 0.000000 0.862491
0.178029 0.000000 0.930675
0.177791 0.000000 0.998860
0.177630 0.000000 1.000000
0.179685 0.042840 0.000000
