skills/creativeops-producer-ios/assets/grade/luts/product_clean_v17.cube
TITLE "product_clean_v17"
LUT_3D_SIZE 5
DOMAIN_MIN 0.0 0.0 0.0
DOMAIN_MAX 1.0 1.0 1.0
0.000000 0.000000 0.000000
0.000000 0.000000 0.250700
0.000000 0.000000 0.523439
0.000000 0.000000 0.796179
0.000000 0.000000 1.000000
0.000000 0.242920 0.000000
0.000000 0.242046 0.242046
0.000000 0.241096 0.514785
0.000000 0.240145 0.787525
0.000000 0.239272 1.000000
0.000000 0.507195 0.000000
0.000000 0.506321 0.232632
0.000000 0.505371 0.505371
0.000000 0.504421 0.778110
0.000000 0.503547 1.000000
0.000000 0.771470 0.000000
0.000000 0.770597 0.223217
0.000000 0.769646 0.495956
0.000000 0.768696 0.768696
0.000000 0.767822 1.000000
0.000000 1.000000 0.000000
0.000000 1.000000 0.214563
0.000000 1.000000 0.487303
0.000000 1.000000 0.760042
0.000000 1.000000 1.000000
0.249001 0.000000 0.000000
0.248127 0.000000 0.248127
0.247177 0.000000 0.520867
0.246227 0.000000 0.793606
0.245353 0.000000 1.000000
0.240347 0.240347 0.000000
0.239474 0.239474 0.239474
0.238523 0.238523 0.512213
0.237573 0.237573 0.784952
0.236699 0.236699 1.000000
0.230933 0.504623 0.000000
0.230059 0.503749 0.230059
0.229109 0.502799 0.502799
0.228158 0.501848 0.775538
0.227285 0.500975 1.000000
0.221518 0.768898 0.000000
0.220645 0.768024 0.220645
0.219694 0.767074 0.493384
0.218744 0.766123 0.766123
0.217870 0.765250 1.000000
0.212865 1.000000 0.000000
0.211991 1.000000 0.211991
0.211041 1.000000 0.484730
0.210090 1.000000 0.757470
0.209217 1.000000 1.000000
0.519892 0.000000 0.000000
0.519019 0.000000 0.245329
0.518068 0.000000 0.518068
0.517118 0.000000 0.790808
0.516244 0.000000 1.000000
0.511238 0.237549 0.000000
0.510365 0.236675 0.236675
0.509414 0.235725 0.509414
0.508464 0.234774 0.782154
0.507590 0.233901 1.000000
0.501824 0.501824 0.000000
0.500950 0.500950 0.227261
0.500000 0.500000 0.500000
0.499050 0.499050 0.772739
0.498176 0.498176 1.000000
0.492410 0.766099 0.000000
0.491536 0.765226 0.217846
0.490586 0.764275 0.490586
0.489635 0.763325 0.763325
0.488762 0.762451 1.000000
0.483756 1.000000 0.000000
0.482882 1.000000 0.209192
0.481932 1.000000 0.481932
0.480981 1.000000 0.754671
0.480108 1.000000 1.000000
0.790783 0.000000 0.000000
0.789910 0.000000 0.242530
0.788959 0.000000 0.515270
0.788009 0.000000 0.788009
0.787135 0.000000 1.000000
0.782130 0.234750 0.000000
0.781256 0.233877 0.233877
0.780306 0.232926 0.506616
0.779355 0.231976 0.779355
0.778482 0.231102 1.000000
0.772715 0.499025 0.000000
0.771842 0.498152 0.224462
0.770891 0.497201 0.497201
0.769941 0.496251 0.769941
0.769067 0.495377 1.000000
0.763301 0.763301 0.000000
0.762427 0.762427 0.215048
0.761477 0.761477 0.487787
0.760526 0.760526 0.760526
0.759653 0.759653 1.000000
0.754647 1.000000 0.000000
0.753773 1.000000 0.206394
0.752823 1.000000 0.479133
0.751873 1.000000 0.751873
0.750999 1.000000 1.000000
1.000000 0.000000 0.000000
1.000000 0.000000 0.239958
1.000000 0.000000 0.512697
1.000000 0.000000 0.785437
1.000000 0.000000 1.000000
1.000000 0.232178 0.000000
1.000000 0.231304 0.231304
1.000000 0.230354 0.504044
1.000000 0.229403 0.776783
1.000000 0.228530 1.000000
1.000000 0.496453 0.000000
1.000000 0.495579 0.221890
1.000000 0.494629 0.494629
1.000000 0.493679 0.767368
1.000000 0.492805 1.000000
1.000000 0.760728 0.000000
1.000000 0.759855 0.212475
1.000000 0.758904 0.485215
1.000000 0.757954 0.757954
1.000000 0.757080 1.000000
1.000000 1.000000 0.000000
1.000000 1.000000 0.203821
1.000000 1.000000 0.476561
1.000000 1.000000 0.749300
1.000000 1.000000 1.000000
