skills/creativeops-producer-ios/assets/grade/luts/product_clean_v17.cube
TITLE "product_clean_v17"
LUT_3D_SIZE 9
DOMAIN_MIN 0.0 0.0 0.0
DOMAIN_MAX 1.0 1.0 1.0
0.000000 0.000000 0.000000
0.000000 0.000000 0.114330
0.000000 0.000000 0.250700
0.000000 0.000000 0.387069
0.000000 0.000000 0.523439
0.000000 0.000000 0.659809
0.000000 0.000000 0.796179
0.000000 0.000000 0.932548
0.000000 0.000000 1.000000
0.000000 0.110782 0.000000
0.000000 0.110384 0.110384
0.000000 0.109908 0.246753
0.000000 0.109433 0.383123
0.000000 0.108958 0.519493
0.000000 0.108483 0.655862
0.000000 0.108008 0.792232
0.000000 0.107532 0.928602
0.000000 0.107134 1.000000
0.000000 0.242920 0.000000
0.000000 0.242521 0.105676
0.000000 0.242046 0.242046
0.000000 0.241571 0.378416
0.000000 0.241096 0.514785
0.000000 0.240620 0.651155
0.000000 0.240145 0.787525
0.000000 0.239670 0.923894
0.000000 0.239272 1.000000
0.000000 0.375057 0.000000
0.000000 0.374659 0.100969
0.000000 0.374184 0.237339
0.000000 0.373709 0.373709
0.000000 0.373233 0.510078
0.000000 0.372758 0.646448
0.000000 0.372283 0.782818
0.000000 0.371808 0.919187
0.000000 0.371409 1.000000
0.000000 0.507195 0.000000
0.000000 0.506797 0.096262
0.000000 0.506321 0.232632
0.000000 0.505846 0.369001
0.000000 0.505371 0.505371
0.000000 0.504896 0.641741
0.000000 0.504421 0.778110
0.000000 0.503945 0.914480
0.000000 0.503547 1.000000
0.000000 0.639333 0.000000
0.000000 0.638934 0.091555
0.000000 0.638459 0.227924
0.000000 0.637984 0.364294
0.000000 0.637509 0.500664
0.000000 0.637033 0.637033
0.000000 0.636558 0.773403
0.000000 0.636083 0.909773
0.000000 0.635685 1.000000
0.000000 0.771470 0.000000
0.000000 0.771072 0.086847
0.000000 0.770597 0.223217
0.000000 0.770121 0.359587
0.000000 0.769646 0.495956
0.000000 0.769171 0.632326
0.000000 0.768696 0.768696
0.000000 0.768221 0.905065
0.000000 0.767822 1.000000
0.000000 0.903608 0.000000
0.000000 0.903209 0.082140
0.000000 0.902734 0.218510
0.000000 0.902259 0.354880
0.000000 0.901784 0.491249
0.000000 0.901309 0.627619
0.000000 0.900833 0.763989
0.000000 0.900358 0.900358
0.000000 0.899960 1.000000
0.000000 1.000000 0.000000
0.000000 1.000000 0.078194
0.000000 1.000000 0.214563
0.000000 1.000000 0.350933
0.000000 1.000000 0.487303
0.000000 1.000000 0.623672
0.000000 1.000000 0.760042
0.000000 1.000000 0.896412
0.000000 1.000000 1.000000
0.113555 0.000000 0.000000
0.113157 0.000000 0.113157
0.112682 0.000000 0.249527
0.112207 0.000000 0.385896
0.111731 0.000000 0.522266
0.111256 0.000000 0.658636
0.110781 0.000000 0.795005
0.110306 0.000000 0.931375
0.109907 0.000000 1.000000
0.109609 0.109609 0.000000
0.109211 0.109211 0.109211
0.108735 0.108735 0.245580
0.108260 0.108260 0.381950
0.107785 0.107785 0.518320
0.107310 0.107310 0.654689
0.106835 0.106835 0.791059
0.106359 0.106359 0.927429
0.105961 0.105961 1.000000
0.104902 0.241747 0.000000
0.104503 0.241348 0.104503
0.104028 0.240873 0.240873
0.103553 0.240398 0.377243
0.103078 0.239923 0.513612
0.102602 0.239447 0.649982
0.102127 0.238972 0.786352
0.101652 0.238497 0.922721
0.101254 0.238099 1.000000
0.100194 0.373884 0.000000
0.099796 0.373486 0.099796
0.099321 0.373011 0.236166
0.098846 0.372535 0.372535
0.098370 0.372060 0.508905
0.097895 0.371585 0.645275
0.097420 0.371110 0.781644
0.096945 0.370635 0.918014
0.096546 0.370236 1.000000
0.095487 0.506022 0.000000
0.095089 0.505623 0.095089
0.094614 0.505148 0.231458
0.094138 0.504673 0.367828
0.093663 0.504198 0.504198
0.093188 0.503723 0.640567
0.092713 0.503247 0.776937
0.092238 0.502772 0.913307
0.091839 0.502374 1.000000
0.090780 0.638159 0.000000
0.090382 0.637761 0.090382
0.089906 0.637286 0.226751
0.089431 0.636811 0.363121
0.088956 0.636335 0.499491
0.088481 0.635860 0.635860
0.088006 0.635385 0.772230
0.087530 0.634910 0.908600
0.087132 0.634511 1.000000
0.086073 0.770297 0.000000
0.085674 0.769899 0.085674
0.085199 0.769423 0.222044
0.084724 0.768948 0.358414
0.084249 0.768473 0.494783
0.083774 0.767998 0.631153
0.083298 0.767523 0.767523
0.082823 0.767047 0.903892
0.082425 0.766649 1.000000
0.081365 0.902435 0.000000
0.080967 0.902036 0.080967
0.080492 0.901561 0.217337
0.080017 0.901086 0.353706
0.079541 0.900611 0.490076
0.079066 0.900136 0.626446
0.078591 0.899660 0.762815
0.078116 0.899185 0.899185
0.077717 0.898787 1.000000
0.077419 1.000000 0.000000
0.077021 1.000000 0.077021
0.076545 1.000000 0.213390
0.076070 1.000000 0.349760
0.075595 1.000000 0.486130
0.075120 1.000000 0.622499
0.074645 1.000000 0.758869
0.074169 1.000000 0.895239
0.073771 1.000000 1.000000
0.249001 0.000000 0.000000
0.248603 0.000000 0.111758
0.248127 0.000000 0.248127
0.247652 0.000000 0.384497
0.247177 0.000000 0.520867
0.246702 0.000000 0.657236
0.246227 0.000000 0.793606
0.245751 0.000000 0.929976
0.245353 0.000000 1.000000
0.245055 0.108210 0.000000
0.244656 0.107811 0.107811
0.244181 0.107336 0.244181
0.243706 0.106861 0.380551
0.243231 0.106386 0.516920
0.242755 0.105910 0.653290
0.242280 0.105435 0.789660
0.241805 0.104960 0.926029
0.241407 0.104562 1.000000
0.240347 0.240347 0.000000
0.239949 0.239949 0.103104
0.239474 0.239474 0.239474
0.238998 0.238998 0.375843
0.238523 0.238523 0.512213
0.238048 0.238048 0.648583
0.237573 0.237573 0.784952
0.237098 0.237098 0.921322
0.236699 0.236699 1.000000
0.235640 0.372485 0.000000
0.235242 0.372087 0.098397
0.234766 0.371611 0.234766
0.234291 0.371136 0.371136
0.233816 0.370661 0.507506
0.233341 0.370186 0.643875
0.232866 0.369711 0.780245
0.232390 0.369235 0.916615
0.231992 0.368837 1.000000
0.230933 0.504623 0.000000
0.230534 0.504224 0.093690
0.230059 0.503749 0.230059
0.229584 0.503274 0.366429
0.229109 0.502799 0.502799
0.228634 0.502323 0.639168
0.228158 0.501848 0.775538
0.227683 0.501373 0.911908
0.227285 0.500975 1.000000
0.226226 0.636760 0.000000
0.225827 0.636362 0.088982
0.225352 0.635887 0.225352
0.224877 0.635411 0.361722
0.224402 0.634936 0.498091
0.223926 0.634461 0.634461
0.223451 0.633986 0.770831
0.222976 0.633511 0.907200
0.222578 0.633112 1.000000
0.221518 0.768898 0.000000
0.221120 0.768499 0.084275
0.220645 0.768024 0.220645
0.220170 0.767549 0.357014
0.219694 0.767074 0.493384
0.219219 0.766599 0.629754
0.218744 0.766123 0.766123
0.218269 0.765648 0.902493
0.217870 0.765250 1.000000
0.216811 0.901035 0.000000
0.216413 0.900637 0.079568
0.215937 0.900162 0.215937
0.215462 0.899687 0.352307
0.214987 0.899211 0.488677
0.214512 0.898736 0.625046
0.214037 0.898261 0.761416
0.213561 0.897786 0.897786
0.213163 0.897387 1.000000
0.212865 1.000000 0.000000
0.212466 1.000000 0.075621
0.211991 1.000000 0.211991
0.211516 1.000000 0.348361
0.211041 1.000000 0.484730
0.210565 1.000000 0.621100
0.210090 1.000000 0.757470
0.209615 1.000000 0.893839
0.209217 1.000000 1.000000
0.384447 0.000000 0.000000
0.384048 0.000000 0.110358
0.383573 0.000000 0.246728
0.383098 0.000000 0.383098
0.382623 0.000000 0.519467
0.382147 0.000000 0.655837
0.381672 0.000000 0.792207
0.381197 0.000000 0.928577
0.380799 0.000000 1.000000
0.380500 0.106810 0.000000
0.380102 0.106412 0.106412
0.379627 0.105937 0.242782
0.379151 0.105462 0.379151
0.378676 0.104986 0.515521
0.378201 0.104511 0.651891
0.377726 0.104036 0.788260
0.377251 0.103561 0.924630
0.376852 0.103162 1.000000
0.375793 0.238948 0.000000
0.375394 0.238550 0.101705
0.374919 0.238074 0.238074
0.374444 0.237599 0.374444
0.373969 0.237124 0.510814
0.373494 0.236649 0.647183
0.373018 0.236174 0.783553
0.372543 0.235698 0.919923
0.372145 0.235300 1.000000
0.371086 0.371086 0.000000
0.370687 0.370687 0.096997
0.370212 0.370212 0.233367
0.369737 0.369737 0.369737
0.369262 0.369262 0.506107
0.368786 0.368786 0.642476
0.368311 0.368311 0.778846
0.367836 0.367836 0.915216
0.367438 0.367438 1.000000
0.366378 0.503223 0.000000
0.365980 0.502825 0.092290
0.365505 0.502350 0.228660
0.365030 0.501874 0.365030
0.364554 0.501399 0.501399
0.364079 0.500924 0.637769
0.363604 0.500449 0.774139
0.363129 0.499974 0.910508
0.362730 0.499575 1.000000
0.361671 0.635361 0.000000
0.361273 0.634963 0.087583
0.360798 0.634487 0.223953
0.360322 0.634012 0.360322
0.359847 0.633537 0.496692
0.359372 0.633062 0.633062
0.358897 0.632587 0.769431
0.358422 0.632111 0.905801
0.358023 0.631713 1.000000
0.356964 0.767499 0.000000
0.356566 0.767100 0.082876
0.356090 0.766625 0.219245
0.355615 0.766150 0.355615
0.355140 0.765675 0.491985
0.354665 0.765199 0.628354
0.354190 0.764724 0.764724
0.353714 0.764249 0.901094
0.353316 0.763851 1.000000
0.352257 0.899636 0.000000
0.351858 0.899238 0.078169
0.351383 0.898763 0.214538
0.350908 0.898287 0.350908
0.350433 0.897812 0.487278
0.349957 0.897337 0.623647
0.349482 0.896862 0.760017
0.349007 0.896387 0.896387
0.348609 0.895988 1.000000
0.348310 1.000000 0.000000
0.347912 1.000000 0.074222
0.347437 1.000000 0.210592
0.346961 1.000000 0.346961
0.346486 1.000000 0.483331
0.346011 1.000000 0.619701
0.345536 1.000000 0.756070
0.345061 1.000000 0.892440
0.344662 1.000000 1.000000
0.519892 0.000000 0.000000
0.519494 0.000000 0.108959
0.519019 0.000000 0.245329
0.518543 0.000000 0.381699
0.518068 0.000000 0.518068
0.517593 0.000000 0.654438
0.517118 0.000000 0.790808
0.516643 0.000000 0.927177
0.516244 0.000000 1.000000
0.515946 0.105411 0.000000
0.515547 0.105013 0.105013
0.515072 0.104538 0.241382
0.514597 0.104062 0.377752
0.514122 0.103587 0.514122
0.513647 0.103112 0.650491
0.513171 0.102637 0.786861
0.512696 0.102162 0.923231
0.512298 0.101763 1.000000
0.511238 0.237549 0.000000
0.510840 0.237150 0.100305
0.510365 0.236675 0.236675
0.509890 0.236200 0.373045
0.509414 0.235725 0.509414
0.508939 0.235250 0.645784
0.508464 0.234774 0.782154
0.507989 0.234299 0.918524
0.507590 0.233901 1.000000
0.506531 0.369686 0.000000
0.506133 0.369288 0.095598
0.505658 0.368813 0.231968
0.505182 0.368338 0.368338
0.504707 0.367862 0.504707
0.504232 0.367387 0.641077
0.503757 0.366912 0.777447
0.503282 0.366437 0.913816
0.502883 0.366038 1.000000
0.501824 0.501824 0.000000
0.501426 0.501426 0.090891
0.500950 0.500950 0.227261
0.500475 0.500475 0.363630
0.500000 0.500000 0.500000
0.499525 0.499525 0.636370
0.499050 0.499050 0.772739
0.498574 0.498574 0.909109
0.498176 0.498176 1.000000
0.497117 0.633962 0.000000
0.496718 0.633563 0.086184
0.496243 0.633088 0.222553
0.495768 0.632613 0.358923
0.495293 0.632138 0.495293
0.494818 0.631662 0.631662
0.494342 0.631187 0.768032
0.493867 0.630712 0.904402
0.493469 0.630314 1.000000
0.492410 0.766099 0.000000
0.492011 0.765701 0.081476
0.491536 0.765226 0.217846
0.491061 0.764750 0.354216
0.490586 0.764275 0.490586
0.490110 0.763800 0.626955
0.489635 0.763325 0.763325
0.489160 0.762850 0.899695
0.488762 0.762451 1.000000
0.487702 0.898237 0.000000
0.487304 0.897838 0.076769
0.486829 0.897363 0.213139
0.486353 0.896888 0.349509
0.485878 0.896413 0.485878
0.485403 0.895938 0.622248
0.484928 0.895462 0.758618
0.484453 0.894987 0.894987
0.484054 0.894589 1.000000
0.483756 1.000000 0.000000
0.483357 1.000000 0.072823
0.482882 1.000000 0.209192
0.482407 1.000000 0.345562
0.481932 1.000000 0.481932
0.481457 1.000000 0.618301
0.480981 1.000000 0.754671
0.480506 1.000000 0.891041
0.480108 1.000000 1.000000
0.655338 0.000000 0.000000
0.654939 0.000000 0.107560
0.654464 0.000000 0.243930
0.653989 0.000000 0.380299
0.653514 0.000000 0.516669
0.653039 0.000000 0.653039
0.652563 0.000000 0.789408
0.652088 0.000000 0.925778
0.651690 0.000000 1.000000
0.651391 0.104012 0.000000
0.650993 0.103613 0.103613
0.650518 0.103138 0.239983
0.650043 0.102663 0.376353
0.649567 0.102188 0.512722
0.649092 0.101713 0.649092
0.648617 0.101237 0.785462
0.648142 0.100762 0.921831
0.647743 0.100364 1.000000
0.646684 0.236149 0.000000
0.646286 0.235751 0.098906
0.645810 0.235276 0.235276
0.645335 0.234801 0.371646
0.644860 0.234325 0.508015
0.644385 0.233850 0.644385
0.643910 0.233375 0.780755
0.643434 0.232900 0.917124
0.643036 0.232501 1.000000
0.641977 0.368287 0.000000
0.641578 0.367889 0.094199
0.641103 0.367413 0.230569
0.640628 0.366938 0.366938
0.640153 0.366463 0.503308
0.639678 0.365988 0.639678
0.639202 0.365513 0.776047
0.638727 0.365037 0.912417
0.638329 0.364639 1.000000
0.637270 0.500425 0.000000
0.636871 0.500026 0.089492
0.636396 0.499551 0.225861
0.635921 0.499076 0.362231
0.635446 0.498601 0.498601
0.634970 0.498126 0.634970
0.634495 0.497650 0.771340
0.634020 0.497175 0.907710
0.633622 0.496777 1.000000
0.632562 0.632562 0.000000
0.632164 0.632164 0.084784
0.631689 0.631689 0.221154
0.631214 0.631214 0.357524
0.630738 0.630738 0.493893
0.630263 0.630263 0.630263
0.629788 0.629788 0.766633
0.629313 0.629313 0.903003
0.628914 0.628914 1.000000
0.627855 0.764700 0.000000
0.627457 0.764302 0.080077
0.626982 0.763826 0.216447
0.626506 0.763351 0.352817
0.626031 0.762876 0.489186
0.625556 0.762401 0.625556
0.625081 0.761926 0.761926
0.624606 0.761450 0.898295
0.624207 0.761052 1.000000
0.623148 0.896838 0.000000
0.622749 0.896439 0.075370
0.622274 0.895964 0.211740
0.621799 0.895489 0.348109
0.621324 0.895014 0.484479
0.620849 0.894538 0.620849
0.620373 0.894063 0.757218
0.619898 0.893588 0.893588
0.619500 0.893190 1.000000
0.619201 1.000000 0.000000
0.618803 1.000000 0.071423
0.618328 1.000000 0.207793
0.617853 1.000000 0.344163
0.617377 1.000000 0.480533
0.616902 1.000000 0.616902
0.616427 1.000000 0.753272
0.615952 1.000000 0.889642
0.615553 1.000000 1.000000
0.790783 0.000000 0.000000
0.790385 0.000000 0.106161
0.789910 0.000000 0.242530
0.789435 0.000000 0.378900
0.788959 0.000000 0.515270
0.788484 0.000000 0.651639
0.788009 0.000000 0.788009
0.787534 0.000000 0.924379
0.787135 0.000000 1.000000
0.786837 0.102613 0.000000
0.786439 0.102214 0.102214
0.785963 0.101739 0.238584
0.785488 0.101264 0.374954
0.785013 0.100789 0.511323
0.784538 0.100313 0.647693
0.784063 0.099838 0.784063
0.783587 0.099363 0.920432
0.783189 0.098965 1.000000
0.782130 0.234750 0.000000
0.781731 0.234352 0.097507
0.781256 0.233877 0.233877
0.780781 0.233401 0.370246
0.780306 0.232926 0.506616
0.779830 0.232451 0.642986
0.779355 0.231976 0.779355
0.778880 0.231501 0.915725
0.778482 0.231102 1.000000
0.777422 0.366888 0.000000
0.777024 0.366489 0.092800
0.776549 0.366014 0.229169
0.776074 0.365539 0.365539
0.775598 0.365064 0.501909
0.775123 0.364589 0.638278
0.774648 0.364113 0.774648
0.774173 0.363638 0.911018
0.773774 0.363240 1.000000
0.772715 0.499025 0.000000
0.772317 0.498627 0.088092
0.771842 0.498152 0.224462
0.771366 0.497677 0.360832
0.770891 0.497201 0.497201
0.770416 0.496726 0.633571
0.769941 0.496251 0.769941
0.769466 0.495776 0.906310
0.769067 0.495377 1.000000
0.768008 0.631163 0.000000
0.767610 0.630765 0.083385
0.767134 0.630289 0.219755
0.766659 0.629814 0.356125
0.766184 0.629339 0.492494
0.765709 0.628864 0.628864
0.765234 0.628389 0.765234
0.764758 0.627913 0.901603
0.764360 0.627515 1.000000
0.763301 0.763301 0.000000
0.762902 0.762902 0.078678
0.762427 0.762427 0.215048
0.761952 0.761952 0.351417
0.761477 0.761477 0.487787
0.761002 0.761002 0.624157
0.760526 0.760526 0.760526
0.760051 0.760051 0.896896
0.759653 0.759653 1.000000
0.758593 0.895438 0.000000
0.758195 0.895040 0.073971
0.757720 0.894565 0.210340
0.757245 0.894090 0.346710
0.756769 0.893614 0.483080
0.756294 0.893139 0.619449
0.755819 0.892664 0.755819
0.755344 0.892189 0.892189
0.754945 0.891790 1.000000
0.754647 1.000000 0.000000
0.754249 1.000000 0.070024
0.753773 1.000000 0.206394
0.753298 1.000000 0.342764
0.752823 1.000000 0.479133
0.752348 1.000000 0.615503
0.751873 1.000000 0.751873
0.751397 1.000000 0.888242
0.750999 1.000000 1.000000
0.926229 0.000000 0.000000
0.925831 0.000000 0.104761
0.925355 0.000000 0.241131
0.924880 0.000000 0.377501
0.924405 0.000000 0.513870
0.923930 0.000000 0.650240
0.923455 0.000000 0.786610
0.922979 0.000000 0.922979
0.922581 0.000000 1.000000
0.922283 0.101213 0.000000
0.921884 0.100815 0.100815
0.921409 0.100340 0.237185
0.920934 0.099864 0.373554
0.920459 0.099389 0.509924
0.919983 0.098914 0.646294
0.919508 0.098439 0.782663
0.919033 0.097964 0.919033
0.918635 0.097565 1.000000
0.917575 0.233351 0.000000
0.917177 0.232953 0.096108
0.916702 0.232477 0.232477
0.916226 0.232002 0.368847
0.915751 0.231527 0.505217
0.915276 0.231052 0.641586
0.914801 0.230577 0.777956
0.914326 0.230101 0.914326
0.913927 0.229703 1.000000
0.912868 0.365489 0.000000
0.912470 0.365090 0.091400
0.911994 0.364615 0.227770
0.911519 0.364140 0.364140
0.911044 0.363665 0.500509
0.910569 0.363189 0.636879
0.910094 0.362714 0.773249
0.909618 0.362239 0.909618
0.909220 0.361841 1.000000
0.908161 0.497626 0.000000
0.907762 0.497228 0.086693
0.907287 0.496753 0.223063
0.906812 0.496277 0.359433
0.906337 0.495802 0.495802
0.905862 0.495327 0.632172
0.905386 0.494852 0.768542
0.904911 0.494377 0.904911
0.904513 0.493978 1.000000
0.903454 0.629764 0.000000
0.903055 0.629365 0.081986
0.902580 0.628890 0.218356
0.902105 0.628415 0.354725
0.901630 0.627940 0.491095
0.901154 0.627465 0.627465
0.900679 0.626989 0.763834
0.900204 0.626514 0.900204
0.899806 0.626116 1.000000
0.898746 0.761901 0.000000
0.898348 0.761503 0.077279
0.897873 0.761028 0.213648
0.897398 0.760553 0.350018
0.896922 0.760077 0.486388
0.896447 0.759602 0.622757
0.895972 0.759127 0.759127
0.895497 0.758652 0.895497
0.895098 0.758253 1.000000
0.894039 0.894039 0.000000
0.893641 0.893641 0.072571
0.893165 0.893165 0.208941
0.892690 0.892690 0.345311
0.892215 0.892215 0.481680
0.891740 0.891740 0.618050
0.891265 0.891265 0.754420
0.890789 0.890789 0.890789
0.890391 0.890391 1.000000
0.890093 1.000000 0.000000
0.889694 1.000000 0.068625
0.889219 1.000000 0.204995
0.888744 1.000000 0.341364
0.888269 1.000000 0.477734
0.887793 1.000000 0.614104
0.887318 1.000000 0.750473
0.886843 1.000000 0.886843
0.886445 1.000000 1.000000
1.000000 0.000000 0.000000
1.000000 0.000000 0.103588
1.000000 0.000000 0.239958
1.000000 0.000000 0.376328
1.000000 0.000000 0.512697
1.000000 0.000000 0.649067
1.000000 0.000000 0.785437
1.000000 0.000000 0.921806
1.000000 0.000000 1.000000
1.000000 0.100040 0.000000
1.000000 0.099642 0.099642
1.000000 0.099167 0.236011
1.000000 0.098691 0.372381
1.000000 0.098216 0.508751
1.000000 0.097741 0.645120
1.000000 0.097266 0.781490
1.000000 0.096791 0.917860
1.000000 0.096392 1.000000
1.000000 0.232178 0.000000
1.000000 0.231779 0.094935
1.000000 0.231304 0.231304
1.000000 0.230829 0.367674
1.000000 0.230354 0.504044
1.000000 0.229879 0.640413
1.000000 0.229403 0.776783
1.000000 0.228928 0.913153
1.000000 0.228530 1.000000
1.000000 0.364315 0.000000
1.000000 0.363917 0.090227
1.000000 0.363442 0.226597
1.000000 0.362967 0.362967
1.000000 0.362491 0.499336
1.000000 0.362016 0.635706
1.000000 0.361541 0.772076
1.000000 0.361066 0.908445
1.000000 0.360667 1.000000
1.000000 0.496453 0.000000
1.000000 0.496055 0.085520
1.000000 0.495579 0.221890
1.000000 0.495104 0.358259
1.000000 0.494629 0.494629
1.000000 0.494154 0.630999
1.000000 0.493679 0.767368
1.000000 0.493203 0.903738
1.000000 0.492805 1.000000
1.000000 0.628591 0.000000
1.000000 0.628192 0.080813
1.000000 0.627717 0.217182
1.000000 0.627242 0.353552
1.000000 0.626767 0.489922
1.000000 0.626291 0.626291
1.000000 0.625816 0.762661
1.000000 0.625341 0.899031
1.000000 0.624943 1.000000
1.000000 0.760728 0.000000
1.000000 0.760330 0.076106
1.000000 0.759855 0.212475
1.000000 0.759380 0.348845
1.000000 0.758904 0.485215
1.000000 0.758429 0.621584
1.000000 0.757954 0.757954
1.000000 0.757479 0.894324
1.000000 0.757080 1.000000
1.000000 0.892866 0.000000
1.000000 0.892468 0.071398
1.000000 0.891992 0.207768
1.000000 0.891517 0.344138
1.000000 0.891042 0.480507
1.000000 0.890567 0.616877
1.000000 0.890092 0.753247
1.000000 0.889616 0.889616
1.000000 0.889218 1.000000
1.000000 1.000000 0.000000
1.000000 1.000000 0.067452
1.000000 1.000000 0.203821
1.000000 1.000000 0.340191
1.000000 1.000000 0.476561
1.000000 1.000000 0.612931
1.000000 1.000000 0.749300
1.000000 1.000000 0.885670
1.000000 1.000000 1.000000
