skills/creativeops-producer-ios/assets/grade/luts/soft_pastel_v16.cube
TITLE "soft_pastel_v16"
LUT_3D_SIZE 5
DOMAIN_MIN 0.0 0.0 0.0
DOMAIN_MAX 1.0 1.0 1.0
0.076758 0.070047 0.063293
0.079863 0.073152 0.269489
0.082819 0.076108 0.465811
0.085705 0.078994 0.657466
0.088544 0.081833 0.846029
0.107430 0.303262 0.093965
0.110535 0.306367 0.300161
0.113491 0.309323 0.496483
0.116377 0.312209 0.688138
0.119216 0.315048 0.876700
0.136684 0.525695 0.123218
0.139788 0.528800 0.329415
0.142745 0.531756 0.525736
0.145630 0.534642 0.717392
0.148469 0.537481 0.905954
0.165252 0.742920 0.151787
0.168357 0.746025 0.357983
0.171313 0.748981 0.554305
0.174199 0.751866 0.745960
0.177038 0.754706 0.934523
0.193001 0.953910 0.179536
0.196106 0.957015 0.385732
0.199062 0.959971 0.582054
0.201948 0.962856 0.773709
0.204787 0.965696 0.962271
0.287883 0.079141 0.072387
0.290988 0.082246 0.278584
0.293944 0.085202 0.474905
0.296830 0.088088 0.666561
0.299669 0.090927 0.855123
0.318555 0.312357 0.103059
0.321659 0.315461 0.309255
0.324615 0.318417 0.505577
0.327501 0.321303 0.697232
0.330340 0.324142 0.885795
0.347808 0.534790 0.132313
0.350913 0.537894 0.338509
0.353869 0.540851 0.534831
0.356755 0.543736 0.726486
0.359594 0.546575 0.915048
0.376377 0.752014 0.160881
0.379482 0.755119 0.367078
0.382438 0.758075 0.563399
0.385324 0.760961 0.755055
0.388163 0.763800 0.943617
0.404126 0.963004 0.188630
0.407230 0.966109 0.394826
0.410186 0.969065 0.591148
0.413072 0.971951 0.782803
0.415911 0.974790 0.971366
0.489568 0.087829 0.081075
0.492672 0.090934 0.287271
0.495628 0.093890 0.483593
0.498514 0.096776 0.675248
0.501353 0.099615 0.863811
0.520239 0.321044 0.111747
0.523344 0.324149 0.317943
0.526300 0.327105 0.514265
0.529186 0.329991 0.705920
0.532025 0.332830 0.894482
0.549493 0.543477 0.141000
0.552598 0.546582 0.347197
0.555554 0.549538 0.543518
0.558439 0.552424 0.735174
0.561279 0.555263 0.923736
0.578062 0.760702 0.169569
0.581166 0.763807 0.375765
0.584122 0.766763 0.572087
0.587008 0.769649 0.763742
0.589847 0.772488 0.952305
0.605810 0.971692 0.197318
0.608915 0.974797 0.403514
0.611871 0.977753 0.599836
0.614757 0.980638 0.791491
0.617596 0.983478 0.980053
0.686599 0.096316 0.089562
0.689703 0.099421 0.295758
0.692659 0.102377 0.492080
0.695545 0.105263 0.683735
0.698384 0.108102 0.872298
0.717270 0.329532 0.120234
0.720375 0.332636 0.326430
0.723331 0.335592 0.522752
0.726217 0.338478 0.714407
0.729056 0.341317 0.902970
0.746524 0.551965 0.149488
0.749629 0.555069 0.355684
0.752585 0.558025 0.552006
0.755470 0.560911 0.743661
0.758310 0.563750 0.932223
0.775093 0.769189 0.178056
0.778197 0.772294 0.384253
0.781153 0.775250 0.580574
0.784039 0.778136 0.772230
0.786878 0.780975 0.960792
0.802841 0.980179 0.205805
0.805946 0.983284 0.412001
0.808902 0.986240 0.608323
0.811788 0.989126 0.799978
0.814627 0.991965 0.988541
0.871919 0.104299 0.097545
0.875024 0.107404 0.303741
0.877980 0.110360 0.500063
0.880866 0.113246 0.691718
0.883705 0.116085 0.880281
0.902591 0.337514 0.128217
0.905696 0.340619 0.334413
0.908652 0.343575 0.530735
0.911537 0.346461 0.722390
0.914377 0.349300 0.910953
0.931845 0.559948 0.157470
0.934949 0.563052 0.363667
0.937905 0.566008 0.559989
0.940791 0.568894 0.751644
0.943630 0.571733 0.940206
0.960413 0.777172 0.186039
0.963518 0.780277 0.392235
0.966474 0.783233 0.588557
0.969360 0.786119 0.780212
0.972199 0.788958 0.968775
0.988162 0.988162 0.213788
0.991267 0.991267 0.419984
0.994223 0.994223 0.616306
0.997108 0.997108 0.807961
0.999948 0.999948 0.996524
