skills/creativeops-producer-ios/assets/grade/luts/soft_pastel_v15.cube
TITLE "soft_pastel_v15"
LUT_3D_SIZE 9
DOMAIN_MIN 0.0 0.0 0.0
DOMAIN_MAX 1.0 1.0 1.0
0.072699 0.066373 0.060008
0.074228 0.067902 0.166077
0.075699 0.069373 0.268151
0.077140 0.070813 0.368102
0.078559 0.072233 0.466599
0.079963 0.073636 0.563992
0.081354 0.075027 0.660496
0.082734 0.076407 0.756257
0.084105 0.077778 0.851380
0.087791 0.185649 0.075100
0.089319 0.187177 0.181168
0.090790 0.188649 0.283242
0.092231 0.190089 0.383193
0.093650 0.191509 0.481690
0.095054 0.192912 0.579083
0.096445 0.194303 0.675587
0.097825 0.195683 0.771348
0.099196 0.197054 0.866471
0.102341 0.300649 0.089650
0.103870 0.302177 0.195718
0.105341 0.303648 0.297792
0.106781 0.305089 0.397743
0.108201 0.306508 0.496241
0.109604 0.307912 0.593633
0.110995 0.309303 0.690137
0.112375 0.310683 0.785898
0.113746 0.312054 0.881021
0.116596 0.413316 0.103905
0.118125 0.414845 0.209973
0.119596 0.416316 0.312048
0.121036 0.417756 0.411999
0.122456 0.419176 0.510496
0.123859 0.420580 0.607888
0.125250 0.421970 0.704392
0.126630 0.423351 0.800153
0.128001 0.424721 0.895276
0.130647 0.524373 0.117956
0.132176 0.525902 0.224025
0.133647 0.527373 0.326099
0.135088 0.528813 0.426050
0.136507 0.530233 0.524547
0.137911 0.531637 0.621940
0.139302 0.533027 0.718444
0.140682 0.534407 0.814204
0.142053 0.535778 0.909327
0.144543 0.634202 0.131852
0.146072 0.635730 0.237921
0.147543 0.637201 0.339995
0.148983 0.638642 0.439946
0.150403 0.640061 0.538443
0.151807 0.641465 0.635836
0.153197 0.642856 0.732340
0.154578 0.644236 0.828100
0.155948 0.645607 0.923223
0.158314 0.743038 0.145623
0.159842 0.744567 0.251691
0.161313 0.746038 0.353765
0.162754 0.747479 0.453716
0.164173 0.748898 0.552213
0.165577 0.750302 0.649606
0.166968 0.751693 0.746110
0.168348 0.753073 0.841871
0.169719 0.754444 0.936994
0.171979 0.851045 0.159288
0.173508 0.852573 0.265356
0.174979 0.854044 0.367431
0.176419 0.855485 0.467382
0.177839 0.856905 0.565879
0.179242 0.858308 0.663271
0.180633 0.859699 0.759775
0.182013 0.861079 0.855536
0.183384 0.862450 0.950659
0.185181 0.955388 0.172490
0.186710 0.956917 0.278558
0.188181 0.958388 0.380632
0.189621 0.959828 0.480583
0.191041 0.961248 0.579081
0.192444 0.962652 0.676473
0.193835 0.964042 0.772977
0.195215 0.965422 0.868738
0.196586 0.966793 0.963861
0.181027 0.070845 0.064480
0.182556 0.072374 0.170549
0.184027 0.073845 0.272623
0.185467 0.075285 0.372574
0.186887 0.076705 0.471071
0.188291 0.078108 0.568464
0.189681 0.079499 0.664968
0.191061 0.080879 0.760728
0.192432 0.082250 0.855851
0.196118 0.190121 0.079572
0.197647 0.191649 0.185640
0.199118 0.193120 0.287714
0.200559 0.194561 0.387665
0.201978 0.195980 0.486162
0.203382 0.197384 0.583555
0.204773 0.198775 0.680059
0.206153 0.200155 0.775820
0.207524 0.201526 0.870943
0.210669 0.305121 0.094122
0.212197 0.306649 0.200190
0.213668 0.308120 0.302264
0.215109 0.309561 0.402215
0.216528 0.310980 0.500712
0.217932 0.312384 0.598105
0.219323 0.313775 0.694609
0.220703 0.315155 0.790370
0.222074 0.316526 0.885493
0.224924 0.417788 0.108377
0.226452 0.419317 0.214445
0.227923 0.420788 0.316519
0.229364 0.422228 0.416470
0.230783 0.423648 0.514967
0.232187 0.425051 0.612360
0.233578 0.426442 0.708864
0.234958 0.427822 0.804625
0.236329 0.429193 0.899748
0.238975 0.528845 0.122428
0.240504 0.530374 0.228497
0.241975 0.531845 0.330571
0.243415 0.533285 0.430522
0.244835 0.534705 0.529019
0.246238 0.536108 0.626412
0.247629 0.537499 0.722915
0.249009 0.538879 0.818676
0.250380 0.540250 0.913799
0.252871 0.638673 0.136324
0.254399 0.640202 0.242392
0.255871 0.641673 0.344467
0.257311 0.643114 0.444418
0.258731 0.644533 0.542915
0.260134 0.645937 0.640308
0.261525 0.647328 0.736811
0.262905 0.648708 0.832572
0.264276 0.650079 0.927695
0.266641 0.747510 0.150094
0.268170 0.749039 0.256163
0.269641 0.750510 0.358237
0.271081 0.751950 0.458188
0.272501 0.753370 0.556685
0.273905 0.754774 0.654078
0.275295 0.756164 0.750582
0.276676 0.757545 0.846343
0.278047 0.758915 0.941466
0.280307 0.855517 0.163760
0.281835 0.857045 0.269828
0.283306 0.858516 0.371902
0.284747 0.859957 0.471853
0.286166 0.861376 0.570350
0.287570 0.862780 0.667743
0.288961 0.864171 0.764247
0.290341 0.865551 0.860008
0.291712 0.866922 0.955131
0.293508 0.959860 0.176962
0.295037 0.961389 0.283030
0.296508 0.962860 0.385104
0.297949 0.964300 0.485055
0.299368 0.965720 0.583552
0.300772 0.967123 0.680945
0.302163 0.968514 0.777449
0.303543 0.969894 0.873210
0.304914 0.971265 0.968333
0.285647 0.075164 0.068799
0.287176 0.076692 0.174867
0.288647 0.078163 0.276942
0.290087 0.079604 0.376893
0.291507 0.081023 0.475390
0.292910 0.082427 0.572783
0.294301 0.083818 0.669286
0.295681 0.085198 0.765047
0.297052 0.086569 0.860170
0.300738 0.194439 0.083890
0.302267 0.195968 0.189959
0.303738 0.197439 0.292033
0.305179 0.198880 0.391984
0.306598 0.200299 0.490481
0.308002 0.201703 0.587874
0.309393 0.203094 0.684378
0.310773 0.204474 0.780138
0.312144 0.205845 0.875261
0.315288 0.309439 0.098440
0.316817 0.310968 0.204509
0.318288 0.312439 0.306583
0.319729 0.313880 0.406534
0.321148 0.315299 0.505031
0.322552 0.316703 0.602424
0.323943 0.318094 0.698928
0.325323 0.319474 0.794689
0.326694 0.320845 0.889812
0.329544 0.422107 0.112696
0.331072 0.423635 0.218764
0.332543 0.425107 0.320838
0.333984 0.426547 0.420789
0.335403 0.427967 0.519286
0.336807 0.429370 0.616679
0.338198 0.430761 0.713183
0.339578 0.432141 0.808944
0.340949 0.433512 0.904067
0.343595 0.533164 0.126747
0.345124 0.534692 0.232815
0.346595 0.536164 0.334889
0.348035 0.537604 0.434841
0.349455 0.539024 0.533338
0.350858 0.540427 0.630730
0.352249 0.541818 0.727234
0.353629 0.543198 0.822995
0.355000 0.544569 0.918118
0.357491 0.642992 0.140643
0.359019 0.644521 0.246711
0.360491 0.645992 0.348785
0.361931 0.647432 0.448736
0.363351 0.648852 0.547233
0.364754 0.650256 0.644626
0.366145 0.651646 0.741130
0.367525 0.653027 0.836891
0.368896 0.654397 0.932014
0.371261 0.751829 0.154413
0.372790 0.753358 0.260482
0.374261 0.754829 0.362556
0.375701 0.756269 0.462507
0.377121 0.757689 0.561004
0.378525 0.759092 0.658397
0.379915 0.760483 0.754901
0.381296 0.761863 0.850661
0.382666 0.763234 0.945784
0.384927 0.859835 0.168079
0.386455 0.861364 0.274147
0.387926 0.862835 0.376221
0.389367 0.864276 0.476172
0.390786 0.865695 0.574669
0.392190 0.867099 0.672062
0.393581 0.868490 0.768566
0.394961 0.869870 0.864327
0.396332 0.871241 0.959450
0.398128 0.964179 0.181280
0.399657 0.965707 0.287349
0.401128 0.967178 0.389423
0.402569 0.968619 0.489374
0.403988 0.970039 0.587871
0.405392 0.971442 0.685264
0.406783 0.972833 0.781768
0.408163 0.974213 0.877529
0.409534 0.975584 0.972652
0.388197 0.079397 0.073032
0.389725 0.080926 0.179101
0.391197 0.082397 0.281175
0.392637 0.083837 0.381126
0.394057 0.085257 0.479623
0.395460 0.086660 0.577016
0.396851 0.088051 0.673520
0.398231 0.089431 0.769281
0.399602 0.090802 0.864404
0.403288 0.198673 0.088124
0.404817 0.200201 0.194192
0.406288 0.201673 0.296266
0.407728 0.203113 0.396217
0.409148 0.204533 0.494714
0.410551 0.205936 0.592107
0.411942 0.207327 0.688611
0.413322 0.208707 0.784372
0.414693 0.210078 0.879495
0.417838 0.313673 0.102674
0.419367 0.315201 0.208742
0.420838 0.316672 0.310816
0.422278 0.318113 0.410767
0.423698 0.319532 0.509264
0.425102 0.320936 0.606657
0.426492 0.322327 0.703161
0.427872 0.323707 0.798922
0.429243 0.325078 0.894045
0.432093 0.426340 0.116929
0.433622 0.427869 0.222997
0.435093 0.429340 0.325071
0.436533 0.430780 0.425023
0.437953 0.432200 0.523520
0.439357 0.433604 0.620912
0.440747 0.434994 0.717416
0.442128 0.436375 0.813177
0.443499 0.437745 0.908300
0.446145 0.537397 0.130980
0.447673 0.538926 0.237049
0.449144 0.540397 0.339123
0.450585 0.541837 0.439074
0.452004 0.543257 0.537571
0.453408 0.544661 0.634964
0.454799 0.546051 0.731468
0.456179 0.547431 0.827228
0.457550 0.548802 0.922351
0.460040 0.647226 0.144876
0.461569 0.648754 0.250945
0.463040 0.650225 0.353019
0.464481 0.651666 0.452970
0.465900 0.653085 0.551467
0.467304 0.654489 0.648860
0.468695 0.655880 0.745363
0.470075 0.657260 0.841124
0.471446 0.658631 0.936247
0.473811 0.756062 0.158647
0.475340 0.757591 0.264715
0.476811 0.759062 0.366789
0.478251 0.760503 0.466740
0.479671 0.761922 0.565237
0.481074 0.763326 0.662630
0.482465 0.764717 0.759134
0.483845 0.766097 0.854895
0.485216 0.767468 0.950018
0.487476 0.864069 0.172312
0.489005 0.865597 0.278380
0.490476 0.867068 0.380454
0.491916 0.868509 0.480406
0.493336 0.869929 0.578903
0.494740 0.871332 0.676295
0.496130 0.872723 0.772799
0.497511 0.874103 0.868560
0.498882 0.875474 0.963683
0.500678 0.968412 0.185514
0.502207 0.969941 0.291582
0.503678 0.971412 0.393656
0.505118 0.972852 0.493607
0.506538 0.974272 0.592104
0.507942 0.975675 0.689497
0.509332 0.977066 0.786001
0.510712 0.978446 0.881762
0.512083 0.979817 0.976885
0.489305 0.083571 0.077206
0.490834 0.085100 0.183275
0.492305 0.086571 0.285349
0.493746 0.088011 0.385300
0.495165 0.089431 0.483797
0.496569 0.090834 0.581190
0.497960 0.092225 0.677694
0.499340 0.093605 0.773454
0.500711 0.094976 0.868577
0.504397 0.202847 0.092297
0.505925 0.204375 0.198366
0.507396 0.205846 0.300440
0.508837 0.207287 0.400391
0.510256 0.208706 0.498888
0.511660 0.210110 0.596281
0.513051 0.211501 0.692785
0.514431 0.212881 0.788546
0.515802 0.214252 0.883669
0.518947 0.317846 0.106848
0.520475 0.319375 0.212916
0.521947 0.320846 0.314990
0.523387 0.322287 0.414941
0.524807 0.323706 0.513438
0.526210 0.325110 0.610831
0.527601 0.326501 0.707335
0.528981 0.327881 0.803096
0.530352 0.329252 0.898219
0.533202 0.430514 0.121103
0.534731 0.432043 0.227171
0.536202 0.433514 0.329245
0.537642 0.434954 0.429196
0.539062 0.436374 0.527693
0.540465 0.437777 0.625086
0.541856 0.439168 0.721590
0.543236 0.440548 0.817351
0.544607 0.441919 0.912474
0.547253 0.541571 0.135154
0.548782 0.543100 0.241222
0.550253 0.544571 0.343297
0.551693 0.546011 0.443248
0.553113 0.547431 0.541745
0.554517 0.548834 0.639138
0.555907 0.550225 0.735641
0.557288 0.551605 0.831402
0.558658 0.552976 0.926525
0.561149 0.651399 0.149050
0.562678 0.652928 0.255118
0.564149 0.654399 0.357193
0.565589 0.655840 0.457144
0.567009 0.657259 0.555641
0.568413 0.658663 0.653033
0.569803 0.660054 0.749537
0.571183 0.661434 0.845298
0.572554 0.662805 0.940421
0.574920 0.760236 0.162820
0.576448 0.761765 0.268889
0.577919 0.763236 0.370963
0.579360 0.764676 0.470914
0.580779 0.766096 0.569411
0.582183 0.767500 0.666804
0.583574 0.768890 0.763308
0.584954 0.770270 0.859069
0.586325 0.771641 0.954192
0.588585 0.868243 0.176486
0.590114 0.869771 0.282554
0.591585 0.871242 0.384628
0.593025 0.872683 0.484579
0.594445 0.874102 0.583076
0.595848 0.875506 0.680469
0.597239 0.876897 0.776973
0.598619 0.878277 0.872734
0.599990 0.879648 0.967857
0.601787 0.972586 0.189688
0.603315 0.974115 0.295756
0.604787 0.975586 0.397830
0.606227 0.977026 0.497781
0.607647 0.978446 0.596278
0.609050 0.979849 0.693671
0.610441 0.981240 0.790175
0.611821 0.982620 0.885936
0.613192 0.983991 0.981059
0.589310 0.087699 0.081335
0.590839 0.089228 0.187403
0.592310 0.090699 0.289477
0.593750 0.092139 0.389428
0.595170 0.093559 0.487925
0.596574 0.094963 0.585318
0.597964 0.096353 0.681822
0.599345 0.097733 0.777583
0.600716 0.099104 0.872706
0.604401 0.206975 0.096426
0.605930 0.208504 0.202494
0.607401 0.209975 0.304568
0.608842 0.211415 0.404519
0.610261 0.212835 0.503016
0.611665 0.214238 0.600409
0.613056 0.215629 0.696913
0.614436 0.217009 0.792674
0.615807 0.218380 0.887797
0.618952 0.321975 0.110976
0.620480 0.323503 0.217044
0.621951 0.324975 0.319118
0.623392 0.326415 0.419070
0.624811 0.327835 0.517567
0.626215 0.329238 0.614959
0.627606 0.330629 0.711463
0.628986 0.332009 0.807224
0.630357 0.333380 0.902347
0.633207 0.434642 0.125231
0.634735 0.436171 0.231299
0.636206 0.437642 0.333374
0.637647 0.439083 0.433325
0.639067 0.440502 0.531822
0.640470 0.441906 0.629215
0.641861 0.443297 0.725718
0.643241 0.444677 0.821479
0.644612 0.446048 0.916602
0.647258 0.545699 0.139282
0.648787 0.547228 0.245351
0.650258 0.548699 0.347425
0.651698 0.550139 0.447376
0.653118 0.551559 0.545873
0.654521 0.552963 0.643266
0.655912 0.554353 0.739770
0.657292 0.555734 0.835530
0.658663 0.557104 0.930654
0.661154 0.655528 0.153178
0.662683 0.657056 0.259247
0.664154 0.658527 0.361321
0.665594 0.659968 0.461272
0.667014 0.661387 0.559769
0.668417 0.662791 0.657162
0.669808 0.664182 0.753666
0.671188 0.665562 0.849426
0.672559 0.666933 0.944549
0.674924 0.764364 0.166949
0.676453 0.765893 0.273017
0.677924 0.767364 0.375091
0.679365 0.768805 0.475042
0.680784 0.770224 0.573539
0.682188 0.771628 0.670932
0.683579 0.773019 0.767436
0.684959 0.774399 0.863197
0.686330 0.775770 0.958320
0.688590 0.872371 0.180614
0.690118 0.873899 0.286682
0.691589 0.875371 0.388757
0.693030 0.876811 0.488708
0.694450 0.878231 0.587205
0.695853 0.879634 0.684598
0.697244 0.881025 0.781101
0.698624 0.882405 0.876862
0.699995 0.883776 0.971985
0.701792 0.976714 0.193816
0.703320 0.978243 0.299884
0.704791 0.979714 0.401958
0.706232 0.981154 0.501910
0.707651 0.982574 0.600407
0.709055 0.983978 0.697799
0.710446 0.985368 0.794303
0.711826 0.986749 0.890064
0.713197 0.988119 0.985187
0.688422 0.091791 0.085426
0.689950 0.093319 0.191494
0.691422 0.094790 0.293569
0.692862 0.096231 0.393520
0.694282 0.097650 0.492017
0.695685 0.099054 0.589409
0.697076 0.100445 0.685913
0.698456 0.101825 0.781674
0.699827 0.103196 0.876797
0.703513 0.211066 0.100517
0.705042 0.212595 0.206586
0.706513 0.214066 0.308660
0.707953 0.215507 0.408611
0.709373 0.216926 0.507108
0.710776 0.218330 0.604501
0.712167 0.219721 0.701004
0.713547 0.221101 0.796765
0.714918 0.222472 0.891888
0.718063 0.326066 0.115067
0.719592 0.327595 0.221136
0.721063 0.329066 0.323210
0.722503 0.330506 0.423161
0.723923 0.331926 0.521658
0.725327 0.333330 0.619051
0.726717 0.334720 0.715555
0.728098 0.336101 0.811315
0.729468 0.337471 0.906439
0.732318 0.438734 0.129322
0.733847 0.440262 0.235391
0.735318 0.441733 0.337465
0.736759 0.443174 0.437416
0.738178 0.444593 0.535913
0.739582 0.445997 0.633306
0.740973 0.447388 0.729810
0.742353 0.448768 0.825571
0.743724 0.450139 0.920694
0.746370 0.549791 0.143374
0.747898 0.551319 0.249442
0.749369 0.552790 0.351516
0.750810 0.554231 0.451467
0.752229 0.555650 0.549964
0.753633 0.557054 0.647357
0.755024 0.558445 0.743861
0.756404 0.559825 0.839622
0.757775 0.561196 0.934745
0.760266 0.659619 0.157270
0.761794 0.661148 0.263338
0.763265 0.662619 0.365412
0.764706 0.664059 0.465363
0.766125 0.665479 0.563860
0.767529 0.666882 0.661253
0.768920 0.668273 0.757757
0.770300 0.669653 0.853518
0.771671 0.671024 0.948641
0.774036 0.768456 0.171040
0.775565 0.769984 0.277108
0.777036 0.771456 0.379183
0.778476 0.772896 0.479134
0.779896 0.774316 0.577631
0.781299 0.775719 0.675024
0.782690 0.777110 0.771527
0.784070 0.778490 0.867288
0.785441 0.779861 0.962411
0.787701 0.876462 0.184705
0.789230 0.877991 0.290774
0.790701 0.879462 0.392848
0.792142 0.880902 0.492799
0.793561 0.882322 0.591296
0.794965 0.883726 0.688689
0.796356 0.885116 0.785193
0.797736 0.886497 0.880954
0.799107 0.887867 0.976077
0.800903 0.980806 0.197907
0.802432 0.982334 0.303976
0.803903 0.983805 0.406050
0.805343 0.985246 0.506001
0.806763 0.986665 0.604498
0.808167 0.988069 0.701891
0.809557 0.989460 0.798395
0.810938 0.990840 0.894155
0.812308 0.992211 0.989279
0.786784 0.095851 0.089486
0.788313 0.097380 0.195555
0.789784 0.098851 0.297629
0.791224 0.100291 0.397580
0.792644 0.101711 0.496077
0.794047 0.103114 0.593470
0.795438 0.104505 0.689974
0.796818 0.105885 0.785735
0.798189 0.107256 0.880858
0.801875 0.215127 0.104578
0.803404 0.216655 0.210646
0.804875 0.218127 0.312720
0.806315 0.219567 0.412671
0.807735 0.220987 0.511168
0.809139 0.222390 0.608561
0.810529 0.223781 0.705065
0.811910 0.225161 0.800826
0.813281 0.226532 0.895949
0.816425 0.330127 0.119128
0.817954 0.331655 0.225196
0.819425 0.333126 0.327270
0.820866 0.334567 0.427221
0.822285 0.335986 0.525718
0.823689 0.337390 0.623111
0.825080 0.338781 0.719615
0.826460 0.340161 0.815376
0.827831 0.341532 0.910499
0.830681 0.442794 0.133383
0.832209 0.444323 0.239451
0.833680 0.445794 0.341525
0.835121 0.447234 0.441476
0.836540 0.448654 0.539974
0.837944 0.450058 0.637366
0.839335 0.451448 0.733870
0.840715 0.452828 0.829631
0.842086 0.454199 0.924754
0.844732 0.553851 0.147434
0.846261 0.555380 0.253503
0.847732 0.556851 0.355577
0.849172 0.558291 0.455528
0.850592 0.559711 0.554025
0.851995 0.561115 0.651418
0.853386 0.562505 0.747922
0.854766 0.563885 0.843682
0.856137 0.565256 0.938805
0.858628 0.663679 0.161330
0.860156 0.665208 0.267399
0.861628 0.666679 0.369473
0.863068 0.668120 0.469424
0.864488 0.669539 0.567921
0.865891 0.670943 0.665314
0.867282 0.672334 0.761817
0.868662 0.673714 0.857578
0.870033 0.675085 0.952701
0.872398 0.772516 0.175101
0.873927 0.774045 0.281169
0.875398 0.775516 0.383243
0.876838 0.776957 0.483194
0.878258 0.778376 0.581691
0.879662 0.779780 0.679084
0.881052 0.781171 0.775588
0.882433 0.782551 0.871349
0.883803 0.783922 0.966472
0.886064 0.880523 0.188766
0.887592 0.882051 0.294834
0.889063 0.883522 0.396908
0.890504 0.884963 0.496859
0.891923 0.886382 0.595357
0.893327 0.887786 0.692749
0.894718 0.889177 0.789253
0.896098 0.890557 0.885014
0.897469 0.891928 0.980137
0.899265 0.984866 0.201968
0.900794 0.986395 0.308036
0.902265 0.987866 0.410110
0.903706 0.989306 0.510061
0.905125 0.990726 0.608558
0.906529 0.992129 0.705951
0.907920 0.993520 0.802455
0.909300 0.994900 0.898216
0.910671 0.996271 0.993339
0.876070 0.099537 0.093172
0.877599 0.101065 0.199241
0.879070 0.102537 0.301315
0.880511 0.103977 0.401266
0.881930 0.105397 0.499763
0.883334 0.106800 0.597156
0.884725 0.108191 0.693660
0.886105 0.109571 0.789420
0.887476 0.110942 0.884543
0.891162 0.218813 0.108263
0.892690 0.220341 0.214332
0.894161 0.221812 0.316406
0.895602 0.223253 0.416357
0.897021 0.224672 0.514854
0.898425 0.226076 0.612247
0.899816 0.227467 0.708751
0.901196 0.228847 0.804512
0.902567 0.230218 0.899635
0.905712 0.333812 0.122814
0.907241 0.335341 0.228882
0.908712 0.336812 0.330956
0.910152 0.338253 0.430907
0.911572 0.339672 0.529404
0.912975 0.341076 0.626797
0.914366 0.342467 0.723301
0.915746 0.343847 0.819062
0.917117 0.345218 0.914185
0.919967 0.446480 0.137069
0.921496 0.448009 0.243137
0.922967 0.449480 0.345211
0.924407 0.450920 0.445162
0.925827 0.452340 0.543659
0.927230 0.453743 0.641052
0.928621 0.455134 0.737556
0.930001 0.456514 0.833317
0.931372 0.457885 0.928440
0.934018 0.557537 0.151120
0.935547 0.559066 0.257188
0.937018 0.560537 0.359263
0.938459 0.561977 0.459214
0.939878 0.563397 0.557711
0.941282 0.564800 0.655104
0.942673 0.566191 0.751607
0.944053 0.567571 0.847368
0.945424 0.568942 0.942491
0.947914 0.667365 0.165016
0.949443 0.668894 0.271084
0.950914 0.670365 0.373158
0.952354 0.671806 0.473110
0.953774 0.673225 0.571607
0.955178 0.674629 0.668999
0.956568 0.676020 0.765503
0.957949 0.677400 0.861264
0.959319 0.678771 0.956387
0.961685 0.776202 0.178786
0.963213 0.777731 0.284855
0.964684 0.779202 0.386929
0.966125 0.780642 0.486880
0.967544 0.782062 0.585377
0.968948 0.783466 0.682770
0.970339 0.784856 0.779274
0.971719 0.786236 0.875034
0.973090 0.787607 0.970158
0.975350 0.884208 0.192452
0.976879 0.885737 0.298520
0.978350 0.887208 0.400594
0.979790 0.888649 0.500545
0.981210 0.890068 0.599042
0.982613 0.891472 0.696435
0.984004 0.892863 0.792939
0.985384 0.894243 0.888700
0.986755 0.895614 0.983823
0.988552 0.988552 0.205654
0.990081 0.990081 0.311722
0.991552 0.991552 0.413796
0.992992 0.992992 0.513747
0.994412 0.994412 0.612244
0.995815 0.995815 0.709637
0.997206 0.997206 0.806141
0.998586 0.998586 0.901902
0.999957 0.999957 0.997025
