skills/creativeops-producer-ios/assets/grade/luts/soft_pastel_v14.cube
TITLE "soft_pastel_v14"
LUT_3D_SIZE 9
DOMAIN_MIN 0.0 0.0 0.0
DOMAIN_MAX 1.0 1.0 1.0
0.068640 0.062708 0.056742
0.070114 0.064182 0.163752
0.071534 0.065602 0.266825
0.072926 0.066993 0.367825
0.074297 0.068365 0.467407
0.075654 0.069722 0.565915
0.077000 0.071067 0.663559
0.078335 0.072402 0.760479
0.079661 0.073729 0.856780
0.083197 0.182472 0.071299
0.084672 0.183946 0.178310
0.086091 0.185366 0.281383
0.087483 0.186758 0.382382
0.088855 0.188129 0.481965
0.090212 0.189486 0.580473
0.091557 0.190832 0.678116
0.092892 0.192167 0.775037
0.094219 0.193493 0.871337
0.097244 0.298032 0.085345
0.098718 0.299506 0.192356
0.100138 0.300926 0.295429
0.101529 0.302317 0.396428
0.102901 0.303689 0.496011
0.104258 0.305046 0.594519
0.105603 0.306391 0.692162
0.106938 0.307726 0.789083
0.108265 0.309053 0.885384
0.111014 0.411321 0.099115
0.112488 0.412795 0.206126
0.113908 0.414215 0.309199
0.115299 0.415606 0.410198
0.116671 0.416978 0.509781
0.118028 0.418335 0.608289
0.119373 0.419680 0.705932
0.120708 0.421016 0.802853
0.122035 0.422342 0.899154
0.124594 0.523047 0.112696
0.126068 0.524521 0.219706
0.127488 0.525941 0.322779
0.128879 0.527332 0.423779
0.130251 0.528704 0.523361
0.131608 0.530061 0.621869
0.132953 0.531406 0.719512
0.134289 0.532741 0.816433
0.135615 0.534068 0.912734
0.138029 0.633582 0.126131
0.139504 0.635056 0.233142
0.140924 0.636476 0.336215
0.142315 0.637867 0.437214
0.143687 0.639239 0.536797
0.145044 0.640596 0.635305
0.146389 0.641941 0.732948
0.147724 0.643277 0.829869
0.149051 0.644603 0.926170
0.151348 0.743157 0.139450
0.152822 0.744631 0.246460
0.154242 0.746051 0.349534
0.155634 0.747442 0.450533
0.157005 0.748814 0.550115
0.158363 0.750171 0.648623
0.159708 0.751516 0.746267
0.161043 0.752851 0.843187
0.162369 0.754178 0.939488
0.164569 0.851927 0.152671
0.166043 0.853402 0.259682
0.167463 0.854822 0.362755
0.168855 0.856213 0.463754
0.170227 0.857585 0.563336
0.171584 0.858942 0.661844
0.172929 0.860287 0.759488
0.174264 0.861622 0.856408
0.175590 0.862949 0.952709
0.177326 0.956881 0.165428
0.178800 0.958355 0.272438
0.180220 0.959775 0.375512
0.181612 0.961166 0.476511
0.182984 0.962538 0.576093
0.184341 0.963895 0.674601
0.185686 0.965240 0.772245
0.187021 0.966575 0.869165
0.188347 0.967902 0.965466
0.177856 0.067022 0.061057
0.179330 0.068497 0.168067
0.180750 0.069917 0.271140
0.182142 0.071308 0.372139
0.183513 0.072680 0.471722
0.184870 0.074037 0.570230
0.186216 0.075382 0.667873
0.187551 0.076717 0.764794
0.188877 0.078044 0.861095
0.192413 0.186787 0.075614
0.193888 0.188261 0.182624
0.195307 0.189681 0.285697
0.196699 0.191072 0.386697
0.198071 0.192444 0.486279
0.199428 0.193801 0.584787
0.200773 0.195146 0.682431
0.202108 0.196481 0.779351
0.203435 0.197808 0.875652
0.206460 0.302346 0.089660
0.207934 0.303821 0.196671
0.209354 0.305241 0.299744
0.210745 0.306632 0.400743
0.212117 0.308004 0.500326
0.213474 0.309361 0.598833
0.214819 0.310706 0.696477
0.216154 0.312041 0.793398
0.217481 0.313368 0.889698
0.220230 0.415636 0.103430
0.221704 0.417110 0.210441
0.223124 0.418530 0.313514
0.224515 0.419921 0.414513
0.225887 0.421293 0.514096
0.227244 0.422650 0.612604
0.228589 0.423995 0.710247
0.229924 0.425330 0.807168
0.231251 0.426657 0.903469
0.233810 0.527362 0.117010
0.235284 0.528836 0.224021
0.236704 0.530256 0.327094
0.238095 0.531647 0.428093
0.239467 0.533019 0.527676
0.240824 0.534376 0.626184
0.242169 0.535721 0.723827
0.243505 0.537056 0.820748
0.244831 0.538383 0.917049
0.247245 0.637897 0.130446
0.248720 0.639371 0.237456
0.250140 0.640791 0.340530
0.251531 0.642182 0.441529
0.252903 0.643554 0.541111
0.254260 0.644911 0.639619
0.255605 0.646256 0.737263
0.256940 0.647591 0.834183
0.258267 0.648918 0.930484
0.260564 0.747471 0.143765
0.262038 0.748946 0.250775
0.263458 0.750365 0.353848
0.264850 0.751757 0.454848
0.266221 0.753129 0.554430
0.267579 0.754486 0.652938
0.268924 0.755831 0.750581
0.270259 0.757166 0.847502
0.271585 0.758493 0.943803
0.273785 0.856242 0.156986
0.275259 0.857716 0.263996
0.276679 0.859136 0.367069
0.278071 0.860528 0.468069
0.279443 0.861899 0.567651
0.280800 0.863257 0.666159
0.282145 0.864602 0.763802
0.283480 0.865937 0.860723
0.284806 0.867263 0.957024
0.286542 0.961195 0.169743
0.288016 0.962670 0.276753
0.289436 0.964090 0.379826
0.290828 0.965481 0.480826
0.292200 0.966853 0.580408
0.293557 0.968210 0.678916
0.294902 0.969555 0.776559
0.296237 0.970890 0.873480
0.297563 0.972217 0.969781
0.283404 0.071192 0.065226
0.284878 0.072666 0.172237
0.286298 0.074086 0.275310
0.287689 0.075478 0.376309
0.289061 0.076850 0.475892
0.290418 0.078207 0.574400
0.291763 0.079552 0.672043
0.293099 0.080887 0.768964
0.294425 0.082214 0.865265
0.297961 0.190957 0.079784
0.299435 0.192431 0.186794
0.300855 0.193851 0.289867
0.302247 0.195242 0.390866
0.303618 0.196614 0.490449
0.304976 0.197971 0.588957
0.306321 0.199316 0.686600
0.307656 0.200651 0.783521
0.308982 0.201978 0.879822
0.312007 0.306516 0.093830
0.313482 0.307990 0.200840
0.314901 0.309410 0.303913
0.316293 0.310802 0.404913
0.317665 0.312174 0.504495
0.319022 0.313531 0.603003
0.320367 0.314876 0.700647
0.321702 0.316211 0.797567
0.323029 0.317538 0.893868
0.325778 0.419805 0.107600
0.327252 0.421280 0.214611
0.328672 0.422700 0.317684
0.330063 0.424091 0.418683
0.331435 0.425463 0.518266
0.332792 0.426820 0.616773
0.334137 0.428165 0.714417
0.335472 0.429500 0.811338
0.336799 0.430827 0.907638
0.339358 0.531531 0.121180
0.340832 0.533005 0.228191
0.342252 0.534425 0.331264
0.343643 0.535817 0.432263
0.345015 0.537189 0.531846
0.346372 0.538546 0.630354
0.347717 0.539891 0.727997
0.349052 0.541226 0.824918
0.350379 0.542553 0.921219
0.352793 0.642066 0.134616
0.354267 0.643541 0.241626
0.355687 0.644961 0.344699
0.357079 0.646352 0.445699
0.358451 0.647724 0.545281
0.359808 0.649081 0.643789
0.361153 0.650426 0.741432
0.362488 0.651761 0.838353
0.363815 0.653088 0.934654
0.366112 0.751641 0.147934
0.367586 0.753115 0.254945
0.369006 0.754535 0.358018
0.370397 0.755927 0.459017
0.371769 0.757298 0.558600
0.373126 0.758655 0.657108
0.374471 0.760001 0.754751
0.375807 0.761336 0.851672
0.377133 0.762662 0.947973
0.379333 0.860412 0.161155
0.380807 0.861886 0.268166
0.382227 0.863306 0.371239
0.383618 0.864697 0.472238
0.384990 0.866069 0.571821
0.386347 0.867426 0.670329
0.387692 0.868771 0.767972
0.389028 0.870107 0.864893
0.390354 0.871433 0.961194
0.392090 0.965365 0.173912
0.393564 0.966839 0.280923
0.394984 0.968259 0.383996
0.396375 0.969651 0.484995
0.397747 0.971023 0.584578
0.399104 0.972380 0.683086
0.400449 0.973725 0.780729
0.401785 0.975060 0.877650
0.403111 0.976387 0.973951
0.386925 0.075282 0.069316
0.388400 0.076756 0.176327
0.389819 0.078176 0.279400
0.391211 0.079567 0.380399
0.392583 0.080939 0.479982
0.393940 0.082296 0.578490
0.395285 0.083641 0.676133
0.396620 0.084977 0.773054
0.397947 0.086303 0.869354
0.401483 0.195046 0.083873
0.402957 0.196520 0.190884
0.404377 0.197940 0.293957
0.405768 0.199332 0.394956
0.407140 0.200704 0.494539
0.408497 0.202061 0.593047
0.409842 0.203406 0.690690
0.411177 0.204741 0.787611
0.412504 0.206068 0.883912
0.415529 0.310606 0.097920
0.417003 0.312080 0.204930
0.418423 0.313500 0.308003
0.419814 0.314891 0.409002
0.421186 0.316263 0.508585
0.422543 0.317620 0.607093
0.423888 0.318965 0.704736
0.425223 0.320301 0.801657
0.426550 0.321627 0.897958
0.429299 0.423895 0.111690
0.430773 0.425369 0.218700
0.432193 0.426789 0.321773
0.433585 0.428181 0.422773
0.434956 0.429552 0.522355
0.436313 0.430909 0.620863
0.437659 0.432255 0.718507
0.438994 0.433590 0.815427
0.440320 0.434916 0.911728
0.442879 0.535621 0.125270
0.444353 0.537095 0.232281
0.445773 0.538515 0.335354
0.447165 0.539907 0.436353
0.448537 0.541278 0.535935
0.449894 0.542635 0.634443
0.451239 0.543981 0.732087
0.452574 0.545316 0.829008
0.453901 0.546642 0.925308
0.456315 0.646156 0.138705
0.457789 0.647630 0.245716
0.459209 0.649050 0.348789
0.460600 0.650442 0.449788
0.461972 0.651813 0.549371
0.463329 0.653171 0.647879
0.464674 0.654516 0.745522
0.466009 0.655851 0.842443
0.467336 0.657177 0.938744
0.469633 0.755731 0.152024
0.471108 0.757205 0.259035
0.472528 0.758625 0.362108
0.473919 0.760016 0.463107
0.475291 0.761388 0.562690
0.476648 0.762745 0.661198
0.477993 0.764090 0.758841
0.479328 0.765426 0.855762
0.480655 0.766752 0.952063
0.482855 0.864502 0.165245
0.484329 0.865976 0.272256
0.485749 0.867396 0.375329
0.487140 0.868787 0.476328
0.488512 0.870159 0.575911
0.489869 0.871516 0.674419
0.491214 0.872861 0.772062
0.492549 0.874196 0.868983
0.493876 0.875523 0.965284
0.495611 0.969455 0.178002
0.497086 0.970929 0.285013
0.498506 0.972349 0.388086
0.499897 0.973740 0.489085
0.501269 0.975112 0.588668
0.502626 0.976469 0.687176
0.503971 0.977814 0.784819
0.505306 0.979150 0.881740
0.506633 0.980476 0.978041
0.489041 0.079316 0.073350
0.490515 0.080790 0.180361
0.491935 0.082210 0.283434
0.493327 0.083602 0.384433
0.494698 0.084974 0.484016
0.496055 0.086331 0.582524
0.497401 0.087676 0.680167
0.498736 0.089011 0.777088
0.500062 0.090337 0.873389
0.503598 0.199081 0.087908
0.505073 0.200555 0.194918
0.506492 0.201975 0.297991
0.507884 0.203366 0.398990
0.509256 0.204738 0.498573
0.510613 0.206095 0.597081
0.511958 0.207440 0.694724
0.513293 0.208775 0.791645
0.514620 0.210102 0.887946
0.517645 0.314640 0.101954
0.519119 0.316114 0.208964
0.520539 0.317534 0.312037
0.521930 0.318926 0.413037
0.523302 0.320297 0.512619
0.524659 0.321655 0.611127
0.526004 0.323000 0.708771
0.527339 0.324335 0.805691
0.528666 0.325661 0.901992
0.531415 0.427929 0.115724
0.532889 0.429404 0.222735
0.534309 0.430823 0.325808
0.535700 0.432215 0.426807
0.537072 0.433587 0.526389
0.538429 0.434944 0.624897
0.539774 0.436289 0.722541
0.541109 0.437624 0.819462
0.542436 0.438951 0.915762
0.544995 0.539655 0.129304
0.546469 0.541129 0.236315
0.547889 0.542549 0.339388
0.549280 0.543941 0.440387
0.550652 0.545313 0.539970
0.552009 0.546670 0.638478
0.553354 0.548015 0.736121
0.554690 0.549350 0.833042
0.556016 0.550677 0.929343
0.558430 0.650190 0.142740
0.559905 0.651665 0.249750
0.561325 0.653085 0.352823
0.562716 0.654476 0.453823
0.564088 0.655848 0.553405
0.565445 0.657205 0.651913
0.566790 0.658550 0.749556
0.568125 0.659885 0.846477
0.569452 0.661212 0.942778
0.571749 0.759765 0.156058
0.573223 0.761239 0.263069
0.574643 0.762659 0.366142
0.576035 0.764051 0.467141
0.577407 0.765422 0.566724
0.578764 0.766779 0.665232
0.580109 0.768125 0.762875
0.581444 0.769460 0.859796
0.582770 0.770786 0.956097
0.584970 0.868536 0.169279
0.586444 0.870010 0.276290
0.587864 0.871430 0.379363
0.589256 0.872821 0.480362
0.590628 0.874193 0.579945
0.591985 0.875550 0.678453
0.593330 0.876895 0.776096
0.594665 0.878231 0.873017
0.595992 0.879557 0.969318
0.597727 0.973489 0.182036
0.599201 0.974963 0.289047
0.600621 0.976383 0.392120
0.602013 0.977775 0.493119
0.603385 0.979146 0.592702
0.604742 0.980504 0.691210
0.606087 0.981849 0.788853
0.607422 0.983184 0.885774
0.608749 0.984510 0.982075
0.590082 0.083308 0.077342
0.591556 0.084782 0.184353
0.592976 0.086202 0.287426
0.594367 0.087593 0.388425
0.595739 0.088965 0.488008
0.597096 0.090322 0.586515
0.598441 0.091667 0.684159
0.599777 0.093003 0.781080
0.601103 0.094329 0.877380
0.604639 0.203072 0.091899
0.606113 0.204546 0.198910
0.607533 0.205966 0.301983
0.608925 0.207358 0.402982
0.610296 0.208730 0.502565
0.611653 0.210087 0.601073
0.612999 0.211432 0.698716
0.614334 0.212767 0.795637
0.615660 0.214094 0.891938
0.618685 0.318632 0.105945
0.620160 0.320106 0.212956
0.621579 0.321526 0.316029
0.622971 0.322917 0.417028
0.624343 0.324289 0.516611
0.625700 0.325646 0.615119
0.627045 0.326991 0.712762
0.628380 0.328327 0.809683
0.629707 0.329653 0.905984
0.632456 0.431921 0.119716
0.633930 0.433395 0.226726
0.635350 0.434815 0.329799
0.636741 0.436207 0.430799
0.638113 0.437578 0.530381
0.639470 0.438935 0.628889
0.640815 0.440281 0.726532
0.642150 0.441616 0.823453
0.643477 0.442942 0.919754
0.646036 0.543647 0.133296
0.647510 0.545121 0.240306
0.648930 0.546541 0.343380
0.650321 0.547932 0.444379
0.651693 0.549304 0.543961
0.653050 0.550661 0.642469
0.654395 0.552006 0.740113
0.655730 0.553342 0.837033
0.657057 0.554668 0.933334
0.659471 0.654182 0.146731
0.660945 0.655656 0.253742
0.662365 0.657076 0.356815
0.663757 0.658468 0.457814
0.665129 0.659839 0.557397
0.666486 0.661196 0.655905
0.667831 0.662542 0.753548
0.669166 0.663877 0.850469
0.670493 0.665203 0.946770
0.672790 0.763757 0.160050
0.674264 0.765231 0.267061
0.675684 0.766651 0.370134
0.677075 0.768042 0.471133
0.678447 0.769414 0.570716
0.679804 0.770771 0.669224
0.681149 0.772116 0.766867
0.682485 0.773451 0.863788
0.683811 0.774778 0.960088
0.686011 0.872528 0.173271
0.687485 0.874002 0.280282
0.688905 0.875422 0.383355
0.690296 0.876813 0.484354
0.691668 0.878185 0.583937
0.693025 0.879542 0.682445
0.694370 0.880887 0.780088
0.695706 0.882222 0.877009
0.697032 0.883549 0.973309
0.698768 0.977481 0.186028
0.700242 0.978955 0.293039
0.701662 0.980375 0.396112
0.703053 0.981766 0.497111
0.704425 0.983138 0.596694
0.705782 0.984495 0.695202
0.707127 0.985840 0.792845
0.708463 0.987176 0.889766
0.709789 0.988502 0.986066
0.690253 0.087265 0.081299
0.691728 0.088740 0.188310
0.693148 0.090159 0.291383
0.694539 0.091551 0.392382
0.695911 0.092923 0.491965
0.697268 0.094280 0.590473
0.698613 0.095625 0.688116
0.699948 0.096960 0.785037
0.701275 0.098287 0.881338
0.704811 0.207030 0.095857
0.706285 0.208504 0.202867
0.707705 0.209924 0.305940
0.709096 0.211315 0.406940
0.710468 0.212687 0.506522
0.711825 0.214044 0.605030
0.713170 0.215389 0.702673
0.714505 0.216724 0.799594
0.715832 0.218051 0.895895
0.718857 0.322589 0.109903
0.720331 0.324064 0.216913
0.721751 0.325483 0.319987
0.723142 0.326875 0.420986
0.724514 0.328247 0.520568
0.725871 0.329604 0.619076
0.727216 0.330949 0.716720
0.728552 0.332284 0.813640
0.729878 0.333611 0.909941
0.732627 0.435879 0.123673
0.734101 0.437353 0.230684
0.735521 0.438773 0.333757
0.736913 0.440164 0.434756
0.738284 0.441536 0.534339
0.739641 0.442893 0.632847
0.740987 0.444238 0.730490
0.742322 0.445573 0.827411
0.743648 0.446900 0.923711
0.746207 0.547604 0.137253
0.747682 0.549079 0.244264
0.749101 0.550499 0.347337
0.750493 0.551890 0.448336
0.751865 0.553262 0.547919
0.753222 0.554619 0.646427
0.754567 0.555964 0.744070
0.755902 0.557299 0.840991
0.757229 0.558626 0.937292
0.759643 0.658140 0.150689
0.761117 0.659614 0.257699
0.762537 0.661034 0.360772
0.763928 0.662425 0.461772
0.765300 0.663797 0.561354
0.766657 0.665154 0.659862
0.768002 0.666499 0.757506
0.769337 0.667834 0.854426
0.770664 0.669161 0.950727
0.772962 0.767714 0.164007
0.774436 0.769188 0.271018
0.775856 0.770608 0.374091
0.777247 0.772000 0.475090
0.778619 0.773372 0.574673
0.779976 0.774729 0.673181
0.781321 0.776074 0.770824
0.782656 0.777409 0.867745
0.783983 0.778736 0.964046
0.786183 0.876485 0.177229
0.787657 0.877959 0.284239
0.789077 0.879379 0.387312
0.790468 0.880771 0.488311
0.791840 0.882142 0.587894
0.793197 0.883499 0.686402
0.794542 0.884845 0.784045
0.795877 0.886180 0.880966
0.797204 0.887506 0.977267
0.798940 0.981438 0.189986
0.800414 0.982913 0.296996
0.801834 0.984332 0.400069
0.803225 0.985724 0.501068
0.804597 0.987096 0.600651
0.805954 0.988453 0.699159
0.807299 0.989798 0.796802
0.808634 0.991133 0.893723
0.809961 0.992460 0.990024
0.789696 0.091194 0.085228
0.791171 0.092668 0.192239
0.792590 0.094088 0.295312
0.793982 0.095479 0.396311
0.795354 0.096851 0.495894
0.796711 0.098208 0.594402
0.798056 0.099553 0.692045
0.799391 0.100889 0.788966
0.800718 0.102215 0.885266
0.804254 0.210958 0.099785
0.805728 0.212432 0.206796
0.807148 0.213852 0.309869
0.808539 0.215244 0.410868
0.809911 0.216616 0.510451
0.811268 0.217973 0.608959
0.812613 0.219318 0.706602
0.813948 0.220653 0.803523
0.815275 0.221980 0.899824
0.818300 0.326518 0.113831
0.819774 0.327992 0.220842
0.821194 0.329412 0.323915
0.822585 0.330803 0.424914
0.823957 0.332175 0.524497
0.825314 0.333532 0.623005
0.826659 0.334877 0.720648
0.827994 0.336213 0.817569
0.829321 0.337539 0.913870
0.832070 0.439807 0.127602
0.833544 0.441281 0.234612
0.834964 0.442701 0.337685
0.836356 0.444093 0.438685
0.837727 0.445464 0.538267
0.839084 0.446821 0.636775
0.840430 0.448167 0.734418
0.841765 0.449502 0.831339
0.843091 0.450828 0.927640
0.845650 0.551533 0.141182
0.847124 0.553007 0.248192
0.848544 0.554427 0.351266
0.849936 0.555818 0.452265
0.851308 0.557190 0.551847
0.852665 0.558547 0.650355
0.854010 0.559892 0.747999
0.855345 0.561228 0.844919
0.856672 0.562554 0.941220
0.859086 0.662068 0.154617
0.860560 0.663542 0.261628
0.861980 0.664962 0.364701
0.863371 0.666354 0.465700
0.864743 0.667725 0.565283
0.866100 0.669082 0.663791
0.867445 0.670428 0.761434
0.868780 0.671763 0.858355
0.870107 0.673089 0.954656
0.872404 0.771643 0.167936
0.873879 0.773117 0.274947
0.875299 0.774537 0.378020
0.876690 0.775928 0.479019
0.878062 0.777300 0.578602
0.879419 0.778657 0.677110
0.880764 0.780002 0.774753
0.882099 0.781337 0.871674
0.883426 0.782664 0.967974
0.885625 0.880414 0.181157
0.887100 0.881888 0.288168
0.888520 0.883308 0.391241
0.889911 0.884699 0.492240
0.891283 0.886071 0.591823
0.892640 0.887428 0.690331
0.893985 0.888773 0.787974
0.895320 0.890108 0.884895
0.896647 0.891435 0.981196
0.898382 0.985367 0.193914
0.899857 0.986841 0.300925
0.901277 0.988261 0.403998
0.902668 0.989652 0.504997
0.904040 0.991024 0.604580
0.905397 0.992381 0.703088
0.906742 0.993726 0.800731
0.908077 0.995062 0.897652
0.909404 0.996388 0.993953
0.880259 0.094772 0.088806
0.881733 0.096246 0.195816
0.883153 0.097666 0.298889
0.884544 0.099057 0.399889
0.885916 0.100429 0.499471
0.887273 0.101786 0.597979
0.888618 0.103131 0.695623
0.889953 0.104466 0.792543
0.891280 0.105793 0.888844
0.894816 0.214536 0.103363
0.896290 0.216010 0.210374
0.897710 0.217430 0.313447
0.899101 0.218822 0.414446
0.900473 0.220193 0.514029
0.901830 0.221550 0.612537
0.903175 0.222896 0.710180
0.904510 0.224231 0.807101
0.905837 0.225557 0.903401
0.908862 0.330096 0.117409
0.910336 0.331570 0.224420
0.911756 0.332990 0.327493
0.913148 0.334381 0.428492
0.914519 0.335753 0.528075
0.915876 0.337110 0.626583
0.917222 0.338455 0.724226
0.918557 0.339790 0.821147
0.919883 0.341117 0.917448
0.922632 0.443385 0.131179
0.924106 0.444859 0.238190
0.925526 0.446279 0.341263
0.926918 0.447670 0.442262
0.928290 0.449042 0.541845
0.929647 0.450399 0.640353
0.930992 0.451744 0.737996
0.932327 0.453080 0.834917
0.933654 0.454406 0.931218
0.936212 0.555111 0.144760
0.937687 0.556585 0.251770
0.939107 0.558005 0.354843
0.940498 0.559396 0.455843
0.941870 0.560768 0.555425
0.943227 0.562125 0.653933
0.944572 0.563470 0.751576
0.945907 0.564805 0.848497
0.947234 0.566132 0.944798
0.949648 0.665646 0.158195
0.951122 0.667120 0.265206
0.952542 0.668540 0.368279
0.953933 0.669931 0.469278
0.955305 0.671303 0.568861
0.956662 0.672660 0.667369
0.958007 0.674005 0.765012
0.959343 0.675341 0.861933
0.960669 0.676667 0.958234
0.962967 0.775221 0.171514
0.964441 0.776695 0.278524
0.965861 0.778115 0.381598
0.967252 0.779506 0.482597
0.968624 0.780878 0.582179
0.969981 0.782235 0.680687
0.971326 0.783580 0.778331
0.972661 0.784915 0.875251
0.973988 0.786242 0.971552
0.976188 0.883991 0.184735
0.977662 0.885466 0.291745
0.979082 0.886886 0.394819
0.980473 0.888277 0.495818
0.981845 0.889649 0.595400
0.983202 0.891006 0.693908
0.984547 0.892351 0.791552
0.985882 0.893686 0.888472
0.987209 0.895013 0.984773
0.988945 0.988945 0.197492
0.990419 0.990419 0.304502
0.991839 0.991839 0.407576
0.993230 0.993230 0.508575
0.994602 0.994602 0.608157
0.995959 0.995959 0.706665
0.997304 0.997304 0.804309
0.998639 0.998639 0.901229
0.999966 0.999966 0.997530
