skills/creativeops-producer-ios/assets/grade/luts/soft_pastel_v14.cube
TITLE "soft_pastel_v14"
LUT_3D_SIZE 5
DOMAIN_MIN 0.0 0.0 0.0
DOMAIN_MAX 1.0 1.0 1.0
0.068640 0.062708 0.056742
0.071534 0.065602 0.266825
0.074297 0.068365 0.467407
0.077000 0.071067 0.663559
0.079661 0.073729 0.856780
0.097244 0.298032 0.085345
0.100138 0.300926 0.295429
0.102901 0.303689 0.496011
0.105603 0.306391 0.692162
0.108265 0.309053 0.885384
0.124594 0.523047 0.112696
0.127488 0.525941 0.322779
0.130251 0.528704 0.523361
0.132953 0.531406 0.719512
0.135615 0.534068 0.912734
0.151348 0.743157 0.139450
0.154242 0.746051 0.349534
0.157005 0.748814 0.550115
0.159708 0.751516 0.746267
0.162369 0.754178 0.939488
0.177326 0.956881 0.165428
0.180220 0.959775 0.375512
0.182984 0.962538 0.576093
0.185686 0.965240 0.772245
0.188347 0.967902 0.965466
0.283404 0.071192 0.065226
0.286298 0.074086 0.275310
0.289061 0.076850 0.475892
0.291763 0.079552 0.672043
0.294425 0.082214 0.865265
0.312007 0.306516 0.093830
0.314901 0.309410 0.303913
0.317665 0.312174 0.504495
0.320367 0.314876 0.700647
0.323029 0.317538 0.893868
0.339358 0.531531 0.121180
0.342252 0.534425 0.331264
0.345015 0.537189 0.531846
0.347717 0.539891 0.727997
0.350379 0.542553 0.921219
0.366112 0.751641 0.147934
0.369006 0.754535 0.358018
0.371769 0.757298 0.558600
0.374471 0.760001 0.754751
0.377133 0.762662 0.947973
0.392090 0.965365 0.173912
0.394984 0.968259 0.383996
0.397747 0.971023 0.584578
0.400449 0.973725 0.780729
0.403111 0.976387 0.973951
0.489041 0.079316 0.073350
0.491935 0.082210 0.283434
0.494698 0.084974 0.484016
0.497401 0.087676 0.680167
0.500062 0.090337 0.873389
0.517645 0.314640 0.101954
0.520539 0.317534 0.312037
0.523302 0.320297 0.512619
0.526004 0.323000 0.708771
0.528666 0.325661 0.901992
0.544995 0.539655 0.129304
0.547889 0.542549 0.339388
0.550652 0.545313 0.539970
0.553354 0.548015 0.736121
0.556016 0.550677 0.929343
0.571749 0.759765 0.156058
0.574643 0.762659 0.366142
0.577407 0.765422 0.566724
0.580109 0.768125 0.762875
0.582770 0.770786 0.956097
0.597727 0.973489 0.182036
0.600621 0.976383 0.392120
0.603385 0.979146 0.592702
0.606087 0.981849 0.788853
0.608749 0.984510 0.982075
0.690253 0.087265 0.081299
0.693148 0.090159 0.291383
0.695911 0.092923 0.491965
0.698613 0.095625 0.688116
0.701275 0.098287 0.881338
0.718857 0.322589 0.109903
0.721751 0.325483 0.319987
0.724514 0.328247 0.520568
0.727216 0.330949 0.716720
0.729878 0.333611 0.909941
0.746207 0.547604 0.137253
0.749101 0.550499 0.347337
0.751865 0.553262 0.547919
0.754567 0.555964 0.744070
0.757229 0.558626 0.937292
0.772962 0.767714 0.164007
0.775856 0.770608 0.374091
0.778619 0.773372 0.574673
0.781321 0.776074 0.770824
0.783983 0.778736 0.964046
0.798940 0.981438 0.189986
0.801834 0.984332 0.400069
0.804597 0.987096 0.600651
0.807299 0.989798 0.796802
0.809961 0.992460 0.990024
0.880259 0.094772 0.088806
0.883153 0.097666 0.298889
0.885916 0.100429 0.499471
0.888618 0.103131 0.695623
0.891280 0.105793 0.888844
0.908862 0.330096 0.117409
0.911756 0.332990 0.327493
0.914519 0.335753 0.528075
0.917222 0.338455 0.724226
0.919883 0.341117 0.917448
0.936212 0.555111 0.144760
0.939107 0.558005 0.354843
0.941870 0.560768 0.555425
0.944572 0.563470 0.751576
0.947234 0.566132 0.944798
0.962967 0.775221 0.171514
0.965861 0.778115 0.381598
0.968624 0.780878 0.582179
0.971326 0.783580 0.778331
0.973988 0.786242 0.971552
0.988945 0.988945 0.197492
0.991839 0.991839 0.407576
0.994602 0.994602 0.608157
0.997304 0.997304 0.804309
0.999966 0.999966 0.997530
