skills/creativeops-producer-ios/assets/grade/luts/soft_pastel_v15.cube
TITLE "soft_pastel_v15"
LUT_3D_SIZE 5
DOMAIN_MIN 0.0 0.0 0.0
DOMAIN_MAX 1.0 1.0 1.0
0.072699 0.066373 0.060008
0.075699 0.069373 0.268151
0.078559 0.072233 0.466599
0.081354 0.075027 0.660496
0.084105 0.077778 0.851380
0.102341 0.300649 0.089650
0.105341 0.303648 0.297792
0.108201 0.306508 0.496241
0.110995 0.309303 0.690137
0.113746 0.312054 0.881021
0.130647 0.524373 0.117956
0.133647 0.527373 0.326099
0.136507 0.530233 0.524547
0.139302 0.533027 0.718444
0.142053 0.535778 0.909327
0.158314 0.743038 0.145623
0.161313 0.746038 0.353765
0.164173 0.748898 0.552213
0.166968 0.751693 0.746110
0.169719 0.754444 0.936994
0.185181 0.955388 0.172490
0.188181 0.958388 0.380632
0.191041 0.961248 0.579081
0.193835 0.964042 0.772977
0.196586 0.966793 0.963861
0.285647 0.075164 0.068799
0.288647 0.078163 0.276942
0.291507 0.081023 0.475390
0.294301 0.083818 0.669286
0.297052 0.086569 0.860170
0.315288 0.309439 0.098440
0.318288 0.312439 0.306583
0.321148 0.315299 0.505031
0.323943 0.318094 0.698928
0.326694 0.320845 0.889812
0.343595 0.533164 0.126747
0.346595 0.536164 0.334889
0.349455 0.539024 0.533338
0.352249 0.541818 0.727234
0.355000 0.544569 0.918118
0.371261 0.751829 0.154413
0.374261 0.754829 0.362556
0.377121 0.757689 0.561004
0.379915 0.760483 0.754901
0.382666 0.763234 0.945784
0.398128 0.964179 0.181280
0.401128 0.967178 0.389423
0.403988 0.970039 0.587871
0.406783 0.972833 0.781768
0.409534 0.975584 0.972652
0.489305 0.083571 0.077206
0.492305 0.086571 0.285349
0.495165 0.089431 0.483797
0.497960 0.092225 0.677694
0.500711 0.094976 0.868577
0.518947 0.317846 0.106848
0.521947 0.320846 0.314990
0.524807 0.323706 0.513438
0.527601 0.326501 0.707335
0.530352 0.329252 0.898219
0.547253 0.541571 0.135154
0.550253 0.544571 0.343297
0.553113 0.547431 0.541745
0.555907 0.550225 0.735641
0.558658 0.552976 0.926525
0.574920 0.760236 0.162820
0.577919 0.763236 0.370963
0.580779 0.766096 0.569411
0.583574 0.768890 0.763308
0.586325 0.771641 0.954192
0.601787 0.972586 0.189688
0.604787 0.975586 0.397830
0.607647 0.978446 0.596278
0.610441 0.981240 0.790175
0.613192 0.983991 0.981059
0.688422 0.091791 0.085426
0.691422 0.094790 0.293569
0.694282 0.097650 0.492017
0.697076 0.100445 0.685913
0.699827 0.103196 0.876797
0.718063 0.326066 0.115067
0.721063 0.329066 0.323210
0.723923 0.331926 0.521658
0.726717 0.334720 0.715555
0.729468 0.337471 0.906439
0.746370 0.549791 0.143374
0.749369 0.552790 0.351516
0.752229 0.555650 0.549964
0.755024 0.558445 0.743861
0.757775 0.561196 0.934745
0.774036 0.768456 0.171040
0.777036 0.771456 0.379183
0.779896 0.774316 0.577631
0.782690 0.777110 0.771527
0.785441 0.779861 0.962411
0.800903 0.980806 0.197907
0.803903 0.983805 0.406050
0.806763 0.986665 0.604498
0.809557 0.989460 0.798395
0.812308 0.992211 0.989279
0.876070 0.099537 0.093172
0.879070 0.102537 0.301315
0.881930 0.105397 0.499763
0.884725 0.108191 0.693660
0.887476 0.110942 0.884543
0.905712 0.333812 0.122814
0.908712 0.336812 0.330956
0.911572 0.339672 0.529404
0.914366 0.342467 0.723301
0.917117 0.345218 0.914185
0.934018 0.557537 0.151120
0.937018 0.560537 0.359263
0.939878 0.563397 0.557711
0.942673 0.566191 0.751607
0.945424 0.568942 0.942491
0.961685 0.776202 0.178786
0.964684 0.779202 0.386929
0.967544 0.782062 0.585377
0.970339 0.784856 0.779274
0.973090 0.787607 0.970158
0.988552 0.988552 0.205654
0.991552 0.991552 0.413796
0.994412 0.994412 0.612244
0.997206 0.997206 0.806141
0.999957 0.999957 0.997025
