skills/creativeops-producer-ios/assets/grade/luts/soft_pastel_v16.cube
TITLE "soft_pastel_v16"
LUT_3D_SIZE 9
DOMAIN_MIN 0.0 0.0 0.0
DOMAIN_MAX 1.0 1.0 1.0
0.076758 0.070047 0.063293
0.078341 0.071630 0.168414
0.079863 0.073152 0.269489
0.081352 0.074641 0.368395
0.082819 0.076108 0.465811
0.084269 0.077558 0.562095
0.085705 0.078994 0.657466
0.087129 0.080418 0.752075
0.088544 0.081833 0.846029
0.092380 0.188826 0.078914
0.093963 0.190409 0.184035
0.095484 0.191931 0.285111
0.096974 0.193420 0.384016
0.098441 0.194887 0.481432
0.099890 0.196336 0.577716
0.101326 0.197772 0.673088
0.102751 0.199197 0.767696
0.104165 0.200612 0.861650
0.107430 0.303262 0.093965
0.109013 0.304845 0.199086
0.110535 0.306367 0.300161
0.112024 0.307856 0.399067
0.113491 0.309323 0.496483
0.114941 0.310773 0.592766
0.116377 0.312209 0.688138
0.117801 0.313633 0.782747
0.119216 0.315048 0.876700
0.122166 0.415307 0.108700
0.123749 0.416890 0.213821
0.125271 0.418412 0.314897
0.126760 0.419901 0.413802
0.128227 0.421368 0.511218
0.129676 0.422818 0.607502
0.131112 0.424254 0.702874
0.132537 0.425678 0.797482
0.133952 0.427093 0.891436
0.136684 0.525695 0.123218
0.138267 0.527278 0.228339
0.139788 0.528800 0.329415
0.141278 0.530289 0.428320
0.142745 0.531756 0.525736
0.144194 0.533206 0.622020
0.145630 0.534642 0.717392
0.147055 0.536066 0.812000
0.148469 0.537481 0.905954
0.151035 0.634819 0.137570
0.152618 0.636401 0.242691
0.154140 0.637923 0.343766
0.155629 0.639413 0.442672
0.157096 0.640879 0.540088
0.158546 0.642329 0.636372
0.159982 0.643765 0.731743
0.161406 0.645190 0.826352
0.162821 0.646604 0.920306
0.165252 0.742920 0.151787
0.166835 0.744503 0.256908
0.168357 0.746025 0.357983
0.169846 0.747514 0.456889
0.171313 0.748981 0.554305
0.172763 0.750430 0.650589
0.174199 0.751866 0.745960
0.175623 0.753291 0.840569
0.177038 0.754706 0.934523
0.179357 0.850165 0.165891
0.180940 0.851748 0.271012
0.182462 0.853270 0.372088
0.183951 0.854759 0.470993
0.185418 0.856226 0.568410
0.186867 0.857676 0.664693
0.188303 0.859112 0.760065
0.189728 0.860536 0.854673
0.191143 0.861951 0.948627
0.193001 0.953910 0.179536
0.194584 0.955493 0.284657
0.196106 0.957015 0.385732
0.197595 0.958504 0.484638
0.199062 0.959971 0.582054
0.200512 0.961420 0.678337
0.201948 0.962856 0.773709
0.203372 0.964281 0.868318
0.204787 0.965696 0.962271
0.184192 0.074675 0.067921
0.185775 0.076258 0.173042
0.187297 0.077780 0.274117
0.188786 0.079269 0.373023
0.190253 0.080736 0.470439
0.191703 0.082185 0.566723
0.193139 0.083621 0.662094
0.194563 0.085046 0.756703
0.195978 0.086461 0.850656
0.199813 0.193454 0.083542
0.201396 0.195037 0.188663
0.202918 0.196558 0.289738
0.204407 0.198048 0.388644
0.205874 0.199514 0.486060
0.207324 0.200964 0.582344
0.208760 0.202400 0.677715
0.210185 0.203825 0.772324
0.211599 0.205239 0.866278
0.214864 0.307890 0.098592
0.216447 0.309473 0.203713
0.217968 0.310995 0.304789
0.219458 0.312484 0.403694
0.220925 0.313951 0.501111
0.222374 0.315401 0.597394
0.223810 0.316837 0.692766
0.225235 0.318261 0.787374
0.226649 0.319676 0.881328
0.229600 0.419935 0.113328
0.231182 0.421518 0.218449
0.232704 0.423040 0.319524
0.234193 0.424529 0.418430
0.235660 0.425996 0.515846
0.237110 0.427445 0.612130
0.238546 0.428881 0.707501
0.239971 0.430306 0.802110
0.241385 0.431721 0.896064
0.244117 0.530323 0.127846
0.245700 0.531906 0.232967
0.247222 0.533428 0.334042
0.248711 0.534917 0.432948
0.250178 0.536384 0.530364
0.251628 0.537834 0.626648
0.253064 0.539270 0.722019
0.254488 0.540694 0.816628
0.255903 0.542109 0.910582
0.258469 0.639446 0.142198
0.260052 0.641029 0.247319
0.261574 0.642551 0.348394
0.263063 0.644040 0.447300
0.264530 0.645507 0.544716
0.265979 0.646957 0.640999
0.267415 0.648393 0.736371
0.268840 0.649817 0.830980
0.270255 0.651232 0.924933
0.272686 0.747548 0.156415
0.274269 0.749131 0.261536
0.275791 0.750652 0.362611
0.277280 0.752142 0.461517
0.278747 0.753608 0.558933
0.280197 0.755058 0.655217
0.281633 0.756494 0.750588
0.283057 0.757919 0.845197
0.284472 0.759333 0.939151
0.286791 0.854793 0.170519
0.288373 0.856376 0.275640
0.289895 0.857898 0.376716
0.291385 0.859387 0.475621
0.292851 0.860854 0.573037
0.294301 0.862303 0.669321
0.295737 0.863739 0.764693
0.297162 0.865164 0.859301
0.298576 0.866579 0.953255
0.300435 0.958538 0.184163
0.302018 0.960120 0.289284
0.303540 0.961642 0.390360
0.305029 0.963132 0.489265
0.306496 0.964598 0.586682
0.307945 0.966048 0.682965
0.309381 0.967484 0.778337
0.310806 0.968909 0.872945
0.312221 0.970323 0.966899
0.287883 0.079141 0.072387
0.289466 0.080724 0.177508
0.290988 0.082246 0.278584
0.292477 0.083735 0.377489
0.293944 0.085202 0.474905
0.295394 0.086652 0.571189
0.296830 0.088088 0.666561
0.298254 0.089512 0.761169
0.299669 0.090927 0.855123
0.303504 0.197920 0.088009
0.305087 0.199503 0.193130
0.306609 0.201025 0.294205
0.308098 0.202514 0.393111
0.309565 0.203981 0.490527
0.311015 0.205431 0.586810
0.312451 0.206867 0.682182
0.313875 0.208291 0.776791
0.315290 0.209706 0.870744
0.318555 0.312357 0.103059
0.320138 0.313939 0.208180
0.321659 0.315461 0.309255
0.323149 0.316951 0.408161
0.324615 0.318417 0.505577
0.326065 0.319867 0.601861
0.327501 0.321303 0.697232
0.328926 0.322728 0.791841
0.330340 0.324142 0.885795
0.333290 0.424401 0.117795
0.334873 0.425984 0.222916
0.336395 0.427506 0.323991
0.337884 0.428995 0.422897
0.339351 0.430462 0.520313
0.340801 0.431912 0.616597
0.342237 0.433348 0.711968
0.343662 0.434772 0.806577
0.345076 0.436187 0.900530
0.347808 0.534790 0.132313
0.349391 0.536373 0.237434
0.350913 0.537894 0.338509
0.352402 0.539384 0.437415
0.353869 0.540851 0.534831
0.355319 0.542300 0.631114
0.356755 0.543736 0.726486
0.358179 0.545161 0.821095
0.359594 0.546575 0.915048
0.362160 0.643913 0.146664
0.363743 0.645496 0.251785
0.365265 0.647018 0.352860
0.366754 0.648507 0.451766
0.368221 0.649974 0.549182
0.369670 0.651424 0.645466
0.371106 0.652860 0.740837
0.372531 0.654284 0.835446
0.373946 0.655699 0.929400
0.376377 0.752014 0.160881
0.377960 0.753597 0.266002
0.379482 0.755119 0.367078
0.380971 0.756608 0.465983
0.382438 0.758075 0.563399
0.383888 0.759525 0.659683
0.385324 0.760961 0.755055
0.386748 0.762385 0.849663
0.388163 0.763800 0.943617
0.390482 0.859259 0.174986
0.392064 0.860842 0.280107
0.393586 0.862364 0.381182
0.395076 0.863853 0.480088
0.396542 0.865320 0.577504
0.397992 0.866770 0.673788
0.399428 0.868206 0.769159
0.400853 0.869630 0.863768
0.402267 0.871045 0.957722
0.404126 0.963004 0.188630
0.405709 0.964587 0.293751
0.407230 0.966109 0.394826
0.408720 0.967598 0.493732
0.410186 0.969065 0.591148
0.411636 0.970515 0.687432
0.413072 0.971951 0.782803
0.414497 0.973375 0.877412
0.415911 0.974790 0.971366
0.389463 0.083517 0.076763
0.391045 0.085100 0.181884
0.392567 0.086622 0.282959
0.394056 0.088111 0.381865
0.395523 0.089578 0.479281
0.396973 0.091028 0.575565
0.398409 0.092464 0.670936
0.399834 0.093888 0.765545
0.401248 0.095303 0.859499
0.405084 0.202296 0.092384
0.406667 0.203879 0.197505
0.408189 0.205401 0.298581
0.409678 0.206890 0.397486
0.411145 0.208357 0.494902
0.412594 0.209806 0.591186
0.414030 0.211242 0.686558
0.415455 0.212667 0.781166
0.416870 0.214082 0.875120
0.420134 0.316732 0.107435
0.421717 0.318315 0.212556
0.423239 0.319837 0.313631
0.424728 0.321326 0.412536
0.426195 0.322793 0.509953
0.427645 0.324243 0.606236
0.429081 0.325679 0.701608
0.430505 0.327103 0.796216
0.431920 0.328518 0.890170
0.434870 0.428777 0.122170
0.436453 0.430360 0.227291
0.437975 0.431882 0.328367
0.439464 0.433371 0.427272
0.440931 0.434838 0.524688
0.442380 0.436287 0.620972
0.443816 0.437723 0.716344
0.445241 0.439148 0.810952
0.446656 0.440563 0.904906
0.449388 0.539165 0.136688
0.450971 0.540748 0.241809
0.452493 0.542270 0.342885
0.453982 0.543759 0.441790
0.455449 0.545226 0.539206
0.456898 0.546676 0.635490
0.458334 0.548112 0.730862
0.459759 0.549536 0.825470
0.461174 0.550951 0.919424
0.463739 0.648289 0.151040
0.465322 0.649871 0.256161
0.466844 0.651393 0.357236
0.468333 0.652883 0.456142
0.469800 0.654349 0.553558
0.471250 0.655799 0.649842
0.472686 0.657235 0.745213
0.474110 0.658660 0.839822
0.475525 0.660074 0.933776
0.477957 0.756390 0.165257
0.479539 0.757973 0.270378
0.481061 0.759495 0.371453
0.482551 0.760984 0.470359
0.484017 0.762451 0.567775
0.485467 0.763900 0.664059
0.486903 0.765336 0.759430
0.488328 0.766761 0.854039
0.489742 0.768176 0.947993
0.492061 0.863635 0.179361
0.493644 0.865218 0.284482
0.495166 0.866740 0.385558
0.496655 0.868229 0.484463
0.498122 0.869696 0.581880
0.499572 0.871146 0.678163
0.501008 0.872582 0.773535
0.502432 0.874006 0.868143
0.503847 0.875421 0.962097
0.505705 0.967380 0.193006
0.507288 0.968963 0.298127
0.508810 0.970484 0.399202
0.510299 0.971974 0.498108
0.511766 0.973441 0.595524
0.513216 0.974890 0.691807
0.514652 0.976326 0.787179
0.516076 0.977751 0.881788
0.517491 0.979165 0.975741
0.489568 0.087829 0.081075
0.491150 0.089412 0.186196
0.492672 0.090934 0.287271
0.494161 0.092423 0.386177
0.495628 0.093890 0.483593
0.497078 0.095340 0.579877
0.498514 0.096776 0.675248
0.499939 0.098200 0.769857
0.501353 0.099615 0.863811
0.505189 0.206608 0.096696
0.506772 0.208191 0.201817
0.508294 0.209713 0.302893
0.509783 0.211202 0.401798
0.511250 0.212669 0.499214
0.512699 0.214118 0.595498
0.514135 0.215554 0.690870
0.515560 0.216979 0.785478
0.516975 0.218394 0.879432
0.520239 0.321044 0.111747
0.521822 0.322627 0.216868
0.523344 0.324149 0.317943
0.524833 0.325638 0.416849
0.526300 0.327105 0.514265
0.527750 0.328555 0.610548
0.529186 0.329991 0.705920
0.530610 0.331415 0.800529
0.532025 0.332830 0.894482
0.534975 0.433089 0.126482
0.536558 0.434672 0.231603
0.538080 0.436194 0.332679
0.539569 0.437683 0.431584
0.541036 0.439150 0.529001
0.542485 0.440600 0.625284
0.543921 0.442036 0.720656
0.545346 0.443460 0.815264
0.546761 0.444875 0.909218
0.549493 0.543477 0.141000
0.551076 0.545060 0.246121
0.552598 0.546582 0.347197
0.554087 0.548071 0.446102
0.555554 0.549538 0.543518
0.557003 0.550988 0.639802
0.558439 0.552424 0.735174
0.559864 0.553849 0.829782
0.561279 0.555263 0.923736
0.563844 0.652601 0.155352
0.565427 0.654184 0.260473
0.566949 0.655705 0.361548
0.568438 0.657195 0.460454
0.569905 0.658661 0.557870
0.571355 0.660111 0.654154
0.572791 0.661547 0.749525
0.574215 0.662972 0.844134
0.575630 0.664386 0.938088
0.578062 0.760702 0.169569
0.579644 0.762285 0.274690
0.581166 0.763807 0.375765
0.582655 0.765296 0.474671
0.584122 0.766763 0.572087
0.585572 0.768213 0.668371
0.587008 0.769649 0.763742
0.588433 0.771073 0.858351
0.589847 0.772488 0.952305
0.592166 0.867947 0.183674
0.593749 0.869530 0.288794
0.595271 0.871052 0.389870
0.596760 0.872541 0.488775
0.598227 0.874008 0.586192
0.599677 0.875458 0.682475
0.601113 0.876894 0.777847
0.602537 0.878318 0.872455
0.603952 0.879733 0.966409
0.605810 0.971692 0.197318
0.607393 0.973275 0.302439
0.608915 0.974797 0.403514
0.610404 0.976286 0.502420
0.611871 0.977753 0.599836
0.613321 0.979202 0.696120
0.614757 0.980638 0.791491
0.616181 0.982063 0.886100
0.617596 0.983478 0.980053
0.588541 0.092092 0.085338
0.590124 0.093675 0.190459
0.591646 0.095197 0.291535
0.593135 0.096686 0.390440
0.594602 0.098153 0.487856
0.596052 0.099603 0.584140
0.597488 0.101039 0.679512
0.598912 0.102464 0.774120
0.600327 0.103878 0.868074
0.604163 0.210871 0.100960
0.605745 0.212454 0.206081
0.607267 0.213976 0.307156
0.608757 0.215465 0.406062
0.610223 0.216932 0.503478
0.611673 0.218382 0.599762
0.613109 0.219818 0.695133
0.614534 0.221242 0.789742
0.615948 0.222657 0.883696
0.619213 0.325308 0.116010
0.620796 0.326891 0.221131
0.622318 0.328412 0.322206
0.623807 0.329902 0.421112
0.625274 0.331368 0.518528
0.626723 0.332818 0.614812
0.628159 0.334254 0.710183
0.629584 0.335679 0.804792
0.630999 0.337093 0.898746
0.633949 0.437352 0.130746
0.635531 0.438935 0.235867
0.637053 0.440457 0.336942
0.638543 0.441946 0.435848
0.640009 0.443413 0.533264
0.641459 0.444863 0.629548
0.642895 0.446299 0.724919
0.644320 0.447723 0.819528
0.645734 0.449138 0.913482
0.648467 0.547741 0.145264
0.650049 0.549324 0.250385
0.651571 0.550846 0.351460
0.653061 0.552335 0.450366
0.654527 0.553802 0.547782
0.655977 0.555251 0.644066
0.657413 0.556687 0.739437
0.658838 0.558112 0.834046
0.660252 0.559527 0.927999
0.662818 0.656864 0.159615
0.664401 0.658447 0.264736
0.665923 0.659969 0.365812
0.667412 0.661458 0.464717
0.668879 0.662925 0.562133
0.670329 0.664375 0.658417
0.671765 0.665811 0.753788
0.673189 0.667235 0.848397
0.674604 0.668650 0.942351
0.677035 0.764965 0.173832
0.678618 0.766548 0.278953
0.680140 0.768070 0.380029
0.681629 0.769559 0.478934
0.683096 0.771026 0.576350
0.684546 0.772476 0.672634
0.685982 0.773912 0.768006
0.687406 0.775336 0.862614
0.688821 0.776751 0.956568
0.691140 0.872210 0.187937
0.692723 0.873793 0.293058
0.694244 0.875315 0.394133
0.695734 0.876804 0.493039
0.697201 0.878271 0.590455
0.698650 0.879721 0.686739
0.700086 0.881157 0.782110
0.701511 0.882582 0.876719
0.702925 0.883996 0.970673
0.704784 0.975955 0.201581
0.706367 0.977538 0.306702
0.707889 0.979060 0.407777
0.709378 0.980549 0.506683
0.710845 0.982016 0.604099
0.712294 0.983466 0.700383
0.713730 0.984902 0.795754
0.715155 0.986326 0.890363
0.716570 0.987741 0.984317
0.686599 0.096316 0.089562
0.688181 0.097899 0.194683
0.689703 0.099421 0.295758
0.691192 0.100910 0.394664
0.692659 0.102377 0.492080
0.694109 0.103827 0.588364
0.695545 0.105263 0.683735
0.696970 0.106687 0.778344
0.698384 0.108102 0.872298
0.702220 0.215095 0.105184
0.703803 0.216678 0.210305
0.705325 0.218200 0.311380
0.706814 0.219689 0.410286
0.708281 0.221156 0.507702
0.709730 0.222606 0.603985
0.711166 0.224042 0.699357
0.712591 0.225466 0.793966
0.714006 0.226881 0.887919
0.717270 0.329532 0.120234
0.718853 0.331114 0.225355
0.720375 0.332636 0.326430
0.721864 0.334126 0.425336
0.723331 0.335592 0.522752
0.724781 0.337042 0.619036
0.726217 0.338478 0.714407
0.727641 0.339903 0.809016
0.729056 0.341317 0.902970
0.732006 0.441576 0.134970
0.733589 0.443159 0.240091
0.735111 0.444681 0.341166
0.736600 0.446170 0.440072
0.738067 0.447637 0.537488
0.739516 0.449087 0.633771
0.740953 0.450523 0.729143
0.742377 0.451947 0.823752
0.743792 0.453362 0.917705
0.746524 0.551965 0.149488
0.748107 0.553548 0.254609
0.749629 0.555069 0.355684
0.751118 0.556559 0.454590
0.752585 0.558025 0.552006
0.754034 0.559475 0.648289
0.755470 0.560911 0.743661
0.756895 0.562336 0.838270
0.758310 0.563750 0.932223
0.760875 0.661088 0.163839
0.762458 0.662671 0.268960
0.763980 0.664193 0.370035
0.765469 0.665682 0.468941
0.766936 0.667149 0.566357
0.768386 0.668598 0.662641
0.769822 0.670034 0.758012
0.771246 0.671459 0.852621
0.772661 0.672874 0.946575
0.775093 0.769189 0.178056
0.776675 0.770772 0.283177
0.778197 0.772294 0.384253
0.779687 0.773783 0.483158
0.781153 0.775250 0.580574
0.782603 0.776700 0.676858
0.784039 0.778136 0.772230
0.785464 0.779560 0.866838
0.786878 0.780975 0.960792
0.789197 0.876434 0.192161
0.790780 0.878017 0.297282
0.792302 0.879539 0.398357
0.793791 0.881028 0.497263
0.795258 0.882495 0.594679
0.796708 0.883945 0.690963
0.798144 0.885381 0.786334
0.799568 0.886805 0.880943
0.800983 0.888220 0.974897
0.802841 0.980179 0.205805
0.804424 0.981762 0.310926
0.805946 0.983284 0.412001
0.807435 0.984773 0.510907
0.808902 0.986240 0.608323
0.810352 0.987690 0.704607
0.811788 0.989126 0.799978
0.813212 0.990550 0.894587
0.814627 0.991965 0.988541
0.783887 0.100507 0.093753
0.785470 0.102090 0.198874
0.786991 0.103612 0.299949
0.788481 0.105101 0.398855
0.789947 0.106568 0.496271
0.791397 0.108018 0.592555
0.792833 0.109454 0.687926
0.794258 0.110878 0.782535
0.795672 0.112293 0.876489
0.799508 0.219286 0.109374
0.801091 0.220869 0.214495
0.802613 0.222391 0.315571
0.804102 0.223880 0.414476
0.805569 0.225347 0.511893
0.807019 0.226796 0.608176
0.808455 0.228233 0.703548
0.809879 0.229657 0.798156
0.811294 0.231072 0.892110
0.814558 0.333722 0.124425
0.816141 0.335305 0.229546
0.817663 0.336827 0.330621
0.819152 0.338316 0.429527
0.820619 0.339783 0.526943
0.822069 0.341233 0.623227
0.823505 0.342669 0.718598
0.824929 0.344093 0.813207
0.826344 0.345508 0.907160
0.829294 0.445767 0.139160
0.830877 0.447350 0.244281
0.832399 0.448872 0.345357
0.833888 0.450361 0.444262
0.835355 0.451828 0.541679
0.836805 0.453278 0.637962
0.838241 0.454714 0.733334
0.839665 0.456138 0.827942
0.841080 0.457553 0.921896
0.843812 0.556156 0.153678
0.845395 0.557738 0.258799
0.846917 0.559260 0.359875
0.848406 0.560749 0.458780
0.849873 0.562216 0.556196
0.851323 0.563666 0.652480
0.852759 0.565102 0.747852
0.854183 0.566527 0.842460
0.855598 0.567941 0.936414
0.858164 0.665279 0.168030
0.859746 0.666862 0.273151
0.861268 0.668383 0.374226
0.862758 0.669873 0.473132
0.864224 0.671339 0.570548
0.865674 0.672789 0.666832
0.867110 0.674225 0.762203
0.868535 0.675650 0.856812
0.869949 0.677064 0.950766
0.872381 0.773380 0.182247
0.873964 0.774963 0.287368
0.875485 0.776485 0.388443
0.876975 0.777974 0.487349
0.878442 0.779441 0.584765
0.879891 0.780891 0.681049
0.881327 0.782327 0.776420
0.882752 0.783751 0.871029
0.884166 0.785166 0.964983
0.886485 0.880625 0.196352
0.888068 0.882208 0.301472
0.889590 0.883730 0.402548
0.891079 0.885219 0.501453
0.892546 0.886686 0.598870
0.893996 0.888136 0.695153
0.895432 0.889572 0.790525
0.896856 0.890996 0.885133
0.898271 0.892411 0.979087
0.900129 0.984370 0.209996
0.901712 0.985953 0.315117
0.903234 0.987475 0.416192
0.904723 0.988964 0.515098
0.906190 0.990431 0.612514
0.907640 0.991880 0.708798
0.909076 0.993316 0.804169
0.910501 0.994741 0.898778
0.911915 0.996156 0.992732
0.871919 0.104299 0.097545
0.873502 0.105882 0.202666
0.875024 0.107404 0.303741
0.876513 0.108893 0.402647
0.877980 0.110360 0.500063
0.879430 0.111810 0.596347
0.880866 0.113246 0.691718
0.882290 0.114670 0.786327
0.883705 0.116085 0.880281
0.887541 0.223078 0.113166
0.889123 0.224661 0.218287
0.890645 0.226183 0.319363
0.892135 0.227672 0.418268
0.893601 0.229139 0.515685
0.895051 0.230589 0.611968
0.896487 0.232025 0.707340
0.897912 0.233449 0.801948
0.899326 0.234864 0.895902
0.902591 0.337514 0.128217
0.904174 0.339097 0.233338
0.905696 0.340619 0.334413
0.907185 0.342108 0.433319
0.908652 0.343575 0.530735
0.910101 0.345025 0.627019
0.911537 0.346461 0.722390
0.912962 0.347885 0.816999
0.914377 0.349300 0.910953
0.917327 0.449559 0.142952
0.918909 0.451142 0.248073
0.920431 0.452664 0.349149
0.921921 0.454153 0.448054
0.923387 0.455620 0.545471
0.924837 0.457070 0.641754
0.926273 0.458506 0.737126
0.927698 0.459930 0.831734
0.929112 0.461345 0.925688
0.931845 0.559948 0.157470
0.933427 0.561530 0.262591
0.934949 0.563052 0.363667
0.936439 0.564542 0.462572
0.937905 0.566008 0.559989
0.939355 0.567458 0.656272
0.940791 0.568894 0.751644
0.942216 0.570319 0.846252
0.943630 0.571733 0.940206
0.946196 0.669071 0.171822
0.947779 0.670654 0.276943
0.949301 0.672176 0.378018
0.950790 0.673665 0.476924
0.952257 0.675132 0.574340
0.953707 0.676581 0.670624
0.955143 0.678017 0.765995
0.956567 0.679442 0.860604
0.957982 0.680857 0.954558
0.960413 0.777172 0.186039
0.961996 0.778755 0.291160
0.963518 0.780277 0.392235
0.965007 0.781766 0.491141
0.966474 0.783233 0.588557
0.967924 0.784683 0.684841
0.969360 0.786119 0.780212
0.970784 0.787543 0.874821
0.972199 0.788958 0.968775
0.974518 0.884417 0.200144
0.976101 0.886000 0.305265
0.977622 0.887522 0.406340
0.979112 0.889011 0.505246
0.980579 0.890478 0.602662
0.982028 0.891928 0.698945
0.983464 0.893364 0.794317
0.984889 0.894788 0.888926
0.986303 0.896203 0.982879
0.988162 0.988162 0.213788
0.989745 0.989745 0.318909
0.991267 0.991267 0.419984
0.992756 0.992756 0.518890
0.994223 0.994223 0.616306
0.995672 0.995672 0.712590
0.997108 0.997108 0.807961
0.998533 0.998533 0.902570
0.999948 0.999948 0.996524
