skills/creativeops-producer-ios/assets/grade/luts/soft_pastel_v16.cube
TITLE "soft_pastel_v16"
LUT_3D_SIZE 17
DOMAIN_MIN 0.0 0.0 0.0
DOMAIN_MAX 1.0 1.0 1.0
0.076758 0.070047 0.063293
0.077561 0.070850 0.116605
0.078341 0.071630 0.168414
0.079107 0.072396 0.219290
0.079863 0.073152 0.269489
0.080611 0.073900 0.319159
0.081352 0.074641 0.368395
0.082088 0.075377 0.417262
0.082819 0.076108 0.465811
0.083546 0.076835 0.514079
0.084269 0.077558 0.562095
0.084988 0.078277 0.609884
0.085705 0.078994 0.657466
0.086418 0.079707 0.704858
0.087129 0.080418 0.752075
0.087838 0.081127 0.799128
0.088544 0.081833 0.846029
0.084673 0.130228 0.071208
0.085476 0.131030 0.124520
0.086256 0.131810 0.176329
0.087022 0.132576 0.227204
0.087778 0.133332 0.277404
0.088526 0.134080 0.327074
0.089267 0.134822 0.376310
0.090003 0.135557 0.425177
0.090734 0.136288 0.473726
0.091461 0.137015 0.521993
0.092184 0.137738 0.570009
0.092903 0.138458 0.617799
0.093620 0.139174 0.665381
0.094333 0.139888 0.712773
0.095044 0.140599 0.759990
0.095753 0.141307 0.807043
0.096459 0.142013 0.853943
0.092380 0.188826 0.078914
0.093183 0.189629 0.132227
0.093963 0.190409 0.184035
0.094729 0.191175 0.234911
0.095484 0.191931 0.285111
0.096232 0.192679 0.334781
0.096974 0.193420 0.384016
0.097710 0.194156 0.432884
0.098441 0.194887 0.481432
0.099167 0.195613 0.529700
0.099890 0.196336 0.577716
0.100610 0.197056 0.625505
0.101326 0.197772 0.673088
0.102040 0.198486 0.720480
0.102751 0.199197 0.767696
0.103459 0.199905 0.814749
0.104165 0.200612 0.861650
0.099954 0.246415 0.086488
0.100756 0.247217 0.139801
0.101536 0.247997 0.191609
0.102303 0.248763 0.242485
0.103058 0.249519 0.292684
0.103806 0.250267 0.342355
0.104548 0.251009 0.391590
0.105283 0.251744 0.440458
0.106014 0.252475 0.489006
0.106741 0.253202 0.537274
0.107464 0.253925 0.585290
0.108184 0.254645 0.633079
0.108900 0.255361 0.680661
0.109614 0.256075 0.728054
0.110325 0.256786 0.775270
0.111033 0.257494 0.822323
0.111739 0.258200 0.869224
0.107430 0.303262 0.093965
0.108233 0.304065 0.147277
0.109013 0.304845 0.199086
0.109779 0.305611 0.249961
0.110535 0.306367 0.300161
0.111283 0.307115 0.349831
0.112024 0.307856 0.399067
0.112760 0.308592 0.447934
0.113491 0.309323 0.496483
0.114218 0.310050 0.544750
0.114941 0.310773 0.592766
0.115660 0.311492 0.640556
0.116377 0.312209 0.688138
0.117090 0.312922 0.735530
0.117801 0.313633 0.782747
0.118510 0.314342 0.829800
0.119216 0.315048 0.876700
0.114830 0.359526 0.101364
0.115632 0.360328 0.154677
0.116412 0.361108 0.206485
0.117178 0.361874 0.257361
0.117934 0.362630 0.307560
0.118682 0.363378 0.357231
0.119424 0.364119 0.406466
0.120159 0.364855 0.455334
0.120890 0.365586 0.503882
0.121617 0.366313 0.552150
0.122340 0.367036 0.600166
0.123060 0.367756 0.647955
0.123776 0.368472 0.695537
0.124490 0.369186 0.742930
0.125201 0.369897 0.790146
0.125909 0.370605 0.837199
0.126615 0.371311 0.884100
0.122166 0.415307 0.108700
0.122969 0.416110 0.162013
0.123749 0.416890 0.213821
0.124515 0.417656 0.264697
0.125271 0.418412 0.314897
0.126018 0.419160 0.364567
0.126760 0.419901 0.413802
0.127496 0.420637 0.462670
0.128227 0.421368 0.511218
0.128953 0.422095 0.559486
0.129676 0.422818 0.607502
0.130396 0.423537 0.655291
0.131112 0.424254 0.702874
0.131826 0.424967 0.750266
0.132537 0.425678 0.797482
0.133245 0.426387 0.844535
0.133952 0.427093 0.891436
0.129448 0.470679 0.115983
0.130251 0.471482 0.169295
0.131031 0.472262 0.221104
0.131797 0.473028 0.271979
0.132553 0.473784 0.322179
0.133301 0.474532 0.371849
0.134042 0.475273 0.421085
0.134778 0.476009 0.469952
0.135509 0.476740 0.518501
0.136236 0.477467 0.566768
0.136959 0.478190 0.614785
0.137678 0.478909 0.662574
0.138395 0.479626 0.710156
0.139108 0.480339 0.757548
0.139819 0.481050 0.804765
0.140528 0.481759 0.851818
0.141234 0.482465 0.898718
0.136684 0.525695 0.123218
0.137486 0.526498 0.176531
0.138267 0.527278 0.228339
0.139033 0.528044 0.279215
0.139788 0.528800 0.329415
0.140536 0.529548 0.379085
0.141278 0.530289 0.428320
0.142014 0.531025 0.477188
0.142745 0.531756 0.525736
0.143471 0.532483 0.574004
0.144194 0.533206 0.622020
0.144914 0.533925 0.669809
0.145630 0.534642 0.717392
0.146344 0.535356 0.764784
0.147055 0.536066 0.812000
0.147763 0.536775 0.859053
0.148469 0.537481 0.905954
0.143878 0.580398 0.130413
0.144681 0.581200 0.183725
0.145461 0.581980 0.235533
0.146227 0.582746 0.286409
0.146983 0.583502 0.336609
0.147731 0.584250 0.386279
0.148472 0.584992 0.435514
0.149208 0.585727 0.484382
0.149939 0.586458 0.532931
0.150666 0.587185 0.581198
0.151389 0.587908 0.629214
0.152108 0.588628 0.677004
0.152825 0.589344 0.724586
0.153538 0.590058 0.771978
0.154249 0.590769 0.819194
0.154958 0.591477 0.866248
0.155664 0.592183 0.913148
0.151035 0.634819 0.137570
0.151838 0.635621 0.190882
0.152618 0.636401 0.242691
0.153384 0.637168 0.293567
0.154140 0.637923 0.343766
0.154888 0.638671 0.393436
0.155629 0.639413 0.442672
0.156365 0.640148 0.491539
0.157096 0.640879 0.540088
0.157823 0.641606 0.588355
0.158546 0.642329 0.636372
0.159265 0.643049 0.684161
0.159982 0.643765 0.731743
0.160695 0.644479 0.779135
0.161406 0.645190 0.826352
0.162115 0.645898 0.873405
0.162821 0.646604 0.920306
0.158159 0.688985 0.144694
0.158962 0.689788 0.198006
0.159742 0.690568 0.249815
0.160508 0.691334 0.300690
0.161264 0.692090 0.350890
0.162012 0.692838 0.400560
0.162753 0.693579 0.449796
0.163489 0.694315 0.498663
0.164220 0.695046 0.547212
0.164947 0.695773 0.595479
0.165670 0.696496 0.643495
0.166389 0.697215 0.691285
0.167106 0.697932 0.738867
0.167819 0.698645 0.786259
0.168530 0.699356 0.833476
0.169239 0.700065 0.880529
0.169945 0.700771 0.927429
0.165252 0.742920 0.151787
0.166055 0.743723 0.205099
0.166835 0.744503 0.256908
0.167601 0.745269 0.307784
0.168357 0.746025 0.357983
0.169105 0.746773 0.407653
0.169846 0.747514 0.456889
0.170582 0.748250 0.505756
0.171313 0.748981 0.554305
0.172040 0.749707 0.602573
0.172763 0.750430 0.650589
0.173482 0.751150 0.698378
0.174199 0.751866 0.745960
0.174913 0.752580 0.793352
0.175623 0.753291 0.840569
0.176332 0.753999 0.887622
0.177038 0.754706 0.934523
0.172318 0.796641 0.158852
0.173120 0.797444 0.212165
0.173900 0.798224 0.263973
0.174667 0.798990 0.314849
0.175422 0.799746 0.365048
0.176170 0.800494 0.414719
0.176912 0.801235 0.463954
0.177647 0.801971 0.512822
0.178378 0.802702 0.561370
0.179105 0.803429 0.609638
0.179828 0.804152 0.657654
0.180548 0.804871 0.705443
0.181264 0.805588 0.753025
0.181978 0.806301 0.800418
0.182689 0.807012 0.847634
0.183397 0.807721 0.894687
0.184103 0.808427 0.941588
0.179357 0.850165 0.165891
0.180160 0.850968 0.219204
0.180940 0.851748 0.271012
0.181706 0.852514 0.321888
0.182462 0.853270 0.372088
0.183210 0.854018 0.421758
0.183951 0.854759 0.470993
0.184687 0.855495 0.519861
0.185418 0.856226 0.568410
0.186144 0.856953 0.616677
0.186867 0.857676 0.664693
0.187587 0.858395 0.712482
0.188303 0.859112 0.760065
0.189017 0.859825 0.807457
0.189728 0.860536 0.854673
0.190436 0.861245 0.901727
0.191143 0.861951 0.948627
0.186372 0.903505 0.172907
0.187175 0.904308 0.226219
0.187955 0.905088 0.278028
0.188721 0.905854 0.328903
0.189477 0.906610 0.379103
0.190225 0.907358 0.428773
0.190966 0.908099 0.478009
0.191702 0.908835 0.526876
0.192433 0.909566 0.575425
0.193160 0.910293 0.623692
0.193883 0.911016 0.671708
0.194602 0.911735 0.719498
0.195319 0.912452 0.767080
0.196032 0.913165 0.814472
0.196743 0.913876 0.861689
0.197452 0.914585 0.908742
0.198158 0.915291 0.955642
0.193001 0.953910 0.179536
0.193804 0.954713 0.232848
0.194584 0.955493 0.284657
0.195350 0.956259 0.335532
0.196106 0.957015 0.385732
0.196854 0.957762 0.435402
0.197595 0.958504 0.484638
0.198331 0.959240 0.533505
0.199062 0.959971 0.582054
0.199789 0.960697 0.630321
0.200512 0.961420 0.678337
0.201231 0.962140 0.726127
0.201948 0.962856 0.773709
0.202661 0.963570 0.821101
0.203372 0.964281 0.868318
0.204081 0.964989 0.915371
0.204787 0.965696 0.962271
0.131145 0.072390 0.065636
0.131948 0.073193 0.118948
0.132728 0.073973 0.170757
0.133494 0.074739 0.221632
0.134250 0.075495 0.271832
0.134998 0.076242 0.321502
0.135739 0.076984 0.370738
0.136475 0.077720 0.419605
0.137206 0.078451 0.468154
0.137933 0.079177 0.516421
0.138656 0.079900 0.564437
0.139375 0.080620 0.612227
0.140092 0.081336 0.659809
0.140805 0.082050 0.707201
0.141516 0.082761 0.754418
0.142225 0.083469 0.801471
0.142931 0.084176 0.848371
0.139060 0.132570 0.073550
0.139863 0.133373 0.126863
0.140643 0.134153 0.178671
0.141409 0.134919 0.229547
0.142164 0.135675 0.279747
0.142912 0.136423 0.329417
0.143654 0.137164 0.378652
0.144390 0.137900 0.427520
0.145121 0.138631 0.476069
0.145847 0.139358 0.524336
0.146570 0.140081 0.572352
0.147290 0.140800 0.620141
0.148006 0.141517 0.667724
0.148720 0.142230 0.715116
0.149431 0.142941 0.762332
0.150139 0.143650 0.809385
0.150845 0.144356 0.856286
0.146766 0.191169 0.081257
0.147569 0.191971 0.134569
0.148349 0.192751 0.186378
0.149115 0.193518 0.237254
0.149871 0.194273 0.287453
0.150619 0.195021 0.337123
0.151360 0.195763 0.386359
0.152096 0.196498 0.435227
0.152827 0.197229 0.483775
0.153554 0.197956 0.532043
0.154277 0.198679 0.580059
0.154996 0.199399 0.627848
0.155713 0.200115 0.675430
0.156427 0.200829 0.722822
0.157137 0.201540 0.770039
0.157846 0.202248 0.817092
0.158552 0.202954 0.863993
0.154340 0.248757 0.088831
0.155143 0.249560 0.142143
0.155923 0.250340 0.193952
0.156689 0.251106 0.244828
0.157445 0.251862 0.295027
0.158193 0.252610 0.344697
0.158934 0.253351 0.393933
0.159670 0.254087 0.442800
0.160401 0.254818 0.491349
0.161128 0.255545 0.539617
0.161851 0.256268 0.587633
0.162570 0.256987 0.635422
0.163287 0.257704 0.683004
0.164000 0.258417 0.730396
0.164711 0.259128 0.777613
0.165420 0.259837 0.824666
0.166126 0.260543 0.871567
0.161817 0.305605 0.096307
0.162619 0.306408 0.149620
0.163400 0.307188 0.201428
0.164166 0.307954 0.252304
0.164921 0.308710 0.302504
0.165669 0.309458 0.352174
0.166411 0.310199 0.401409
0.167146 0.310935 0.450277
0.167877 0.311666 0.498825
0.168604 0.312393 0.547093
0.169327 0.313116 0.595109
0.170047 0.313835 0.642898
0.170763 0.314552 0.690481
0.171477 0.315265 0.737873
0.172188 0.315976 0.785089
0.172896 0.316685 0.832142
0.173602 0.317391 0.879043
0.169216 0.361868 0.103707
0.170019 0.362671 0.157019
0.170799 0.363451 0.208828
0.171565 0.364217 0.259704
0.172321 0.364973 0.309903
0.173069 0.365721 0.359573
0.173810 0.366462 0.408809
0.174546 0.367198 0.457676
0.175277 0.367929 0.506225
0.176004 0.368656 0.554493
0.176727 0.369379 0.602509
0.177446 0.370098 0.650298
0.178163 0.370815 0.697880
0.178876 0.371528 0.745272
0.179587 0.372239 0.792489
0.180296 0.372948 0.839542
0.181002 0.373654 0.886443
0.176552 0.417650 0.111043
0.177355 0.418452 0.164355
0.178135 0.419233 0.216164
0.178901 0.419999 0.267040
0.179657 0.420754 0.317239
0.180405 0.421502 0.366909
0.181146 0.422244 0.416145
0.181882 0.422980 0.465013
0.182613 0.423711 0.513561
0.183340 0.424437 0.561829
0.184063 0.425160 0.609845
0.184783 0.425880 0.657634
0.185499 0.426596 0.705216
0.186213 0.427310 0.752609
0.186924 0.428021 0.799825
0.187632 0.428729 0.846878
0.188338 0.429435 0.893779
0.183835 0.473022 0.118325
0.184638 0.473825 0.171638
0.185418 0.474605 0.223446
0.186184 0.475371 0.274322
0.186940 0.476127 0.324522
0.187687 0.476874 0.374192
0.188429 0.477616 0.423427
0.189165 0.478352 0.472295
0.189896 0.479083 0.520844
0.190622 0.479809 0.569111
0.191345 0.480532 0.617127
0.192065 0.481252 0.664916
0.192781 0.481968 0.712499
0.193495 0.482682 0.759891
0.194206 0.483393 0.807107
0.194914 0.484101 0.854161
0.195621 0.484807 0.901061
0.191070 0.528038 0.125561
0.191873 0.528841 0.178873
0.192653 0.529621 0.230682
0.193419 0.530387 0.281558
0.194175 0.531143 0.331757
0.194923 0.531891 0.381427
0.195664 0.532632 0.430663
0.196400 0.533368 0.479531
0.197131 0.534099 0.528079
0.197858 0.534826 0.576347
0.198581 0.535549 0.624363
0.199300 0.536268 0.672152
0.200017 0.536985 0.719734
0.200731 0.537698 0.767126
0.201441 0.538409 0.814343
0.202150 0.539118 0.861396
0.202856 0.539824 0.908297
0.198265 0.582740 0.132755
0.199067 0.583543 0.186068
0.199847 0.584323 0.237876
0.200614 0.585089 0.288752
0.201369 0.585845 0.338952
0.202117 0.586593 0.388622
0.202859 0.587334 0.437857
0.203594 0.588070 0.486725
0.204325 0.588801 0.535273
0.205052 0.589528 0.583541
0.205775 0.590251 0.631557
0.206495 0.590970 0.679346
0.207211 0.591687 0.726929
0.207925 0.592400 0.774321
0.208636 0.593111 0.821537
0.209344 0.593820 0.868590
0.210050 0.594526 0.915491
0.205422 0.637161 0.139913
0.206225 0.637964 0.193225
0.207005 0.638744 0.245034
0.207771 0.639510 0.295909
0.208527 0.640266 0.346109
0.209275 0.641014 0.395779
0.210016 0.641755 0.445014
0.210752 0.642491 0.493882
0.211483 0.643222 0.542431
0.212209 0.643949 0.590698
0.212932 0.644672 0.638714
0.213652 0.645391 0.686504
0.214368 0.646108 0.734086
0.215082 0.646822 0.781478
0.215793 0.647532 0.828694
0.216501 0.648241 0.875748
0.217208 0.648947 0.922648
0.212546 0.691328 0.147036
0.213348 0.692131 0.200349
0.214129 0.692911 0.252157
0.214895 0.693677 0.303033
0.215650 0.694433 0.353233
0.216398 0.695181 0.402903
0.217140 0.695922 0.452138
0.217876 0.696658 0.501006
0.218607 0.697389 0.549555
0.219333 0.698116 0.597822
0.220056 0.698839 0.645838
0.220776 0.699558 0.693627
0.221492 0.700275 0.741210
0.222206 0.700988 0.788602
0.222917 0.701699 0.835818
0.223625 0.702408 0.882871
0.224331 0.703114 0.929772
0.219639 0.745263 0.154130
0.220442 0.746065 0.207442
0.221222 0.746846 0.259251
0.221988 0.747612 0.310126
0.222744 0.748367 0.360326
0.223492 0.749115 0.409996
0.224233 0.749857 0.459232
0.224969 0.750592 0.508099
0.225700 0.751323 0.556648
0.226427 0.752050 0.604915
0.227150 0.752773 0.652932
0.227869 0.753493 0.700721
0.228586 0.754209 0.748303
0.229299 0.754923 0.795695
0.230010 0.755634 0.842912
0.230719 0.756342 0.889965
0.231425 0.757048 0.936865
0.226704 0.798984 0.161195
0.227507 0.799787 0.214507
0.228287 0.800567 0.266316
0.229053 0.801333 0.317192
0.229809 0.802089 0.367391
0.230557 0.802837 0.417061
0.231298 0.803578 0.466297
0.232034 0.804314 0.515164
0.232765 0.805045 0.563713
0.233492 0.805771 0.611981
0.234215 0.806494 0.659997
0.234934 0.807214 0.707786
0.235651 0.807930 0.755368
0.236364 0.808644 0.802760
0.237075 0.809355 0.849977
0.237784 0.810063 0.897030
0.238490 0.810770 0.943931
0.233744 0.852508 0.168234
0.234546 0.853311 0.221547
0.235326 0.854091 0.273355
0.236092 0.854857 0.324231
0.236848 0.855613 0.374430
0.237596 0.856360 0.424101
0.238338 0.857102 0.473336
0.239073 0.857838 0.522204
0.239804 0.858569 0.570752
0.240531 0.859295 0.619020
0.241254 0.860018 0.667036
0.241974 0.860738 0.714825
0.242690 0.861454 0.762407
0.243404 0.862168 0.809800
0.244115 0.862879 0.857016
0.244823 0.863587 0.904069
0.245529 0.864294 0.950970
0.240759 0.905848 0.175249
0.241561 0.906651 0.228562
0.242342 0.907431 0.280370
0.243108 0.908197 0.331246
0.243863 0.908953 0.381446
0.244611 0.909701 0.431116
0.245353 0.910442 0.480351
0.246088 0.911178 0.529219
0.246819 0.911909 0.577767
0.247546 0.912636 0.626035
0.248269 0.913359 0.674051
0.248989 0.914078 0.721840
0.249705 0.914795 0.769423
0.250419 0.915508 0.816815
0.251130 0.916219 0.864031
0.251838 0.916928 0.911084
0.252544 0.917634 0.957985
0.247388 0.956253 0.181878
0.248190 0.957055 0.235191
0.248971 0.957835 0.286999
0.249737 0.958601 0.337875
0.250492 0.959357 0.388075
0.251240 0.960105 0.437745
0.251982 0.960846 0.486980
0.252718 0.961582 0.535848
0.253449 0.962313 0.584397
0.254175 0.963040 0.632664
0.254898 0.963763 0.680680
0.255618 0.964483 0.728469
0.256334 0.965199 0.776052
0.257048 0.965913 0.823444
0.257759 0.966624 0.870660
0.258467 0.967332 0.917713
0.259173 0.968038 0.964614
0.184192 0.074675 0.067921
0.184995 0.075478 0.121233
0.185775 0.076258 0.173042
0.186541 0.077024 0.223917
0.187297 0.077780 0.274117
0.188045 0.078527 0.323787
0.188786 0.079269 0.373023
0.189522 0.080005 0.421890
0.190253 0.080736 0.470439
0.190980 0.081462 0.518706
0.191703 0.082185 0.566723
0.192422 0.082905 0.614512
0.193139 0.083621 0.662094
0.193852 0.084335 0.709486
0.194563 0.085046 0.756703
0.195272 0.085754 0.803756
0.195978 0.086461 0.850656
0.192107 0.134855 0.075835
0.192910 0.135658 0.129148
0.193690 0.136438 0.180956
0.194456 0.137204 0.231832
0.195212 0.137960 0.282032
0.195959 0.138708 0.331702
0.196701 0.139449 0.380937
0.197437 0.140185 0.429805
0.198168 0.140916 0.478354
0.198894 0.141643 0.526621
0.199617 0.142366 0.574637
0.200337 0.143085 0.622426
0.201053 0.143802 0.670009
0.201767 0.144515 0.717401
0.202478 0.145226 0.764617
0.203186 0.145935 0.811671
0.203893 0.146641 0.858571
0.199813 0.193454 0.083542
0.200616 0.194256 0.136854
0.201396 0.195037 0.188663
0.202162 0.195803 0.239539
0.202918 0.196558 0.289738
0.203666 0.197306 0.339408
0.204407 0.198048 0.388644
0.205143 0.198783 0.437512
0.205874 0.199514 0.486060
0.206601 0.200241 0.534328
0.207324 0.200964 0.582344
0.208044 0.201684 0.630133
0.208760 0.202400 0.677715
0.209474 0.203114 0.725108
0.210185 0.203825 0.772324
0.210893 0.204533 0.819377
0.211599 0.205239 0.866278
0.207387 0.251042 0.091116
0.208190 0.251845 0.144428
0.208970 0.252625 0.196237
0.209736 0.253391 0.247113
0.210492 0.254147 0.297312
0.211240 0.254895 0.346982
0.211981 0.255636 0.396218
0.212717 0.256372 0.445085
0.213448 0.257103 0.493634
0.214175 0.257830 0.541902
0.214898 0.258553 0.589918
0.215617 0.259272 0.637707
0.216334 0.259989 0.685289
0.217047 0.260702 0.732681
0.217758 0.261413 0.779898
0.218467 0.262122 0.826951
0.219173 0.262828 0.873852
0.214864 0.307890 0.098592
0.215666 0.308693 0.151905
0.216447 0.309473 0.203713
0.217213 0.310239 0.254589
0.217968 0.310995 0.304789
0.218716 0.311743 0.354459
0.219458 0.312484 0.403694
0.220194 0.313220 0.452562
0.220925 0.313951 0.501111
0.221651 0.314678 0.549378
0.222374 0.315401 0.597394
0.223094 0.316120 0.645183
0.223810 0.316837 0.692766
0.224524 0.317550 0.740158
0.225235 0.318261 0.787374
0.225943 0.318970 0.834427
0.226649 0.319676 0.881328
0.222263 0.364153 0.105992
0.223066 0.364956 0.159304
0.223846 0.365736 0.211113
0.224612 0.366502 0.261989
0.225368 0.367258 0.312188
0.226116 0.368006 0.361858
0.226857 0.368747 0.411094
0.227593 0.369483 0.459961
0.228324 0.370214 0.508510
0.229051 0.370941 0.556778
0.229774 0.371664 0.604794
0.230493 0.372383 0.652583
0.231210 0.373100 0.700165
0.231923 0.373813 0.747557
0.232634 0.374524 0.794774
0.233343 0.375233 0.841827
0.234049 0.375939 0.888728
0.229600 0.419935 0.113328
0.230402 0.420738 0.166641
0.231182 0.421518 0.218449
0.231948 0.422284 0.269325
0.232704 0.423040 0.319524
0.233452 0.423787 0.369194
0.234193 0.424529 0.418430
0.234929 0.425265 0.467298
0.235660 0.425996 0.515846
0.236387 0.426722 0.564114
0.237110 0.427445 0.612130
0.237830 0.428165 0.659919
0.238546 0.428881 0.707501
0.239260 0.429595 0.754894
0.239971 0.430306 0.802110
0.240679 0.431014 0.849163
0.241385 0.431721 0.896064
0.236882 0.475307 0.120610
0.237685 0.476110 0.173923
0.238465 0.476890 0.225731
0.239231 0.477656 0.276607
0.239987 0.478412 0.326807
0.240734 0.479159 0.376477
0.241476 0.479901 0.425712
0.242212 0.480637 0.474580
0.242943 0.481368 0.523129
0.243669 0.482094 0.571396
0.244392 0.482817 0.619412
0.245112 0.483537 0.667202
0.245828 0.484253 0.714784
0.246542 0.484967 0.762176
0.247253 0.485678 0.809392
0.247961 0.486386 0.856446
0.248668 0.487093 0.903346
0.244117 0.530323 0.127846
0.244920 0.531126 0.181158
0.245700 0.531906 0.232967
0.246466 0.532672 0.283843
0.247222 0.533428 0.334042
0.247970 0.534176 0.383712
0.248711 0.534917 0.432948
0.249447 0.535653 0.481816
0.250178 0.536384 0.530364
0.250905 0.537111 0.578632
0.251628 0.537834 0.626648
0.252348 0.538553 0.674437
0.253064 0.539270 0.722019
0.253778 0.539983 0.769412
0.254488 0.540694 0.816628
0.255197 0.541403 0.863681
0.255903 0.542109 0.910582
0.251312 0.585025 0.135040
0.252114 0.585828 0.188353
0.252895 0.586608 0.240161
0.253661 0.587374 0.291037
0.254416 0.588130 0.341237
0.255164 0.588878 0.390907
0.255906 0.589619 0.440142
0.256641 0.590355 0.489010
0.257372 0.591086 0.537558
0.258099 0.591813 0.585826
0.258822 0.592536 0.633842
0.259542 0.593255 0.681631
0.260258 0.593972 0.729214
0.260972 0.594686 0.776606
0.261683 0.595396 0.823822
0.262391 0.596105 0.870875
0.263097 0.596811 0.917776
0.258469 0.639446 0.142198
0.259272 0.640249 0.195510
0.260052 0.641029 0.247319
0.260818 0.641795 0.298194
0.261574 0.642551 0.348394
0.262322 0.643299 0.398064
0.263063 0.644040 0.447300
0.263799 0.644776 0.496167
0.264530 0.645507 0.544716
0.265256 0.646234 0.592983
0.265979 0.646957 0.640999
0.266699 0.647677 0.688789
0.267415 0.648393 0.736371
0.268129 0.649107 0.783763
0.268840 0.649817 0.830980
0.269548 0.650526 0.878033
0.270255 0.651232 0.924933
0.265593 0.693613 0.149321
0.266396 0.694416 0.202634
0.267176 0.695196 0.254442
0.267942 0.695962 0.305318
0.268698 0.696718 0.355518
0.269445 0.697466 0.405188
0.270187 0.698207 0.454423
0.270923 0.698943 0.503291
0.271654 0.699674 0.551840
0.272380 0.700401 0.600107
0.273103 0.701124 0.648123
0.273823 0.701843 0.695912
0.274539 0.702560 0.743495
0.275253 0.703273 0.790887
0.275964 0.703984 0.838103
0.276672 0.704693 0.885157
0.277379 0.705399 0.932057
0.272686 0.747548 0.156415
0.273489 0.748350 0.209727
0.274269 0.749131 0.261536
0.275035 0.749897 0.312411
0.275791 0.750652 0.362611
0.276539 0.751400 0.412281
0.277280 0.752142 0.461517
0.278016 0.752877 0.510384
0.278747 0.753608 0.558933
0.279474 0.754335 0.607200
0.280197 0.755058 0.655217
0.280916 0.755778 0.703006
0.281633 0.756494 0.750588
0.282346 0.757208 0.797980
0.283057 0.757919 0.845197
0.283766 0.758627 0.892250
0.284472 0.759333 0.939151
0.279751 0.801269 0.163480
0.280554 0.802072 0.216792
0.281334 0.802852 0.268601
0.282100 0.803618 0.319477
0.282856 0.804374 0.369676
0.283604 0.805122 0.419346
0.284345 0.805863 0.468582
0.285081 0.806599 0.517449
0.285812 0.807330 0.565998
0.286539 0.808056 0.614266
0.287262 0.808779 0.662282
0.287981 0.809499 0.710071
0.288698 0.810215 0.757653
0.289411 0.810929 0.805045
0.290122 0.811640 0.852262
0.290831 0.812348 0.899315
0.291537 0.813055 0.946216
0.286791 0.854793 0.170519
0.287593 0.855596 0.223832
0.288373 0.856376 0.275640
0.289139 0.857142 0.326516
0.289895 0.857898 0.376716
0.290643 0.858645 0.426386
0.291385 0.859387 0.475621
0.292120 0.860123 0.524489
0.292851 0.860854 0.573037
0.293578 0.861580 0.621305
0.294301 0.862303 0.669321
0.295021 0.863023 0.717110
0.295737 0.863739 0.764693
0.296451 0.864453 0.812085
0.297162 0.865164 0.859301
0.297870 0.865872 0.906354
0.298576 0.866579 0.953255
0.293806 0.908133 0.177534
0.294609 0.908936 0.230847
0.295389 0.909716 0.282655
0.296155 0.910482 0.333531
0.296910 0.911238 0.383731
0.297658 0.911986 0.433401
0.298400 0.912727 0.482636
0.299136 0.913463 0.531504
0.299867 0.914194 0.580053
0.300593 0.914921 0.628320
0.301316 0.915644 0.676336
0.302036 0.916363 0.724125
0.302752 0.917080 0.771708
0.303466 0.917793 0.819100
0.304177 0.918504 0.866316
0.304885 0.919213 0.913369
0.305591 0.919919 0.960270
0.300435 0.958538 0.184163
0.301238 0.959340 0.237476
0.302018 0.960120 0.289284
0.302784 0.960886 0.340160
0.303540 0.961642 0.390360
0.304287 0.962390 0.440030
0.305029 0.963132 0.489265
0.305765 0.963867 0.538133
0.306496 0.964598 0.586682
0.307222 0.965325 0.634949
0.307945 0.966048 0.682965
0.308665 0.966768 0.730754
0.309381 0.967484 0.778337
0.310095 0.968198 0.825729
0.310806 0.968909 0.872945
0.311514 0.969617 0.919999
0.312221 0.970323 0.966899
0.236363 0.076922 0.070168
0.237166 0.077725 0.123480
0.237946 0.078505 0.175289
0.238712 0.079271 0.226165
0.239468 0.080027 0.276364
0.240215 0.080775 0.326034
0.240957 0.081516 0.375270
0.241693 0.082252 0.424137
0.242424 0.082983 0.472686
0.243150 0.083710 0.520954
0.243873 0.084433 0.568970
0.244593 0.085152 0.616759
0.245309 0.085869 0.664341
0.246023 0.086582 0.711733
0.246734 0.087293 0.758950
0.247442 0.088002 0.806003
0.248149 0.088708 0.852904
0.244278 0.137103 0.078083
