skills/creativeops-producer-ios/assets/grade/luts/soft_pastel_v15.cube
TITLE "soft_pastel_v15"
LUT_3D_SIZE 17
DOMAIN_MIN 0.0 0.0 0.0
DOMAIN_MAX 1.0 1.0 1.0
0.072699 0.066373 0.060008
0.073475 0.067148 0.113790
0.074228 0.067902 0.166077
0.074968 0.068642 0.217445
0.075699 0.069373 0.268151
0.076423 0.070096 0.318339
0.077140 0.070813 0.368102
0.077852 0.071525 0.417506
0.078559 0.072233 0.466599
0.079263 0.072936 0.515418
0.079963 0.073636 0.563992
0.080660 0.074333 0.612345
0.081354 0.075027 0.660496
0.082045 0.075719 0.708462
0.082734 0.076407 0.756257
0.083420 0.077094 0.803892
0.084105 0.077778 0.851380
0.080344 0.126796 0.067653
0.081119 0.127571 0.121435
0.081873 0.128324 0.173722
0.082613 0.129065 0.225090
0.083344 0.129796 0.275796
0.084067 0.130519 0.325984
0.084785 0.131236 0.375747
0.085497 0.131948 0.425151
0.086204 0.132656 0.474244
0.086908 0.133359 0.523063
0.087608 0.134059 0.571637
0.088305 0.134756 0.619990
0.088999 0.135450 0.668141
0.089690 0.136141 0.716107
0.090379 0.136830 0.763901
0.091065 0.137517 0.811537
0.091750 0.138201 0.859025
0.087791 0.185649 0.075100
0.088566 0.186424 0.128881
0.089319 0.187177 0.181168
0.090060 0.187918 0.232537
0.090790 0.188649 0.283242
0.091514 0.189372 0.333430
0.092231 0.190089 0.383193
0.092943 0.190801 0.432597
0.093650 0.191509 0.481690
0.094354 0.192212 0.530509
0.095054 0.192912 0.579083
0.095751 0.193609 0.627436
0.096445 0.194303 0.675587
0.097136 0.194994 0.723553
0.097825 0.195683 0.771348
0.098512 0.196370 0.818984
0.099196 0.197054 0.866471
0.095112 0.243511 0.082421
0.095887 0.244286 0.136202
0.096640 0.245039 0.188489
0.097381 0.245780 0.239857
0.098111 0.246511 0.290563
0.098835 0.247234 0.340751
0.099552 0.247951 0.390514
0.100264 0.248663 0.439918
0.100971 0.249371 0.489011
0.101675 0.250074 0.537830
0.102375 0.250774 0.586404
0.103072 0.251471 0.634757
0.103766 0.252165 0.682908
0.104457 0.252856 0.730874
0.105146 0.253545 0.778669
0.105832 0.254232 0.826304
0.106517 0.254916 0.873792
0.102341 0.300649 0.089650
0.103116 0.301424 0.143432
0.103870 0.302177 0.195718
0.104610 0.302918 0.247087
0.105341 0.303648 0.297792
0.106064 0.304372 0.347980
0.106781 0.305089 0.397743
0.107493 0.305801 0.447148
0.108201 0.306508 0.496241
0.108904 0.307212 0.545059
0.109604 0.307912 0.593633
0.110301 0.308609 0.641986
0.110995 0.309303 0.690137
0.111686 0.309994 0.738103
0.112375 0.310683 0.785898
0.113062 0.311370 0.833534
0.113746 0.312054 0.881021
0.109498 0.357217 0.096807
0.110273 0.357992 0.150589
0.111027 0.358746 0.202875
0.111767 0.359486 0.254244
0.112498 0.360217 0.304950
0.113221 0.360940 0.355137
0.113938 0.361657 0.404901
0.114650 0.362369 0.454305
0.115358 0.363077 0.503398
0.116061 0.363780 0.552217
0.116762 0.364480 0.600791
0.117458 0.365177 0.649143
0.118152 0.365871 0.697294
0.118844 0.366562 0.745260
0.119532 0.367251 0.793055
0.120219 0.367938 0.840691
0.120903 0.368622 0.888178
0.116596 0.413316 0.103905
0.117371 0.414091 0.157687
0.118125 0.414845 0.209973
0.118865 0.415585 0.261342
0.119596 0.416316 0.312048
0.120319 0.417039 0.362235
0.121036 0.417756 0.411999
0.121748 0.418468 0.461403
0.122456 0.419176 0.510496
0.123159 0.419880 0.559314
0.123859 0.420580 0.607888
0.124556 0.421276 0.656241
0.125250 0.421970 0.704392
0.125942 0.422662 0.752358
0.126630 0.423351 0.800153
0.127317 0.424037 0.847789
0.128001 0.424721 0.895276
0.123644 0.469017 0.110952
0.124419 0.469793 0.164734
0.125172 0.470546 0.217021
0.125912 0.471286 0.268389
0.126643 0.472017 0.319095
0.127367 0.472740 0.369283
0.128084 0.473458 0.419046
0.128796 0.474170 0.468450
0.129503 0.474877 0.517543
0.130207 0.475581 0.566362
0.130907 0.476281 0.614936
0.131604 0.476978 0.663289
0.132298 0.477672 0.711440
0.132989 0.478363 0.759406
0.133678 0.479052 0.807201
0.134364 0.479738 0.854836
0.135049 0.480423 0.902324
0.130647 0.524373 0.117956
0.131422 0.525148 0.171738
0.132176 0.525902 0.224025
0.132916 0.526642 0.275393
0.133647 0.527373 0.326099
0.134370 0.528096 0.376287
0.135088 0.528813 0.426050
0.135800 0.529525 0.475454
0.136507 0.530233 0.524547
0.137211 0.530937 0.573366
0.137911 0.531637 0.621940
0.138608 0.532333 0.670293
0.139302 0.533027 0.718444
0.139993 0.533719 0.766410
0.140682 0.534407 0.814204
0.141368 0.535094 0.861840
0.142053 0.535778 0.909327
0.137613 0.579424 0.124921
0.138388 0.580199 0.178703
0.139141 0.580952 0.230990
0.139882 0.581693 0.282358
0.140612 0.582424 0.333064
0.141336 0.583147 0.383252
0.142053 0.583864 0.433015
0.142765 0.584576 0.482419
0.143472 0.585284 0.531512
0.144176 0.585987 0.580331
0.144876 0.586687 0.628905
0.145573 0.587384 0.677258
0.146267 0.588078 0.725409
0.146958 0.588769 0.773375
0.147647 0.589458 0.821170
0.148333 0.590145 0.868805
0.149018 0.590829 0.916293
0.144543 0.634202 0.131852
0.145318 0.634977 0.185634
0.146072 0.635730 0.237921
0.146812 0.636471 0.289289
0.147543 0.637201 0.339995
0.148266 0.637925 0.390182
0.148983 0.638642 0.439946
0.149695 0.639354 0.489350
0.150403 0.640061 0.538443
0.151107 0.640765 0.587262
0.151807 0.641465 0.635836
0.152503 0.642162 0.684188
0.153197 0.642856 0.732340
0.153889 0.643547 0.780305
0.154578 0.644236 0.828100
0.155264 0.644922 0.875736
0.155948 0.645607 0.923223
0.151443 0.688733 0.138752
0.152218 0.689508 0.192533
0.152971 0.690261 0.244820
0.153712 0.691001 0.296189
0.154442 0.691732 0.346894
0.155166 0.692456 0.397082
0.155883 0.693173 0.446845
0.156595 0.693885 0.496249
0.157302 0.694592 0.545342
0.158006 0.695296 0.594161
0.158706 0.695996 0.642735
0.159403 0.696693 0.691088
0.160097 0.697387 0.739239
0.160788 0.698078 0.787205
0.161477 0.698767 0.835000
0.162164 0.699453 0.882636
0.162848 0.700138 0.930123
0.158314 0.743038 0.145623
0.159089 0.743813 0.199404
0.159842 0.744567 0.251691
0.160583 0.745307 0.303059
0.161313 0.746038 0.353765
0.162037 0.746761 0.403953
0.162754 0.747479 0.453716
0.163466 0.748191 0.503120
0.164173 0.748898 0.552213
0.164877 0.749602 0.601032
0.165577 0.750302 0.649606
0.166274 0.750999 0.697959
0.166968 0.751693 0.746110
0.167659 0.752384 0.794076
0.168348 0.753073 0.841871
0.169035 0.753759 0.889507
0.169719 0.754444 0.936994
0.165158 0.797137 0.152467
0.165934 0.797912 0.206249
0.166687 0.798666 0.258536
0.167427 0.799406 0.309904
0.168158 0.800137 0.360610
0.168881 0.800860 0.410798
0.169599 0.801577 0.460561
0.170311 0.802289 0.509965
0.171018 0.802997 0.559058
0.171722 0.803701 0.607877
0.172422 0.804401 0.656451
0.173119 0.805098 0.704804
0.173813 0.805791 0.752955
0.174504 0.806483 0.800921
0.175193 0.807172 0.848716
0.175879 0.807858 0.896351
0.176564 0.808543 0.943839
0.171979 0.851045 0.159288
0.172754 0.851820 0.213070
0.173508 0.852573 0.265356
0.174248 0.853314 0.316725
0.174979 0.854044 0.367431
0.175702 0.854768 0.417618
0.176419 0.855485 0.467382
0.177131 0.856197 0.516786
0.177839 0.856905 0.565879
0.178542 0.857608 0.614697
0.179242 0.858308 0.663271
0.179939 0.859005 0.711624
0.180633 0.859699 0.759775
0.181325 0.860390 0.807741
0.182013 0.861079 0.855536
0.182700 0.861766 0.903172
0.183384 0.862450 0.950659
0.178777 0.904774 0.166086
0.179552 0.905549 0.219868
0.180306 0.906303 0.272154
0.181046 0.907043 0.323523
0.181777 0.907774 0.374229
0.182500 0.908497 0.424416
0.183217 0.909215 0.474180
0.183929 0.909927 0.523584
0.184637 0.910634 0.572677
0.185340 0.911338 0.621496
0.186040 0.912038 0.670070
0.186737 0.912735 0.718422
0.187431 0.913429 0.766573
0.188123 0.914120 0.814539
0.188811 0.914809 0.862334
0.189498 0.915495 0.909970
0.190182 0.916180 0.957457
0.185181 0.955388 0.172490
0.185956 0.956163 0.226272
0.186710 0.956917 0.278558
0.187450 0.957657 0.329927
0.188181 0.958388 0.380632
0.188904 0.959111 0.430820
0.189621 0.959828 0.480583
0.190333 0.960540 0.529988
0.191041 0.961248 0.579081
0.191744 0.961951 0.627899
0.192444 0.962652 0.676473
0.193141 0.963348 0.724826
0.193835 0.964042 0.772977
0.194526 0.964734 0.820943
0.195215 0.965422 0.868738
0.195902 0.966109 0.916374
0.196586 0.966793 0.963861
0.127532 0.068637 0.062272
0.128307 0.069412 0.116054
0.129061 0.070165 0.168340
0.129801 0.070906 0.219709
0.130532 0.071636 0.270415
0.131255 0.072360 0.320602
0.131972 0.073077 0.370366
0.132684 0.073789 0.419770
0.133392 0.074496 0.468863
0.134095 0.075200 0.517682
0.134795 0.075900 0.566255
0.135492 0.076597 0.614608
0.136186 0.077291 0.662759
0.136878 0.077982 0.710725
0.137566 0.078671 0.758520
0.138253 0.079357 0.806156
0.138937 0.080042 0.853643
0.135177 0.129059 0.069917
0.135952 0.129834 0.123699
0.136706 0.130588 0.175985
0.137446 0.131328 0.227354
0.138177 0.132059 0.278059
0.138900 0.132782 0.328247
0.139617 0.133500 0.378010
0.140329 0.134212 0.427415
0.141037 0.134919 0.476508
0.141740 0.135623 0.525326
0.142440 0.136323 0.573900
0.143137 0.137020 0.622253
0.143831 0.137714 0.670404
0.144522 0.138405 0.718370
0.145211 0.139094 0.766165
0.145898 0.139780 0.813801
0.146582 0.140465 0.861288
0.142623 0.187912 0.077363
0.143398 0.188687 0.131145
0.144152 0.189441 0.183432
0.144892 0.190181 0.234800
0.145623 0.190912 0.285506
0.146346 0.191635 0.335693
0.147064 0.192353 0.385457
0.147776 0.193065 0.434861
0.148483 0.193772 0.483954
0.149187 0.194476 0.532773
0.149887 0.195176 0.581347
0.150584 0.195873 0.629699
0.151277 0.196567 0.677851
0.151969 0.197258 0.725816
0.152658 0.197947 0.773611
0.153344 0.198633 0.821247
0.154029 0.199318 0.868734
0.149944 0.245774 0.084684
0.150719 0.246549 0.138466
0.151473 0.247303 0.190752
0.152213 0.248043 0.242121
0.152944 0.248774 0.292827
0.153667 0.249497 0.343014
0.154384 0.250215 0.392778
0.155096 0.250927 0.442182
0.155804 0.251634 0.491275
0.156508 0.252338 0.540094
0.157208 0.253038 0.588668
0.157904 0.253735 0.637020
0.158598 0.254429 0.685171
0.159290 0.255120 0.733137
0.159979 0.255809 0.780932
0.160665 0.256495 0.828568
0.161349 0.257180 0.876055
0.157173 0.302912 0.091913
0.157949 0.303687 0.145695
0.158702 0.304441 0.197982
0.159442 0.305181 0.249350
0.160173 0.305912 0.300056
0.160897 0.306635 0.350244
0.161614 0.307352 0.400007
0.162326 0.308064 0.449411
0.163033 0.308772 0.498504
0.163737 0.309476 0.547323
0.164437 0.310176 0.595897
0.165134 0.310872 0.644250
0.165828 0.311566 0.692401
0.166519 0.312258 0.740367
0.167208 0.312947 0.788162
0.167894 0.313633 0.835797
0.168579 0.314317 0.883285
0.164331 0.359480 0.099071
0.165106 0.360256 0.152852
0.165859 0.361009 0.205139
0.166600 0.361749 0.256507
0.167330 0.362480 0.307213
0.168054 0.363203 0.357401
0.168771 0.363921 0.407164
0.169483 0.364633 0.456568
0.170190 0.365340 0.505661
0.170894 0.366044 0.554480
0.171594 0.366744 0.603054
0.172291 0.367441 0.651407
0.172985 0.368135 0.699558
0.173676 0.368826 0.747524
0.174365 0.369515 0.795319
0.175052 0.370201 0.842955
0.175736 0.370886 0.890442
0.171429 0.415580 0.106168
0.172204 0.416355 0.159950
0.172957 0.417108 0.212237
0.173698 0.417849 0.263605
0.174428 0.418579 0.314311
0.175152 0.419303 0.364499
0.175869 0.420020 0.414262
0.176581 0.420732 0.463666
0.177288 0.421440 0.512759
0.177992 0.422143 0.561578
0.178692 0.422843 0.610152
0.179389 0.423540 0.658505
0.180083 0.424234 0.706656
0.180774 0.424925 0.754622
0.181463 0.425614 0.802417
0.182149 0.426301 0.850052
0.182834 0.426985 0.897540
0.178476 0.471281 0.113216
0.179251 0.472056 0.166998
0.180005 0.472810 0.219284
0.180745 0.473550 0.270653
0.181476 0.474281 0.321359
0.182199 0.475004 0.371546
0.182916 0.475721 0.421310
0.183628 0.476433 0.470714
0.184336 0.477141 0.519807
0.185039 0.477844 0.568626
0.185739 0.478544 0.617200
0.186436 0.479241 0.665552
0.187130 0.479935 0.713703
0.187822 0.480626 0.761669
0.188510 0.481315 0.809464
0.189197 0.482002 0.857100
0.189881 0.482686 0.904587
0.185480 0.526637 0.120220
0.186255 0.527412 0.174002
0.187009 0.528165 0.226288
0.187749 0.528906 0.277657
0.188480 0.529636 0.328362
0.189203 0.530360 0.378550
0.189920 0.531077 0.428313
0.190632 0.531789 0.477717
0.191340 0.532496 0.526810
0.192043 0.533200 0.575629
0.192743 0.533900 0.624203
0.193440 0.534597 0.672556
0.194134 0.535291 0.720707
0.194825 0.535982 0.768673
0.195514 0.536671 0.816468
0.196201 0.537358 0.864104
0.196885 0.538042 0.911591
0.192445 0.581687 0.127185
0.193220 0.582462 0.180967
0.193974 0.583216 0.233253
0.194714 0.583956 0.284622
0.195445 0.584687 0.335328
0.196168 0.585410 0.385515
0.196885 0.586128 0.435279
0.197597 0.586840 0.484683
0.198305 0.587547 0.533776
0.199008 0.588251 0.582595
0.199709 0.588951 0.631169
0.200405 0.589648 0.679521
0.201099 0.590342 0.727672
0.201791 0.591033 0.775638
0.202479 0.591722 0.823433
0.203166 0.592408 0.871069
0.203850 0.593093 0.918556
0.199376 0.636465 0.134116
0.200151 0.637240 0.187897
0.200904 0.637994 0.240184
0.201645 0.638734 0.291553
0.202376 0.639465 0.342258
0.203099 0.640188 0.392446
0.203816 0.640905 0.442209
0.204528 0.641617 0.491613
0.205236 0.642325 0.540706
0.205939 0.643028 0.589525
0.206639 0.643729 0.638099
0.207336 0.644425 0.686452
0.208030 0.645119 0.734603
0.208721 0.645811 0.782569
0.209410 0.646499 0.830364
0.210097 0.647186 0.878000
0.210781 0.647870 0.925487
0.206275 0.690996 0.141015
0.207050 0.691771 0.194797
0.207804 0.692525 0.247084
0.208544 0.693265 0.298452
0.209275 0.693996 0.349158
0.209998 0.694719 0.399345
0.210715 0.695436 0.449109
0.211427 0.696148 0.498513
0.212135 0.696856 0.547606
0.212839 0.697559 0.596425
0.213539 0.698259 0.644999
0.214236 0.698956 0.693351
0.214929 0.699650 0.741503
0.215621 0.700342 0.789468
0.216310 0.701030 0.837263
0.216996 0.701717 0.884899
0.217680 0.702401 0.932386
0.213146 0.745302 0.147886
0.213921 0.746077 0.201668
0.214675 0.746831 0.253955
0.215415 0.747571 0.305323
0.216146 0.748302 0.356029
0.216869 0.749025 0.406216
0.217586 0.749742 0.455980
0.218298 0.750454 0.505384
0.219006 0.751162 0.554477
0.219710 0.751865 0.603296
0.220410 0.752565 0.651870
0.221106 0.753262 0.700222
0.221800 0.753956 0.748373
0.222492 0.754647 0.796339
0.223181 0.755336 0.844134
0.223867 0.756023 0.891770
0.224551 0.756707 0.939257
0.219991 0.799401 0.154731
0.220766 0.800176 0.208513
0.221520 0.800929 0.260799
0.222260 0.801670 0.312168
0.222991 0.802401 0.362873
0.223714 0.803124 0.413061
0.224431 0.803841 0.462824
0.225143 0.804553 0.512229
0.225851 0.805261 0.561322
0.226554 0.805964 0.610140
0.227254 0.806664 0.658714
0.227951 0.807361 0.707067
0.228645 0.808055 0.755218
0.229337 0.808746 0.803184
0.230025 0.809435 0.850979
0.230712 0.810122 0.898615
0.231396 0.810806 0.946102
0.226812 0.853308 0.161551
0.227587 0.854083 0.215333
0.228340 0.854837 0.267620
0.229081 0.855577 0.318988
0.229811 0.856308 0.369694
0.230535 0.857031 0.419882
0.231252 0.857749 0.469645
0.231964 0.858461 0.519049
0.232671 0.859168 0.568142
0.233375 0.859872 0.616961
0.234075 0.860572 0.665535
0.234772 0.861269 0.713888
0.235466 0.861963 0.762039
0.236157 0.862654 0.810005
0.236846 0.863343 0.857800
0.237532 0.864029 0.905435
0.238217 0.864714 0.952923
0.233610 0.907038 0.168350
0.234385 0.907813 0.222131
0.235138 0.908566 0.274418
0.235879 0.909307 0.325786
0.236609 0.910038 0.376492
0.237333 0.910761 0.426680
0.238050 0.911478 0.476443
0.238762 0.912190 0.525847
0.239469 0.912898 0.574940
0.240173 0.913601 0.623759
0.240873 0.914301 0.672333
0.241570 0.914998 0.720686
0.242264 0.915692 0.768837
0.242955 0.916383 0.816803
0.243644 0.917072 0.864598
0.244330 0.917759 0.912233
0.245015 0.918443 0.959721
0.240013 0.957652 0.174753
0.240789 0.958427 0.228535
0.241542 0.959180 0.280822
0.242282 0.959921 0.332190
0.243013 0.960651 0.382896
0.243737 0.961375 0.433084
0.244454 0.962092 0.482847
0.245166 0.962804 0.532251
0.245873 0.963511 0.581344
0.246577 0.964215 0.630163
0.247277 0.964915 0.678737
0.247974 0.965612 0.727090
0.248668 0.966306 0.775241
0.249359 0.966997 0.823207
0.250048 0.967686 0.871002
0.250734 0.968373 0.918637
0.251419 0.969057 0.966125
0.181027 0.070845 0.064480
0.181802 0.071620 0.118262
0.182556 0.072374 0.170549
0.183296 0.073114 0.221917
0.184027 0.073845 0.272623
0.184750 0.074568 0.322811
0.185467 0.075285 0.372574
0.186179 0.075997 0.421978
0.186887 0.076705 0.471071
0.187590 0.077408 0.519890
0.188291 0.078108 0.568464
0.188987 0.078805 0.616817
0.189681 0.079499 0.664968
0.190373 0.080190 0.712934
0.191061 0.080879 0.760728
0.191748 0.081566 0.808364
0.192432 0.082250 0.855851
0.188672 0.131268 0.072125
0.189447 0.132043 0.125907
0.190201 0.132796 0.178194
0.190941 0.133537 0.229562
0.191672 0.134267 0.280268
0.192395 0.134991 0.330456
0.193112 0.135708 0.380219
0.193824 0.136420 0.429623
0.194532 0.137127 0.478716
0.195235 0.137831 0.527535
0.195935 0.138531 0.576109
0.196632 0.139228 0.624461
0.197326 0.139922 0.672613
0.198018 0.140613 0.720579
0.198706 0.141302 0.768373
0.199393 0.141989 0.816009
0.200077 0.142673 0.863496
0.196118 0.190121 0.079572
0.196893 0.190896 0.133353
0.197647 0.191649 0.185640
0.198387 0.192390 0.237008
0.199118 0.193120 0.287714
0.199841 0.193844 0.337902
0.200559 0.194561 0.387665
0.201271 0.195273 0.437069
0.201978 0.195980 0.486162
0.202682 0.196684 0.534981
0.203382 0.197384 0.583555
0.204079 0.198081 0.631908
0.204773 0.198775 0.680059
0.205464 0.199466 0.728025
0.206153 0.200155 0.775820
0.206839 0.200842 0.823455
0.207524 0.201526 0.870943
0.203439 0.247983 0.086892
0.204214 0.248758 0.140674
0.204968 0.249511 0.192961
0.205708 0.250252 0.244329
0.206439 0.250982 0.295035
0.207162 0.251706 0.345223
0.207879 0.252423 0.394986
0.208591 0.253135 0.444390
0.209299 0.253842 0.493483
0.210003 0.254546 0.542302
0.210703 0.255246 0.590876
0.211400 0.255943 0.639229
0.212093 0.256637 0.687380
0.212785 0.257328 0.735346
0.213474 0.258017 0.783141
0.214160 0.258704 0.830776
0.214844 0.259388 0.878264
0.210669 0.305121 0.094122
0.211444 0.305896 0.147903
0.212197 0.306649 0.200190
0.212937 0.307390 0.251559
0.213668 0.308120 0.302264
0.214392 0.308844 0.352452
0.215109 0.309561 0.402215
0.215821 0.310273 0.451619
0.216528 0.310980 0.500712
0.217232 0.311684 0.549531
0.217932 0.312384 0.598105
0.218629 0.313081 0.646458
0.219323 0.313775 0.694609
0.220014 0.314466 0.742575
0.220703 0.315155 0.790370
0.221389 0.315841 0.838006
0.222074 0.316526 0.885493
0.217826 0.361689 0.101279
0.218601 0.362464 0.155061
0.219354 0.363217 0.207347
0.220095 0.363958 0.258716
0.220825 0.364688 0.309421
0.221549 0.365412 0.359609
0.222266 0.366129 0.409373
0.222978 0.366841 0.458777
0.223686 0.367549 0.507870
0.224389 0.368252 0.556688
0.225089 0.368952 0.605262
0.225786 0.369649 0.653615
0.226480 0.370343 0.701766
0.227171 0.371034 0.749732
0.227860 0.371723 0.797527
0.228547 0.372410 0.845163
0.229231 0.373094 0.892650
0.224924 0.417788 0.108377
0.225699 0.418563 0.162159
0.226452 0.419317 0.214445
0.227193 0.420057 0.265814
0.227923 0.420788 0.316519
0.228647 0.421511 0.366707
0.229364 0.422228 0.416470
0.230076 0.422940 0.465874
0.230783 0.423648 0.514967
0.231487 0.424351 0.563786
0.232187 0.425051 0.612360
0.232884 0.425748 0.660713
0.233578 0.426442 0.708864
0.234269 0.427134 0.756830
0.234958 0.427822 0.804625
0.235644 0.428509 0.852261
0.236329 0.429193 0.899748
0.231971 0.473489 0.115424
0.232746 0.474264 0.169206
0.233500 0.475018 0.221493
0.234240 0.475758 0.272861
0.234971 0.476489 0.323567
0.235694 0.477212 0.373755
0.236411 0.477930 0.423518
0.237123 0.478642 0.472922
0.237831 0.479349 0.522015
0.238535 0.480053 0.570834
0.239235 0.480753 0.619408
0.239931 0.481450 0.667761
0.240625 0.482144 0.715912
0.241317 0.482835 0.763878
0.242005 0.483524 0.811672
0.242692 0.484210 0.859308
0.243376 0.484895 0.906796
0.238975 0.528845 0.122428
0.239750 0.529620 0.176210
0.240504 0.530374 0.228497
0.241244 0.531114 0.279865
0.241975 0.531845 0.330571
0.242698 0.532568 0.380758
0.243415 0.533285 0.430522
0.244127 0.533997 0.479926
0.244835 0.534705 0.529019
0.245538 0.535408 0.577838
0.246238 0.536108 0.626412
0.246935 0.536805 0.674764
0.247629 0.537499 0.722915
0.248320 0.538191 0.770881
0.249009 0.538879 0.818676
0.249696 0.539566 0.866312
0.250380 0.540250 0.913799
0.245940 0.583896 0.129393
0.246715 0.584671 0.183175
0.247469 0.585424 0.235462
0.248209 0.586165 0.286830
0.248940 0.586895 0.337536
0.249663 0.587619 0.387724
0.250380 0.588336 0.437487
0.251092 0.589048 0.486891
0.251800 0.589755 0.535984
0.252504 0.590459 0.584803
0.253204 0.591159 0.633377
0.253900 0.591856 0.681730
0.254594 0.592550 0.729881
0.255286 0.593241 0.777847
0.255974 0.593930 0.825641
0.256661 0.594617 0.873277
0.257345 0.595301 0.920765
0.252871 0.638673 0.136324
0.253646 0.639448 0.190106
0.254399 0.640202 0.242392
0.255140 0.640942 0.293761
0.255871 0.641673 0.344467
0.256594 0.642396 0.394654
0.257311 0.643114 0.444418
0.258023 0.643826 0.493822
0.258731 0.644533 0.542915
0.259434 0.645237 0.591734
0.260134 0.645937 0.640308
0.260831 0.646634 0.688660
0.261525 0.647328 0.736811
0.262216 0.648019 0.784777
0.262905 0.648708 0.832572
0.263592 0.649394 0.880208
0.264276 0.650079 0.927695
0.259770 0.693204 0.143223
0.260545 0.693979 0.197005
0.261299 0.694733 0.249292
0.262039 0.695473 0.300660
0.262770 0.696204 0.351366
0.263493 0.696927 0.401554
0.264211 0.697645 0.451317
0.264923 0.698357 0.500721
0.265630 0.699064 0.549814
0.266334 0.699768 0.598633
0.267034 0.700468 0.647207
0.267731 0.701165 0.695560
0.268425 0.701859 0.743711
0.269116 0.702550 0.791677
0.269805 0.703239 0.839472
0.270491 0.703925 0.887107
0.271176 0.704610 0.934595
0.266641 0.747510 0.150094
0.267416 0.748285 0.203876
0.268170 0.749039 0.256163
0.268910 0.749779 0.307531
0.269641 0.750510 0.358237
0.270364 0.751233 0.408425
0.271081 0.751950 0.458188
0.271794 0.752662 0.507592
0.272501 0.753370 0.556685
0.273205 0.754074 0.605504
0.273905 0.754774 0.654078
0.274602 0.755470 0.702431
0.275295 0.756164 0.750582
0.275987 0.756856 0.798548
0.276676 0.757545 0.846343
0.277362 0.758231 0.893978
0.278047 0.758915 0.941466
0.273486 0.801609 0.156939
0.274261 0.802384 0.210721
0.275015 0.803138 0.263008
0.275755 0.803878 0.314376
0.276486 0.804609 0.365082
0.277209 0.805332 0.415270
0.277926 0.806049 0.465033
0.278638 0.806761 0.514437
0.279346 0.807469 0.563530
0.280049 0.808172 0.612349
0.280749 0.808873 0.660923
0.281446 0.809569 0.709275
0.282140 0.810263 0.757427
0.282832 0.810955 0.805393
0.283520 0.811643 0.853187
0.284207 0.812330 0.900823
0.284891 0.813014 0.948310
0.280307 0.855517 0.163760
0.281082 0.856292 0.217542
0.281835 0.857045 0.269828
0.282576 0.857786 0.321197
0.283306 0.858516 0.371902
0.284030 0.859240 0.422090
0.284747 0.859957 0.471853
0.285459 0.860669 0.521257
0.286166 0.861376 0.570350
0.286870 0.862080 0.619169
0.287570 0.862780 0.667743
0.288267 0.863477 0.716096
0.288961 0.864171 0.764247
0.289652 0.864862 0.812213
0.290341 0.865551 0.860008
0.291027 0.866237 0.907644
0.291712 0.866922 0.955131
0.287105 0.909246 0.170558
0.287880 0.910021 0.224340
0.288633 0.910775 0.276626
0.289374 0.911515 0.327995
0.290104 0.912246 0.378700
0.290828 0.912969 0.428888
0.291545 0.913686 0.478651
0.292257 0.914398 0.528056
0.292964 0.915106 0.577149
0.293668 0.915810 0.625967
0.294368 0.916510 0.674541
0.295065 0.917206 0.722894
0.295759 0.917900 0.771045
0.296450 0.918592 0.819011
0.297139 0.919280 0.866806
0.297826 0.919967 0.914442
0.298510 0.920651 0.961929
0.293508 0.959860 0.176962
0.294284 0.960635 0.230743
0.295037 0.961389 0.283030
0.295777 0.962129 0.334399
0.296508 0.962860 0.385104
0.297232 0.963583 0.435292
0.297949 0.964300 0.485055
0.298661 0.965012 0.534459
0.299368 0.965720 0.583552
0.300072 0.966423 0.632371
0.300772 0.967123 0.680945
0.301469 0.967820 0.729298
0.302163 0.968514 0.777449
0.302854 0.969205 0.825415
0.303543 0.969894 0.873210
0.304229 0.970581 0.920846
0.304914 0.971265 0.968333
0.233657 0.073017 0.066653
0.234432 0.073793 0.120435
0.235185 0.074546 0.172721
0.235926 0.075286 0.224090
0.236657 0.076017 0.274795
0.237380 0.076741 0.324983
0.238097 0.077458 0.374746
0.238809 0.078170 0.424151
0.239517 0.078877 0.473244
0.240220 0.079581 0.522062
0.240920 0.080281 0.570636
0.241617 0.080978 0.618989
0.242311 0.081672 0.667140
0.243002 0.082363 0.715106
0.243691 0.083052 0.762901
0.244378 0.083738 0.810537
0.245062 0.084423 0.858024
0.241302 0.133440 0.074298
