skills/creativeops-producer-ios/assets/grade/luts/soft_pastel_v14.cube
TITLE "soft_pastel_v14"
LUT_3D_SIZE 17
DOMAIN_MIN 0.0 0.0 0.0
DOMAIN_MAX 1.0 1.0 1.0
0.068640 0.062708 0.056742
0.069387 0.063455 0.110989
0.070114 0.064182 0.163752
0.070829 0.064896 0.215613
0.071534 0.065602 0.266825
0.072233 0.066300 0.317532
0.072926 0.066993 0.367825
0.073614 0.067681 0.417767
0.074297 0.068365 0.467407
0.074978 0.069045 0.516780
0.075654 0.069722 0.565915
0.076328 0.070396 0.614835
0.077000 0.071067 0.663559
0.077668 0.071736 0.712102
0.078335 0.072402 0.760479
0.078999 0.073067 0.808702
0.079661 0.073729 0.856780
0.076013 0.123368 0.064115
0.076761 0.124115 0.118363
0.077487 0.124842 0.171126
0.078202 0.125556 0.222986
0.078907 0.126262 0.274199
0.079606 0.126960 0.324905
0.080299 0.127653 0.375198
0.080987 0.128341 0.425141
0.081671 0.129025 0.474781
0.082351 0.129705 0.524154
0.083028 0.130382 0.573288
0.083702 0.131056 0.622208
0.084373 0.131727 0.670932
0.085041 0.132396 0.719475
0.085708 0.133062 0.767853
0.086372 0.133727 0.816075
0.087035 0.134389 0.864153
0.083197 0.182472 0.071299
0.083945 0.183219 0.125547
0.084672 0.183946 0.178310
0.085386 0.184661 0.230170
0.086091 0.185366 0.281383
0.086790 0.186065 0.332089
0.087483 0.186758 0.382382
0.088171 0.187446 0.432325
0.088855 0.188129 0.481965
0.089535 0.188810 0.531338
0.090212 0.189486 0.580473
0.090886 0.190160 0.629392
0.091557 0.190832 0.678116
0.092226 0.191500 0.726659
0.092892 0.192167 0.775037
0.093556 0.192831 0.823259
0.094219 0.193493 0.871337
0.090263 0.240605 0.078365
0.091011 0.241352 0.132613
0.091738 0.242079 0.185376
0.092452 0.242794 0.237237
0.093157 0.243499 0.288449
0.093856 0.244198 0.339155
0.094549 0.244891 0.389448
0.095237 0.245579 0.439391
0.095921 0.246262 0.489031
0.096601 0.246943 0.538404
0.097278 0.247619 0.587539
0.097952 0.248293 0.636458
0.098623 0.248965 0.685182
0.099292 0.249633 0.733725
0.099958 0.250300 0.782103
0.100622 0.250964 0.830325
0.101285 0.251626 0.878403
0.097244 0.298032 0.085345
0.097991 0.298779 0.139593
0.098718 0.299506 0.192356
0.099432 0.300220 0.244217
0.100138 0.300926 0.295429
0.100836 0.301624 0.346135
0.101529 0.302317 0.396428
0.102217 0.303005 0.446371
0.102901 0.303689 0.496011
0.103581 0.304369 0.545384
0.104258 0.305046 0.594519
0.104932 0.305720 0.643438
0.105603 0.306391 0.692162
0.106272 0.307060 0.740706
0.106938 0.307726 0.789083
0.107603 0.308391 0.837305
0.108265 0.309053 0.885384
0.104156 0.354904 0.092258
0.104904 0.355651 0.146506
0.105631 0.356378 0.199269
0.106345 0.357093 0.251129
0.107050 0.357798 0.302342
0.107749 0.358497 0.353048
0.108442 0.359190 0.403341
0.109130 0.359878 0.453284
0.109814 0.360561 0.502924
0.110494 0.361242 0.552297
0.111171 0.361918 0.601432
0.111845 0.362592 0.650351
0.112516 0.363264 0.699075
0.113185 0.363932 0.747618
0.113851 0.364599 0.795996
0.114515 0.365263 0.844218
0.115178 0.365925 0.892296
0.111014 0.411321 0.099115
0.111761 0.412068 0.153363
0.112488 0.412795 0.206126
0.113202 0.413510 0.257987
0.113908 0.414215 0.309199
0.114606 0.414914 0.359906
0.115299 0.415606 0.410198
0.115987 0.416294 0.460141
0.116671 0.416978 0.509781
0.117351 0.417658 0.559154
0.118028 0.418335 0.608289
0.118702 0.419009 0.657209
0.119373 0.419680 0.705932
0.120042 0.420349 0.754476
0.120708 0.421016 0.802853
0.121373 0.421680 0.851076
0.122035 0.422342 0.899154
0.117824 0.467351 0.105926
0.118572 0.468099 0.160174
0.119298 0.468826 0.212937
0.120013 0.469540 0.264797
0.120718 0.470245 0.316010
0.121417 0.470944 0.366716
0.122110 0.471637 0.417009
0.122798 0.472325 0.466952
0.123482 0.473009 0.516592
0.124162 0.473689 0.565965
0.124839 0.474366 0.615099
0.125512 0.475040 0.664019
0.126184 0.475711 0.712743
0.126852 0.476380 0.761286
0.127519 0.477046 0.809664
0.128183 0.477710 0.857886
0.128846 0.478373 0.905964
0.124594 0.523047 0.112696
0.125341 0.523794 0.166943
0.126068 0.524521 0.219706
0.126783 0.525235 0.271567
0.127488 0.525941 0.322779
0.128187 0.526639 0.373486
0.128879 0.527332 0.423779
0.129567 0.528020 0.473721
0.130251 0.528704 0.523361
0.130931 0.529384 0.572734
0.131608 0.530061 0.621869
0.132282 0.530735 0.670789
0.132953 0.531406 0.719512
0.133622 0.532075 0.768056
0.134289 0.532741 0.816433
0.134953 0.533406 0.864656
0.135615 0.534068 0.912734
0.131328 0.578447 0.119430
0.132075 0.579194 0.173677
0.132802 0.579921 0.226440
0.133516 0.580635 0.278301
0.134222 0.581341 0.329513
0.134920 0.582039 0.380220
0.135613 0.582732 0.430512
0.136301 0.583420 0.480455
0.136985 0.584104 0.530095
0.137665 0.584784 0.579468
0.138342 0.585461 0.628603
0.139016 0.586135 0.677523
0.139687 0.586806 0.726246
0.140356 0.587475 0.774790
0.141022 0.588141 0.823167
0.141687 0.588806 0.871390
0.142349 0.589468 0.919468
0.138029 0.633582 0.126131
0.138777 0.634329 0.180379
0.139504 0.635056 0.233142
0.140218 0.635771 0.285003
0.140924 0.636476 0.336215
0.141622 0.637175 0.386921
0.142315 0.637867 0.437214
0.143003 0.638555 0.487157
0.143687 0.639239 0.536797
0.144367 0.639919 0.586170
0.145044 0.640596 0.635305
0.145718 0.641270 0.684224
0.146389 0.641941 0.732948
0.147058 0.642610 0.781492
0.147724 0.643277 0.829869
0.148388 0.643941 0.878091
0.149051 0.644603 0.926170
0.144702 0.688478 0.132804
0.145449 0.689226 0.187051
0.146176 0.689952 0.239814
0.146891 0.690667 0.291675
0.147596 0.691372 0.342887
0.148295 0.692071 0.393594
0.148988 0.692764 0.443887
0.149676 0.693452 0.493829
0.150359 0.694136 0.543469
0.151040 0.694816 0.592842
0.151716 0.695493 0.641977
0.152390 0.696167 0.690897
0.153062 0.696838 0.739621
0.153730 0.697506 0.788164
0.154397 0.698173 0.836541
0.155061 0.698837 0.884764
0.155723 0.699500 0.932842
0.151348 0.743157 0.139450
0.152096 0.743904 0.193698
0.152822 0.744631 0.246460
0.153537 0.745345 0.298321
0.154242 0.746051 0.349534
0.154941 0.746749 0.400240
0.155634 0.747442 0.450533
0.156322 0.748130 0.500476
0.157005 0.748814 0.550115
0.157686 0.749494 0.599489
0.158363 0.750171 0.648623
0.159036 0.750845 0.697543
0.159708 0.751516 0.746267
0.160376 0.752185 0.794810
0.161043 0.752851 0.843187
0.161707 0.753516 0.891410
0.162369 0.754178 0.939488
0.157970 0.797635 0.146072
0.158717 0.798382 0.200319
0.159444 0.799109 0.253082
0.160159 0.799823 0.304943
0.160864 0.800529 0.356155
0.161563 0.801227 0.406862
0.162255 0.801920 0.457155
0.162943 0.802608 0.507097
0.163627 0.803292 0.556737
0.164307 0.803972 0.606110
0.164984 0.804649 0.655245
0.165658 0.805323 0.704165
0.166329 0.805994 0.752888
0.166998 0.806663 0.801432
0.167665 0.807329 0.849809
0.168329 0.807994 0.898032
0.168991 0.808656 0.946110
0.164569 0.851927 0.152671
0.165317 0.852675 0.206919
0.166043 0.853402 0.259682
0.166758 0.854116 0.311542
0.167463 0.854822 0.362755
0.168162 0.855520 0.413461
0.168855 0.856213 0.463754
0.169543 0.856901 0.513697
0.170227 0.857585 0.563336
0.170907 0.858265 0.612710
0.171584 0.858942 0.661844
0.172257 0.859616 0.710764
0.172929 0.860287 0.759488
0.173597 0.860956 0.808031
0.174264 0.861622 0.856408
0.174928 0.862286 0.904631
0.175590 0.862949 0.952709
0.171148 0.906048 0.159249
0.171895 0.906795 0.213497
0.172622 0.907522 0.266260
0.173336 0.908237 0.318121
0.174042 0.908942 0.369333
0.174740 0.909641 0.420039
0.175433 0.910333 0.470332
0.176121 0.911021 0.520275
0.176805 0.911705 0.569915
0.177485 0.912385 0.619288
0.178162 0.913062 0.668423
0.178836 0.913736 0.717342
0.179507 0.914407 0.766066
0.180176 0.915076 0.814610
0.180842 0.915743 0.862987
0.181506 0.916407 0.911209
0.182169 0.917069 0.959288
0.177326 0.956881 0.165428
0.178074 0.957628 0.219676
0.178800 0.958355 0.272438
0.179515 0.959069 0.324299
0.180220 0.959775 0.375512
0.180919 0.960473 0.426218
0.181612 0.961166 0.476511
0.182300 0.961854 0.526454
0.182984 0.962538 0.576093
0.183664 0.963218 0.625467
0.184341 0.963895 0.674601
0.185014 0.964569 0.723521
0.185686 0.965240 0.772245
0.186354 0.965909 0.820788
0.187021 0.966575 0.869165
0.187685 0.967240 0.917388
0.188347 0.967902 0.965466
0.123915 0.064891 0.058926
0.124663 0.065639 0.113173
0.125389 0.066366 0.165936
0.126104 0.067080 0.217797
0.126809 0.067786 0.269009
0.127508 0.068484 0.319716
0.128201 0.069177 0.370008
0.128889 0.069865 0.419951
0.129572 0.070549 0.469591
0.130253 0.071229 0.518964
0.130930 0.071906 0.568099
0.131603 0.072580 0.617019
0.132275 0.073251 0.665742
0.132943 0.073920 0.714286
0.133610 0.074586 0.762663
0.134274 0.075250 0.810886
0.134936 0.075913 0.858964
0.131288 0.125551 0.066299
0.132036 0.126299 0.120546
0.132763 0.127026 0.173309
0.133477 0.127740 0.225170
0.134182 0.128446 0.276382
0.134881 0.129144 0.327089
0.135574 0.129837 0.377382
0.136262 0.130525 0.427324
0.136946 0.131209 0.476964
0.137626 0.131889 0.526337
0.138303 0.132566 0.575472
0.138977 0.133240 0.624392
0.139648 0.133911 0.673115
0.140317 0.134580 0.721659
0.140983 0.135246 0.770036
0.141647 0.135910 0.818259
0.142310 0.136573 0.866337
0.138472 0.184656 0.073483
0.139220 0.185403 0.127730
0.139947 0.186130 0.180493
0.140661 0.186844 0.232354
0.141367 0.187550 0.283566
0.142065 0.188248 0.334273
0.142758 0.188941 0.384566
0.143446 0.189629 0.434508
0.144130 0.190313 0.484148
0.144810 0.190993 0.533521
0.145487 0.191670 0.582656
0.146161 0.192344 0.631576
0.146832 0.193015 0.680300
0.147501 0.193684 0.728843
0.148167 0.194350 0.777220
0.148831 0.195015 0.825443
0.149494 0.195677 0.873521
0.145538 0.242789 0.080549
0.146286 0.243536 0.134796
0.147013 0.244263 0.187559
0.147727 0.244977 0.239420
0.148433 0.245683 0.290632
0.149131 0.246381 0.341339
0.149824 0.247074 0.391632
0.150512 0.247762 0.441574
0.151196 0.248446 0.491214
0.151876 0.249126 0.540587
0.152553 0.249803 0.589722
0.153227 0.250477 0.638642
0.153898 0.251148 0.687366
0.154567 0.251817 0.735909
0.155233 0.252483 0.784286
0.155897 0.253148 0.832509
0.156560 0.253810 0.880587
0.152519 0.300215 0.087529
0.153266 0.300963 0.141777
0.153993 0.301690 0.194540
0.154707 0.302404 0.246400
0.155413 0.303110 0.297613
0.156111 0.303808 0.348319
0.156804 0.304501 0.398612
0.157492 0.305189 0.448555
0.158176 0.305873 0.498195
0.158856 0.306553 0.547568
0.159533 0.307230 0.596702
0.160207 0.307904 0.645622
0.160878 0.308575 0.694346
0.161547 0.309244 0.742889
0.162213 0.309910 0.791267
0.162878 0.310574 0.839489
0.163540 0.311237 0.887567
0.159431 0.357088 0.094442
0.160179 0.357835 0.148689
0.160906 0.358562 0.201452
0.161620 0.359276 0.253313
0.162326 0.359982 0.304525
0.163024 0.360680 0.355232
0.163717 0.361373 0.405525
0.164405 0.362061 0.455467
0.165089 0.362745 0.505107
0.165769 0.363425 0.554480
0.166446 0.364102 0.603615
0.167120 0.364776 0.652535
0.167791 0.365447 0.701259
0.168460 0.366116 0.749802
0.169126 0.366782 0.798179
0.169790 0.367447 0.846402
0.170453 0.368109 0.894480
0.166289 0.413505 0.101299
0.167036 0.414252 0.155547
0.167763 0.414979 0.208310
0.168477 0.415693 0.260171
0.169183 0.416399 0.311383
0.169882 0.417097 0.362089
0.170574 0.417790 0.412382
0.171262 0.418478 0.462325
0.171946 0.419162 0.511965
0.172626 0.419842 0.561338
0.173303 0.420519 0.610473
0.173977 0.421193 0.659392
0.174648 0.421864 0.708116
0.175317 0.422533 0.756660
0.175984 0.423199 0.805037
0.176648 0.423864 0.853259
0.177310 0.424526 0.901338
0.173099 0.469535 0.108110
0.173847 0.470282 0.162357
0.174574 0.471009 0.215120
0.175288 0.471724 0.266981
0.175993 0.472429 0.318193
0.176692 0.473128 0.368900
0.177385 0.473821 0.419193
0.178073 0.474509 0.469135
0.178757 0.475192 0.518775
0.179437 0.475873 0.568148
0.180114 0.476549 0.617283
0.180788 0.477223 0.666203
0.181459 0.477895 0.714926
0.182128 0.478563 0.763470
0.182794 0.479230 0.811847
0.183458 0.479894 0.860070
0.184121 0.480556 0.908148
0.179869 0.525231 0.114879
0.180616 0.525978 0.169127
0.181343 0.526705 0.221890
0.182058 0.527419 0.273751
0.182763 0.528125 0.324963
0.183462 0.528823 0.375670
0.184155 0.529516 0.425962
0.184843 0.530204 0.475905
0.185526 0.530888 0.525545
0.186207 0.531568 0.574918
0.186883 0.532245 0.624053
0.187557 0.532919 0.672973
0.188229 0.533590 0.721696
0.188897 0.534259 0.770240
0.189564 0.534925 0.818617
0.190228 0.535589 0.866840
0.190890 0.536252 0.914918
0.186603 0.580630 0.121613
0.187350 0.581378 0.175861
0.188077 0.582104 0.228624
0.188791 0.582819 0.280485
0.189497 0.583524 0.331697
0.190196 0.584223 0.382403
0.190888 0.584916 0.432696
0.191576 0.585604 0.482639
0.192260 0.586288 0.532279
0.192940 0.586968 0.581652
0.193617 0.587645 0.630787
0.194291 0.588319 0.679706
0.194962 0.588990 0.728430
0.195631 0.589658 0.776974
0.196298 0.590325 0.825351
0.196962 0.590989 0.873573
0.197624 0.591652 0.921652
0.193305 0.635766 0.128315
0.194052 0.636513 0.182562
0.194779 0.637240 0.235325
0.195493 0.637954 0.287186
0.196199 0.638660 0.338399
0.196897 0.639358 0.389105
0.197590 0.640051 0.439398
0.198278 0.640739 0.489341
0.198962 0.641423 0.538980
0.199642 0.642103 0.588354
0.200319 0.642780 0.637488
0.200993 0.643454 0.686408
0.201664 0.644125 0.735132
0.202333 0.644794 0.783675
0.202999 0.645460 0.832052
0.203663 0.646125 0.880275
0.204326 0.646787 0.928353
0.199977 0.690662 0.134987
0.200724 0.691409 0.189235
0.201451 0.692136 0.241998
0.202166 0.692851 0.293859
0.202871 0.693556 0.345071
0.203570 0.694255 0.395778
0.204263 0.694947 0.446070
0.204951 0.695635 0.496013
0.205634 0.696319 0.545653
0.206315 0.696999 0.595026
0.206992 0.697676 0.644161
0.207665 0.698350 0.693081
0.208337 0.699021 0.741804
0.209005 0.699690 0.790348
0.209672 0.700357 0.838725
0.210336 0.701021 0.886948
0.210998 0.701683 0.935026
0.206623 0.745340 0.141634
0.207371 0.746088 0.195881
0.208097 0.746815 0.248644
0.208812 0.747529 0.300505
0.209517 0.748234 0.351717
0.210216 0.748933 0.402424
0.210909 0.749626 0.452717
0.211597 0.750314 0.502659
0.212281 0.750998 0.552299
0.212961 0.751678 0.601672
0.213638 0.752355 0.650807
0.214312 0.753029 0.699727
0.214983 0.753700 0.748450
0.215651 0.754369 0.796994
0.216318 0.755035 0.845371
0.216982 0.755699 0.893594
0.217645 0.756362 0.941672
0.213245 0.799818 0.148255
0.213992 0.800566 0.202503
0.214719 0.801293 0.255266
0.215434 0.802007 0.307127
0.216139 0.802712 0.358339
0.216838 0.803411 0.409046
0.217531 0.804104 0.459338
0.218219 0.804792 0.509281
0.218902 0.805476 0.558921
0.219583 0.806156 0.608294
0.220259 0.806833 0.657429
0.220933 0.807507 0.706349
0.221605 0.808178 0.755072
0.222273 0.808847 0.803616
0.222940 0.809513 0.851993
0.223604 0.810177 0.900216
0.224266 0.810840 0.948294
0.219844 0.854111 0.154855
0.220592 0.854858 0.209102
0.221318 0.855585 0.261865
0.222033 0.856300 0.313726
0.222738 0.857005 0.364938
0.223437 0.857704 0.415645
0.224130 0.858397 0.465938
0.224818 0.859085 0.515880
0.225502 0.859768 0.565520
0.226182 0.860449 0.614893
0.226859 0.861126 0.664028
0.227533 0.861799 0.712948
0.228204 0.862471 0.761671
0.228872 0.863139 0.810215
0.229539 0.863806 0.858592
0.230203 0.864470 0.906815
0.230866 0.865132 0.954893
0.226423 0.908232 0.161433
0.227170 0.908979 0.215681
0.227897 0.909706 0.268444
0.228611 0.910420 0.320304
0.229317 0.911126 0.371517
0.230015 0.911824 0.422223
0.230708 0.912517 0.472516
0.231396 0.913205 0.522459
0.232080 0.913889 0.572098
0.232760 0.914569 0.621472
0.233437 0.915246 0.670606
0.234111 0.915920 0.719526
0.234782 0.916591 0.768250
0.235451 0.917260 0.816793
0.236117 0.917926 0.865171
0.236782 0.918591 0.913393
0.237444 0.919253 0.961471
0.232601 0.959064 0.167612
0.233349 0.959812 0.221859
0.234075 0.960539 0.274622
0.234790 0.961253 0.326483
0.235495 0.961959 0.377695
0.236194 0.962657 0.428402
0.236887 0.963350 0.478695
0.237575 0.964038 0.528637
0.238259 0.964722 0.578277
0.238939 0.965402 0.627650
0.239616 0.966079 0.676785
0.240290 0.966753 0.725705
0.240961 0.967424 0.774428
0.241629 0.968093 0.822972
0.242296 0.968759 0.871349
0.242960 0.969423 0.919572
0.243623 0.970086 0.967650
0.177856 0.067022 0.061057
0.178603 0.067770 0.115304
0.179330 0.068497 0.168067
0.180045 0.069211 0.219928
0.180750 0.069917 0.271140
0.181449 0.070615 0.321847
0.182142 0.071308 0.372139
0.182830 0.071996 0.422082
0.183513 0.072680 0.471722
0.184194 0.073360 0.521095
0.184870 0.074037 0.570230
0.185544 0.074711 0.619150
0.186216 0.075382 0.667873
0.186884 0.076051 0.716417
0.187551 0.076717 0.764794
0.188215 0.077381 0.813017
0.188877 0.078044 0.861095
0.185229 0.127682 0.068430
0.185977 0.128430 0.122677
0.186703 0.129157 0.175440
0.187418 0.129871 0.227301
0.188123 0.130577 0.278513
0.188822 0.131275 0.329220
0.189515 0.131968 0.379513
0.190203 0.132656 0.429455
0.190887 0.133340 0.479095
0.191567 0.134020 0.528468
0.192244 0.134697 0.577603
0.192918 0.135371 0.626523
0.193589 0.136042 0.675246
0.194257 0.136711 0.723790
0.194924 0.137377 0.772167
0.195588 0.138041 0.820390
0.196251 0.138704 0.868468
0.192413 0.186787 0.075614
0.193161 0.187534 0.129861
0.193888 0.188261 0.182624
0.194602 0.188975 0.234485
0.195307 0.189681 0.285697
0.196006 0.190379 0.336404
0.196699 0.191072 0.386697
0.197387 0.191760 0.436639
0.198071 0.192444 0.486279
0.198751 0.193124 0.535652
0.199428 0.193801 0.584787
0.200102 0.194475 0.633707
0.200773 0.195146 0.682431
0.201442 0.195815 0.730974
0.202108 0.196481 0.779351
0.202772 0.197146 0.827574
0.203435 0.197808 0.875652
0.199479 0.244920 0.082680
0.200227 0.245667 0.136927
0.200954 0.246394 0.189690
0.201668 0.247108 0.241551
0.202373 0.247814 0.292763
0.203072 0.248512 0.343470
0.203765 0.249205 0.393763
0.204453 0.249893 0.443705
0.205137 0.250577 0.493345
0.205817 0.251257 0.542718
0.206494 0.251934 0.591853
0.207168 0.252608 0.640773
0.207839 0.253279 0.689497
0.208508 0.253948 0.738040
0.209174 0.254614 0.786417
0.209838 0.255279 0.834640
0.210501 0.255941 0.882718
0.206460 0.302346 0.089660
0.207207 0.303094 0.143908
0.207934 0.303821 0.196671
0.208648 0.304535 0.248531
0.209354 0.305241 0.299744
0.210052 0.305939 0.350450
0.210745 0.306632 0.400743
0.211433 0.307320 0.450686
0.212117 0.308004 0.500326
0.212797 0.308684 0.549699
0.213474 0.309361 0.598833
0.214148 0.310035 0.647753
0.214819 0.310706 0.696477
0.215488 0.311375 0.745020
0.216154 0.312041 0.793398
0.216819 0.312705 0.841620
0.217481 0.313368 0.889698
0.213372 0.359219 0.096573
0.214120 0.359966 0.150820
0.214847 0.360693 0.203583
0.215561 0.361407 0.255444
0.216266 0.362113 0.306656
0.216965 0.362811 0.357363
0.217658 0.363504 0.407656
0.218346 0.364192 0.457598
0.219030 0.364876 0.507238
0.219710 0.365556 0.556611
0.220387 0.366233 0.605746
0.221061 0.366907 0.654666
0.221732 0.367578 0.703390
0.222401 0.368247 0.751933
0.223067 0.368913 0.800310
0.223731 0.369578 0.848533
0.224394 0.370240 0.896611
0.220230 0.415636 0.103430
0.220977 0.416383 0.157678
0.221704 0.417110 0.210441
0.222418 0.417824 0.262302
0.223124 0.418530 0.313514
0.223822 0.419228 0.364220
0.224515 0.419921 0.414513
0.225203 0.420609 0.464456
0.225887 0.421293 0.514096
0.226567 0.421973 0.563469
0.227244 0.422650 0.612604
0.227918 0.423324 0.661523
0.228589 0.423995 0.710247
0.229258 0.424664 0.758791
0.229924 0.425330 0.807168
0.230589 0.425995 0.855390
0.231251 0.426657 0.903469
0.227040 0.471666 0.110241
0.227788 0.472413 0.164488
0.228514 0.473140 0.217251
0.229229 0.473855 0.269112
0.229934 0.474560 0.320324
0.230633 0.475259 0.371031
0.231326 0.475952 0.421324
0.232014 0.476640 0.471266
0.232698 0.477323 0.520906
0.233378 0.478004 0.570279
0.234055 0.478680 0.619414
0.234728 0.479354 0.668334
0.235400 0.480026 0.717057
0.236068 0.480694 0.765601
0.236735 0.481361 0.813978
0.237399 0.482025 0.862201
0.238062 0.482687 0.910279
0.233810 0.527362 0.117010
0.234557 0.528109 0.171258
0.235284 0.528836 0.224021
0.235999 0.529550 0.275882
0.236704 0.530256 0.327094
0.237403 0.530954 0.377801
0.238095 0.531647 0.428093
0.238783 0.532335 0.478036
0.239467 0.533019 0.527676
0.240147 0.533699 0.577049
0.240824 0.534376 0.626184
0.241498 0.535050 0.675104
0.242169 0.535721 0.723827
0.242838 0.536390 0.772371
0.243505 0.537056 0.820748
0.244169 0.537720 0.868971
0.244831 0.538383 0.917049
0.240544 0.582761 0.123744
0.241291 0.583509 0.177992
0.242018 0.584235 0.230755
0.242732 0.584950 0.282616
0.243438 0.585655 0.333828
0.244136 0.586354 0.384534
0.244829 0.587047 0.434827
0.245517 0.587735 0.484770
0.246201 0.588419 0.534410
0.246881 0.589099 0.583783
0.247558 0.589776 0.632918
0.248232 0.590450 0.681837
0.248903 0.591121 0.730561
0.249572 0.591789 0.779105
0.250238 0.592456 0.827482
0.250903 0.593120 0.875704
0.251565 0.593783 0.923783
0.247245 0.637897 0.130446
0.247993 0.638644 0.184693
0.248720 0.639371 0.237456
0.249434 0.640085 0.289317
0.250140 0.640791 0.340530
0.250838 0.641489 0.391236
0.251531 0.642182 0.441529
0.252219 0.642870 0.491472
0.252903 0.643554 0.541111
0.253583 0.644234 0.590485
0.254260 0.644911 0.639619
0.254934 0.645585 0.688539
0.255605 0.646256 0.737263
0.256274 0.646925 0.785806
0.256940 0.647591 0.834183
0.257604 0.648256 0.882406
0.258267 0.648918 0.930484
0.253918 0.692793 0.137118
0.254665 0.693540 0.191366
0.255392 0.694267 0.244129
0.256107 0.694982 0.295990
0.256812 0.695687 0.347202
0.257511 0.696386 0.397909
0.258204 0.697078 0.448201
0.258892 0.697766 0.498144
0.259575 0.698450 0.547784
0.260256 0.699130 0.597157
0.260932 0.699807 0.646292
0.261606 0.700481 0.695212
0.262278 0.701152 0.743935
0.262946 0.701821 0.792479
0.263613 0.702488 0.840856
0.264277 0.703152 0.889079
0.264939 0.703814 0.937157
0.260564 0.747471 0.143765
0.261312 0.748219 0.198012
0.262038 0.748946 0.250775
0.262753 0.749660 0.302636
0.263458 0.750365 0.353848
0.264157 0.751064 0.404555
0.264850 0.751757 0.454848
0.265538 0.752445 0.504790
0.266221 0.753129 0.554430
0.266902 0.753809 0.603803
0.267579 0.754486 0.652938
0.268252 0.755160 0.701858
0.268924 0.755831 0.750581
0.269592 0.756500 0.799125
0.270259 0.757166 0.847502
0.270923 0.757830 0.895725
0.271585 0.758493 0.943803
0.267186 0.801949 0.150386
0.267933 0.802697 0.204634
0.268660 0.803424 0.257397
0.269375 0.804138 0.309258
0.270080 0.804843 0.360470
0.270779 0.805542 0.411177
0.271471 0.806235 0.461469
0.272159 0.806923 0.511412
0.272843 0.807607 0.561052
0.273523 0.808287 0.610425
0.274200 0.808964 0.659560
0.274874 0.809638 0.708480
0.275545 0.810309 0.757203
0.276214 0.810978 0.805747
0.276881 0.811644 0.854124
0.277545 0.812308 0.902347
0.278207 0.812971 0.950425
0.273785 0.856242 0.156986
0.274533 0.856989 0.211233
0.275259 0.857716 0.263996
0.275974 0.858431 0.315857
0.276679 0.859136 0.367069
0.277378 0.859835 0.417776
0.278071 0.860528 0.468069
0.278759 0.861216 0.518011
0.279443 0.861899 0.567651
0.280123 0.862580 0.617024
0.280800 0.863257 0.666159
0.281473 0.863930 0.715079
0.282145 0.864602 0.763802
0.282813 0.865270 0.812346
0.283480 0.865937 0.860723
0.284144 0.866601 0.908946
0.284806 0.867263 0.957024
0.280364 0.910363 0.163564
0.281111 0.911110 0.217812
0.281838 0.911837 0.270575
0.282552 0.912551 0.322435
0.283258 0.913257 0.373648
0.283956 0.913955 0.424354
0.284649 0.914648 0.474647
0.285337 0.915336 0.524590
0.286021 0.916020 0.574229
0.286701 0.916700 0.623603
0.287378 0.917377 0.672737
0.288052 0.918051 0.721657
0.288723 0.918722 0.770381
0.289392 0.919391 0.818924
0.290058 0.920057 0.867302
0.290722 0.920722 0.915524
0.291385 0.921384 0.963602
0.286542 0.961195 0.169743
0.287290 0.961943 0.223990
0.288016 0.962670 0.276753
0.288731 0.963384 0.328614
0.289436 0.964090 0.379826
0.290135 0.964788 0.430533
0.290828 0.965481 0.480826
0.291516 0.966169 0.530768
0.292200 0.966853 0.580408
0.292880 0.967533 0.629781
0.293557 0.968210 0.678916
0.294230 0.968884 0.727836
0.294902 0.969555 0.776559
0.295570 0.970224 0.825103
0.296237 0.970890 0.873480
0.296901 0.971554 0.921703
0.297563 0.972217 0.969781
0.230944 0.069120 0.063154
0.231691 0.069867 0.117401
0.232418 0.070594 0.170164
0.233132 0.071308 0.222025
0.233838 0.072014 0.273237
0.234536 0.072712 0.323944
0.235229 0.073405 0.374237
0.235917 0.074093 0.424179
0.236601 0.074777 0.473819
0.237281 0.075457 0.523192
0.237958 0.076134 0.572327
0.238632 0.076808 0.621247
0.239303 0.077479 0.669971
0.239972 0.078148 0.718514
0.240638 0.078814 0.766891
0.241303 0.079479 0.815114
0.241965 0.080141 0.863192
0.238317 0.129780 0.070527
