skills/creativeops-producer-ios/assets/grade/luts/vintage_fade_v19.cube
TITLE "vintage_fade_v19"
LUT_3D_SIZE 9
DOMAIN_MIN 0.0 0.0 0.0
DOMAIN_MAX 1.0 1.0 1.0
0.170095 0.170095 0.170095
0.172249 0.172249 0.245872
0.174348 0.174348 0.319703
0.176416 0.176416 0.392418
0.178461 0.178461 0.464350
0.180489 0.180489 0.535678
0.182503 0.182503 0.606515
0.184505 0.184505 0.676940
0.186498 0.186498 0.747007
0.191437 0.265061 0.191437
0.193592 0.267215 0.267215
0.195691 0.269314 0.341045
0.197758 0.271382 0.413761
0.199804 0.273427 0.485693
0.201832 0.275455 0.557021
0.203846 0.277469 0.627858
0.205848 0.279471 0.698282
0.207840 0.281464 0.768350
0.212231 0.357585 0.212231
0.214386 0.359740 0.288009
0.216485 0.361839 0.361839
0.218552 0.363907 0.434555
0.220598 0.365952 0.506487
0.222626 0.367980 0.577815
0.224640 0.369994 0.648652
0.226642 0.371996 0.719076
0.228634 0.373988 0.789144
0.232711 0.448714 0.232711
0.234866 0.450868 0.308489
0.236965 0.452967 0.382319
0.239032 0.455035 0.455035
0.241078 0.457080 0.526967
0.243106 0.459108 0.598295
0.245120 0.461122 0.669132
0.247122 0.463124 0.739556
0.249114 0.465117 0.809624
0.252971 0.538860 0.252971
0.255125 0.541014 0.328749
0.257224 0.543114 0.402579
0.259292 0.545181 0.475294
0.261337 0.547226 0.547226
0.263365 0.549254 0.618554
0.265379 0.551268 0.689392
0.267381 0.553271 0.759816
0.269374 0.555263 0.829883
0.273060 0.628249 0.273060
0.275214 0.630404 0.348838
0.277314 0.632503 0.422668
0.279381 0.634570 0.495384
0.281426 0.636616 0.567316
0.283454 0.638644 0.638644
0.285468 0.640658 0.709481
0.287471 0.642660 0.779905
0.289463 0.644652 0.849973
0.293011 0.717023 0.293011
0.295166 0.719178 0.368789
0.297265 0.721277 0.442619
0.299332 0.723345 0.515335
0.301377 0.725390 0.587267
0.303405 0.727418 0.658595
0.305419 0.729432 0.729432
0.307422 0.731434 0.799856
0.309414 0.733426 0.869924
0.312846 0.805280 0.312846
0.315000 0.807434 0.388624
0.317099 0.809534 0.462454
0.319167 0.811601 0.535169
0.321212 0.813646 0.607101
0.323240 0.815674 0.678429
0.325254 0.817688 0.749267
0.327257 0.819691 0.819691
0.329249 0.821683 0.889758
0.332580 0.893090 0.332580
0.334735 0.895244 0.408358
0.336834 0.897343 0.482188
0.338901 0.899411 0.554904
0.340946 0.901456 0.626836
0.342974 0.903484 0.698164
0.344988 0.905498 0.769001
0.346991 0.907500 0.839425
0.348983 0.909493 0.909493
0.250062 0.176439 0.176439
0.252217 0.178593 0.252217
0.254316 0.180693 0.326047
0.256383 0.182760 0.398762
0.258429 0.184805 0.470694
0.260457 0.186833 0.542023
0.262471 0.188847 0.612860
0.264473 0.190850 0.683284
0.266465 0.192842 0.753351
0.271405 0.271405 0.197781
0.273559 0.273559 0.273559
0.275659 0.275659 0.347389
0.277726 0.277726 0.420105
0.279771 0.279771 0.492037
0.281799 0.281799 0.563365
0.283813 0.283813 0.634202
0.285816 0.285816 0.704626
0.287808 0.287808 0.774694
0.292199 0.363930 0.218575
0.294353 0.366084 0.294353
0.296453 0.368183 0.368183
0.298520 0.370251 0.440899
0.300565 0.372296 0.512831
0.302593 0.374324 0.584159
0.304607 0.376338 0.654996
0.306610 0.378340 0.725420
0.308602 0.380333 0.795488
0.312679 0.455058 0.239055
0.314833 0.457212 0.314833
0.316933 0.459312 0.388663
0.319000 0.461379 0.461379
0.321045 0.463424 0.533311
0.323073 0.465452 0.604639
0.325087 0.467466 0.675476
0.327090 0.469469 0.745901
0.329082 0.471461 0.815968
0.332938 0.545204 0.259315
0.335093 0.547359 0.335093
0.337192 0.549458 0.408923
0.339260 0.551525 0.481639
0.341305 0.553571 0.553571
0.343333 0.555599 0.624899
0.345347 0.557613 0.695736
0.347349 0.559615 0.766160
0.349341 0.561607 0.836228
0.353028 0.634594 0.279404
0.355182 0.636748 0.355182
0.357281 0.638847 0.429012
0.359349 0.640915 0.501728
0.361394 0.642960 0.573660
0.363422 0.644988 0.644988
0.365436 0.647002 0.715825
0.367438 0.649004 0.786249
0.369431 0.650997 0.856317
0.372979 0.723368 0.299355
0.375133 0.725522 0.375133
0.377232 0.727621 0.448963
0.379300 0.729689 0.521679
0.381345 0.731734 0.593611
0.383373 0.733762 0.664939
0.385387 0.735776 0.735776
0.387390 0.737779 0.806200
0.389382 0.739771 0.876268
0.392813 0.811624 0.319190
0.394968 0.813779 0.394968
0.397067 0.815878 0.468798
0.399135 0.817945 0.541514
0.401180 0.819991 0.613446
0.403208 0.822019 0.684774
0.405222 0.824033 0.755611
0.407224 0.826035 0.826035
0.409216 0.828027 0.896103
0.412548 0.899434 0.338924
0.414702 0.901588 0.414702
0.416801 0.903688 0.488532
0.418869 0.905755 0.561248
0.420914 0.907800 0.633180
0.422942 0.909828 0.704508
0.424956 0.911842 0.775345
0.426959 0.913845 0.845769
0.428951 0.915837 0.915837
0.327974 0.182620 0.182620
0.330129 0.184775 0.258398
0.332228 0.186874 0.332228
0.334295 0.188941 0.404944
0.336341 0.190986 0.476876
0.338369 0.193014 0.548204
0.340383 0.195029 0.619041
0.342385 0.197031 0.689465
0.344377 0.199023 0.759533
0.349317 0.277586 0.203963
0.351471 0.279741 0.279741
0.353571 0.281840 0.353571
0.355638 0.283907 0.426286
0.357683 0.285952 0.498218
0.359711 0.287980 0.569546
0.361725 0.289995 0.640384
0.363728 0.291997 0.710808
0.365720 0.293989 0.780875
0.370111 0.370111 0.224757
0.372265 0.372265 0.300535
0.374365 0.374365 0.374365
0.376432 0.376432 0.447080
0.378477 0.378477 0.519012
0.380505 0.380505 0.590340
0.382519 0.382519 0.661178
0.384522 0.384522 0.731602
0.386514 0.386514 0.801669
0.390591 0.461239 0.245237
0.392745 0.463394 0.321015
0.394845 0.465493 0.394845
0.396912 0.467560 0.467560
0.398957 0.469606 0.539492
0.400985 0.471634 0.610820
0.402999 0.473648 0.681658
0.405002 0.475650 0.752082
0.406994 0.477642 0.822149
0.410850 0.551385 0.265496
0.413005 0.553540 0.341274
0.415104 0.555639 0.415104
0.417172 0.557707 0.487820
0.419217 0.559752 0.559752
0.421245 0.561780 0.631080
0.423259 0.563794 0.701917
0.425261 0.565796 0.772341
0.427253 0.567788 0.842409
0.430940 0.640775 0.285585
0.433094 0.642929 0.361363
0.435193 0.645028 0.435193
0.437261 0.647096 0.507909
0.439306 0.649141 0.579841
0.441334 0.651169 0.651169
0.443348 0.653183 0.722006
0.445350 0.655186 0.792430
0.447343 0.657178 0.862498
0.450891 0.729549 0.305536
0.453045 0.731703 0.381314
0.455144 0.733803 0.455144
0.457212 0.735870 0.527860
0.459257 0.737915 0.599792
0.461285 0.739943 0.671120
0.463299 0.741957 0.741957
0.465302 0.743960 0.812381
0.467294 0.745952 0.882449
0.470725 0.817805 0.325371
0.472880 0.819960 0.401149
0.474979 0.822059 0.474979
0.477047 0.824127 0.547695
0.479092 0.826172 0.619627
0.481120 0.828200 0.690955
0.483134 0.830214 0.761792
0.485136 0.832216 0.832216
0.487128 0.834208 0.902284
0.490460 0.905615 0.345105
0.492614 0.907770 0.420883
0.494713 0.909869 0.494713
0.496781 0.911936 0.567429
0.498826 0.913981 0.639361
0.500854 0.916009 0.710689
0.502868 0.918024 0.781526
0.504871 0.920026 0.851950
0.506863 0.922018 0.922018
0.404710 0.188708 0.188708
0.406865 0.190862 0.264486
0.408964 0.192962 0.338316
0.411032 0.195029 0.411032
0.413077 0.197074 0.482964
0.415105 0.199102 0.554292
0.417119 0.201116 0.625129
0.419121 0.203119 0.695553
0.421113 0.205111 0.765621
0.426053 0.283674 0.210051
0.428207 0.285828 0.285828
0.430307 0.287928 0.359658
0.432374 0.289995 0.432374
0.434419 0.292040 0.504306
0.436447 0.294068 0.575634
0.438461 0.296082 0.646471
0.440464 0.298085 0.716896
0.442456 0.300077 0.786963
0.446847 0.376199 0.230844
0.449001 0.378353 0.306622
0.451101 0.380452 0.380452
0.453168 0.382520 0.453168
0.455213 0.384565 0.525100
0.457241 0.386593 0.596428
0.459255 0.388607 0.667265
0.461258 0.390610 0.737690
0.463250 0.392602 0.807757
0.467327 0.467327 0.251325
0.469482 0.469482 0.327103
0.471581 0.471581 0.400933
0.473648 0.473648 0.473648
0.475693 0.475693 0.545580
0.477721 0.477721 0.616908
0.479736 0.479736 0.687746
0.481738 0.481738 0.758170
0.483730 0.483730 0.828237
0.487586 0.557473 0.271584
0.489741 0.559628 0.347362
0.491840 0.561727 0.421192
0.493908 0.563794 0.493908
0.495953 0.565840 0.565840
0.497981 0.567868 0.637168
0.499995 0.569882 0.708005
0.501997 0.571884 0.778429
0.503989 0.573876 0.848497
0.507676 0.646863 0.291673
0.509830 0.649017 0.367451
0.511929 0.651116 0.441281
0.513997 0.653184 0.513997
0.516042 0.655229 0.585929
0.518070 0.657257 0.657257
0.520084 0.659271 0.728094
0.522087 0.661273 0.798518
0.524079 0.663266 0.868586
0.527627 0.735637 0.311624
0.529781 0.737791 0.387402
0.531881 0.739891 0.461232
0.533948 0.741958 0.533948
0.535993 0.744003 0.605880
0.538021 0.746031 0.677208
0.540035 0.748045 0.748045
0.542038 0.750048 0.818469
0.544030 0.752040 0.888537
0.547461 0.823893 0.331459
0.549616 0.826048 0.407237
0.551715 0.828147 0.481067
0.553783 0.830214 0.553783
0.555828 0.832260 0.625715
0.557856 0.834288 0.697043
0.559870 0.836302 0.767880
0.561872 0.838304 0.838304
0.563865 0.840296 0.908372
0.567196 0.911703 0.351193
0.569350 0.913858 0.426971
0.571449 0.915957 0.500801
0.573517 0.918024 0.573517
0.575562 0.920069 0.645449
0.577590 0.922097 0.716777
0.579604 0.924111 0.787614
0.581607 0.926114 0.858038
0.583599 0.928106 0.928106
0.480619 0.194730 0.194730
0.482774 0.196885 0.270508
0.484873 0.198984 0.344338
0.486941 0.201051 0.417054
0.488986 0.203097 0.488986
0.491014 0.205125 0.560314
0.493028 0.207139 0.631151
0.495030 0.209141 0.701575
0.497023 0.211133 0.771643
0.501962 0.289696 0.216073
0.504117 0.291851 0.291851
0.506216 0.293950 0.365681
0.508283 0.296017 0.438396
0.510328 0.298063 0.510328
0.512357 0.300091 0.581657
0.514371 0.302105 0.652494
0.516373 0.304107 0.722918
0.518365 0.306099 0.792985
0.522756 0.382221 0.236867
0.524911 0.384376 0.312645
0.527010 0.386475 0.386475
0.529077 0.388542 0.459190
0.531122 0.390587 0.531122
0.533150 0.392615 0.602451
0.535165 0.394630 0.673288
0.537167 0.396632 0.743712
0.539159 0.398624 0.813779
0.543236 0.473349 0.257347
0.545391 0.475504 0.333125
0.547490 0.477603 0.406955
0.549557 0.479671 0.479671
0.551603 0.481716 0.551603
0.553631 0.483744 0.622931
0.555645 0.485758 0.693768
0.557647 0.487760 0.764192
0.559639 0.489752 0.834260
0.563496 0.563496 0.277606
0.565650 0.565650 0.353384
0.567749 0.567749 0.427214
0.569817 0.569817 0.499930
0.571862 0.571862 0.571862
0.573890 0.573890 0.643190
0.575904 0.575904 0.714027
0.577906 0.577906 0.784451
0.579899 0.579899 0.854519
0.583585 0.652885 0.297696
0.585739 0.655039 0.373474
0.587839 0.657139 0.447304
0.589906 0.659206 0.520019
0.591951 0.661251 0.591951
0.593979 0.663279 0.663279
0.595993 0.665293 0.734117
0.597996 0.667296 0.804541
0.599988 0.669288 0.874608
0.603536 0.741659 0.317647
0.605690 0.743814 0.393425
0.607790 0.745913 0.467255
0.609857 0.747980 0.539970
0.611902 0.750026 0.611902
0.613930 0.752054 0.683230
0.615944 0.754068 0.754068
0.617947 0.756070 0.824492
0.619939 0.758062 0.894559
0.623371 0.829916 0.337481
0.625525 0.832070 0.413259
0.627624 0.834169 0.487089
0.629692 0.836237 0.559805
0.631737 0.838282 0.631737
0.633765 0.840310 0.703065
0.635779 0.842324 0.773902
0.637781 0.844326 0.844326
0.639774 0.846319 0.914394
0.643105 0.917725 0.357216
0.645259 0.919880 0.432994
0.647359 0.921979 0.506824
0.649426 0.924046 0.579539
0.651471 0.926092 0.651471
0.653499 0.928120 0.722799
0.655513 0.930134 0.793637
0.657516 0.932136 0.864061
0.659508 0.934128 0.934128
0.555891 0.200702 0.200702
0.558046 0.202857 0.276480
0.560145 0.204956 0.350310
0.562212 0.207023 0.423026
0.564258 0.209068 0.494958
0.566286 0.211096 0.566286
0.568300 0.213110 0.637123
0.570302 0.215113 0.707547
0.572294 0.217105 0.777615
0.577234 0.295668 0.222045
0.579388 0.297823 0.297823
0.581488 0.299922 0.371653
0.583555 0.301989 0.444368
0.585600 0.304034 0.516300
0.587628 0.306062 0.587628
0.589642 0.308076 0.658466
0.591645 0.310079 0.728890
0.593637 0.312071 0.798957
0.598028 0.388193 0.242839
0.600182 0.390347 0.318616
0.602282 0.392447 0.392447
0.604349 0.394514 0.465162
0.606394 0.396559 0.537094
0.608422 0.398587 0.608422
0.610436 0.400601 0.679259
0.612439 0.402604 0.749684
0.614431 0.404596 0.819751
0.618508 0.479321 0.263319
0.620662 0.481476 0.339097
0.622762 0.483575 0.412927
0.624829 0.485642 0.485642
0.626874 0.487687 0.557574
0.628902 0.489715 0.628902
0.630916 0.491730 0.699740
0.632919 0.493732 0.770164
0.634911 0.495724 0.840231
0.638767 0.569467 0.283578
0.640922 0.571622 0.359356
0.643021 0.573721 0.433186
0.645089 0.575788 0.505902
0.647134 0.577834 0.577834
0.649162 0.579862 0.649162
0.651176 0.581876 0.719999
0.653178 0.583878 0.790423
0.655170 0.585870 0.860491
0.658857 0.658857 0.303667
0.661011 0.661011 0.379445
0.663110 0.663110 0.453275
0.665178 0.665178 0.525991
0.667223 0.667223 0.597923
0.669251 0.669251 0.669251
0.671265 0.671265 0.740088
0.673267 0.673267 0.810512
0.675260 0.675260 0.880580
0.678808 0.747631 0.323618
0.680962 0.749785 0.399396
0.683061 0.751885 0.473226
0.685129 0.753952 0.545942
0.687174 0.755997 0.617874
0.689202 0.758025 0.689202
0.691216 0.760039 0.760039
0.693219 0.762042 0.830463
0.695211 0.764034 0.900531
0.698642 0.835887 0.343453
0.700797 0.838042 0.419231
0.702896 0.840141 0.493061
0.704964 0.842208 0.565777
0.707009 0.844254 0.637709
0.709037 0.846282 0.709037
0.711051 0.848296 0.779874
0.713053 0.850298 0.850298
0.715045 0.852290 0.920366
0.718377 0.923697 0.363187
0.720531 0.925852 0.438965
0.722630 0.927951 0.512795
0.724698 0.930018 0.585511
0.726743 0.932063 0.657443
0.728771 0.934091 0.728771
0.730785 0.936106 0.799608
0.732788 0.938108 0.870032
0.734780 0.940100 0.940100
0.630645 0.206633 0.206633
0.632800 0.208787 0.282411
0.634899 0.210886 0.356241
0.636966 0.212954 0.428956
0.639011 0.214999 0.500888
0.641039 0.217027 0.572216
0.643054 0.219041 0.643054
0.645056 0.221043 0.713478
0.647048 0.223036 0.783545
0.651988 0.301599 0.227975
0.654142 0.303753 0.303753
0.656241 0.305852 0.377583
0.658309 0.307920 0.450299
0.660354 0.309965 0.522231
0.662382 0.311993 0.593559
0.664396 0.314007 0.664396
0.666398 0.316009 0.734820
0.668391 0.318002 0.804888
0.672782 0.394123 0.248769
0.674936 0.396278 0.324547
0.677035 0.398377 0.398377
0.679103 0.400445 0.471093
0.681148 0.402490 0.543025
0.683176 0.404518 0.614353
0.685190 0.406532 0.685190
0.687192 0.408534 0.755614
0.689185 0.410526 0.825682
0.693262 0.485252 0.269249
0.695416 0.487406 0.345027
0.697515 0.489505 0.418857
0.699583 0.491573 0.491573
0.701628 0.493618 0.563505
0.703656 0.495646 0.634833
0.705670 0.497660 0.705670
0.707673 0.499663 0.776094
0.709665 0.501655 0.846162
0.713521 0.575398 0.289509
0.715676 0.577552 0.365287
0.717775 0.579652 0.439117
0.719842 0.581719 0.511832
0.721888 0.583764 0.583764
0.723916 0.585792 0.655092
0.725930 0.587806 0.725930
0.727932 0.589809 0.796354
0.729924 0.591801 0.866421
0.733610 0.664787 0.309598
0.735765 0.666942 0.385376
0.737864 0.669041 0.459206
0.739932 0.671109 0.531922
0.741977 0.673154 0.603854
0.744005 0.675182 0.675182
0.746019 0.677196 0.746019
0.748021 0.679198 0.816443
0.750013 0.681190 0.886511
0.753561 0.753561 0.329549
0.755716 0.755716 0.405327
0.757815 0.757815 0.479157
0.759883 0.759883 0.551873
0.761928 0.761928 0.623805
0.763956 0.763956 0.695133
0.765970 0.765970 0.765970
0.767972 0.767972 0.836394
0.769965 0.769965 0.906462
0.773396 0.841818 0.349384
0.775551 0.843972 0.425162
0.777650 0.846072 0.498992
0.779717 0.848139 0.571707
0.781763 0.850184 0.643639
0.783791 0.852212 0.714967
0.785805 0.854226 0.785805
0.787807 0.856229 0.856229
0.789799 0.858221 0.926296
0.793130 0.929628 0.369118
0.795285 0.931782 0.444896
0.797384 0.933881 0.518726
0.799452 0.935949 0.591442
0.801497 0.937994 0.663374
0.803525 0.940022 0.734702
0.805539 0.942036 0.805539
0.807541 0.944038 0.875963
0.809534 0.946031 0.946031
0.704963 0.212529 0.212529
0.707117 0.214683 0.288307
0.709217 0.216782 0.362137
0.711284 0.218850 0.434852
0.713329 0.220895 0.506784
0.715357 0.222923 0.578112
0.717371 0.224937 0.648950
0.719374 0.226940 0.719374
0.721366 0.228932 0.789441
0.726305 0.307495 0.233871
0.728460 0.309649 0.309649
0.730559 0.311748 0.383479
0.732627 0.313816 0.456195
0.734672 0.315861 0.528127
0.736700 0.317889 0.599455
0.738714 0.319903 0.670292
0.740716 0.321906 0.740716
0.742708 0.323898 0.810784
0.747099 0.400019 0.254665
0.749254 0.402174 0.330443
0.751353 0.404273 0.404273
0.753421 0.406341 0.476989
0.755466 0.408386 0.548921
0.757494 0.410414 0.620249
0.759508 0.412428 0.691086
0.761510 0.414430 0.761510
0.763502 0.416423 0.831578
0.767580 0.491148 0.275145
0.769734 0.493302 0.350923
0.771833 0.495401 0.424753
0.773901 0.497469 0.497469
0.775946 0.499514 0.569401
0.777974 0.501542 0.640729
0.779988 0.503556 0.711566
0.781990 0.505559 0.781990
0.783983 0.507551 0.852058
0.787839 0.581294 0.295405
0.789993 0.583449 0.371183
0.792093 0.585548 0.445013
0.794160 0.587615 0.517728
0.796205 0.589660 0.589660
0.798233 0.591688 0.660988
0.800247 0.593702 0.731826
0.802250 0.595705 0.802250
0.804242 0.597697 0.872317
0.807928 0.670683 0.315494
0.810083 0.672838 0.391272
0.812182 0.674937 0.465102
0.814249 0.677005 0.537818
0.816295 0.679050 0.609750
0.818323 0.681078 0.681078
0.820337 0.683092 0.751915
0.822339 0.685094 0.822339
0.824331 0.687086 0.892407
0.827879 0.759458 0.335445
0.830034 0.761612 0.411223
0.832133 0.763711 0.485053
0.834200 0.765779 0.557769
0.836246 0.767824 0.629701
0.838274 0.769852 0.701029
0.840288 0.771866 0.771866
0.842290 0.773868 0.842290
0.844282 0.775861 0.912358
0.847714 0.847714 0.355280
0.849869 0.849869 0.431058
0.851968 0.851968 0.504888
0.854035 0.854035 0.577603
0.856080 0.856080 0.649535
0.858108 0.858108 0.720864
0.860122 0.860122 0.791701
0.862125 0.862125 0.862125
0.864117 0.864117 0.932192
0.867448 0.935524 0.375014
0.869603 0.937678 0.450792
0.871702 0.939777 0.524622
0.873769 0.941845 0.597338
0.875815 0.943890 0.669270
0.877843 0.945918 0.740598
0.879857 0.947932 0.811435
0.881859 0.949935 0.881859
0.883851 0.951927 0.951927
0.778904 0.218395 0.218395
0.781059 0.220549 0.294173
0.783158 0.222649 0.368003
0.785226 0.224716 0.440718
0.787271 0.226761 0.512651
0.789299 0.228789 0.583979
0.791313 0.230803 0.654816
0.793315 0.232806 0.725240
0.795307 0.234798 0.795307
0.800247 0.313361 0.239737
0.802402 0.315515 0.315515
0.804501 0.317615 0.389345
0.806568 0.319682 0.462061
0.808613 0.321727 0.533993
0.810642 0.323755 0.605321
0.812656 0.325769 0.676158
0.814658 0.327772 0.746582
0.816650 0.329764 0.816650
0.821041 0.405886 0.260531
0.823196 0.408040 0.336309
0.825295 0.410139 0.410139
0.827362 0.412207 0.482855
0.829407 0.414252 0.554787
0.831435 0.416280 0.626115
0.833450 0.418294 0.696952
0.835452 0.420297 0.767376
0.837444 0.422289 0.837444
0.841521 0.497014 0.281012
0.843676 0.499169 0.356790
0.845775 0.501268 0.430620
0.847842 0.503335 0.503335
0.849888 0.505380 0.575267
0.851916 0.507408 0.646595
0.853930 0.509422 0.717432
0.855932 0.511425 0.787857
0.857924 0.513417 0.857924
0.861781 0.587160 0.301271
0.863935 0.589315 0.377049
0.866034 0.591414 0.450879
0.868102 0.593481 0.523595
0.870147 0.595527 0.595527
0.872175 0.597555 0.666855
0.874189 0.599569 0.737692
0.876191 0.601571 0.808116
0.878184 0.603563 0.878184
0.881870 0.676550 0.321360
0.884024 0.678704 0.397138
0.886124 0.680803 0.470968
0.888191 0.682871 0.543684
0.890236 0.684916 0.615616
0.892264 0.686944 0.686944
0.894278 0.688958 0.757781
0.896281 0.690960 0.828205
0.898273 0.692953 0.898273
0.901821 0.765324 0.341311
0.903975 0.767478 0.417089
0.906075 0.769577 0.490919
0.908142 0.771645 0.563635
0.910187 0.773690 0.635567
0.912215 0.775718 0.706895
0.914229 0.777732 0.777732
0.916232 0.779735 0.848156
0.918224 0.781727 0.918224
0.921656 0.853580 0.361146
0.923810 0.855735 0.436924
0.925909 0.857834 0.510754
0.927977 0.859901 0.583470
0.930022 0.861947 0.655402
0.932050 0.863975 0.726730
0.934064 0.865989 0.797567
0.936066 0.867991 0.867991
0.938059 0.869983 0.938059
0.941390 0.941390 0.380880
0.943544 0.943544 0.456658
0.945644 0.945644 0.530488
0.947711 0.947711 0.603204
0.949756 0.949756 0.675136
0.951784 0.951784 0.746464
0.953798 0.953798 0.817301
0.955801 0.955801 0.887725
0.957793 0.957793 0.957793
