skills/creativeops-producer-ios/assets/grade/luts/vintage_fade_v19.cube
TITLE "vintage_fade_v19"
LUT_3D_SIZE 17
DOMAIN_MIN 0.0 0.0 0.0
DOMAIN_MAX 1.0 1.0 1.0
0.170095 0.170095 0.170095
0.171182 0.171182 0.208329
0.172249 0.172249 0.245872
0.173304 0.173304 0.282958
0.174348 0.174348 0.319703
0.175385 0.175385 0.356174
0.176416 0.176416 0.392418
0.177441 0.177441 0.428469
0.178461 0.178461 0.464350
0.179477 0.179477 0.500082
0.180489 0.180489 0.535678
0.181498 0.181498 0.571153
0.182503 0.182503 0.606515
0.183506 0.183506 0.641775
0.184505 0.184505 0.676940
0.185503 0.185503 0.712015
0.186498 0.186498 0.747007
0.180863 0.218011 0.180863
0.181950 0.219098 0.219098
0.183018 0.220165 0.256641
0.184072 0.221220 0.293727
0.185117 0.222264 0.330471
0.186154 0.223301 0.366942
0.187184 0.224332 0.403187
0.188209 0.225357 0.439237
0.189230 0.226377 0.475119
0.190245 0.227393 0.510850
0.191258 0.228405 0.546447
0.192266 0.229414 0.581921
0.193272 0.230419 0.617284
0.194274 0.231422 0.652544
0.195274 0.232421 0.687708
0.196271 0.233419 0.722784
0.197266 0.234414 0.757776
0.191437 0.265061 0.191437
0.192524 0.266148 0.229672
0.193592 0.267215 0.267215
0.194646 0.268270 0.304301
0.195691 0.269314 0.341045
0.196728 0.270351 0.377516
0.197758 0.271382 0.413761
0.198783 0.272407 0.449811
0.199804 0.273427 0.485693
0.200819 0.274443 0.521424
0.201832 0.275455 0.557021
0.202840 0.276464 0.592495
0.203846 0.277469 0.627858
0.204848 0.278472 0.663118
0.205848 0.279471 0.698282
0.206845 0.280469 0.733358
0.207840 0.281464 0.768350
0.201882 0.311537 0.201882
0.202969 0.312624 0.240117
0.204037 0.313692 0.277660
0.205091 0.314746 0.314746
0.206136 0.315791 0.351490
0.207173 0.316828 0.387961
0.208203 0.317858 0.424206
0.209228 0.318883 0.460256
0.210249 0.319904 0.496138
0.211265 0.320920 0.531869
0.212277 0.321932 0.567466
0.213285 0.322940 0.602941
0.214291 0.323946 0.638303
0.215293 0.324948 0.673563
0.216293 0.325948 0.708727
0.217290 0.326945 0.743803
0.218285 0.327940 0.778795
0.212231 0.357585 0.212231
0.213318 0.358672 0.250466
0.214386 0.359740 0.288009
0.215440 0.360794 0.325095
0.216485 0.361839 0.361839
0.217522 0.362876 0.398310
0.218552 0.363907 0.434555
0.219577 0.364932 0.470605
0.220598 0.365952 0.506487
0.221613 0.366968 0.542218
0.222626 0.367980 0.577815
0.223634 0.368988 0.613289
0.224640 0.369994 0.648652
0.225642 0.370996 0.683912
0.226642 0.371996 0.719076
0.227639 0.372993 0.754152
0.228634 0.373988 0.789144
0.222503 0.403292 0.222503
0.223590 0.404379 0.260738
0.224658 0.405446 0.298281
0.225712 0.406501 0.335367
0.226757 0.407545 0.372111
0.227794 0.408582 0.408582
0.228824 0.409613 0.444827
0.229849 0.410638 0.480877
0.230869 0.411658 0.516759
0.231885 0.412674 0.552490
0.232898 0.413686 0.588087
0.233906 0.414695 0.623561
0.234912 0.415700 0.658924
0.235914 0.416703 0.694184
0.236914 0.417702 0.729348
0.237911 0.418700 0.764423
0.238906 0.419695 0.799416
0.232711 0.448714 0.232711
0.233798 0.449801 0.270946
0.234866 0.450868 0.308489
0.235920 0.451923 0.345575
0.236965 0.452967 0.382319
0.238002 0.454004 0.418790
0.239032 0.455035 0.455035
0.240057 0.456060 0.491085
0.241078 0.457080 0.526967
0.242094 0.458096 0.562698
0.243106 0.459108 0.598295
0.244114 0.460117 0.633769
0.245120 0.461122 0.669132
0.246122 0.462125 0.704392
0.247122 0.463124 0.739556
0.248119 0.464122 0.774632
0.249114 0.465117 0.809624
0.242865 0.493893 0.242865
0.243952 0.494980 0.281099
0.245019 0.496047 0.318643
0.246074 0.497102 0.355729
0.247118 0.498146 0.392473
0.248155 0.499183 0.428944
0.249186 0.500214 0.465188
0.250211 0.501239 0.501239
0.251231 0.502259 0.537120
0.252247 0.503275 0.572852
0.253259 0.504287 0.608448
0.254268 0.505296 0.643923
0.255273 0.506301 0.679286
0.256276 0.507304 0.714545
0.257276 0.508304 0.749710
0.258273 0.509301 0.784785
0.259268 0.510296 0.819777
0.252971 0.538860 0.252971
0.254058 0.539947 0.291205
0.255125 0.541014 0.328749
0.256180 0.542069 0.365835
0.257224 0.543114 0.402579
0.258261 0.544151 0.439050
0.259292 0.545181 0.475294
0.260317 0.546206 0.511345
0.261337 0.547226 0.547226
0.262353 0.548242 0.582958
0.263365 0.549254 0.618554
0.264374 0.550263 0.654029
0.265379 0.551268 0.689392
0.266382 0.552271 0.724651
0.267381 0.553271 0.759816
0.268379 0.554268 0.794891
0.269374 0.555263 0.829883
0.263034 0.583639 0.263034
0.264121 0.584726 0.301269
0.265189 0.585794 0.338812
0.266243 0.586848 0.375898
0.267288 0.587893 0.412642
0.268325 0.588930 0.449113
0.269355 0.589960 0.485358
0.270380 0.590985 0.521408
0.271401 0.592005 0.557290
0.272417 0.593021 0.593021
0.273429 0.594033 0.628618
0.274437 0.595042 0.664092
0.275443 0.596047 0.699455
0.276445 0.597050 0.734715
0.277445 0.598050 0.769879
0.278442 0.599047 0.804955
0.279437 0.600042 0.839947
0.273060 0.628249 0.273060
0.274147 0.629336 0.311294
0.275214 0.630404 0.348838
0.276269 0.631458 0.385924
0.277314 0.632503 0.422668
0.278351 0.633540 0.459139
0.279381 0.634570 0.495384
0.280406 0.635595 0.531434
0.281426 0.636616 0.567316
0.282442 0.637632 0.603047
0.283454 0.638644 0.638644
0.284463 0.639652 0.674118
0.285468 0.640658 0.709481
0.286471 0.641660 0.744741
0.287471 0.642660 0.779905
0.288468 0.643657 0.814980
0.289463 0.644652 0.849973
0.283051 0.672706 0.283051
0.284138 0.673793 0.321286
0.285206 0.674861 0.358829
0.286260 0.675915 0.395915
0.287305 0.676960 0.432659
0.288342 0.677997 0.469130
0.289372 0.679028 0.505375
0.290397 0.680053 0.541425
0.291418 0.681073 0.577307
0.292434 0.682089 0.613038
0.293446 0.683101 0.648635
0.294454 0.684109 0.684109
0.295460 0.685115 0.719472
0.296462 0.686117 0.754732
0.297462 0.687117 0.789896
0.298459 0.688114 0.824972
0.299454 0.689109 0.859964
0.293011 0.717023 0.293011
0.294098 0.718111 0.331245
0.295166 0.719178 0.368789
0.296220 0.720232 0.405875
0.297265 0.721277 0.442619
0.298302 0.722314 0.479090
0.299332 0.723345 0.515335
0.300357 0.724370 0.551385
0.301377 0.725390 0.587267
0.302393 0.726406 0.622998
0.303405 0.727418 0.658595
0.304414 0.728426 0.694069
0.305419 0.729432 0.729432
0.306422 0.730434 0.764692
0.307422 0.731434 0.799856
0.308419 0.732432 0.834931
0.309414 0.733426 0.869924
0.302942 0.761211 0.302942
0.304029 0.762299 0.341176
0.305096 0.763366 0.378720
0.306151 0.764420 0.415806
0.307195 0.765465 0.452550
0.308232 0.766502 0.489021
0.309263 0.767533 0.525265
0.310288 0.768558 0.561316
0.311308 0.769578 0.597197
0.312324 0.770594 0.632929
0.313336 0.771606 0.668525
0.314345 0.772614 0.704000
0.315350 0.773620 0.739363
0.316353 0.774622 0.774622
0.317353 0.775622 0.809787
0.318350 0.776620 0.844862
0.319345 0.777614 0.879854
0.312846 0.805280 0.312846
0.313933 0.806367 0.351080
0.315000 0.807434 0.388624
0.316055 0.808489 0.425710
0.317099 0.809534 0.462454
0.318136 0.810571 0.498925
0.319167 0.811601 0.535169
0.320192 0.812626 0.571220
0.321212 0.813646 0.607101
0.322228 0.814662 0.642833
0.323240 0.815674 0.678429
0.324249 0.816683 0.713904
0.325254 0.817688 0.749267
0.326257 0.818691 0.784526
0.327257 0.819691 0.819691
0.328254 0.820688 0.854766
0.329249 0.821683 0.889758
0.322725 0.849237 0.322725
0.323812 0.850324 0.360959
0.324879 0.851391 0.398502
0.325934 0.852446 0.435588
0.326978 0.853491 0.472332
0.328015 0.854528 0.508804
0.329046 0.855558 0.545048
0.330071 0.856583 0.581099
0.331091 0.857603 0.616980
0.332107 0.858619 0.652712
0.333119 0.859631 0.688308
0.334128 0.860640 0.723783
0.335133 0.861645 0.759145
0.336136 0.862648 0.794405
0.337135 0.863648 0.829570
0.338133 0.864645 0.864645
0.339128 0.865640 0.899637
0.332580 0.893090 0.332580
0.333667 0.894177 0.370814
0.334735 0.895244 0.408358
0.335789 0.896299 0.445444
0.336834 0.897343 0.482188
0.337871 0.898380 0.518659
0.338901 0.899411 0.554904
0.339926 0.900436 0.590954
0.340946 0.901456 0.626836
0.341962 0.902472 0.662567
0.342974 0.903484 0.698164
0.343983 0.904493 0.733638
0.344988 0.905498 0.769001
0.345991 0.906501 0.804261
0.346991 0.907500 0.839425
0.347988 0.908498 0.874500
0.348983 0.909493 0.909493
0.210443 0.173296 0.173296
0.211530 0.174383 0.211530
0.212598 0.175450 0.249074
0.213652 0.176505 0.286160
0.214697 0.177549 0.322904
0.215734 0.178586 0.359375
0.216764 0.179617 0.395619
0.217789 0.180642 0.431670
0.218809 0.181662 0.467551
0.219825 0.182678 0.503283
0.220837 0.183690 0.538879
0.221846 0.184699 0.574354
0.222852 0.185704 0.609717
0.223854 0.186707 0.644976
0.224854 0.187706 0.680141
0.225851 0.188704 0.715216
0.226846 0.189699 0.750208
0.221212 0.221212 0.184064
0.222299 0.222299 0.222299
0.223366 0.223366 0.259842
0.224421 0.224421 0.296928
0.225465 0.225465 0.333672
0.226502 0.226502 0.370143
0.227533 0.227533 0.406388
0.228558 0.228558 0.442438
0.229578 0.229578 0.478320
0.230594 0.230594 0.514051
0.231606 0.231606 0.549648
0.232615 0.232615 0.585122
0.233620 0.233620 0.620485
0.234623 0.234623 0.655745
0.235622 0.235622 0.690909
0.236620 0.236620 0.725985
0.237615 0.237615 0.760977
0.231786 0.268262 0.194638
0.232873 0.269349 0.232873
0.233940 0.270416 0.270416
0.234995 0.271471 0.307502
0.236039 0.272515 0.344246
0.237076 0.273552 0.380717
0.238107 0.274583 0.416962
0.239132 0.275608 0.453012
0.240152 0.276628 0.488894
0.241168 0.277644 0.524625
0.242180 0.278656 0.560222
0.243189 0.279665 0.595696
0.244194 0.280670 0.631059
0.245197 0.281673 0.666319
0.246196 0.282672 0.701483
0.247194 0.283670 0.736559
0.248189 0.284665 0.771551
0.242231 0.314738 0.205083
0.243318 0.315825 0.243318
0.244385 0.316893 0.280861
0.245440 0.317947 0.317947
0.246484 0.318992 0.354691
0.247521 0.320029 0.391163
0.248552 0.321060 0.427407
0.249577 0.322085 0.463458
0.250597 0.323105 0.499339
0.251613 0.324121 0.535070
0.252625 0.325133 0.570667
0.253634 0.326141 0.606142
0.254639 0.327147 0.641504
0.255642 0.328149 0.676764
0.256642 0.329149 0.711928
0.257639 0.330146 0.747004
0.258634 0.331141 0.781996
0.252580 0.360786 0.215432
0.253667 0.361874 0.253667
0.254734 0.362941 0.291210
0.255789 0.363995 0.328296
0.256833 0.365040 0.365040
0.257870 0.366077 0.401511
0.258901 0.367108 0.437756
0.259926 0.368133 0.473806
0.260946 0.369153 0.509688
0.261962 0.370169 0.545419
0.262974 0.371181 0.581016
0.263983 0.372189 0.616490
0.264988 0.373195 0.651853
0.265991 0.374197 0.687113
0.266990 0.375197 0.722277
0.267988 0.376195 0.757353
0.268983 0.377189 0.792345
0.262852 0.406493 0.225704
0.263939 0.407580 0.263939
0.265006 0.408647 0.301482
0.266061 0.409702 0.338568
0.267105 0.410746 0.375312
0.268142 0.411783 0.411783
0.269173 0.412814 0.448028
0.270198 0.413839 0.484078
0.271218 0.414859 0.519960
0.272234 0.415875 0.555691
0.273246 0.416887 0.591288
0.274255 0.417896 0.626762
0.275260 0.418901 0.662125
0.276263 0.419904 0.697385
0.277262 0.420903 0.732549
0.278260 0.421901 0.767625
0.279255 0.422896 0.802617
0.273060 0.451915 0.235912
0.274147 0.453002 0.274147
0.275214 0.454069 0.311690
0.276269 0.455124 0.348776
0.277313 0.456168 0.385520
0.278350 0.457205 0.421991
0.279381 0.458236 0.458236
0.280406 0.459261 0.494287
0.281426 0.460281 0.530168
0.282442 0.461297 0.565899
0.283454 0.462309 0.601496
0.284463 0.463318 0.636971
0.285468 0.464323 0.672333
0.286471 0.465326 0.707593
0.287471 0.466326 0.742757
0.288468 0.467323 0.777833
0.289463 0.468318 0.812825
0.283213 0.497094 0.246066
0.284300 0.498181 0.284300
0.285368 0.499248 0.321844
0.286422 0.500303 0.358930
0.287467 0.501348 0.395674
0.288504 0.502385 0.432145
0.289534 0.503415 0.468389
0.290559 0.504440 0.504440
0.291580 0.505460 0.540321
0.292596 0.506476 0.576053
0.293608 0.507488 0.611650
0.294616 0.508497 0.647124
0.295622 0.509502 0.682487
0.296624 0.510505 0.717747
0.297624 0.511505 0.752911
0.298621 0.512502 0.787986
0.299616 0.513497 0.822978
0.293319 0.542061 0.256172
0.294406 0.543148 0.294406
0.295474 0.544215 0.331950
0.296528 0.545270 0.369036
0.297573 0.546315 0.405780
0.298610 0.547352 0.442251
0.299640 0.548382 0.478495
0.300665 0.549407 0.514546
0.301685 0.550427 0.550427
0.302701 0.551443 0.586159
0.303714 0.552455 0.621755
0.304722 0.553464 0.657230
0.305728 0.554469 0.692593
0.306730 0.555472 0.727852
0.307730 0.556472 0.763017
0.308727 0.557469 0.798092
0.309722 0.558464 0.833084
0.303383 0.586840 0.266235
0.304470 0.587927 0.304470
0.305537 0.588995 0.342013
0.306592 0.590049 0.379099
0.307636 0.591094 0.415843
0.308673 0.592131 0.452314
0.309704 0.593161 0.488559
0.310729 0.594186 0.524610
0.311749 0.595206 0.560491
0.312765 0.596222 0.596222
0.313777 0.597234 0.631819
0.314786 0.598243 0.667294
0.315791 0.599249 0.702656
0.316794 0.600251 0.737916
0.317794 0.601251 0.773080
0.318791 0.602248 0.808156
0.319786 0.603243 0.843148
0.313408 0.631450 0.276261
0.314495 0.632537 0.314495
0.315563 0.633605 0.352039
0.316617 0.634659 0.389125
0.317662 0.635704 0.425869
0.318699 0.636741 0.462340
0.319730 0.637771 0.498585
0.320755 0.638797 0.534635
0.321775 0.639817 0.570517
0.322791 0.640833 0.606248
0.323803 0.641845 0.641845
0.324811 0.642853 0.677319
0.325817 0.643859 0.712682
0.326819 0.644861 0.747942
0.327819 0.645861 0.783106
0.328817 0.646858 0.818181
0.329811 0.647853 0.853174
0.323400 0.675907 0.286252
0.324487 0.676995 0.324487
0.325554 0.678062 0.362030
0.326609 0.679116 0.399116
0.327653 0.680161 0.435860
0.328690 0.681198 0.472331
0.329721 0.682229 0.508576
0.330746 0.683254 0.544626
0.331766 0.684274 0.580508
0.332782 0.685290 0.616239
0.333794 0.686302 0.651836
0.334803 0.687310 0.687310
0.335808 0.688316 0.722673
0.336811 0.689318 0.757933
0.337810 0.690318 0.793097
0.338808 0.691316 0.828173
0.339803 0.692310 0.863165
0.333359 0.720224 0.296212
0.334447 0.721312 0.334447
0.335514 0.722379 0.371990
0.336568 0.723433 0.409076
0.337613 0.724478 0.445820
0.338650 0.725515 0.482291
0.339681 0.726546 0.518536
0.340706 0.727571 0.554586
0.341726 0.728591 0.590468
0.342742 0.729607 0.626199
0.343754 0.730619 0.661796
0.344763 0.731628 0.697270
0.345768 0.732633 0.732633
0.346770 0.733636 0.767893
0.347770 0.734635 0.803057
0.348768 0.735633 0.838132
0.349762 0.736628 0.873125
0.343290 0.764412 0.306143
0.344377 0.765500 0.344377
0.345445 0.766567 0.381921
0.346499 0.767621 0.419007
0.347544 0.768666 0.455751
0.348581 0.769703 0.492222
0.349611 0.770734 0.528466
0.350636 0.771759 0.564517
0.351657 0.772779 0.600398
0.352673 0.773795 0.636130
0.353685 0.774807 0.671727
0.354693 0.775816 0.707201
0.355699 0.776821 0.742564
0.356701 0.777824 0.777824
0.357701 0.778823 0.812988
0.358698 0.779821 0.848063
0.359693 0.780816 0.883055
0.353194 0.808481 0.316047
0.354281 0.809568 0.354281
0.355349 0.810635 0.391825
0.356403 0.811690 0.428911
0.357448 0.812735 0.465655
0.358485 0.813772 0.502126
0.359515 0.814802 0.538370
0.360540 0.815827 0.574421
0.361561 0.816847 0.610302
0.362576 0.817863 0.646034
0.363589 0.818875 0.681630
0.364597 0.819884 0.717105
0.365603 0.820889 0.752468
0.366605 0.821892 0.787727
0.367605 0.822892 0.822892
0.368602 0.823889 0.857967
0.369597 0.824884 0.892959
0.363073 0.852438 0.325926
0.364160 0.853525 0.364160
0.365228 0.854592 0.401704
0.366282 0.855647 0.438790
0.367327 0.856692 0.475534
0.368364 0.857729 0.512005
0.369394 0.858759 0.548249
0.370419 0.859784 0.584300
0.371439 0.860804 0.620181
0.372455 0.861820 0.655913
0.373467 0.862832 0.691509
0.374476 0.863841 0.726984
0.375482 0.864846 0.762347
0.376484 0.865849 0.797606
0.377484 0.866849 0.832771
0.378481 0.867846 0.867846
0.379476 0.868841 0.902838
0.372928 0.896291 0.335781
0.374016 0.897378 0.374016
0.375083 0.898445 0.411559
0.376137 0.899500 0.448645
0.377182 0.900544 0.485389
0.378219 0.901581 0.521860
0.379250 0.902612 0.558105
0.380275 0.903637 0.594155
0.381295 0.904657 0.630037
0.382311 0.905673 0.665768
0.383323 0.906685 0.701365
0.384331 0.907694 0.736839
0.385337 0.908699 0.772202
0.386339 0.909702 0.807462
0.387339 0.910701 0.842626
0.388337 0.911699 0.877701
0.389331 0.912694 0.912694
0.250062 0.176439 0.176439
0.251149 0.177526 0.214673
0.252217 0.178593 0.252217
0.253271 0.179648 0.289303
0.254316 0.180693 0.326047
0.255353 0.181730 0.362518
0.256383 0.182760 0.398762
0.257408 0.183785 0.434813
0.258429 0.184805 0.470694
0.259445 0.185821 0.506426
0.260457 0.186833 0.542023
0.261465 0.187842 0.577497
0.262471 0.188847 0.612860
0.263473 0.189850 0.648120
0.264473 0.190850 0.683284
0.265470 0.191847 0.718359
0.266465 0.192842 0.753351
0.260831 0.224355 0.187207
0.261918 0.225442 0.225442
0.262985 0.226509 0.262985
0.264040 0.227564 0.300071
0.265085 0.228609 0.336815
0.266122 0.229646 0.373287
0.267152 0.230676 0.409531
0.268177 0.231701 0.445582
0.269197 0.232721 0.481463
0.270213 0.233737 0.517194
0.271225 0.234749 0.552791
0.272234 0.235758 0.588266
0.273239 0.236763 0.623628
0.274242 0.237766 0.658888
0.275242 0.238766 0.694052
0.276239 0.239763 0.729128
0.277234 0.240758 0.764120
0.271405 0.271405 0.197781
0.272492 0.272492 0.236016
0.273559 0.273559 0.273559
0.274614 0.274614 0.310645
0.275659 0.275659 0.347389
0.276696 0.276696 0.383861
0.277726 0.277726 0.420105
0.278751 0.278751 0.456156
0.279771 0.279771 0.492037
0.280787 0.280787 0.527768
0.281799 0.281799 0.563365
0.282808 0.282808 0.598840
0.283813 0.283813 0.634202
0.284816 0.284816 0.669462
0.285816 0.285816 0.704626
0.286813 0.286813 0.739702
0.287808 0.287808 0.774694
0.281850 0.317882 0.208227
0.282937 0.318969 0.246461
0.284005 0.320036 0.284005
0.285059 0.321091 0.321091
0.286104 0.322135 0.357835
0.287141 0.323172 0.394306
0.288171 0.324203 0.430550
0.289196 0.325228 0.466601
0.290216 0.326248 0.502482
0.291232 0.327264 0.538214
0.292244 0.328276 0.573810
0.293253 0.329285 0.609285
0.294258 0.330290 0.644648
0.295261 0.331293 0.679907
0.296261 0.332292 0.715072
0.297258 0.333290 0.750147
0.298253 0.334285 0.785139
0.292199 0.363930 0.218575
0.293286 0.365017 0.256810
0.294353 0.366084 0.294353
0.295408 0.367139 0.331439
0.296453 0.368183 0.368183
0.297489 0.369220 0.404655
0.298520 0.370251 0.440899
0.299545 0.371276 0.476950
0.300565 0.372296 0.512831
0.301581 0.373312 0.548562
0.302593 0.374324 0.584159
0.303602 0.375333 0.619634
0.304607 0.376338 0.654996
0.305610 0.377341 0.690256
0.306610 0.378340 0.725420
0.307607 0.379338 0.760496
0.308602 0.380333 0.795488
0.302471 0.409636 0.228847
0.303558 0.410723 0.267082
0.304625 0.411790 0.304625
0.305680 0.412845 0.341711
0.306724 0.413890 0.378455
0.307761 0.414927 0.414927
0.308792 0.415957 0.451171
0.309817 0.416982 0.487222
0.310837 0.418002 0.523103
0.311853 0.419018 0.558834
0.312865 0.420030 0.594431
0.313874 0.421039 0.629906
0.314879 0.422044 0.665268
0.315882 0.423047 0.700528
0.316882 0.424047 0.735692
0.317879 0.425044 0.770768
0.318874 0.426039 0.805760
0.312679 0.455058 0.239055
0.313766 0.456145 0.277290
0.314833 0.457212 0.314833
0.315888 0.458267 0.351919
0.316933 0.459312 0.388663
0.317970 0.460349 0.425135
0.319000 0.461379 0.461379
0.320025 0.462404 0.497430
0.321045 0.463424 0.533311
0.322061 0.464440 0.569043
0.323073 0.465452 0.604639
0.324082 0.466461 0.640114
0.325087 0.467466 0.675476
0.326090 0.468469 0.710736
0.327090 0.469469 0.745901
0.328087 0.470466 0.780976
0.329082 0.471461 0.815968
0.322832 0.500237 0.249209
0.323920 0.501324 0.287444
0.324987 0.502392 0.324987
0.326041 0.503446 0.362073
0.327086 0.504491 0.398817
0.328123 0.505528 0.435288
0.329154 0.506558 0.471533
0.330179 0.507583 0.507583
0.331199 0.508603 0.543465
0.332215 0.509619 0.579196
0.333227 0.510631 0.614793
0.334235 0.511640 0.650267
0.335241 0.512646 0.685630
0.336243 0.513648 0.720890
0.337243 0.514648 0.756054
0.338241 0.515645 0.791129
0.339235 0.516640 0.826122
0.332938 0.545204 0.259315
0.334025 0.546291 0.297549
0.335093 0.547359 0.335093
0.336147 0.548413 0.372179
0.337192 0.549458 0.408923
0.338229 0.550495 0.445394
0.339260 0.551525 0.481639
0.340285 0.552550 0.517689
0.341305 0.553571 0.553571
0.342321 0.554586 0.589302
0.343333 0.555599 0.624899
0.344341 0.556607 0.660373
0.345347 0.557613 0.695736
0.346349 0.558615 0.730996
0.347349 0.559615 0.766160
0.348346 0.560612 0.801235
0.349341 0.561607 0.836228
0.343002 0.589983 0.269379
0.344089 0.591070 0.307613
0.345156 0.592138 0.345156
0.346211 0.593192 0.382242
0.347256 0.594237 0.418986
0.348293 0.595274 0.455458
0.349323 0.596304 0.491702
0.350348 0.597329 0.527753
0.351368 0.598350 0.563634
0.352384 0.599366 0.599366
0.353396 0.600378 0.634962
0.354405 0.601386 0.670437
0.355410 0.602392 0.705799
0.356413 0.603394 0.741059
0.357413 0.604394 0.776224
0.358410 0.605391 0.811299
0.359405 0.606386 0.846291
0.353028 0.634594 0.279404
0.354115 0.635681 0.317639
0.355182 0.636748 0.355182
0.356237 0.637803 0.392268
0.357281 0.638847 0.429012
0.358318 0.639884 0.465483
0.359349 0.640915 0.501728
0.360374 0.641940 0.537778
0.361394 0.642960 0.573660
0.362410 0.643976 0.609391
0.363422 0.644988 0.644988
0.364431 0.645997 0.680462
0.365436 0.647002 0.715825
0.366439 0.648005 0.751085
0.367438 0.649004 0.786249
0.368436 0.650002 0.821325
0.369431 0.650997 0.856317
0.363019 0.679051 0.289395
0.364106 0.680138 0.327630
0.365173 0.681205 0.365173
0.366228 0.682260 0.402259
0.367273 0.683304 0.439003
0.368310 0.684341 0.475475
0.369340 0.685372 0.511719
0.370365 0.686397 0.547770
0.371385 0.687417 0.583651
0.372401 0.688433 0.619383
0.373413 0.689445 0.654979
0.374422 0.690454 0.690454
0.375427 0.691459 0.725816
0.376430 0.692462 0.761076
0.377430 0.693461 0.796240
0.378427 0.694459 0.831316
0.379422 0.695454 0.866308
0.372979 0.723368 0.299355
0.374066 0.724455 0.337590
0.375133 0.725522 0.375133
0.376188 0.726577 0.412219
0.377232 0.727621 0.448963
0.378269 0.728658 0.485434
0.379300 0.729689 0.521679
0.380325 0.730714 0.557729
0.381345 0.731734 0.593611
0.382361 0.732750 0.629342
0.383373 0.733762 0.664939
0.384382 0.734771 0.700413
0.385387 0.735776 0.735776
0.386390 0.736779 0.771036
0.387390 0.737779 0.806200
0.388387 0.738776 0.841276
0.389382 0.739771 0.876268
0.382909 0.767556 0.309286
0.383997 0.768643 0.347521
0.385064 0.769710 0.385064
0.386118 0.770765 0.422150
0.387163 0.771809 0.458894
0.388200 0.772846 0.495365
0.389231 0.773877 0.531610
0.390256 0.774902 0.567660
0.391276 0.775922 0.603542
0.392292 0.776938 0.639273
0.393304 0.777950 0.674870
0.394313 0.778959 0.710344
0.395318 0.779964 0.745707
0.396320 0.780967 0.780967
0.397320 0.781967 0.816131
0.398318 0.782964 0.851206
0.399312 0.783959 0.886199
0.392813 0.811624 0.319190
0.393900 0.812711 0.357424
0.394968 0.813779 0.394968
0.396022 0.814833 0.432054
0.397067 0.815878 0.468798
0.398104 0.816915 0.505269
0.399135 0.817945 0.541514
0.400160 0.818970 0.577564
0.401180 0.819991 0.613446
0.402196 0.821006 0.649177
0.403208 0.822019 0.684774
0.404216 0.823027 0.720248
0.405222 0.824033 0.755611
0.406224 0.825035 0.790871
0.407224 0.826035 0.826035
0.408221 0.827032 0.861110
0.409216 0.828027 0.896103
0.402692 0.855581 0.329069
0.403779 0.856668 0.367303
0.404847 0.857736 0.404847
0.405901 0.858790 0.441933
0.406946 0.859835 0.478677
0.407983 0.860872 0.515148
0.409013 0.861902 0.551392
0.410038 0.862927 0.587443
0.411059 0.863948 0.623324
0.412075 0.864963 0.659056
0.413087 0.865976 0.694653
0.414095 0.866984 0.730127
0.415101 0.867990 0.765490
0.416103 0.868992 0.800750
0.417103 0.869992 0.835914
0.418100 0.870989 0.870989
0.419095 0.871984 0.905981
0.412548 0.899434 0.338924
0.413635 0.900521 0.377159
0.414702 0.901588 0.414702
0.415757 0.902643 0.451788
0.416801 0.903688 0.488532
0.417838 0.904725 0.525003
0.418869 0.905755 0.561248
0.419894 0.906780 0.597298
0.420914 0.907800 0.633180
0.421930 0.908816 0.668911
0.422942 0.909828 0.704508
0.423951 0.910837 0.739982
0.424956 0.911842 0.775345
0.425959 0.912845 0.810605
0.426959 0.913845 0.845769
0.427956 0.914842 0.880845
0.428951 0.915837 0.915837
0.289199 0.179544 0.179544
0.290286 0.180631 0.217778
0.291353 0.181698 0.255322
0.292408 0.182753 0.292408
0.293452 0.183797 0.329152
0.294489 0.184834 0.365623
0.295520 0.185865 0.401867
0.296545 0.186890 0.437918
0.297565 0.187910 0.473799
0.298581 0.188926 0.509531
0.299593 0.189938 0.545127
0.300602 0.190947 0.580602
0.301607 0.191952 0.615965
0.302610 0.192955 0.651224
0.303610 0.193955 0.686389
0.304607 0.194952 0.721464
0.305602 0.195947 0.756456
0.299967 0.227460 0.190312
