skills/creativeops-producer-ios/assets/grade/luts/vintage_fade_v19.cube
TITLE "vintage_fade_v19"
LUT_3D_SIZE 5
DOMAIN_MIN 0.0 0.0 0.0
DOMAIN_MAX 1.0 1.0 1.0
0.170095 0.170095 0.170095
0.174348 0.174348 0.319703
0.178461 0.178461 0.464350
0.182503 0.182503 0.606515
0.186498 0.186498 0.747007
0.212231 0.357585 0.212231
0.216485 0.361839 0.361839
0.220598 0.365952 0.506487
0.224640 0.369994 0.648652
0.228634 0.373988 0.789144
0.252971 0.538860 0.252971
0.257224 0.543114 0.402579
0.261337 0.547226 0.547226
0.265379 0.551268 0.689392
0.269374 0.555263 0.829883
0.293011 0.717023 0.293011
0.297265 0.721277 0.442619
0.301377 0.725390 0.587267
0.305419 0.729432 0.729432
0.309414 0.733426 0.869924
0.332580 0.893090 0.332580
0.336834 0.897343 0.482188
0.340946 0.901456 0.626836
0.344988 0.905498 0.769001
0.348983 0.909493 0.909493
0.327974 0.182620 0.182620
0.332228 0.186874 0.332228
0.336341 0.190986 0.476876
0.340383 0.195029 0.619041
0.344377 0.199023 0.759533
0.370111 0.370111 0.224757
0.374365 0.374365 0.374365
0.378477 0.378477 0.519012
0.382519 0.382519 0.661178
0.386514 0.386514 0.801669
0.410850 0.551385 0.265496
0.415104 0.555639 0.415104
0.419217 0.559752 0.559752
0.423259 0.563794 0.701917
0.427253 0.567788 0.842409
0.450891 0.729549 0.305536
0.455144 0.733803 0.455144
0.459257 0.737915 0.599792
0.463299 0.741957 0.741957
0.467294 0.745952 0.882449
0.490460 0.905615 0.345105
0.494713 0.909869 0.494713
0.498826 0.913981 0.639361
0.502868 0.918024 0.781526
0.506863 0.922018 0.922018
0.480619 0.194730 0.194730
0.484873 0.198984 0.344338
0.488986 0.203097 0.488986
0.493028 0.207139 0.631151
0.497023 0.211133 0.771643
0.522756 0.382221 0.236867
0.527010 0.386475 0.386475
0.531122 0.390587 0.531122
0.535165 0.394630 0.673288
0.539159 0.398624 0.813779
0.563496 0.563496 0.277606
0.567749 0.567749 0.427214
0.571862 0.571862 0.571862
0.575904 0.575904 0.714027
0.579899 0.579899 0.854519
0.603536 0.741659 0.317647
0.607790 0.745913 0.467255
0.611902 0.750026 0.611902
0.615944 0.754068 0.754068
0.619939 0.758062 0.894559
0.643105 0.917725 0.357216
0.647359 0.921979 0.506824
0.651471 0.926092 0.651471
0.655513 0.930134 0.793637
0.659508 0.934128 0.934128
0.630645 0.206633 0.206633
0.634899 0.210886 0.356241
0.639011 0.214999 0.500888
0.643054 0.219041 0.643054
0.647048 0.223036 0.783545
0.672782 0.394123 0.248769
0.677035 0.398377 0.398377
0.681148 0.402490 0.543025
0.685190 0.406532 0.685190
0.689185 0.410526 0.825682
0.713521 0.575398 0.289509
0.717775 0.579652 0.439117
0.721888 0.583764 0.583764
0.725930 0.587806 0.725930
0.729924 0.591801 0.866421
0.753561 0.753561 0.329549
0.757815 0.757815 0.479157
0.761928 0.761928 0.623805
0.765970 0.765970 0.765970
0.769965 0.769965 0.906462
0.793130 0.929628 0.369118
0.797384 0.933881 0.518726
0.801497 0.937994 0.663374
0.805539 0.942036 0.805539
0.809534 0.946031 0.946031
0.778904 0.218395 0.218395
0.783158 0.222649 0.368003
0.787271 0.226761 0.512651
0.791313 0.230803 0.654816
0.795307 0.234798 0.795307
0.821041 0.405886 0.260531
0.825295 0.410139 0.410139
0.829407 0.414252 0.554787
0.833450 0.418294 0.696952
0.837444 0.422289 0.837444
0.861781 0.587160 0.301271
0.866034 0.591414 0.450879
0.870147 0.595527 0.595527
0.874189 0.599569 0.737692
0.878184 0.603563 0.878184
0.901821 0.765324 0.341311
0.906075 0.769577 0.490919
0.910187 0.773690 0.635567
0.914229 0.777732 0.777732
0.918224 0.781727 0.918224
0.941390 0.941390 0.380880
0.945644 0.945644 0.530488
0.949756 0.949756 0.675136
0.953798 0.953798 0.817301
0.957793 0.957793 0.957793
