skills/creativeops-producer-ios/assets/grade/luts/warm_skin_v06.cube
TITLE "warm_skin_v06"
LUT_3D_SIZE 9
DOMAIN_MIN 0.0 0.0 0.0
DOMAIN_MAX 1.0 1.0 1.0
0.024828 0.000000 0.000000
0.024820 0.000000 0.102168
0.024810 0.000000 0.230532
0.024800 0.000000 0.357530
0.024791 0.000000 0.483692
0.024781 0.000000 0.609250
0.024772 0.000000 0.734336
0.024762 0.000000 0.859032
0.024753 0.000000 0.983398
0.024731 0.128459 0.000000
0.024723 0.128451 0.102072
0.024713 0.128441 0.230435
0.024704 0.128432 0.357433
0.024694 0.128422 0.483595
0.024685 0.128413 0.609154
0.024675 0.128403 0.734239
0.024666 0.128394 0.858935
0.024656 0.128384 0.983302
0.024635 0.256379 0.000000
0.024627 0.256371 0.101975
0.024617 0.256361 0.230339
0.024607 0.256351 0.357337
0.024598 0.256342 0.483499
0.024588 0.256332 0.609057
0.024579 0.256323 0.734143
0.024569 0.256313 0.858839
0.024560 0.256304 0.983205
0.024539 0.383092 0.000000
0.024531 0.383084 0.101880
0.024522 0.383075 0.230244
0.024512 0.383065 0.357241
0.024503 0.383055 0.483404
0.024493 0.383046 0.608962
0.024483 0.383036 0.734047
0.024474 0.383027 0.858744
0.024465 0.383017 0.983110
0.024444 0.509032 0.000000
0.024437 0.509024 0.101785
0.024427 0.509014 0.230149
0.024417 0.509004 0.357146
0.024408 0.508995 0.483309
0.024398 0.508985 0.608867
0.024389 0.508976 0.733953
0.024379 0.508966 0.858649
0.024370 0.508957 0.983015
0.024350 0.634400 0.000000
0.024342 0.634392 0.101691
0.024333 0.634383 0.230055
0.024323 0.634373 0.357052
0.024313 0.634363 0.483214
0.024304 0.634354 0.608773
0.024294 0.634344 0.733858
0.024285 0.634335 0.858555
0.024275 0.634325 0.982921
0.024256 0.759316 0.000000
0.024248 0.759308 0.101597
0.024239 0.759298 0.229961
0.024229 0.759288 0.356958
0.024219 0.759279 0.483120
0.024210 0.759269 0.608679
0.024200 0.759260 0.733764
0.024191 0.759250 0.858461
0.024181 0.759241 0.982827
0.024162 0.883856 0.000000
0.024155 0.883848 0.101503
0.024145 0.883839 0.229867
0.024135 0.883829 0.356864
0.024126 0.883819 0.483027
0.024116 0.883810 0.608585
0.024107 0.883800 0.733671
0.024097 0.883791 0.858367
0.024088 0.883782 0.982733
0.024075 1.000000 0.000000
0.024067 1.000000 0.101415
0.024057 1.000000 0.229779
0.024048 1.000000 0.356777
0.024038 1.000000 0.482939
0.024028 1.000000 0.608498
0.024019 1.000000 0.733583
0.024009 1.000000 0.858279
0.024000 1.000000 0.982646
0.154807 0.000000 0.000000
0.154799 0.000000 0.102139
0.154789 0.000000 0.230503
0.154780 0.000000 0.357500
0.154770 0.000000 0.483663
0.154761 0.000000 0.609221
0.154751 0.000000 0.734307
0.154742 0.000000 0.859003
0.154732 0.000000 0.983369
0.154710 0.128430 0.000000
0.154702 0.128422 0.102043
0.154693 0.128412 0.230406
0.154683 0.128403 0.357404
0.154674 0.128393 0.483566
0.154664 0.128384 0.609125
0.154654 0.128374 0.734210
0.154645 0.128365 0.858906
0.154636 0.128355 0.983273
0.154614 0.256350 0.000000
0.154606 0.256342 0.101946
0.154596 0.256332 0.230310
0.154587 0.256322 0.357307
0.154577 0.256313 0.483470
0.154568 0.256303 0.609028
0.154558 0.256294 0.734114
0.154549 0.256284 0.858810
0.154539 0.256275 0.983176
0.154519 0.383063 0.000000
0.154511 0.383055 0.101851
0.154501 0.383045 0.230215
0.154491 0.383036 0.357212
0.154482 0.383026 0.483374
0.154472 0.383017 0.608933
0.154463 0.383007 0.734018
0.154453 0.382998 0.858715
0.154444 0.382988 0.983081
0.154424 0.509003 0.000000
0.154416 0.508995 0.101756
0.154406 0.508985 0.230120
0.154397 0.508975 0.357117
0.154387 0.508966 0.483280
0.154378 0.508956 0.608838
0.154368 0.508947 0.733924
0.154359 0.508937 0.858620
0.154349 0.508928 0.982986
0.154329 0.634371 0.000000
0.154322 0.634363 0.101662
0.154312 0.634353 0.230026
0.154302 0.634344 0.357023
0.154293 0.634334 0.483185
0.154283 0.634325 0.608744
0.154274 0.634315 0.733829
0.154264 0.634306 0.858526
0.154255 0.634296 0.982892
0.154235 0.759287 0.000000
0.154228 0.759279 0.101568
0.154218 0.759269 0.229932
0.154208 0.759259 0.356929
0.154199 0.759250 0.483091
0.154189 0.759240 0.608650
0.154180 0.759231 0.733735
0.154170 0.759221 0.858432
0.154161 0.759212 0.982798
0.154142 0.883827 0.000000
0.154134 0.883819 0.101474
0.154124 0.883810 0.229838
0.154115 0.883800 0.356835
0.154105 0.883790 0.482998
0.154095 0.883781 0.608556
0.154086 0.883771 0.733641
0.154076 0.883762 0.858338
0.154067 0.883752 0.982704
0.154054 1.000000 0.000000
0.154046 1.000000 0.101386
0.154037 1.000000 0.229750
0.154027 1.000000 0.356748
0.154017 1.000000 0.482910
0.154008 1.000000 0.608468
0.153998 1.000000 0.733554
0.153989 1.000000 0.858250
0.153979 1.000000 0.982616
0.282488 0.000000 0.000000
0.282480 0.000000 0.102111
0.282470 0.000000 0.230475
0.282461 0.000000 0.357472
0.282451 0.000000 0.483634
0.282441 0.000000 0.609193
0.282432 0.000000 0.734278
0.282423 0.000000 0.858974
0.282413 0.000000 0.983341
0.282391 0.128401 0.000000
0.282383 0.128393 0.102014
0.282374 0.128384 0.230378
0.282364 0.128374 0.357375
0.282354 0.128364 0.483538
0.282345 0.128355 0.609096
0.282335 0.128345 0.734181
0.282326 0.128336 0.858878
0.282316 0.128327 0.983244
0.282295 0.256321 0.000000
0.282287 0.256313 0.101918
0.282277 0.256303 0.230282
0.282268 0.256294 0.357279
0.282258 0.256284 0.483441
0.282249 0.256275 0.609000
0.282239 0.256265 0.734085
0.282230 0.256256 0.858782
0.282220 0.256246 0.983148
0.282199 0.383034 0.000000
0.282192 0.383027 0.101822
0.282182 0.383017 0.230186
0.282172 0.383007 0.357184
0.282163 0.382998 0.483346
0.282153 0.382988 0.608904
0.282144 0.382979 0.733990
0.282134 0.382969 0.858686
0.282125 0.382960 0.983052
0.282105 0.508974 0.000000
0.282097 0.508966 0.101728
0.282087 0.508957 0.230091
0.282077 0.508947 0.357089
0.282068 0.508937 0.483251
0.282058 0.508928 0.608810
0.282049 0.508918 0.733895
0.282039 0.508909 0.858591
0.282030 0.508899 0.982958
0.282010 0.634342 0.000000
0.282003 0.634335 0.101633
0.281993 0.634325 0.229997
0.281983 0.634315 0.356994
0.281974 0.634306 0.483157
0.281964 0.634296 0.608715
0.281955 0.634287 0.733801
0.281945 0.634277 0.858497
0.281936 0.634268 0.982863
0.281916 0.759258 0.000000
0.281909 0.759250 0.101539
0.281899 0.759241 0.229903
0.281889 0.759231 0.356900
0.281880 0.759221 0.483063
0.281870 0.759212 0.608621
0.281861 0.759202 0.733707
0.281851 0.759193 0.858403
0.281842 0.759183 0.982769
0.281823 0.883799 0.000000
0.281815 0.883791 0.101446
0.281805 0.883781 0.229809
0.281795 0.883771 0.356807
0.281786 0.883762 0.482969
0.281776 0.883752 0.608528
0.281767 0.883743 0.733613
0.281757 0.883733 0.858309
0.281748 0.883724 0.982676
0.281735 1.000000 0.000000
0.281727 1.000000 0.101358
0.281717 1.000000 0.229722
0.281708 1.000000 0.356719
0.281698 1.000000 0.482881
0.281689 1.000000 0.608440
0.281679 1.000000 0.733525
0.281670 1.000000 0.858222
0.281660 1.000000 0.982588
0.409086 0.000000 0.000000
0.409079 0.000000 0.102082
0.409069 0.000000 0.230446
0.409059 0.000000 0.357444
0.409050 0.000000 0.483606
0.409040 0.000000 0.609164
0.409031 0.000000 0.734250
0.409021 0.000000 0.858946
0.409012 0.000000 0.983312
0.408990 0.128373 0.000000
0.408982 0.128365 0.101986
0.408972 0.128355 0.230350
0.408963 0.128346 0.357347
0.408953 0.128336 0.483509
0.408943 0.128327 0.609068
0.408934 0.128317 0.734153
0.408925 0.128308 0.858849
0.408915 0.128298 0.983216
0.408893 0.256293 0.000000
0.408886 0.256285 0.101889
0.408876 0.256275 0.230253
0.408866 0.256266 0.357251
0.408857 0.256256 0.483413
0.408847 0.256246 0.608971
0.408838 0.256237 0.734057
0.408828 0.256227 0.858753
0.408819 0.256218 0.983119
0.408798 0.383006 0.000000
0.408790 0.382998 0.101794
0.408781 0.382989 0.230158
0.408771 0.382979 0.357155
0.408761 0.382969 0.483318
0.408752 0.382960 0.608876
0.408742 0.382950 0.733961
0.408733 0.382941 0.858658
0.408723 0.382931 0.983024
0.408703 0.508946 0.000000
0.408696 0.508938 0.101699
0.408686 0.508928 0.230063
0.408676 0.508919 0.357060
0.408667 0.508909 0.483223
0.408657 0.508899 0.608781
0.408648 0.508890 0.733867
0.408638 0.508880 0.858563
0.408629 0.508871 0.982929
0.408609 0.634314 0.000000
0.408601 0.634306 0.101605
0.408591 0.634297 0.229969
0.408582 0.634287 0.356966
0.408572 0.634277 0.483128
0.408563 0.634268 0.608687
0.408553 0.634258 0.733772
0.408544 0.634249 0.858469
0.408534 0.634239 0.982835
0.408515 0.759230 0.000000
0.408507 0.759222 0.101511
0.408497 0.759212 0.229875
0.408488 0.759203 0.356872
0.408478 0.759193 0.483034
0.408469 0.759183 0.608593
0.408459 0.759174 0.733678
0.408450 0.759164 0.858375
0.408440 0.759155 0.982741
0.408421 0.883770 0.000000
0.408413 0.883762 0.101417
0.408404 0.883753 0.229781
0.408394 0.883743 0.356778
0.408384 0.883734 0.482941
0.408375 0.883724 0.608499
0.408365 0.883714 0.733585
0.408356 0.883705 0.858281
0.408347 0.883696 0.982647
0.408334 1.000000 0.000000
0.408326 1.000000 0.101330
0.408316 1.000000 0.229693
0.408306 1.000000 0.356691
0.408297 1.000000 0.482853
0.408287 1.000000 0.608412
0.408278 1.000000 0.733497
0.408268 1.000000 0.858193
0.408259 1.000000 0.982560
0.534963 0.000000 0.000000
0.534955 0.000000 0.102054
0.534946 0.000000 0.230418
0.534936 0.000000 0.357415
0.534927 0.000000 0.483578
0.534917 0.000000 0.609136
0.534907 0.000000 0.734222
0.534898 0.000000 0.858918
0.534889 0.000000 0.983284
0.534867 0.128345 0.000000
0.534859 0.128337 0.101958
0.534849 0.128327 0.230321
0.534839 0.128318 0.357319
0.534830 0.128308 0.483481
0.534820 0.128299 0.609040
0.534811 0.128289 0.734125
0.534801 0.128280 0.858821
0.534792 0.128270 0.983188
0.534770 0.256265 0.000000
0.534763 0.256257 0.101861
0.534753 0.256247 0.230225
0.534743 0.256237 0.357222
0.534734 0.256228 0.483385
0.534724 0.256218 0.608943
0.534715 0.256209 0.734029
0.534705 0.256199 0.858725
0.534696 0.256190 0.983091
0.534675 0.382978 0.000000
0.534667 0.382970 0.101766
0.534657 0.382960 0.230130
0.534648 0.382951 0.357127
0.534638 0.382941 0.483289
0.534629 0.382932 0.608848
0.534619 0.382922 0.733933
0.534610 0.382913 0.858630
0.534600 0.382903 0.982996
0.534580 0.508918 0.000000
0.534572 0.508910 0.101671
0.534563 0.508900 0.230035
0.534553 0.508890 0.357032
0.534543 0.508881 0.483195
0.534534 0.508871 0.608753
0.534524 0.508862 0.733839
0.534515 0.508852 0.858535
0.534505 0.508843 0.982901
0.534486 0.634286 0.000000
0.534478 0.634278 0.101577
0.534468 0.634268 0.229941
0.534459 0.634259 0.356938
0.534449 0.634249 0.483100
0.534440 0.634240 0.608659
0.534430 0.634230 0.733744
0.534421 0.634221 0.858441
0.534411 0.634211 0.982807
0.534392 0.759202 0.000000
0.534384 0.759194 0.101483
0.534374 0.759184 0.229847
0.534365 0.759174 0.356844
0.534355 0.759165 0.483006
0.534346 0.759155 0.608565
0.534336 0.759146 0.733650
0.534327 0.759136 0.858347
0.534317 0.759127 0.982713
0.534298 0.883742 0.000000
0.534290 0.883734 0.101389
0.534281 0.883725 0.229753
0.534271 0.883715 0.356750
0.534261 0.883705 0.482913
0.534252 0.883696 0.608471
0.534242 0.883686 0.733556
0.534233 0.883677 0.858253
0.534223 0.883667 0.982619
0.534210 1.000000 0.000000
0.534203 1.000000 0.101301
0.534193 1.000000 0.229665
0.534183 1.000000 0.356663
0.534174 1.000000 0.482825
0.534164 1.000000 0.608383
0.534155 1.000000 0.733469
0.534145 1.000000 0.858165
0.534136 1.000000 0.982531
0.660298 0.000000 0.000000
0.660290 0.000000 0.102026
0.660280 0.000000 0.230390
0.660270 0.000000 0.357387
0.660261 0.000000 0.483550
0.660251 0.000000 0.609108
0.660242 0.000000 0.734194
0.660232 0.000000 0.858890
0.660223 0.000000 0.983256
0.660201 0.128317 0.000000
0.660193 0.128309 0.101930
0.660183 0.128299 0.230293
0.660174 0.128290 0.357291
0.660164 0.128280 0.483453
0.660155 0.128270 0.609012
0.660145 0.128261 0.734097
0.660136 0.128252 0.858793
0.660126 0.128242 0.983160
0.660105 0.256236 0.000000
0.660097 0.256229 0.101833
0.660087 0.256219 0.230197
0.660077 0.256209 0.357194
0.660068 0.256200 0.483357
0.660058 0.256190 0.608915
0.660049 0.256181 0.734001
0.660039 0.256171 0.858697
0.660030 0.256162 0.983063
0.660009 0.382950 0.000000
0.660001 0.382942 0.101738
0.659992 0.382932 0.230102
0.659982 0.382923 0.357099
0.659972 0.382913 0.483261
0.659963 0.382904 0.608820
0.659953 0.382894 0.733905
0.659944 0.382885 0.858602
0.659935 0.382875 0.982968
0.659914 0.508890 0.000000
0.659907 0.508882 0.101643
0.659897 0.508872 0.230007
0.659887 0.508862 0.357004
0.659878 0.508853 0.483167
0.659868 0.508843 0.608725
0.659859 0.508834 0.733811
0.659849 0.508824 0.858507
0.659840 0.508815 0.982873
0.659820 0.634258 0.000000
0.659812 0.634250 0.101549
0.659803 0.634240 0.229913
0.659793 0.634231 0.356910
0.659783 0.634221 0.483072
0.659774 0.634212 0.608631
0.659764 0.634202 0.733716
0.659755 0.634193 0.858413
0.659745 0.634183 0.982779
0.659726 0.759174 0.000000
0.659718 0.759166 0.101455
0.659709 0.759156 0.229819
0.659699 0.759146 0.356816
0.659689 0.759137 0.482978
0.659680 0.759127 0.608537
0.659670 0.759118 0.733622
0.659661 0.759108 0.858319
0.659651 0.759099 0.982685
0.659632 0.883714 0.000000
0.659625 0.883706 0.101361
0.659615 0.883697 0.229725
0.659605 0.883687 0.356722
0.659596 0.883677 0.482885
0.659586 0.883668 0.608443
0.659577 0.883658 0.733528
0.659567 0.883649 0.858225
0.659558 0.883639 0.982591
0.659545 1.000000 0.000000
0.659537 1.000000 0.101273
0.659527 1.000000 0.229637
0.659518 1.000000 0.356635
0.659508 1.000000 0.482797
0.659498 1.000000 0.608355
0.659489 1.000000 0.733441
0.659479 1.000000 0.858137
0.659470 1.000000 0.982503
0.785197 0.000000 0.000000
0.785189 0.000000 0.101998
0.785180 0.000000 0.230362
0.785170 0.000000 0.357359
0.785160 0.000000 0.483522
0.785151 0.000000 0.609080
0.785141 0.000000 0.734166
0.785132 0.000000 0.858862
0.785122 0.000000 0.983228
0.785100 0.128289 0.000000
0.785093 0.128281 0.101902
0.785083 0.128271 0.230265
0.785073 0.128262 0.357263
0.785064 0.128252 0.483425
0.785054 0.128243 0.608984
0.785045 0.128233 0.734069
0.785035 0.128224 0.858765
0.785026 0.128214 0.983132
0.785004 0.256209 0.000000
0.784996 0.256201 0.101805
0.784987 0.256191 0.230169
0.784977 0.256181 0.357167
0.784967 0.256172 0.483329
0.784958 0.256162 0.608887
0.784948 0.256153 0.733973
0.784939 0.256143 0.858669
0.784930 0.256134 0.983035
0.784909 0.382922 0.000000
0.784901 0.382914 0.101710
0.784891 0.382904 0.230074
0.784882 0.382895 0.357071
0.784872 0.382885 0.483234
0.784863 0.382876 0.608792
0.784853 0.382866 0.733877
0.784844 0.382857 0.858574
0.784834 0.382847 0.982940
0.784814 0.508862 0.000000
0.784806 0.508854 0.101615
0.784797 0.508844 0.229979
0.784787 0.508834 0.356976
0.784777 0.508825 0.483139
0.784768 0.508815 0.608697
0.784758 0.508806 0.733783
0.784749 0.508796 0.858479
0.784739 0.508787 0.982845
0.784720 0.634230 0.000000
0.784712 0.634222 0.101521
0.784702 0.634213 0.229885
0.784693 0.634203 0.356882
0.784683 0.634193 0.483044
0.784673 0.634184 0.608603
0.784664 0.634174 0.733688
0.784654 0.634165 0.858385
0.784645 0.634155 0.982751
0.784626 0.759146 0.000000
0.784618 0.759138 0.101427
0.784608 0.759128 0.229791
0.784599 0.759118 0.356788
0.784589 0.759109 0.482950
0.784579 0.759099 0.608509
0.784570 0.759090 0.733594
0.784560 0.759080 0.858291
0.784551 0.759071 0.982657
0.784532 0.883686 0.000000
0.784524 0.883678 0.101333
0.784514 0.883669 0.229697
0.784505 0.883659 0.356694
0.784495 0.883649 0.482857
0.784486 0.883640 0.608415
0.784476 0.883630 0.733500
0.784467 0.883621 0.858197
0.784457 0.883611 0.982563
0.784444 1.000000 0.000000
0.784437 1.000000 0.101245
0.784427 1.000000 0.229609
0.784417 1.000000 0.356607
0.784408 1.000000 0.482769
0.784398 1.000000 0.608328
0.784389 1.000000 0.733413
0.784379 1.000000 0.858109
0.784370 1.000000 0.982475
0.909734 0.000000 0.000000
0.909726 0.000000 0.101970
0.909717 0.000000 0.230334
0.909707 0.000000 0.357332
0.909698 0.000000 0.483494
0.909688 0.000000 0.609052
0.909679 0.000000 0.734138
0.909669 0.000000 0.858834
0.909660 0.000000 0.983200
0.909638 0.128261 0.000000
0.909630 0.128253 0.101874
0.909620 0.128243 0.230238
0.909610 0.128234 0.357235
0.909601 0.128224 0.483397
0.909591 0.128215 0.608956
0.909582 0.128205 0.734041
0.909572 0.128196 0.858738
0.909563 0.128186 0.983104
0.909541 0.256181 0.000000
0.909534 0.256173 0.101778
0.909524 0.256163 0.230141
0.909514 0.256154 0.357139
0.909505 0.256144 0.483301
0.909495 0.256134 0.608860
0.909486 0.256125 0.733945
0.909476 0.256115 0.858641
0.909467 0.256106 0.983008
0.909446 0.382894 0.000000
0.909438 0.382886 0.101682
0.909428 0.382877 0.230046
0.909419 0.382867 0.357043
0.909409 0.382857 0.483206
0.909400 0.382848 0.608764
0.909390 0.382838 0.733850
0.909381 0.382829 0.858546
0.909371 0.382819 0.982912
0.909351 0.508834 0.000000
0.909343 0.508826 0.101587
0.909334 0.508816 0.229951
0.909324 0.508807 0.356949
0.909314 0.508797 0.483111
0.909305 0.508788 0.608669
0.909295 0.508778 0.733755
0.909286 0.508769 0.858451
0.909276 0.508759 0.982817
0.909257 0.634202 0.000000
0.909249 0.634194 0.101493
0.909239 0.634185 0.229857
0.909230 0.634175 0.356854
0.909220 0.634165 0.483017
0.909211 0.634156 0.608575
0.909201 0.634146 0.733660
0.909192 0.634137 0.858357
0.909182 0.634128 0.982723
0.909163 0.759118 0.000000
0.909155 0.759110 0.101399
0.909145 0.759100 0.229763
0.909136 0.759091 0.356760
0.909126 0.759081 0.482923
0.909117 0.759072 0.608481
0.909107 0.759062 0.733566
0.909098 0.759053 0.858263
0.909088 0.759043 0.982629
0.909069 0.883658 0.000000
0.909061 0.883651 0.101305
0.909052 0.883641 0.229669
0.909042 0.883631 0.356666
0.909032 0.883622 0.482829
0.909023 0.883612 0.608387
0.909013 0.883603 0.733473
0.909004 0.883593 0.858169
0.908994 0.883584 0.982535
0.908981 1.000000 0.000000
0.908974 1.000000 0.101218
0.908964 1.000000 0.229581
0.908954 1.000000 0.356579
0.908945 1.000000 0.482741
0.908935 1.000000 0.608300
0.908926 1.000000 0.733385
0.908916 1.000000 0.858081
0.908907 1.000000 0.982448
1.000000 0.000000 0.000000
1.000000 0.000000 0.101950
1.000000 0.000000 0.230314
1.000000 0.000000 0.357311
1.000000 0.000000 0.483474
1.000000 0.000000 0.609032
1.000000 0.000000 0.734117
1.000000 0.000000 0.858814
1.000000 0.000000 0.983180
1.000000 0.128241 0.000000
1.000000 0.128233 0.101853
1.000000 0.128223 0.230217
1.000000 0.128213 0.357215
1.000000 0.128204 0.483377
1.000000 0.128194 0.608935
1.000000 0.128185 0.734021
1.000000 0.128175 0.858717
1.000000 0.128166 0.983083
1.000000 0.256160 0.000000
1.000000 0.256153 0.101757
1.000000 0.256143 0.230121
1.000000 0.256133 0.357118
1.000000 0.256124 0.483281
1.000000 0.256114 0.608839
1.000000 0.256105 0.733925
1.000000 0.256095 0.858621
1.000000 0.256086 0.982987
1.000000 0.382874 0.000000
1.000000 0.382866 0.101662
1.000000 0.382856 0.230026
1.000000 0.382847 0.357023
1.000000 0.382837 0.483185
1.000000 0.382828 0.608744
1.000000 0.382818 0.733829
1.000000 0.382809 0.858526
1.000000 0.382799 0.982892
1.000000 0.508813 0.000000
1.000000 0.508806 0.101567
1.000000 0.508796 0.229931
1.000000 0.508786 0.356928
1.000000 0.508777 0.483091
1.000000 0.508767 0.608649
1.000000 0.508758 0.733734
1.000000 0.508748 0.858431
1.000000 0.508739 0.982797
1.000000 0.634182 0.000000
1.000000 0.634174 0.101473
1.000000 0.634164 0.229836
1.000000 0.634155 0.356834
1.000000 0.634145 0.482996
1.000000 0.634136 0.608555
1.000000 0.634126 0.733640
1.000000 0.634117 0.858336
1.000000 0.634107 0.982703
1.000000 0.759097 0.000000
1.000000 0.759090 0.101379
1.000000 0.759080 0.229742
1.000000 0.759070 0.356740
1.000000 0.759061 0.482902
1.000000 0.759051 0.608461
1.000000 0.759042 0.733546
1.000000 0.759032 0.858242
1.000000 0.759023 0.982609
1.000000 0.883638 0.000000
1.000000 0.883630 0.101285
1.000000 0.883620 0.229649
1.000000 0.883611 0.356646
1.000000 0.883601 0.482808
1.000000 0.883592 0.608367
1.000000 0.883582 0.733452
1.000000 0.883573 0.858149
1.000000 0.883563 0.982515
1.000000 1.000000 0.000000
1.000000 1.000000 0.101197
1.000000 1.000000 0.229561
1.000000 1.000000 0.356558
1.000000 1.000000 0.482721
1.000000 1.000000 0.608279
1.000000 1.000000 0.733365
1.000000 1.000000 0.858061
1.000000 1.000000 0.982427
