skills/creativeops-producer-ios/assets/grade/luts/warm_skin_v06.cube
TITLE "warm_skin_v06"
LUT_3D_SIZE 17
DOMAIN_MIN 0.0 0.0 0.0
DOMAIN_MAX 1.0 1.0 1.0
0.024828 0.000000 0.000000
0.024825 0.000000 0.036943
0.024820 0.000000 0.102168
0.024815 0.000000 0.166582
0.024810 0.000000 0.230532
0.024805 0.000000 0.294157
0.024800 0.000000 0.357530
0.024796 0.000000 0.420697
0.024791 0.000000 0.483692
0.024786 0.000000 0.546537
0.024781 0.000000 0.609250
0.024777 0.000000 0.671846
0.024772 0.000000 0.734336
0.024767 0.000000 0.796728
0.024762 0.000000 0.859032
0.024758 0.000000 0.921253
0.024753 0.000000 0.983398
0.024780 0.063684 0.000000
0.024777 0.063681 0.036895
0.024772 0.063676 0.102120
0.024767 0.063671 0.166534
0.024762 0.063666 0.230484
0.024757 0.063661 0.294109
0.024752 0.063657 0.357482
0.024748 0.063652 0.420649
0.024743 0.063647 0.483644
0.024738 0.063642 0.546489
0.024733 0.063637 0.609202
0.024729 0.063633 0.671798
0.024724 0.063628 0.734288
0.024719 0.063623 0.796680
0.024714 0.063619 0.858984
0.024710 0.063614 0.921206
0.024705 0.063609 0.983350
0.024731 0.128459 0.000000
0.024728 0.128456 0.036846
0.024723 0.128451 0.102072
0.024718 0.128446 0.166485
0.024713 0.128441 0.230435
0.024709 0.128437 0.294060
0.024704 0.128432 0.357433
0.024699 0.128427 0.420601
0.024694 0.128422 0.483595
0.024689 0.128417 0.546440
0.024685 0.128413 0.609154
0.024680 0.128408 0.671749
0.024675 0.128403 0.734239
0.024670 0.128398 0.796632
0.024666 0.128394 0.858935
0.024661 0.128389 0.921157
0.024656 0.128384 0.983302
0.024683 0.192616 0.000000
0.024680 0.192613 0.036798
0.024675 0.192608 0.102023
0.024670 0.192603 0.166437
0.024665 0.192599 0.230387
0.024660 0.192594 0.294012
0.024655 0.192589 0.357385
0.024651 0.192584 0.420552
0.024646 0.192579 0.483547
0.024641 0.192575 0.546392
0.024636 0.192570 0.609105
0.024632 0.192565 0.671701
0.024627 0.192560 0.734191
0.024622 0.192556 0.796583
0.024617 0.192551 0.858887
0.024613 0.192546 0.921109
0.024608 0.192541 0.983253
0.024635 0.256379 0.000000
0.024632 0.256376 0.036750
0.024627 0.256371 0.101975
0.024622 0.256366 0.166389
0.024617 0.256361 0.230339
0.024612 0.256356 0.293964
0.024607 0.256351 0.357337
0.024603 0.256347 0.420504
0.024598 0.256342 0.483499
0.024593 0.256337 0.546344
0.024588 0.256332 0.609057
0.024584 0.256328 0.671653
0.024579 0.256323 0.734143
0.024574 0.256318 0.796535
0.024569 0.256313 0.858839
0.024565 0.256309 0.921061
0.024560 0.256304 0.983205
0.024587 0.319850 0.000000
0.024584 0.319848 0.036702
0.024579 0.319843 0.101928
0.024574 0.319838 0.166341
0.024569 0.319833 0.230291
0.024564 0.319828 0.293916
0.024560 0.319823 0.357289
0.024555 0.319818 0.420456
0.024550 0.319814 0.483451
0.024545 0.319809 0.546296
0.024541 0.319804 0.609010
0.024536 0.319799 0.671605
0.024531 0.319795 0.734095
0.024526 0.319790 0.796488
0.024522 0.319785 0.858791
0.024517 0.319780 0.921013
0.024512 0.319776 0.983158
0.024539 0.383092 0.000000
0.024536 0.383089 0.036655
0.024531 0.383084 0.101880
0.024527 0.383079 0.166293
0.024522 0.383075 0.230244
0.024517 0.383070 0.293868
0.024512 0.383065 0.357241
0.024507 0.383060 0.420409
0.024503 0.383055 0.483404
0.024498 0.383051 0.546249
0.024493 0.383046 0.608962
0.024488 0.383041 0.671558
0.024483 0.383036 0.734047
0.024479 0.383032 0.796440
0.024474 0.383027 0.858744
0.024469 0.383022 0.920965
0.024465 0.383017 0.983110
0.024492 0.446143 0.000000
0.024489 0.446140 0.036607
0.024484 0.446135 0.101833
0.024479 0.446130 0.166246
0.024474 0.446126 0.230196
0.024469 0.446121 0.293821
0.024465 0.446116 0.357194
0.024460 0.446111 0.420361
0.024455 0.446106 0.483356
0.024450 0.446102 0.546201
0.024446 0.446097 0.608915
0.024441 0.446092 0.671510
0.024436 0.446087 0.734000
0.024431 0.446083 0.796393
0.024427 0.446078 0.858696
0.024422 0.446073 0.920918
0.024417 0.446068 0.983063
0.024444 0.509032 0.000000
0.024442 0.509029 0.036560
0.024437 0.509024 0.101785
0.024432 0.509019 0.166199
0.024427 0.509014 0.230149
0.024422 0.509009 0.293774
0.024417 0.509004 0.357146
0.024413 0.509000 0.420314
0.024408 0.508995 0.483309
0.024403 0.508990 0.546154
0.024398 0.508985 0.608867
0.024393 0.508981 0.671463
0.024389 0.508976 0.733953
0.024384 0.508971 0.796345
0.024379 0.508966 0.858649
0.024374 0.508962 0.920870
0.024370 0.508957 0.983015
0.024397 0.571779 0.000000
0.024394 0.571776 0.036513
0.024389 0.571771 0.101738
0.024385 0.571766 0.166151
0.024380 0.571761 0.230102
0.024375 0.571756 0.293726
0.024370 0.571751 0.357099
0.024365 0.571747 0.420267
0.024360 0.571742 0.483262
0.024356 0.571737 0.546107
0.024351 0.571732 0.608820
0.024346 0.571728 0.671416
0.024341 0.571723 0.733905
0.024337 0.571718 0.796298
0.024332 0.571713 0.858602
0.024327 0.571709 0.920823
0.024323 0.571704 0.982968
0.024350 0.634400 0.000000
0.024347 0.634397 0.036466
0.024342 0.634392 0.101691
0.024337 0.634387 0.166104
0.024333 0.634383 0.230055
0.024328 0.634378 0.293679
0.024323 0.634373 0.357052
0.024318 0.634368 0.420220
0.024313 0.634363 0.483214
0.024309 0.634359 0.546059
0.024304 0.634354 0.608773
0.024299 0.634349 0.671369
0.024294 0.634344 0.733858
0.024290 0.634340 0.796251
0.024285 0.634335 0.858555
0.024280 0.634330 0.920776
0.024275 0.634325 0.982921
0.024303 0.696909 0.000000
0.024300 0.696906 0.036419
0.024295 0.696901 0.101644
0.024290 0.696896 0.166057
0.024286 0.696891 0.230008
0.024281 0.696887 0.293632
0.024276 0.696882 0.357005
0.024271 0.696877 0.420173
0.024266 0.696872 0.483167
0.024262 0.696867 0.546012
0.024257 0.696863 0.608726
0.024252 0.696858 0.671322
0.024247 0.696853 0.733811
0.024243 0.696848 0.796204
0.024238 0.696844 0.858508
0.024233 0.696839 0.920729
0.024228 0.696834 0.982874
0.024256 0.759316 0.000000
0.024253 0.759313 0.036372
0.024248 0.759308 0.101597
0.024243 0.759303 0.166010
0.024239 0.759298 0.229961
0.024234 0.759293 0.293585
0.024229 0.759288 0.356958
0.024224 0.759284 0.420126
0.024219 0.759279 0.483120
0.024215 0.759274 0.545965
0.024210 0.759269 0.608679
0.024205 0.759265 0.671275
0.024200 0.759260 0.733764
0.024196 0.759255 0.796157
0.024191 0.759250 0.858461
0.024186 0.759246 0.920682
0.024181 0.759241 0.982827
0.024209 0.821629 0.000000
0.024206 0.821626 0.036325
0.024201 0.821621 0.101550
0.024197 0.821616 0.165963
0.024192 0.821611 0.229914
0.024187 0.821607 0.293538
0.024182 0.821602 0.356911
0.024177 0.821597 0.420079
0.024172 0.821592 0.483073
0.024168 0.821587 0.545919
0.024163 0.821583 0.608632
0.024158 0.821578 0.671228
0.024153 0.821573 0.733717
0.024149 0.821568 0.796110
0.024144 0.821564 0.858414
0.024139 0.821559 0.920635
0.024135 0.821554 0.982780
0.024162 0.883856 0.000000
0.024160 0.883853 0.036278
0.024155 0.883848 0.101503
0.024150 0.883844 0.165916
0.024145 0.883839 0.229867
0.024140 0.883834 0.293492
0.024135 0.883829 0.356864
0.024130 0.883824 0.420032
0.024126 0.883819 0.483027
0.024121 0.883815 0.545872
0.024116 0.883810 0.608585
0.024111 0.883805 0.671181
0.024107 0.883800 0.733671
0.024102 0.883796 0.796063
0.024097 0.883791 0.858367
0.024092 0.883786 0.920588
0.024088 0.883782 0.982733
0.024116 0.946004 0.000000
0.024113 0.946001 0.036231
0.024108 0.945996 0.101456
0.024103 0.945991 0.165870
0.024098 0.945986 0.229820
0.024093 0.945981 0.293445
0.024088 0.945976 0.356818
0.024084 0.945972 0.419985
0.024079 0.945967 0.482980
0.024074 0.945962 0.545825
0.024069 0.945957 0.608538
0.024065 0.945953 0.671134
0.024060 0.945948 0.733624
0.024055 0.945943 0.796016
0.024050 0.945938 0.858320
0.024046 0.945934 0.920542
0.024041 0.945929 0.982686
0.024075 1.000000 0.000000
0.024072 1.000000 0.036190
0.024067 1.000000 0.101415
0.024062 1.000000 0.165829
0.024057 1.000000 0.229779
0.024052 1.000000 0.293404
0.024048 1.000000 0.356777
0.024043 1.000000 0.419944
0.024038 1.000000 0.482939
0.024033 1.000000 0.545784
0.024028 1.000000 0.608498
0.024024 1.000000 0.671093
0.024019 1.000000 0.733583
0.024014 1.000000 0.795976
0.024009 1.000000 0.858279
0.024005 1.000000 0.920501
0.024000 1.000000 0.982646
0.090293 0.000000 0.000000
0.090290 0.000000 0.036928
0.090285 0.000000 0.102154
0.090280 0.000000 0.166567
0.090275 0.000000 0.230517
0.090270 0.000000 0.294142
0.090266 0.000000 0.357515
0.090261 0.000000 0.420683
0.090256 0.000000 0.483677
0.090251 0.000000 0.546522
0.090246 0.000000 0.609236
0.090242 0.000000 0.671832
0.090237 0.000000 0.734321
0.090232 0.000000 0.796714
0.090227 0.000000 0.859017
0.090223 0.000000 0.921239
0.090218 0.000000 0.983384
0.090245 0.063669 0.000000
0.090242 0.063666 0.036881
0.090237 0.063661 0.102106
0.090232 0.063656 0.166519
0.090227 0.063652 0.230470
0.090222 0.063647 0.294094
0.090218 0.063642 0.357467
0.090213 0.063637 0.420635
0.090208 0.063632 0.483629
0.090203 0.063628 0.546474
0.090199 0.063623 0.609188
0.090194 0.063618 0.671784
0.090189 0.063613 0.734273
0.090184 0.063609 0.796666
0.090180 0.063604 0.858970
0.090175 0.063599 0.921191
0.090170 0.063594 0.983336
0.090196 0.128444 0.000000
0.090193 0.128441 0.036832
0.090188 0.128436 0.102057
0.090183 0.128432 0.166470
0.090179 0.128427 0.230421
0.090174 0.128422 0.294045
0.090169 0.128417 0.357418
0.090164 0.128412 0.420586
0.090159 0.128407 0.483581
0.090155 0.128403 0.546426
0.090150 0.128398 0.609139
0.090145 0.128393 0.671735
0.090140 0.128388 0.734224
0.090136 0.128384 0.796617
0.090131 0.128379 0.858921
0.090126 0.128374 0.921142
0.090121 0.128370 0.983287
0.090148 0.192601 0.000000
0.090145 0.192599 0.036783
0.090140 0.192594 0.102009
0.090135 0.192589 0.166422
0.090130 0.192584 0.230373
0.090125 0.192579 0.293997
0.090121 0.192574 0.357370
0.090116 0.192569 0.420538
0.090111 0.192565 0.483532
0.090106 0.192560 0.546377
0.090101 0.192555 0.609091
0.090097 0.192550 0.671687
0.090092 0.192546 0.734176
0.090087 0.192541 0.796569
0.090083 0.192536 0.858872
0.090078 0.192531 0.921094
0.090073 0.192527 0.983239
0.090100 0.256364 0.000000
0.090097 0.256361 0.036735
0.090092 0.256356 0.101961
0.090087 0.256351 0.166374
0.090082 0.256346 0.230325
0.090077 0.256342 0.293949
0.090073 0.256337 0.357322
0.090068 0.256332 0.420490
0.090063 0.256327 0.483484
0.090058 0.256322 0.546329
0.090053 0.256318 0.609043
0.090049 0.256313 0.671639
0.090044 0.256308 0.734128
0.090039 0.256303 0.796521
0.090035 0.256299 0.858825
0.090030 0.256294 0.921046
0.090025 0.256289 0.983191
0.090052 0.319836 0.000000
0.090049 0.319833 0.036688
0.090044 0.319828 0.101913
0.090039 0.319823 0.166326
0.090034 0.319818 0.230277
0.090030 0.319813 0.293901
0.090025 0.319809 0.357274
0.090020 0.319804 0.420442
0.090015 0.319799 0.483436
0.090010 0.319794 0.546282
0.090006 0.319790 0.608995
0.090001 0.319785 0.671591
0.089996 0.319780 0.734080
0.089991 0.319775 0.796473
0.089987 0.319771 0.858777
0.089982 0.319766 0.920998
0.089977 0.319761 0.983143
0.090004 0.383077 0.000000
0.090002 0.383075 0.036640
0.089997 0.383070 0.101865
0.089992 0.383065 0.166279
0.089987 0.383060 0.230229
0.089982 0.383055 0.293854
0.089977 0.383050 0.357227
0.089972 0.383045 0.420394
0.089968 0.383041 0.483389
0.089963 0.383036 0.546234
0.089958 0.383031 0.608947
0.089953 0.383026 0.671543
0.089949 0.383022 0.734033
0.089944 0.383017 0.796425
0.089939 0.383012 0.858729
0.089934 0.383007 0.920951
0.089930 0.383003 0.983095
0.089957 0.446128 0.000000
0.089954 0.446126 0.036593
0.089949 0.446121 0.101818
0.089944 0.446116 0.166231
0.089939 0.446111 0.230182
0.089935 0.446106 0.293806
0.089930 0.446101 0.357179
0.089925 0.446096 0.420347
0.089920 0.446092 0.483341
0.089915 0.446087 0.546187
0.089911 0.446082 0.608900
0.089906 0.446077 0.671496
0.089901 0.446073 0.733985
0.089896 0.446068 0.796378
0.089892 0.446063 0.858682
0.089887 0.446058 0.920903
0.089882 0.446054 0.983048
0.089910 0.509017 0.000000
0.089907 0.509014 0.036545
0.089902 0.509009 0.101771
0.089897 0.509004 0.166184
0.089892 0.508999 0.230134
0.089887 0.508995 0.293759
0.089882 0.508990 0.357132
0.089878 0.508985 0.420299
0.089873 0.508980 0.483294
0.089868 0.508976 0.546139
0.089863 0.508971 0.608853
0.089859 0.508966 0.671448
0.089854 0.508961 0.733938
0.089849 0.508957 0.796331
0.089844 0.508952 0.858634
0.089840 0.508947 0.920856
0.089835 0.508942 0.983001
0.089862 0.571764 0.000000
0.089860 0.571761 0.036498
0.089855 0.571756 0.101723
0.089850 0.571751 0.166137
0.089845 0.571746 0.230087
0.089840 0.571742 0.293712
0.089835 0.571737 0.357085
0.089830 0.571732 0.420252
0.089826 0.571727 0.483247
0.089821 0.571722 0.546092
0.089816 0.571718 0.608805
0.089811 0.571713 0.671401
0.089807 0.571708 0.733891
0.089802 0.571703 0.796283
0.089797 0.571699 0.858587
0.089792 0.571694 0.920809
0.089788 0.571689 0.982953
0.089815 0.634385 0.000000
0.089812 0.634383 0.036451
0.089807 0.634378 0.101676
0.089803 0.634373 0.166090
0.089798 0.634368 0.230040
0.089793 0.634363 0.293665
0.089788 0.634358 0.357037
0.089783 0.634353 0.420205
0.089779 0.634349 0.483200
0.089774 0.634344 0.546045
0.089769 0.634339 0.608758
0.089764 0.634334 0.671354
0.089759 0.634330 0.733844
0.089755 0.634325 0.796236
0.089750 0.634320 0.858540
0.089745 0.634315 0.920761
0.089741 0.634311 0.982906
0.089768 0.696894 0.000000
0.089765 0.696891 0.036404
0.089760 0.696887 0.101629
0.089756 0.696882 0.166042
0.089751 0.696877 0.229993
0.089746 0.696872 0.293618
0.089741 0.696867 0.356990
0.089736 0.696862 0.420158
0.089731 0.696858 0.483153
0.089727 0.696853 0.545998
0.089722 0.696848 0.608711
0.089717 0.696843 0.671307
0.089712 0.696839 0.733797
0.089708 0.696834 0.796189
0.089703 0.696829 0.858493
0.089698 0.696824 0.920714
0.089694 0.696820 0.982859
0.089721 0.759301 0.000000
0.089718 0.759298 0.036357
0.089713 0.759293 0.101582
0.089709 0.759288 0.165996
0.089704 0.759283 0.229946
0.089699 0.759279 0.293571
0.089694 0.759274 0.356943
0.089689 0.759269 0.420111
0.089685 0.759264 0.483106
0.089680 0.759260 0.545951
0.089675 0.759255 0.608664
0.089670 0.759250 0.671260
0.089665 0.759245 0.733750
0.089661 0.759241 0.796142
0.089656 0.759236 0.858446
0.089651 0.759231 0.920667
0.089647 0.759226 0.982812
0.089674 0.821614 0.000000
0.089672 0.821611 0.036310
0.089667 0.821607 0.101535
0.089662 0.821602 0.165949
0.089657 0.821597 0.229899
0.089652 0.821592 0.293524
0.089647 0.821587 0.356896
0.089642 0.821582 0.420064
0.089638 0.821578 0.483059
0.089633 0.821573 0.545904
0.089628 0.821568 0.608617
0.089623 0.821563 0.671213
0.089619 0.821559 0.733703
0.089614 0.821554 0.796095
0.089609 0.821549 0.858399
0.089604 0.821544 0.920620
0.089600 0.821540 0.982765
0.089627 0.883842 0.000000
0.089625 0.883839 0.036263
0.089620 0.883834 0.101488
0.089615 0.883829 0.165902
0.089610 0.883824 0.229852
0.089605 0.883819 0.293477
0.089600 0.883814 0.356850
0.089596 0.883810 0.420017
0.089591 0.883805 0.483012
0.089586 0.883800 0.545857
0.089581 0.883795 0.608571
0.089576 0.883791 0.671166
0.089572 0.883786 0.733656
0.089567 0.883781 0.796049
0.089562 0.883776 0.858352
0.089558 0.883772 0.920574
0.089553 0.883767 0.982719
0.089581 0.945989 0.000000
0.089578 0.945986 0.036216
0.089573 0.945981 0.101442
0.089568 0.945976 0.165855
0.089563 0.945971 0.229806
0.089558 0.945967 0.293430
0.089554 0.945962 0.356803
0.089549 0.945957 0.419971
0.089544 0.945952 0.482965
0.089539 0.945947 0.545810
0.089534 0.945943 0.608524
0.089530 0.945938 0.671120
0.089525 0.945933 0.733609
0.089520 0.945928 0.796002
0.089516 0.945924 0.858305
0.089511 0.945919 0.920527
0.089506 0.945914 0.982672
0.089540 1.000000 0.000000
0.089537 1.000000 0.036176
0.089532 1.000000 0.101401
0.089527 1.000000 0.165814
0.089522 1.000000 0.229765
0.089518 1.000000 0.293389
0.089513 1.000000 0.356762
0.089508 1.000000 0.419930
0.089503 1.000000 0.482924
0.089498 1.000000 0.545769
0.089494 1.000000 0.608483
0.089489 1.000000 0.671079
0.089484 1.000000 0.733568
0.089479 1.000000 0.795961
0.089475 1.000000 0.858265
0.089470 1.000000 0.920486
0.089465 1.000000 0.982631
0.154807 0.000000 0.000000
0.154804 0.000000 0.036914
0.154799 0.000000 0.102139
0.154794 0.000000 0.166553
0.154789 0.000000 0.230503
0.154785 0.000000 0.294128
0.154780 0.000000 0.357500
0.154775 0.000000 0.420668
0.154770 0.000000 0.483663
0.154765 0.000000 0.546508
0.154761 0.000000 0.609221
0.154756 0.000000 0.671817
0.154751 0.000000 0.734307
0.154746 0.000000 0.796699
0.154742 0.000000 0.859003
0.154737 0.000000 0.921224
0.154732 0.000000 0.983369
0.154759 0.063655 0.000000
0.154756 0.063652 0.036866
0.154751 0.063647 0.102091
0.154746 0.063642 0.166505
0.154741 0.063637 0.230455
0.154737 0.063632 0.294080
0.154732 0.063628 0.357453
0.154727 0.063623 0.420620
0.154722 0.063618 0.483615
0.154717 0.063613 0.546460
0.154713 0.063608 0.609173
0.154708 0.063604 0.671769
0.154703 0.063599 0.734259
0.154698 0.063594 0.796651
0.154694 0.063589 0.858955
0.154689 0.063585 0.921177
0.154684 0.063580 0.983321
0.154710 0.128430 0.000000
0.154707 0.128427 0.036817
0.154702 0.128422 0.102043
0.154698 0.128417 0.166456
0.154693 0.128412 0.230406
0.154688 0.128407 0.294031
0.154683 0.128403 0.357404
0.154678 0.128398 0.420571
0.154674 0.128393 0.483566
0.154669 0.128388 0.546411
0.154664 0.128384 0.609125
0.154659 0.128379 0.671720
0.154654 0.128374 0.734210
0.154650 0.128369 0.796603
0.154645 0.128365 0.858906
0.154640 0.128360 0.921128
0.154636 0.128355 0.983273
0.154662 0.192587 0.000000
0.154659 0.192584 0.036769
0.154654 0.192579 0.101994
0.154649 0.192574 0.166408
0.154644 0.192569 0.230358
0.154640 0.192565 0.293983
0.154635 0.192560 0.357355
0.154630 0.192555 0.420523
0.154625 0.192550 0.483518
0.154620 0.192545 0.546363
0.154616 0.192541 0.609076
0.154611 0.192536 0.671672
0.154606 0.192531 0.734162
0.154601 0.192526 0.796554
0.154597 0.192522 0.858858
0.154592 0.192517 0.921079
0.154587 0.192512 0.983224
0.154614 0.256350 0.000000
0.154611 0.256347 0.036721
0.154606 0.256342 0.101946
0.154601 0.256337 0.166360
0.154596 0.256332 0.230310
0.154592 0.256327 0.293935
0.154587 0.256322 0.357307
0.154582 0.256318 0.420475
0.154577 0.256313 0.483470
0.154572 0.256308 0.546315
0.154568 0.256303 0.609028
0.154563 0.256299 0.671624
0.154558 0.256294 0.734114
0.154553 0.256289 0.796506
0.154549 0.256284 0.858810
0.154544 0.256280 0.921031
0.154539 0.256275 0.983176
0.154566 0.319821 0.000000
0.154563 0.319819 0.036673
0.154558 0.319814 0.101899
0.154554 0.319809 0.166312
0.154549 0.319804 0.230262
0.154544 0.319799 0.293887
0.154539 0.319794 0.357260
0.154534 0.319789 0.420427
0.154529 0.319785 0.483422
0.154525 0.319780 0.546267
0.154520 0.319775 0.608981
0.154515 0.319770 0.671576
0.154510 0.319766 0.734066
0.154506 0.319761 0.796459
0.154501 0.319756 0.858762
0.154496 0.319751 0.920984
0.154492 0.319747 0.983129
0.154519 0.383063 0.000000
0.154516 0.383060 0.036626
0.154511 0.383055 0.101851
0.154506 0.383050 0.166264
0.154501 0.383045 0.230215
0.154496 0.383041 0.293839
0.154491 0.383036 0.357212
0.154487 0.383031 0.420380
0.154482 0.383026 0.483374
0.154477 0.383021 0.546220
0.154472 0.383017 0.608933
0.154468 0.383012 0.671529
0.154463 0.383007 0.734018
0.154458 0.383002 0.796411
0.154453 0.382998 0.858715
0.154449 0.382993 0.920936
0.154444 0.382988 0.983081
0.154471 0.446114 0.000000
0.154468 0.446111 0.036578
0.154463 0.446106 0.101803
0.154458 0.446101 0.166217
0.154454 0.446097 0.230167
0.154449 0.446092 0.293792
0.154444 0.446087 0.357165
0.154439 0.446082 0.420332
0.154434 0.446077 0.483327
0.154430 0.446073 0.546172
0.154425 0.446068 0.608886
0.154420 0.446063 0.671481
0.154415 0.446058 0.733971
0.154411 0.446054 0.796364
0.154406 0.446049 0.858667
0.154401 0.446044 0.920889
0.154396 0.446039 0.983034
0.154424 0.509003 0.000000
0.154421 0.509000 0.036531
0.154416 0.508995 0.101756
0.154411 0.508990 0.166169
0.154406 0.508985 0.230120
0.154401 0.508980 0.293745
0.154397 0.508975 0.357117
0.154392 0.508971 0.420285
0.154387 0.508966 0.483280
0.154382 0.508961 0.546125
0.154378 0.508956 0.608838
0.154373 0.508952 0.671434
0.154368 0.508947 0.733924
0.154363 0.508942 0.796316
0.154359 0.508937 0.858620
0.154354 0.508933 0.920841
0.154349 0.508928 0.982986
0.154377 0.571750 0.000000
0.154374 0.571747 0.036484
0.154369 0.571742 0.101709
0.154364 0.571737 0.166122
0.154359 0.571732 0.230073
0.154354 0.571727 0.293697
0.154349 0.571722 0.357070
0.154345 0.571718 0.420238
0.154340 0.571713 0.483232
0.154335 0.571708 0.546078
0.154330 0.571703 0.608791
0.154326 0.571699 0.671387
0.154321 0.571694 0.733876
0.154316 0.571689 0.796269
0.154311 0.571684 0.858573
0.154307 0.571680 0.920794
0.154302 0.571675 0.982939
0.154329 0.634371 0.000000
0.154327 0.634368 0.036437
0.154322 0.634363 0.101662
0.154317 0.634358 0.166075
0.154312 0.634353 0.230026
0.154307 0.634349 0.293650
0.154302 0.634344 0.357023
0.154298 0.634339 0.420191
0.154293 0.634334 0.483185
0.154288 0.634329 0.546030
0.154283 0.634325 0.608744
0.154278 0.634320 0.671340
0.154274 0.634315 0.733829
0.154269 0.634310 0.796222
0.154264 0.634306 0.858526
0.154259 0.634301 0.920747
0.154255 0.634296 0.982892
0.154282 0.696880 0.000000
0.154280 0.696877 0.036390
0.154275 0.696872 0.101615
0.154270 0.696867 0.166028
0.154265 0.696862 0.229979
0.154260 0.696858 0.293603
0.154255 0.696853 0.356976
0.154250 0.696848 0.420144
0.154246 0.696843 0.483138
0.154241 0.696838 0.545983
0.154236 0.696834 0.608697
0.154231 0.696829 0.671293
0.154227 0.696824 0.733782
0.154222 0.696819 0.796175
0.154217 0.696815 0.858479
0.154212 0.696810 0.920700
0.154208 0.696805 0.982845
0.154235 0.759287 0.000000
0.154233 0.759284 0.036343
0.154228 0.759279 0.101568
0.154223 0.759274 0.165981
0.154218 0.759269 0.229932
0.154213 0.759264 0.293556
0.154208 0.759259 0.356929
0.154203 0.759255 0.420097
0.154199 0.759250 0.483091
0.154194 0.759245 0.545936
0.154189 0.759240 0.608650
0.154184 0.759236 0.671246
0.154180 0.759231 0.733735
0.154175 0.759226 0.796128
0.154170 0.759221 0.858432
0.154165 0.759217 0.920653
0.154161 0.759212 0.982798
0.154189 0.821600 0.000000
0.154186 0.821597 0.036296
0.154181 0.821592 0.101521
0.154176 0.821587 0.165934
0.154171 0.821582 0.229885
0.154166 0.821578 0.293509
0.154161 0.821573 0.356882
0.154157 0.821568 0.420050
0.154152 0.821563 0.483044
0.154147 0.821558 0.545890
0.154142 0.821554 0.608603
0.154138 0.821549 0.671199
0.154133 0.821544 0.733688
0.154128 0.821539 0.796081
0.154123 0.821535 0.858385
0.154119 0.821530 0.920606
0.154114 0.821525 0.982751
0.154142 0.883827 0.000000
0.154139 0.883824 0.036249
0.154134 0.883819 0.101474
0.154129 0.883814 0.165887
0.154124 0.883810 0.229838
0.154119 0.883805 0.293462
0.154115 0.883800 0.356835
0.154110 0.883795 0.420003
0.154105 0.883790 0.482998
0.154100 0.883786 0.545843
0.154095 0.883781 0.608556
0.154091 0.883776 0.671152
0.154086 0.883771 0.733641
0.154081 0.883767 0.796034
0.154076 0.883762 0.858338
0.154072 0.883757 0.920559
0.154067 0.883752 0.982704
0.154095 0.945975 0.000000
0.154092 0.945972 0.036202
0.154087 0.945967 0.101427
0.154082 0.945962 0.165841
0.154077 0.945957 0.229791
0.154073 0.945952 0.293416
0.154068 0.945947 0.356788
0.154063 0.945943 0.419956
0.154058 0.945938 0.482951
0.154053 0.945933 0.545796
0.154049 0.945928 0.608509
0.154044 0.945924 0.671105
0.154039 0.945919 0.733595
0.154034 0.945914 0.795987
0.154030 0.945909 0.858291
0.154025 0.945905 0.920512
0.154020 0.945900 0.982657
0.154054 1.000000 0.000000
0.154051 1.000000 0.036161
0.154046 1.000000 0.101386
0.154041 1.000000 0.165800
0.154037 1.000000 0.229750
0.154032 1.000000 0.293375
0.154027 1.000000 0.356748
0.154022 1.000000 0.419915
0.154017 1.000000 0.482910
0.154013 1.000000 0.545755
0.154008 1.000000 0.608468
0.154003 1.000000 0.671064
0.153998 1.000000 0.733554
0.153994 1.000000 0.795946
0.153989 1.000000 0.858250
0.153984 1.000000 0.920472
0.153979 1.000000 0.982616
0.218820 0.000000 0.000000
0.218817 0.000000 0.036900
0.218812 0.000000 0.102125
0.218807 0.000000 0.166538
0.218802 0.000000 0.230489
0.218797 0.000000 0.294113
0.218792 0.000000 0.357486
0.218788 0.000000 0.420654
0.218783 0.000000 0.483648
0.218778 0.000000 0.546494
0.218773 0.000000 0.609207
0.218769 0.000000 0.671803
0.218764 0.000000 0.734292
0.218759 0.000000 0.796685
0.218754 0.000000 0.858989
0.218750 0.000000 0.921210
0.218745 0.000000 0.983355
0.218772 0.063640 0.000000
