skills/creativeops-producer-ios/assets/grade/luts/warm_skin_v06.cube
TITLE "warm_skin_v06"
LUT_3D_SIZE 5
DOMAIN_MIN 0.0 0.0 0.0
DOMAIN_MAX 1.0 1.0 1.0
0.024828 0.000000 0.000000
0.024810 0.000000 0.230532
0.024791 0.000000 0.483692
0.024772 0.000000 0.734336
0.024753 0.000000 0.983398
0.024635 0.256379 0.000000
0.024617 0.256361 0.230339
0.024598 0.256342 0.483499
0.024579 0.256323 0.734143
0.024560 0.256304 0.983205
0.024444 0.509032 0.000000
0.024427 0.509014 0.230149
0.024408 0.508995 0.483309
0.024389 0.508976 0.733953
0.024370 0.508957 0.983015
0.024256 0.759316 0.000000
0.024239 0.759298 0.229961
0.024219 0.759279 0.483120
0.024200 0.759260 0.733764
0.024181 0.759241 0.982827
0.024075 1.000000 0.000000
0.024057 1.000000 0.229779
0.024038 1.000000 0.482939
0.024019 1.000000 0.733583
0.024000 1.000000 0.982646
0.282488 0.000000 0.000000
0.282470 0.000000 0.230475
0.282451 0.000000 0.483634
0.282432 0.000000 0.734278
0.282413 0.000000 0.983341
0.282295 0.256321 0.000000
0.282277 0.256303 0.230282
0.282258 0.256284 0.483441
0.282239 0.256265 0.734085
0.282220 0.256246 0.983148
0.282105 0.508974 0.000000
0.282087 0.508957 0.230091
0.282068 0.508937 0.483251
0.282049 0.508918 0.733895
0.282030 0.508899 0.982958
0.281916 0.759258 0.000000
0.281899 0.759241 0.229903
0.281880 0.759221 0.483063
0.281861 0.759202 0.733707
0.281842 0.759183 0.982769
0.281735 1.000000 0.000000
0.281717 1.000000 0.229722
0.281698 1.000000 0.482881
0.281679 1.000000 0.733525
0.281660 1.000000 0.982588
0.534963 0.000000 0.000000
0.534946 0.000000 0.230418
0.534927 0.000000 0.483578
0.534907 0.000000 0.734222
0.534889 0.000000 0.983284
0.534770 0.256265 0.000000
0.534753 0.256247 0.230225
0.534734 0.256228 0.483385
0.534715 0.256209 0.734029
0.534696 0.256190 0.983091
0.534580 0.508918 0.000000
0.534563 0.508900 0.230035
0.534543 0.508881 0.483195
0.534524 0.508862 0.733839
0.534505 0.508843 0.982901
0.534392 0.759202 0.000000
0.534374 0.759184 0.229847
0.534355 0.759165 0.483006
0.534336 0.759146 0.733650
0.534317 0.759127 0.982713
0.534210 1.000000 0.000000
0.534193 1.000000 0.229665
0.534174 1.000000 0.482825
0.534155 1.000000 0.733469
0.534136 1.000000 0.982531
0.785197 0.000000 0.000000
0.785180 0.000000 0.230362
0.785160 0.000000 0.483522
0.785141 0.000000 0.734166
0.785122 0.000000 0.983228
0.785004 0.256209 0.000000
0.784987 0.256191 0.230169
0.784967 0.256172 0.483329
0.784948 0.256153 0.733973
0.784930 0.256134 0.983035
0.784814 0.508862 0.000000
0.784797 0.508844 0.229979
0.784777 0.508825 0.483139
0.784758 0.508806 0.733783
0.784739 0.508787 0.982845
0.784626 0.759146 0.000000
0.784608 0.759128 0.229791
0.784589 0.759109 0.482950
0.784570 0.759090 0.733594
0.784551 0.759071 0.982657
0.784444 1.000000 0.000000
0.784427 1.000000 0.229609
0.784408 1.000000 0.482769
0.784389 1.000000 0.733413
0.784370 1.000000 0.982475
1.000000 0.000000 0.000000
1.000000 0.000000 0.230314
1.000000 0.000000 0.483474
1.000000 0.000000 0.734117
1.000000 0.000000 0.983180
1.000000 0.256160 0.000000
1.000000 0.256143 0.230121
1.000000 0.256124 0.483281
1.000000 0.256105 0.733925
1.000000 0.256086 0.982987
1.000000 0.508813 0.000000
1.000000 0.508796 0.229931
1.000000 0.508777 0.483091
1.000000 0.508758 0.733734
1.000000 0.508739 0.982797
1.000000 0.759097 0.000000
1.000000 0.759080 0.229742
1.000000 0.759061 0.482902
1.000000 0.759042 0.733546
1.000000 0.759023 0.982609
1.000000 1.000000 0.000000
1.000000 1.000000 0.229561
1.000000 1.000000 0.482721
1.000000 1.000000 0.733365
1.000000 1.000000 0.982427
