skills/editops-orchestrator/assets/grade/luts/ad_warm_v10.cube
TITLE "ad_warm_v10"
LUT_3D_SIZE 5
DOMAIN_MIN 0.0 0.0 0.0
DOMAIN_MAX 1.0 1.0 1.0
0.028616 0.000000 0.000000
0.027503 0.000000 0.242728
0.026262 0.000000 0.513828
0.025037 0.000000 0.781242
0.023824 0.000000 1.000000
0.016155 0.263197 0.000000
0.015042 0.262084 0.230267
0.013801 0.260843 0.501367
0.012576 0.259618 0.768781
0.011363 0.258405 1.000000
0.003886 0.522709 0.000000
0.002773 0.521596 0.217999
0.001532 0.520355 0.489099
0.000308 0.519131 0.756513
0.000000 0.517917 1.000000
0.000000 0.778919 0.000000
0.000000 0.777806 0.205887
0.000000 0.776565 0.476986
0.000000 0.775341 0.744400
0.000000 0.774127 1.000000
0.000000 1.000000 0.000000
0.000000 1.000000 0.194546
0.000000 1.000000 0.465646
0.000000 1.000000 0.733060
0.000000 1.000000 0.998176
0.303642 0.000000 0.000000
0.302529 0.000000 0.238988
0.301288 0.000000 0.510088
0.300064 0.000000 0.777501
0.298850 0.000000 1.000000
0.291181 0.259456 0.000000
0.290068 0.258343 0.226527
0.288827 0.257102 0.497627
0.287603 0.255878 0.765040
0.286389 0.254664 1.000000
0.278913 0.518968 0.000000
0.277800 0.517855 0.214258
0.276559 0.516614 0.485358
0.275335 0.515390 0.752772
0.274121 0.514176 1.000000
0.266801 0.775178 0.000000
0.265688 0.774066 0.202146
0.264447 0.772824 0.473246
0.263222 0.771600 0.740660
0.262009 0.770387 1.000000
0.255460 1.000000 0.000000
0.254347 1.000000 0.190806
0.253106 1.000000 0.461906
0.251882 1.000000 0.729319
0.250669 1.000000 0.994435
0.571269 0.000000 0.000000
0.570156 0.000000 0.235348
0.568915 0.000000 0.506448
0.567691 0.000000 0.773861
0.566477 0.000000 1.000000
0.558808 0.255816 0.000000
0.557695 0.254703 0.222887
0.556454 0.253462 0.493987
0.555230 0.252238 0.761400
0.554016 0.251024 1.000000
0.546540 0.515328 0.000000
0.545427 0.514215 0.210618
0.544186 0.512974 0.481718
0.542962 0.511750 0.749132
0.541748 0.510536 1.000000
0.534427 0.771538 0.000000
0.533314 0.770426 0.198506
0.532073 0.769184 0.469606
0.530849 0.767960 0.737020
0.529636 0.766747 1.000000
0.523087 1.000000 0.000000
0.521974 1.000000 0.187166
0.520733 1.000000 0.458266
0.519509 1.000000 0.725679
0.518295 1.000000 0.990795
0.835695 0.000000 0.000000
0.834582 0.000000 0.231751
0.833341 0.000000 0.502851
0.832117 0.000000 0.770265
0.830903 0.000000 1.000000
0.823234 0.252219 0.000000
0.822121 0.251106 0.219290
0.820880 0.249865 0.490390
0.819656 0.248641 0.757804
0.818442 0.247428 1.000000
0.810966 0.511732 0.000000
0.809853 0.510619 0.207022
0.808612 0.509378 0.478122
0.807388 0.508153 0.745535
0.806174 0.506940 1.000000
0.798854 0.767942 0.000000
0.797741 0.766829 0.194909
0.796500 0.765588 0.466009
0.795275 0.764364 0.733423
0.794062 0.763150 0.998539
0.787513 1.000000 0.000000
0.786400 1.000000 0.183569
0.785159 1.000000 0.454669
0.783935 1.000000 0.722083
0.782722 1.000000 0.987199
1.000000 0.000000 0.000000
1.000000 0.000000 0.228795
1.000000 0.000000 0.499895
1.000000 0.000000 0.767309
1.000000 0.000000 1.000000
1.000000 0.249263 0.000000
1.000000 0.248150 0.216334
1.000000 0.246909 0.487434
1.000000 0.245685 0.754848
1.000000 0.244471 1.000000
1.000000 0.508775 0.000000
1.000000 0.507662 0.204066
1.000000 0.506421 0.475165
1.000000 0.505197 0.742579
1.000000 0.503984 1.000000
1.000000 0.764986 0.000000
1.000000 0.763873 0.191953
1.000000 0.762632 0.463053
1.000000 0.761408 0.730467
1.000000 0.760194 0.995583
1.000000 1.000000 0.000000
1.000000 1.000000 0.180613
1.000000 1.000000 0.451713
1.000000 1.000000 0.719127
1.000000 1.000000 0.984243
