skills/editops-orchestrator/assets/grade/luts/ad_warm_v11.cube
TITLE "ad_warm_v11"
LUT_3D_SIZE 5
DOMAIN_MIN 0.0 0.0 0.0
DOMAIN_MAX 1.0 1.0 1.0
0.030826 0.000000 0.000000
0.029635 0.000000 0.242001
0.028294 0.000000 0.514974
0.026973 0.000000 0.783972
0.025663 0.000000 1.000000
0.017361 0.264123 0.000000
0.016170 0.262932 0.228536
0.014829 0.261591 0.501509
0.013508 0.260269 0.770507
0.012198 0.258960 1.000000
0.004108 0.524537 0.000000
0.002917 0.523345 0.215282
0.001576 0.522004 0.488256
0.000254 0.520683 0.757253
0.000000 0.519373 1.000000
0.000000 0.781418 0.000000
0.000000 0.780227 0.202209
0.000000 0.778886 0.475182
0.000000 0.777565 0.744180
0.000000 0.776255 1.000000
0.000000 1.000000 0.000000
0.000000 1.000000 0.190054
0.000000 1.000000 0.463028
0.000000 1.000000 0.732025
0.000000 1.000000 0.998552
0.307826 0.000000 0.000000
0.306635 0.000000 0.237955
0.305294 0.000000 0.510928
0.303972 0.000000 0.779926
0.302663 0.000000 1.000000
0.294361 0.260077 0.000000
0.293170 0.258886 0.224490
0.291829 0.257545 0.497463
0.290507 0.256223 0.766461
0.289198 0.254914 1.000000
0.281108 0.520491 0.000000
0.279917 0.519300 0.211236
0.278576 0.517958 0.484210
0.277254 0.516637 0.753207
0.275945 0.515328 1.000000
0.268034 0.777373 0.000000
0.266843 0.776181 0.198163
0.265502 0.774840 0.471137
0.264180 0.773519 0.740134
0.262871 0.772209 1.000000
0.255880 1.000000 0.000000
0.254689 1.000000 0.186009
0.253348 1.000000 0.458982
0.252026 1.000000 0.727980
0.250717 1.000000 0.994506
0.576972 0.000000 0.000000
0.575781 0.000000 0.234024
0.574439 0.000000 0.506997
0.573118 0.000000 0.775994
0.571808 0.000000 1.000000
0.563507 0.256146 0.000000
0.562315 0.254955 0.220558
0.560974 0.253614 0.493532
0.559653 0.252292 0.762529
0.558343 0.250983 1.000000
0.550253 0.516560 0.000000
0.549062 0.515368 0.207305
0.547721 0.514027 0.480279
0.546400 0.512706 0.749276
0.545090 0.511396 1.000000
0.537180 0.773441 0.000000
0.535989 0.772250 0.194232
0.534648 0.770909 0.467205
0.533326 0.769588 0.736203
0.532017 0.768278 1.000000
0.525026 1.000000 0.000000
0.523834 1.000000 0.182077
0.522493 1.000000 0.455051
0.521172 1.000000 0.724048
0.519862 1.000000 0.990575
0.842701 0.000000 0.000000
0.841510 0.000000 0.230142
0.840169 0.000000 0.503116
0.838847 0.000000 0.772113
0.837538 0.000000 1.000000
0.829236 0.252265 0.000000
0.828045 0.251074 0.216677
0.826704 0.249733 0.489651
0.825382 0.248411 0.758648
0.824073 0.247102 1.000000
0.815983 0.512678 0.000000
0.814792 0.511487 0.203424
0.813450 0.510146 0.476398
0.812129 0.508824 0.745395
0.810820 0.507515 1.000000
0.802909 0.769560 0.000000
0.801718 0.768369 0.190350
0.800377 0.767028 0.463324
0.799055 0.765706 0.732321
0.797746 0.764397 0.998848
0.790755 1.000000 0.000000
0.789564 1.000000 0.178196
0.788223 1.000000 0.451170
0.786901 1.000000 0.720167
0.785592 1.000000 0.986693
1.000000 0.000000 0.000000
1.000000 0.000000 0.227009
1.000000 0.000000 0.499983
1.000000 0.000000 0.768980
1.000000 0.000000 1.000000
1.000000 0.249132 0.000000
1.000000 0.247941 0.213544
1.000000 0.246600 0.486518
1.000000 0.245278 0.755515
1.000000 0.243969 1.000000
1.000000 0.509545 0.000000
1.000000 0.508354 0.200291
1.000000 0.507013 0.473265
1.000000 0.505692 0.742262
1.000000 0.504382 1.000000
1.000000 0.766427 0.000000
1.000000 0.765236 0.187217
1.000000 0.763895 0.460191
1.000000 0.762573 0.729188
1.000000 0.761264 0.995715
1.000000 1.000000 0.000000
1.000000 1.000000 0.175063
1.000000 1.000000 0.448037
1.000000 1.000000 0.717034
1.000000 1.000000 0.983561
