skills/editops-orchestrator/assets/grade/luts/ad_warm_v16.cube
TITLE "ad_warm_v16"
LUT_3D_SIZE 17
DOMAIN_MIN 0.0 0.0 0.0
DOMAIN_MAX 1.0 1.0 1.0
0.042524 0.000000 0.000000
0.042409 0.000000 0.016741
0.041914 0.000000 0.092444
0.041435 0.000000 0.165738
0.040962 0.000000 0.237885
0.040495 0.000000 0.309268
0.040032 0.000000 0.380077
0.039572 0.000000 0.450428
0.039114 0.000000 0.520397
0.038658 0.000000 0.590038
0.038204 0.000000 0.659395
0.037752 0.000000 0.728497
0.037302 0.000000 0.797372
0.036852 0.000000 0.866040
0.036404 0.000000 0.934519
0.035957 0.000000 1.000000
0.035511 0.000000 1.000000
0.038095 0.063526 0.000000
0.037980 0.063411 0.012312
0.037485 0.062915 0.088014
0.037005 0.062436 0.161308
0.036533 0.061964 0.233456
0.036066 0.061496 0.304838
0.035603 0.061033 0.375648
0.035142 0.060573 0.445998
0.034684 0.060115 0.515967
0.034229 0.059659 0.585609
0.033775 0.059205 0.654965
0.033323 0.058753 0.724068
0.032872 0.058303 0.792943
0.032423 0.057853 0.861611
0.031975 0.057405 0.930089
0.031528 0.056958 0.998394
0.031082 0.056512 1.000000
0.033308 0.133075 0.000000
0.033193 0.132960 0.007525
0.032698 0.132465 0.083227
0.032218 0.131985 0.156521
0.031746 0.131513 0.228669
0.031279 0.131046 0.300052
0.030816 0.130583 0.370861
0.030355 0.130122 0.441211
0.029898 0.129664 0.511180
0.029442 0.129209 0.580822
0.028988 0.128755 0.650178
0.028536 0.128303 0.719281
0.028085 0.127852 0.788156
0.027636 0.127403 0.856824
0.027188 0.126955 0.925302
0.026741 0.126508 0.993607
0.026295 0.126062 1.000000
0.028611 0.201324 0.000000
0.028496 0.201209 0.002828
0.028000 0.200713 0.078530
0.027521 0.200234 0.151824
0.027049 0.199762 0.223971
0.026582 0.199295 0.295354
0.026118 0.198831 0.366163
0.025658 0.198371 0.436514
0.025200 0.197913 0.506483
0.024744 0.197457 0.576125
0.024291 0.197004 0.645481
0.023838 0.196552 0.714583
0.023388 0.196101 0.783458
0.022939 0.195652 0.852126
0.022490 0.195203 0.920605
0.022043 0.194757 0.988909
0.021598 0.194311 1.000000
0.023969 0.268762 0.000000
0.023854 0.268647 0.000000
0.023359 0.268152 0.073888
0.022879 0.267672 0.147182
0.022407 0.267200 0.219330
0.021940 0.266733 0.290712
0.021477 0.266270 0.361522
0.021016 0.265810 0.431872
0.020559 0.265352 0.501841
0.020103 0.264896 0.571483
0.019649 0.264442 0.640839
0.019197 0.263990 0.709942
0.018746 0.263540 0.778817
0.018297 0.263090 0.847485
0.017849 0.262642 0.915963
0.017402 0.262195 0.984268
0.016956 0.261749 1.000000
0.019368 0.335612 0.000000
0.019253 0.335497 0.000000
0.018758 0.335001 0.069287
0.018278 0.334522 0.142581
0.017806 0.334050 0.214729
0.017339 0.333583 0.286111
0.016876 0.333119 0.356921
0.016415 0.332659 0.427271
0.015957 0.332201 0.497240
0.015502 0.331745 0.566882
0.015048 0.331292 0.636238
0.014596 0.330839 0.705341
0.014145 0.330389 0.774216
0.013696 0.329939 0.842884
0.013248 0.329491 0.911362
0.012801 0.329044 0.979666
0.012355 0.328599 1.000000
0.014799 0.401998 0.000000
0.014684 0.401883 0.000000
0.014188 0.401388 0.064718
0.013709 0.400908 0.138012
0.013237 0.400436 0.210159
0.012770 0.399969 0.281542
0.012306 0.399505 0.352351
0.011846 0.399045 0.422702
0.011388 0.398587 0.492671
0.010933 0.398132 0.562313
0.010479 0.397678 0.631669
0.010027 0.397226 0.700772
0.009576 0.396775 0.769646
0.009127 0.396326 0.838314
0.008679 0.395878 0.906793
0.008232 0.395431 0.975097
0.007786 0.394985 1.000000
0.010256 0.468003 0.000000
0.010141 0.467888 0.000000
0.009645 0.467393 0.060175
0.009166 0.466913 0.133469
0.008694 0.466441 0.205616
0.008227 0.465974 0.276999
0.007763 0.465511 0.347809
0.007303 0.465050 0.418159
0.006845 0.464593 0.488128
0.006390 0.464137 0.557770
0.005936 0.463683 0.627126
0.005484 0.463231 0.696229
0.005033 0.462780 0.765103
0.004584 0.462331 0.833771
0.004136 0.461883 0.902250
0.003689 0.461436 0.970554
0.003243 0.460990 1.000000
0.005735 0.533685 0.000000
0.005620 0.533570 0.000000
0.005125 0.533075 0.055654
0.004645 0.532595 0.128948
0.004173 0.532123 0.201096
0.003706 0.531656 0.272479
0.003243 0.531192 0.343288
0.002782 0.530732 0.413638
0.002325 0.530274 0.483607
0.001869 0.529819 0.553249
0.001415 0.529365 0.622605
0.000963 0.528913 0.691708
0.000512 0.528462 0.760583
0.000063 0.528013 0.829251
0.000000 0.527565 0.897729
0.000000 0.527118 0.966034
0.000000 0.526672 1.000000
0.001234 0.599086 0.000000
0.001119 0.598971 0.000000
0.000623 0.598475 0.051153
0.000144 0.597996 0.124447
0.000000 0.597524 0.196594
0.000000 0.597057 0.267977
0.000000 0.596593 0.338786
0.000000 0.596133 0.409137
0.000000 0.595675 0.479106
0.000000 0.595219 0.548748
0.000000 0.594766 0.618104
0.000000 0.594314 0.687206
0.000000 0.593863 0.756081
0.000000 0.593414 0.824749
0.000000 0.592965 0.893228
0.000000 0.592519 0.961532
0.000000 0.592073 1.000000
0.000000 0.664238 0.000000
0.000000 0.664124 0.000000
0.000000 0.663628 0.046668
0.000000 0.663149 0.119963
0.000000 0.662677 0.192110
0.000000 0.662209 0.263493
0.000000 0.661746 0.334302
0.000000 0.661286 0.404653
0.000000 0.660828 0.474621
0.000000 0.660372 0.544263
0.000000 0.659918 0.613619
0.000000 0.659466 0.682722
0.000000 0.659016 0.751597
0.000000 0.658566 0.820265
0.000000 0.658118 0.888744
0.000000 0.657671 0.957048
0.000000 0.657225 1.000000
0.000000 0.729169 0.000000
0.000000 0.729054 0.000000
0.000000 0.728559 0.042199
0.000000 0.728079 0.115494
0.000000 0.727607 0.187641
0.000000 0.727140 0.259024
0.000000 0.726677 0.329833
0.000000 0.726216 0.400184
0.000000 0.725759 0.470152
0.000000 0.725303 0.539794
0.000000 0.724849 0.609150
0.000000 0.724397 0.678253
0.000000 0.723946 0.747128
0.000000 0.723497 0.815796
0.000000 0.723049 0.884275
0.000000 0.722602 0.952579
0.000000 0.722156 1.000000
0.000000 0.793899 0.000000
0.000000 0.793784 0.000000
0.000000 0.793289 0.037744
0.000000 0.792809 0.111039
0.000000 0.792337 0.183186
0.000000 0.791870 0.254569
0.000000 0.791406 0.325378
0.000000 0.790946 0.395729
0.000000 0.790488 0.465697
0.000000 0.790033 0.535339
0.000000 0.789579 0.604695
0.000000 0.789127 0.673798
0.000000 0.788676 0.742673
0.000000 0.788227 0.811341
0.000000 0.787779 0.879819
0.000000 0.787332 0.948124
0.000000 0.786886 1.000000
0.000000 0.858445 0.000000
0.000000 0.858330 0.000000
0.000000 0.857835 0.033302
0.000000 0.857355 0.106596
0.000000 0.856883 0.178743
0.000000 0.856416 0.250126
0.000000 0.855953 0.320935
0.000000 0.855492 0.391286
0.000000 0.855035 0.461255
0.000000 0.854579 0.530897
0.000000 0.854125 0.600253
0.000000 0.853673 0.669355
0.000000 0.853222 0.738230
0.000000 0.852773 0.806898
0.000000 0.852325 0.875377
0.000000 0.851878 0.943681
0.000000 0.851432 1.000000
0.000000 0.922823 0.000000
0.000000 0.922708 0.000000
0.000000 0.922212 0.028871
0.000000 0.921733 0.102165
0.000000 0.921261 0.174312
0.000000 0.920793 0.245695
0.000000 0.920330 0.316504
0.000000 0.919870 0.386855
0.000000 0.919412 0.456824
0.000000 0.918956 0.526466
0.000000 0.918503 0.595822
0.000000 0.918050 0.664924
0.000000 0.917600 0.733799
0.000000 0.917150 0.802467
0.000000 0.916702 0.870946
0.000000 0.916255 0.939250
0.000000 0.915809 1.000000
0.000000 0.987044 0.000000
0.000000 0.986929 0.000000
0.000000 0.986434 0.024451
0.000000 0.985954 0.097745
0.000000 0.985482 0.169892
0.000000 0.985015 0.241275
0.000000 0.984551 0.312084
0.000000 0.984091 0.382435
0.000000 0.983633 0.452404
0.000000 0.983178 0.522045
0.000000 0.982724 0.591402
0.000000 0.982272 0.660504
0.000000 0.981821 0.729379
0.000000 0.981372 0.798047
0.000000 0.980924 0.866526
0.000000 0.980477 0.934830
0.000000 0.980031 1.000000
0.000000 1.000000 0.000000
0.000000 1.000000 0.000000
0.000000 1.000000 0.021676
0.000000 1.000000 0.094971
0.000000 1.000000 0.167118
0.000000 1.000000 0.238501
0.000000 1.000000 0.309310
0.000000 1.000000 0.379661
0.000000 1.000000 0.449629
0.000000 1.000000 0.519271
0.000000 1.000000 0.588627
0.000000 1.000000 0.657730
0.000000 1.000000 0.726605
0.000000 1.000000 0.795273
0.000000 1.000000 0.863752
0.000000 1.000000 0.932056
0.000000 1.000000 1.000000
0.116169 0.000000 0.000000
0.116054 0.000000 0.015304
0.115559 0.000000 0.091006
0.115079 0.000000 0.164301
0.114607 0.000000 0.236448
0.114140 0.000000 0.307831
0.113677 0.000000 0.378640
0.113217 0.000000 0.448991
0.112759 0.000000 0.518959
0.112303 0.000000 0.588601
0.111849 0.000000 0.657957
0.111397 0.000000 0.727060
0.110946 0.000000 0.795935
0.110497 0.000000 0.864603
0.110049 0.000000 0.933081
0.109602 0.000000 1.000000
0.109156 0.000000 1.000000
0.111740 0.062088 0.000000
0.111625 0.061973 0.010875
0.111130 0.061478 0.086577
0.110650 0.060998 0.159871
0.110178 0.060526 0.232018
0.109711 0.060059 0.303401
0.109247 0.059596 0.374210
0.108787 0.059136 0.444561
0.108329 0.058678 0.514530
0.107874 0.058222 0.584172
0.107420 0.057768 0.653528
0.106968 0.057316 0.722631
0.106517 0.056865 0.791505
0.106068 0.056416 0.860173
0.105620 0.055968 0.928652
0.105173 0.055521 0.996956
0.104727 0.055075 1.000000
0.106953 0.131638 0.000000
0.106838 0.131523 0.006088
0.106343 0.131027 0.081790
0.105863 0.130548 0.155084
0.105391 0.130076 0.227231
0.104924 0.129609 0.298614
0.104461 0.129145 0.369424
0.104000 0.128685 0.439774
0.103542 0.128227 0.509743
0.103087 0.127771 0.579385
0.102633 0.127318 0.648741
0.102181 0.126865 0.717844
0.101730 0.126415 0.786718
0.101281 0.125965 0.855386
0.100833 0.125517 0.923865
0.100386 0.125070 0.992169
0.099940 0.124625 1.000000
0.102256 0.199886 0.000000
0.102141 0.199772 0.001390
0.101645 0.199276 0.077093
0.101166 0.198797 0.150387
0.100694 0.198325 0.222534
0.100226 0.197857 0.293917
0.099763 0.197394 0.364726
0.099303 0.196934 0.435077
0.098845 0.196476 0.505046
0.098389 0.196020 0.574687
0.097936 0.195566 0.644044
0.097483 0.195114 0.713146
0.097033 0.194664 0.782021
0.096583 0.194214 0.850689
0.096135 0.193766 0.919168
0.095688 0.193319 0.987472
0.095242 0.192873 1.000000
0.097614 0.267325 0.000000
0.097499 0.267210 0.000000
0.097004 0.266715 0.072451
0.096524 0.266235 0.145745
0.096052 0.265763 0.217892
0.095585 0.265296 0.289275
0.095122 0.264833 0.360085
0.094661 0.264372 0.430435
0.094203 0.263915 0.500404
0.093748 0.263459 0.570046
0.093294 0.263005 0.639402
0.092842 0.262553 0.708505
0.092391 0.262102 0.777379
0.091942 0.261653 0.846047
0.091494 0.261205 0.914526
0.091047 0.260758 0.982830
0.090601 0.260312 1.000000
0.093013 0.334174 0.000000
0.092898 0.334059 0.000000
0.092403 0.333564 0.067850
0.091923 0.333084 0.141144
0.091451 0.332612 0.213291
0.090984 0.332145 0.284674
0.090520 0.331682 0.355483
0.090060 0.331222 0.425834
0.089602 0.330764 0.495803
0.089147 0.330308 0.565445
0.088693 0.329854 0.634801
0.088241 0.329402 0.703903
0.087790 0.328952 0.772778
0.087341 0.328502 0.841446
0.086893 0.328054 0.909925
0.086446 0.327607 0.978229
0.086000 0.327161 1.000000
0.088444 0.400561 0.000000
0.088329 0.400446 0.000000
0.087833 0.399950 0.063281
0.087354 0.399471 0.136575
0.086882 0.398999 0.208722
0.086415 0.398532 0.280105
0.085951 0.398068 0.350914
0.085491 0.397608 0.421265
0.085033 0.397150 0.491234
0.084577 0.396694 0.560875
0.084124 0.396241 0.630232
0.083671 0.395788 0.699334
0.083221 0.395338 0.768209
0.082771 0.394888 0.836877
0.082323 0.394440 0.905356
0.081876 0.393993 0.973660
0.081431 0.393548 1.000000
0.083901 0.466566 0.000000
0.083786 0.466451 0.000000
0.083290 0.465956 0.058738
0.082811 0.465476 0.132032
0.082339 0.465004 0.204179
0.081872 0.464537 0.275562
0.081408 0.464073 0.346371
0.080948 0.463613 0.416722
0.080490 0.463155 0.486691
0.080034 0.462700 0.556332
0.079581 0.462246 0.625689
0.079128 0.461794 0.694791
0.078678 0.461343 0.763666
0.078228 0.460894 0.832334
0.077780 0.460446 0.900813
0.077333 0.459999 0.969117
0.076888 0.459553 1.000000
0.079380 0.532248 0.000000
0.079265 0.532133 0.000000
0.078770 0.531637 0.054217
0.078290 0.531158 0.127511
0.077818 0.530686 0.199658
0.077351 0.530219 0.271041
0.076888 0.529755 0.341851
0.076427 0.529295 0.412201
0.075969 0.528837 0.482170
0.075514 0.528381 0.551812
0.075060 0.527928 0.621168
0.074608 0.527475 0.690271
0.074157 0.527025 0.759145
0.073708 0.526575 0.827813
0.073260 0.526127 0.896292
0.072813 0.525680 0.964596
0.072367 0.525235 1.000000
0.074879 0.597648 0.000000
0.074764 0.597534 0.000000
0.074268 0.597038 0.049716
0.073789 0.596559 0.123010
0.073317 0.596087 0.195157
0.072850 0.595619 0.266540
0.072386 0.595156 0.337349
0.071926 0.594696 0.407700
0.071468 0.594238 0.477669
0.071012 0.593782 0.547310
0.070559 0.593328 0.616667
0.070106 0.592876 0.685769
0.069656 0.592426 0.754644
0.069206 0.591976 0.823312
0.068758 0.591528 0.891791
0.068311 0.591081 0.960095
0.067865 0.590635 1.000000
0.070394 0.662801 0.000000
0.070279 0.662686 0.000000
0.069784 0.662191 0.045231
0.069304 0.661711 0.118526
0.068832 0.661239 0.190673
0.068365 0.660772 0.262056
0.067902 0.660309 0.332865
0.067442 0.659849 0.403215
0.066984 0.659391 0.473184
0.066528 0.658935 0.542826
0.066074 0.658481 0.612182
0.065622 0.658029 0.681285
0.065171 0.657578 0.750160
0.064722 0.657129 0.818828
0.064274 0.656681 0.887306
0.063827 0.656234 0.955611
0.063381 0.655788 1.000000
0.065925 0.727732 0.000000
0.065810 0.727617 0.000000
0.065315 0.727122 0.040762
0.064835 0.726642 0.114056
0.064363 0.726170 0.186204
0.063896 0.725703 0.257587
0.063433 0.725240 0.328396
0.062973 0.724779 0.398746
0.062515 0.724321 0.468715
0.062059 0.723866 0.538357
0.061605 0.723412 0.607713
0.061153 0.722960 0.676816
0.060702 0.722509 0.745691
0.060253 0.722060 0.814359
0.059805 0.721612 0.882837
0.059358 0.721165 0.951142
0.058912 0.720719 1.000000
0.061470 0.792462 0.000000
0.061355 0.792347 0.000000
0.060860 0.791851 0.036307
0.060380 0.791372 0.109601
0.059908 0.790900 0.181749
0.059441 0.790433 0.253131
0.058978 0.789969 0.323941
0.058517 0.789509 0.394291
0.058060 0.789051 0.464260
0.057604 0.788595 0.533902
0.057150 0.788142 0.603258
0.056698 0.787689 0.672361
0.056247 0.787239 0.741236
0.055798 0.786789 0.809904
0.055350 0.786341 0.878382
0.054903 0.785894 0.946686
0.054457 0.785449 1.000000
0.057027 0.857008 0.000000
0.056913 0.856893 0.000000
0.056417 0.856398 0.031864
0.055938 0.855918 0.105159
0.055466 0.855446 0.177306
0.054998 0.854979 0.248689
0.054535 0.854515 0.319498
0.054075 0.854055 0.389849
0.053617 0.853597 0.459817
0.053161 0.853142 0.529459
0.052707 0.852688 0.598815
0.052255 0.852236 0.667918
0.051805 0.851785 0.736793
0.051355 0.851336 0.805461
0.050907 0.850888 0.873940
0.050460 0.850441 0.942244
0.050014 0.849995 1.000000
0.052597 0.921385 0.000000
0.052482 0.921270 0.000000
0.051986 0.920775 0.027434
0.051507 0.920295 0.100728
0.051035 0.919823 0.172875
0.050567 0.919356 0.244258
0.050104 0.918893 0.315067
0.049644 0.918433 0.385418
0.049186 0.917975 0.455387
0.048730 0.917519 0.525028
0.048276 0.917065 0.594385
0.047824 0.916613 0.663487
0.047374 0.916162 0.732362
0.046924 0.915713 0.801030
0.046476 0.915265 0.869509
0.046029 0.914818 0.937813
0.045583 0.914372 1.000000
0.048176 0.985607 0.000000
0.048061 0.985492 0.000000
0.047566 0.984996 0.023013
0.047086 0.984517 0.096308
0.046614 0.984045 0.168455
0.046147 0.983578 0.239838
0.045684 0.983114 0.310647
0.045224 0.982654 0.380998
0.044766 0.982196 0.450966
0.044310 0.981740 0.520608
0.043856 0.981287 0.589964
0.043404 0.980834 0.659067
0.042953 0.980384 0.727942
0.042504 0.979934 0.796610
0.042056 0.979486 0.865089
0.041609 0.979039 0.933393
0.041163 0.978594 1.000000
0.045402 1.000000 0.000000
0.045287 1.000000 0.000000
0.044792 1.000000 0.020239
0.044312 1.000000 0.093533
0.043840 1.000000 0.165681
0.043373 1.000000 0.237063
0.042910 1.000000 0.307873
0.042449 1.000000 0.378223
0.041992 1.000000 0.448192
0.041536 1.000000 0.517834
0.041082 1.000000 0.587190
0.040630 1.000000 0.656293
0.040179 1.000000 0.725168
0.039730 1.000000 0.793836
0.039282 1.000000 0.862314
0.038835 1.000000 0.930619
0.038389 1.000000 0.998761
0.188092 0.000000 0.000000
0.187977 0.000000 0.013901
0.187482 0.000000 0.089603
0.187002 0.000000 0.162897
0.186530 0.000000 0.235044
0.186063 0.000000 0.306427
0.185600 0.000000 0.377236
0.185139 0.000000 0.447587
0.184681 0.000000 0.517556
0.184226 0.000000 0.587197
0.183772 0.000000 0.656554
0.183320 0.000000 0.725656
0.182869 0.000000 0.794531
0.182420 0.000000 0.863199
0.181972 0.000000 0.931678
0.181525 0.000000 0.999982
0.181079 0.000000 1.000000
0.183662 0.060685 0.000000
0.183547 0.060570 0.009471
0.183052 0.060074 0.085173
0.182573 0.059595 0.158468
0.182100 0.059123 0.230615
0.181633 0.058656 0.301998
0.181170 0.058192 0.372807
0.180710 0.057732 0.443157
0.180252 0.057274 0.513126
0.179796 0.056818 0.582768
0.179342 0.056365 0.652124
0.178890 0.055912 0.721227
0.178440 0.055462 0.790102
0.177990 0.055012 0.858770
0.177542 0.054564 0.927248
0.177095 0.054117 0.995553
0.176649 0.053672 1.000000
0.178876 0.130234 0.000000
0.178761 0.130119 0.004684
0.178265 0.129624 0.080386
0.177786 0.129144 0.153681
0.177314 0.128672 0.225828
0.176846 0.128205 0.297211
0.176383 0.127742 0.368020
0.175923 0.127281 0.438371
0.175465 0.126824 0.508339
0.175009 0.126368 0.577981
0.174556 0.125914 0.647337
0.174103 0.125462 0.716440
0.173653 0.125011 0.785315
0.173203 0.124562 0.853983
0.172755 0.124114 0.922462
0.172308 0.123667 0.990766
0.171862 0.123221 1.000000
0.174178 0.198483 0.000000
0.174063 0.198368 0.000000
0.173568 0.197873 0.075689
0.173088 0.197393 0.148983
0.172616 0.196921 0.221130
0.172149 0.196454 0.292513
0.171686 0.195990 0.363323
0.171225 0.195530 0.433673
0.170768 0.195072 0.503642
0.170312 0.194617 0.573284
0.169858 0.194163 0.642640
0.169406 0.193711 0.711743
0.168955 0.193260 0.780617
0.168506 0.192811 0.849285
0.168058 0.192363 0.917764
0.167611 0.191916 0.986068
0.167165 0.191470 1.000000
0.169537 0.265922 0.000000
0.169422 0.265807 0.000000
0.168926 0.265311 0.071047
0.168447 0.264832 0.144342
0.167975 0.264360 0.216489
0.167507 0.263892 0.287872
0.167044 0.263429 0.358681
0.166584 0.262969 0.429032
0.166126 0.262511 0.499000
0.165670 0.262055 0.568642
0.165216 0.261601 0.637998
0.164764 0.261149 0.707101
0.164314 0.260699 0.775976
0.163864 0.260249 0.844644
0.163416 0.259801 0.913122
0.162969 0.259354 0.981427
0.162523 0.258908 1.000000
0.164935 0.332771 0.000000
0.164820 0.332656 0.000000
0.164325 0.332160 0.066446
0.163846 0.331681 0.139740
0.163373 0.331209 0.211888
0.162906 0.330742 0.283271
0.162443 0.330278 0.354080
0.161983 0.329818 0.424430
0.161525 0.329360 0.494399
0.161069 0.328905 0.564041
0.160615 0.328451 0.633397
0.160163 0.327999 0.702500
0.159713 0.327548 0.771375
0.159263 0.327099 0.840043
0.158815 0.326651 0.908521
0.158368 0.326204 0.976826
0.157922 0.325758 1.000000
0.160366 0.399157 0.000000
0.160251 0.399042 0.000000
0.159756 0.398547 0.061877
0.159276 0.398067 0.135171
0.158804 0.397595 0.207319
0.158337 0.397128 0.278701
0.157874 0.396665 0.349511
0.157414 0.396204 0.419861
0.156956 0.395746 0.489830
0.156500 0.395291 0.559472
0.156046 0.394837 0.628828
0.155594 0.394385 0.697931
0.155143 0.393934 0.766805
0.154694 0.393485 0.835473
0.154246 0.393037 0.903952
0.153799 0.392590 0.972256
0.153353 0.392144 1.000000
0.155823 0.465162 0.000000
0.155708 0.465047 0.000000
0.155213 0.464552 0.057334
0.154733 0.464072 0.130628
0.154261 0.463600 0.202776
0.153794 0.463133 0.274158
0.153331 0.462670 0.344968
0.152871 0.462210 0.415318
0.152413 0.461752 0.485287
0.151957 0.461296 0.554929
0.151503 0.460842 0.624285
0.151051 0.460390 0.693388
0.150600 0.459939 0.762263
0.150151 0.459490 0.830931
0.149703 0.459042 0.899409
0.149256 0.458595 0.967713
0.148810 0.458149 1.000000
0.151303 0.530844 0.000000
0.151188 0.530729 0.000000
0.150692 0.530234 0.052813
0.150213 0.529754 0.126108
0.149741 0.529282 0.198255
0.149273 0.528815 0.269638
0.148810 0.528352 0.340447
0.148350 0.527891 0.410798
0.147892 0.527433 0.480766
0.147436 0.526978 0.550408
0.146982 0.526524 0.619764
0.146530 0.526072 0.688867
0.146080 0.525621 0.757742
0.145630 0.525172 0.826410
0.145182 0.524724 0.894888
0.144735 0.524277 0.963193
0.144289 0.523831 1.000000
0.146801 0.596245 0.000000
0.146686 0.596130 0.000000
0.146191 0.595635 0.048312
0.145711 0.595155 0.121606
0.145239 0.594683 0.193753
0.144772 0.594216 0.265136
0.144309 0.593752 0.335946
0.143848 0.593292 0.406296
0.143391 0.592834 0.476265
0.142935 0.592379 0.545907
0.142481 0.591925 0.615263
0.142029 0.591473 0.684366
0.141578 0.591022 0.753240
0.141129 0.590573 0.821908
0.140681 0.590125 0.890387
0.140234 0.589678 0.958691
0.139788 0.589232 1.000000
0.142317 0.661398 0.000000
0.142202 0.661283 0.000000
0.141707 0.660787 0.043828
0.141227 0.660308 0.117122
0.140755 0.659836 0.189269
0.140288 0.659369 0.260652
0.139824 0.658905 0.331461
0.139364 0.658445 0.401812
0.138906 0.657987 0.471781
0.138451 0.657531 0.541422
0.137997 0.657078 0.610779
0.137545 0.656625 0.679881
0.137094 0.656175 0.748756
0.136645 0.655725 0.817424
0.136197 0.655277 0.885903
0.135750 0.654830 0.954207
0.135304 0.654385 1.000000
0.137848 0.726328 0.000000
0.137733 0.726213 0.000000
0.137238 0.725718 0.039359
0.136758 0.725238 0.112653
0.136286 0.724766 0.184800
0.135819 0.724299 0.256183
0.135355 0.723836 0.326992
0.134895 0.723376 0.397343
0.134437 0.722918 0.467312
0.133982 0.722462 0.536953
0.133528 0.722008 0.606310
0.133076 0.721556 0.675412
0.132625 0.721105 0.744287
0.132176 0.720656 0.812955
0.131728 0.720208 0.881434
0.131281 0.719761 0.949738
0.130835 0.719315 1.000000
0.133393 0.791058 0.000000
0.133278 0.790943 0.000000
0.132782 0.790448 0.034903
0.132303 0.789968 0.108198
0.131831 0.789496 0.180345
0.131364 0.789029 0.251728
0.130900 0.788566 0.322537
0.130440 0.788105 0.392888
0.129982 0.787647 0.462856
0.129526 0.787192 0.532498
0.129073 0.786738 0.601854
0.128620 0.786286 0.670957
0.128170 0.785835 0.739832
0.127720 0.785386 0.808500
0.127272 0.784938 0.876979
0.126825 0.784491 0.945283
0.126380 0.784045 1.000000
0.128950 0.855604 0.000000
0.128835 0.855489 0.000000
0.128340 0.854994 0.030461
0.127860 0.854514 0.103755
0.127388 0.854042 0.175902
0.126921 0.853575 0.247285
0.126458 0.853112 0.318094
0.125997 0.852651 0.388445
0.125540 0.852194 0.458414
0.125084 0.851738 0.528056
0.124630 0.851284 0.597412
0.124178 0.850832 0.666515
0.123727 0.850381 0.735389
0.123278 0.849932 0.804057
0.122830 0.849484 0.872536
0.122383 0.849037 0.940840
0.121937 0.848591 1.000000
0.124519 0.919982 0.000000
0.124404 0.919867 0.000000
0.123909 0.919371 0.026030
0.123429 0.918892 0.099324
0.122957 0.918420 0.171471
0.122490 0.917953 0.242854
0.122027 0.917489 0.313664
0.121566 0.917029 0.384014
0.121109 0.916571 0.453983
0.120653 0.916115 0.523625
0.120199 0.915662 0.592981
0.119747 0.915209 0.662084
0.119296 0.914759 0.730958
0.118847 0.914310 0.799626
0.118399 0.913861 0.868105
0.117952 0.913414 0.936409
0.117506 0.912969 1.000000
0.120099 0.984203 0.000000
0.119984 0.984088 0.000000
0.119489 0.983593 0.021610
0.119009 0.983113 0.094904
0.118537 0.982641 0.167051
0.118070 0.982174 0.238434
0.117607 0.981711 0.309243
0.117146 0.981250 0.379594
0.116688 0.980792 0.449563
0.116233 0.980337 0.519205
0.115779 0.979883 0.588561
0.115327 0.979431 0.657663
0.114876 0.978980 0.726538
0.114427 0.978531 0.795206
0.113979 0.978083 0.863685
0.113532 0.977636 0.931989
0.113086 0.977190 1.000000
0.117325 1.000000 0.000000
0.117210 1.000000 0.000000
0.116714 1.000000 0.018836
0.116235 1.000000 0.092130
0.115763 1.000000 0.164277
0.115296 1.000000 0.235660
0.114832 1.000000 0.306469
0.114372 1.000000 0.376820
0.113914 1.000000 0.446788
0.113459 1.000000 0.516430
0.113005 1.000000 0.585787
0.112553 1.000000 0.654889
0.112102 1.000000 0.723764
0.111653 1.000000 0.792432
0.111204 1.000000 0.860911
0.110758 1.000000 0.929215
0.110312 1.000000 0.997357
0.259043 0.000000 0.000000
0.258928 0.000000 0.012516
0.258433 0.000000 0.088218
0.257953 0.000000 0.161512
0.257481 0.000000 0.233660
0.257014 0.000000 0.305042
0.256551 0.000000 0.375852
0.256091 0.000000 0.446202
0.255633 0.000000 0.516171
0.255177 0.000000 0.585813
0.254723 0.000000 0.655169
0.254271 0.000000 0.724272
0.253820 0.000000 0.793146
0.253371 0.000000 0.861814
0.252923 0.000000 0.930293
0.252476 0.000000 0.998597
0.252030 0.000000 1.000000
0.254614 0.059300 0.000000
