skills/editops-orchestrator/assets/grade/luts/ad_warm_v11.cube
TITLE "ad_warm_v11"
LUT_3D_SIZE 9
DOMAIN_MIN 0.0 0.0 0.0
DOMAIN_MAX 1.0 1.0 1.0
0.030826 0.000000 0.000000
0.030320 0.000000 0.102624
0.029635 0.000000 0.242001
0.028962 0.000000 0.379152
0.028294 0.000000 0.514974
0.027632 0.000000 0.649844
0.026973 0.000000 0.783972
0.026317 0.000000 0.917492
0.025663 0.000000 1.000000
0.024110 0.131519 0.000000
0.023604 0.131013 0.095908
0.022919 0.130328 0.235284
0.022245 0.129654 0.372436
0.021578 0.128987 0.508258
0.020915 0.128324 0.643128
0.020256 0.127665 0.777255
0.019600 0.127009 0.910775
0.018947 0.126356 1.000000
0.017361 0.264123 0.000000
0.016855 0.263617 0.089159
0.016170 0.262932 0.228536
0.015497 0.262258 0.365687
0.014829 0.261591 0.501509
0.014167 0.260928 0.636379
0.013508 0.260269 0.770507
0.012852 0.259613 0.904027
0.012198 0.258960 1.000000
0.010705 0.394909 0.000000
0.010199 0.394402 0.082503
0.009514 0.393718 0.221879
0.008840 0.393044 0.359031
0.008173 0.392376 0.494853
0.007511 0.391714 0.629723
0.006852 0.391055 0.763850
0.006196 0.390399 0.897371
0.005542 0.389745 1.000000
0.004108 0.524537 0.000000
0.003602 0.524030 0.075906
0.002917 0.523345 0.215282
0.002243 0.522672 0.352434
0.001576 0.522004 0.488256
0.000913 0.521342 0.623126
0.000254 0.520683 0.757253
0.000000 0.520027 0.890773
0.000000 0.519373 1.000000
0.000000 0.653314 0.000000
0.000000 0.652807 0.069352
0.000000 0.652123 0.208728
0.000000 0.651449 0.345880
0.000000 0.650782 0.481702
0.000000 0.650119 0.616572
0.000000 0.649460 0.750699
0.000000 0.648804 0.884219
0.000000 0.648151 1.000000
0.000000 0.781418 0.000000
0.000000 0.780912 0.062832
0.000000 0.780227 0.202209
0.000000 0.779553 0.339360
0.000000 0.778886 0.475182
0.000000 0.778224 0.610052
0.000000 0.777565 0.744180
0.000000 0.776909 0.877700
0.000000 0.776255 1.000000
0.000000 0.908967 0.000000
0.000000 0.908461 0.056341
0.000000 0.907776 0.195717
0.000000 0.907102 0.332869
0.000000 0.906435 0.468691
0.000000 0.905772 0.603561
0.000000 0.905113 0.737688
0.000000 0.904457 0.871208
0.000000 0.903804 1.000000
0.000000 1.000000 0.000000
0.000000 1.000000 0.050678
0.000000 1.000000 0.190054
0.000000 1.000000 0.327206
0.000000 1.000000 0.463028
0.000000 1.000000 0.597898
0.000000 1.000000 0.732025
0.000000 1.000000 0.865546
0.000000 1.000000 0.998552
0.171055 0.000000 0.000000
0.170549 0.000000 0.100576
0.169864 0.000000 0.239952
0.169190 0.000000 0.377104
0.168523 0.000000 0.512926
0.167861 0.000000 0.647796
0.167202 0.000000 0.781923
0.166546 0.000000 0.915444
0.165892 0.000000 1.000000
0.164339 0.129471 0.000000
0.163833 0.128964 0.093860
0.163148 0.128280 0.233236
0.162474 0.127606 0.370388
0.161807 0.126939 0.506210
0.161144 0.126276 0.641079
0.160485 0.125617 0.775207
0.159829 0.124961 0.908727
0.159176 0.124308 1.000000
0.157590 0.262075 0.000000
0.157084 0.261569 0.087111
0.156399 0.260884 0.226487
0.155725 0.260210 0.363639
0.155058 0.259543 0.499461
0.154396 0.258880 0.634331
0.153737 0.258221 0.768458
0.153081 0.257565 0.901978
0.152427 0.256912 1.000000
0.150934 0.392860 0.000000
0.150428 0.392354 0.080455
0.149743 0.391669 0.219831
0.149069 0.390996 0.356983
0.148402 0.390328 0.492805
0.147739 0.389666 0.627675
0.147080 0.389007 0.761802
0.146424 0.388351 0.895322
0.145771 0.387697 1.000000
0.144337 0.522488 0.000000
0.143831 0.521982 0.073858
0.143146 0.521297 0.213234
0.142472 0.520623 0.350386
0.141805 0.519956 0.486208
0.141142 0.519294 0.621077
0.140483 0.518635 0.755205
0.139827 0.517979 0.888725
0.139174 0.517325 1.000000
0.137783 0.651266 0.000000
0.137277 0.650759 0.067304
0.136592 0.650074 0.206680
0.135918 0.649401 0.343832
0.135251 0.648733 0.479654
0.134588 0.648071 0.614524
0.133929 0.647412 0.748651
0.133273 0.646756 0.882171
0.132620 0.646102 1.000000
0.131263 0.779370 0.000000
0.130757 0.778864 0.060784
0.130072 0.778179 0.200160
0.129399 0.777505 0.337312
0.128731 0.776838 0.473134
0.128069 0.776175 0.608004
0.127410 0.775516 0.742131
0.126754 0.774860 0.875652
0.126100 0.774207 1.000000
0.124772 0.906919 0.000000
0.124266 0.906413 0.054293
0.123581 0.905728 0.193669
0.122907 0.905054 0.330821
0.122240 0.904387 0.466643
0.121577 0.903724 0.601512
0.120918 0.903065 0.735640
0.120262 0.902409 0.869160
0.119609 0.901756 1.000000
0.119109 1.000000 0.000000
0.118603 1.000000 0.048630
0.117918 1.000000 0.188006
0.117244 1.000000 0.325158
0.116577 1.000000 0.460980
0.115914 1.000000 0.595850
0.115255 1.000000 0.729977
0.114600 1.000000 0.863497
0.113946 1.000000 0.996504
0.307826 0.000000 0.000000
0.307320 0.000000 0.098579
0.306635 0.000000 0.237955
0.305961 0.000000 0.375107
0.305294 0.000000 0.510928
0.304631 0.000000 0.645798
0.303972 0.000000 0.779926
0.303316 0.000000 0.913446
0.302663 0.000000 1.000000
0.301110 0.127473 0.000000
0.300603 0.126967 0.091862
0.299919 0.126282 0.231238
0.299245 0.125608 0.368390
0.298578 0.124941 0.504212
0.297915 0.124278 0.639082
0.297256 0.123619 0.773209
0.296600 0.122963 0.906729
0.295947 0.122310 1.000000
0.294361 0.260077 0.000000
0.293855 0.259571 0.085113
0.293170 0.258886 0.224490
0.292496 0.258212 0.361641
0.291829 0.257545 0.497463
0.291166 0.256882 0.632333
0.290507 0.256223 0.766461
0.289851 0.255567 0.899981
0.289198 0.254914 1.000000
0.287705 0.390863 0.000000
0.287199 0.390356 0.078457
0.286514 0.389672 0.217834
0.285840 0.388998 0.354985
0.285173 0.388331 0.490807
0.284510 0.387668 0.625677
0.283851 0.387009 0.759805
0.283195 0.386353 0.893325
0.282542 0.385700 1.000000
0.281108 0.520491 0.000000
0.280601 0.519984 0.071860
0.279917 0.519300 0.211236
0.279243 0.518626 0.348388
0.278576 0.517958 0.484210
0.277913 0.517296 0.619080
0.277254 0.516637 0.753207
0.276598 0.515981 0.886727
0.275945 0.515328 1.000000
0.274554 0.649268 0.000000
0.274048 0.648762 0.065306
0.273363 0.648077 0.204682
0.272689 0.647403 0.341834
0.272022 0.646736 0.477656
0.271359 0.646073 0.612526
0.270700 0.645414 0.746653
0.270044 0.644758 0.880174
0.269391 0.644105 1.000000
0.268034 0.777373 0.000000
0.267528 0.776866 0.058787
0.266843 0.776181 0.198163
0.266169 0.775508 0.335315
0.265502 0.774840 0.471137
0.264839 0.774178 0.606006
0.264180 0.773519 0.740134
0.263525 0.772863 0.873654
0.262871 0.772209 1.000000
0.261543 0.904921 0.000000
0.261037 0.904415 0.052295
0.260352 0.903730 0.191671
0.259678 0.903056 0.328823
0.259011 0.902389 0.464645
0.258348 0.901726 0.599515
0.257689 0.901068 0.733642
0.257033 0.900412 0.867163
0.256380 0.899758 1.000000
0.255880 1.000000 0.000000
0.255374 1.000000 0.046632
0.254689 1.000000 0.186009
0.254015 1.000000 0.323160
0.253348 1.000000 0.458982
0.252685 1.000000 0.593852
0.252026 1.000000 0.727980
0.251370 1.000000 0.861500
0.250717 1.000000 0.994506
0.442949 0.000000 0.000000
0.442443 0.000000 0.096605
0.441758 0.000000 0.235981
0.441084 0.000000 0.373133
0.440417 0.000000 0.508955
0.439754 0.000000 0.643824
0.439095 0.000000 0.777952
0.438439 0.000000 0.911472
0.437786 0.000000 1.000000
0.436233 0.125499 0.000000
0.435726 0.124993 0.089889
0.435042 0.124308 0.229265
0.434368 0.123635 0.366417
0.433700 0.122967 0.502239
0.433038 0.122305 0.637108
0.432379 0.121646 0.771236
0.431723 0.120990 0.904756
0.431069 0.120336 1.000000
0.429484 0.258104 0.000000
0.428978 0.257597 0.083140
0.428293 0.256913 0.222516
0.427619 0.256239 0.359668
0.426952 0.255571 0.495490
0.426289 0.254909 0.630359
0.425630 0.254250 0.764487
0.424974 0.253594 0.898007
0.424321 0.252940 1.000000
0.422828 0.388889 0.000000
0.422322 0.388383 0.076484
0.421637 0.387698 0.215860
0.420963 0.387024 0.353012
0.420296 0.386357 0.488834
0.419633 0.385694 0.623703
0.418974 0.385035 0.757831
0.418318 0.384379 0.891351
0.417665 0.383726 1.000000
0.416231 0.518517 0.000000
0.415724 0.518011 0.069887
0.415040 0.517326 0.209263
0.414366 0.516652 0.346415
0.413699 0.515985 0.482237
0.413036 0.515322 0.617106
0.412377 0.514663 0.751234
0.411721 0.514007 0.884754
0.411068 0.513354 1.000000
0.409677 0.647294 0.000000
0.409170 0.646788 0.063333
0.408486 0.646103 0.202709
0.407812 0.645429 0.339861
0.407145 0.644762 0.475683
0.406482 0.644099 0.610552
0.405823 0.643440 0.744680
0.405167 0.642784 0.878200
0.404514 0.642131 1.000000
0.403157 0.775399 0.000000
0.402651 0.774893 0.056813
0.401966 0.774208 0.196189
0.401292 0.773534 0.333341
0.400625 0.772867 0.469163
0.399962 0.772204 0.604033
0.399303 0.771545 0.738160
0.398647 0.770889 0.871680
0.397994 0.770236 1.000000
0.396666 0.902948 0.000000
0.396159 0.902441 0.050322
0.395475 0.901757 0.189698
0.394801 0.901083 0.326850
0.394134 0.900415 0.462672
0.393471 0.899753 0.597541
0.392812 0.899094 0.731669
0.392156 0.898438 0.865189
0.391503 0.897784 0.998195
0.391003 1.000000 0.000000
0.390497 1.000000 0.044659
0.389812 1.000000 0.184035
0.389138 1.000000 0.321187
0.388471 1.000000 0.457009
0.387808 1.000000 0.591878
0.387149 1.000000 0.726006
0.386493 1.000000 0.859526
0.385840 1.000000 0.992532
0.576972 0.000000 0.000000
0.576465 0.000000 0.094647
0.575781 0.000000 0.234024
0.575107 0.000000 0.371175
0.574439 0.000000 0.506997
0.573777 0.000000 0.641867
0.573118 0.000000 0.775994
0.572462 0.000000 0.909515
0.571808 0.000000 1.000000
0.570255 0.123542 0.000000
0.569749 0.123036 0.087931
0.569064 0.122351 0.227307
0.568390 0.121677 0.364459
0.567723 0.121010 0.500281
0.567060 0.120347 0.635151
0.566401 0.119688 0.769278
0.565746 0.119032 0.902798
0.565092 0.118379 1.000000
0.563507 0.256146 0.000000
0.563000 0.255640 0.081182
0.562315 0.254955 0.220558
0.561642 0.254281 0.357710
0.560974 0.253614 0.493532
0.560312 0.252951 0.628402
0.559653 0.252292 0.762529
0.558997 0.251636 0.896050
0.558343 0.250983 1.000000
0.556851 0.386932 0.000000
0.556344 0.386425 0.074526
0.555659 0.385740 0.213902
0.554986 0.385067 0.351054
0.554318 0.384399 0.486876
0.553656 0.383737 0.621746
0.552997 0.383078 0.755873
0.552341 0.382422 0.889393
0.551687 0.381768 1.000000
0.550253 0.516560 0.000000
0.549747 0.516053 0.067929
0.549062 0.515368 0.207305
0.548388 0.514695 0.344457
0.547721 0.514027 0.480279
0.547058 0.513365 0.615149
0.546400 0.512706 0.749276
0.545744 0.512050 0.882796
0.545090 0.511396 1.000000
0.543699 0.645337 0.000000
0.543193 0.644830 0.061375
0.542508 0.644146 0.200751
0.541834 0.643472 0.337903
0.541167 0.642804 0.473725
0.540505 0.642142 0.608595
0.539846 0.641483 0.742722
0.539190 0.640827 0.876242
0.538536 0.640173 1.000000
0.537180 0.773441 0.000000
0.536673 0.772935 0.054855
0.535989 0.772250 0.194232
0.535315 0.771576 0.331383
0.534648 0.770909 0.467205
0.533985 0.770247 0.602075
0.533326 0.769588 0.736203
0.532670 0.768932 0.869723
0.532017 0.768278 1.000000
0.530688 0.900990 0.000000
0.530182 0.900484 0.048364
0.529497 0.899799 0.187740
0.528823 0.899125 0.324892
0.528156 0.898458 0.460714
0.527494 0.897795 0.595584
0.526835 0.897136 0.729711
0.526179 0.896480 0.863231
0.525525 0.895827 0.996237
0.525026 1.000000 0.000000
0.524519 1.000000 0.042701
0.523834 1.000000 0.182077
0.523161 1.000000 0.319229
0.522493 1.000000 0.455051
0.521831 1.000000 0.589921
0.521172 1.000000 0.724048
0.520516 1.000000 0.857569
0.519862 1.000000 0.990575
0.710167 0.000000 0.000000
0.709661 0.000000 0.092702
0.708976 0.000000 0.232078
0.708302 0.000000 0.369230
0.707635 0.000000 0.505052
0.706973 0.000000 0.639921
0.706314 0.000000 0.774049
0.705658 0.000000 0.907569
0.705004 0.000000 1.000000
0.703451 0.121596 0.000000
0.702945 0.121090 0.085985
0.702260 0.120405 0.225362
0.701586 0.119731 0.362514
0.700919 0.119064 0.498335
0.700256 0.118402 0.633205
0.699597 0.117743 0.767333
0.698941 0.117087 0.900853
0.698288 0.116433 1.000000
0.696702 0.254201 0.000000
0.696196 0.253694 0.079237
0.695511 0.253009 0.218613
0.694837 0.252336 0.355765
0.694170 0.251668 0.491587
0.693508 0.251006 0.626456
0.692849 0.250347 0.760584
0.692193 0.249691 0.894104
0.691539 0.249037 1.000000
0.690046 0.384986 0.000000
0.689540 0.384480 0.072581
0.688855 0.383795 0.211957
0.688181 0.383121 0.349109
0.687514 0.382454 0.484931
0.686851 0.381791 0.619800
0.686192 0.381132 0.753928
0.685536 0.380476 0.887448
0.684883 0.379823 1.000000
0.683449 0.514614 0.000000
0.682943 0.514108 0.065984
0.682258 0.513423 0.205360
0.681584 0.512749 0.342512
0.680917 0.512082 0.478333
0.680254 0.511419 0.613203
0.679595 0.510760 0.747331
0.678939 0.510104 0.880851
0.678286 0.509451 1.000000
0.676895 0.643391 0.000000
0.676389 0.642885 0.059430
0.675704 0.642200 0.198806
0.675030 0.641526 0.335958
0.674363 0.640859 0.471780
0.673700 0.640196 0.606649
0.673041 0.639537 0.740777
0.672385 0.638881 0.874297
0.671732 0.638228 1.000000
0.670375 0.771496 0.000000
0.669869 0.770989 0.052910
0.669184 0.770305 0.192286
0.668511 0.769631 0.329438
0.667843 0.768964 0.465260
0.667181 0.768301 0.600129
0.666522 0.767642 0.734257
0.665866 0.766986 0.867777
0.665212 0.766333 1.000000
0.663884 0.899045 0.000000
0.663378 0.898538 0.046419
0.662693 0.897854 0.185795
0.662019 0.897180 0.322947
0.661352 0.896512 0.458769
0.660689 0.895850 0.593638
0.660030 0.895191 0.727766
0.659374 0.894535 0.861286
0.658721 0.893881 0.994292
0.658221 1.000000 0.000000
0.657715 1.000000 0.040756
0.657030 1.000000 0.180132
0.656356 1.000000 0.317284
0.655689 1.000000 0.453106
0.655026 1.000000 0.587975
0.654367 1.000000 0.722103
0.653712 1.000000 0.855623
0.653058 1.000000 0.988629
0.842701 0.000000 0.000000
0.842195 0.000000 0.090766
0.841510 0.000000 0.230142
0.840836 0.000000 0.367294
0.840169 0.000000 0.503116
0.839506 0.000000 0.637986
0.838847 0.000000 0.772113
0.838191 0.000000 0.905633
0.837538 0.000000 1.000000
0.835985 0.119661 0.000000
0.835478 0.119154 0.084050
0.834794 0.118469 0.223426
0.834120 0.117796 0.360578
0.833452 0.117128 0.496400
0.832790 0.116466 0.631269
0.832131 0.115807 0.765397
0.831475 0.115151 0.898917
0.830821 0.114497 1.000000
0.829236 0.252265 0.000000
0.828730 0.251758 0.077301
0.828045 0.251074 0.216677
0.827371 0.250400 0.353829
0.826704 0.249733 0.489651
0.826041 0.249070 0.624521
0.825382 0.248411 0.758648
0.824726 0.247755 0.892168
0.824073 0.247102 1.000000
0.822580 0.383050 0.000000
0.822074 0.382544 0.070645
0.821389 0.381859 0.210021
0.820715 0.381185 0.347173
0.820048 0.380518 0.482995
0.819385 0.379855 0.617864
0.818726 0.379197 0.751992
0.818070 0.378541 0.885512
0.817417 0.377887 1.000000
0.815983 0.512678 0.000000
0.815476 0.512172 0.064048
0.814792 0.511487 0.203424
0.814118 0.510813 0.340576
0.813450 0.510146 0.476398
0.812788 0.509483 0.611267
0.812129 0.508824 0.745395
0.811473 0.508168 0.878915
0.810820 0.507515 1.000000
0.809429 0.641455 0.000000
0.808922 0.640949 0.057494
0.808238 0.640264 0.196870
0.807564 0.639590 0.334022
0.806897 0.638923 0.469844
0.806234 0.638261 0.604713
0.805575 0.637602 0.738841
0.804919 0.636946 0.872361
0.804266 0.636292 1.000000
0.802909 0.769560 0.000000
0.802403 0.769054 0.050974
0.801718 0.768369 0.190350
0.801044 0.767695 0.327502
0.800377 0.767028 0.463324
0.799714 0.766365 0.598194
0.799055 0.765706 0.732321
0.798399 0.765050 0.865841
0.797746 0.764397 0.998848
0.796418 0.897109 0.000000
0.795911 0.896602 0.044483
0.795227 0.895918 0.183859
0.794553 0.895244 0.321011
0.793886 0.894577 0.456833
0.793223 0.893914 0.591702
0.792564 0.893255 0.725830
0.791908 0.892599 0.859350
0.791255 0.891946 0.992356
0.790755 1.000000 0.000000
0.790249 1.000000 0.038820
0.789564 1.000000 0.178196
0.788890 1.000000 0.315348
0.788223 1.000000 0.451170
0.787560 1.000000 0.586039
0.786901 1.000000 0.720167
0.786245 1.000000 0.853687
0.785592 1.000000 0.986693
0.974683 0.000000 0.000000
0.974176 0.000000 0.088838
0.973492 0.000000 0.228214
0.972818 0.000000 0.365366
0.972151 0.000000 0.501188
0.971488 0.000000 0.636058
0.970829 0.000000 0.770185
0.970173 0.000000 0.903706
0.969520 0.000000 1.000000
0.967967 0.117733 0.000000
0.967460 0.117226 0.082122
0.966775 0.116542 0.221498
0.966102 0.115868 0.358650
0.965434 0.115201 0.494472
0.964772 0.114538 0.629341
0.964113 0.113879 0.763469
0.963457 0.113223 0.896989
0.962803 0.112570 1.000000
0.961218 0.250337 0.000000
0.960711 0.249831 0.075373
0.960027 0.249146 0.214749
0.959353 0.248472 0.351901
0.958686 0.247805 0.487723
0.958023 0.247142 0.622593
0.957364 0.246483 0.756720
0.956708 0.245827 0.890241
0.956055 0.245174 1.000000
0.954562 0.381123 0.000000
0.954055 0.380616 0.068717
0.953371 0.379931 0.208093
0.952697 0.379258 0.345245
0.952030 0.378590 0.481067
0.951367 0.377928 0.615937
0.950708 0.377269 0.750064
0.950052 0.376613 0.883584
0.949399 0.375959 1.000000
0.947965 0.510751 0.000000
0.947458 0.510244 0.062120
0.946773 0.509559 0.201496
0.946100 0.508886 0.338648
0.945432 0.508218 0.474470
0.944770 0.507556 0.609340
0.944111 0.506897 0.743467
0.943455 0.506241 0.876987
0.942801 0.505587 1.000000
0.941411 0.639528 0.000000
0.940904 0.639021 0.055566
0.940220 0.638337 0.194942
0.939546 0.637663 0.332094
0.938878 0.636995 0.467916
0.938216 0.636333 0.602786
0.937557 0.635674 0.736913
0.936901 0.635018 0.870433
0.936247 0.634364 1.000000
0.934891 0.767632 0.000000
0.934385 0.767126 0.049046
0.933700 0.766441 0.188423
0.933026 0.765767 0.325574
0.932359 0.765100 0.461396
0.931696 0.764437 0.596266
0.931037 0.763779 0.730394
0.930381 0.763123 0.863914
0.929728 0.762469 0.996920
0.928400 0.895181 0.000000
0.927893 0.894675 0.042555
0.927208 0.893990 0.181931
0.926535 0.893316 0.319083
0.925867 0.892649 0.454905
0.925205 0.891986 0.589775
0.924546 0.891327 0.723902
0.923890 0.890671 0.857422
0.923236 0.890018 0.990428
0.922737 1.000000 0.000000
0.922230 1.000000 0.036892
0.921546 1.000000 0.176268
0.920872 1.000000 0.313420
0.920205 1.000000 0.449242
0.919542 1.000000 0.584112
0.918883 1.000000 0.718239
0.918227 1.000000 0.851759
0.917574 1.000000 0.984766
1.000000 0.000000 0.000000
1.000000 0.000000 0.087633
1.000000 0.000000 0.227009
1.000000 0.000000 0.364161
1.000000 0.000000 0.499983
1.000000 0.000000 0.634853
1.000000 0.000000 0.768980
1.000000 0.000000 0.902500
1.000000 0.000000 1.000000
1.000000 0.116528 0.000000
1.000000 0.116021 0.080917
1.000000 0.115337 0.220293
1.000000 0.114663 0.357445
1.000000 0.113996 0.493267
1.000000 0.113333 0.628136
1.000000 0.112674 0.762264
1.000000 0.112018 0.895784
1.000000 0.111365 1.000000
1.000000 0.249132 0.000000
1.000000 0.248626 0.074168
1.000000 0.247941 0.213544
1.000000 0.247267 0.350696
1.000000 0.246600 0.486518
1.000000 0.245937 0.621388
1.000000 0.245278 0.755515
1.000000 0.244622 0.889035
1.000000 0.243969 1.000000
1.000000 0.379917 0.000000
1.000000 0.379411 0.067512
1.000000 0.378726 0.206888
1.000000 0.378052 0.344040
1.000000 0.377385 0.479862
1.000000 0.376723 0.614732
1.000000 0.376064 0.748859
1.000000 0.375408 0.882379
1.000000 0.374754 1.000000
1.000000 0.509545 0.000000
1.000000 0.509039 0.060915
1.000000 0.508354 0.200291
1.000000 0.507680 0.337443
1.000000 0.507013 0.473265
1.000000 0.506351 0.608134
1.000000 0.505692 0.742262
1.000000 0.505036 0.875782
1.000000 0.504382 1.000000
1.000000 0.638323 0.000000
1.000000 0.637816 0.054361
1.000000 0.637131 0.193737
1.000000 0.636458 0.330889
1.000000 0.635790 0.466711
1.000000 0.635128 0.601580
1.000000 0.634469 0.735708
1.000000 0.633813 0.869228
1.000000 0.633159 1.000000
1.000000 0.766427 0.000000
1.000000 0.765921 0.047841
1.000000 0.765236 0.187217
1.000000 0.764562 0.324369
1.000000 0.763895 0.460191
1.000000 0.763232 0.595061
1.000000 0.762573 0.729188
1.000000 0.761917 0.862709
1.000000 0.761264 0.995715
1.000000 0.893976 0.000000
1.000000 0.893470 0.041350
1.000000 0.892785 0.180726
1.000000 0.892111 0.317878
1.000000 0.891444 0.453700
1.000000 0.890781 0.588569
1.000000 0.890122 0.722697
1.000000 0.889466 0.856217
1.000000 0.888813 0.989223
1.000000 1.000000 0.000000
1.000000 1.000000 0.035687
1.000000 1.000000 0.175063
1.000000 1.000000 0.312215
1.000000 1.000000 0.448037
1.000000 1.000000 0.582907
1.000000 1.000000 0.717034
1.000000 1.000000 0.850554
1.000000 1.000000 0.983561
