skills/editops-orchestrator/assets/grade/luts/ad_warm_v05.cube
TITLE "ad_warm_v05"
LUT_3D_SIZE 5
DOMAIN_MIN 0.0 0.0 0.0
DOMAIN_MAX 1.0 1.0 1.0
0.018201 0.000000 0.000000
0.017498 0.000000 0.245909
0.016750 0.000000 0.507797
0.016009 0.000000 0.767353
0.015272 0.000000 1.000000
0.010692 0.258573 0.000000
0.009990 0.257870 0.238400
0.009242 0.257123 0.500288
0.008501 0.256382 0.759844
0.007764 0.255645 1.000000
0.003291 0.513582 0.000000
0.002589 0.512879 0.230999
0.001841 0.512132 0.492887
0.001100 0.511391 0.752444
0.000363 0.510654 1.000000
0.000000 0.766412 0.000000
0.000000 0.765710 0.223662
0.000000 0.764962 0.485550
0.000000 0.764221 0.745106
0.000000 0.763484 1.000000
0.000000 1.000000 0.000000
0.000000 1.000000 0.216548
0.000000 1.000000 0.478436
0.000000 1.000000 0.737992
0.000000 1.000000 0.996071
0.283287 0.000000 0.000000
0.282585 0.000000 0.243667
0.281837 0.000000 0.505556
0.281096 0.000000 0.765112
0.280359 0.000000 1.000000
0.275779 0.256332 0.000000
0.275076 0.255629 0.236159
0.274328 0.254882 0.498047
0.273587 0.254140 0.757603
0.272850 0.253404 1.000000
0.268378 0.511341 0.000000
0.267675 0.510638 0.228758
0.266928 0.509890 0.490646
0.266187 0.509149 0.750202
0.265450 0.508412 1.000000
0.261040 0.764171 0.000000
0.260338 0.763469 0.221421
0.259590 0.762721 0.483309
0.258849 0.761980 0.742865
0.258112 0.761243 1.000000
0.253927 1.000000 0.000000
0.253224 1.000000 0.214307
0.252476 1.000000 0.476195
0.251735 1.000000 0.735751
0.250998 1.000000 0.993830
0.543285 0.000000 0.000000
0.542582 0.000000 0.241469
0.541834 0.000000 0.503358
0.541093 0.000000 0.762914
0.540356 0.000000 1.000000
0.535776 0.254134 0.000000
0.535073 0.253431 0.233961
0.534326 0.252683 0.495849
0.533584 0.251942 0.755405
0.532848 0.251205 1.000000
0.528375 0.509143 0.000000
0.527673 0.508440 0.226560
0.526925 0.507692 0.488448
0.526184 0.506951 0.748004
0.525447 0.506214 1.000000
0.521038 0.761973 0.000000
0.520335 0.761270 0.219222
0.519587 0.760523 0.481111
0.518846 0.759782 0.740667
0.518109 0.759045 0.998746
0.513924 1.000000 0.000000
0.513221 1.000000 0.212108
0.512473 1.000000 0.473997
0.511732 1.000000 0.733553
0.510995 1.000000 0.991632
0.801147 0.000000 0.000000
0.800444 0.000000 0.239289
0.799697 0.000000 0.501177
0.798956 0.000000 0.760734
0.798219 0.000000 1.000000
0.793638 0.251954 0.000000
0.792936 0.251251 0.231781
0.792188 0.250503 0.493669
0.791447 0.249762 0.753225
0.790710 0.249025 1.000000
0.786238 0.506963 0.000000
0.785535 0.506260 0.224380
0.784787 0.505512 0.486268
0.784046 0.504771 0.745824
0.783309 0.504034 1.000000
0.778900 0.759793 0.000000
0.778198 0.759090 0.217042
0.777450 0.758343 0.478931
0.776709 0.757601 0.738487
0.775972 0.756865 0.996566
0.771786 1.000000 0.000000
0.771084 1.000000 0.209928
0.770336 1.000000 0.471817
0.769595 1.000000 0.731373
0.768858 1.000000 0.989452
1.000000 0.000000 0.000000
1.000000 0.000000 0.237335
1.000000 0.000000 0.499223
1.000000 0.000000 0.758779
1.000000 0.000000 1.000000
1.000000 0.249999 0.000000
1.000000 0.249297 0.229826
1.000000 0.248549 0.491714
1.000000 0.247808 0.751270
1.000000 0.247071 1.000000
1.000000 0.505008 0.000000
1.000000 0.504305 0.222425
1.000000 0.503558 0.484314
1.000000 0.502817 0.743870
1.000000 0.502080 1.000000
1.000000 0.757838 0.000000
1.000000 0.757136 0.215088
1.000000 0.756388 0.476976
1.000000 0.755647 0.736532
1.000000 0.754910 0.994611
1.000000 1.000000 0.000000
1.000000 1.000000 0.207974
1.000000 1.000000 0.469862
1.000000 1.000000 0.729418
1.000000 1.000000 0.987497
