skills/editops-orchestrator/assets/grade/luts/ad_warm_v11.cube
TITLE "ad_warm_v11"
LUT_3D_SIZE 17
DOMAIN_MIN 0.0 0.0 0.0
DOMAIN_MAX 1.0 1.0 1.0
0.030826 0.000000 0.000000
0.030671 0.000000 0.031134
0.030320 0.000000 0.102624
0.029976 0.000000 0.172695
0.029635 0.000000 0.242001
0.029297 0.000000 0.310778
0.028962 0.000000 0.379152
0.028627 0.000000 0.447200
0.028294 0.000000 0.514974
0.027962 0.000000 0.582513
0.027632 0.000000 0.649844
0.027302 0.000000 0.716991
0.026973 0.000000 0.783972
0.026644 0.000000 0.850801
0.026317 0.000000 0.917492
0.025990 0.000000 0.984054
0.025663 0.000000 1.000000
0.027548 0.063970 0.000000
0.027393 0.063815 0.027855
0.027042 0.063464 0.099346
0.026697 0.063119 0.169416
0.026357 0.062779 0.238722
0.026019 0.062441 0.307500
0.025683 0.062105 0.375874
0.025349 0.061771 0.443922
0.025016 0.061438 0.511696
0.024684 0.061106 0.579234
0.024353 0.060775 0.646565
0.024023 0.060445 0.713712
0.023694 0.060116 0.780693
0.023366 0.059788 0.847522
0.023038 0.059460 0.914213
0.022711 0.059133 0.980776
0.022385 0.058807 1.000000
0.024110 0.131519 0.000000
0.023955 0.131364 0.024417
0.023604 0.131013 0.095908
0.023259 0.130668 0.165979
0.022919 0.130328 0.235284
0.022581 0.129990 0.304062
0.022245 0.129654 0.372436
0.021911 0.129320 0.440484
0.021578 0.128987 0.508258
0.021246 0.128655 0.575796
0.020915 0.128324 0.643128
0.020585 0.127994 0.710274
0.020256 0.127665 0.777255
0.019928 0.127337 0.844085
0.019600 0.127009 0.910775
0.019273 0.126682 0.977338
0.018947 0.126356 1.000000
0.020721 0.198120 0.000000
0.020565 0.197965 0.021028
0.020214 0.197614 0.092518
0.019870 0.197269 0.162589
0.019529 0.196929 0.231895
0.019192 0.196591 0.300672
0.018856 0.196255 0.369047
0.018521 0.195921 0.437094
0.018188 0.195588 0.504868
0.017857 0.195256 0.572407
0.017526 0.194925 0.639738
0.017196 0.194595 0.706885
0.016867 0.194266 0.773866
0.016538 0.193938 0.840695
0.016211 0.193610 0.907386
0.015884 0.193283 0.973948
0.015557 0.192957 1.000000
0.017361 0.264123 0.000000
0.017206 0.263968 0.017669
0.016855 0.263617 0.089159
0.016511 0.263273 0.159230
0.016170 0.262932 0.228536
0.015832 0.262594 0.297313
0.015497 0.262258 0.365687
0.015162 0.261924 0.433735
0.014829 0.261591 0.501509
0.014497 0.261259 0.569048
0.014167 0.260928 0.636379
0.013837 0.260598 0.703526
0.013508 0.260269 0.770507
0.013179 0.259941 0.837336
0.012852 0.259613 0.904027
0.012525 0.259286 0.970589
0.012198 0.258960 1.000000
0.014025 0.329689 0.000000
0.013869 0.329533 0.014332
0.013518 0.329182 0.085823
0.013174 0.328838 0.155893
0.012833 0.328497 0.225199
0.012496 0.328160 0.293976
0.012160 0.327824 0.362351
0.011825 0.327489 0.430398
0.011492 0.327156 0.498173
0.011161 0.326824 0.565711
0.010830 0.326494 0.633042
0.010500 0.326164 0.700189
0.010171 0.325835 0.767170
0.009842 0.325506 0.833999
0.009515 0.325179 0.900690
0.009188 0.324852 0.967252
0.008861 0.324525 1.000000
0.010705 0.394909 0.000000
0.010550 0.394754 0.011013
0.010199 0.394402 0.082503
0.009855 0.394058 0.152574
0.009514 0.393718 0.221879
0.009176 0.393380 0.290657
0.008840 0.393044 0.359031
0.008506 0.392709 0.427079
0.008173 0.392376 0.494853
0.007841 0.392045 0.562392
0.007511 0.391714 0.629723
0.007181 0.391384 0.696870
0.006852 0.391055 0.763850
0.006523 0.390727 0.830680
0.006196 0.390399 0.897371
0.005869 0.390072 0.963933
0.005542 0.389745 1.000000
0.007401 0.459844 0.000000
0.007245 0.459689 0.007708
0.006894 0.459337 0.079198
0.006550 0.458993 0.149269
0.006209 0.458653 0.218575
0.005872 0.458315 0.287352
0.005536 0.457979 0.355727
0.005201 0.457645 0.423774
0.004868 0.457312 0.491548
0.004537 0.456980 0.559087
0.004206 0.456649 0.626418
0.003876 0.456319 0.693565
0.003547 0.455990 0.760546
0.003218 0.455662 0.827375
0.002891 0.455334 0.894066
0.002564 0.455007 0.960628
0.002237 0.454681 1.000000
0.004108 0.524537 0.000000
0.003953 0.524381 0.004415
0.003602 0.524030 0.075906
0.003258 0.523686 0.145977
0.002917 0.523345 0.215282
0.002579 0.523008 0.284060
0.002243 0.522672 0.352434
0.001909 0.522337 0.420482
0.001576 0.522004 0.488256
0.001244 0.521673 0.555794
0.000913 0.521342 0.623126
0.000583 0.521012 0.690273
0.000254 0.520683 0.757253
0.000000 0.520355 0.824083
0.000000 0.520027 0.890773
0.000000 0.519700 0.957336
0.000000 0.519373 1.000000
0.000826 0.589019 0.000000
0.000671 0.588863 0.001134
0.000320 0.588512 0.072624
0.000000 0.588168 0.142695
0.000000 0.587827 0.212001
0.000000 0.587489 0.280778
0.000000 0.587154 0.349152
0.000000 0.586819 0.417200
0.000000 0.586486 0.484974
0.000000 0.586154 0.552513
0.000000 0.585824 0.619844
0.000000 0.585494 0.686991
0.000000 0.585165 0.753972
0.000000 0.584836 0.820801
0.000000 0.584509 0.887492
0.000000 0.584182 0.954054
0.000000 0.583855 1.000000
0.000000 0.653314 0.000000
0.000000 0.653159 0.000000
0.000000 0.652807 0.069352
0.000000 0.652463 0.139423
0.000000 0.652123 0.208728
0.000000 0.651785 0.277506
0.000000 0.651449 0.345880
0.000000 0.651115 0.413928
0.000000 0.650782 0.481702
0.000000 0.650450 0.549240
0.000000 0.650119 0.616572
0.000000 0.649789 0.683719
0.000000 0.649460 0.750699
0.000000 0.649132 0.817529
0.000000 0.648804 0.884219
0.000000 0.648477 0.950782
0.000000 0.648151 1.000000
0.000000 0.717442 0.000000
0.000000 0.717287 0.000000
0.000000 0.716935 0.066088
0.000000 0.716591 0.136159
0.000000 0.716251 0.205465
0.000000 0.715913 0.274242
0.000000 0.715577 0.342616
0.000000 0.715243 0.410664
0.000000 0.714910 0.478438
0.000000 0.714578 0.545977
0.000000 0.714247 0.613308
0.000000 0.713917 0.680455
0.000000 0.713588 0.747436
0.000000 0.713260 0.814265
0.000000 0.712932 0.880956
0.000000 0.712605 0.947518
0.000000 0.712279 1.000000
0.000000 0.781418 0.000000
0.000000 0.781263 0.000000
0.000000 0.780912 0.062832
0.000000 0.780568 0.132903
0.000000 0.780227 0.202209
0.000000 0.779889 0.270986
0.000000 0.779553 0.339360
0.000000 0.779219 0.407408
0.000000 0.778886 0.475182
0.000000 0.778554 0.542721
0.000000 0.778224 0.610052
0.000000 0.777894 0.677199
0.000000 0.777565 0.744180
0.000000 0.777236 0.811009
0.000000 0.776909 0.877700
0.000000 0.776582 0.944262
0.000000 0.776255 1.000000
0.000000 0.845257 0.000000
0.000000 0.845101 0.000000
0.000000 0.844750 0.059584
0.000000 0.844406 0.129654
0.000000 0.844065 0.198960
0.000000 0.843728 0.267737
0.000000 0.843392 0.336112
0.000000 0.843057 0.404159
0.000000 0.842724 0.471934
0.000000 0.842392 0.539472
0.000000 0.842062 0.606803
0.000000 0.841732 0.673950
0.000000 0.841403 0.740931
0.000000 0.841074 0.807760
0.000000 0.840747 0.874451
0.000000 0.840420 0.941013
0.000000 0.840093 1.000000
0.000000 0.908967 0.000000
0.000000 0.908812 0.000000
0.000000 0.908461 0.056341
0.000000 0.908117 0.126412
0.000000 0.907776 0.195717
0.000000 0.907438 0.264495
0.000000 0.907102 0.332869
0.000000 0.906768 0.400917
0.000000 0.906435 0.468691
0.000000 0.906103 0.536229
0.000000 0.905772 0.603561
0.000000 0.905443 0.670708
0.000000 0.905113 0.737688
0.000000 0.904785 0.804518
0.000000 0.904457 0.871208
0.000000 0.904130 0.937771
0.000000 0.903804 1.000000
0.000000 0.972560 0.000000
0.000000 0.972405 0.000000
0.000000 0.972053 0.053105
0.000000 0.971709 0.123175
0.000000 0.971369 0.192481
0.000000 0.971031 0.261258
0.000000 0.970695 0.329633
0.000000 0.970361 0.397681
0.000000 0.970028 0.465455
0.000000 0.969696 0.532993
0.000000 0.969365 0.600324
0.000000 0.969035 0.667471
0.000000 0.968706 0.734452
0.000000 0.968378 0.801281
0.000000 0.968050 0.867972
0.000000 0.967723 0.934535
0.000000 0.967397 1.000000
0.000000 1.000000 0.000000
0.000000 1.000000 0.000000
0.000000 1.000000 0.050678
0.000000 1.000000 0.120749
0.000000 1.000000 0.190054
0.000000 1.000000 0.258832
0.000000 1.000000 0.327206
0.000000 1.000000 0.395254
0.000000 1.000000 0.463028
0.000000 1.000000 0.530567
0.000000 1.000000 0.597898
0.000000 1.000000 0.665045
0.000000 1.000000 0.732025
0.000000 1.000000 0.798855
0.000000 1.000000 0.865546
0.000000 1.000000 0.932108
0.000000 1.000000 0.998552
0.101648 0.000000 0.000000
0.101493 0.000000 0.030099
0.101142 0.000000 0.101590
0.100798 0.000000 0.171660
0.100457 0.000000 0.240966
0.100119 0.000000 0.309744
0.099783 0.000000 0.378118
0.099449 0.000000 0.446166
0.099116 0.000000 0.513940
0.098784 0.000000 0.581478
0.098453 0.000000 0.648810
0.098124 0.000000 0.715956
0.097794 0.000000 0.782937
0.097466 0.000000 0.849767
0.097138 0.000000 0.916457
0.096811 0.000000 0.983020
0.096485 0.000000 1.000000
0.098370 0.062936 0.000000
0.098215 0.062780 0.026821
0.097863 0.062429 0.098311
0.097519 0.062085 0.168382
0.097179 0.061744 0.237688
0.096841 0.061407 0.306465
0.096505 0.061071 0.374839
0.096170 0.060736 0.442887
0.095837 0.060403 0.510661
0.095506 0.060072 0.578200
0.095175 0.059741 0.645531
0.094845 0.059411 0.712678
0.094516 0.059082 0.779659
0.094188 0.058753 0.846488
0.093860 0.058426 0.913179
0.093533 0.058099 0.979741
0.093206 0.057772 1.000000
0.094932 0.130485 0.000000
0.094777 0.130329 0.023383
0.094426 0.129978 0.094874
0.094081 0.129634 0.164944
0.093741 0.129293 0.234250
0.093403 0.128956 0.303027
0.093067 0.128620 0.371402
0.092733 0.128285 0.439450
0.092400 0.127952 0.507224
0.092068 0.127621 0.574762
0.091737 0.127290 0.642093
0.091407 0.126960 0.709240
0.091078 0.126631 0.776221
0.090750 0.126302 0.843050
0.090422 0.125975 0.909741
0.090095 0.125648 0.976303
0.089769 0.125321 1.000000
0.091542 0.197086 0.000000
0.091387 0.196930 0.019993
0.091036 0.196579 0.091484
0.090692 0.196235 0.161555
0.090351 0.195894 0.230860
0.090013 0.195557 0.299638
0.089677 0.195221 0.368012
0.089343 0.194886 0.436060
0.089010 0.194553 0.503834
0.088678 0.194222 0.571372
0.088348 0.193891 0.638704
0.088018 0.193561 0.705851
0.087689 0.193232 0.772831
0.087360 0.192903 0.839661
0.087033 0.192576 0.906351
0.086706 0.192249 0.972914
0.086379 0.191922 1.000000
0.088183 0.263089 0.000000
0.088028 0.262934 0.016634
0.087677 0.262582 0.088125
0.087333 0.262238 0.158195
0.086992 0.261898 0.227501
0.086654 0.261560 0.296279
0.086318 0.261224 0.364653
0.085984 0.260889 0.432701
0.085651 0.260556 0.500475
0.085319 0.260225 0.568013
0.084988 0.259894 0.635344
0.084659 0.259564 0.702491
0.084329 0.259235 0.769472
0.084001 0.258907 0.836302
0.083673 0.258579 0.902992
0.083346 0.258252 0.969555
0.083020 0.257926 1.000000
0.084846 0.328654 0.000000
0.084691 0.328499 0.013297
0.084340 0.328148 0.084788
0.083996 0.327803 0.154859
0.083655 0.327463 0.224164
0.083317 0.327125 0.292942
0.082981 0.326789 0.361316
0.082647 0.326455 0.429364
0.082314 0.326122 0.497138
0.081982 0.325790 0.564676
0.081652 0.325459 0.632008
0.081322 0.325129 0.699155
0.080993 0.324800 0.766135
0.080664 0.324472 0.832965
0.080337 0.324144 0.899655
0.080010 0.323817 0.966218
0.079683 0.323491 1.000000
0.081527 0.393874 0.000000
0.081372 0.393719 0.009978
0.081021 0.393368 0.081469
0.080676 0.393024 0.151539
0.080336 0.392683 0.220845
0.079998 0.392345 0.289623
0.079662 0.392009 0.357997
0.079328 0.391675 0.426045
0.078995 0.391342 0.493819
0.078663 0.391010 0.561357
0.078332 0.390679 0.628688
0.078002 0.390349 0.695835
0.077673 0.390020 0.762816
0.077345 0.389692 0.829645
0.077017 0.389364 0.896336
0.076690 0.389037 0.962899
0.076364 0.388711 1.000000
0.078222 0.458809 0.000000
0.078067 0.458654 0.006673
0.077716 0.458303 0.078164
0.077372 0.457959 0.148235
0.077031 0.457618 0.217540
0.076693 0.457280 0.286318
0.076357 0.456944 0.354692
0.076023 0.456610 0.422740
0.075690 0.456277 0.490514
0.075358 0.455945 0.558052
0.075028 0.455615 0.625384
0.074698 0.455285 0.692531
0.074369 0.454956 0.759511
0.074040 0.454627 0.826341
0.073713 0.454300 0.893031
0.073386 0.453973 0.959594
0.073059 0.453646 1.000000
0.074930 0.523502 0.000000
0.074775 0.523347 0.003381
0.074424 0.522996 0.074872
0.074079 0.522652 0.144942
0.073739 0.522311 0.214248
0.073401 0.521973 0.283025
0.073065 0.521637 0.351400
0.072731 0.521303 0.419448
0.072398 0.520970 0.487222
0.072066 0.520638 0.554760
0.071735 0.520307 0.622091
0.071405 0.519977 0.689238
0.071076 0.519648 0.756219
0.070748 0.519320 0.823048
0.070420 0.518992 0.889739
0.070093 0.518665 0.956301
0.069767 0.518339 1.000000
0.071648 0.587984 0.000000
0.071493 0.587829 0.000099
0.071142 0.587478 0.071590
0.070798 0.587133 0.141660
0.070457 0.586793 0.210966
0.070119 0.586455 0.279744
0.069783 0.586119 0.348118
0.069449 0.585785 0.416166
0.069116 0.585452 0.483940
0.068784 0.585120 0.551478
0.068453 0.584789 0.618809
0.068124 0.584459 0.685956
0.067794 0.584130 0.752937
0.067466 0.583802 0.819767
0.067138 0.583474 0.886457
0.066811 0.583147 0.953020
0.066485 0.582821 1.000000
0.068376 0.652279 0.000000
0.068221 0.652124 0.000000
0.067870 0.651773 0.068318
0.067525 0.651429 0.138388
0.067185 0.651088 0.207694
0.066847 0.650750 0.276472
0.066511 0.650414 0.344846
0.066177 0.650080 0.412894
0.065844 0.649747 0.480668
0.065512 0.649415 0.548206
0.065181 0.649085 0.615537
0.064851 0.648755 0.682684
0.064522 0.648426 0.749665
0.064194 0.648097 0.816494
0.063866 0.647770 0.883185
0.063539 0.647443 0.949748
0.063213 0.647116 1.000000
0.065112 0.716407 0.000000
0.064957 0.716252 0.000000
0.064606 0.715901 0.065054
0.064262 0.715557 0.135125
0.063921 0.715216 0.204430
0.063583 0.714878 0.273208
0.063247 0.714542 0.341582
0.062913 0.714208 0.409630
0.062580 0.713875 0.477404
0.062248 0.713543 0.544942
0.061917 0.713213 0.612274
0.061588 0.712883 0.679420
0.061259 0.712554 0.746401
0.060930 0.712225 0.813231
0.060603 0.711898 0.879921
0.060276 0.711571 0.946484
0.059949 0.711244 1.000000
0.061856 0.780384 0.000000
0.061701 0.780229 0.000000
0.061350 0.779878 0.061798
0.061006 0.779533 0.131869
0.060665 0.779193 0.201174
0.060327 0.778855 0.269952
0.059991 0.778519 0.338326
0.059657 0.778185 0.406374
0.059324 0.777852 0.474148
0.058992 0.777520 0.541686
0.058662 0.777189 0.609018
0.058332 0.776859 0.676165
0.058003 0.776530 0.743145
0.057674 0.776202 0.809975
0.057347 0.775874 0.876665
0.057020 0.775547 0.943228
0.056693 0.775221 1.000000
0.058607 0.844222 0.000000
0.058452 0.844067 0.000000
0.058101 0.843716 0.058549
0.057757 0.843371 0.128620
0.057416 0.843031 0.197925
0.057078 0.842693 0.266703
0.056742 0.842357 0.335077
0.056408 0.842023 0.403125
0.056075 0.841690 0.470899
0.055743 0.841358 0.538437
0.055413 0.841027 0.605769
0.055083 0.840697 0.672916
0.054754 0.840368 0.739896
0.054425 0.840040 0.806726
0.054098 0.839712 0.873416
0.053771 0.839385 0.939979
0.053444 0.839059 1.000000
0.055365 0.907933 0.000000
0.055210 0.907778 0.000000
0.054859 0.907426 0.055307
0.054514 0.907082 0.125377
0.054174 0.906742 0.194683
0.053836 0.906404 0.263460
0.053500 0.906068 0.331835
0.053166 0.905734 0.399883
0.052833 0.905401 0.467657
0.052501 0.905069 0.535195
0.052170 0.904738 0.602526
0.051840 0.904408 0.669673
0.051511 0.904079 0.736654
0.051183 0.903751 0.803483
0.050855 0.903423 0.870174
0.050528 0.903096 0.936737
0.050202 0.902770 1.000000
0.052129 0.971525 0.000000
0.051973 0.971370 0.000000
0.051622 0.971019 0.052070
0.051278 0.970675 0.122141
0.050937 0.970334 0.191446
0.050599 0.969996 0.260224
0.050264 0.969660 0.328598
0.049929 0.969326 0.396646
0.049596 0.968993 0.464420
0.049264 0.968661 0.531958
0.048934 0.968331 0.599290
0.048604 0.968001 0.666437
0.048275 0.967672 0.733417
0.047946 0.967343 0.800247
0.047619 0.967016 0.866938
0.047292 0.966689 0.933500
0.046965 0.966362 0.999944
0.049702 1.000000 0.000000
0.049547 1.000000 0.000000
0.049196 1.000000 0.049644
0.048852 1.000000 0.119714
0.048511 1.000000 0.189020
0.048173 1.000000 0.257798
0.047837 1.000000 0.326172
0.047503 1.000000 0.394220
0.047170 1.000000 0.461994
0.046838 1.000000 0.529532
0.046507 1.000000 0.596863
0.046177 1.000000 0.664010
0.045848 1.000000 0.730991
0.045520 1.000000 0.797820
0.045192 1.000000 0.864511
0.044865 1.000000 0.931074
0.044539 1.000000 0.997517
0.171055 0.000000 0.000000
0.170900 0.000000 0.029086
0.170549 0.000000 0.100576
0.170205 0.000000 0.170647
0.169864 0.000000 0.239952
0.169526 0.000000 0.308730
0.169190 0.000000 0.377104
0.168856 0.000000 0.445152
0.168523 0.000000 0.512926
0.168191 0.000000 0.580464
0.167861 0.000000 0.647796
0.167531 0.000000 0.714943
0.167202 0.000000 0.781923
0.166873 0.000000 0.848753
0.166546 0.000000 0.915444
0.166219 0.000000 0.982006
0.165892 0.000000 1.000000
0.167777 0.061922 0.000000
0.167622 0.061767 0.025807
0.167270 0.061415 0.097298
0.166926 0.061071 0.167368
0.166586 0.060731 0.236674
0.166248 0.060393 0.305451
0.165912 0.060057 0.373826
0.165578 0.059723 0.441874
0.165245 0.059390 0.509648
0.164913 0.059058 0.577186
0.164582 0.058727 0.644517
0.164252 0.058397 0.711664
0.163923 0.058068 0.778645
0.163595 0.057740 0.845474
0.163267 0.057412 0.912165
0.162940 0.057085 0.978728
0.162614 0.056759 1.000000
0.164339 0.129471 0.000000
0.164184 0.129316 0.022369
0.163833 0.128964 0.093860
0.163488 0.128620 0.163930
0.163148 0.128280 0.233236
0.162810 0.127942 0.302014
0.162474 0.127606 0.370388
0.162140 0.127272 0.438436
0.161807 0.126939 0.506210
0.161475 0.126607 0.573748
0.161144 0.126276 0.641079
0.160814 0.125946 0.708226
0.160485 0.125617 0.775207
0.160157 0.125289 0.842036
0.159829 0.124961 0.908727
0.159502 0.124634 0.975290
0.159176 0.124308 1.000000
0.160950 0.196072 0.000000
0.160794 0.195917 0.018980
0.160443 0.195565 0.090470
0.160099 0.195221 0.160541
0.159758 0.194881 0.229846
0.159420 0.194543 0.298624
0.159085 0.194207 0.366998
0.158750 0.193873 0.435046
0.158417 0.193540 0.502820
0.158085 0.193208 0.570359
0.157755 0.192877 0.637690
0.157425 0.192547 0.704837
0.157096 0.192218 0.771817
0.156767 0.191890 0.838647
0.156440 0.191562 0.905338
0.156113 0.191235 0.971900
0.155786 0.190909 1.000000
0.157590 0.262075 0.000000
0.157435 0.261920 0.015620
0.157084 0.261569 0.087111
0.156740 0.261224 0.157182
0.156399 0.260884 0.226487
0.156061 0.260546 0.295265
0.155725 0.260210 0.363639
0.155391 0.259876 0.431687
0.155058 0.259543 0.499461
0.154726 0.259211 0.566999
0.154396 0.258880 0.634331
0.154066 0.258550 0.701478
0.153737 0.258221 0.768458
0.153408 0.257893 0.835288
0.153081 0.257565 0.901978
0.152754 0.257238 0.968541
0.152427 0.256912 1.000000
0.154254 0.327640 0.000000
0.154098 0.327485 0.012284
0.153747 0.327134 0.083774
0.153403 0.326790 0.153845
0.153062 0.326449 0.223151
0.152724 0.326111 0.291928
0.152389 0.325775 0.360302
0.152054 0.325441 0.428350
0.151721 0.325108 0.496124
0.151389 0.324776 0.563663
0.151059 0.324445 0.630994
0.150729 0.324116 0.698141
0.150400 0.323787 0.765121
0.150071 0.323458 0.831951
0.149744 0.323131 0.898642
0.149417 0.322804 0.965204
0.149090 0.322477 1.000000
0.150934 0.392860 0.000000
0.150779 0.392705 0.008964
0.150428 0.392354 0.080455
0.150084 0.392010 0.150526
0.149743 0.391669 0.219831
0.149405 0.391331 0.288609
0.149069 0.390996 0.356983
0.148735 0.390661 0.425031
0.148402 0.390328 0.492805
0.148070 0.389996 0.560343
0.147739 0.389666 0.627675
0.147410 0.389336 0.694822
0.147080 0.389007 0.761802
0.146752 0.388678 0.828632
0.146424 0.388351 0.895322
0.146097 0.388024 0.961885
0.145771 0.387697 1.000000
0.147629 0.457796 0.000000
0.147474 0.457640 0.005660
0.147123 0.457289 0.077150
0.146779 0.456945 0.147221
0.146438 0.456605 0.216526
0.146100 0.456267 0.285304
0.145765 0.455931 0.353678
0.145430 0.455596 0.421726
0.145097 0.455263 0.489500
0.144765 0.454932 0.557039
0.144435 0.454601 0.624370
0.144105 0.454271 0.691517
0.143776 0.453942 0.758497
0.143447 0.453614 0.825327
0.143120 0.453286 0.892018
0.142793 0.452959 0.958580
0.142466 0.452632 1.000000
0.144337 0.522488 0.000000
0.144182 0.522333 0.002367
0.143831 0.521982 0.073858
0.143486 0.521638 0.143928
0.143146 0.521297 0.213234
0.142808 0.520959 0.282012
0.142472 0.520623 0.350386
0.142138 0.520289 0.418434
0.141805 0.519956 0.486208
0.141473 0.519624 0.553746
0.141142 0.519294 0.621077
0.140812 0.518964 0.688224
0.140483 0.518635 0.755205
0.140155 0.518306 0.822034
0.139827 0.517979 0.888725
0.139500 0.517652 0.955288
0.139174 0.517325 1.000000
0.141055 0.586970 0.000000
0.140900 0.586815 0.000000
0.140549 0.586464 0.070576
0.140205 0.586120 0.140647
0.139864 0.585779 0.209952
0.139526 0.585441 0.278730
0.139190 0.585105 0.347104
0.138856 0.584771 0.415152
0.138523 0.584438 0.482926
0.138191 0.584106 0.550464
0.137861 0.583775 0.617796
0.137531 0.583446 0.684943
0.137202 0.583116 0.751923
0.136873 0.582788 0.818753
0.136546 0.582461 0.885443
0.136219 0.582134 0.952006
0.135892 0.581807 1.000000
0.137783 0.651266 0.000000
0.137628 0.651110 0.000000
0.137277 0.650759 0.067304
0.136933 0.650415 0.137374
0.136592 0.650074 0.206680
0.136254 0.649737 0.275458
0.135918 0.649401 0.343832
0.135584 0.649066 0.411880
0.135251 0.648733 0.479654
0.134919 0.648402 0.547192
0.134588 0.648071 0.614524
0.134258 0.647741 0.681670
0.133929 0.647412 0.748651
0.133601 0.647083 0.815481
0.133273 0.646756 0.882171
0.132946 0.646429 0.948734
0.132620 0.646102 1.000000
0.134519 0.715394 0.000000
0.134364 0.715238 0.000000
0.134013 0.714887 0.064040
0.133669 0.714543 0.134111
0.133328 0.714203 0.203416
0.132990 0.713865 0.272194
0.132655 0.713529 0.340568
0.132320 0.713194 0.408616
0.131987 0.712861 0.476390
0.131655 0.712530 0.543929
0.131325 0.712199 0.611260
0.130995 0.711869 0.678407
0.130666 0.711540 0.745387
0.130337 0.711212 0.812217
0.130010 0.710884 0.878908
0.129683 0.710557 0.945470
0.129356 0.710230 1.000000
0.131263 0.779370 0.000000
0.131108 0.779215 0.000000
0.130757 0.778864 0.060784
0.130413 0.778520 0.130855
0.130072 0.778179 0.200160
0.129734 0.777841 0.268938
0.129399 0.777505 0.337312
0.129064 0.777171 0.405360
0.128731 0.776838 0.473134
0.128399 0.776506 0.540673
0.128069 0.776175 0.608004
0.127739 0.775845 0.675151
0.127410 0.775516 0.742131
0.127081 0.775188 0.808961
0.126754 0.774860 0.875652
0.126427 0.774533 0.942214
0.126100 0.774207 1.000000
0.128015 0.843208 0.000000
0.127859 0.843053 0.000000
0.127508 0.842702 0.057535
0.127164 0.842358 0.127606
0.126823 0.842017 0.196912
0.126486 0.841679 0.265689
0.126150 0.841343 0.334063
0.125815 0.841009 0.402111
0.125482 0.840676 0.469885
0.125151 0.840344 0.537424
0.124820 0.840013 0.604755
0.124490 0.839684 0.671902
0.124161 0.839355 0.738883
0.123832 0.839026 0.805712
0.123505 0.838699 0.872403
0.123178 0.838372 0.938965
0.122851 0.838045 1.000000
0.124772 0.906919 0.000000
0.124617 0.906764 0.000000
0.124266 0.906413 0.054293
0.123921 0.906068 0.124363
0.123581 0.905728 0.193669
0.123243 0.905390 0.262447
0.122907 0.905054 0.330821
0.122573 0.904720 0.398869
0.122240 0.904387 0.466643
0.121908 0.904055 0.534181
0.121577 0.903724 0.601512
0.121247 0.903394 0.668659
0.120918 0.903065 0.735640
0.120590 0.902737 0.802469
0.120262 0.902409 0.869160
0.119935 0.902082 0.935723
0.119609 0.901756 1.000000
0.121536 0.970512 0.000000
0.121380 0.970357 0.000000
0.121029 0.970005 0.051056
0.120685 0.969661 0.121127
0.120345 0.969321 0.190433
0.120007 0.968983 0.259210
0.119671 0.968647 0.327584
0.119336 0.968312 0.395632
0.119003 0.967979 0.463406
0.118672 0.967648 0.530945
0.118341 0.967317 0.598276
0.118011 0.966987 0.665423
0.117682 0.966658 0.732404
0.117354 0.966330 0.799233
0.117026 0.966002 0.865924
0.116699 0.965675 0.932486
0.116372 0.965348 0.998930
0.119109 1.000000 0.000000
0.118954 1.000000 0.000000
0.118603 1.000000 0.048630
0.118259 1.000000 0.118701
0.117918 1.000000 0.188006
0.117580 1.000000 0.256784
0.117244 1.000000 0.325158
0.116910 1.000000 0.393206
0.116577 1.000000 0.460980
0.116245 1.000000 0.528518
0.115914 1.000000 0.595850
0.115585 1.000000 0.662997
0.115255 1.000000 0.729977
0.114927 1.000000 0.796807
0.114600 1.000000 0.863497
0.114273 1.000000 0.930060
0.113946 1.000000 0.996504
0.239703 0.000000 0.000000
0.239548 0.000000 0.028083
0.239196 0.000000 0.099574
0.238852 0.000000 0.169644
0.238512 0.000000 0.238950
0.238174 0.000000 0.307727
0.237838 0.000000 0.376102
0.237504 0.000000 0.444149
0.237171 0.000000 0.511924
0.236839 0.000000 0.579462
0.236508 0.000000 0.646793
0.236178 0.000000 0.713940
0.235849 0.000000 0.780921
0.235521 0.000000 0.847750
0.235193 0.000000 0.914441
0.234866 0.000000 0.981003
0.234540 0.000000 1.000000
0.236424 0.060919 0.000000
