skills/editops-orchestrator/assets/grade/luts/ad_warm_v12.cube
TITLE "ad_warm_v12"
LUT_3D_SIZE 17
DOMAIN_MIN 0.0 0.0 0.0
DOMAIN_MAX 1.0 1.0 1.0
0.033080 0.000000 0.000000
0.032929 0.000000 0.028407
0.032549 0.000000 0.100683
0.032179 0.000000 0.171379
0.031812 0.000000 0.241242
0.031449 0.000000 0.310532
0.031088 0.000000 0.379387
0.030728 0.000000 0.447891
0.030371 0.000000 0.516100
0.030014 0.000000 0.584056
0.029659 0.000000 0.651790
0.029305 0.000000 0.719327
0.028951 0.000000 0.786685
0.028599 0.000000 0.853881
0.028247 0.000000 0.920929
0.027896 0.000000 0.987839
0.027546 0.000000 1.000000
0.029570 0.063889 0.000000
0.029418 0.063737 0.024897
0.029039 0.063358 0.097173
0.028668 0.062988 0.167869
0.028302 0.062621 0.237731
0.027939 0.062258 0.307022
0.027577 0.061897 0.375877
0.027218 0.061537 0.444381
0.026860 0.061179 0.512590
0.026504 0.060823 0.580546
0.026149 0.060468 0.648280
0.025795 0.060114 0.715816
0.025441 0.059760 0.783175
0.025089 0.059408 0.850371
0.024737 0.059056 0.917419
0.024386 0.058705 0.984329
0.024036 0.058355 1.000000
0.025867 0.131833 0.000000
0.025715 0.131681 0.021194
0.025336 0.131302 0.093470
0.024965 0.130932 0.164166
0.024599 0.130565 0.234028
0.024236 0.130202 0.303319
0.023874 0.129841 0.372174
0.023515 0.129481 0.440678
0.023157 0.129124 0.508887
0.022801 0.128767 0.576843
0.022446 0.128412 0.644577
0.022091 0.128058 0.712113
0.021738 0.127704 0.779472
0.021386 0.127352 0.846668
0.021034 0.127000 0.913715
0.020683 0.126649 0.980626
0.020333 0.126299 1.000000
0.022219 0.198761 0.000000
0.022068 0.198610 0.017546
0.021689 0.198231 0.089822
0.021318 0.197860 0.160518
0.020951 0.197493 0.230381
0.020588 0.197130 0.299671
0.020227 0.196769 0.368526
0.019867 0.196409 0.437030
0.019510 0.196052 0.505239
0.019153 0.195695 0.573195
0.018798 0.195340 0.640929
0.018444 0.194986 0.708466
0.018091 0.194633 0.775824
0.017738 0.194280 0.843020
0.017386 0.193928 0.910068
0.017035 0.193577 0.976978
0.016685 0.193227 1.000000
0.018607 0.265050 0.000000
0.018455 0.264899 0.013933
0.018076 0.264519 0.086209
0.017705 0.264149 0.156906
0.017338 0.263782 0.226768
0.016975 0.263419 0.296058
0.016614 0.263058 0.364913
0.016255 0.262698 0.433417
0.015897 0.262341 0.501627
0.015540 0.261984 0.569583
0.015185 0.261629 0.637317
0.014831 0.261275 0.704853
0.014478 0.260921 0.772211
0.014125 0.260569 0.839407
0.013774 0.260217 0.906455
0.013423 0.259866 0.973366
0.013072 0.259516 1.000000
0.015019 0.330872 0.000000
0.014867 0.330720 0.010346
0.014488 0.330341 0.082622
0.014118 0.329970 0.153318
0.013751 0.329604 0.223180
0.013388 0.329240 0.292471
0.013027 0.328879 0.361326
0.012667 0.328520 0.429830
0.012310 0.328162 0.498039
0.011953 0.327806 0.565995
0.011598 0.327450 0.633729
0.011244 0.327096 0.701266
0.010890 0.326743 0.768624
0.010538 0.326391 0.835820
0.010186 0.326039 0.902868
0.009835 0.325688 0.969778
0.009485 0.325338 1.000000
0.011452 0.396325 0.000000
0.011300 0.396173 0.006779
0.010921 0.395794 0.079055
0.010550 0.395423 0.149751
0.010184 0.395057 0.219613
0.009820 0.394693 0.288904
0.009459 0.394332 0.357759
0.009100 0.393973 0.426263
0.008742 0.393615 0.494472
0.008386 0.393259 0.562428
0.008031 0.392904 0.630162
0.007676 0.392549 0.697698
0.007323 0.392196 0.765056
0.006971 0.391844 0.832253
0.006619 0.391492 0.899300
0.006268 0.391141 0.966211
0.005918 0.390791 1.000000
0.007901 0.461474 0.000000
0.007749 0.461323 0.003228
0.007370 0.460943 0.075504
0.007000 0.460573 0.146200
0.006633 0.460206 0.216062
0.006270 0.459843 0.285353
0.005909 0.459482 0.354208
0.005549 0.459122 0.422712
0.005192 0.458765 0.490921
0.004835 0.458408 0.558877
0.004480 0.458053 0.626611
0.004126 0.457699 0.694148
0.003772 0.457345 0.761506
0.003420 0.456993 0.828702
0.003068 0.456641 0.895750
0.002717 0.456290 0.962660
0.002367 0.455940 1.000000
0.004365 0.526365 0.000000
0.004213 0.526214 0.000000
0.003834 0.525834 0.071967
0.003463 0.525464 0.142664
0.003097 0.525097 0.212526
0.002733 0.524734 0.281816
0.002372 0.524373 0.350671
0.002013 0.524013 0.419175
0.001655 0.523656 0.487385
0.001298 0.523299 0.555341
0.000943 0.522944 0.623075
0.000589 0.522590 0.690611
0.000236 0.522236 0.757969
0.000000 0.521884 0.825165
0.000000 0.521532 0.892213
0.000000 0.521181 0.959124
0.000000 0.520831 1.000000
0.000840 0.591032 0.000000
0.000688 0.590880 0.000000
0.000309 0.590501 0.068443
0.000000 0.590130 0.139139
0.000000 0.589764 0.209001
0.000000 0.589400 0.278292
0.000000 0.589039 0.347147
0.000000 0.588680 0.415651
0.000000 0.588322 0.483860
0.000000 0.587965 0.551816
0.000000 0.587610 0.619550
0.000000 0.587256 0.687087
0.000000 0.586903 0.754445
0.000000 0.586550 0.821641
0.000000 0.586199 0.888689
0.000000 0.585848 0.955599
0.000000 0.585497 1.000000
0.000000 0.655499 0.000000
0.000000 0.655347 0.000000
0.000000 0.654968 0.064929
0.000000 0.654597 0.135626
0.000000 0.654231 0.205488
0.000000 0.653868 0.274778
0.000000 0.653507 0.343634
0.000000 0.653147 0.412137
0.000000 0.652789 0.480347
0.000000 0.652433 0.548303
0.000000 0.652078 0.616037
0.000000 0.651724 0.683573
0.000000 0.651370 0.750931
0.000000 0.651018 0.818127
0.000000 0.650666 0.885175
0.000000 0.650315 0.952086
0.000000 0.649965 1.000000
0.000000 0.719789 0.000000
0.000000 0.719637 0.000000
0.000000 0.719258 0.061426
0.000000 0.718887 0.132122
0.000000 0.718521 0.201984
0.000000 0.718157 0.271275
0.000000 0.717796 0.340130
0.000000 0.717437 0.408633
0.000000 0.717079 0.476843
0.000000 0.716723 0.544799
0.000000 0.716367 0.612533
0.000000 0.716013 0.680069
0.000000 0.715660 0.747427
0.000000 0.715307 0.814624
0.000000 0.714956 0.881671
0.000000 0.714605 0.948582
0.000000 0.714254 1.000000
0.000000 0.783917 0.000000
0.000000 0.783765 0.000000
0.000000 0.783386 0.057931
0.000000 0.783015 0.128627
0.000000 0.782649 0.198489
0.000000 0.782285 0.267779
0.000000 0.781924 0.336635
0.000000 0.781565 0.405138
0.000000 0.781207 0.473348
0.000000 0.780851 0.541304
0.000000 0.780495 0.609038
0.000000 0.780141 0.676574
0.000000 0.779788 0.743932
0.000000 0.779436 0.811128
0.000000 0.779084 0.878176
0.000000 0.778733 0.945087
0.000000 0.778383 1.000000
0.000000 0.847898 0.000000
0.000000 0.847746 0.000000
0.000000 0.847367 0.054444
0.000000 0.846996 0.125140
0.000000 0.846630 0.195002
0.000000 0.846266 0.264292
0.000000 0.845905 0.333148
0.000000 0.845546 0.401651
0.000000 0.845188 0.469861
0.000000 0.844832 0.537817
0.000000 0.844476 0.605551
0.000000 0.844122 0.673087
0.000000 0.843769 0.740445
0.000000 0.843416 0.807641
0.000000 0.843065 0.874689
0.000000 0.842714 0.941600
0.000000 0.842363 1.000000
0.000000 0.911743 0.000000
0.000000 0.911591 0.000000
0.000000 0.911212 0.050964
0.000000 0.910841 0.121660
0.000000 0.910475 0.191522
0.000000 0.910111 0.260813
0.000000 0.909750 0.329668
0.000000 0.909391 0.398172
0.000000 0.909033 0.466381
0.000000 0.908677 0.534337
0.000000 0.908322 0.602071
0.000000 0.907967 0.669607
0.000000 0.907614 0.736966
0.000000 0.907262 0.804162
0.000000 0.906910 0.871209
0.000000 0.906559 0.938120
0.000000 0.906209 1.000000
0.000000 0.975463 0.000000
0.000000 0.975311 0.000000
0.000000 0.974932 0.047491
0.000000 0.974561 0.118187
0.000000 0.974195 0.188049
0.000000 0.973831 0.257340
0.000000 0.973470 0.326195
0.000000 0.973111 0.394699
0.000000 0.972753 0.462908
0.000000 0.972396 0.530864
0.000000 0.972041 0.598598
0.000000 0.971687 0.666135
0.000000 0.971334 0.733493
0.000000 0.970981 0.800689
0.000000 0.970630 0.867737
0.000000 0.970279 0.934647
0.000000 0.969928 1.000000
0.000000 1.000000 0.000000
0.000000 1.000000 0.000000
0.000000 1.000000 0.044973
0.000000 1.000000 0.115669
0.000000 1.000000 0.185531
0.000000 1.000000 0.254822
0.000000 1.000000 0.323677
0.000000 1.000000 0.392181
0.000000 1.000000 0.460390
0.000000 1.000000 0.528346
0.000000 1.000000 0.596080
0.000000 1.000000 0.663616
0.000000 1.000000 0.730974
0.000000 1.000000 0.798171
0.000000 1.000000 0.865218
0.000000 1.000000 0.932129
0.000000 1.000000 0.998912
0.104472 0.000000 0.000000
0.104320 0.000000 0.027293
0.103941 0.000000 0.099569
0.103570 0.000000 0.170265
0.103204 0.000000 0.240128
0.102840 0.000000 0.309418
0.102479 0.000000 0.378273
0.102120 0.000000 0.446777
0.101762 0.000000 0.514986
0.101405 0.000000 0.582942
0.101050 0.000000 0.650676
0.100696 0.000000 0.718213
0.100343 0.000000 0.785571
0.099990 0.000000 0.852767
0.099639 0.000000 0.919815
0.099288 0.000000 0.986725
0.098937 0.000000 1.000000
0.100961 0.062775 0.000000
0.100810 0.062623 0.023783
0.100431 0.062244 0.096059
0.100060 0.061874 0.166755
0.099693 0.061507 0.236617
0.099330 0.061144 0.305908
0.098969 0.060783 0.374763
0.098610 0.060423 0.443267
0.098252 0.060066 0.511476
0.097895 0.059709 0.579432
0.097540 0.059354 0.647166
0.097186 0.059000 0.714702
0.096833 0.058646 0.782061
0.096480 0.058294 0.849257
0.096128 0.057942 0.916305
0.095778 0.057591 0.983215
0.095427 0.057241 1.000000
0.097258 0.130719 0.000000
0.097107 0.130568 0.020080
0.096728 0.130188 0.092356
0.096357 0.129818 0.163052
0.095990 0.129451 0.232914
0.095627 0.129088 0.302205
0.095266 0.128727 0.371060
0.094906 0.128367 0.439564
0.094549 0.128010 0.507773
0.094192 0.127653 0.575729
0.093837 0.127298 0.643463
0.093483 0.126944 0.710999
0.093130 0.126590 0.778358
0.092777 0.126238 0.845554
0.092425 0.125886 0.912602
0.092074 0.125535 0.979512
0.091724 0.125185 1.000000
0.093611 0.197647 0.000000
0.093459 0.197496 0.016432
0.093080 0.197117 0.088708
0.092709 0.196746 0.159404
0.092343 0.196379 0.229267
0.091979 0.196016 0.298557
0.091618 0.195655 0.367412
0.091259 0.195296 0.435916
0.090901 0.194938 0.504125
0.090545 0.194581 0.572081
0.090189 0.194226 0.639815
0.089835 0.193872 0.707352
0.089482 0.193519 0.774710
0.089129 0.193166 0.841906
0.088778 0.192814 0.908954
0.088427 0.192464 0.975864
0.088077 0.192113 1.000000
0.089998 0.263936 0.000000
0.089846 0.263785 0.012819
0.089467 0.263406 0.085095
0.089096 0.263035 0.155792
0.088730 0.262668 0.225654
0.088366 0.262305 0.294944
0.088005 0.261944 0.363799
0.087646 0.261584 0.432303
0.087288 0.261227 0.500513
0.086932 0.260870 0.568469
0.086577 0.260515 0.636203
0.086222 0.260161 0.703739
0.085869 0.259807 0.771097
0.085517 0.259455 0.838293
0.085165 0.259103 0.905341
0.084814 0.258752 0.972252
0.084464 0.258402 1.000000
0.086410 0.329758 0.000000
0.086259 0.329606 0.009232
0.085880 0.329227 0.081508
0.085509 0.328856 0.152204
0.085142 0.328490 0.222067
0.084779 0.328126 0.291357
0.084418 0.327765 0.360212
0.084059 0.327406 0.428716
0.083701 0.327048 0.496925
0.083344 0.326692 0.564881
0.082989 0.326337 0.632615
0.082635 0.325982 0.700152
0.082282 0.325629 0.767510
0.081929 0.325277 0.834706
0.081578 0.324925 0.901754
0.081227 0.324574 0.968664
0.080876 0.324224 1.000000
0.082843 0.395211 0.000000
0.082692 0.395059 0.005665
0.082312 0.394680 0.077941
0.081942 0.394309 0.148637
0.081575 0.393943 0.218499
0.081212 0.393580 0.287790
0.080851 0.393218 0.356645
0.080491 0.392859 0.425149
0.080134 0.392501 0.493358
0.079777 0.392145 0.561314
0.079422 0.391790 0.629048
0.079068 0.391435 0.696584
0.078714 0.391082 0.763943
0.078362 0.390730 0.831139
0.078010 0.390378 0.898186
0.077659 0.390027 0.965097
0.077309 0.389677 1.000000
0.079292 0.460360 0.000000
0.079141 0.460209 0.002114
0.078762 0.459830 0.074390
0.078391 0.459459 0.145086
0.078024 0.459092 0.214949
0.077661 0.458729 0.284239
0.077300 0.458368 0.353094
0.076941 0.458008 0.421598
0.076583 0.457651 0.489807
0.076226 0.457294 0.557763
0.075871 0.456939 0.625497
0.075517 0.456585 0.693034
0.075164 0.456232 0.760392
0.074811 0.455879 0.827588
0.074460 0.455527 0.894636
0.074109 0.455176 0.961546
0.073758 0.454826 1.000000
0.075756 0.525251 0.000000
0.075604 0.525100 0.000000
0.075225 0.524721 0.070853
0.074854 0.524350 0.141550
0.074488 0.523983 0.211412
0.074124 0.523620 0.280702
0.073763 0.523259 0.349558
0.073404 0.522899 0.418061
0.073046 0.522542 0.486271
0.072690 0.522185 0.554227
0.072335 0.521830 0.621961
0.071980 0.521476 0.689497
0.071627 0.521122 0.756855
0.071275 0.520770 0.824051
0.070923 0.520418 0.891099
0.070572 0.520067 0.958010
0.070222 0.519717 1.000000
0.072231 0.589918 0.000000
0.072080 0.589766 0.000000
0.071701 0.589387 0.067329
0.071330 0.589016 0.138025
0.070963 0.588650 0.207888
0.070600 0.588286 0.277178
0.070239 0.587925 0.346033
0.069880 0.587566 0.414537
0.069522 0.587208 0.482746
0.069165 0.586852 0.550702
0.068810 0.586496 0.618436
0.068456 0.586142 0.685973
0.068103 0.585789 0.753331
0.067750 0.585436 0.820527
0.067399 0.585085 0.887575
0.067048 0.584734 0.954485
0.066697 0.584383 1.000000
0.068718 0.654385 0.000000
0.068566 0.654233 0.000000
0.068187 0.653854 0.063816
0.067816 0.653484 0.134512
0.067450 0.653117 0.204374
0.067086 0.652754 0.273664
0.066725 0.652393 0.342520
0.066366 0.652033 0.411023
0.066008 0.651676 0.479233
0.065652 0.651319 0.547189
0.065297 0.650964 0.614923
0.064942 0.650610 0.682459
0.064589 0.650256 0.749817
0.064237 0.649904 0.817013
0.063885 0.649552 0.884061
0.063534 0.649201 0.950972
0.063184 0.648851 1.000000
0.065214 0.718675 0.000000
0.065062 0.718523 0.000000
0.064683 0.718144 0.060312
0.064312 0.717773 0.131008
0.063946 0.717407 0.200870
0.063583 0.717043 0.270161
0.063221 0.716682 0.339016
0.062862 0.716323 0.407519
0.062504 0.715965 0.475729
0.062148 0.715609 0.543685
0.061793 0.715253 0.611419
0.061439 0.714899 0.678955
0.061085 0.714546 0.746313
0.060733 0.714193 0.813510
0.060381 0.713842 0.880557
0.060030 0.713491 0.947468
0.059680 0.713140 1.000000
0.061719 0.782803 0.000000
0.061567 0.782651 0.000000
0.061188 0.782272 0.056817
0.060817 0.781901 0.127513
0.060451 0.781535 0.197375
0.060088 0.781171 0.266666
0.059726 0.780810 0.335521
0.059367 0.780451 0.404024
0.059009 0.780093 0.472234
0.058653 0.779737 0.540190
0.058298 0.779382 0.607924
0.057943 0.779027 0.675460
0.057590 0.778674 0.742818
0.057238 0.778322 0.810015
0.056886 0.777970 0.877062
0.056535 0.777619 0.943973
0.056185 0.777269 1.000000
0.058232 0.846784 0.000000
0.058080 0.846632 0.000000
0.057701 0.846253 0.053330
0.057330 0.845882 0.124026
0.056964 0.845516 0.193888
0.056601 0.845152 0.263178
0.056239 0.844791 0.332034
0.055880 0.844432 0.400537
0.055522 0.844074 0.468747
0.055166 0.843718 0.536703
0.054811 0.843362 0.604437
0.054456 0.843008 0.671973
0.054103 0.842655 0.739331
0.053751 0.842302 0.806527
0.053399 0.841951 0.873575
0.053048 0.841600 0.940486
0.052698 0.841250 1.000000
0.054752 0.910629 0.000000
0.054601 0.910477 0.000000
0.054222 0.910098 0.049850
0.053851 0.909727 0.120546
0.053484 0.909361 0.190408
0.053121 0.908997 0.259699
0.052760 0.908636 0.328554
0.052400 0.908277 0.397058
0.052043 0.907919 0.465267
0.051686 0.907563 0.533223
0.051331 0.907208 0.600957
0.050977 0.906853 0.668493
0.050623 0.906500 0.735852
0.050271 0.906148 0.803048
0.049919 0.905796 0.870095
0.049568 0.905445 0.937006
0.049218 0.905095 1.000000
0.051279 0.974349 0.000000
0.051128 0.974197 0.000000
0.050749 0.973818 0.046377
0.050378 0.973447 0.117073
0.050011 0.973081 0.186936
0.049648 0.972717 0.256226
0.049287 0.972356 0.325081
0.048928 0.971997 0.393585
0.048570 0.971639 0.461794
0.048213 0.971283 0.529750
0.047858 0.970927 0.597484
0.047504 0.970573 0.665021
0.047151 0.970220 0.732379
0.046798 0.969867 0.799575
0.046447 0.969516 0.866623
0.046096 0.969165 0.933533
0.045745 0.968814 1.000000
0.048761 1.000000 0.000000
0.048610 1.000000 0.000000
0.048230 1.000000 0.043859
0.047860 1.000000 0.114555
0.047493 1.000000 0.184417
0.047130 1.000000 0.253708
0.046769 1.000000 0.322563
0.046409 1.000000 0.391067
0.046052 1.000000 0.459276
0.045695 1.000000 0.527232
0.045340 1.000000 0.594966
0.044986 1.000000 0.662502
0.044632 1.000000 0.729861
0.044280 1.000000 0.797057
0.043928 1.000000 0.864104
0.043577 1.000000 0.931015
0.043227 1.000000 0.997798
0.174384 0.000000 0.000000
0.174232 0.000000 0.026202
0.173853 0.000000 0.098478
0.173482 0.000000 0.169174
0.173116 0.000000 0.239037
0.172753 0.000000 0.308327
0.172391 0.000000 0.377182
0.172032 0.000000 0.445686
0.171674 0.000000 0.513895
0.171318 0.000000 0.581851
0.170963 0.000000 0.649585
0.170608 0.000000 0.717122
0.170255 0.000000 0.784480
0.169903 0.000000 0.851676
0.169551 0.000000 0.918724
0.169200 0.000000 0.985634
0.168850 0.000000 1.000000
0.170874 0.061684 0.000000
0.170722 0.061533 0.022692
0.170343 0.061153 0.094968
0.169972 0.060783 0.165664
0.169606 0.060416 0.235527
0.169242 0.060053 0.304817
0.168881 0.059692 0.373672
0.168522 0.059332 0.442176
0.168164 0.058975 0.510385
0.167808 0.058618 0.578341
0.167452 0.058263 0.646075
0.167098 0.057909 0.713612
0.166745 0.057555 0.780970
0.166393 0.057203 0.848166
0.166041 0.056851 0.915214
0.165690 0.056500 0.982124
0.165340 0.056150 1.000000
0.167171 0.129628 0.000000
0.167019 0.129477 0.018989
0.166640 0.129098 0.091265
0.166269 0.128727 0.161961
0.165903 0.128360 0.231824
0.165539 0.127997 0.301114
0.165178 0.127636 0.369969
0.164819 0.127277 0.438473
0.164461 0.126919 0.506682
0.164105 0.126562 0.574638
0.163749 0.126207 0.642372
0.163395 0.125853 0.709909
0.163042 0.125500 0.777267
0.162689 0.125147 0.844463
0.162338 0.124795 0.911511
0.161987 0.124445 0.978421
0.161637 0.124094 1.000000
0.163523 0.196557 0.000000
0.163371 0.196405 0.015341
0.162992 0.196026 0.087617
0.162621 0.195655 0.158314
0.162255 0.195289 0.228176
0.161892 0.194925 0.297466
0.161531 0.194564 0.366321
0.161171 0.194205 0.434825
0.160813 0.193847 0.503035
0.160457 0.193490 0.570991
0.160102 0.193135 0.638725
0.159748 0.192781 0.706261
0.159394 0.192428 0.773619
0.159042 0.192075 0.840815
0.158690 0.191724 0.907863
0.158339 0.191373 0.974774
0.157989 0.191022 1.000000
0.159910 0.262845 0.000000
0.159759 0.262694 0.011728
0.159379 0.262315 0.084005
0.159009 0.261944 0.154701
0.158642 0.261577 0.224563
0.158279 0.261214 0.293854
0.157918 0.260853 0.362709
0.157558 0.260494 0.431212
0.157201 0.260136 0.499422
0.156844 0.259779 0.567378
0.156489 0.259424 0.635112
0.156135 0.259070 0.702648
0.155781 0.258717 0.770006
0.155429 0.258364 0.837203
0.155077 0.258013 0.904250
0.154726 0.257662 0.971161
0.154376 0.257311 1.000000
0.156323 0.328667 0.000000
0.156171 0.328515 0.008141
0.155792 0.328136 0.080417
0.155421 0.327765 0.151113
0.155055 0.327399 0.220976
0.154691 0.327036 0.290266
0.154330 0.326674 0.359121
0.153971 0.326315 0.427625
0.153613 0.325957 0.495834
0.153257 0.325601 0.563790
0.152902 0.325246 0.631524
0.152547 0.324891 0.699061
0.152194 0.324538 0.766419
0.151842 0.324186 0.833615
0.151490 0.323834 0.900663
0.151139 0.323483 0.967573
0.150789 0.323133 1.000000
0.152756 0.394120 0.000000
0.152604 0.393968 0.004574
0.152225 0.393589 0.076850
0.151854 0.393219 0.147546
0.151488 0.392852 0.217408
0.151124 0.392489 0.286699
0.150763 0.392128 0.355554
0.150404 0.391768 0.424058
0.150046 0.391410 0.492267
0.149690 0.391054 0.560223
0.149334 0.390699 0.627957
0.148980 0.390345 0.695493
0.148627 0.389991 0.762852
0.148274 0.389639 0.830048
0.147923 0.389287 0.897096
0.147572 0.388936 0.964006
0.147221 0.388586 1.000000
0.149205 0.459269 0.000000
0.149053 0.459118 0.001023
0.148674 0.458739 0.073299
0.148303 0.458368 0.143995
0.147937 0.458001 0.213858
0.147573 0.457638 0.283148
0.147212 0.457277 0.352003
0.146853 0.456918 0.420507
0.146495 0.456560 0.488716
0.146139 0.456203 0.556672
0.145784 0.455848 0.624406
0.145429 0.455494 0.691943
0.145076 0.455141 0.759301
0.144724 0.454788 0.826497
0.144372 0.454437 0.893545
0.144021 0.454086 0.960455
0.143671 0.453735 1.000000
0.145668 0.524160 0.000000
0.145517 0.524009 0.000000
0.145137 0.523630 0.069763
0.144767 0.523259 0.140459
0.144400 0.522892 0.210321
0.144037 0.522529 0.279612
0.143676 0.522168 0.348467
0.143316 0.521809 0.416970
0.142959 0.521451 0.485180
0.142602 0.521094 0.553136
0.142247 0.520739 0.620870
0.141893 0.520385 0.688406
0.141539 0.520032 0.755764
0.141187 0.519679 0.822961
0.140835 0.519328 0.890008
0.140484 0.518977 0.956919
0.140134 0.518626 1.000000
0.142144 0.588827 0.000000
0.141992 0.588675 0.000000
0.141613 0.588296 0.066238
0.141242 0.587925 0.136934
0.140876 0.587559 0.206797
0.140512 0.587195 0.276087
0.140151 0.586834 0.344942
0.139792 0.586475 0.413446
0.139434 0.586117 0.481655
0.139078 0.585761 0.549611
0.138723 0.585405 0.617345
0.138368 0.585051 0.684882
0.138015 0.584698 0.752240
0.137663 0.584345 0.819436
0.137311 0.583994 0.886484
0.136960 0.583643 0.953394
0.136610 0.583293 1.000000
0.138630 0.653294 0.000000
0.138479 0.653143 0.000000
0.138100 0.652763 0.062725
0.137729 0.652393 0.133421
0.137362 0.652026 0.203283
0.136999 0.651663 0.272574
0.136638 0.651302 0.341429
0.136278 0.650942 0.409932
0.135921 0.650585 0.478142
0.135564 0.650228 0.546098
0.135209 0.649873 0.613832
0.134855 0.649519 0.681368
0.134501 0.649165 0.748726
0.134149 0.648813 0.815923
0.133797 0.648461 0.882970
0.133446 0.648110 0.949881
0.133096 0.647760 1.000000
0.135126 0.717584 0.000000
0.134975 0.717432 0.000000
0.134596 0.717053 0.059221
0.134225 0.716682 0.129917
0.133858 0.716316 0.199779
0.133495 0.715952 0.269070
0.133134 0.715591 0.337925
0.132775 0.715232 0.406429
0.132417 0.714874 0.474638
0.132060 0.714518 0.542594
0.131705 0.714162 0.610328
0.131351 0.713808 0.677864
0.130998 0.713455 0.745222
0.130645 0.713102 0.812419
0.130294 0.712751 0.879466
0.129943 0.712400 0.946377
0.129592 0.712050 1.000000
0.131631 0.781712 0.000000
0.131480 0.781560 0.000000
0.131101 0.781181 0.055726
0.130730 0.780810 0.126422
0.130363 0.780444 0.196284
0.130000 0.780081 0.265575
0.129639 0.779719 0.334430
0.129280 0.779360 0.402933
0.128922 0.779002 0.471143
0.128565 0.778646 0.539099
0.128210 0.778291 0.606833
0.127856 0.777936 0.674369
0.127503 0.777583 0.741727
0.127150 0.777231 0.808924
0.126798 0.776879 0.875971
0.126448 0.776528 0.942882
0.126097 0.776178 1.000000
0.128144 0.845693 0.000000
0.127993 0.845541 0.000000
0.127614 0.845162 0.052239
0.127243 0.844791 0.122935
0.126876 0.844425 0.192797
0.126513 0.844061 0.262088
0.126152 0.843700 0.330943
0.125792 0.843341 0.399446
0.125435 0.842983 0.467656
0.125078 0.842627 0.535612
0.124723 0.842271 0.603346
0.124369 0.841917 0.670882
0.124016 0.841564 0.738240
0.123663 0.841212 0.805437
0.123311 0.840860 0.872484
0.122960 0.840509 0.939395
0.122610 0.840159 1.000000
0.124665 0.909538 0.000000
0.124513 0.909386 0.000000
0.124134 0.909007 0.048759
0.123763 0.908636 0.119455
0.123397 0.908270 0.189317
0.123033 0.907907 0.258608
0.122672 0.907545 0.327463
0.122313 0.907186 0.395967
0.121955 0.906828 0.464176
0.121599 0.906472 0.532132
0.121243 0.906117 0.599866
0.120889 0.905763 0.667403
0.120536 0.905409 0.734761
0.120183 0.905057 0.801957
0.119832 0.904705 0.869005
0.119481 0.904354 0.935915
0.119131 0.904004 1.000000
0.121192 0.973258 0.000000
0.121040 0.973106 0.000000
0.120661 0.972727 0.045286
0.120290 0.972356 0.115982
0.119924 0.971990 0.185845
0.119560 0.971626 0.255135
0.119199 0.971265 0.323990
0.118840 0.970906 0.392494
0.118482 0.970548 0.460703
0.118126 0.970192 0.528659
0.117771 0.969836 0.596393
0.117416 0.969482 0.663930
0.117063 0.969129 0.731288
0.116711 0.968776 0.798484
0.116359 0.968425 0.865532
0.116008 0.968074 0.932442
0.115658 0.967724 0.999226
0.118674 1.000000 0.000000
0.118522 1.000000 0.000000
0.118143 1.000000 0.042768
0.117772 1.000000 0.113464
0.117406 1.000000 0.183326
0.117042 1.000000 0.252617
0.116681 1.000000 0.321472
0.116322 1.000000 0.389976
0.115964 1.000000 0.458185
0.115608 1.000000 0.526141
0.115252 1.000000 0.593875
0.114898 1.000000 0.661411
0.114545 1.000000 0.728770
0.114192 1.000000 0.795966
0.113841 1.000000 0.863014
0.113490 1.000000 0.929924
0.113139 1.000000 0.996707
0.243494 0.000000 0.000000
0.243342 0.000000 0.025124
0.242963 0.000000 0.097400
0.242592 0.000000 0.168096
0.242226 0.000000 0.237958
0.241862 0.000000 0.307249
0.241501 0.000000 0.376104
0.241142 0.000000 0.444608
0.240784 0.000000 0.512817
0.240428 0.000000 0.580773
0.240072 0.000000 0.648507
0.239718 0.000000 0.716043
0.239365 0.000000 0.783402
0.239012 0.000000 0.850598
0.238661 0.000000 0.917646
0.238310 0.000000 0.984556
0.237959 0.000000 1.000000
0.239983 0.060606 0.000000
