skills/editops-orchestrator/assets/grade/luts/ad_warm_v06.cube
TITLE "ad_warm_v06"
LUT_3D_SIZE 9
DOMAIN_MIN 0.0 0.0 0.0
DOMAIN_MAX 1.0 1.0 1.0
0.020199 0.000000 0.000000
0.019840 0.000000 0.111661
0.019411 0.000000 0.245333
0.018987 0.000000 0.377616
0.018566 0.000000 0.509043
0.018146 0.000000 0.639847
0.017729 0.000000 0.770162
0.017312 0.000000 0.900076
0.016897 0.000000 1.000000
0.015944 0.129928 0.000000
0.015586 0.129569 0.107407
0.015157 0.129141 0.241078
0.014733 0.128717 0.373362
0.014312 0.128295 0.504789
0.013892 0.127876 0.635593
0.013474 0.127458 0.765908
0.013058 0.127042 0.895821
0.012643 0.126626 1.000000
0.011708 0.259496 0.000000
0.011350 0.259138 0.103171
0.010921 0.258709 0.236842
0.010497 0.258285 0.369126
0.010076 0.257864 0.500552
0.009656 0.257444 0.631357
0.009238 0.257026 0.761672
0.008822 0.256610 0.891585
0.008406 0.256194 1.000000
0.007512 0.387843 0.000000
0.007154 0.387484 0.098975
0.006725 0.387055 0.232646
0.006301 0.386631 0.364930
0.005879 0.386210 0.496356
0.005460 0.385791 0.627161
0.005042 0.385373 0.757476
0.004626 0.384956 0.887389
0.004210 0.384541 1.000000
0.003342 0.515405 0.000000
0.002983 0.515047 0.094805
0.002554 0.514618 0.228476
0.002130 0.514194 0.360759
0.001709 0.513773 0.492186
0.001290 0.513353 0.622990
0.000872 0.512935 0.753306
0.000455 0.512519 0.883219
0.000040 0.512103 1.000000
0.000000 0.642389 0.000000
0.000000 0.642031 0.090653
0.000000 0.641602 0.224324
0.000000 0.641178 0.356608
0.000000 0.640757 0.488034
0.000000 0.640337 0.618839
0.000000 0.639919 0.749154
0.000000 0.639503 0.879067
0.000000 0.639087 1.000000
0.000000 0.768915 0.000000
0.000000 0.768556 0.086516
0.000000 0.768128 0.220188
0.000000 0.767703 0.352471
0.000000 0.767282 0.483898
0.000000 0.766863 0.614702
0.000000 0.766445 0.745017
0.000000 0.766028 0.874931
0.000000 0.765613 1.000000
0.000000 0.895060 0.000000
0.000000 0.894702 0.082392
0.000000 0.894273 0.216063
0.000000 0.893849 0.348347
0.000000 0.893428 0.479773
0.000000 0.893008 0.610578
0.000000 0.892590 0.740893
0.000000 0.892174 0.870806
0.000000 0.891758 1.000000
0.000000 1.000000 0.000000
0.000000 1.000000 0.078536
0.000000 1.000000 0.212207
0.000000 1.000000 0.344491
0.000000 1.000000 0.475918
0.000000 1.000000 0.606722
0.000000 1.000000 0.737037
0.000000 1.000000 0.866951
0.000000 1.000000 0.996522
0.154997 0.000000 0.000000
0.154638 0.000000 0.110381
0.154210 0.000000 0.244052
0.153786 0.000000 0.376335
0.153364 0.000000 0.507762
0.152945 0.000000 0.638566
0.152527 0.000000 0.768882
0.152111 0.000000 0.898795
0.151695 0.000000 1.000000
0.150743 0.128647 0.000000
0.150384 0.128289 0.106127
0.149956 0.127860 0.239798
0.149532 0.127436 0.372081
0.149110 0.127015 0.503508
0.148691 0.126595 0.634312
0.148273 0.126177 0.764628
0.147856 0.125761 0.894541
0.147441 0.125346 1.000000
0.146507 0.258216 0.000000
0.146148 0.257857 0.101891
0.145720 0.257428 0.235562
0.145295 0.257004 0.367845
0.144874 0.256583 0.499272
0.144455 0.256164 0.630076
0.144037 0.255746 0.760392
0.143620 0.255329 0.890305
0.143205 0.254914 1.000000
0.142311 0.386562 0.000000
0.141952 0.386203 0.097694
0.141523 0.385775 0.231366
0.141099 0.385351 0.363649
0.140678 0.384929 0.495076
0.140259 0.384510 0.625880
0.139841 0.384092 0.756196
0.139424 0.383676 0.886109
0.139009 0.383260 1.000000
0.138140 0.514125 0.000000
0.137782 0.513766 0.093524
0.137353 0.513337 0.227195
0.136929 0.512913 0.359479
0.136507 0.512492 0.490905
0.136088 0.512073 0.621710
0.135670 0.511655 0.752025
0.135254 0.511238 0.881938
0.134838 0.510823 1.000000
0.133989 0.641109 0.000000
0.133630 0.640750 0.089372
0.133201 0.640322 0.223043
0.132777 0.639897 0.355327
0.132356 0.639476 0.486754
0.131936 0.639057 0.617558
0.131519 0.638639 0.747873
0.131102 0.638222 0.877787
0.130687 0.637807 1.000000
0.129852 0.767634 0.000000
0.129493 0.767275 0.085236
0.129065 0.766847 0.218907
0.128641 0.766423 0.351190
0.128219 0.766001 0.482617
0.127800 0.765582 0.613421
0.127382 0.765164 0.743737
0.126965 0.764748 0.873650
0.126550 0.764332 1.000000
0.125728 0.893780 0.000000
0.125369 0.893421 0.081112
0.124941 0.892992 0.214783
0.124516 0.892568 0.347066
0.124095 0.892147 0.478493
0.123676 0.891728 0.609297
0.123258 0.891310 0.739613
0.122841 0.890893 0.869526
0.122426 0.890478 0.999097
0.121872 1.000000 0.000000
0.121513 1.000000 0.077256
0.121085 1.000000 0.210927
0.120661 1.000000 0.343210
0.120239 1.000000 0.474637
0.119820 1.000000 0.605441
0.119402 1.000000 0.735757
0.118985 1.000000 0.865670
0.118570 1.000000 0.995241
0.287283 0.000000 0.000000
0.286925 0.000000 0.109124
0.286496 0.000000 0.242795
0.286072 0.000000 0.375079
0.285651 0.000000 0.506505
0.285231 0.000000 0.637310
0.284813 0.000000 0.767625
0.284397 0.000000 0.897538
0.283981 0.000000 1.000000
0.283029 0.127391 0.000000
0.282671 0.127032 0.104870
0.282242 0.126603 0.238541
0.281818 0.126179 0.370825
0.281397 0.125758 0.502251
0.280977 0.125339 0.633055
0.280559 0.124921 0.763371
0.280143 0.124504 0.893284
0.279727 0.124089 1.000000
0.278793 0.256959 0.000000
0.278435 0.256600 0.100634
0.278006 0.256172 0.234305
0.277582 0.255748 0.366588
0.277160 0.255326 0.498015
0.276741 0.254907 0.628819
0.276323 0.254489 0.759135
0.275907 0.254072 0.889048
0.275491 0.253657 1.000000
0.274597 0.385305 0.000000
0.274238 0.384947 0.096438
0.273810 0.384518 0.230109
0.273386 0.384094 0.362392
0.272964 0.383673 0.493819
0.272545 0.383253 0.624623
0.272127 0.382835 0.754939
0.271711 0.382419 0.884852
0.271295 0.382003 1.000000
0.270427 0.512868 0.000000
0.270068 0.512509 0.092267
0.269639 0.512081 0.225938
0.269215 0.511657 0.358222
0.268794 0.511235 0.489648
0.268374 0.510816 0.620453
0.267957 0.510398 0.750768
0.267540 0.509981 0.880681
0.267125 0.509566 1.000000
0.266275 0.639852 0.000000
0.265916 0.639493 0.088116
0.265488 0.639065 0.221787
0.265064 0.638641 0.354070
0.264642 0.638219 0.485497
0.264223 0.637800 0.616301
0.263805 0.637382 0.746617
0.263388 0.636966 0.876530
0.262973 0.636550 1.000000
0.262138 0.766377 0.000000
0.261780 0.766019 0.083979
0.261351 0.765590 0.217650
0.260927 0.765166 0.349934
0.260506 0.764745 0.481360
0.260086 0.764325 0.612165
0.259668 0.763907 0.742480
0.259252 0.763491 0.872393
0.258836 0.763075 1.000000
0.258014 0.892523 0.000000
0.257656 0.892164 0.079855
0.257227 0.891736 0.213526
0.256803 0.891312 0.345809
0.256381 0.890890 0.477236
0.255962 0.890471 0.608040
0.255544 0.890053 0.738356
0.255128 0.889636 0.868269
0.254712 0.889221 0.997840
0.254158 1.000000 0.000000
0.253800 1.000000 0.075999
0.253371 1.000000 0.209670
0.252947 1.000000 0.341954
0.252526 1.000000 0.473380
0.252106 1.000000 0.604185
0.251688 1.000000 0.734500
0.251272 1.000000 0.864413
0.250856 1.000000 0.993984
0.418426 0.000000 0.000000
0.418067 0.000000 0.107878
0.417639 0.000000 0.241549
0.417215 0.000000 0.373833
0.416793 0.000000 0.505259
0.416374 0.000000 0.636064
0.415956 0.000000 0.766379
0.415540 0.000000 0.896292
0.415124 0.000000 1.000000
0.414172 0.126145 0.000000
0.413813 0.125786 0.103624
0.413385 0.125358 0.237295
0.412961 0.124933 0.369579
0.412539 0.124512 0.501005
0.412120 0.124093 0.631810
0.411702 0.123675 0.762125
0.411285 0.123258 0.892038
0.410870 0.122843 1.000000
0.409936 0.255713 0.000000
0.409577 0.255354 0.099388
0.409149 0.254926 0.233059
0.408724 0.254502 0.365343
0.408303 0.254080 0.496769
0.407884 0.253661 0.627573
0.407466 0.253243 0.757889
0.407049 0.252827 0.887802
0.406634 0.252411 1.000000
0.405740 0.384059 0.000000
0.405381 0.383701 0.095192
0.404952 0.383272 0.228863
0.404528 0.382848 0.361146
0.404107 0.382427 0.492573
0.403688 0.382007 0.623377
0.403270 0.381589 0.753693
0.402853 0.381173 0.883606
0.402438 0.380758 1.000000
0.401569 0.511622 0.000000
0.401211 0.511263 0.091021
0.400782 0.510835 0.224692
0.400358 0.510411 0.356976
0.399936 0.509989 0.488403
0.399517 0.509570 0.619207
0.399099 0.509152 0.749522
0.398683 0.508736 0.879436
0.398267 0.508320 1.000000
0.397418 0.638606 0.000000
0.397059 0.638247 0.086870
0.396630 0.637819 0.220541
0.396206 0.637395 0.352824
0.395785 0.636973 0.484251
0.395365 0.636554 0.615055
0.394948 0.636136 0.745371
0.394531 0.635720 0.875284
0.394116 0.635304 1.000000
0.393281 0.765131 0.000000
0.392922 0.764773 0.082733
0.392494 0.764344 0.216404
0.392070 0.763920 0.348688
0.391648 0.763499 0.480114
0.391229 0.763079 0.610919
0.390811 0.762662 0.741234
0.390394 0.762245 0.871147
0.389979 0.761830 1.000000
0.389157 0.891277 0.000000
0.388798 0.890918 0.078609
0.388370 0.890490 0.212280
0.387945 0.890066 0.344564
0.387524 0.889644 0.475990
0.387105 0.889225 0.606794
0.386687 0.888807 0.737110
0.386270 0.888391 0.867023
0.385855 0.887975 0.996594
0.385301 1.000000 0.000000
0.384942 1.000000 0.074753
0.384514 1.000000 0.208424
0.384090 1.000000 0.340708
0.383668 1.000000 0.472134
0.383249 1.000000 0.602939
0.382831 1.000000 0.733254
0.382414 1.000000 0.863167
0.381999 1.000000 0.992738
0.548811 0.000000 0.000000
0.548452 0.000000 0.106639
0.548024 0.000000 0.240311
0.547600 0.000000 0.372594
0.547178 0.000000 0.504021
0.546759 0.000000 0.634825
0.546341 0.000000 0.765141
0.545925 0.000000 0.895054
0.545509 0.000000 1.000000
0.544557 0.124906 0.000000
0.544198 0.124547 0.102385
0.543770 0.124119 0.236056
0.543346 0.123695 0.368340
0.542924 0.123273 0.499767
0.542505 0.122854 0.630571
0.542087 0.122436 0.760886
0.541670 0.122020 0.890800
0.541255 0.121604 1.000000
0.540321 0.254474 0.000000
0.539962 0.254116 0.098149
0.539534 0.253687 0.231820
0.539109 0.253263 0.364104
0.538688 0.252842 0.495530
0.538269 0.252422 0.626335
0.537851 0.252004 0.756650
0.537434 0.251588 0.886563
0.537019 0.251172 1.000000
0.536125 0.382821 0.000000
0.535766 0.382462 0.093953
0.535337 0.382034 0.227624
0.534913 0.381609 0.359908
0.534492 0.381188 0.491334
0.534073 0.380769 0.622139
0.533655 0.380351 0.752454
0.533238 0.379934 0.882367
0.532823 0.379519 1.000000
0.531954 0.510383 0.000000
0.531596 0.510025 0.089783
0.531167 0.509596 0.223454
0.530743 0.509172 0.355737
0.530321 0.508751 0.487164
0.529902 0.508331 0.617968
0.529484 0.507913 0.748284
0.529068 0.507497 0.878197
0.528652 0.507081 1.000000
0.527803 0.637367 0.000000
0.527444 0.637009 0.085631
0.527015 0.636580 0.219302
0.526591 0.636156 0.351586
0.526170 0.635735 0.483012
0.525750 0.635315 0.613817
0.525333 0.634897 0.744132
0.524916 0.634481 0.874045
0.524501 0.634065 1.000000
0.523666 0.763893 0.000000
0.523307 0.763534 0.081494
0.522879 0.763106 0.215166
0.522455 0.762681 0.347449
0.522033 0.762260 0.478876
0.521614 0.761841 0.609680
0.521196 0.761423 0.739996
0.520780 0.761006 0.869909
0.520364 0.760591 0.999480
0.519542 0.890038 0.000000
0.519183 0.889680 0.077370
0.518755 0.889251 0.211041
0.518330 0.888827 0.343325
0.517909 0.888406 0.474751
0.517490 0.887986 0.605556
0.517072 0.887568 0.735871
0.516655 0.887152 0.865784
0.516240 0.886736 0.995356
0.515686 1.000000 0.000000
0.515327 1.000000 0.073514
0.514899 1.000000 0.207186
0.514475 1.000000 0.339469
0.514053 1.000000 0.470896
0.513634 1.000000 0.601700
0.513216 1.000000 0.732015
0.512799 1.000000 0.861929
0.512384 1.000000 0.991500
0.678629 0.000000 0.000000
0.678270 0.000000 0.105406
0.677841 0.000000 0.239077
0.677417 0.000000 0.371361
0.676996 0.000000 0.502787
0.676576 0.000000 0.633592
0.676159 0.000000 0.763907
0.675742 0.000000 0.893820
0.675327 0.000000 1.000000
0.674374 0.123673 0.000000
0.674016 0.123314 0.101152
0.673587 0.122886 0.234823
0.673163 0.122461 0.367107
0.672742 0.122040 0.498533
0.672322 0.121621 0.629338
0.671904 0.121203 0.759653
0.671488 0.120786 0.889566
0.671073 0.120371 1.000000
0.670138 0.253241 0.000000
0.669780 0.252882 0.096916
0.669351 0.252454 0.230587
0.668927 0.252030 0.362871
0.668506 0.251608 0.494297
0.668086 0.251189 0.625101
0.667668 0.250771 0.755417
0.667252 0.250355 0.885330
0.666836 0.249939 1.000000
0.665942 0.381587 0.000000
0.665584 0.381229 0.092720
0.665155 0.380800 0.226391
0.664731 0.380376 0.358674
0.664309 0.379955 0.490101
0.663890 0.379535 0.620905
0.663472 0.379117 0.751221
0.663056 0.378701 0.881134
0.662640 0.378286 1.000000
0.661772 0.509150 0.000000
0.661413 0.508791 0.088549
0.660984 0.508363 0.222220
0.660560 0.507939 0.354504
0.660139 0.507517 0.485931
0.659720 0.507098 0.616735
0.659302 0.506680 0.747050
0.658885 0.506264 0.876964
0.658470 0.505848 1.000000
0.657620 0.636134 0.000000
0.657261 0.635775 0.084398
0.656833 0.635347 0.218069
0.656409 0.634923 0.350352
0.655987 0.634501 0.481779
0.655568 0.634082 0.612583
0.655150 0.633664 0.742899
0.654734 0.633248 0.872812
0.654318 0.632832 1.000000
0.653484 0.762659 0.000000
0.653125 0.762301 0.080261
0.652696 0.761872 0.213932
0.652272 0.761448 0.346216
0.651851 0.761027 0.477642
0.651431 0.760607 0.608447
0.651014 0.760190 0.738762
0.650597 0.759773 0.868675
0.650182 0.759358 0.998247
0.649359 0.888805 0.000000
0.649001 0.888446 0.076137
0.648572 0.888018 0.209808
0.648148 0.887594 0.342092
0.647727 0.887172 0.473518
0.647307 0.886753 0.604322
0.646889 0.886335 0.734638
0.646473 0.885919 0.864551
0.646057 0.885503 0.994122
0.645503 1.000000 0.000000
0.645145 1.000000 0.072281
0.644716 1.000000 0.205952
0.644292 1.000000 0.338236
0.643871 1.000000 0.469662
0.643451 1.000000 0.600467
0.643034 1.000000 0.730782
0.642617 1.000000 0.860695
0.642202 1.000000 0.990266
0.807992 0.000000 0.000000
0.807634 0.000000 0.104177
0.807205 0.000000 0.237848
0.806781 0.000000 0.370132
0.806360 0.000000 0.501558
0.805940 0.000000 0.632363
0.805522 0.000000 0.762678
0.805106 0.000000 0.892591
0.804690 0.000000 1.000000
0.803738 0.122444 0.000000
0.803380 0.122085 0.099923
0.802951 0.121657 0.233594
0.802527 0.121232 0.365878
0.802105 0.120811 0.497304
0.801686 0.120392 0.628109
0.801268 0.119974 0.758424
0.800852 0.119557 0.888337
0.800436 0.119142 1.000000
0.799502 0.252012 0.000000
0.799143 0.251653 0.095687
0.798715 0.251225 0.229358
0.798291 0.250801 0.361642
0.797869 0.250379 0.493068
0.797450 0.249960 0.623873
0.797032 0.249542 0.754188
0.796616 0.249126 0.884101
0.796200 0.248710 1.000000
0.795306 0.380358 0.000000
0.794947 0.380000 0.091491
0.794519 0.379571 0.225162
0.794095 0.379147 0.357445
0.793673 0.378726 0.488872
0.793254 0.378306 0.619676
0.792836 0.377889 0.749992
0.792420 0.377472 0.879905
0.792004 0.377057 1.000000
0.791135 0.507921 0.000000
0.790777 0.507562 0.087320
0.790348 0.507134 0.220991
0.789924 0.506710 0.353275
0.789503 0.506288 0.484702
0.789083 0.505869 0.615506
0.788666 0.505451 0.745821
0.788249 0.505035 0.875735
0.787834 0.504619 1.000000
0.786984 0.634905 0.000000
0.786625 0.634546 0.083169
0.786197 0.634118 0.216840
0.785773 0.633694 0.349123
0.785351 0.633272 0.480550
0.784932 0.632853 0.611354
0.784514 0.632435 0.741670
0.784097 0.632019 0.871583
0.783682 0.631603 1.000000
0.782847 0.761430 0.000000
0.782489 0.761072 0.079032
0.782060 0.760643 0.212703
0.781636 0.760219 0.344987
0.781215 0.759798 0.476413
0.780795 0.759378 0.607218
0.780377 0.758961 0.737533
0.779961 0.758544 0.867446
0.779545 0.758129 0.997018
0.778723 0.887576 0.000000
0.778364 0.887217 0.074908
0.777936 0.886789 0.208579
0.777512 0.886365 0.340863
0.777090 0.885943 0.472289
0.776671 0.885524 0.603094
0.776253 0.885106 0.733409
0.775837 0.884690 0.863322
0.775421 0.884274 0.992893
0.774867 1.000000 0.000000
0.774509 1.000000 0.071052
0.774080 1.000000 0.204723
0.773656 1.000000 0.337007
0.773235 1.000000 0.468433
0.772815 1.000000 0.599238
0.772397 1.000000 0.729553
0.771981 1.000000 0.859466
0.771565 1.000000 0.989038
0.936978 0.000000 0.000000
0.936620 0.000000 0.102952
0.936191 0.000000 0.236623
0.935767 0.000000 0.368906
0.935345 0.000000 0.500333
0.934926 0.000000 0.631137
0.934508 0.000000 0.761453
0.934092 0.000000 0.891366
0.933676 0.000000 1.000000
0.932724 0.121218 0.000000
0.932365 0.120860 0.098698
0.931937 0.120431 0.232369
0.931513 0.120007 0.364652
0.931091 0.119586 0.496079
0.930672 0.119166 0.626883
0.930254 0.118748 0.757199
0.929838 0.118332 0.887112
0.929422 0.117916 1.000000
0.928488 0.250787 0.000000
0.928129 0.250428 0.094462
0.927701 0.249999 0.228133
0.927277 0.249575 0.360416
0.926855 0.249154 0.491843
0.926436 0.248735 0.622647
0.926018 0.248317 0.752963
0.925601 0.247900 0.882876
0.925186 0.247485 1.000000
0.924292 0.379133 0.000000
0.923933 0.378774 0.090265
0.923505 0.378346 0.223937
0.923080 0.377922 0.356220
0.922659 0.377500 0.487647
0.922240 0.377081 0.618451
0.921822 0.376663 0.748767
0.921405 0.376247 0.878680
0.920990 0.375831 1.000000
0.920121 0.506696 0.000000
0.919763 0.506337 0.086095
0.919334 0.505908 0.219766
0.918910 0.505484 0.352050
0.918489 0.505063 0.483476
0.918069 0.504644 0.614280
0.917651 0.504226 0.744596
0.917235 0.503809 0.874509
0.916819 0.503394 1.000000
0.915970 0.633680 0.000000
0.915611 0.633321 0.081943
0.915183 0.632892 0.215614
0.914758 0.632468 0.347898
0.914337 0.632047 0.479325
0.913918 0.631628 0.610129
0.913500 0.631210 0.740444
0.913083 0.630793 0.870358
0.912668 0.630378 0.999929
0.911833 0.760205 0.000000
0.911474 0.759846 0.077807
0.911046 0.759418 0.211478
0.910622 0.758994 0.343761
0.910200 0.758572 0.475188
0.909781 0.758153 0.605992
0.909363 0.757735 0.736308
0.908947 0.757319 0.866221
0.908531 0.756903 0.995792
0.907709 0.886351 0.000000
0.907350 0.885992 0.073683
0.906922 0.885563 0.207354
0.906498 0.885139 0.339637
0.906076 0.884718 0.471064
0.905657 0.884298 0.601868
0.905239 0.883881 0.732184
0.904822 0.883464 0.862097
0.904407 0.883049 0.991668
0.903853 1.000000 0.000000
0.903494 1.000000 0.069827
0.903066 1.000000 0.203498
0.902642 1.000000 0.335781
0.902220 1.000000 0.467208
0.901801 1.000000 0.598012
0.901383 1.000000 0.728328
0.900967 1.000000 0.858241
0.900551 1.000000 0.987812
1.000000 0.000000 0.000000
1.000000 0.000000 0.102007
1.000000 0.000000 0.235678
1.000000 0.000000 0.367961
1.000000 0.000000 0.499388
1.000000 0.000000 0.630192
1.000000 0.000000 0.760508
1.000000 0.000000 0.890421
1.000000 0.000000 1.000000
1.000000 0.120273 0.000000
1.000000 0.119915 0.097752
1.000000 0.119486 0.231424
1.000000 0.119062 0.363707
1.000000 0.118640 0.495134
1.000000 0.118221 0.625938
1.000000 0.117803 0.756254
1.000000 0.117387 0.886167
1.000000 0.116971 1.000000
1.000000 0.249841 0.000000
1.000000 0.249483 0.093516
1.000000 0.249054 0.227187
1.000000 0.248630 0.359471
1.000000 0.248209 0.490898
1.000000 0.247789 0.621702
1.000000 0.247372 0.752017
1.000000 0.246955 0.881931
1.000000 0.246540 1.000000
1.000000 0.378188 0.000000
1.000000 0.377829 0.089320
1.000000 0.377401 0.222991
1.000000 0.376977 0.355275
1.000000 0.376555 0.486701
1.000000 0.376136 0.617506
1.000000 0.375718 0.747821
1.000000 0.375301 0.877734
1.000000 0.374886 1.000000
1.000000 0.505750 0.000000
1.000000 0.505392 0.085150
1.000000 0.504963 0.218821
1.000000 0.504539 0.351104
1.000000 0.504118 0.482531
1.000000 0.503698 0.613335
1.000000 0.503281 0.743651
1.000000 0.502864 0.873564
1.000000 0.502449 1.000000
1.000000 0.632735 0.000000
1.000000 0.632376 0.080998
1.000000 0.631947 0.214669
1.000000 0.631523 0.346953
1.000000 0.631102 0.478379
1.000000 0.630682 0.609184
1.000000 0.630265 0.739499
1.000000 0.629848 0.869412
1.000000 0.629433 0.998984
1.000000 0.759260 0.000000
1.000000 0.758901 0.076861
1.000000 0.758473 0.210533
1.000000 0.758049 0.342816
1.000000 0.757627 0.474243
1.000000 0.757208 0.605047
1.000000 0.756790 0.735363
1.000000 0.756373 0.865276
1.000000 0.755958 0.994847
1.000000 0.885405 0.000000
1.000000 0.885047 0.072737
1.000000 0.884618 0.206408
1.000000 0.884194 0.338692
1.000000 0.883773 0.470119
1.000000 0.883353 0.600923
1.000000 0.882935 0.731238
1.000000 0.882519 0.861152
1.000000 0.882103 0.990723
1.000000 1.000000 0.000000
1.000000 1.000000 0.068881
1.000000 1.000000 0.202553
1.000000 1.000000 0.334836
1.000000 1.000000 0.466263
1.000000 1.000000 0.597067
1.000000 1.000000 0.727383
1.000000 1.000000 0.857296
1.000000 1.000000 0.986867
