skills/editops-orchestrator/assets/grade/luts/ad_warm_v01.cube
TITLE "ad_warm_v01"
LUT_3D_SIZE 17
DOMAIN_MIN 0.0 0.0 0.0
DOMAIN_MAX 1.0 1.0 1.0
0.010636 0.000000 0.000000
0.010558 0.000000 0.055029
0.010466 0.000000 0.119650
0.010375 0.000000 0.183902
0.010285 0.000000 0.247923
0.010194 0.000000 0.311775
0.010104 0.000000 0.375494
0.010014 0.000000 0.439104
0.009924 0.000000 0.502621
0.009834 0.000000 0.566056
0.009744 0.000000 0.629420
0.009654 0.000000 0.692719
0.009564 0.000000 0.755960
0.009475 0.000000 0.819147
0.009385 0.000000 0.882285
0.009296 0.000000 0.945377
0.009206 0.000000 1.000000
0.009717 0.064579 0.000000
0.009639 0.064501 0.054110
0.009547 0.064409 0.118731
0.009456 0.064318 0.182983
0.009366 0.064227 0.247003
0.009275 0.064137 0.310856
0.009185 0.064046 0.374575
0.009094 0.063956 0.438185
0.009004 0.063866 0.501702
0.008914 0.063776 0.565137
0.008825 0.063686 0.628501
0.008735 0.063596 0.691800
0.008645 0.063507 0.755041
0.008556 0.063417 0.818228
0.008466 0.063328 0.881366
0.008377 0.063238 0.944458
0.008287 0.063149 1.000000
0.008811 0.128309 0.000000
0.008733 0.128231 0.053203
0.008641 0.128139 0.117825
0.008550 0.128048 0.182076
0.008459 0.127957 0.246097
0.008369 0.127867 0.309949
0.008278 0.127777 0.373669
0.008188 0.127686 0.437279
0.008098 0.127596 0.500795
0.008008 0.127506 0.564231
0.007918 0.127417 0.627594
0.007828 0.127327 0.690894
0.007739 0.127237 0.754134
0.007649 0.127148 0.817322
0.007560 0.127058 0.880460
0.007470 0.126969 0.943552
0.007381 0.126879 1.000000
0.007909 0.191707 0.000000
0.007831 0.191629 0.052302
0.007739 0.191537 0.116923
0.007648 0.191446 0.181175
0.007557 0.191355 0.245195
0.007467 0.191265 0.309048
0.007377 0.191174 0.372767
0.007286 0.191084 0.436377
0.007196 0.190994 0.499894
0.007106 0.190904 0.563329
0.007017 0.190814 0.626693
0.006927 0.190725 0.689992
0.006837 0.190635 0.753233
0.006748 0.190545 0.816420
0.006658 0.190456 0.879558
0.006569 0.190366 0.942650
0.006479 0.190277 1.000000
0.007010 0.254889 0.000000
0.006932 0.254811 0.051403
0.006841 0.254720 0.116024
0.006749 0.254628 0.180276
0.006659 0.254538 0.244297
0.006568 0.254447 0.308149
0.006478 0.254357 0.371868
0.006388 0.254267 0.435478
0.006298 0.254177 0.498995
0.006208 0.254087 0.562430
0.006118 0.253997 0.625794
0.006028 0.253907 0.689093
0.005938 0.253817 0.752334
0.005849 0.253728 0.815521
0.005759 0.253638 0.878659
0.005670 0.253549 0.941752
0.005581 0.253460 1.000000
0.006114 0.317912 0.000000
0.006036 0.317834 0.050507
0.005944 0.317743 0.115128
0.005853 0.317652 0.179380
0.005762 0.317561 0.243400
0.005672 0.317470 0.307253
0.005581 0.317380 0.370972
0.005491 0.317290 0.434582
0.005401 0.317200 0.498099
0.005311 0.317110 0.561534
0.005222 0.317020 0.624898
0.005132 0.316930 0.688197
0.005042 0.316841 0.751438
0.004953 0.316751 0.814625
0.004863 0.316661 0.877763
0.004774 0.316572 0.940855
0.004684 0.316483 1.000000
0.005219 0.380809 0.000000
0.005141 0.380731 0.049612
0.005050 0.380639 0.114234
0.004959 0.380548 0.178485
0.004868 0.380457 0.242506
0.004777 0.380367 0.306358
0.004687 0.380276 0.370077
0.004597 0.380186 0.433687
0.004507 0.380096 0.497204
0.004417 0.380006 0.560640
0.004327 0.379916 0.624003
0.004237 0.379827 0.687302
0.004148 0.379737 0.750543
0.004058 0.379647 0.813730
0.003968 0.379558 0.876868
0.003879 0.379468 0.939961
0.003790 0.379379 1.000000
0.004326 0.443600 0.000000
0.004248 0.443522 0.048719
0.004157 0.443430 0.113340
0.004065 0.443339 0.177592
0.003975 0.443248 0.241613
0.003884 0.443158 0.305465
0.003794 0.443067 0.369184
0.003704 0.442977 0.432794
0.003614 0.442887 0.496311
0.003524 0.442797 0.559746
0.003434 0.442707 0.623110
0.003344 0.442618 0.686409
0.003254 0.442528 0.749650
0.003165 0.442439 0.812837
0.003075 0.442349 0.875975
0.002986 0.442260 0.939067
0.002897 0.442170 1.000000
0.003434 0.506301 0.000000
0.003356 0.506223 0.047827
0.003265 0.506131 0.112449
0.003174 0.506040 0.176700
0.003083 0.505950 0.240721
0.002992 0.505859 0.304573
0.002902 0.505769 0.368293
0.002812 0.505678 0.431902
0.002722 0.505588 0.495419
0.002632 0.505499 0.558855
0.002542 0.505409 0.622218
0.002452 0.505319 0.685517
0.002363 0.505229 0.748758
0.002273 0.505140 0.811945
0.002184 0.505050 0.875083
0.002094 0.504961 0.938176
0.002005 0.504871 1.000000
0.002544 0.568924 0.000000
0.002466 0.568846 0.046937
0.002374 0.568754 0.111558
0.002283 0.568663 0.175809
0.002192 0.568572 0.239830
0.002102 0.568482 0.303682
0.002011 0.568391 0.367402
0.001921 0.568301 0.431012
0.001831 0.568211 0.494528
0.001741 0.568121 0.557964
0.001651 0.568031 0.621328
0.001562 0.567942 0.684627
0.001472 0.567852 0.747867
0.001382 0.567762 0.811055
0.001293 0.567673 0.874193
0.001203 0.567583 0.937285
0.001114 0.567494 1.000000
0.001654 0.631477 0.000000
0.001576 0.631399 0.046047
0.001484 0.631307 0.110668
0.001393 0.631216 0.174920
0.001303 0.631125 0.238940
0.001212 0.631035 0.302793
0.001122 0.630944 0.366512
0.001031 0.630854 0.430122
0.000941 0.630764 0.493639
0.000852 0.630674 0.557074
0.000762 0.630584 0.620438
0.000672 0.630495 0.683737
0.000582 0.630405 0.746978
0.000493 0.630315 0.810165
0.000403 0.630226 0.873303
0.000314 0.630136 0.936395
0.000224 0.630047 0.999445
0.000765 0.693967 0.000000
0.000687 0.693889 0.045158
0.000596 0.693797 0.109779
0.000504 0.693706 0.174031
0.000414 0.693615 0.238052
0.000323 0.693525 0.301904
0.000233 0.693435 0.365623
0.000143 0.693344 0.429233
0.000053 0.693254 0.492750
0.000000 0.693164 0.556185
0.000000 0.693075 0.619549
0.000000 0.692985 0.682848
0.000000 0.692895 0.746089
0.000000 0.692806 0.809276
0.000000 0.692716 0.872414
0.000000 0.692627 0.935507
0.000000 0.692537 0.998556
0.000000 0.756401 0.000000
0.000000 0.756322 0.044270
0.000000 0.756231 0.108892
0.000000 0.756140 0.173143
0.000000 0.756049 0.237164
0.000000 0.755958 0.301016
0.000000 0.755868 0.364735
0.000000 0.755778 0.428345
0.000000 0.755688 0.491862
0.000000 0.755598 0.555298
0.000000 0.755508 0.618661
0.000000 0.755418 0.681960
0.000000 0.755329 0.745201
0.000000 0.755239 0.808388
0.000000 0.755150 0.871526
0.000000 0.755060 0.934619
0.000000 0.754971 0.997668
0.000000 0.818782 0.000000
0.000000 0.818704 0.043383
0.000000 0.818612 0.108004
0.000000 0.818521 0.172256
0.000000 0.818430 0.236276
0.000000 0.818340 0.300129
0.000000 0.818250 0.363848
0.000000 0.818159 0.427458
0.000000 0.818069 0.490975
0.000000 0.817979 0.554410
0.000000 0.817890 0.617774
0.000000 0.817800 0.681073
0.000000 0.817710 0.744314
0.000000 0.817621 0.807501
0.000000 0.817531 0.870639
0.000000 0.817442 0.933731
0.000000 0.817352 0.996781
0.000000 0.881115 0.000000
0.000000 0.881037 0.042496
0.000000 0.880946 0.107118
0.000000 0.880855 0.171369
0.000000 0.880764 0.235390
0.000000 0.880673 0.299242
0.000000 0.880583 0.362962
0.000000 0.880493 0.426572
0.000000 0.880403 0.490088
0.000000 0.880313 0.553524
0.000000 0.880223 0.616887
0.000000 0.880133 0.680186
0.000000 0.880044 0.743427
0.000000 0.879954 0.806614
0.000000 0.879864 0.869752
0.000000 0.879775 0.932845
0.000000 0.879686 0.995895
0.000000 0.943404 0.000000
0.000000 0.943326 0.041610
0.000000 0.943234 0.106232
0.000000 0.943143 0.170483
0.000000 0.943053 0.234504
0.000000 0.942962 0.298356
0.000000 0.942872 0.362076
0.000000 0.942782 0.425686
0.000000 0.942692 0.489202
0.000000 0.942602 0.552638
0.000000 0.942512 0.616001
0.000000 0.942422 0.679301
0.000000 0.942332 0.742541
0.000000 0.942243 0.805728
0.000000 0.942153 0.868866
0.000000 0.942064 0.931959
0.000000 0.941974 0.995009
0.000000 1.000000 0.000000
0.000000 1.000000 0.040725
0.000000 1.000000 0.105346
0.000000 1.000000 0.169598
0.000000 1.000000 0.233619
0.000000 1.000000 0.297471
0.000000 1.000000 0.361190
0.000000 1.000000 0.424800
0.000000 1.000000 0.488317
0.000000 1.000000 0.551752
0.000000 1.000000 0.615116
0.000000 1.000000 0.678415
0.000000 1.000000 0.741656
0.000000 1.000000 0.804843
0.000000 1.000000 0.867981
0.000000 1.000000 0.931073
0.000000 1.000000 0.994123
0.075600 0.000000 0.000000
0.075522 0.000000 0.054757
0.075430 0.000000 0.119378
0.075339 0.000000 0.183630
0.075248 0.000000 0.247651
0.075158 0.000000 0.311503
0.075067 0.000000 0.375222
0.074977 0.000000 0.438832
0.074887 0.000000 0.502349
0.074797 0.000000 0.565784
0.074707 0.000000 0.629148
0.074618 0.000000 0.692447
0.074528 0.000000 0.755688
0.074438 0.000000 0.818875
0.074349 0.000000 0.882013
0.074259 0.000000 0.945106
0.074170 0.000000 1.000000
0.074681 0.064307 0.000000
0.074603 0.064229 0.053838
0.074511 0.064137 0.118459
0.074420 0.064046 0.182711
0.074329 0.063955 0.246731
0.074239 0.063865 0.310584
0.074148 0.063774 0.374303
0.074058 0.063684 0.437913
0.073968 0.063594 0.501430
0.073878 0.063504 0.564865
0.073788 0.063414 0.628229
0.073699 0.063325 0.691528
0.073609 0.063235 0.754769
0.073519 0.063145 0.817956
0.073430 0.063056 0.881094
0.073340 0.062966 0.944186
0.073251 0.062877 1.000000
0.073774 0.128037 0.000000
0.073696 0.127959 0.052931
0.073605 0.127867 0.117553
0.073513 0.127776 0.181804
0.073423 0.127685 0.245825
0.073332 0.127595 0.309677
0.073242 0.127505 0.373397
0.073152 0.127414 0.437007
0.073062 0.127324 0.500523
0.072972 0.127234 0.563959
0.072882 0.127145 0.627323
0.072792 0.127055 0.690622
0.072702 0.126965 0.753862
0.072613 0.126876 0.817050
0.072523 0.126786 0.880188
0.072434 0.126697 0.943280
0.072345 0.126607 1.000000
0.072873 0.191435 0.000000
0.072794 0.191357 0.052030
0.072703 0.191265 0.116651
0.072612 0.191174 0.180903
0.072521 0.191083 0.244923
0.072430 0.190993 0.308776
0.072340 0.190902 0.372495
0.072250 0.190812 0.436105
0.072160 0.190722 0.499622
0.072070 0.190632 0.563057
0.071980 0.190542 0.626421
0.071890 0.190453 0.689720
0.071801 0.190363 0.752961
0.071711 0.190273 0.816148
0.071622 0.190184 0.879286
0.071532 0.190094 0.942378
0.071443 0.190005 1.000000
0.071974 0.254617 0.000000
0.071896 0.254539 0.051131
0.071804 0.254448 0.115753
0.071713 0.254357 0.180004
0.071622 0.254266 0.244025
0.071532 0.254175 0.307877
0.071441 0.254085 0.371596
0.071351 0.253995 0.435206
0.071261 0.253905 0.498723
0.071171 0.253815 0.562159
0.071081 0.253725 0.625522
0.070992 0.253635 0.688821
0.070902 0.253545 0.752062
0.070813 0.253456 0.815249
0.070723 0.253366 0.878387
0.070634 0.253277 0.941480
0.070544 0.253188 1.000000
0.071077 0.317640 0.000000
0.070999 0.317562 0.050235
0.070908 0.317471 0.114856
0.070817 0.317380 0.179108
0.070726 0.317289 0.243128
0.070635 0.317198 0.306981
0.070545 0.317108 0.370700
0.070455 0.317018 0.434310
0.070365 0.316928 0.497827
0.070275 0.316838 0.561262
0.070185 0.316748 0.624626
0.070095 0.316658 0.687925
0.070006 0.316569 0.751166
0.069916 0.316479 0.814353
0.069827 0.316390 0.877491
0.069737 0.316300 0.940583
0.069648 0.316211 1.000000
0.070183 0.380537 0.000000
0.070105 0.380459 0.049340
0.070013 0.380367 0.113962
0.069922 0.380276 0.178213
0.069831 0.380185 0.242234
0.069741 0.380095 0.306086
0.069651 0.380004 0.369805
0.069560 0.379914 0.433415
0.069470 0.379824 0.496932
0.069380 0.379734 0.560368
0.069291 0.379644 0.623731
0.069201 0.379555 0.687030
0.069111 0.379465 0.750271
0.069022 0.379375 0.813458
0.068932 0.379286 0.876596
0.068843 0.379196 0.939689
0.068753 0.379107 1.000000
0.069290 0.443328 0.000000
0.069212 0.443250 0.048447
0.069120 0.443158 0.113069
0.069029 0.443067 0.177320
0.068938 0.442976 0.241341
0.068848 0.442886 0.305193
0.068757 0.442796 0.368912
0.068667 0.442705 0.432522
0.068577 0.442615 0.496039
0.068487 0.442525 0.559475
0.068397 0.442436 0.622838
0.068308 0.442346 0.686137
0.068218 0.442256 0.749378
0.068128 0.442167 0.812565
0.068039 0.442077 0.875703
0.067950 0.441988 0.938796
0.067860 0.441898 1.000000
0.068398 0.506029 0.000000
0.068320 0.505951 0.047555
0.068228 0.505859 0.112177
0.068137 0.505768 0.176428
0.068047 0.505678 0.240449
0.067956 0.505587 0.304301
0.067866 0.505497 0.368021
0.067775 0.505407 0.431631
0.067685 0.505316 0.495147
0.067595 0.505227 0.558583
0.067506 0.505137 0.621946
0.067416 0.505047 0.685245
0.067326 0.504957 0.748486
0.067237 0.504868 0.811673
0.067147 0.504778 0.874811
0.067058 0.504689 0.937904
0.066968 0.504599 1.000000
0.067507 0.568652 0.000000
0.067429 0.568574 0.046665
0.067338 0.568482 0.111286
0.067247 0.568391 0.175538
0.067156 0.568300 0.239558
0.067065 0.568210 0.303410
0.066975 0.568119 0.367130
0.066885 0.568029 0.430740
0.066795 0.567939 0.494257
0.066705 0.567849 0.557692
0.066615 0.567759 0.621056
0.066525 0.567670 0.684355
0.066436 0.567580 0.747595
0.066346 0.567490 0.810783
0.066256 0.567401 0.873921
0.066167 0.567311 0.937013
0.066078 0.567222 1.000000
0.066618 0.631205 0.000000
0.066540 0.631127 0.045775
0.066448 0.631035 0.110396
0.066357 0.630944 0.174648
0.066266 0.630853 0.238669
0.066176 0.630763 0.302521
0.066085 0.630672 0.366240
0.065995 0.630582 0.429850
0.065905 0.630492 0.493367
0.065815 0.630402 0.556802
0.065725 0.630312 0.620166
0.065636 0.630223 0.683465
0.065546 0.630133 0.746706
0.065456 0.630043 0.809893
0.065367 0.629954 0.873031
0.065277 0.629864 0.936123
0.065188 0.629775 0.999173
0.065729 0.693695 0.000000
0.065651 0.693617 0.044886
0.065559 0.693525 0.109508
0.065468 0.693434 0.173759
0.065377 0.693344 0.237780
0.065287 0.693253 0.301632
0.065196 0.693163 0.365351
0.065106 0.693073 0.428961
0.065016 0.692982 0.492478
0.064926 0.692893 0.555914
0.064836 0.692803 0.619277
0.064747 0.692713 0.682576
0.064657 0.692623 0.745817
0.064568 0.692534 0.809004
0.064478 0.692444 0.872142
0.064389 0.692355 0.935235
0.064299 0.692265 0.998284
0.064841 0.756129 0.000000
0.064763 0.756050 0.043998
0.064671 0.755959 0.108620
0.064580 0.755868 0.172871
0.064489 0.755777 0.236892
0.064399 0.755686 0.300744
0.064308 0.755596 0.364463
0.064218 0.755506 0.428073
0.064128 0.755416 0.491590
0.064038 0.755326 0.555026
0.063948 0.755236 0.618389
0.063859 0.755146 0.681688
0.063769 0.755057 0.744929
0.063680 0.754967 0.808116
0.063590 0.754878 0.871254
0.063501 0.754788 0.934347
0.063411 0.754699 0.997396
0.063954 0.818510 0.000000
0.063876 0.818432 0.043111
0.063784 0.818340 0.107732
0.063693 0.818249 0.171984
0.063602 0.818158 0.236004
0.063512 0.818068 0.299857
0.063421 0.817978 0.363576
0.063331 0.817887 0.427186
0.063241 0.817797 0.490703
0.063151 0.817707 0.554138
0.063061 0.817618 0.617502
0.062972 0.817528 0.680801
0.062882 0.817438 0.744042
0.062792 0.817349 0.807229
0.062703 0.817259 0.870367
0.062613 0.817170 0.933459
0.062524 0.817080 0.996509
0.063067 0.880843 0.000000
0.062989 0.880765 0.042224
0.062897 0.880674 0.106846
0.062806 0.880583 0.171097
0.062716 0.880492 0.235118
0.062625 0.880401 0.298970
0.062535 0.880311 0.362690
0.062444 0.880221 0.426300
0.062354 0.880131 0.489816
0.062265 0.880041 0.553252
0.062175 0.879951 0.616615
0.062085 0.879861 0.679915
0.061995 0.879772 0.743155
0.061906 0.879682 0.806342
0.061816 0.879593 0.869480
0.061727 0.879503 0.932573
0.061637 0.879414 0.995623
0.062181 0.943132 0.000000
0.062103 0.943054 0.041338
0.062011 0.942963 0.105960
0.061920 0.942871 0.170211
0.061830 0.942781 0.234232
0.061739 0.942690 0.298084
0.061649 0.942600 0.361804
0.061559 0.942510 0.425414
0.061469 0.942420 0.488930
0.061379 0.942330 0.552366
0.061289 0.942240 0.615729
0.061199 0.942150 0.679029
0.061109 0.942060 0.742269
0.061020 0.941971 0.805456
0.060930 0.941881 0.868594
0.060841 0.941792 0.931687
0.060751 0.941703 0.994737
0.061296 1.000000 0.000000
0.061218 1.000000 0.040453
0.061126 1.000000 0.105074
0.061035 1.000000 0.169326
0.060944 1.000000 0.233347
0.060854 1.000000 0.297199
0.060763 1.000000 0.360918
0.060673 1.000000 0.424528
0.060583 1.000000 0.488045
0.060493 1.000000 0.551480
0.060403 1.000000 0.614844
0.060314 1.000000 0.678143
0.060224 1.000000 0.741384
0.060134 1.000000 0.804571
0.060045 1.000000 0.867709
0.059955 1.000000 0.930802
0.059866 1.000000 0.993851
0.139900 0.000000 0.000000
0.139822 0.000000 0.054488
0.139730 0.000000 0.119109
0.139639 0.000000 0.183361
0.139548 0.000000 0.247381
0.139458 0.000000 0.311234
0.139367 0.000000 0.374953
0.139277 0.000000 0.438563
0.139187 0.000000 0.502080
0.139097 0.000000 0.565515
0.139007 0.000000 0.628879
0.138917 0.000000 0.692178
0.138828 0.000000 0.755419
0.138738 0.000000 0.818606
0.138649 0.000000 0.881744
0.138559 0.000000 0.944836
0.138470 0.000000 1.000000
0.138980 0.064037 0.000000
0.138902 0.063959 0.053569
0.138811 0.063868 0.118190
0.138720 0.063777 0.182442
0.138629 0.063686 0.246462
0.138538 0.063595 0.310315
0.138448 0.063505 0.374034
0.138358 0.063415 0.437644
0.138268 0.063325 0.501161
0.138178 0.063235 0.564596
0.138088 0.063145 0.627960
0.137998 0.063055 0.691259
0.137909 0.062966 0.754500
0.137819 0.062876 0.817687
0.137730 0.062787 0.880825
0.137640 0.062697 0.943917
0.137551 0.062608 1.000000
0.138074 0.127768 0.000000
0.137996 0.127690 0.052662
0.137904 0.127598 0.117284
0.137813 0.127507 0.181535
0.137722 0.127416 0.245556
0.137632 0.127326 0.309408
0.137542 0.127235 0.373128
0.137451 0.127145 0.436738
0.137361 0.127055 0.500254
0.137271 0.126965 0.563690
0.137182 0.126875 0.627053
0.137092 0.126786 0.690352
0.137002 0.126696 0.753593
0.136913 0.126606 0.816780
0.136823 0.126517 0.879918
0.136734 0.126428 0.943011
0.136644 0.126338 1.000000
0.137172 0.191166 0.000000
0.137094 0.191087 0.051761
0.137003 0.190996 0.116382
0.136912 0.190905 0.180633
0.136821 0.190814 0.244654
0.136730 0.190723 0.308506
0.136640 0.190633 0.372226
0.136550 0.190543 0.435836
0.136460 0.190453 0.499353
0.136370 0.190363 0.562788
0.136280 0.190273 0.626152
0.136190 0.190183 0.689451
0.136101 0.190094 0.752691
0.136011 0.190004 0.815879
0.135921 0.189915 0.879017
0.135832 0.189825 0.942109
0.135743 0.189736 1.000000
0.136274 0.254348 0.000000
0.136196 0.254270 0.050862
0.136104 0.254178 0.115483
0.136013 0.254087 0.179735
0.135922 0.253997 0.243756
0.135832 0.253906 0.307608
0.135741 0.253816 0.371327
0.135651 0.253726 0.434937
0.135561 0.253635 0.498454
0.135471 0.253546 0.561889
0.135381 0.253456 0.625253
0.135292 0.253366 0.688552
0.135202 0.253276 0.751793
0.135112 0.253187 0.814980
0.135023 0.253097 0.878118
0.134933 0.253008 0.941210
0.134844 0.252918 1.000000
0.135377 0.317371 0.000000
0.135299 0.317293 0.049966
0.135208 0.317202 0.114587
0.135117 0.317110 0.178838
0.135026 0.317020 0.242859
0.134935 0.316929 0.306711
0.134845 0.316839 0.370431
0.134755 0.316749 0.434041
0.134665 0.316659 0.497558
0.134575 0.316569 0.560993
0.134485 0.316479 0.624357
0.134395 0.316389 0.687656
0.134305 0.316299 0.750896
0.134216 0.316210 0.814084
0.134126 0.316120 0.877222
0.134037 0.316031 0.940314
0.133948 0.315942 1.000000
0.134483 0.380268 0.000000
0.134405 0.380190 0.049071
0.134313 0.380098 0.113692
0.134222 0.380007 0.177944
0.134131 0.379916 0.241965
0.134041 0.379826 0.305817
0.133950 0.379735 0.369536
0.133860 0.379645 0.433146
0.133770 0.379555 0.496663
0.133680 0.379465 0.560098
0.133590 0.379375 0.623462
0.133501 0.379286 0.686761
0.133411 0.379196 0.750002
0.133321 0.379106 0.813189
0.133232 0.379017 0.876327
0.133142 0.378927 0.939419
0.133053 0.378838 1.000000
0.133590 0.443059 0.000000
0.133512 0.442981 0.048178
0.133420 0.442889 0.112799
0.133329 0.442798 0.177051
0.133238 0.442707 0.241072
0.133148 0.442617 0.304924
0.133057 0.442526 0.368643
0.132967 0.442436 0.432253
0.132877 0.442346 0.495770
0.132787 0.442256 0.559205
0.132697 0.442166 0.622569
0.132608 0.442077 0.685868
0.132518 0.441987 0.749109
0.132428 0.441897 0.812296
0.132339 0.441808 0.875434
0.132249 0.441718 0.938526
0.132160 0.441629 1.000000
0.132698 0.505760 0.000000
0.132620 0.505682 0.047286
0.132528 0.505590 0.111908
0.132437 0.505499 0.176159
0.132346 0.505408 0.240180
0.132256 0.505318 0.304032
0.132165 0.505228 0.367751
0.132075 0.505137 0.431361
0.131985 0.505047 0.494878
0.131895 0.504957 0.558314
0.131805 0.504868 0.621677
0.131716 0.504778 0.684976
0.131626 0.504688 0.748217
0.131536 0.504599 0.811404
0.131447 0.504509 0.874542
0.131358 0.504420 0.937635
0.131268 0.504330 1.000000
0.131807 0.568383 0.000000
0.131729 0.568305 0.046395
0.131637 0.568213 0.111017
0.131546 0.568122 0.175268
0.131456 0.568031 0.239289
0.131365 0.567941 0.303141
0.131275 0.567850 0.366861
0.131185 0.567760 0.430471
0.131095 0.567670 0.493987
0.131005 0.567580 0.557423
0.130915 0.567490 0.620786
0.130825 0.567400 0.684086
0.130735 0.567311 0.747326
0.130646 0.567221 0.810514
0.130556 0.567132 0.873652
0.130467 0.567042 0.936744
0.130377 0.566953 0.999794
0.130917 0.630936 0.000000
0.130839 0.630858 0.045506
0.130748 0.630766 0.110127
0.130657 0.630675 0.174379
0.130566 0.630584 0.238399
0.130475 0.630494 0.302252
0.130385 0.630403 0.365971
0.130295 0.630313 0.429581
0.130205 0.630223 0.493098
0.130115 0.630133 0.556533
0.130025 0.630043 0.619897
0.129935 0.629953 0.683196
0.129846 0.629864 0.746437
0.129756 0.629774 0.809624
0.129667 0.629685 0.872762
0.129577 0.629595 0.935854
0.129488 0.629506 0.998904
0.130029 0.693426 0.000000
0.129951 0.693348 0.044617
0.129859 0.693256 0.109238
0.129768 0.693165 0.173490
0.129677 0.693074 0.237511
0.129587 0.692984 0.301363
0.129496 0.692894 0.365082
0.129406 0.692803 0.428692
0.129316 0.692713 0.492209
0.129226 0.692623 0.555644
0.129136 0.692534 0.619008
0.129047 0.692444 0.682307
0.128957 0.692354 0.745548
0.128867 0.692265 0.808735
0.128778 0.692175 0.871873
0.128688 0.692086 0.934965
0.128599 0.691996 0.998015
0.129141 0.755859 0.000000
0.129063 0.755781 0.043729
0.128971 0.755690 0.108350
0.128880 0.755599 0.172602
0.128789 0.755508 0.236623
0.128699 0.755417 0.300475
0.128608 0.755327 0.364194
0.128518 0.755237 0.427804
0.128428 0.755147 0.491321
0.128338 0.755057 0.554756
0.128248 0.754967 0.618120
0.128159 0.754877 0.681419
0.128069 0.754788 0.744660
0.127979 0.754698 0.807847
0.127890 0.754609 0.870985
0.127800 0.754519 0.934077
0.127711 0.754430 0.997127
0.128253 0.818241 0.000000
0.128175 0.818163 0.042842
0.128084 0.818071 0.107463
0.127993 0.817980 0.171715
0.127902 0.817889 0.235735
0.127811 0.817799 0.299588
0.127721 0.817708 0.363307
0.127631 0.817618 0.426917
0.127541 0.817528 0.490434
0.127451 0.817438 0.553869
0.127361 0.817348 0.617233
0.127271 0.817259 0.680532
0.127182 0.817169 0.743773
0.127092 0.817079 0.806960
0.127003 0.816990 0.870098
0.126913 0.816900 0.933190
0.126824 0.816811 0.996240
0.127367 0.880574 0.000000
0.127289 0.880496 0.041955
0.127197 0.880405 0.106577
0.127106 0.880313 0.170828
0.127015 0.880223 0.234849
0.126925 0.880132 0.298701
0.126834 0.880042 0.362420
0.126744 0.879952 0.426030
0.126654 0.879862 0.489547
0.126564 0.879772 0.552983
0.126474 0.879682 0.616346
0.126385 0.879592 0.679645
0.126295 0.879502 0.742886
0.126205 0.879413 0.806073
0.126116 0.879323 0.869211
0.126027 0.879234 0.932304
0.125937 0.879145 0.995353
0.126481 0.942863 0.000000
0.126403 0.942785 0.041069
0.126311 0.942693 0.105691
0.126220 0.942602 0.169942
0.126129 0.942512 0.233963
0.126039 0.942421 0.297815
0.125949 0.942331 0.361535
0.125858 0.942240 0.425144
0.125768 0.942150 0.488661
0.125678 0.942061 0.552097
0.125589 0.941971 0.615460
0.125499 0.941881 0.678759
0.125409 0.941791 0.742000
0.125320 0.941702 0.805187
0.125230 0.941612 0.868325
0.125141 0.941523 0.931418
0.125051 0.941433 0.994468
0.125596 1.000000 0.000000
0.125518 1.000000 0.040184
0.125426 1.000000 0.104805
0.125335 1.000000 0.169057
0.125244 1.000000 0.233077
0.125154 1.000000 0.296930
0.125063 1.000000 0.360649
0.124973 1.000000 0.424259
0.124883 1.000000 0.487776
0.124793 1.000000 0.551211
0.124703 1.000000 0.614575
0.124613 1.000000 0.677874
0.124524 1.000000 0.741115
0.124434 1.000000 0.804302
0.124345 1.000000 0.867440
0.124255 1.000000 0.930532
0.124166 1.000000 0.993582
0.203891 0.000000 0.000000
0.203813 0.000000 0.054220
0.203721 0.000000 0.118841
0.203630 0.000000 0.183093
0.203539 0.000000 0.247114
0.203449 0.000000 0.310966
0.203358 0.000000 0.374685
0.203268 0.000000 0.438295
0.203178 0.000000 0.501812
0.203088 0.000000 0.565247
0.202998 0.000000 0.628611
0.202909 0.000000 0.691910
0.202819 0.000000 0.755151
0.202729 0.000000 0.818338
0.202640 0.000000 0.881476
0.202550 0.000000 0.944568
0.202461 0.000000 1.000000
0.202972 0.063770 0.000000
