skills/editops-orchestrator/assets/grade/luts/ad_warm_v01.cube
TITLE "ad_warm_v01"
LUT_3D_SIZE 5
DOMAIN_MIN 0.0 0.0 0.0
DOMAIN_MAX 1.0 1.0 1.0
0.010636 0.000000 0.000000
0.010285 0.000000 0.247923
0.009924 0.000000 0.502621
0.009564 0.000000 0.755960
0.009206 0.000000 1.000000
0.007010 0.254889 0.000000
0.006659 0.254538 0.244297
0.006298 0.254177 0.498995
0.005938 0.253817 0.752334
0.005581 0.253460 1.000000
0.003434 0.506301 0.000000
0.003083 0.505950 0.240721
0.002722 0.505588 0.495419
0.002363 0.505229 0.748758
0.002005 0.504871 1.000000
0.000000 0.756401 0.000000
0.000000 0.756049 0.237164
0.000000 0.755688 0.491862
0.000000 0.755329 0.745201
0.000000 0.754971 0.997668
0.000000 1.000000 0.000000
0.000000 1.000000 0.233619
0.000000 1.000000 0.488317
0.000000 1.000000 0.741656
0.000000 1.000000 0.994123
0.267676 0.000000 0.000000
0.267325 0.000000 0.246847
0.266963 0.000000 0.501545
0.266604 0.000000 0.754884
0.266246 0.000000 1.000000
0.264050 0.253813 0.000000
0.263699 0.253462 0.243221
0.263338 0.253101 0.497919
0.262978 0.252741 0.751258
0.262620 0.252384 1.000000
0.260474 0.505225 0.000000
0.260123 0.504874 0.239645
0.259762 0.504512 0.494343
0.259403 0.504153 0.747682
0.259045 0.503795 1.000000
0.256917 0.755325 0.000000
0.256566 0.754973 0.236088
0.256205 0.754612 0.490786
0.255845 0.754253 0.744125
0.255487 0.753895 0.996592
0.253372 1.000000 0.000000
0.253021 1.000000 0.232543
0.252659 1.000000 0.487241
0.252300 1.000000 0.740580
0.251942 1.000000 0.993047
0.521531 0.000000 0.000000
0.521180 0.000000 0.245784
0.520819 0.000000 0.500482
0.520460 0.000000 0.753821
0.520102 0.000000 1.000000
0.517905 0.252751 0.000000
0.517554 0.252399 0.242158
0.517193 0.252038 0.496856
0.516834 0.251679 0.750195
0.516476 0.251321 1.000000
0.514330 0.504162 0.000000
0.513978 0.503811 0.238582
0.513617 0.503450 0.493281
0.513258 0.503091 0.746619
0.512900 0.502733 0.999087
0.510772 0.754262 0.000000
0.510421 0.753910 0.235025
0.510060 0.753549 0.489723
0.509701 0.753190 0.743062
0.509343 0.752832 0.995530
0.507227 1.000000 0.000000
0.506876 1.000000 0.231480
0.506515 1.000000 0.486178
0.506156 1.000000 0.739517
0.505798 1.000000 0.991985
0.774090 0.000000 0.000000
0.773738 0.000000 0.244727
0.773377 0.000000 0.499425
0.773018 0.000000 0.752764
0.772660 0.000000 1.000000
0.770464 0.251693 0.000000
0.770112 0.251342 0.241101
0.769751 0.250981 0.495799
0.769392 0.250622 0.749138
0.769034 0.250264 1.000000
0.766888 0.503105 0.000000
0.766537 0.502754 0.237525
0.766176 0.502393 0.492223
0.765816 0.502033 0.745562
0.765459 0.501675 0.998030
0.763331 0.753205 0.000000
0.762980 0.752853 0.233968
0.762618 0.752492 0.488666
0.762259 0.752133 0.742005
0.761901 0.751775 0.994472
0.759786 1.000000 0.000000
0.759434 1.000000 0.230423
0.759073 1.000000 0.485121
0.758714 1.000000 0.738460
0.758356 1.000000 0.990927
1.000000 0.000000 0.000000
1.000000 0.000000 0.243715
1.000000 0.000000 0.498413
1.000000 0.000000 0.751752
1.000000 0.000000 1.000000
1.000000 0.250682 0.000000
1.000000 0.250330 0.240089
1.000000 0.249969 0.494788
1.000000 0.249610 0.748126
1.000000 0.249252 1.000000
1.000000 0.502094 0.000000
1.000000 0.501742 0.236513
1.000000 0.501381 0.491212
1.000000 0.501022 0.744551
1.000000 0.500664 0.997018
1.000000 0.752193 0.000000
1.000000 0.751841 0.232956
1.000000 0.751480 0.487655
1.000000 0.751121 0.740993
1.000000 0.750763 0.993461
1.000000 1.000000 0.000000
1.000000 1.000000 0.229411
1.000000 1.000000 0.484109
1.000000 1.000000 0.737448
1.000000 1.000000 0.989916
