skills/editops-orchestrator/assets/grade/luts/ad_warm_v05.cube
TITLE "ad_warm_v05"
LUT_3D_SIZE 17
DOMAIN_MIN 0.0 0.0 0.0
DOMAIN_MAX 1.0 1.0 1.0
0.018201 0.000000 0.000000
0.018069 0.000000 0.046150
0.017877 0.000000 0.113340
0.017687 0.000000 0.179832
0.017498 0.000000 0.245909
0.017310 0.000000 0.311689
0.017123 0.000000 0.377238
0.016937 0.000000 0.442597
0.016750 0.000000 0.507797
0.016565 0.000000 0.572857
0.016379 0.000000 0.637795
0.016194 0.000000 0.702624
0.016009 0.000000 0.767353
0.015825 0.000000 0.831992
0.015640 0.000000 0.896547
0.015456 0.000000 0.961025
0.015272 0.000000 1.000000
0.016328 0.064377 0.000000
0.016196 0.064245 0.044277
0.016004 0.064053 0.111467
0.015814 0.063863 0.177959
0.015625 0.063674 0.244036
0.015438 0.063487 0.309816
0.015250 0.063299 0.375365
0.015064 0.063113 0.440725
0.014878 0.062927 0.505924
0.014692 0.062741 0.570985
0.014506 0.062555 0.635923
0.014321 0.062370 0.700751
0.014137 0.062186 0.765480
0.013952 0.062001 0.830119
0.013768 0.061817 0.894674
0.013584 0.061633 0.959153
0.013400 0.061449 1.000000
0.014435 0.129606 0.000000
0.014303 0.129474 0.042384
0.014111 0.129282 0.109574
0.013921 0.129092 0.176066
0.013732 0.128904 0.242143
0.013545 0.128716 0.307923
0.013357 0.128529 0.373472
0.013171 0.128342 0.438832
0.012985 0.128156 0.504031
0.012799 0.127970 0.569092
0.012613 0.127785 0.634030
0.012428 0.127600 0.698858
0.012243 0.127415 0.763587
0.012059 0.127230 0.828226
0.011875 0.127046 0.892781
0.011691 0.126862 0.957259
0.011507 0.126678 1.000000
0.012558 0.194270 0.000000
0.012426 0.194138 0.040508
0.012234 0.193946 0.107698
0.012044 0.193757 0.174189
0.011856 0.193568 0.240266
0.011668 0.193380 0.306046
0.011481 0.193193 0.371595
0.011294 0.193006 0.436955
0.011108 0.192820 0.502154
0.010922 0.192634 0.567215
0.010737 0.192449 0.632153
0.010552 0.192264 0.696981
0.010367 0.192079 0.761710
0.010182 0.191895 0.826349
0.009998 0.191710 0.890904
0.009814 0.191526 0.955383
0.009630 0.191342 1.000000
0.010692 0.258573 0.000000
0.010560 0.258441 0.038642
0.010368 0.258249 0.105832
0.010178 0.258059 0.172323
0.009990 0.257870 0.238400
0.009802 0.257683 0.304180
0.009615 0.257495 0.369729
0.009428 0.257309 0.435089
0.009242 0.257123 0.500288
0.009056 0.256937 0.565349
0.008871 0.256752 0.630287
0.008685 0.256566 0.695115
0.008501 0.256382 0.759844
0.008316 0.256197 0.824483
0.008132 0.256013 0.889038
0.007948 0.255829 0.953517
0.007764 0.255645 1.000000
0.008834 0.322609 0.000000
0.008701 0.322477 0.036783
0.008510 0.322285 0.103973
0.008320 0.322095 0.170465
0.008131 0.321906 0.236542
0.007943 0.321718 0.302322
0.007756 0.321531 0.367871
0.007570 0.321345 0.433230
0.007383 0.321158 0.498430
0.007198 0.320973 0.563490
0.007012 0.320787 0.628428
0.006827 0.320602 0.693257
0.006642 0.320417 0.757986
0.006458 0.320233 0.822625
0.006273 0.320048 0.887180
0.006089 0.319864 0.951658
0.005905 0.319680 1.000000
0.006981 0.386433 0.000000
0.006849 0.386301 0.034931
0.006657 0.386109 0.102121
0.006468 0.385919 0.168612
0.006279 0.385730 0.234689
0.006091 0.385543 0.300469
0.005904 0.385355 0.366018
0.005717 0.385169 0.431378
0.005531 0.384983 0.496578
0.005345 0.384797 0.561638
0.005160 0.384612 0.626576
0.004975 0.384426 0.691404
0.004790 0.384242 0.756134
0.004605 0.384057 0.820772
0.004421 0.383873 0.885328
0.004237 0.383689 0.949806
0.004053 0.383505 1.000000
0.005134 0.450082 0.000000
0.005002 0.449950 0.033084
0.004810 0.449758 0.100274
0.004620 0.449568 0.166765
0.004432 0.449380 0.232842
0.004244 0.449192 0.298622
0.004057 0.449005 0.364171
0.003870 0.448818 0.429531
0.003684 0.448632 0.494730
0.003498 0.448446 0.559791
0.003313 0.448261 0.624729
0.003128 0.448076 0.689557
0.002943 0.447891 0.754286
0.002758 0.447706 0.818925
0.002574 0.447522 0.883480
0.002390 0.447338 0.947959
0.002206 0.447154 1.000000
0.003291 0.513582 0.000000
0.003159 0.513450 0.031241
0.002967 0.513258 0.098431
0.002777 0.513068 0.164922
0.002589 0.512879 0.230999
0.002401 0.512692 0.296779
0.002214 0.512504 0.362328
0.002027 0.512318 0.427688
0.001841 0.512132 0.492887
0.001655 0.511946 0.557948
0.001470 0.511760 0.622886
0.001285 0.511575 0.687714
0.001100 0.511391 0.752444
0.000915 0.511206 0.817082
0.000731 0.511022 0.881638
0.000547 0.510838 0.946116
0.000363 0.510654 1.000000
0.001452 0.576951 0.000000
0.001320 0.576819 0.029402
0.001128 0.576627 0.096592
0.000938 0.576438 0.163083
0.000750 0.576249 0.229160
0.000562 0.576061 0.294940
0.000375 0.575874 0.360489
0.000188 0.575687 0.425849
0.000002 0.575501 0.491048
0.000000 0.575315 0.556109
0.000000 0.575130 0.621047
0.000000 0.574945 0.685875
0.000000 0.574760 0.750604
0.000000 0.574575 0.815243
0.000000 0.574391 0.879798
0.000000 0.574207 0.944277
0.000000 0.574023 1.000000
0.000000 0.640205 0.000000
0.000000 0.640073 0.027566
0.000000 0.639881 0.094756
0.000000 0.639692 0.161248
0.000000 0.639503 0.227324
0.000000 0.639315 0.293104
0.000000 0.639128 0.358653
0.000000 0.638941 0.424013
0.000000 0.638755 0.489213
0.000000 0.638569 0.554273
0.000000 0.638384 0.619211
0.000000 0.638199 0.684040
0.000000 0.638014 0.748769
0.000000 0.637830 0.813407
0.000000 0.637645 0.877963
0.000000 0.637461 0.942441
0.000000 0.637277 1.000000
0.000000 0.703356 0.000000
0.000000 0.703224 0.025733
0.000000 0.703032 0.092923
0.000000 0.702842 0.159415
0.000000 0.702653 0.225492
0.000000 0.702466 0.291272
0.000000 0.702278 0.356821
0.000000 0.702092 0.422180
0.000000 0.701906 0.487380
0.000000 0.701720 0.552440
0.000000 0.701534 0.617378
0.000000 0.701349 0.682207
0.000000 0.701164 0.746936
0.000000 0.700980 0.811575
0.000000 0.700796 0.876130
0.000000 0.700612 0.940608
0.000000 0.700428 1.000000
0.000000 0.766412 0.000000
0.000000 0.766280 0.023903
0.000000 0.766088 0.091093
0.000000 0.765898 0.157585
0.000000 0.765710 0.223662
0.000000 0.765522 0.289442
0.000000 0.765335 0.354991
0.000000 0.765148 0.420350
0.000000 0.764962 0.485550
0.000000 0.764776 0.550611
0.000000 0.764591 0.615549
0.000000 0.764406 0.680377
0.000000 0.764221 0.745106
0.000000 0.764036 0.809745
0.000000 0.763852 0.874300
0.000000 0.763668 0.938778
0.000000 0.763484 1.000000
0.000000 0.829383 0.000000
0.000000 0.829250 0.022076
0.000000 0.829059 0.089266
0.000000 0.828869 0.155757
0.000000 0.828680 0.221834
0.000000 0.828492 0.287614
0.000000 0.828305 0.353163
0.000000 0.828119 0.418523
0.000000 0.827932 0.483722
0.000000 0.827747 0.548783
0.000000 0.827561 0.613721
0.000000 0.827376 0.678549
0.000000 0.827191 0.743279
0.000000 0.827007 0.807917
0.000000 0.826822 0.872473
0.000000 0.826638 0.936951
0.000000 0.826454 1.000000
0.000000 0.892274 0.000000
0.000000 0.892142 0.020251
0.000000 0.891950 0.087441
0.000000 0.891760 0.153932
0.000000 0.891571 0.220009
0.000000 0.891383 0.285789
0.000000 0.891196 0.351338
0.000000 0.891010 0.416698
0.000000 0.890824 0.481897
0.000000 0.890638 0.546958
0.000000 0.890452 0.611896
0.000000 0.890267 0.676724
0.000000 0.890082 0.741453
0.000000 0.889898 0.806092
0.000000 0.889714 0.870647
0.000000 0.889529 0.935126
0.000000 0.889346 0.999532
0.000000 0.955091 0.000000
0.000000 0.954959 0.018427
0.000000 0.954767 0.085618
0.000000 0.954578 0.152109
0.000000 0.954389 0.218186
0.000000 0.954201 0.283966
0.000000 0.954014 0.349515
0.000000 0.953827 0.414875
0.000000 0.953641 0.480074
0.000000 0.953455 0.545135
0.000000 0.953270 0.610073
0.000000 0.953085 0.674901
0.000000 0.952900 0.739630
0.000000 0.952715 0.804269
0.000000 0.952531 0.868824
0.000000 0.952347 0.933303
0.000000 0.952163 0.997709
0.000000 1.000000 0.000000
0.000000 1.000000 0.016789
0.000000 1.000000 0.083979
0.000000 1.000000 0.150471
0.000000 1.000000 0.216548
0.000000 1.000000 0.282328
0.000000 1.000000 0.347877
0.000000 1.000000 0.413237
0.000000 1.000000 0.478436
0.000000 1.000000 0.543497
0.000000 1.000000 0.608435
0.000000 1.000000 0.673263
0.000000 1.000000 0.737992
0.000000 1.000000 0.802631
0.000000 1.000000 0.867186
0.000000 1.000000 0.931664
0.000000 1.000000 0.996071
0.085547 0.000000 0.000000
0.085415 0.000000 0.045581
0.085223 0.000000 0.112771
0.085033 0.000000 0.179262
0.084845 0.000000 0.245339
0.084657 0.000000 0.311119
0.084470 0.000000 0.376668
0.084283 0.000000 0.442028
0.084097 0.000000 0.507227
0.083911 0.000000 0.572288
0.083726 0.000000 0.637226
0.083540 0.000000 0.702054
0.083356 0.000000 0.766784
0.083171 0.000000 0.831422
0.082987 0.000000 0.895978
0.082803 0.000000 0.960456
0.082619 0.000000 1.000000
0.083674 0.063808 0.000000
0.083542 0.063675 0.043708
0.083350 0.063484 0.110898
0.083160 0.063294 0.177390
0.082972 0.063105 0.243466
0.082784 0.062917 0.309247
0.082597 0.062730 0.374796
0.082410 0.062543 0.440155
0.082224 0.062357 0.505355
0.082038 0.062172 0.570415
0.081853 0.061986 0.635353
0.081668 0.061801 0.700182
0.081483 0.061616 0.764911
0.081298 0.061432 0.829549
0.081114 0.061247 0.894105
0.080930 0.061063 0.958583
0.080746 0.060879 1.000000
0.081781 0.129037 0.000000
0.081649 0.128905 0.041815
0.081457 0.128713 0.109005
0.081267 0.128523 0.175497
0.081079 0.128334 0.241573
0.080891 0.128146 0.307353
0.080704 0.127959 0.372902
0.080517 0.127773 0.438262
0.080331 0.127587 0.503462
0.080145 0.127401 0.568522
0.079960 0.127215 0.633460
0.079775 0.127030 0.698289
0.079590 0.126845 0.763018
0.079405 0.126661 0.827656
0.079221 0.126477 0.892212
0.079037 0.126292 0.956690
0.078853 0.126109 1.000000
0.079905 0.193701 0.000000
0.079772 0.193569 0.039938
0.079581 0.193377 0.107128
0.079391 0.193187 0.173620
0.079202 0.192999 0.239697
0.079014 0.192811 0.305477
0.078827 0.192624 0.371026
0.078640 0.192437 0.436386
0.078454 0.192251 0.501585
0.078269 0.192065 0.566646
0.078083 0.191880 0.631584
0.077898 0.191695 0.696412
0.077713 0.191510 0.761141
0.077529 0.191325 0.825780
0.077344 0.191141 0.890335
0.077160 0.190957 0.954813
0.076976 0.190773 1.000000
0.078038 0.258004 0.000000
0.077906 0.257871 0.038072
0.077714 0.257680 0.105262
0.077525 0.257490 0.171754
0.077336 0.257301 0.237831
0.077148 0.257113 0.303611
0.076961 0.256926 0.369160
0.076774 0.256739 0.434519
0.076588 0.256553 0.499719
0.076402 0.256368 0.564779
0.076217 0.256182 0.629717
0.076032 0.255997 0.694546
0.075847 0.255812 0.759275
0.075662 0.255628 0.823914
0.075478 0.255443 0.888469
0.075294 0.255259 0.952947
0.075110 0.255075 1.000000
0.076180 0.322039 0.000000
0.076048 0.321907 0.036214
0.075856 0.321715 0.103404
0.075666 0.321525 0.169895
0.075477 0.321337 0.235972
0.075290 0.321149 0.301752
0.075102 0.320962 0.367301
0.074916 0.320775 0.432661
0.074730 0.320589 0.497860
0.074544 0.320403 0.562921
0.074359 0.320218 0.627859
0.074173 0.320033 0.692687
0.073989 0.319848 0.757416
0.073804 0.319663 0.822055
0.073620 0.319479 0.886611
0.073436 0.319295 0.951089
0.073252 0.319111 1.000000
0.074328 0.385864 0.000000
0.074196 0.385731 0.034361
0.074004 0.385540 0.101551
0.073814 0.385350 0.168043
0.073625 0.385161 0.234120
0.073437 0.384973 0.299900
0.073250 0.384786 0.365449
0.073064 0.384599 0.430809
0.072877 0.384413 0.496008
0.072692 0.384228 0.561069
0.072506 0.384042 0.626007
0.072321 0.383857 0.690835
0.072136 0.383672 0.755564
0.071952 0.383488 0.820203
0.071767 0.383303 0.884758
0.071583 0.383119 0.949237
0.071399 0.382935 1.000000
0.072481 0.449513 0.000000
0.072348 0.449381 0.032514
0.072157 0.449189 0.099704
0.071967 0.448999 0.166196
0.071778 0.448810 0.232273
0.071590 0.448622 0.298053
0.071403 0.448435 0.363602
0.071216 0.448249 0.428961
0.071030 0.448062 0.494161
0.070844 0.447877 0.559222
0.070659 0.447691 0.624160
0.070474 0.447506 0.688988
0.070289 0.447321 0.753717
0.070105 0.447137 0.818356
0.069920 0.446953 0.882911
0.069736 0.446768 0.947389
0.069552 0.446585 1.000000
0.070638 0.513013 0.000000
0.070505 0.512880 0.030671
0.070314 0.512689 0.097861
0.070124 0.512499 0.164353
0.069935 0.512310 0.230430
0.069747 0.512122 0.296210
0.069560 0.511935 0.361759
0.069374 0.511748 0.427119
0.069187 0.511562 0.492318
0.069002 0.511376 0.557379
0.068816 0.511191 0.622317
0.068631 0.511006 0.687145
0.068446 0.510821 0.751874
0.068262 0.510637 0.816513
0.068077 0.510452 0.881068
0.067893 0.510268 0.945547
0.067709 0.510084 1.000000
0.068799 0.576382 0.000000
0.068666 0.576250 0.028832
0.068475 0.576058 0.096022
0.068285 0.575868 0.162514
0.068096 0.575679 0.228591
0.067908 0.575492 0.294371
0.067721 0.575305 0.359920
0.067534 0.575118 0.425280
0.067348 0.574932 0.490479
0.067163 0.574746 0.555540
0.066977 0.574561 0.620478
0.066792 0.574375 0.685306
0.066607 0.574191 0.750035
0.066423 0.574006 0.814674
0.066238 0.573822 0.879229
0.066054 0.573638 0.943707
0.065870 0.573454 1.000000
0.066963 0.639636 0.000000
0.066831 0.639504 0.026997
0.066639 0.639312 0.094187
0.066449 0.639122 0.160678
0.066260 0.638934 0.226755
0.066072 0.638746 0.292535
0.065885 0.638559 0.358084
0.065699 0.638372 0.423444
0.065513 0.638186 0.488643
0.065327 0.638000 0.553704
0.065141 0.637815 0.618642
0.064956 0.637630 0.683470
0.064771 0.637445 0.748199
0.064587 0.637260 0.812838
0.064403 0.637076 0.877393
0.064218 0.636892 0.941872
0.064035 0.636708 1.000000
0.065130 0.702787 0.000000
0.064998 0.702654 0.025164
0.064806 0.702462 0.092354
0.064616 0.702273 0.158846
0.064428 0.702084 0.224922
0.064240 0.701896 0.290702
0.064053 0.701709 0.356251
0.063866 0.701522 0.421611
0.063680 0.701336 0.486811
0.063494 0.701150 0.551871
0.063309 0.700965 0.616809
0.063124 0.700780 0.681637
0.062939 0.700595 0.746367
0.062754 0.700411 0.811005
0.062570 0.700226 0.875561
0.062386 0.700042 0.940039
0.062202 0.699858 1.000000
0.063300 0.765843 0.000000
0.063168 0.765711 0.023334
0.062976 0.765519 0.090524
0.062786 0.765329 0.157016
0.062598 0.765140 0.223092
0.062410 0.764953 0.288872
0.062223 0.764765 0.354421
0.062036 0.764579 0.419781
0.061850 0.764393 0.484981
0.061664 0.764207 0.550041
0.061479 0.764021 0.614979
0.061294 0.763836 0.679807
0.061109 0.763652 0.744537
0.060924 0.763467 0.809175
0.060740 0.763283 0.873731
0.060556 0.763099 0.938209
0.060372 0.762915 1.000000
0.061473 0.828813 0.000000
0.061340 0.828681 0.021506
0.061149 0.828489 0.088696
0.060959 0.828299 0.155188
0.060770 0.828111 0.221265
0.060582 0.827923 0.287045
0.060395 0.827736 0.352594
0.060209 0.827549 0.417954
0.060022 0.827363 0.483153
0.059837 0.827177 0.548214
0.059651 0.826992 0.613152
0.059466 0.826807 0.677980
0.059281 0.826622 0.742709
0.059097 0.826437 0.807348
0.058912 0.826253 0.871903
0.058728 0.826069 0.936381
0.058544 0.825885 1.000000
0.059647 0.891704 0.000000
0.059515 0.891572 0.019681
0.059323 0.891380 0.086871
0.059134 0.891191 0.153363
0.058945 0.891002 0.219440
0.058757 0.890814 0.285220
0.058570 0.890627 0.350769
0.058383 0.890440 0.416128
0.058197 0.890254 0.481328
0.058011 0.890068 0.546388
0.057826 0.889883 0.611326
0.057641 0.889698 0.676155
0.057456 0.889513 0.740884
0.057271 0.889328 0.805523
0.057087 0.889144 0.870078
0.056903 0.888960 0.934556
0.056719 0.888776 0.998963
0.057824 0.954522 0.000000
0.057692 0.954390 0.017858
0.057500 0.954198 0.085048
0.057311 0.954008 0.151540
0.057122 0.953820 0.217617
0.056934 0.953632 0.283397
0.056747 0.953445 0.348946
0.056560 0.953258 0.414305
0.056374 0.953072 0.479505
0.056188 0.952886 0.544565
0.056003 0.952701 0.609503
0.055818 0.952515 0.674332
0.055633 0.952331 0.739061
0.055448 0.952146 0.803700
0.055264 0.951962 0.868255
0.055080 0.951778 0.932733
0.054896 0.951594 0.997140
0.056186 1.000000 0.000000
0.056054 1.000000 0.016220
0.055862 1.000000 0.083410
0.055672 1.000000 0.149902
0.055484 1.000000 0.215978
0.055296 1.000000 0.281758
0.055109 1.000000 0.347307
0.054922 1.000000 0.412667
0.054736 1.000000 0.477867
0.054550 1.000000 0.542927
0.054365 1.000000 0.607865
0.054180 1.000000 0.672694
0.053995 1.000000 0.737423
0.053810 1.000000 0.802061
0.053626 1.000000 0.866617
0.053442 1.000000 0.931095
0.053258 1.000000 0.995502
0.151901 0.000000 0.000000
0.151769 0.000000 0.045020
0.151577 0.000000 0.112210
0.151387 0.000000 0.178701
0.151199 0.000000 0.244778
0.151011 0.000000 0.310558
0.150824 0.000000 0.376107
0.150637 0.000000 0.441467
0.150451 0.000000 0.506666
0.150265 0.000000 0.571727
0.150080 0.000000 0.636665
0.149895 0.000000 0.701493
0.149710 0.000000 0.766223
0.149525 0.000000 0.830861
0.149341 0.000000 0.895417
0.149157 0.000000 0.959895
0.148973 0.000000 1.000000
0.150028 0.063247 0.000000
0.149896 0.063114 0.043147
0.149704 0.062923 0.110337
0.149514 0.062733 0.176829
0.149326 0.062544 0.242905
0.149138 0.062356 0.308686
0.148951 0.062169 0.374235
0.148764 0.061982 0.439594
0.148578 0.061796 0.504794
0.148392 0.061611 0.569854
0.148207 0.061425 0.634792
0.148022 0.061240 0.699621
0.147837 0.061055 0.764350
0.147652 0.060871 0.828988
0.147468 0.060686 0.893544
0.147284 0.060502 0.958022
0.147100 0.060318 1.000000
0.148135 0.128476 0.000000
0.148003 0.128344 0.041254
0.147811 0.128152 0.108444
0.147621 0.127962 0.174936
0.147433 0.127773 0.241012
0.147245 0.127585 0.306792
0.147058 0.127398 0.372341
0.146871 0.127212 0.437701
0.146685 0.127026 0.502901
0.146499 0.126840 0.567961
0.146314 0.126654 0.632899
0.146129 0.126469 0.697728
0.145944 0.126284 0.762457
0.145759 0.126100 0.827095
0.145575 0.125916 0.891651
0.145391 0.125731 0.956129
0.145207 0.125548 1.000000
0.146259 0.193140 0.000000
0.146126 0.193008 0.039377
0.145935 0.192816 0.106567
0.145745 0.192626 0.173059
0.145556 0.192438 0.239136
0.145368 0.192250 0.304916
0.145181 0.192063 0.370465
0.144995 0.191876 0.435825
0.144808 0.191690 0.501024
0.144623 0.191504 0.566085
0.144437 0.191319 0.631023
0.144252 0.191134 0.695851
0.144067 0.190949 0.760580
0.143883 0.190764 0.825219
0.143698 0.190580 0.889774
0.143514 0.190396 0.954252
0.143330 0.190212 1.000000
0.144393 0.257443 0.000000
0.144260 0.257310 0.037511
0.144068 0.257119 0.104701
0.143879 0.256929 0.171193
0.143690 0.256740 0.237270
0.143502 0.256552 0.303050
0.143315 0.256365 0.368599
0.143128 0.256179 0.433958
0.142942 0.255992 0.499158
0.142756 0.255807 0.564218
0.142571 0.255621 0.629156
0.142386 0.255436 0.693985
0.142201 0.255251 0.758714
0.142017 0.255067 0.823353
0.141832 0.254882 0.887908
0.141648 0.254698 0.952386
0.141464 0.254514 1.000000
0.142534 0.321478 0.000000
0.142402 0.321346 0.035653
0.142210 0.321154 0.102843
0.142020 0.320964 0.169334
0.141832 0.320776 0.235411
0.141644 0.320588 0.301191
0.141457 0.320401 0.366740
0.141270 0.320214 0.432100
0.141084 0.320028 0.497299
0.140898 0.319842 0.562360
0.140713 0.319657 0.627298
0.140528 0.319472 0.692126
0.140343 0.319287 0.756856
0.140158 0.319102 0.821494
0.139974 0.318918 0.886050
0.139790 0.318734 0.950528
0.139606 0.318550 1.000000
0.140682 0.385303 0.000000
0.140550 0.385170 0.033800
0.140358 0.384979 0.100991
0.140168 0.384789 0.167482
0.139979 0.384600 0.233559
0.139791 0.384412 0.299339
0.139604 0.384225 0.364888
0.139418 0.384039 0.430248
0.139232 0.383852 0.495447
0.139046 0.383667 0.560508
0.138860 0.383481 0.625446
0.138675 0.383296 0.690274
0.138490 0.383111 0.755003
0.138306 0.382927 0.819642
0.138122 0.382742 0.884197
0.137937 0.382558 0.948676
0.137754 0.382374 1.000000
0.138835 0.448952 0.000000
0.138702 0.448820 0.031953
0.138511 0.448628 0.099143
0.138321 0.448438 0.165635
0.138132 0.448249 0.231712
0.137944 0.448061 0.297492
0.137757 0.447874 0.363041
0.137570 0.447688 0.428400
0.137384 0.447501 0.493600
0.137199 0.447316 0.558661
0.137013 0.447130 0.623599
0.136828 0.446945 0.688427
0.136643 0.446760 0.753156
0.136459 0.446576 0.817795
0.136274 0.446392 0.882350
0.136090 0.446207 0.946828
0.135906 0.446024 1.000000
0.136992 0.512452 0.000000
0.136860 0.512319 0.030110
0.136668 0.512128 0.097300
0.136478 0.511938 0.163792
0.136289 0.511749 0.229869
0.136101 0.511561 0.295649
0.135914 0.511374 0.361198
0.135728 0.511187 0.426558
0.135541 0.511001 0.491757
0.135356 0.510815 0.556818
0.135170 0.510630 0.621756
0.134985 0.510445 0.686584
0.134800 0.510260 0.751313
0.134616 0.510076 0.815952
0.134431 0.509891 0.880507
0.134247 0.509707 0.944986
0.134063 0.509523 1.000000
0.135153 0.575821 0.000000
0.135020 0.575689 0.028271
0.134829 0.575497 0.095461
0.134639 0.575307 0.161953
0.134450 0.575119 0.228030
0.134262 0.574931 0.293810
0.134075 0.574744 0.359359
0.133889 0.574557 0.424719
0.133702 0.574371 0.489918
0.133517 0.574185 0.554979
0.133331 0.574000 0.619917
0.133146 0.573814 0.684745
0.132961 0.573630 0.749474
0.132777 0.573445 0.814113
0.132592 0.573261 0.878668
0.132408 0.573077 0.943146
0.132224 0.572893 1.000000
0.133317 0.639075 0.000000
0.133185 0.638943 0.026436
0.132993 0.638751 0.093626
0.132803 0.638561 0.160117
0.132614 0.638373 0.226194
0.132427 0.638185 0.291974
0.132239 0.637998 0.357523
0.132053 0.637811 0.422883
0.131867 0.637625 0.488082
0.131681 0.637439 0.553143
0.131495 0.637254 0.618081
0.131310 0.637069 0.682909
0.131126 0.636884 0.747638
0.130941 0.636699 0.812277
0.130757 0.636515 0.876832
0.130573 0.636331 0.941311
0.130389 0.636147 1.000000
0.131484 0.702226 0.000000
0.131352 0.702093 0.024603
0.131160 0.701901 0.091793
0.130970 0.701712 0.158285
0.130782 0.701523 0.224361
0.130594 0.701335 0.290141
0.130407 0.701148 0.355690
0.130220 0.700961 0.421050
0.130034 0.700775 0.486250
0.129848 0.700589 0.551310
0.129663 0.700404 0.616248
0.129478 0.700219 0.681076
0.129293 0.700034 0.745806
0.129108 0.699850 0.810444
0.128924 0.699665 0.875000
0.128740 0.699481 0.939478
0.128556 0.699297 1.000000
0.129654 0.765282 0.000000
0.129522 0.765150 0.022773
0.129330 0.764958 0.089963
0.129140 0.764768 0.156455
0.128952 0.764579 0.222531
0.128764 0.764392 0.288311
0.128577 0.764204 0.353860
0.128390 0.764018 0.419220
0.128204 0.763832 0.484420
0.128018 0.763646 0.549480
0.127833 0.763460 0.614418
0.127648 0.763275 0.679246
0.127463 0.763091 0.743976
0.127278 0.762906 0.808614
0.127094 0.762722 0.873170
0.126910 0.762538 0.937648
0.126726 0.762354 1.000000
0.127827 0.828252 0.000000
0.127695 0.828120 0.020945
0.127503 0.827928 0.088135
0.127313 0.827738 0.154627
0.127124 0.827550 0.220704
0.126936 0.827362 0.286484
0.126749 0.827175 0.352033
0.126563 0.826988 0.417393
0.126376 0.826802 0.482592
0.126191 0.826616 0.547653
0.126005 0.826431 0.612591
0.125820 0.826246 0.677419
0.125635 0.826061 0.742148
0.125451 0.825876 0.806787
0.125266 0.825692 0.871342
0.125082 0.825508 0.935820
0.124898 0.825324 1.000000
0.126002 0.891143 0.000000
0.125869 0.891011 0.019120
0.125678 0.890819 0.086310
0.125488 0.890630 0.152802
0.125299 0.890441 0.218879
0.125111 0.890253 0.284659
0.124924 0.890066 0.350208
0.124737 0.889879 0.415567
0.124551 0.889693 0.480767
0.124365 0.889507 0.545827
0.124180 0.889322 0.610765
0.123995 0.889137 0.675594
0.123810 0.888952 0.740323
0.123626 0.888767 0.804962
0.123441 0.888583 0.869517
0.123257 0.888399 0.933995
0.123073 0.888215 0.998402
0.124178 0.953961 0.000000
0.124046 0.953829 0.017297
0.123854 0.953637 0.084487
0.123665 0.953447 0.150979
0.123476 0.953259 0.217056
0.123288 0.953071 0.282836
0.123101 0.952884 0.348385
0.122914 0.952697 0.413744
0.122728 0.952511 0.478944
0.122542 0.952325 0.544004
0.122357 0.952140 0.608942
0.122172 0.951954 0.673771
0.121987 0.951770 0.738500
0.121803 0.951585 0.803139
0.121618 0.951401 0.867694
0.121434 0.951217 0.932172
0.121250 0.951033 0.996579
0.122540 1.000000 0.000000
0.122408 1.000000 0.015659
0.122216 1.000000 0.082849
0.122026 1.000000 0.149341
0.121838 1.000000 0.215417
0.121650 1.000000 0.281197
0.121463 1.000000 0.346746
0.121276 1.000000 0.412106
0.121090 1.000000 0.477306
0.120904 1.000000 0.542366
0.120719 1.000000 0.607304
0.120534 1.000000 0.672133
0.120349 1.000000 0.736862
0.120164 1.000000 0.801500
0.119980 1.000000 0.866056
0.119796 1.000000 0.930534
0.119612 1.000000 0.994941
0.217761 0.000000 0.000000
0.217629 0.000000 0.044463
0.217437 0.000000 0.111653
0.217247 0.000000 0.178145
0.217059 0.000000 0.244221
0.216871 0.000000 0.310002
0.216684 0.000000 0.375550
0.216497 0.000000 0.440910
0.216311 0.000000 0.506110
0.216125 0.000000 0.571170
0.215940 0.000000 0.636108
0.215755 0.000000 0.700937
0.215570 0.000000 0.765666
0.215385 0.000000 0.830304
0.215201 0.000000 0.894860
0.215017 0.000000 0.959338
0.214833 0.000000 1.000000
0.215889 0.062690 0.000000
