skills/editops-orchestrator/assets/grade/luts/ad_warm_v12.cube
TITLE "ad_warm_v12"
LUT_3D_SIZE 9
DOMAIN_MIN 0.0 0.0 0.0
DOMAIN_MAX 1.0 1.0 1.0
0.033080 0.000000 0.000000
0.032549 0.000000 0.100683
0.031812 0.000000 0.241242
0.031088 0.000000 0.379387
0.030371 0.000000 0.516100
0.029659 0.000000 0.651790
0.028951 0.000000 0.786685
0.028247 0.000000 0.920929
0.027546 0.000000 1.000000
0.025867 0.131833 0.000000
0.025336 0.131302 0.093470
0.024599 0.130565 0.234028
0.023874 0.129841 0.372174
0.023157 0.129124 0.508887
0.022446 0.128412 0.644577
0.021738 0.127704 0.779472
0.021034 0.127000 0.913715
0.020333 0.126299 1.000000
0.018607 0.265050 0.000000
0.018076 0.264519 0.086209
0.017338 0.263782 0.226768
0.016614 0.263058 0.364913
0.015897 0.262341 0.501627
0.015185 0.261629 0.637317
0.014478 0.260921 0.772211
0.013774 0.260217 0.906455
0.013072 0.259516 1.000000
0.011452 0.396325 0.000000
0.010921 0.395794 0.079055
0.010184 0.395057 0.219613
0.009459 0.394332 0.357759
0.008742 0.393615 0.494472
0.008031 0.392904 0.630162
0.007323 0.392196 0.765056
0.006619 0.391492 0.899300
0.005918 0.390791 1.000000
0.004365 0.526365 0.000000
0.003834 0.525834 0.071967
0.003097 0.525097 0.212526
0.002372 0.524373 0.350671
0.001655 0.523656 0.487385
0.000943 0.522944 0.623075
0.000236 0.522236 0.757969
0.000000 0.521532 0.892213
0.000000 0.520831 1.000000
0.000000 0.655499 0.000000
0.000000 0.654968 0.064929
0.000000 0.654231 0.205488
0.000000 0.653507 0.343634
0.000000 0.652789 0.480347
0.000000 0.652078 0.616037
0.000000 0.651370 0.750931
0.000000 0.650666 0.885175
0.000000 0.649965 1.000000
0.000000 0.783917 0.000000
0.000000 0.783386 0.057931
0.000000 0.782649 0.198489
0.000000 0.781924 0.336635
0.000000 0.781207 0.473348
0.000000 0.780495 0.609038
0.000000 0.779788 0.743932
0.000000 0.779084 0.878176
0.000000 0.778383 1.000000
0.000000 0.911743 0.000000
0.000000 0.911212 0.050964
0.000000 0.910475 0.191522
0.000000 0.909750 0.329668
0.000000 0.909033 0.466381
0.000000 0.908322 0.602071
0.000000 0.907614 0.736966
0.000000 0.906910 0.871209
0.000000 0.906209 1.000000
0.000000 1.000000 0.000000
0.000000 1.000000 0.044973
0.000000 1.000000 0.185531
0.000000 1.000000 0.323677
0.000000 1.000000 0.460390
0.000000 1.000000 0.596080
0.000000 1.000000 0.730974
0.000000 1.000000 0.865218
0.000000 1.000000 0.998912
0.174384 0.000000 0.000000
0.173853 0.000000 0.098478
0.173116 0.000000 0.239037
0.172391 0.000000 0.377182
0.171674 0.000000 0.513895
0.170963 0.000000 0.649585
0.170255 0.000000 0.784480
0.169551 0.000000 0.918724
0.168850 0.000000 1.000000
0.167171 0.129628 0.000000
0.166640 0.129098 0.091265
0.165903 0.128360 0.231824
0.165178 0.127636 0.369969
0.164461 0.126919 0.506682
0.163749 0.126207 0.642372
0.163042 0.125500 0.777267
0.162338 0.124795 0.911511
0.161637 0.124094 1.000000
0.159910 0.262845 0.000000
0.159379 0.262315 0.084005
0.158642 0.261577 0.224563
0.157918 0.260853 0.362709
0.157201 0.260136 0.499422
0.156489 0.259424 0.635112
0.155781 0.258717 0.770006
0.155077 0.258013 0.904250
0.154376 0.257311 1.000000
0.152756 0.394120 0.000000
0.152225 0.393589 0.076850
0.151488 0.392852 0.217408
0.150763 0.392128 0.355554
0.150046 0.391410 0.492267
0.149334 0.390699 0.627957
0.148627 0.389991 0.762852
0.147923 0.389287 0.897096
0.147221 0.388586 1.000000
0.145668 0.524160 0.000000
0.145137 0.523630 0.069763
0.144400 0.522892 0.210321
0.143676 0.522168 0.348467
0.142959 0.521451 0.485180
0.142247 0.520739 0.620870
0.141539 0.520032 0.755764
0.140835 0.519328 0.890008
0.140134 0.518626 1.000000
0.138630 0.653294 0.000000
0.138100 0.652763 0.062725
0.137362 0.652026 0.203283
0.136638 0.651302 0.341429
0.135921 0.650585 0.478142
0.135209 0.649873 0.613832
0.134501 0.649165 0.748726
0.133797 0.648461 0.882970
0.133096 0.647760 1.000000
0.131631 0.781712 0.000000
0.131101 0.781181 0.055726
0.130363 0.780444 0.196284
0.129639 0.779719 0.334430
0.128922 0.779002 0.471143
0.128210 0.778291 0.606833
0.127503 0.777583 0.741727
0.126798 0.776879 0.875971
0.126097 0.776178 1.000000
0.124665 0.909538 0.000000
0.124134 0.909007 0.048759
0.123397 0.908270 0.189317
0.122672 0.907545 0.327463
0.121955 0.906828 0.464176
0.121243 0.906117 0.599866
0.120536 0.905409 0.734761
0.119832 0.904705 0.869005
0.119131 0.904004 1.000000
0.118674 1.000000 0.000000
0.118143 1.000000 0.042768
0.117406 1.000000 0.183326
0.116681 1.000000 0.321472
0.115964 1.000000 0.458185
0.115252 1.000000 0.593875
0.114545 1.000000 0.728770
0.113841 1.000000 0.863014
0.113139 1.000000 0.996707
0.312048 0.000000 0.000000
0.311517 0.000000 0.096330
0.310780 0.000000 0.236889
0.310055 0.000000 0.375034
0.309338 0.000000 0.511747
0.308627 0.000000 0.647437
0.307919 0.000000 0.782332
0.307215 0.000000 0.916576
0.306514 0.000000 1.000000
0.304835 0.127480 0.000000
0.304304 0.126950 0.089117
0.303567 0.126212 0.229675
0.302842 0.125488 0.367821
0.302125 0.124771 0.504534
0.301413 0.124059 0.640224
0.300706 0.123352 0.775119
0.300002 0.122647 0.909363
0.299301 0.121946 1.000000
0.297574 0.260697 0.000000
0.297043 0.260167 0.081857
0.296306 0.259429 0.222415
0.295582 0.258705 0.360561
0.294865 0.257988 0.497274
0.294153 0.257276 0.632964
0.293445 0.256569 0.767858
0.292741 0.255864 0.902102
0.292040 0.255163 1.000000
0.290420 0.391972 0.000000
0.289889 0.391441 0.074702
0.289152 0.390704 0.215260
0.288427 0.389980 0.353406
0.287710 0.389262 0.490119
0.286998 0.388551 0.625809
0.286291 0.387843 0.760704
0.285587 0.387139 0.894948
0.284885 0.386438 1.000000
0.283332 0.522012 0.000000
0.282801 0.521482 0.067615
0.282064 0.520744 0.208173
0.281340 0.520020 0.346319
0.280623 0.519303 0.483032
0.279911 0.518591 0.618722
0.279203 0.517884 0.753616
0.278499 0.517179 0.887860
0.277798 0.516478 1.000000
0.276294 0.651146 0.000000
0.275764 0.650615 0.060577
0.275026 0.649878 0.201135
0.274302 0.649154 0.339281
0.273585 0.648437 0.475994
0.272873 0.647725 0.611684
0.272165 0.647017 0.746578
0.271461 0.646313 0.880822
0.270760 0.645612 1.000000
0.269295 0.779564 0.000000
0.268765 0.779033 0.053578
0.268027 0.778296 0.194136
0.267303 0.777571 0.332282
0.266586 0.776854 0.468995
0.265874 0.776143 0.604685
0.265167 0.775435 0.739579
0.264462 0.774731 0.873823
0.263761 0.774030 1.000000
0.262329 0.907390 0.000000
0.261798 0.906859 0.046611
0.261061 0.906122 0.187169
0.260336 0.905397 0.325315
0.259619 0.904680 0.462028
0.258907 0.903969 0.597718
0.258200 0.903261 0.732613
0.257496 0.902557 0.866857
0.256795 0.901856 1.000000
0.256338 1.000000 0.000000
0.255807 1.000000 0.040620
0.255070 1.000000 0.181178
0.254345 1.000000 0.319324
0.253628 1.000000 0.456037
0.252916 1.000000 0.591727
0.252209 1.000000 0.726622
0.251505 1.000000 0.860866
0.250803 1.000000 0.994559
0.447963 0.000000 0.000000
0.447433 0.000000 0.094210
0.446695 0.000000 0.234768
0.445971 0.000000 0.372914
0.445254 0.000000 0.509627
0.444542 0.000000 0.645317
0.443835 0.000000 0.780211
0.443130 0.000000 0.914455
0.442429 0.000000 1.000000
0.440750 0.125360 0.000000
0.440219 0.124829 0.086996
0.439482 0.124092 0.227555
0.438758 0.123367 0.365700
0.438041 0.122650 0.502413
0.437329 0.121938 0.638104
0.436621 0.121231 0.772998
0.435917 0.120527 0.907242
0.435216 0.119825 1.000000
0.433490 0.258577 0.000000
0.432959 0.258046 0.079736
0.432222 0.257309 0.220294
0.431497 0.256584 0.358440
0.430780 0.255867 0.495153
0.430068 0.255155 0.630843
0.429361 0.254448 0.765738
0.428657 0.253744 0.899981
0.427956 0.253043 1.000000
0.426335 0.389851 0.000000
0.425804 0.389321 0.072581
0.425067 0.388583 0.213140
0.424342 0.387859 0.351285
0.423625 0.387142 0.487998
0.422914 0.386430 0.623688
0.422206 0.385723 0.758583
0.421502 0.385018 0.892827
0.420801 0.384317 1.000000
0.419248 0.519892 0.000000
0.418717 0.519361 0.065494
0.417980 0.518624 0.206052
0.417255 0.517899 0.344198
0.416538 0.517182 0.480911
0.415826 0.516470 0.616601
0.415119 0.515763 0.751496
0.414415 0.515059 0.885739
0.413714 0.514358 1.000000
0.412210 0.649025 0.000000
0.411679 0.648495 0.058456
0.410942 0.647757 0.199014
0.410217 0.647033 0.337160
0.409500 0.646316 0.473873
0.408788 0.645604 0.609563
0.408081 0.644897 0.744458
0.407377 0.644193 0.878701
0.406676 0.643491 1.000000
0.405211 0.777443 0.000000
0.404680 0.776912 0.051457
0.403943 0.776175 0.192015
0.403218 0.775451 0.330161
0.402501 0.774734 0.466874
0.401789 0.774022 0.602564
0.401082 0.773314 0.737459
0.400378 0.772610 0.871703
0.399677 0.771909 1.000000
0.398244 0.905269 0.000000
0.397713 0.904739 0.044490
0.396976 0.904001 0.185049
0.396252 0.903277 0.323194
0.395534 0.902560 0.459907
0.394823 0.901848 0.595597
0.394115 0.901140 0.730492
0.393411 0.900436 0.864736
0.392710 0.899735 0.998430
0.392253 1.000000 0.000000
0.391722 1.000000 0.038499
0.390985 1.000000 0.179058
0.390260 1.000000 0.317203
0.389543 1.000000 0.453916
0.388832 1.000000 0.589606
0.388124 1.000000 0.724501
0.387420 1.000000 0.858745
0.386719 1.000000 0.992439
0.582709 0.000000 0.000000
0.582179 0.000000 0.092107
0.581441 0.000000 0.232665
0.580717 0.000000 0.370811
0.580000 0.000000 0.507524
0.579288 0.000000 0.643214
0.578581 0.000000 0.778109
0.577876 0.000000 0.912353
0.577175 0.000000 1.000000
0.575496 0.123257 0.000000
0.574965 0.122726 0.084894
0.574228 0.121989 0.225452
0.573504 0.121265 0.363598
0.572787 0.120547 0.500311
0.572075 0.119836 0.636001
0.571367 0.119128 0.770896
0.570663 0.118424 0.905139
0.569962 0.117723 1.000000
0.568236 0.256474 0.000000
0.567705 0.255943 0.077633
0.566968 0.255206 0.218192
0.566243 0.254482 0.356337
0.565526 0.253765 0.493050
0.564814 0.253053 0.628741
0.564107 0.252345 0.763635
0.563403 0.251641 0.897879
0.562702 0.250940 1.000000
0.561081 0.387749 0.000000
0.560550 0.387218 0.070479
0.559813 0.386481 0.211037
0.559089 0.385756 0.349183
0.558371 0.385039 0.485896
0.557660 0.384328 0.621586
0.556952 0.383620 0.756480
0.556248 0.382916 0.890724
0.555547 0.382215 1.000000
0.553994 0.517789 0.000000
0.553463 0.517258 0.063391
0.552726 0.516521 0.203950
0.552001 0.515797 0.342095
0.551284 0.515080 0.478808
0.550572 0.514368 0.614499
0.549865 0.513660 0.749393
0.549161 0.512956 0.883637
0.548460 0.512255 1.000000
0.546956 0.646923 0.000000
0.546425 0.646392 0.056353
0.545688 0.645655 0.196912
0.544963 0.644930 0.335057
0.544246 0.644213 0.471770
0.543534 0.643502 0.607461
0.542827 0.642794 0.742355
0.542123 0.642090 0.876599
0.541422 0.641389 1.000000
0.539957 0.775341 0.000000
0.539426 0.774810 0.049354
0.538689 0.774073 0.189913
0.537964 0.773348 0.328058
0.537247 0.772631 0.464772
0.536536 0.771919 0.600462
0.535828 0.771212 0.735356
0.535124 0.770508 0.869600
0.534423 0.769807 1.000000
0.532990 0.903167 0.000000
0.532459 0.902636 0.042388
0.531722 0.901899 0.182946
0.530998 0.901174 0.321092
0.530281 0.900457 0.457805
0.529569 0.899745 0.593495
0.528861 0.899038 0.728389
0.528157 0.898334 0.862633
0.527456 0.897633 0.996327
0.526999 1.000000 0.000000
0.526468 1.000000 0.036397
0.525731 1.000000 0.176955
0.525007 1.000000 0.315101
0.524289 1.000000 0.451814
0.523578 1.000000 0.587504
0.522870 1.000000 0.722398
0.522166 1.000000 0.856642
0.521465 1.000000 0.990336
0.716576 0.000000 0.000000
0.716045 0.000000 0.090018
0.715308 0.000000 0.230577
0.714584 0.000000 0.368722
0.713867 0.000000 0.505435
0.713155 0.000000 0.641125
0.712447 0.000000 0.776020
0.711743 0.000000 0.910264
0.711042 0.000000 1.000000
0.709363 0.121168 0.000000
0.708832 0.120638 0.082805
0.708095 0.119900 0.223363
0.707370 0.119176 0.361509
0.706653 0.118459 0.498222
0.705942 0.117747 0.633912
0.705234 0.117040 0.768807
0.704530 0.116335 0.903051
0.703829 0.115634 1.000000
0.702102 0.254385 0.000000
0.701572 0.253855 0.075545
0.700834 0.253117 0.216103
0.700110 0.252393 0.354249
0.699393 0.251676 0.490962
0.698681 0.250964 0.626652
0.697974 0.250257 0.761546
0.697270 0.249552 0.895790
0.696568 0.248851 1.000000
0.694948 0.385660 0.000000
0.694417 0.385129 0.068390
0.693680 0.384392 0.208948
0.692955 0.383667 0.347094
0.692238 0.382950 0.483807
0.691527 0.382239 0.619497
0.690819 0.381531 0.754392
0.690115 0.380827 0.888636
0.689414 0.380126 1.000000
0.687861 0.515700 0.000000
0.687330 0.515170 0.061303
0.686592 0.514432 0.201861
0.685868 0.513708 0.340007
0.685151 0.512991 0.476720
0.684439 0.512279 0.612410
0.683732 0.511572 0.747304
0.683028 0.510867 0.881548
0.682326 0.510166 1.000000
0.680823 0.644834 0.000000
0.680292 0.644303 0.054265
0.679555 0.643566 0.194823
0.678830 0.642842 0.332969
0.678113 0.642125 0.469682
0.677401 0.641413 0.605372
0.676694 0.640705 0.740266
0.675990 0.640001 0.874510
0.675288 0.639300 1.000000
0.673824 0.773252 0.000000
0.673293 0.772721 0.047266
0.672556 0.771984 0.187824
0.671831 0.771259 0.325970
0.671114 0.770542 0.462683
0.670402 0.769831 0.598373
0.669695 0.769123 0.733267
0.668991 0.768419 0.867511
0.668289 0.767718 1.000000
0.666857 0.901078 0.000000
0.666326 0.900547 0.040299
0.665589 0.899810 0.180857
0.664864 0.899085 0.319003
0.664147 0.898368 0.455716
0.663436 0.897657 0.591406
0.662728 0.896949 0.726301
0.662024 0.896245 0.860545
0.661323 0.895544 0.994238
0.660866 1.000000 0.000000
0.660335 1.000000 0.034308
0.659598 1.000000 0.174866
0.658873 1.000000 0.313012
0.658156 1.000000 0.449725
0.657445 1.000000 0.585415
0.656737 1.000000 0.720310
0.656033 1.000000 0.854554
0.655332 1.000000 0.988247
0.849739 0.000000 0.000000
0.849208 0.000000 0.087940
0.848471 0.000000 0.228499
0.847746 0.000000 0.366644
0.847029 0.000000 0.503358
0.846317 0.000000 0.639048
0.845610 0.000000 0.773942
0.844906 0.000000 0.908186
0.844205 0.000000 1.000000
0.842525 0.119091 0.000000
0.841995 0.118560 0.080727
0.841257 0.117823 0.221286
0.840533 0.117098 0.359431
0.839816 0.116381 0.496144
0.839104 0.115669 0.631834
0.838397 0.114962 0.766729
0.837693 0.114258 0.900973
0.836991 0.113556 1.000000
0.835265 0.252308 0.000000
0.834734 0.251777 0.073467
0.833997 0.251040 0.214025
0.833272 0.250315 0.352171
0.832555 0.249598 0.488884
0.831844 0.248886 0.624574
0.831136 0.248179 0.759468
0.830432 0.247475 0.893712
0.829731 0.246773 1.000000
0.828110 0.383582 0.000000
0.827580 0.383051 0.066312
0.826842 0.382314 0.206871
0.826118 0.381590 0.345016
0.825401 0.380873 0.481729
0.824689 0.380161 0.617419
0.823982 0.379453 0.752314
0.823277 0.378749 0.886558
0.822576 0.378048 1.000000
0.821023 0.513623 0.000000
0.820492 0.513092 0.059225
0.819755 0.512355 0.199783
0.819030 0.511630 0.337929
0.818313 0.510913 0.474642
0.817602 0.510201 0.610332
0.816894 0.509494 0.745226
0.816190 0.508790 0.879470
0.815489 0.508088 1.000000
0.813985 0.642756 0.000000
0.813454 0.642226 0.052187
0.812717 0.641488 0.192745
0.811992 0.640764 0.330891
0.811275 0.640047 0.467604
0.810564 0.639335 0.603294
0.809856 0.638628 0.738189
0.809152 0.637924 0.872432
0.808451 0.637222 1.000000
0.806986 0.771174 0.000000
0.806455 0.770643 0.045188
0.805718 0.769906 0.185746
0.804994 0.769182 0.323892
0.804277 0.768465 0.460605
0.803565 0.767753 0.596295
0.802857 0.767045 0.731190
0.802153 0.766341 0.865433
0.801452 0.765640 0.999127
0.800019 0.899000 0.000000
0.799489 0.898469 0.038221
0.798751 0.897732 0.178780
0.798027 0.897008 0.316925
0.797310 0.896291 0.453638
0.796598 0.895579 0.589328
0.795891 0.894871 0.724223
0.795187 0.894167 0.858467
0.794485 0.893466 0.992161
0.794028 1.000000 0.000000
0.793498 1.000000 0.032230
0.792760 1.000000 0.172789
0.792036 1.000000 0.310934
0.791319 1.000000 0.447647
0.790607 1.000000 0.583337
0.789900 1.000000 0.718232
0.789195 1.000000 0.852476
0.788494 1.000000 0.986170
0.982314 0.000000 0.000000
0.981783 0.000000 0.085872
0.981046 0.000000 0.226430
0.980322 0.000000 0.364576
0.979604 0.000000 0.501289
0.978893 0.000000 0.636979
0.978185 0.000000 0.771874
0.977481 0.000000 0.906117
0.976780 0.000000 1.000000
0.975101 0.117022 0.000000
0.974570 0.116491 0.078659
0.973833 0.115754 0.219217
0.973108 0.115029 0.357363
0.972391 0.114312 0.494076
0.971680 0.113601 0.629766
0.970972 0.112893 0.764660
0.970268 0.112189 0.898904
0.969567 0.111488 1.000000
0.967840 0.250239 0.000000
0.967310 0.249708 0.071398
0.966572 0.248971 0.211957
0.965848 0.248246 0.350102
0.965131 0.247529 0.486815
0.964419 0.246818 0.622505
0.963712 0.246110 0.757400
0.963007 0.245406 0.891644
0.962306 0.244705 1.000000
0.960686 0.381514 0.000000
0.960155 0.380983 0.064244
0.959418 0.380246 0.204802
0.958693 0.379521 0.342948
0.957976 0.378804 0.479661
0.957264 0.378092 0.615351
0.956557 0.377385 0.750245
0.955853 0.376681 0.884489
0.955152 0.375980 1.000000
0.953598 0.511554 0.000000
0.953068 0.511023 0.057156
0.952330 0.510286 0.197715
0.951606 0.509561 0.335860
0.950889 0.508844 0.472573
0.950177 0.508133 0.608263
0.949470 0.507425 0.743158
0.948765 0.506721 0.877402
0.948064 0.506020 1.000000
0.946560 0.640688 0.000000
0.946030 0.640157 0.050118
0.945292 0.639420 0.190677
0.944568 0.638695 0.328822
0.943851 0.637978 0.465535
0.943139 0.637266 0.601225
0.942432 0.636559 0.736120
0.941728 0.635855 0.870364
0.941026 0.635154 1.000000
0.939562 0.769105 0.000000
0.939031 0.768575 0.043119
0.938294 0.767837 0.183678
0.937569 0.767113 0.321823
0.936852 0.766396 0.458536
0.936140 0.765684 0.594226
0.935433 0.764977 0.729121
0.934729 0.764273 0.863365
0.934027 0.763571 0.997059
0.932595 0.896932 0.000000
0.932064 0.896401 0.036153
0.931327 0.895664 0.176711
0.930602 0.894939 0.314857
0.929885 0.894222 0.451570
0.929174 0.893510 0.587260
0.928466 0.892803 0.722154
0.927762 0.892099 0.856398
0.927061 0.891397 0.990092
0.926604 1.000000 0.000000
0.926073 1.000000 0.030162
0.925336 1.000000 0.170720
0.924611 1.000000 0.308866
0.923894 1.000000 0.445579
0.923182 1.000000 0.581269
0.922475 1.000000 0.716163
0.921771 1.000000 0.850407
0.921070 1.000000 0.984101
1.000000 0.000000 0.000000
1.000000 0.000000 0.084639
1.000000 0.000000 0.225197
1.000000 0.000000 0.363343
1.000000 0.000000 0.500056
1.000000 0.000000 0.635746
1.000000 0.000000 0.770641
1.000000 0.000000 0.904884
1.000000 0.000000 1.000000
1.000000 0.115789 0.000000
1.000000 0.115258 0.077426
1.000000 0.114521 0.217984
1.000000 0.113796 0.356130
1.000000 0.113079 0.492843
1.000000 0.112368 0.628533
1.000000 0.111660 0.763427
1.000000 0.110956 0.897671
1.000000 0.110255 1.000000
1.000000 0.249006 0.000000
1.000000 0.248475 0.070165
1.000000 0.247738 0.210724
1.000000 0.247013 0.348869
1.000000 0.246296 0.485582
1.000000 0.245585 0.621272
1.000000 0.244877 0.756167
1.000000 0.244173 0.890411
1.000000 0.243472 1.000000
1.000000 0.380281 0.000000
1.000000 0.379750 0.063011
1.000000 0.379013 0.203569
1.000000 0.378288 0.341715
1.000000 0.377571 0.478428
1.000000 0.376859 0.614118
1.000000 0.376152 0.749012
1.000000 0.375448 0.883256
1.000000 0.374747 1.000000
1.000000 0.510321 0.000000
1.000000 0.509790 0.055923
1.000000 0.509053 0.196482
1.000000 0.508328 0.334627
1.000000 0.507611 0.471340
1.000000 0.506900 0.607030
1.000000 0.506192 0.741925
1.000000 0.505488 0.876169
1.000000 0.504787 1.000000
1.000000 0.639455 0.000000
1.000000 0.638924 0.048885
1.000000 0.638187 0.189444
1.000000 0.637462 0.327589
1.000000 0.636745 0.464302
1.000000 0.636034 0.599992
1.000000 0.635326 0.734887
1.000000 0.634622 0.869131
1.000000 0.633921 1.000000
1.000000 0.767873 0.000000
1.000000 0.767342 0.041886
1.000000 0.766605 0.182445
1.000000 0.765880 0.320590
1.000000 0.765163 0.457303
1.000000 0.764451 0.592993
1.000000 0.763744 0.727888
1.000000 0.763040 0.862132
1.000000 0.762338 0.995826
1.000000 0.895699 0.000000
1.000000 0.895168 0.034920
1.000000 0.894431 0.175478
1.000000 0.893706 0.313624
1.000000 0.892989 0.450337
1.000000 0.892277 0.586027
1.000000 0.891570 0.720921
1.000000 0.890866 0.855165
1.000000 0.890164 0.988859
1.000000 1.000000 0.000000
1.000000 1.000000 0.028929
1.000000 1.000000 0.169487
1.000000 1.000000 0.307633
1.000000 1.000000 0.444346
1.000000 1.000000 0.580036
1.000000 1.000000 0.714930
1.000000 1.000000 0.849174
1.000000 1.000000 0.982868
