skills/editops-orchestrator/assets/grade/luts/ad_warm_v16.cube
TITLE "ad_warm_v16"
LUT_3D_SIZE 9
DOMAIN_MIN 0.0 0.0 0.0
DOMAIN_MAX 1.0 1.0 1.0
0.042524 0.000000 0.000000
0.041914 0.000000 0.092444
0.040962 0.000000 0.237885
0.040032 0.000000 0.380077
0.039114 0.000000 0.520397
0.038204 0.000000 0.659395
0.037302 0.000000 0.797372
0.036404 0.000000 0.934519
0.035511 0.000000 1.000000
0.033308 0.133075 0.000000
0.032698 0.132465 0.083227
0.031746 0.131513 0.228669
0.030816 0.130583 0.370861
0.029898 0.129664 0.511180
0.028988 0.128755 0.650178
0.028085 0.127852 0.788156
0.027188 0.126955 0.925302
0.026295 0.126062 1.000000
0.023969 0.268762 0.000000
0.023359 0.268152 0.073888
0.022407 0.267200 0.219330
0.021477 0.266270 0.361522
0.020559 0.265352 0.501841
0.019649 0.264442 0.640839
0.018746 0.263540 0.778817
0.017849 0.262642 0.915963
0.016956 0.261749 1.000000
0.014799 0.401998 0.000000
0.014188 0.401388 0.064718
0.013237 0.400436 0.210159
0.012306 0.399505 0.352351
0.011388 0.398587 0.492671
0.010479 0.397678 0.631669
0.009576 0.396775 0.769646
0.008679 0.395878 0.906793
0.007786 0.394985 1.000000
0.005735 0.533685 0.000000
0.005125 0.533075 0.055654
0.004173 0.532123 0.201096
0.003243 0.531192 0.343288
0.002325 0.530274 0.483607
0.001415 0.529365 0.622605
0.000512 0.528462 0.760583
0.000000 0.527565 0.897729
0.000000 0.526672 1.000000
0.000000 0.664238 0.000000
0.000000 0.663628 0.046668
0.000000 0.662677 0.192110
0.000000 0.661746 0.334302
0.000000 0.660828 0.474621
0.000000 0.659918 0.613619
0.000000 0.659016 0.751597
0.000000 0.658118 0.888744
0.000000 0.657225 1.000000
0.000000 0.793899 0.000000
0.000000 0.793289 0.037744
0.000000 0.792337 0.183186
0.000000 0.791406 0.325378
0.000000 0.790488 0.465697
0.000000 0.789579 0.604695
0.000000 0.788676 0.742673
0.000000 0.787779 0.879819
0.000000 0.786886 1.000000
0.000000 0.922823 0.000000
0.000000 0.922212 0.028871
0.000000 0.921261 0.174312
0.000000 0.920330 0.316504
0.000000 0.919412 0.456824
0.000000 0.918503 0.595822
0.000000 0.917600 0.733799
0.000000 0.916702 0.870946
0.000000 0.915809 1.000000
0.000000 1.000000 0.000000
0.000000 1.000000 0.021676
0.000000 1.000000 0.167118
0.000000 1.000000 0.309310
0.000000 1.000000 0.449629
0.000000 1.000000 0.588627
0.000000 1.000000 0.726605
0.000000 1.000000 0.863752
0.000000 1.000000 1.000000
0.188092 0.000000 0.000000
0.187482 0.000000 0.089603
0.186530 0.000000 0.235044
0.185600 0.000000 0.377236
0.184681 0.000000 0.517556
0.183772 0.000000 0.656554
0.182869 0.000000 0.794531
0.181972 0.000000 0.931678
0.181079 0.000000 1.000000
0.178876 0.130234 0.000000
0.178265 0.129624 0.080386
0.177314 0.128672 0.225828
0.176383 0.127742 0.368020
0.175465 0.126824 0.508339
0.174556 0.125914 0.647337
0.173653 0.125011 0.785315
0.172755 0.124114 0.922462
0.171862 0.123221 1.000000
0.169537 0.265922 0.000000
0.168926 0.265311 0.071047
0.167975 0.264360 0.216489
0.167044 0.263429 0.358681
0.166126 0.262511 0.499000
0.165216 0.261601 0.637998
0.164314 0.260699 0.775976
0.163416 0.259801 0.913122
0.162523 0.258908 1.000000
0.160366 0.399157 0.000000
0.159756 0.398547 0.061877
0.158804 0.397595 0.207319
0.157874 0.396665 0.349511
0.156956 0.395746 0.489830
0.156046 0.394837 0.628828
0.155143 0.393934 0.766805
0.154246 0.393037 0.903952
0.153353 0.392144 1.000000
0.151303 0.530844 0.000000
0.150692 0.530234 0.052813
0.149741 0.529282 0.198255
0.148810 0.528352 0.340447
0.147892 0.527433 0.480766
0.146982 0.526524 0.619764
0.146080 0.525621 0.757742
0.145182 0.524724 0.894888
0.144289 0.523831 1.000000
0.142317 0.661398 0.000000
0.141707 0.660787 0.043828
0.140755 0.659836 0.189269
0.139824 0.658905 0.331461
0.138906 0.657987 0.471781
0.137997 0.657078 0.610779
0.137094 0.656175 0.748756
0.136197 0.655277 0.885903
0.135304 0.654385 1.000000
0.133393 0.791058 0.000000
0.132782 0.790448 0.034903
0.131831 0.789496 0.180345
0.130900 0.788566 0.322537
0.129982 0.787647 0.462856
0.129073 0.786738 0.601854
0.128170 0.785835 0.739832
0.127272 0.784938 0.876979
0.126380 0.784045 1.000000
0.124519 0.919982 0.000000
0.123909 0.919371 0.026030
0.122957 0.918420 0.171471
0.122027 0.917489 0.313664
0.121109 0.916571 0.453983
0.120199 0.915662 0.592981
0.119296 0.914759 0.730958
0.118399 0.913861 0.868105
0.117506 0.912969 1.000000
0.117325 1.000000 0.000000
0.116714 1.000000 0.018836
0.115763 1.000000 0.164277
0.114832 1.000000 0.306469
0.113914 1.000000 0.446788
0.113005 1.000000 0.585787
0.112102 1.000000 0.723764
0.111204 1.000000 0.860911
0.110312 1.000000 0.997357
0.329315 0.000000 0.000000
0.328704 0.000000 0.086847
0.327753 0.000000 0.232288
0.326822 0.000000 0.374480
0.325904 0.000000 0.514800
0.324995 0.000000 0.653798
0.324092 0.000000 0.791775
0.323194 0.000000 0.928922
0.322302 0.000000 1.000000
0.320098 0.127478 0.000000
0.319488 0.126868 0.077630
0.318536 0.125916 0.223072
0.317606 0.124986 0.365264
0.316688 0.124067 0.505583
0.315778 0.123158 0.644581
0.314875 0.122255 0.782559
0.313978 0.121358 0.919705
0.313085 0.120465 1.000000
0.310759 0.263165 0.000000
0.310149 0.262555 0.068291
0.309197 0.261603 0.213733
0.308267 0.260673 0.355925
0.307349 0.259755 0.496244
0.306439 0.258845 0.635242
0.305536 0.257943 0.773220
0.304639 0.257045 0.910366
0.303746 0.256152 1.000000
0.301589 0.396401 0.000000
0.300979 0.395791 0.059121
0.300027 0.394839 0.204562
0.299097 0.393909 0.346755
0.298178 0.392990 0.487074
0.297269 0.392081 0.626072
0.296366 0.391178 0.764049
0.295469 0.390281 0.901196
0.294576 0.389388 1.000000
0.292525 0.528088 0.000000
0.291915 0.527478 0.050057
0.290963 0.526526 0.195499
0.290033 0.525596 0.337691
0.289115 0.524677 0.478010
0.288205 0.523768 0.617008
0.287302 0.522865 0.754986
0.286405 0.521968 0.892132
0.285512 0.521075 1.000000
0.283540 0.658642 0.000000
0.282929 0.658031 0.041072
0.281978 0.657080 0.186513
0.281047 0.656149 0.328705
0.280129 0.655231 0.469025
0.279220 0.654322 0.608023
0.278317 0.653419 0.746000
0.277419 0.652521 0.883147
0.276527 0.651628 1.000000
0.274615 0.788302 0.000000
0.274005 0.787692 0.032147
0.273053 0.786740 0.177589
0.272123 0.785810 0.319781
0.271205 0.784891 0.460100
0.270295 0.783982 0.599098
0.269392 0.783079 0.737076
0.268495 0.782182 0.874223
0.267602 0.781289 1.000000
0.265742 0.917226 0.000000
0.265132 0.916615 0.023274
0.264180 0.915664 0.168715
0.263249 0.914733 0.310907
0.262331 0.913815 0.451227
0.261422 0.912906 0.590225
0.260519 0.912003 0.728202
0.259622 0.911105 0.865349
0.258729 0.910213 1.000000
0.258547 1.000000 0.000000
0.257937 1.000000 0.016079
0.256985 1.000000 0.161521
0.256055 1.000000 0.303713
0.255137 1.000000 0.444032
0.254227 1.000000 0.583030
0.253325 1.000000 0.721008
0.252427 1.000000 0.858155
0.251534 1.000000 0.994601
0.468387 0.000000 0.000000
0.467776 0.000000 0.084133
0.466825 0.000000 0.229574
0.465894 0.000000 0.371766
0.464976 0.000000 0.512085
0.464067 0.000000 0.651084
0.463164 0.000000 0.789061
0.462266 0.000000 0.926208
0.461374 0.000000 1.000000
0.459170 0.124764 0.000000
0.458560 0.124154 0.074916
0.457608 0.123202 0.220358
0.456678 0.122272 0.362550
0.455760 0.121353 0.502869
0.454850 0.120444 0.641867
0.453948 0.119541 0.779845
0.453050 0.118644 0.916991
0.452157 0.117751 1.000000
0.449831 0.260451 0.000000
0.449221 0.259841 0.065577
0.448269 0.258889 0.211019
0.447339 0.257959 0.353211
0.446421 0.257041 0.493530
0.445511 0.256131 0.632528
0.444609 0.255229 0.770506
0.443711 0.254331 0.907652
0.442818 0.253438 1.000000
0.440661 0.393687 0.000000
0.440051 0.393077 0.056407
0.439099 0.392125 0.201848
0.438169 0.391194 0.344040
0.437251 0.390276 0.484360
0.436341 0.389367 0.623358
0.435438 0.388464 0.761335
0.434541 0.387567 0.898482
0.433648 0.386674 1.000000
0.431597 0.525374 0.000000
0.430987 0.524764 0.047343
0.430035 0.523812 0.192785
0.429105 0.522881 0.334977
0.428187 0.521963 0.475296
0.427277 0.521054 0.614294
0.426375 0.520151 0.752272
0.425477 0.519254 0.889418
0.424584 0.518361 1.000000
0.422612 0.655927 0.000000
0.422001 0.655317 0.038357
0.421050 0.654365 0.183799
0.420119 0.653435 0.325991
0.419201 0.652517 0.466310
0.418292 0.651607 0.605308
0.417389 0.650705 0.743286
0.416491 0.649807 0.880433
0.415599 0.648914 1.000000
0.413688 0.785588 0.000000
0.413077 0.784978 0.029433
0.412126 0.784026 0.174875
0.411195 0.783095 0.317067
0.410277 0.782177 0.457386
0.409367 0.781268 0.596384
0.408465 0.780365 0.734362
0.407567 0.779468 0.871508
0.406674 0.778575 1.000000
0.404814 0.914512 0.000000
0.404204 0.913901 0.020560
0.403252 0.912950 0.166001
0.402322 0.912019 0.308193
0.401403 0.911101 0.448513
0.400494 0.910191 0.587511
0.399591 0.909289 0.725488
0.398694 0.908391 0.862635
0.397801 0.907498 0.999082
0.397620 1.000000 0.000000
0.397009 1.000000 0.013365
0.396058 1.000000 0.158807
0.395127 1.000000 0.300999
0.394209 1.000000 0.441318
0.393300 1.000000 0.580316
0.392397 1.000000 0.718294
0.391499 1.000000 0.855441
0.390607 1.000000 0.991887
0.606012 0.000000 0.000000
0.605402 0.000000 0.081447
0.604450 0.000000 0.226888
0.603519 0.000000 0.369080
0.602601 0.000000 0.509400
0.601692 0.000000 0.648398
0.600789 0.000000 0.786375
0.599892 0.000000 0.923522
0.598999 0.000000 1.000000
0.596795 0.122078 0.000000
0.596185 0.121468 0.072230
0.595233 0.120516 0.217672
0.594303 0.119586 0.359864
0.593385 0.118668 0.500183
0.592475 0.117758 0.639181
0.591573 0.116855 0.777159
0.590675 0.115958 0.914305
0.589782 0.115065 1.000000
0.587456 0.257766 0.000000
0.586846 0.257155 0.062891
0.585894 0.256204 0.208333
0.584964 0.255273 0.350525
0.584046 0.254355 0.490844
0.583136 0.253445 0.629842
0.582234 0.252543 0.767820
0.581336 0.251645 0.904966
0.580443 0.250752 1.000000
0.578286 0.391001 0.000000
0.577676 0.390391 0.053721
0.576724 0.389439 0.199163
0.575794 0.388509 0.341355
0.574876 0.387590 0.481674
0.573966 0.386681 0.620672
0.573063 0.385778 0.758649
0.572166 0.384881 0.895796
0.571273 0.383988 1.000000
0.569222 0.522688 0.000000
0.568612 0.522078 0.044657
0.567660 0.521126 0.190099
0.566730 0.520196 0.332291
0.565812 0.519277 0.472610
0.564902 0.518368 0.611608
0.564000 0.517465 0.749586
0.563102 0.516568 0.886732
0.562209 0.515675 1.000000
0.560237 0.653242 0.000000
0.559626 0.652631 0.035672
0.558675 0.651680 0.181113
0.557744 0.650749 0.323305
0.556826 0.649831 0.463625
0.555917 0.648922 0.602623
0.555014 0.648019 0.740600
0.554117 0.647121 0.877747
0.553224 0.646229 1.000000
0.551313 0.782902 0.000000
0.550702 0.782292 0.026747
0.549751 0.781340 0.172189
0.548820 0.780410 0.314381
0.547902 0.779491 0.454700
0.546993 0.778582 0.593698
0.546090 0.777679 0.731676
0.545192 0.776782 0.868823
0.544299 0.775889 1.000000
0.542439 0.911826 0.000000
0.541829 0.911215 0.017874
0.540877 0.910264 0.163315
0.539947 0.909333 0.305508
0.539029 0.908415 0.445827
0.538119 0.907506 0.584825
0.537216 0.906603 0.722802
0.536319 0.905705 0.859949
0.535426 0.904813 0.996396
0.535245 1.000000 0.000000
0.534634 1.000000 0.010680
0.533683 1.000000 0.156121
0.532752 1.000000 0.298313
0.531834 1.000000 0.438632
0.530925 1.000000 0.577631
0.530022 1.000000 0.715608
0.529124 1.000000 0.852755
0.528232 1.000000 0.989201
0.742546 0.000000 0.000000
0.741936 0.000000 0.078782
0.740984 0.000000 0.224224
0.740054 0.000000 0.366416
0.739136 0.000000 0.506735
0.738226 0.000000 0.645733
0.737323 0.000000 0.783711
0.736426 0.000000 0.920857
0.735533 0.000000 1.000000
0.733330 0.119413 0.000000
0.732719 0.118803 0.069566
0.731768 0.117852 0.215007
0.730837 0.116921 0.357199
0.729919 0.116003 0.497519
0.729010 0.115093 0.636517
0.728107 0.114191 0.774494
0.727209 0.113293 0.911641
0.726317 0.112400 1.000000
0.723991 0.255101 0.000000
0.723380 0.254491 0.060227
0.722429 0.253539 0.205668
0.721498 0.252609 0.347860
0.720580 0.251690 0.488180
0.719671 0.250781 0.627178
0.718768 0.249878 0.765155
0.717870 0.248981 0.902302
0.716978 0.248088 1.000000
0.714820 0.388336 0.000000
0.714210 0.387726 0.051056
0.713258 0.386774 0.196498
0.712328 0.385844 0.338690
0.711410 0.384926 0.479009
0.710500 0.384016 0.618007
0.709598 0.383114 0.755985
0.708700 0.382216 0.893132
0.707807 0.381323 1.000000
0.705757 0.520023 0.000000
0.705146 0.519413 0.041993
0.704195 0.518461 0.187434
0.703264 0.517531 0.329626
0.702346 0.516613 0.469946
0.701437 0.515703 0.608944
0.700534 0.514801 0.746921
0.699636 0.513903 0.884068
0.698744 0.513010 1.000000
0.696771 0.650577 0.000000
0.696161 0.649967 0.033007
0.695209 0.649015 0.178449
0.694279 0.648085 0.320641
0.693361 0.647167 0.460960
0.692451 0.646257 0.599958
0.691548 0.645354 0.737936
0.690651 0.644457 0.875082
0.689758 0.643564 1.000000
0.687847 0.780237 0.000000
0.687237 0.779627 0.024083
0.686285 0.778675 0.169524
0.685354 0.777745 0.311716
0.684436 0.776827 0.452036
0.683527 0.775917 0.591034
0.682624 0.775015 0.729011
0.681727 0.774117 0.866158
0.680834 0.773224 1.000000
0.678973 0.909161 0.000000
0.678363 0.908551 0.015209
0.677411 0.907599 0.160651
0.676481 0.906669 0.302843
0.675563 0.905751 0.443162
0.674653 0.904841 0.582160
0.673750 0.903938 0.720138
0.672853 0.903041 0.857285
0.671960 0.902148 0.993731
0.671779 1.000000 0.000000
0.671169 1.000000 0.008015
0.670217 1.000000 0.153456
0.669287 1.000000 0.295649
0.668368 1.000000 0.435968
0.667459 1.000000 0.574966
0.666556 1.000000 0.712943
0.665659 1.000000 0.850090
0.664766 1.000000 0.986537
0.878206 0.000000 0.000000
0.877595 0.000000 0.076135
0.876644 0.000000 0.221576
0.875713 0.000000 0.363768
0.874795 0.000000 0.504088
0.873886 0.000000 0.643086
0.872983 0.000000 0.781063
0.872085 0.000000 0.918210
0.871193 0.000000 1.000000
0.868989 0.116766 0.000000
0.868379 0.116156 0.066918
0.867427 0.115204 0.212360
0.866497 0.114274 0.354552
0.865579 0.113355 0.494871
0.864669 0.112446 0.633869
0.863766 0.111543 0.771847
0.862869 0.110646 0.908993
0.861976 0.109753 1.000000
0.859650 0.252453 0.000000
0.859040 0.251843 0.057579
0.858088 0.250891 0.203021
0.857158 0.249961 0.345213
0.856240 0.249043 0.485532
0.855330 0.248133 0.624530
0.854427 0.247231 0.762508
0.853530 0.246333 0.899654
0.852637 0.245440 1.000000
0.850480 0.385689 0.000000
0.849870 0.385079 0.048409
0.848918 0.384127 0.193850
0.847988 0.383197 0.336043
0.847069 0.382278 0.476362
0.846160 0.381369 0.615360
0.845257 0.380466 0.753337
0.844360 0.379569 0.890484
0.843467 0.378676 1.000000
0.841416 0.517376 0.000000
0.840806 0.516766 0.039345
0.839854 0.515814 0.184787
0.838924 0.514884 0.326979
0.838006 0.513965 0.467298
0.837096 0.513056 0.606296
0.836193 0.512153 0.744274
0.835296 0.511256 0.881420
0.834403 0.510363 1.000000
0.832431 0.647930 0.000000
0.831820 0.647319 0.030360
0.830869 0.646368 0.175801
0.829938 0.645437 0.317993
0.829020 0.644519 0.458313
0.828111 0.643610 0.597311
0.827208 0.642707 0.735288
0.826310 0.641809 0.872435
0.825418 0.640916 1.000000
0.823506 0.777590 0.000000
0.822896 0.776980 0.021435
0.821944 0.776028 0.166877
0.821014 0.775098 0.309069
0.820096 0.774179 0.449388
0.819186 0.773270 0.588386
0.818284 0.772367 0.726364
0.817386 0.771470 0.863511
0.816493 0.770577 0.999957
0.814633 0.906514 0.000000
0.814023 0.905903 0.012562
0.813071 0.904952 0.158003
0.812141 0.904021 0.300195
0.811222 0.903103 0.440515
0.810313 0.902194 0.579513
0.809410 0.901291 0.717490
0.808513 0.900393 0.854637
0.807620 0.899501 0.991084
0.807439 1.000000 0.000000
0.806828 1.000000 0.005367
0.805877 1.000000 0.150809
0.804946 1.000000 0.293001
0.804028 1.000000 0.433320
0.803118 1.000000 0.572318
0.802216 1.000000 0.710296
0.801318 1.000000 0.847443
0.800425 1.000000 0.983889
1.000000 0.000000 0.000000
1.000000 0.000000 0.073501
1.000000 0.000000 0.218943
1.000000 0.000000 0.361135
1.000000 0.000000 0.501454
1.000000 0.000000 0.640452
1.000000 0.000000 0.778430
1.000000 0.000000 0.915577
1.000000 0.000000 1.000000
1.000000 0.114133 0.000000
1.000000 0.113522 0.064285
1.000000 0.112571 0.209727
1.000000 0.111640 0.351919
1.000000 0.110722 0.492238
0.999599 0.109813 0.631236
0.998696 0.108910 0.769213
0.997799 0.108012 0.906360
0.996906 0.107120 1.000000
0.994580 0.249820 0.000000
0.993970 0.249210 0.054946
0.993018 0.248258 0.200387
0.992088 0.247328 0.342580
0.991170 0.246410 0.482899
0.990260 0.245500 0.621897
0.989357 0.244597 0.759874
0.988460 0.243700 0.897021
0.987567 0.242807 1.000000
0.985410 0.383056 0.000000
0.984800 0.382445 0.045776
0.983848 0.381494 0.191217
0.982918 0.380563 0.333409
0.981999 0.379645 0.473729
0.981090 0.378736 0.612727
0.980187 0.377833 0.750704
0.979290 0.376935 0.887851
0.978397 0.376043 1.000000
0.976346 0.514743 0.000000
0.975736 0.514132 0.036712
0.974784 0.513181 0.182154
0.973854 0.512250 0.324346
0.972936 0.511332 0.464665
0.972026 0.510423 0.603663
0.971123 0.509520 0.741640
0.970226 0.508622 0.878787
0.969333 0.507730 1.000000
0.967361 0.645296 0.000000
0.966750 0.644686 0.027726
0.965799 0.643734 0.173168
0.964868 0.642804 0.315360
0.963950 0.641886 0.455679
0.963041 0.640976 0.594677
0.962138 0.640073 0.732655
0.961240 0.639176 0.869801
0.960348 0.638283 1.000000
0.958436 0.774957 0.000000
0.957826 0.774346 0.018802
0.956874 0.773395 0.164244
0.955944 0.772464 0.306436
0.955026 0.771546 0.446755
0.954116 0.770637 0.585753
0.953214 0.769734 0.723731
0.952316 0.768836 0.860877
0.951423 0.767944 0.997324
0.949563 0.903880 0.000000
0.948953 0.903270 0.009929
0.948001 0.902318 0.155370
0.947070 0.901388 0.297562
0.946152 0.900470 0.437882
0.945243 0.899560 0.576880
0.944340 0.898657 0.714857
0.943443 0.897760 0.852004
0.942550 0.896867 0.988450
0.942368 1.000000 0.000000
0.941758 1.000000 0.002734
0.940807 1.000000 0.148176
0.939876 1.000000 0.290368
0.938958 1.000000 0.430687
0.938048 1.000000 0.569685
0.937146 1.000000 0.707663
0.936248 1.000000 0.844809
0.935355 1.000000 0.981256
1.000000 0.000000 0.000000
1.000000 0.000000 0.072237
1.000000 0.000000 0.217679
1.000000 0.000000 0.359871
1.000000 0.000000 0.500190
1.000000 0.000000 0.639188
1.000000 0.000000 0.777166
1.000000 0.000000 0.914312
1.000000 0.000000 1.000000
1.000000 0.112869 0.000000
1.000000 0.112258 0.063021
1.000000 0.111307 0.208462
1.000000 0.110376 0.350654
1.000000 0.109458 0.490974
1.000000 0.108549 0.629972
1.000000 0.107646 0.767949
1.000000 0.106748 0.905096
1.000000 0.105856 1.000000
1.000000 0.248556 0.000000
1.000000 0.247946 0.053682
1.000000 0.246994 0.199123
1.000000 0.246064 0.341315
1.000000 0.245146 0.481635
1.000000 0.244236 0.620633
1.000000 0.243333 0.758610
1.000000 0.242436 0.895757
1.000000 0.241543 1.000000
1.000000 0.381792 0.000000
1.000000 0.381181 0.044512
1.000000 0.380230 0.189953
1.000000 0.379299 0.332145
1.000000 0.378381 0.472465
1.000000 0.377471 0.611463
1.000000 0.376569 0.749440
1.000000 0.375671 0.886587
1.000000 0.374778 1.000000
1.000000 0.513479 0.000000
1.000000 0.512868 0.035448
1.000000 0.511917 0.180889
1.000000 0.510986 0.323081
1.000000 0.510068 0.463401
1.000000 0.509158 0.602399
1.000000 0.508256 0.740376
1.000000 0.507358 0.877523
1.000000 0.506465 1.000000
1.000000 0.644032 0.000000
1.000000 0.643422 0.026462
1.000000 0.642470 0.171904
1.000000 0.641540 0.314096
1.000000 0.640622 0.454415
1.000000 0.639712 0.593413
1.000000 0.638809 0.731391
1.000000 0.637912 0.868537
1.000000 0.637019 1.000000
1.000000 0.773693 0.000000
1.000000 0.773082 0.017538
1.000000 0.772131 0.162979
1.000000 0.771200 0.305172
1.000000 0.770282 0.445491
1.000000 0.769372 0.584489
1.000000 0.768470 0.722466
1.000000 0.767572 0.859613
1.000000 0.766679 0.996060
1.000000 0.902616 0.000000
1.000000 0.902006 0.008664
1.000000 0.901054 0.154106
1.000000 0.900124 0.296298
1.000000 0.899206 0.436617
1.000000 0.898296 0.575615
1.000000 0.897393 0.713593
1.000000 0.896496 0.850740
1.000000 0.895603 0.987186
1.000000 1.000000 0.000000
1.000000 1.000000 0.001470
1.000000 1.000000 0.146912
1.000000 1.000000 0.289104
1.000000 1.000000 0.429423
1.000000 1.000000 0.568421
1.000000 1.000000 0.706399
1.000000 1.000000 0.843545
1.000000 1.000000 0.979992
