skills/editops-orchestrator/assets/grade/luts/ad_warm_v10.cube
TITLE "ad_warm_v10"
LUT_3D_SIZE 17
DOMAIN_MIN 0.0 0.0 0.0
DOMAIN_MAX 1.0 1.0 1.0
0.028616 0.000000 0.000000
0.028459 0.000000 0.033792
0.028135 0.000000 0.104520
0.027817 0.000000 0.173974
0.027503 0.000000 0.242728
0.027190 0.000000 0.310997
0.026879 0.000000 0.378893
0.026570 0.000000 0.446488
0.026262 0.000000 0.513828
0.025954 0.000000 0.580950
0.025648 0.000000 0.647880
0.025342 0.000000 0.714638
0.025037 0.000000 0.781242
0.024733 0.000000 0.847705
0.024429 0.000000 0.914039
0.024126 0.000000 0.980254
0.023824 0.000000 1.000000
0.025569 0.064047 0.000000
0.025413 0.063891 0.030746
0.025089 0.063567 0.101474
0.024771 0.063249 0.170928
0.024456 0.062934 0.239682
0.024144 0.062622 0.307951
0.023833 0.062311 0.375847
0.023524 0.062001 0.443441
0.023215 0.061693 0.510782
0.022908 0.061386 0.577904
0.022602 0.061079 0.644834
0.022296 0.060774 0.711592
0.021991 0.060469 0.778196
0.021687 0.060165 0.844659
0.021383 0.059861 0.910993
0.021080 0.059558 0.977208
0.020777 0.059255 1.000000
0.022395 0.131203 0.000000
0.022238 0.131047 0.027571
0.021914 0.130723 0.098299
0.021596 0.130405 0.167753
0.021282 0.130090 0.236507
0.020969 0.129778 0.304776
0.020658 0.129467 0.372672
0.020349 0.129158 0.440267
0.020041 0.128849 0.507607
0.019733 0.128542 0.574729
0.019427 0.128236 0.641659
0.019121 0.127930 0.708417
0.018816 0.127625 0.775021
0.018512 0.127321 0.841484
0.018208 0.127017 0.907818
0.017905 0.126714 0.974033
0.017603 0.126412 1.000000
0.019261 0.197479 0.000000
0.019105 0.197322 0.024438
0.018781 0.196998 0.095166
0.018463 0.196680 0.164620
0.018148 0.196366 0.233374
0.017836 0.196053 0.301643
0.017525 0.195742 0.369539
0.017216 0.195433 0.437133
0.016907 0.195125 0.504474
0.016600 0.194817 0.571596
0.016294 0.194511 0.638526
0.015988 0.194205 0.705284
0.015683 0.193900 0.771888
0.015379 0.193596 0.838351
0.015075 0.193292 0.904685
0.014772 0.192989 0.970900
0.014470 0.192687 1.000000
0.016155 0.263197 0.000000
0.015998 0.263040 0.021331
0.015674 0.262716 0.092059
0.015356 0.262398 0.161513
0.015042 0.262084 0.230267
0.014729 0.261771 0.298536
0.014418 0.261460 0.366432
0.014109 0.261151 0.434027
0.013801 0.260843 0.501367
0.013493 0.260535 0.568489
0.013187 0.260229 0.635419
0.012881 0.259923 0.702177
0.012576 0.259618 0.768781
0.012272 0.259314 0.835244
0.011968 0.259010 0.901578
0.011665 0.258707 0.967793
0.011363 0.258405 1.000000
0.013067 0.328506 0.000000
0.012911 0.328350 0.018244
0.012587 0.328026 0.088972
0.012269 0.327708 0.158425
0.011954 0.327393 0.227180
0.011642 0.327081 0.295448
0.011331 0.326770 0.363345
0.011021 0.326460 0.430939
0.010713 0.326152 0.498280
0.010406 0.325845 0.565402
0.010099 0.325538 0.632331
0.009794 0.325233 0.699090
0.009489 0.324928 0.765693
0.009185 0.324624 0.832157
0.008881 0.324320 0.898491
0.008578 0.324017 0.964705
0.008275 0.323714 1.000000
0.009995 0.393493 0.000000
0.009838 0.393337 0.015172
0.009515 0.393013 0.085899
0.009197 0.392695 0.155353
0.008882 0.392380 0.224108
0.008569 0.392068 0.292376
0.008259 0.391757 0.360272
0.007949 0.391448 0.427867
0.007641 0.391139 0.495207
0.007334 0.390832 0.562329
0.007027 0.390526 0.629259
0.006722 0.390220 0.696017
0.006417 0.389915 0.762621
0.006112 0.389611 0.829084
0.005809 0.389307 0.895418
0.005506 0.389004 0.961633
0.005203 0.388701 1.000000
0.006935 0.458214 0.000000
0.006779 0.458058 0.012112
0.006455 0.457734 0.082840
0.006137 0.457416 0.152293
0.005822 0.457101 0.221048
0.005510 0.456789 0.289317
0.005199 0.456478 0.357213
0.004889 0.456169 0.424807
0.004581 0.455860 0.492148
0.004274 0.455553 0.559270
0.003967 0.455247 0.626199
0.003662 0.454941 0.692958
0.003357 0.454636 0.759562
0.003053 0.454332 0.826025
0.002749 0.454028 0.892359
0.002446 0.453725 0.958573
0.002143 0.453422 1.000000
0.003886 0.522709 0.000000
0.003730 0.522552 0.009063
0.003406 0.522228 0.079791
0.003088 0.521910 0.149244
0.002773 0.521596 0.217999
0.002461 0.521283 0.286268
0.002150 0.520972 0.354164
0.001840 0.520663 0.421758
0.001532 0.520355 0.489099
0.001225 0.520047 0.556221
0.000919 0.519741 0.623150
0.000613 0.519435 0.689909
0.000308 0.519131 0.756513
0.000004 0.518826 0.822976
0.000000 0.518523 0.889310
0.000000 0.518219 0.955525
0.000000 0.517917 1.000000
0.000847 0.587006 0.000000
0.000690 0.586849 0.006023
0.000366 0.586526 0.076751
0.000048 0.586208 0.146205
0.000000 0.585893 0.214959
0.000000 0.585580 0.283228
0.000000 0.585270 0.351124
0.000000 0.584960 0.418719
0.000000 0.584652 0.486059
0.000000 0.584345 0.553181
0.000000 0.584038 0.620111
0.000000 0.583733 0.686869
0.000000 0.583428 0.753473
0.000000 0.583123 0.819936
0.000000 0.582820 0.886270
0.000000 0.582517 0.952485
0.000000 0.582214 1.000000
0.000000 0.651129 0.000000
0.000000 0.650972 0.002992
0.000000 0.650648 0.073720
0.000000 0.650330 0.143173
0.000000 0.650016 0.211928
0.000000 0.649703 0.280197
0.000000 0.649392 0.348093
0.000000 0.649083 0.415687
0.000000 0.648775 0.483028
0.000000 0.648467 0.550150
0.000000 0.648161 0.617079
0.000000 0.647855 0.683838
0.000000 0.647550 0.750442
0.000000 0.647246 0.816905
0.000000 0.646942 0.883239
0.000000 0.646639 0.949454
0.000000 0.646337 1.000000
0.000000 0.715095 0.000000
0.000000 0.714938 0.000000
0.000000 0.714614 0.070696
0.000000 0.714297 0.140149
0.000000 0.713982 0.208904
0.000000 0.713669 0.277173
0.000000 0.713358 0.345069
0.000000 0.713049 0.412663
0.000000 0.712741 0.480004
0.000000 0.712433 0.547126
0.000000 0.712127 0.614055
0.000000 0.711821 0.680814
0.000000 0.711517 0.747418
0.000000 0.711212 0.813881
0.000000 0.710909 0.880215
0.000000 0.710605 0.946430
0.000000 0.710303 1.000000
0.000000 0.778919 0.000000
0.000000 0.778763 0.000000
0.000000 0.778439 0.067678
0.000000 0.778121 0.137132
0.000000 0.777806 0.205887
0.000000 0.777494 0.274155
0.000000 0.777183 0.342052
0.000000 0.776873 0.409646
0.000000 0.776565 0.476986
0.000000 0.776258 0.544108
0.000000 0.775951 0.611038
0.000000 0.775646 0.677796
0.000000 0.775341 0.744400
0.000000 0.775037 0.810863
0.000000 0.774733 0.877197
0.000000 0.774430 0.943412
0.000000 0.774127 1.000000
0.000000 0.842614 0.000000
0.000000 0.842458 0.000000
0.000000 0.842134 0.064667
0.000000 0.841816 0.134121
0.000000 0.841501 0.202875
0.000000 0.841189 0.271144
0.000000 0.840878 0.339040
0.000000 0.840568 0.406635
0.000000 0.840260 0.473975
0.000000 0.839953 0.541097
0.000000 0.839646 0.608027
0.000000 0.839341 0.674785
0.000000 0.839036 0.741389
0.000000 0.838732 0.807852
0.000000 0.838428 0.874186
0.000000 0.838125 0.940401
0.000000 0.837822 1.000000
0.000000 0.906190 0.000000
0.000000 0.906033 0.000000
0.000000 0.905709 0.061662
0.000000 0.905391 0.131115
0.000000 0.905077 0.199870
0.000000 0.904764 0.268139
0.000000 0.904453 0.336035
0.000000 0.904144 0.403629
0.000000 0.903836 0.470970
0.000000 0.903528 0.538092
0.000000 0.903222 0.605021
0.000000 0.902916 0.671780
0.000000 0.902611 0.738384
0.000000 0.902307 0.804847
0.000000 0.902003 0.871181
0.000000 0.901700 0.937396
0.000000 0.901398 1.000000
0.000000 0.969655 0.000000
0.000000 0.969498 0.000000
0.000000 0.969174 0.058661
0.000000 0.968856 0.128115
0.000000 0.968542 0.196870
0.000000 0.968229 0.265138
0.000000 0.967918 0.333035
0.000000 0.967609 0.400629
0.000000 0.967301 0.467970
0.000000 0.966993 0.535091
0.000000 0.966687 0.602021
0.000000 0.966381 0.668779
0.000000 0.966076 0.735383
0.000000 0.965772 0.801846
0.000000 0.965468 0.868180
0.000000 0.965165 0.934395
0.000000 0.964863 1.000000
0.000000 1.000000 0.000000
0.000000 1.000000 0.000000
0.000000 1.000000 0.056338
0.000000 1.000000 0.125792
0.000000 1.000000 0.194546
0.000000 1.000000 0.262815
0.000000 1.000000 0.330711
0.000000 1.000000 0.398306
0.000000 1.000000 0.465646
0.000000 1.000000 0.532768
0.000000 1.000000 0.599698
0.000000 1.000000 0.666456
0.000000 1.000000 0.733060
0.000000 1.000000 0.799523
0.000000 1.000000 0.865857
0.000000 1.000000 0.932072
0.000000 1.000000 0.998176
0.098865 0.000000 0.000000
0.098709 0.000000 0.032837
0.098385 0.000000 0.103565
0.098067 0.000000 0.173018
0.097752 0.000000 0.241773
0.097440 0.000000 0.310042
0.097129 0.000000 0.377938
0.096819 0.000000 0.445532
0.096511 0.000000 0.512873
0.096204 0.000000 0.579995
0.095898 0.000000 0.646924
0.095592 0.000000 0.713683
0.095287 0.000000 0.780286
0.094983 0.000000 0.846750
0.094679 0.000000 0.913084
0.094376 0.000000 0.979298
0.094073 0.000000 1.000000
0.095819 0.063092 0.000000
0.095663 0.062935 0.029791
0.095339 0.062611 0.100518
0.095021 0.062293 0.169972
0.094706 0.061979 0.238727
0.094393 0.061666 0.306995
0.094083 0.061355 0.374892
0.093773 0.061046 0.442486
0.093465 0.060738 0.509826
0.093158 0.060430 0.576948
0.092851 0.060124 0.643878
0.092546 0.059818 0.710636
0.092241 0.059513 0.777240
0.091937 0.059209 0.843703
0.091633 0.058905 0.910037
0.091330 0.058602 0.976252
0.091027 0.058300 1.000000
0.092644 0.130248 0.000000
0.092488 0.130091 0.026616
0.092164 0.129768 0.097343
0.091846 0.129450 0.166797
0.091531 0.129135 0.235552
0.091219 0.128822 0.303820
0.090908 0.128512 0.371717
0.090598 0.128202 0.439311
0.090290 0.127894 0.506652
0.089983 0.127587 0.573774
0.089676 0.127280 0.640703
0.089371 0.126975 0.707462
0.089066 0.126670 0.774065
0.088762 0.126365 0.840529
0.088458 0.126062 0.906863
0.088155 0.125759 0.973077
0.087852 0.125456 1.000000
0.089511 0.196523 0.000000
0.089355 0.196367 0.023483
0.089031 0.196043 0.094210
0.088713 0.195725 0.163664
0.088398 0.195410 0.232419
0.088086 0.195098 0.300687
0.087775 0.194787 0.368584
0.087465 0.194477 0.436178
0.087157 0.194169 0.503519
0.086850 0.193862 0.570640
0.086543 0.193555 0.637570
0.086238 0.193250 0.704328
0.085933 0.192945 0.770932
0.085629 0.192641 0.837395
0.085325 0.192337 0.903730
0.085022 0.192034 0.969944
0.084719 0.191731 1.000000
0.086404 0.262241 0.000000
0.086248 0.262085 0.020376
0.085924 0.261761 0.091104
0.085606 0.261443 0.160557
0.085291 0.261128 0.229312
0.084979 0.260816 0.297581
0.084668 0.260505 0.365477
0.084358 0.260195 0.433071
0.084050 0.259887 0.500412
0.083743 0.259580 0.567534
0.083437 0.259273 0.634463
0.083131 0.258968 0.701222
0.082826 0.258663 0.767826
0.082522 0.258359 0.834289
0.082218 0.258055 0.900623
0.081915 0.257752 0.966837
0.081612 0.257449 1.000000
0.083317 0.327551 0.000000
0.083160 0.327394 0.017288
0.082836 0.327070 0.088016
0.082519 0.326752 0.157470
0.082204 0.326438 0.226224
0.081891 0.326125 0.294493
0.081580 0.325814 0.362389
0.081271 0.325505 0.429984
0.080963 0.325197 0.497324
0.080655 0.324889 0.564446
0.080349 0.324583 0.631376
0.080043 0.324277 0.698134
0.079739 0.323972 0.764738
0.079434 0.323668 0.831201
0.079131 0.323365 0.897535
0.078827 0.323061 0.963750
0.078525 0.322759 1.000000
0.080244 0.392538 0.000000
0.080088 0.392381 0.014216
0.079764 0.392058 0.084944
0.079446 0.391740 0.154398
0.079132 0.391425 0.223152
0.078819 0.391112 0.291421
0.078508 0.390802 0.359317
0.078199 0.390492 0.426911
0.077890 0.390184 0.494252
0.077583 0.389877 0.561374
0.077277 0.389570 0.628304
0.076971 0.389265 0.695062
0.076666 0.388960 0.761666
0.076362 0.388655 0.828129
0.076058 0.388352 0.894463
0.075755 0.388049 0.960678
0.075453 0.387746 1.000000
0.077185 0.457259 0.000000
0.077028 0.457102 0.011156
0.076705 0.456779 0.081884
0.076387 0.456461 0.151338
0.076072 0.456146 0.220092
0.075759 0.455833 0.288361
0.075448 0.455523 0.356257
0.075139 0.455213 0.423852
0.074831 0.454905 0.491192
0.074523 0.454598 0.558314
0.074217 0.454291 0.625244
0.073911 0.453986 0.692002
0.073607 0.453681 0.758606
0.073302 0.453376 0.825069
0.072999 0.453073 0.891403
0.072696 0.452770 0.957618
0.072393 0.452467 1.000000
0.074136 0.521753 0.000000
0.073979 0.521597 0.008107
0.073656 0.521273 0.078835
0.073338 0.520955 0.148289
0.073023 0.520640 0.217043
0.072710 0.520328 0.285312
0.072400 0.520017 0.353208
0.072090 0.519707 0.420803
0.071782 0.519399 0.488143
0.071475 0.519092 0.555265
0.071168 0.518786 0.622195
0.070863 0.518480 0.688953
0.070558 0.518175 0.755557
0.070253 0.517871 0.822020
0.069950 0.517567 0.888354
0.069647 0.517264 0.954569
0.069344 0.516961 1.000000
0.071096 0.586050 0.000000
0.070940 0.585894 0.005068
0.070616 0.585570 0.075795
0.070298 0.585252 0.145249
0.069983 0.584937 0.214004
0.069671 0.584625 0.282272
0.069360 0.584314 0.350169
0.069050 0.584005 0.417763
0.068742 0.583696 0.485104
0.068435 0.583389 0.552226
0.068128 0.583083 0.619155
0.067823 0.582777 0.685914
0.067518 0.582472 0.752517
0.067214 0.582168 0.818981
0.066910 0.581864 0.885315
0.066607 0.581561 0.951529
0.066304 0.581259 1.000000
0.068065 0.650173 0.000000
0.067908 0.650017 0.002036
0.067585 0.649693 0.072764
0.067267 0.649375 0.142218
0.066952 0.649060 0.210972
0.066639 0.648748 0.279241
0.066328 0.648437 0.347137
0.066019 0.648127 0.414732
0.065711 0.647819 0.482072
0.065404 0.647512 0.549194
0.065097 0.647205 0.616124
0.064791 0.646900 0.682882
0.064487 0.646595 0.749486
0.064182 0.646291 0.815949
0.063879 0.645987 0.882283
0.063576 0.645684 0.948498
0.063273 0.645381 1.000000
0.065041 0.714139 0.000000
0.064884 0.713983 0.000000
0.064561 0.713659 0.069740
0.064243 0.713341 0.139194
0.063928 0.713026 0.207948
0.063615 0.712714 0.276217
0.063304 0.712403 0.344113
0.062995 0.712094 0.411708
0.062687 0.711785 0.479048
0.062380 0.711478 0.546170
0.062073 0.711172 0.613100
0.061768 0.710866 0.679858
0.061463 0.710561 0.746462
0.061158 0.710257 0.812925
0.060855 0.709953 0.879259
0.060552 0.709650 0.945474
0.060249 0.709347 1.000000
0.062024 0.777964 0.000000
0.061867 0.777807 0.000000
0.061543 0.777483 0.066723
0.061225 0.777165 0.136177
0.060911 0.776851 0.204931
0.060598 0.776538 0.273200
0.060287 0.776227 0.341096
0.059978 0.775918 0.408690
0.059669 0.775610 0.476031
0.059362 0.775302 0.543153
0.059056 0.774996 0.610083
0.058750 0.774690 0.676841
0.058445 0.774385 0.743445
0.058141 0.774081 0.809908
0.057837 0.773778 0.876242
0.057534 0.773474 0.942457
0.057232 0.773172 1.000000
0.059012 0.841659 0.000000
0.058856 0.841502 0.000000
0.058532 0.841178 0.063712
0.058214 0.840860 0.133165
0.057899 0.840546 0.201920
0.057587 0.840233 0.270189
0.057276 0.839922 0.338085
0.056967 0.839613 0.405679
0.056658 0.839305 0.473020
0.056351 0.838997 0.540142
0.056045 0.838691 0.607071
0.055739 0.838385 0.673830
0.055434 0.838080 0.740434
0.055130 0.837776 0.806897
0.054826 0.837472 0.873231
0.054523 0.837169 0.939446
0.054220 0.836867 1.000000
0.056007 0.905234 0.000000
0.055850 0.905078 0.000000
0.055527 0.904754 0.060706
0.055209 0.904436 0.130160
0.054894 0.904121 0.198914
0.054581 0.903809 0.267183
0.054271 0.903498 0.335079
0.053961 0.903188 0.402674
0.053653 0.902880 0.470014
0.053346 0.902573 0.537136
0.053039 0.902266 0.604066
0.052734 0.901961 0.670824
0.052429 0.901656 0.737428
0.052124 0.901352 0.803891
0.051821 0.901048 0.870225
0.051518 0.900745 0.936440
0.051215 0.900442 1.000000
0.053007 0.968699 0.000000
0.052850 0.968543 0.000000
0.052526 0.968219 0.057706
0.052208 0.967901 0.127160
0.051894 0.967586 0.195914
0.051581 0.967274 0.264183
0.051270 0.966963 0.332079
0.050961 0.966653 0.399673
0.050653 0.966345 0.467014
0.050345 0.966038 0.534136
0.050039 0.965731 0.601066
0.049733 0.965426 0.667824
0.049428 0.965121 0.734428
0.049124 0.964817 0.800891
0.048820 0.964513 0.867225
0.048517 0.964210 0.933440
0.048215 0.963907 0.999544
0.050683 1.000000 0.000000
0.050527 1.000000 0.000000
0.050203 1.000000 0.055383
0.049885 1.000000 0.124836
0.049570 1.000000 0.193591
0.049258 1.000000 0.261860
0.048947 1.000000 0.329756
0.048638 1.000000 0.397350
0.048329 1.000000 0.464691
0.048022 1.000000 0.531813
0.047716 1.000000 0.598742
0.047410 1.000000 0.665501
0.047105 1.000000 0.732105
0.046801 1.000000 0.798568
0.046497 1.000000 0.864902
0.046194 1.000000 0.931117
0.045891 1.000000 0.997220
0.167766 0.000000 0.000000
0.167610 0.000000 0.031900
0.167286 0.000000 0.102627
0.166968 0.000000 0.172081
0.166653 0.000000 0.240836
0.166341 0.000000 0.309104
0.166030 0.000000 0.377001
0.165720 0.000000 0.444595
0.165412 0.000000 0.511936
0.165105 0.000000 0.579057
0.164798 0.000000 0.645987
0.164493 0.000000 0.712746
0.164188 0.000000 0.779349
0.163884 0.000000 0.845813
0.163580 0.000000 0.912147
0.163277 0.000000 0.978361
0.162974 0.000000 1.000000
0.164720 0.062154 0.000000
0.164563 0.061998 0.028854
0.164240 0.061674 0.099581
0.163922 0.061356 0.169035
0.163607 0.061042 0.237789
0.163294 0.060729 0.306058
0.162983 0.060418 0.373954
0.162674 0.060109 0.441549
0.162366 0.059800 0.508889
0.162058 0.059493 0.576011
0.161752 0.059187 0.642941
0.161446 0.058881 0.709699
0.161142 0.058576 0.776303
0.160837 0.058272 0.842766
0.160534 0.057968 0.909100
0.160231 0.057665 0.975315
0.159928 0.057363 1.000000
0.161545 0.129311 0.000000
0.161388 0.129154 0.025679
0.161065 0.128831 0.096406
0.160747 0.128513 0.165860
0.160432 0.128198 0.234615
0.160119 0.127885 0.302883
0.159809 0.127574 0.370780
0.159499 0.127265 0.438374
0.159191 0.126957 0.505715
0.158884 0.126650 0.572836
0.158577 0.126343 0.639766
0.158272 0.126038 0.706525
0.157967 0.125733 0.773128
0.157663 0.125428 0.839592
0.157359 0.125125 0.905926
0.157056 0.124822 0.972140
0.156753 0.124519 1.000000
0.158412 0.195586 0.000000
0.158255 0.195430 0.022546
0.157932 0.195106 0.093273
0.157614 0.194788 0.162727
0.157299 0.194473 0.231482
0.156986 0.194160 0.299750
0.156676 0.193850 0.367646
0.156366 0.193540 0.435241
0.156058 0.193232 0.502581
0.155751 0.192925 0.569703
0.155444 0.192618 0.636633
0.155139 0.192313 0.703391
0.154834 0.192008 0.769995
0.154529 0.191704 0.836458
0.154226 0.191400 0.902792
0.153923 0.191097 0.969007
0.153620 0.190794 1.000000
0.155305 0.261304 0.000000
0.155149 0.261148 0.019439
0.154825 0.260824 0.090166
0.154507 0.260506 0.159620
0.154192 0.260191 0.228375
0.153880 0.259879 0.296643
0.153569 0.259568 0.364540
0.153259 0.259258 0.432134
0.152951 0.258950 0.499475
0.152644 0.258643 0.566596
0.152337 0.258336 0.633526
0.152032 0.258031 0.700285
0.151727 0.257726 0.766888
0.151423 0.257422 0.833352
0.151119 0.257118 0.899686
0.150816 0.256815 0.965900
0.150513 0.256512 1.000000
0.152218 0.326614 0.000000
0.152061 0.326457 0.016351
0.151737 0.326133 0.087079
0.151419 0.325815 0.156533
0.151105 0.325501 0.225287
0.150792 0.325188 0.293556
0.150481 0.324877 0.361452
0.150172 0.324568 0.429046
0.149863 0.324260 0.496387
0.149556 0.323952 0.563509
0.149250 0.323646 0.630439
0.148944 0.323340 0.697197
0.148639 0.323035 0.763801
0.148335 0.322731 0.830264
0.148031 0.322427 0.896598
0.147728 0.322124 0.962813
0.147426 0.321822 1.000000
0.149145 0.391601 0.000000
0.148989 0.391444 0.013279
0.148665 0.391120 0.084007
0.148347 0.390803 0.153460
0.148032 0.390488 0.222215
0.147720 0.390175 0.290484
0.147409 0.389864 0.358380
0.147100 0.389555 0.425974
0.146791 0.389247 0.493315
0.146484 0.388939 0.560437
0.146178 0.388633 0.627366
0.145872 0.388327 0.694125
0.145567 0.388023 0.760729
0.145263 0.387718 0.827192
0.144959 0.387415 0.893526
0.144656 0.387112 0.959741
0.144353 0.386809 1.000000
0.146086 0.456322 0.000000
0.145929 0.456165 0.010219
0.145605 0.455841 0.080947
0.145287 0.455524 0.150401
0.144973 0.455209 0.219155
0.144660 0.454896 0.287424
0.144349 0.454585 0.355320
0.144040 0.454276 0.422915
0.143732 0.453968 0.490255
0.143424 0.453660 0.557377
0.143118 0.453354 0.624307
0.142812 0.453048 0.691065
0.142507 0.452744 0.757669
0.142203 0.452439 0.824132
0.141899 0.452136 0.890466
0.141596 0.451832 0.956681
0.141294 0.451530 1.000000
0.143037 0.520816 0.000000
0.142880 0.520660 0.007170
0.142556 0.520336 0.077898
0.142238 0.520018 0.147352
0.141924 0.519703 0.216106
0.141611 0.519391 0.284375
0.141300 0.519080 0.352271
0.140991 0.518770 0.419866
0.140683 0.518462 0.487206
0.140375 0.518155 0.554328
0.140069 0.517848 0.621258
0.139763 0.517543 0.688016
0.139458 0.517238 0.754620
0.139154 0.516934 0.821083
0.138850 0.516630 0.887417
0.138547 0.516327 0.953632
0.138245 0.516024 1.000000
0.139997 0.585113 0.000000
0.139841 0.584957 0.004131
0.139517 0.584633 0.074858
0.139199 0.584315 0.144312
0.138884 0.584000 0.213067
0.138571 0.583688 0.281335
0.138261 0.583377 0.349232
0.137951 0.583068 0.416826
0.137643 0.582759 0.484167
0.137336 0.582452 0.551288
0.137029 0.582146 0.618218
0.136724 0.581840 0.684977
0.136419 0.581535 0.751580
0.136115 0.581231 0.818044
0.135811 0.580927 0.884378
0.135508 0.580624 0.950592
0.135205 0.580321 1.000000
0.136966 0.649236 0.000000
0.136809 0.649079 0.001099
0.136485 0.648756 0.071827
0.136167 0.648438 0.141281
0.135853 0.648123 0.210035
0.135540 0.647810 0.278304
0.135229 0.647500 0.346200
0.134920 0.647190 0.413795
0.134612 0.646882 0.481135
0.134304 0.646575 0.548257
0.133998 0.646268 0.615187
0.133692 0.645963 0.681945
0.133387 0.645658 0.748549
0.133083 0.645353 0.815012
0.132779 0.645050 0.881346
0.132476 0.644747 0.947561
0.132174 0.644444 1.000000
0.133942 0.713202 0.000000
0.133785 0.713046 0.000000
0.133461 0.712722 0.068803
0.133143 0.712404 0.138257
0.132829 0.712089 0.207011
0.132516 0.711777 0.275280
0.132205 0.711466 0.343176
0.131896 0.711156 0.410771
0.131588 0.710848 0.478111
0.131280 0.710541 0.545233
0.130974 0.710234 0.612163
0.130668 0.709929 0.678921
0.130363 0.709624 0.745525
0.130059 0.709320 0.811988
0.129755 0.709016 0.878322
0.129452 0.708713 0.944537
0.129150 0.708410 1.000000
0.130924 0.777027 0.000000
0.130768 0.776870 0.000000
0.130444 0.776546 0.065786
0.130126 0.776228 0.135239
0.129811 0.775914 0.203994
0.129499 0.775601 0.272263
0.129188 0.775290 0.340159
0.128879 0.774981 0.407753
0.128570 0.774673 0.475094
0.128263 0.774365 0.542216
0.127957 0.774059 0.609145
0.127651 0.773753 0.675904
0.127346 0.773448 0.742508
0.127042 0.773144 0.808971
0.126738 0.772840 0.875305
0.126435 0.772537 0.941520
0.126132 0.772235 1.000000
0.127913 0.840721 0.000000
0.127757 0.840565 0.000000
0.127433 0.840241 0.062775
0.127115 0.839923 0.132228
0.126800 0.839608 0.200983
0.126488 0.839296 0.269252
0.126177 0.838985 0.337148
0.125867 0.838676 0.404742
0.125559 0.838367 0.472083
0.125252 0.838060 0.539205
0.124945 0.837754 0.606134
0.124640 0.837448 0.672893
0.124335 0.837143 0.739497
0.124031 0.836839 0.805960
0.123727 0.836535 0.872294
0.123424 0.836232 0.938508
0.123121 0.835930 1.000000
0.124908 0.904297 0.000000
0.124751 0.904140 0.000000
0.124427 0.903817 0.059769
0.124109 0.903499 0.129223
0.123795 0.903184 0.197977
0.123482 0.902871 0.266246
0.123171 0.902561 0.334142
0.122862 0.902251 0.401737
0.122554 0.901943 0.469077
0.122246 0.901636 0.536199
0.121940 0.901329 0.603129
0.121634 0.901024 0.669887
0.121329 0.900719 0.736491
0.121025 0.900414 0.802954
0.120721 0.900111 0.869288
0.120418 0.899808 0.935503
0.120116 0.899505 1.000000
0.121907 0.967762 0.000000
0.121751 0.967605 0.000000
0.121427 0.967282 0.056769
0.121109 0.966964 0.126223
0.120794 0.966649 0.194977
0.120482 0.966336 0.263246
0.120171 0.966026 0.331142
0.119862 0.965716 0.398736
0.119553 0.965408 0.466077
0.119246 0.965101 0.533199
0.118940 0.964794 0.600128
0.118634 0.964489 0.666887
0.118329 0.964184 0.733491
0.118025 0.963880 0.799954
0.117721 0.963576 0.866288
0.117418 0.963273 0.932503
0.117115 0.962970 0.998607
0.119584 1.000000 0.000000
0.119428 1.000000 0.000000
0.119104 1.000000 0.054445
0.118786 1.000000 0.123899
0.118471 1.000000 0.192654
0.118159 1.000000 0.260922
0.117848 1.000000 0.328819
0.117538 1.000000 0.396413
0.117230 1.000000 0.463754
0.116923 1.000000 0.530876
0.116616 1.000000 0.597805
0.116311 1.000000 0.664564
0.116006 1.000000 0.731167
0.115702 1.000000 0.797631
0.115398 1.000000 0.863965
0.115095 1.000000 0.930179
0.114792 1.000000 0.996283
0.235950 0.000000 0.000000
0.235794 0.000000 0.030972
0.235470 0.000000 0.101700
0.235152 0.000000 0.171154
0.234837 0.000000 0.239908
0.234525 0.000000 0.308177
0.234214 0.000000 0.376073
0.233905 0.000000 0.443668
0.233596 0.000000 0.511008
0.233289 0.000000 0.578130
0.232983 0.000000 0.645060
0.232677 0.000000 0.711818
0.232372 0.000000 0.778422
0.232068 0.000000 0.844885
0.231764 0.000000 0.911219
0.231461 0.000000 0.977434
0.231159 0.000000 1.000000
0.232904 0.061227 0.000000
