skills/editops-orchestrator/assets/grade/luts/ad_warm_v01.cube
TITLE "ad_warm_v01"
LUT_3D_SIZE 9
DOMAIN_MIN 0.0 0.0 0.0
DOMAIN_MAX 1.0 1.0 1.0
0.010636 0.000000 0.000000
0.010466 0.000000 0.119650
0.010285 0.000000 0.247923
0.010104 0.000000 0.375494
0.009924 0.000000 0.502621
0.009744 0.000000 0.629420
0.009564 0.000000 0.755960
0.009385 0.000000 0.882285
0.009206 0.000000 1.000000
0.008811 0.128309 0.000000
0.008641 0.128139 0.117825
0.008459 0.127957 0.246097
0.008278 0.127777 0.373669
0.008098 0.127596 0.500795
0.007918 0.127417 0.627594
0.007739 0.127237 0.754134
0.007560 0.127058 0.880460
0.007381 0.126879 1.000000
0.007010 0.254889 0.000000
0.006841 0.254720 0.116024
0.006659 0.254538 0.244297
0.006478 0.254357 0.371868
0.006298 0.254177 0.498995
0.006118 0.253997 0.625794
0.005938 0.253817 0.752334
0.005759 0.253638 0.878659
0.005581 0.253460 1.000000
0.005219 0.380809 0.000000
0.005050 0.380639 0.114234
0.004868 0.380457 0.242506
0.004687 0.380276 0.370077
0.004507 0.380096 0.497204
0.004327 0.379916 0.624003
0.004148 0.379737 0.750543
0.003968 0.379558 0.876868
0.003790 0.379379 1.000000
0.003434 0.506301 0.000000
0.003265 0.506131 0.112449
0.003083 0.505950 0.240721
0.002902 0.505769 0.368293
0.002722 0.505588 0.495419
0.002542 0.505409 0.622218
0.002363 0.505229 0.748758
0.002184 0.505050 0.875083
0.002005 0.504871 1.000000
0.001654 0.631477 0.000000
0.001484 0.631307 0.110668
0.001303 0.631125 0.238940
0.001122 0.630944 0.366512
0.000941 0.630764 0.493639
0.000762 0.630584 0.620438
0.000582 0.630405 0.746978
0.000403 0.630226 0.873303
0.000224 0.630047 0.999445
0.000000 0.756401 0.000000
0.000000 0.756231 0.108892
0.000000 0.756049 0.237164
0.000000 0.755868 0.364735
0.000000 0.755688 0.491862
0.000000 0.755508 0.618661
0.000000 0.755329 0.745201
0.000000 0.755150 0.871526
0.000000 0.754971 0.997668
0.000000 0.881115 0.000000
0.000000 0.880946 0.107118
0.000000 0.880764 0.235390
0.000000 0.880583 0.362962
0.000000 0.880403 0.490088
0.000000 0.880223 0.616887
0.000000 0.880044 0.743427
0.000000 0.879864 0.869752
0.000000 0.879686 0.995895
0.000000 1.000000 0.000000
0.000000 1.000000 0.105346
0.000000 1.000000 0.233619
0.000000 1.000000 0.361190
0.000000 1.000000 0.488317
0.000000 1.000000 0.615116
0.000000 1.000000 0.741656
0.000000 1.000000 0.867981
0.000000 1.000000 0.994123
0.139900 0.000000 0.000000
0.139730 0.000000 0.119109
0.139548 0.000000 0.247381
0.139367 0.000000 0.374953
0.139187 0.000000 0.502080
0.139007 0.000000 0.628879
0.138828 0.000000 0.755419
0.138649 0.000000 0.881744
0.138470 0.000000 1.000000
0.138074 0.127768 0.000000
0.137904 0.127598 0.117284
0.137722 0.127416 0.245556
0.137542 0.127235 0.373128
0.137361 0.127055 0.500254
0.137182 0.126875 0.627053
0.137002 0.126696 0.753593
0.136823 0.126517 0.879918
0.136644 0.126338 1.000000
0.136274 0.254348 0.000000
0.136104 0.254178 0.115483
0.135922 0.253997 0.243756
0.135741 0.253816 0.371327
0.135561 0.253635 0.498454
0.135381 0.253456 0.625253
0.135202 0.253276 0.751793
0.135023 0.253097 0.878118
0.134844 0.252918 1.000000
0.134483 0.380268 0.000000
0.134313 0.380098 0.113692
0.134131 0.379916 0.241965
0.133950 0.379735 0.369536
0.133770 0.379555 0.496663
0.133590 0.379375 0.623462
0.133411 0.379196 0.750002
0.133232 0.379017 0.876327
0.133053 0.378838 1.000000
0.132698 0.505760 0.000000
0.132528 0.505590 0.111908
0.132346 0.505408 0.240180
0.132165 0.505228 0.367751
0.131985 0.505047 0.494878
0.131805 0.504868 0.621677
0.131626 0.504688 0.748217
0.131447 0.504509 0.874542
0.131268 0.504330 1.000000
0.130917 0.630936 0.000000
0.130748 0.630766 0.110127
0.130566 0.630584 0.238399
0.130385 0.630403 0.365971
0.130205 0.630223 0.493098
0.130025 0.630043 0.619897
0.129846 0.629864 0.746437
0.129667 0.629685 0.872762
0.129488 0.629506 0.998904
0.129141 0.755859 0.000000
0.128971 0.755690 0.108350
0.128789 0.755508 0.236623
0.128608 0.755327 0.364194
0.128428 0.755147 0.491321
0.128248 0.754967 0.618120
0.128069 0.754788 0.744660
0.127890 0.754609 0.870985
0.127711 0.754430 0.997127
0.127367 0.880574 0.000000
0.127197 0.880405 0.106577
0.127015 0.880223 0.234849
0.126834 0.880042 0.362420
0.126654 0.879862 0.489547
0.126474 0.879682 0.616346
0.126295 0.879502 0.742886
0.126116 0.879323 0.869211
0.125937 0.879145 0.995353
0.125596 1.000000 0.000000
0.125426 1.000000 0.104805
0.125244 1.000000 0.233077
0.125063 1.000000 0.360649
0.124883 1.000000 0.487776
0.124703 1.000000 0.614575
0.124524 1.000000 0.741115
0.124345 1.000000 0.867440
0.124166 1.000000 0.993582
0.267676 0.000000 0.000000
0.267506 0.000000 0.118574
0.267325 0.000000 0.246847
0.267144 0.000000 0.374418
0.266963 0.000000 0.501545
0.266784 0.000000 0.628344
0.266604 0.000000 0.754884
0.266425 0.000000 0.881209
0.266246 0.000000 1.000000
0.265851 0.127233 0.000000
0.265681 0.127063 0.116749
0.265499 0.126881 0.245021
0.265318 0.126701 0.372593
0.265138 0.126520 0.499719
0.264958 0.126341 0.626518
0.264779 0.126161 0.753058
0.264600 0.125982 0.879384
0.264421 0.125803 1.000000
0.264050 0.253813 0.000000
0.263880 0.253644 0.114949
0.263699 0.253462 0.243221
0.263518 0.253281 0.370792
0.263338 0.253101 0.497919
0.263158 0.252921 0.624718
0.262978 0.252741 0.751258
0.262799 0.252562 0.877583
0.262620 0.252384 1.000000
0.262259 0.379733 0.000000
0.262090 0.379563 0.113158
0.261908 0.379381 0.241430
0.261727 0.379200 0.369001
0.261547 0.379020 0.496128
0.261367 0.378840 0.622927
0.261187 0.378661 0.749467
0.261008 0.378482 0.875792
0.260830 0.378303 1.000000
0.260474 0.505225 0.000000
0.260305 0.505055 0.111373
0.260123 0.504874 0.239645
0.259942 0.504693 0.367217
0.259762 0.504512 0.494343
0.259582 0.504333 0.621142
0.259403 0.504153 0.747682
0.259223 0.503974 0.874007
0.259045 0.503795 1.000000
0.258694 0.630401 0.000000
0.258524 0.630231 0.109592
0.258342 0.630049 0.237864
0.258162 0.629868 0.365436
0.257981 0.629688 0.492563
0.257802 0.629508 0.619362
0.257622 0.629329 0.745902
0.257443 0.629150 0.872227
0.257264 0.628971 0.998369
0.256917 0.755325 0.000000
0.256747 0.755155 0.107816
0.256566 0.754973 0.236088
0.256385 0.754792 0.363659
0.256205 0.754612 0.490786
0.256025 0.754432 0.617585
0.255845 0.754253 0.744125
0.255666 0.754074 0.870450
0.255487 0.753895 0.996592
0.255143 0.880039 0.000000
0.254974 0.879870 0.106042
0.254792 0.879688 0.234314
0.254611 0.879507 0.361886
0.254431 0.879327 0.489012
0.254251 0.879147 0.615811
0.254072 0.878968 0.742351
0.253892 0.878788 0.868676
0.253714 0.878610 0.994819
0.253372 1.000000 0.000000
0.253202 1.000000 0.104270
0.253021 1.000000 0.232543
0.252840 1.000000 0.360114
0.252659 1.000000 0.487241
0.252480 1.000000 0.614040
0.252300 1.000000 0.740580
0.252121 1.000000 0.866905
0.251942 1.000000 0.993047
0.394814 0.000000 0.000000
0.394644 0.000000 0.118042
0.394462 0.000000 0.246314
0.394281 0.000000 0.373886
0.394101 0.000000 0.501013
0.393921 0.000000 0.627812
0.393742 0.000000 0.754352
0.393563 0.000000 0.880677
0.393384 0.000000 1.000000
0.392988 0.126701 0.000000
0.392818 0.126531 0.116217
0.392636 0.126349 0.244489
0.392456 0.126168 0.372061
0.392275 0.125988 0.499187
0.392096 0.125808 0.625986
0.391916 0.125629 0.752526
0.391737 0.125450 0.878851
0.391558 0.125271 1.000000
0.391188 0.253281 0.000000
0.391018 0.253111 0.114416
0.390836 0.252929 0.242688
0.390655 0.252749 0.370260
0.390475 0.252568 0.497387
0.390295 0.252389 0.624186
0.390116 0.252209 0.750726
0.389937 0.252030 0.877051
0.389758 0.251851 1.000000
0.389397 0.379201 0.000000
0.389227 0.379031 0.112625
0.389045 0.378849 0.240897
0.388864 0.378668 0.368469
0.388684 0.378488 0.495596
0.388504 0.378308 0.622395
0.388325 0.378129 0.748935
0.388146 0.377950 0.875260
0.387967 0.377771 1.000000
0.387612 0.504693 0.000000
0.387442 0.504523 0.110840
0.387260 0.504341 0.239113
0.387079 0.504160 0.366684
0.386899 0.503980 0.493811
0.386719 0.503800 0.620610
0.386540 0.503621 0.747150
0.386361 0.503442 0.873475
0.386182 0.503263 0.999617
0.385831 0.629868 0.000000
0.385662 0.629699 0.109060
0.385480 0.629517 0.237332
0.385299 0.629336 0.364904
0.385119 0.629156 0.492031
0.384939 0.628976 0.618830
0.384760 0.628797 0.745370
0.384581 0.628618 0.871695
0.384402 0.628439 0.997837
0.384055 0.754792 0.000000
0.383885 0.754623 0.107283
0.383703 0.754441 0.235555
0.383522 0.754260 0.363127
0.383342 0.754080 0.490254
0.383162 0.753900 0.617053
0.382983 0.753721 0.743593
0.382804 0.753541 0.869918
0.382625 0.753363 0.996060
0.382281 0.879507 0.000000
0.382111 0.879337 0.105509
0.381929 0.879156 0.233782
0.381748 0.878975 0.361353
0.381568 0.878794 0.488480
0.381388 0.878615 0.615279
0.381209 0.878435 0.741819
0.381030 0.878256 0.868144
0.380851 0.878077 0.994286
0.380510 1.000000 0.000000
0.380340 1.000000 0.103738
0.380158 1.000000 0.232010
0.379977 1.000000 0.359582
0.379797 1.000000 0.486709
0.379617 1.000000 0.613508
0.379438 1.000000 0.740048
0.379259 1.000000 0.866373
0.379080 1.000000 0.992515
0.521531 0.000000 0.000000
0.521362 0.000000 0.117512
0.521180 0.000000 0.245784
0.520999 0.000000 0.373356
0.520819 0.000000 0.500482
0.520639 0.000000 0.627281
0.520460 0.000000 0.753821
0.520281 0.000000 0.880146
0.520102 0.000000 1.000000
0.519706 0.126170 0.000000
0.519536 0.126001 0.115686
0.519354 0.125819 0.243958
0.519173 0.125638 0.371530
0.518993 0.125458 0.498657
0.518813 0.125278 0.625456
0.518634 0.125099 0.751996
0.518455 0.124919 0.878321
0.518276 0.124741 1.000000
0.517905 0.252751 0.000000
0.517736 0.252581 0.113886
0.517554 0.252399 0.242158
0.517373 0.252218 0.369730
0.517193 0.252038 0.496856
0.517013 0.251858 0.623655
0.516834 0.251679 0.750195
0.516655 0.251500 0.876521
0.516476 0.251321 1.000000
0.516115 0.378670 0.000000
0.515945 0.378500 0.112095
0.515763 0.378319 0.240367
0.515582 0.378138 0.367939
0.515402 0.377957 0.495065
0.515222 0.377778 0.621865
0.515043 0.377598 0.748404
0.514864 0.377419 0.874730
0.514685 0.377240 1.000000
0.514330 0.504162 0.000000
0.514160 0.503993 0.110310
0.513978 0.503811 0.238582
0.513797 0.503630 0.366154
0.513617 0.503450 0.493281
0.513437 0.503270 0.620080
0.513258 0.503091 0.746619
0.513079 0.502912 0.872945
0.512900 0.502733 0.999087
0.512549 0.629338 0.000000
0.512380 0.629168 0.108530
0.512198 0.628986 0.236802
0.512017 0.628806 0.364374
0.511837 0.628625 0.491500
0.511657 0.628446 0.618299
0.511477 0.628266 0.744839
0.511298 0.628087 0.871164
0.511120 0.627908 0.997307
0.510772 0.754262 0.000000
0.510603 0.754092 0.106753
0.510421 0.753910 0.235025
0.510240 0.753729 0.362597
0.510060 0.753549 0.489723
0.509880 0.753369 0.616522
0.509701 0.753190 0.743062
0.509522 0.753011 0.869388
0.509343 0.752832 0.995530
0.508999 0.878977 0.000000
0.508829 0.878807 0.104979
0.508647 0.878625 0.233251
0.508466 0.878444 0.360823
0.508286 0.878264 0.487950
0.508106 0.878084 0.614749
0.507927 0.877905 0.741288
0.507748 0.877726 0.867614
0.507569 0.877547 0.993756
0.507227 1.000000 0.000000
0.507058 1.000000 0.103208
0.506876 1.000000 0.231480
0.506695 1.000000 0.359052
0.506515 1.000000 0.486178
0.506335 1.000000 0.612977
0.506156 1.000000 0.739517
0.505977 1.000000 0.865842
0.505798 1.000000 0.991985
0.647936 0.000000 0.000000
0.647766 0.000000 0.116983
0.647584 0.000000 0.245255
0.647403 0.000000 0.372827
0.647223 0.000000 0.499953
0.647043 0.000000 0.626752
0.646864 0.000000 0.753292
0.646685 0.000000 0.879617
0.646506 0.000000 1.000000
0.646110 0.125641 0.000000
0.645941 0.125471 0.115157
0.645759 0.125290 0.243429
0.645578 0.125109 0.371001
0.645398 0.124929 0.498128
0.645218 0.124749 0.624927
0.645038 0.124569 0.751467
0.644859 0.124390 0.877792
0.644681 0.124211 1.000000
0.644310 0.252221 0.000000
0.644140 0.252052 0.113357
0.643958 0.251870 0.241629
0.643777 0.251689 0.369201
0.643597 0.251509 0.496327
0.643417 0.251329 0.623126
0.643238 0.251150 0.749666
0.643059 0.250971 0.875991
0.642880 0.250792 1.000000
0.642519 0.378141 0.000000
0.642349 0.377971 0.111566
0.642167 0.377789 0.239838
0.641987 0.377609 0.367410
0.641806 0.377428 0.494536
0.641627 0.377249 0.621335
0.641447 0.377069 0.747875
0.641268 0.376890 0.874200
0.641089 0.376711 1.000000
0.640734 0.503633 0.000000
0.640564 0.503464 0.109781
0.640382 0.503282 0.238053
0.640202 0.503101 0.365625
0.640021 0.502921 0.492751
0.639842 0.502741 0.619550
0.639662 0.502561 0.746090
0.639483 0.502382 0.872416
0.639304 0.502204 0.998558
0.638954 0.628809 0.000000
0.638784 0.628639 0.108001
0.638602 0.628457 0.236273
0.638421 0.628276 0.363844
0.638241 0.628096 0.490971
0.638061 0.627917 0.617770
0.637882 0.627737 0.744310
0.637703 0.627558 0.870635
0.637524 0.627379 0.996777
0.637177 0.753733 0.000000
0.637007 0.753563 0.106224
0.636825 0.753381 0.234496
0.636644 0.753200 0.362068
0.636464 0.753020 0.489194
0.636284 0.752840 0.615993
0.636105 0.752661 0.742533
0.635926 0.752482 0.868858
0.635747 0.752303 0.995001
0.635403 0.878448 0.000000
0.635233 0.878278 0.104450
0.635052 0.878096 0.232722
0.634871 0.877915 0.360294
0.634690 0.877735 0.487420
0.634511 0.877555 0.614220
0.634331 0.877376 0.740759
0.634152 0.877197 0.867085
0.633973 0.877018 0.993227
0.633632 1.000000 0.000000
0.633462 1.000000 0.102679
0.633280 1.000000 0.230951
0.633099 1.000000 0.358523
0.632919 1.000000 0.485649
0.632739 1.000000 0.612448
0.632560 1.000000 0.738988
0.632381 1.000000 0.865313
0.632202 1.000000 0.991455
0.774090 0.000000 0.000000
0.773920 0.000000 0.116455
0.773738 0.000000 0.244727
0.773558 0.000000 0.372298
0.773377 0.000000 0.499425
0.773198 0.000000 0.626224
0.773018 0.000000 0.752764
0.772839 0.000000 0.879089
0.772660 0.000000 1.000000
0.772264 0.125113 0.000000
0.772095 0.124943 0.114629
0.771913 0.124762 0.242901
0.771732 0.124581 0.370473
0.771552 0.124400 0.497599
0.771372 0.124221 0.624399
0.771193 0.124041 0.750938
0.771014 0.123862 0.877264
0.770835 0.123683 1.000000
0.770464 0.251693 0.000000
0.770294 0.251524 0.112829
0.770112 0.251342 0.241101
0.769932 0.251161 0.368673
0.769751 0.250981 0.495799
0.769572 0.250801 0.622598
0.769392 0.250622 0.749138
0.769213 0.250442 0.875463
0.769034 0.250264 1.000000
0.768673 0.377613 0.000000
0.768503 0.377443 0.111038
0.768322 0.377261 0.239310
0.768141 0.377080 0.366882
0.767960 0.376900 0.494008
0.767781 0.376720 0.620807
0.767601 0.376541 0.747347
0.767422 0.376362 0.873672
0.767243 0.376183 0.999815
0.766888 0.503105 0.000000
0.766719 0.502935 0.109253
0.766537 0.502754 0.237525
0.766356 0.502573 0.365097
0.766176 0.502393 0.492223
0.765996 0.502213 0.619022
0.765816 0.502033 0.745562
0.765637 0.501854 0.871887
0.765459 0.501675 0.998030
0.765108 0.628281 0.000000
0.764938 0.628111 0.107472
0.764756 0.627929 0.235745
0.764575 0.627748 0.363316
0.764395 0.627568 0.490443
0.764215 0.627388 0.617242
0.764036 0.627209 0.743782
0.763857 0.627030 0.870107
0.763678 0.626851 0.996249
0.763331 0.753205 0.000000
0.763161 0.753035 0.105696
0.762980 0.752853 0.233968
0.762799 0.752672 0.361540
0.762618 0.752492 0.488666
0.762439 0.752312 0.615465
0.762259 0.752133 0.742005
0.762080 0.751954 0.868330
0.761901 0.751775 0.994472
0.761557 0.877919 0.000000
0.761388 0.877750 0.103922
0.761206 0.877568 0.232194
0.761025 0.877387 0.359766
0.760845 0.877207 0.486892
0.760665 0.877027 0.613691
0.760485 0.876848 0.740231
0.760306 0.876669 0.866556
0.760128 0.876490 0.992699
0.759786 1.000000 0.000000
0.759616 1.000000 0.102151
0.759434 1.000000 0.230423
0.759254 1.000000 0.357994
0.759073 1.000000 0.485121
0.758894 1.000000 0.611920
0.758714 1.000000 0.738460
0.758535 1.000000 0.864785
0.758356 1.000000 0.990927
0.900036 0.000000 0.000000
0.899866 0.000000 0.115927
0.899684 0.000000 0.244199
0.899503 0.000000 0.371771
0.899323 0.000000 0.498898
0.899143 0.000000 0.625697
0.898964 0.000000 0.752237
0.898785 0.000000 0.878562
0.898606 0.000000 1.000000
0.898210 0.124586 0.000000
0.898041 0.124416 0.114102
0.897859 0.124234 0.242374
0.897678 0.124053 0.369946
0.897498 0.123873 0.497072
0.897318 0.123693 0.623871
0.897139 0.123514 0.750411
0.896959 0.123335 0.876736
0.896781 0.123156 1.000000
0.896410 0.251166 0.000000
0.896240 0.250996 0.112301
0.896058 0.250815 0.240574
0.895878 0.250634 0.368145
0.895697 0.250454 0.495272
0.895518 0.250274 0.622071
0.895338 0.250094 0.748611
0.895159 0.249915 0.874936
0.894980 0.249736 1.000000
0.894619 0.377086 0.000000
0.894449 0.376916 0.110510
0.894267 0.376734 0.238783
0.894087 0.376553 0.366354
0.893906 0.376373 0.493481
0.893727 0.376193 0.620280
0.893547 0.376014 0.746820
0.893368 0.375835 0.873145
0.893189 0.375656 0.999287
0.892834 0.502578 0.000000
0.892664 0.502408 0.108726
0.892483 0.502226 0.236998
0.892302 0.502046 0.364569
0.892121 0.501865 0.491696
0.891942 0.501686 0.618495
0.891762 0.501506 0.745035
0.891583 0.501327 0.871360
0.891404 0.501148 0.997502
0.891054 0.627754 0.000000
0.890884 0.627584 0.106945
0.890702 0.627402 0.235217
0.890521 0.627221 0.362789
0.890341 0.627041 0.489916
0.890161 0.626861 0.616715
0.889982 0.626682 0.743255
0.889803 0.626503 0.869580
0.889624 0.626324 0.995722
0.889277 0.752677 0.000000
0.889107 0.752508 0.105168
0.888925 0.752326 0.233441
0.888745 0.752145 0.361012
0.888564 0.751965 0.488139
0.888385 0.751785 0.614938
0.888205 0.751606 0.741478
0.888026 0.751427 0.867803
0.887847 0.751248 0.993945
0.887503 0.877392 0.000000
0.887333 0.877223 0.103395
0.887152 0.877041 0.231667
0.886971 0.876860 0.359238
0.886791 0.876680 0.486365
0.886611 0.876500 0.613164
0.886431 0.876320 0.739704
0.886252 0.876141 0.866029
0.886073 0.875963 0.992171
0.885732 1.000000 0.000000
0.885562 1.000000 0.101623
0.885380 1.000000 0.229895
0.885199 1.000000 0.357467
0.885019 1.000000 0.484594
0.884839 1.000000 0.611393
0.884660 1.000000 0.737933
0.884481 1.000000 0.864258
0.884302 1.000000 0.990400
1.000000 0.000000 0.000000
1.000000 0.000000 0.115443
1.000000 0.000000 0.243715
1.000000 0.000000 0.371287
1.000000 0.000000 0.498413
1.000000 0.000000 0.625213
1.000000 0.000000 0.751752
1.000000 0.000000 0.878078
1.000000 0.000000 1.000000
1.000000 0.124101 0.000000
1.000000 0.123932 0.113617
1.000000 0.123750 0.241890
1.000000 0.123569 0.369461
1.000000 0.123389 0.496588
1.000000 0.123209 0.623387
1.000000 0.123030 0.749927
1.000000 0.122851 0.876252
1.000000 0.122672 1.000000
1.000000 0.250682 0.000000
1.000000 0.250512 0.111817
1.000000 0.250330 0.240089
1.000000 0.250149 0.367661
1.000000 0.249969 0.494788
1.000000 0.249789 0.621587
1.000000 0.249610 0.748126
1.000000 0.249431 0.874452
1.000000 0.249252 1.000000
1.000000 0.376601 0.000000
1.000000 0.376432 0.110026
1.000000 0.376250 0.238298
1.000000 0.376069 0.365870
1.000000 0.375889 0.492997
1.000000 0.375709 0.619796
1.000000 0.375529 0.746336
1.000000 0.375350 0.872661
1.000000 0.375172 0.998803
1.000000 0.502094 0.000000
1.000000 0.501924 0.108241
1.000000 0.501742 0.236513
1.000000 0.501561 0.364085
1.000000 0.501381 0.491212
1.000000 0.501201 0.618011
1.000000 0.501022 0.744551
1.000000 0.500843 0.870876
1.000000 0.500664 0.997018
1.000000 0.627269 0.000000
1.000000 0.627100 0.106461
1.000000 0.626918 0.234733
1.000000 0.626737 0.362305
1.000000 0.626557 0.489431
1.000000 0.626377 0.616230
1.000000 0.626197 0.742770
1.000000 0.626018 0.869096
1.000000 0.625840 0.995238
1.000000 0.752193 0.000000
1.000000 0.752023 0.104684
1.000000 0.751841 0.232956
1.000000 0.751661 0.360528
1.000000 0.751480 0.487655
1.000000 0.751301 0.614454
1.000000 0.751121 0.740993
1.000000 0.750942 0.867319
1.000000 0.750763 0.993461
1.000000 0.876908 0.000000
1.000000 0.876738 0.102910
1.000000 0.876556 0.231182
1.000000 0.876375 0.358754
1.000000 0.876195 0.485881
1.000000 0.876015 0.612680
1.000000 0.875836 0.739220
1.000000 0.875657 0.865545
1.000000 0.875478 0.991687
1.000000 1.000000 0.000000
1.000000 1.000000 0.101139
1.000000 1.000000 0.229411
1.000000 1.000000 0.356983
1.000000 1.000000 0.484109
1.000000 1.000000 0.610909
1.000000 1.000000 0.737448
1.000000 1.000000 0.863774
1.000000 1.000000 0.989916
