skills/editops-orchestrator/assets/grade/luts/ad_warm_v12.cube
TITLE "ad_warm_v12"
LUT_3D_SIZE 5
DOMAIN_MIN 0.0 0.0 0.0
DOMAIN_MAX 1.0 1.0 1.0
0.033080 0.000000 0.000000
0.031812 0.000000 0.241242
0.030371 0.000000 0.516100
0.028951 0.000000 0.786685
0.027546 0.000000 1.000000
0.018607 0.265050 0.000000
0.017338 0.263782 0.226768
0.015897 0.262341 0.501627
0.014478 0.260921 0.772211
0.013072 0.259516 1.000000
0.004365 0.526365 0.000000
0.003097 0.525097 0.212526
0.001655 0.523656 0.487385
0.000236 0.522236 0.757969
0.000000 0.520831 1.000000
0.000000 0.783917 0.000000
0.000000 0.782649 0.198489
0.000000 0.781207 0.473348
0.000000 0.779788 0.743932
0.000000 0.778383 1.000000
0.000000 1.000000 0.000000
0.000000 1.000000 0.185531
0.000000 1.000000 0.460390
0.000000 1.000000 0.730974
0.000000 1.000000 0.998912
0.312048 0.000000 0.000000
0.310780 0.000000 0.236889
0.309338 0.000000 0.511747
0.307919 0.000000 0.782332
0.306514 0.000000 1.000000
0.297574 0.260697 0.000000
0.296306 0.259429 0.222415
0.294865 0.257988 0.497274
0.293445 0.256569 0.767858
0.292040 0.255163 1.000000
0.283332 0.522012 0.000000
0.282064 0.520744 0.208173
0.280623 0.519303 0.483032
0.279203 0.517884 0.753616
0.277798 0.516478 1.000000
0.269295 0.779564 0.000000
0.268027 0.778296 0.194136
0.266586 0.776854 0.468995
0.265167 0.775435 0.739579
0.263761 0.774030 1.000000
0.256338 1.000000 0.000000
0.255070 1.000000 0.181178
0.253628 1.000000 0.456037
0.252209 1.000000 0.726622
0.250803 1.000000 0.994559
0.582709 0.000000 0.000000
0.581441 0.000000 0.232665
0.580000 0.000000 0.507524
0.578581 0.000000 0.778109
0.577175 0.000000 1.000000
0.568236 0.256474 0.000000
0.566968 0.255206 0.218192
0.565526 0.253765 0.493050
0.564107 0.252345 0.763635
0.562702 0.250940 1.000000
0.553994 0.517789 0.000000
0.552726 0.516521 0.203950
0.551284 0.515080 0.478808
0.549865 0.513660 0.749393
0.548460 0.512255 1.000000
0.539957 0.775341 0.000000
0.538689 0.774073 0.189913
0.537247 0.772631 0.464772
0.535828 0.771212 0.735356
0.534423 0.769807 1.000000
0.526999 1.000000 0.000000
0.525731 1.000000 0.176955
0.524289 1.000000 0.451814
0.522870 1.000000 0.722398
0.521465 1.000000 0.990336
0.849739 0.000000 0.000000
0.848471 0.000000 0.228499
0.847029 0.000000 0.503358
0.845610 0.000000 0.773942
0.844205 0.000000 1.000000
0.835265 0.252308 0.000000
0.833997 0.251040 0.214025
0.832555 0.249598 0.488884
0.831136 0.248179 0.759468
0.829731 0.246773 1.000000
0.821023 0.513623 0.000000
0.819755 0.512355 0.199783
0.818313 0.510913 0.474642
0.816894 0.509494 0.745226
0.815489 0.508088 1.000000
0.806986 0.771174 0.000000
0.805718 0.769906 0.185746
0.804277 0.768465 0.460605
0.802857 0.767045 0.731190
0.801452 0.765640 0.999127
0.794028 1.000000 0.000000
0.792760 1.000000 0.172789
0.791319 1.000000 0.447647
0.789900 1.000000 0.718232
0.788494 1.000000 0.986170
1.000000 0.000000 0.000000
1.000000 0.000000 0.225197
1.000000 0.000000 0.500056
1.000000 0.000000 0.770641
1.000000 0.000000 1.000000
1.000000 0.249006 0.000000
1.000000 0.247738 0.210724
1.000000 0.246296 0.485582
1.000000 0.244877 0.756167
1.000000 0.243472 1.000000
1.000000 0.510321 0.000000
1.000000 0.509053 0.196482
1.000000 0.507611 0.471340
1.000000 0.506192 0.741925
1.000000 0.504787 1.000000
1.000000 0.767873 0.000000
1.000000 0.766605 0.182445
1.000000 0.765163 0.457303
1.000000 0.763744 0.727888
1.000000 0.762338 0.995826
1.000000 1.000000 0.000000
1.000000 1.000000 0.169487
1.000000 1.000000 0.444346
1.000000 1.000000 0.714930
1.000000 1.000000 0.982868
