skills/editops-orchestrator/assets/grade/luts/ad_warm_v20.cube
TITLE "ad_warm_v20"
LUT_3D_SIZE 17
DOMAIN_MIN 0.0 0.0 0.0
DOMAIN_MAX 1.0 1.0 1.0
0.052660 0.000000 0.000000
0.052623 0.000000 0.003516
0.052000 0.000000 0.083398
0.051407 0.000000 0.159465
0.050826 0.000000 0.233999
0.050253 0.000000 0.307544
0.049685 0.000000 0.380358
0.049122 0.000000 0.452595
0.048563 0.000000 0.524354
0.048006 0.000000 0.595706
0.047453 0.000000 0.666703
0.046902 0.000000 0.737386
0.046353 0.000000 0.807788
0.045806 0.000000 0.877936
0.045261 0.000000 0.947851
0.044718 0.000000 1.000000
0.044176 0.000000 1.000000
0.047322 0.063095 0.000000
0.047285 0.063058 0.000000
0.046662 0.062435 0.078060
0.046069 0.061842 0.154127
0.045488 0.061261 0.228661
0.044915 0.060688 0.302206
0.044347 0.060120 0.375020
0.043784 0.059557 0.447257
0.043225 0.058998 0.519016
0.042668 0.058441 0.590368
0.042115 0.057888 0.661365
0.041564 0.057337 0.732048
0.041015 0.056788 0.802450
0.040468 0.056241 0.872598
0.039923 0.055696 0.942513
0.039380 0.055153 1.000000
0.038838 0.054611 1.000000
0.041414 0.134290 0.000000
0.041377 0.134253 0.000000
0.040754 0.133630 0.072151
0.040161 0.133037 0.148218
0.039580 0.132456 0.222752
0.039007 0.131883 0.296297
0.038439 0.131315 0.369112
0.037876 0.130752 0.441349
0.037316 0.130193 0.513108
0.036760 0.129636 0.584459
0.036207 0.129083 0.655456
0.035656 0.128532 0.726140
0.035107 0.127983 0.796542
0.034560 0.127436 0.866690
0.034015 0.126891 0.936604
0.033471 0.126348 1.000000
0.032930 0.125806 1.000000
0.035639 0.203879 0.000000
0.035602 0.203842 0.000000
0.034979 0.203219 0.066376
0.034386 0.202626 0.142443
0.033805 0.202045 0.216977
0.033232 0.201472 0.290522
0.032664 0.200904 0.363337
0.032101 0.200341 0.435574
0.031541 0.199782 0.507333
0.030985 0.199225 0.578684
0.030432 0.198672 0.649681
0.029881 0.198121 0.720365
0.029332 0.197572 0.790767
0.028785 0.197025 0.860915
0.028240 0.196480 0.930829
0.027696 0.195937 1.000000
0.027155 0.195395 1.000000
0.029946 0.272478 0.000000
0.029909 0.272441 0.000000
0.029286 0.271818 0.060683
0.028693 0.271225 0.136751
0.028112 0.270644 0.211284
0.027539 0.270071 0.284829
0.026971 0.269503 0.357644
0.026408 0.268940 0.429881
0.025849 0.268380 0.501640
0.025292 0.267824 0.572992
0.024739 0.267271 0.643989
0.024188 0.266720 0.714672
0.023639 0.266171 0.785074
0.023092 0.265624 0.855222
0.022547 0.265079 0.925137
0.022004 0.264536 0.994837
0.021462 0.263994 1.000000
0.024313 0.340360 0.000000
0.024276 0.340323 0.000000
0.023653 0.339700 0.055050
0.023060 0.339107 0.131117
0.022479 0.338526 0.205651
0.021905 0.337953 0.279196
0.021338 0.337385 0.352011
0.020775 0.336822 0.424248
0.020215 0.336262 0.496007
0.019659 0.335706 0.567358
0.019105 0.335153 0.638355
0.018554 0.334602 0.709039
0.018005 0.334053 0.779441
0.017459 0.333506 0.849588
0.016914 0.332961 0.919503
0.016370 0.332417 0.989204
0.015828 0.331876 1.000000
0.018726 0.407680 0.000000
0.018689 0.407643 0.000000
0.018066 0.407021 0.049463
0.017473 0.406428 0.125530
0.016892 0.405846 0.200064
0.016319 0.405273 0.273609
0.015751 0.404705 0.346424
0.015188 0.404142 0.418661
0.014628 0.403583 0.490420
0.014072 0.403027 0.561771
0.013519 0.402473 0.632768
0.012968 0.401922 0.703452
0.012419 0.401373 0.773854
0.011872 0.400826 0.844002
0.011327 0.400281 0.913916
0.010783 0.399738 0.983617
0.010242 0.399196 1.000000
0.013177 0.474540 0.000000
0.013140 0.474503 0.000000
0.012518 0.473880 0.043915
0.011925 0.473287 0.119982
0.011343 0.472706 0.194516
0.010770 0.472133 0.268061
0.010202 0.471565 0.340876
0.009639 0.471002 0.413112
0.009080 0.470442 0.484871
0.008524 0.469886 0.556223
0.007970 0.469333 0.627220
0.007419 0.468782 0.697903
0.006870 0.468233 0.768306
0.006323 0.467686 0.838453
0.005778 0.467141 0.908368
0.005235 0.466597 0.978069
0.004693 0.466056 1.000000
0.007661 0.541009 0.000000
0.007624 0.540972 0.000000
0.007001 0.540349 0.038399
0.006408 0.539756 0.114466
0.005827 0.539175 0.189000
0.005254 0.538602 0.262545
0.004686 0.538034 0.335359
0.004123 0.537471 0.407596
0.003564 0.536912 0.479355
0.003007 0.536355 0.550707
0.002454 0.535802 0.621704
0.001903 0.535251 0.692387
0.001354 0.534702 0.762789
0.000807 0.534155 0.832937
0.000262 0.533610 0.902852
0.000000 0.533067 0.972552
0.000000 0.532525 1.000000
0.002173 0.607139 0.000000
0.002136 0.607102 0.000000
0.001513 0.606480 0.032911
0.000920 0.605887 0.108978
0.000339 0.605306 0.183512
0.000000 0.604732 0.257057
0.000000 0.604164 0.329871
0.000000 0.603601 0.402108
0.000000 0.603042 0.473867
0.000000 0.602486 0.545219
0.000000 0.601932 0.616216
0.000000 0.601381 0.686899
0.000000 0.600832 0.757301
0.000000 0.600285 0.827449
0.000000 0.599740 0.897364
0.000000 0.599197 0.967064
0.000000 0.598655 1.000000
0.000000 0.672971 0.000000
0.000000 0.672934 0.000000
0.000000 0.672311 0.027447
0.000000 0.671718 0.103515
0.000000 0.671137 0.178048
0.000000 0.670564 0.251593
0.000000 0.669996 0.324408
0.000000 0.669433 0.396645
0.000000 0.668873 0.468404
0.000000 0.668317 0.539755
0.000000 0.667764 0.610753
0.000000 0.667213 0.681436
0.000000 0.666664 0.751838
0.000000 0.666117 0.821986
0.000000 0.665572 0.891901
0.000000 0.665029 0.961601
0.000000 0.664487 1.000000
0.000000 0.738535 0.000000
0.000000 0.738498 0.000000
0.000000 0.737876 0.022006
0.000000 0.737283 0.098073
0.000000 0.736701 0.172607
0.000000 0.736128 0.246152
0.000000 0.735560 0.318967
0.000000 0.734997 0.391204
0.000000 0.734438 0.462963
0.000000 0.733882 0.534314
0.000000 0.733328 0.605312
0.000000 0.732777 0.675995
0.000000 0.732228 0.746397
0.000000 0.731681 0.816545
0.000000 0.731136 0.886459
0.000000 0.730593 0.956160
0.000000 0.730051 1.000000
0.000000 0.803858 0.000000
0.000000 0.803821 0.000000
0.000000 0.803198 0.016585
0.000000 0.802605 0.092652
0.000000 0.802024 0.167186
0.000000 0.801451 0.240731
0.000000 0.800883 0.313546
0.000000 0.800320 0.385783
0.000000 0.799761 0.457542
0.000000 0.799204 0.528893
0.000000 0.798651 0.599891
0.000000 0.798100 0.670574
0.000000 0.797551 0.740976
0.000000 0.797004 0.811124
0.000000 0.796459 0.881038
0.000000 0.795916 0.950739
0.000000 0.795374 1.000000
0.000000 0.868961 0.000000
0.000000 0.868924 0.000000
0.000000 0.868301 0.011183
0.000000 0.867708 0.087250
0.000000 0.867127 0.161784
0.000000 0.866553 0.235329
0.000000 0.865986 0.308143
0.000000 0.865423 0.380380
0.000000 0.864863 0.452139
0.000000 0.864307 0.523491
0.000000 0.863753 0.594488
0.000000 0.863202 0.665171
0.000000 0.862654 0.735573
0.000000 0.862107 0.805721
0.000000 0.861562 0.875636
0.000000 0.861018 0.945336
0.000000 0.860476 1.000000
0.000000 0.933861 0.000000
0.000000 0.933824 0.000000
0.000000 0.933201 0.005797
0.000000 0.932608 0.081864
0.000000 0.932027 0.156398
0.000000 0.931453 0.229943
0.000000 0.930886 0.302758
0.000000 0.930323 0.374994
0.000000 0.929763 0.446753
0.000000 0.929207 0.518105
0.000000 0.928653 0.589102
0.000000 0.928102 0.659785
0.000000 0.927553 0.730187
0.000000 0.927007 0.800335
0.000000 0.926462 0.870250
0.000000 0.925918 0.939951
0.000000 0.925376 1.000000
0.000000 0.998573 0.000000
0.000000 0.998536 0.000000
0.000000 0.997914 0.000426
0.000000 0.997321 0.076494
0.000000 0.996739 0.151027
0.000000 0.996166 0.224572
0.000000 0.995598 0.297387
0.000000 0.995035 0.369624
0.000000 0.994476 0.441383
0.000000 0.993920 0.512734
0.000000 0.993366 0.583732
0.000000 0.992815 0.654415
0.000000 0.992266 0.724817
0.000000 0.991719 0.794965
0.000000 0.991174 0.864879
0.000000 0.990631 0.934580
0.000000 0.990089 1.000000
0.000000 1.000000 0.000000
0.000000 1.000000 0.000000
0.000000 1.000000 0.000000
0.000000 1.000000 0.073641
0.000000 1.000000 0.148175
0.000000 1.000000 0.221720
0.000000 1.000000 0.294534
0.000000 1.000000 0.366771
0.000000 1.000000 0.438530
0.000000 1.000000 0.509882
0.000000 1.000000 0.580879
0.000000 1.000000 0.651562
0.000000 1.000000 0.721964
0.000000 1.000000 0.792112
0.000000 1.000000 0.862027
0.000000 1.000000 0.931727
0.000000 1.000000 1.000000
0.128521 0.000000 0.000000
0.128484 0.000000 0.001747
0.127862 0.000000 0.081629
0.127269 0.000000 0.157696
0.126687 0.000000 0.232230
0.126114 0.000000 0.305775
0.125546 0.000000 0.378590
0.124983 0.000000 0.450827
0.124424 0.000000 0.522586
0.123868 0.000000 0.593937
0.123314 0.000000 0.664935
0.122763 0.000000 0.735618
0.122214 0.000000 0.806020
0.121667 0.000000 0.876168
0.121122 0.000000 0.946082
0.120579 0.000000 1.000000
0.120037 0.000000 1.000000
0.123183 0.061327 0.000000
0.123146 0.061290 0.000000
0.122524 0.060667 0.076291
0.121931 0.060074 0.152359
0.121349 0.059493 0.226892
0.120776 0.058920 0.300437
0.120208 0.058352 0.373252
0.119645 0.057789 0.445489
0.119086 0.057229 0.517248
0.118530 0.056673 0.588599
0.117976 0.056120 0.659597
0.117425 0.055569 0.730280
0.116876 0.055020 0.800682
0.116329 0.054473 0.870830
0.115784 0.053928 0.940744
0.115241 0.053384 1.000000
0.114699 0.052843 1.000000
0.117275 0.132522 0.000000
0.117238 0.132485 0.000000
0.116615 0.131862 0.070383
0.116022 0.131269 0.146450
0.115441 0.130688 0.220984
0.114868 0.130115 0.294529
0.114300 0.129547 0.367344
0.113737 0.128984 0.439581
0.113178 0.128424 0.511340
0.112621 0.127868 0.582691
0.112068 0.127315 0.653688
0.111517 0.126764 0.724372
0.110968 0.126215 0.794774
0.110421 0.125668 0.864921
0.109876 0.125123 0.934836
0.109333 0.124579 1.000000
0.108791 0.124038 1.000000
0.111500 0.202111 0.000000
0.111463 0.202074 0.000000
0.110840 0.201451 0.064608
0.110247 0.200858 0.140675
0.109666 0.200277 0.215209
0.109093 0.199704 0.288754
0.108525 0.199136 0.361569
0.107962 0.198573 0.433806
0.107403 0.198013 0.505565
0.106846 0.197457 0.576916
0.106293 0.196904 0.647913
0.105742 0.196353 0.718597
0.105193 0.195804 0.788999
0.104646 0.195257 0.859146
0.104101 0.194712 0.929061
0.103558 0.194168 0.998762
0.103016 0.193627 1.000000
0.105807 0.270710 0.000000
0.105770 0.270673 0.000000
0.105147 0.270050 0.058915
0.104554 0.269457 0.134982
0.103973 0.268876 0.209516
0.103400 0.268302 0.283061
0.102832 0.267735 0.355876
0.102269 0.267172 0.428113
0.101710 0.266612 0.499872
0.101153 0.266056 0.571223
0.100600 0.265502 0.642220
0.100049 0.264951 0.712904
0.099500 0.264403 0.783306
0.098953 0.263856 0.853453
0.098408 0.263311 0.923368
0.097865 0.262767 0.993069
0.097323 0.262225 1.000000
0.100174 0.338591 0.000000
0.100137 0.338555 0.000000
0.099514 0.337932 0.053282
0.098921 0.337339 0.129349
0.098340 0.336758 0.203883
0.097767 0.336184 0.277428
0.097199 0.335617 0.350243
0.096636 0.335053 0.422480
0.096076 0.334494 0.494238
0.095520 0.333938 0.565590
0.094967 0.333384 0.636587
0.094415 0.332833 0.707270
0.093867 0.332284 0.777673
0.093320 0.331738 0.847820
0.092775 0.331192 0.917735
0.092231 0.330649 0.987436
0.091689 0.330107 1.000000
0.094587 0.405912 0.000000
0.094550 0.405875 0.000000
0.093927 0.405252 0.047695
0.093334 0.404659 0.123762
0.092753 0.404078 0.198296
0.092180 0.403505 0.271841
0.091612 0.402937 0.344656
0.091049 0.402374 0.416893
0.090489 0.401815 0.488652
0.089933 0.401258 0.560003
0.089380 0.400705 0.631000
0.088829 0.400154 0.701684
0.088280 0.399605 0.772086
0.087733 0.399058 0.842233
0.087188 0.398513 0.912148
0.086645 0.397970 0.981849
0.086103 0.397428 1.000000
0.089038 0.472772 0.000000
0.089001 0.472735 0.000000
0.088379 0.472112 0.042146
0.087786 0.471519 0.118214
0.087205 0.470938 0.192747
0.086631 0.470364 0.266292
0.086064 0.469797 0.339107
0.085500 0.469234 0.411344
0.084941 0.468674 0.483103
0.084385 0.468118 0.554455
0.083831 0.467564 0.625452
0.083280 0.467013 0.696135
0.082731 0.466464 0.766537
0.082184 0.465918 0.836685
0.081639 0.465373 0.906600
0.081096 0.464829 0.976300
0.080554 0.464287 1.000000
0.083522 0.539241 0.000000
0.083485 0.539204 0.000000
0.082863 0.538581 0.036630
0.082270 0.537988 0.112697
0.081688 0.537407 0.187231
0.081115 0.536833 0.260776
0.080547 0.536266 0.333591
0.079984 0.535703 0.405828
0.079425 0.535143 0.477587
0.078869 0.534587 0.548938
0.078315 0.534033 0.619936
0.077764 0.533482 0.690619
0.077215 0.532934 0.761021
0.076668 0.532387 0.831169
0.076123 0.531842 0.901083
0.075580 0.531298 0.970784
0.075038 0.530756 1.000000
0.078034 0.605371 0.000000
0.077997 0.605334 0.000000
0.077375 0.604711 0.031142
0.076782 0.604118 0.107209
0.076200 0.603537 0.181743
0.075627 0.602964 0.255288
0.075059 0.602396 0.328103
0.074496 0.601833 0.400340
0.073937 0.601274 0.472099
0.073381 0.600717 0.543450
0.072827 0.600164 0.614447
0.072276 0.599613 0.685131
0.071727 0.599064 0.755533
0.071180 0.598517 0.825681
0.070635 0.597972 0.895595
0.070092 0.597429 0.965296
0.069550 0.596887 1.000000
0.072571 0.671203 0.000000
0.072534 0.671166 0.000000
0.071911 0.670543 0.025679
0.071318 0.669950 0.101746
0.070737 0.669369 0.176280
0.070164 0.668795 0.249825
0.069596 0.668228 0.322640
0.069033 0.667665 0.394877
0.068474 0.667105 0.466636
0.067917 0.666549 0.537987
0.067364 0.665995 0.608984
0.066813 0.665444 0.679668
0.066264 0.664896 0.750070
0.065717 0.664349 0.820217
0.065172 0.663804 0.890132
0.064629 0.663260 0.959833
0.064087 0.662718 1.000000
0.067130 0.736767 0.000000
0.067093 0.736730 0.000000
0.066470 0.736107 0.020238
0.065877 0.735514 0.096305
0.065296 0.734933 0.170839
0.064723 0.734360 0.244384
0.064155 0.733792 0.317199
0.063592 0.733229 0.389436
0.063033 0.732670 0.461195
0.062476 0.732113 0.532546
0.061923 0.731560 0.603543
0.061372 0.731009 0.674227
0.060823 0.730460 0.744629
0.060276 0.729913 0.814776
0.059731 0.729368 0.884691
0.059188 0.728825 0.954392
0.058646 0.728283 1.000000
0.061709 0.802090 0.000000
0.061672 0.802053 0.000000
0.061049 0.801430 0.014817
0.060456 0.800837 0.090884
0.059875 0.800256 0.165418
0.059302 0.799683 0.238963
0.058734 0.799115 0.311778
0.058171 0.798552 0.384015
0.057612 0.797992 0.455774
0.057055 0.797436 0.527125
0.056502 0.796883 0.598122
0.055951 0.796332 0.668806
0.055402 0.795783 0.739208
0.054855 0.795236 0.809355
0.054310 0.794691 0.879270
0.053767 0.794147 0.948971
0.053225 0.793606 1.000000
0.056306 0.867192 0.000000
0.056269 0.867155 0.000000
0.055647 0.866533 0.009414
0.055054 0.865940 0.085481
0.054472 0.865359 0.160015
0.053899 0.864785 0.233560
0.053331 0.864217 0.306375
0.052768 0.863654 0.378612
0.052209 0.863095 0.450371
0.051653 0.862539 0.521722
0.051099 0.861985 0.592720
0.050548 0.861434 0.663403
0.049999 0.860885 0.733805
0.049452 0.860338 0.803953
0.048907 0.859793 0.873867
0.048364 0.859250 0.943568
0.047822 0.858708 1.000000
0.050920 0.932092 0.000000
0.050883 0.932055 0.000000
0.050261 0.931433 0.004028
0.049668 0.930840 0.080096
0.049087 0.930258 0.154629
0.048513 0.929685 0.228174
0.047946 0.929117 0.300989
0.047382 0.928554 0.373226
0.046823 0.927995 0.444985
0.046267 0.927439 0.516337
0.045713 0.926885 0.587334
0.045162 0.926334 0.658017
0.044613 0.925785 0.728419
0.044066 0.925238 0.798567
0.043521 0.924693 0.868482
0.042978 0.924150 0.938182
0.042436 0.923608 1.000000
0.045550 0.996805 0.000000
0.045513 0.996768 0.000000
0.044890 0.996145 0.000000
0.044297 0.995552 0.074725
0.043716 0.994971 0.149259
0.043143 0.994398 0.222804
0.042575 0.993830 0.295619
0.042012 0.993267 0.367856
0.041453 0.992708 0.439615
0.040896 0.992151 0.510966
0.040343 0.991598 0.581963
0.039792 0.991047 0.652647
0.039243 0.990498 0.723049
0.038696 0.989951 0.793196
0.038151 0.989406 0.863111
0.037608 0.988863 0.932812
0.037066 0.988321 1.000000
0.042697 1.000000 0.000000
0.042660 1.000000 0.000000
0.042038 1.000000 0.000000
0.041445 1.000000 0.071872
0.040863 1.000000 0.146406
0.040290 1.000000 0.219951
0.039722 1.000000 0.292766
0.039159 1.000000 0.365003
0.038600 1.000000 0.436762
0.038044 1.000000 0.508113
0.037490 1.000000 0.579111
0.036939 1.000000 0.649794
0.036390 1.000000 0.720196
0.035843 1.000000 0.790344
0.035298 1.000000 0.860258
0.034755 1.000000 0.929959
0.034213 1.000000 0.999462
0.202436 0.000000 0.000000
0.202399 0.000000 0.000024
0.201776 0.000000 0.079906
0.201183 0.000000 0.155974
0.200602 0.000000 0.230507
0.200028 0.000000 0.304052
0.199461 0.000000 0.376867
0.198898 0.000000 0.449104
0.198338 0.000000 0.520863
0.197782 0.000000 0.592215
0.197228 0.000000 0.663212
0.196677 0.000000 0.733895
0.196128 0.000000 0.804297
0.195582 0.000000 0.874445
0.195037 0.000000 0.944360
0.194493 0.000000 1.000000
0.193951 0.000000 1.000000
0.197098 0.059604 0.000000
0.197061 0.059567 0.000000
0.196438 0.058944 0.074568
0.195845 0.058351 0.150636
0.195264 0.057770 0.225169
0.194690 0.057197 0.298714
0.194123 0.056629 0.371529
0.193560 0.056066 0.443766
0.193000 0.055507 0.515525
0.192444 0.054950 0.586877
0.191890 0.054397 0.657874
0.191339 0.053846 0.728557
0.190790 0.053297 0.798959
0.190244 0.052750 0.869107
0.189699 0.052205 0.939022
0.189155 0.051662 1.000000
0.188613 0.051120 1.000000
0.191189 0.130799 0.000000
0.191152 0.130762 0.000000
0.190529 0.130139 0.068660
0.189936 0.129546 0.144727
0.189355 0.128965 0.219261
0.188782 0.128392 0.292806
0.188214 0.127824 0.365621
0.187651 0.127261 0.437858
0.187092 0.126702 0.509617
0.186536 0.126145 0.580968
0.185982 0.125592 0.651965
0.185431 0.125041 0.722649
0.184882 0.124492 0.793051
0.184335 0.123945 0.863198
0.183790 0.123400 0.933113
0.183247 0.122857 1.000000
0.182705 0.122315 1.000000
0.185414 0.200388 0.000000
0.185377 0.200351 0.000000
0.184754 0.199728 0.062885
0.184161 0.199135 0.138952
0.183580 0.198554 0.213486
0.183007 0.197981 0.287031
0.182439 0.197413 0.359846
0.181876 0.196850 0.432083
0.181317 0.196291 0.503842
0.180760 0.195734 0.575193
0.180207 0.195181 0.646190
0.179656 0.194630 0.716874
0.179107 0.194081 0.787276
0.178560 0.193534 0.857423
0.178015 0.192989 0.927338
0.177472 0.192446 0.997039
0.176930 0.191904 1.000000
0.179721 0.268987 0.000000
0.179684 0.268950 0.000000
0.179062 0.268327 0.057192
0.178469 0.267734 0.133259
0.177888 0.267153 0.207793
0.177314 0.266580 0.281338
0.176746 0.266012 0.354153
0.176183 0.265449 0.426390
0.175624 0.264889 0.498149
0.175068 0.264333 0.569500
0.174514 0.263780 0.640497
0.173963 0.263228 0.711181
0.173414 0.262680 0.781583
0.172867 0.262133 0.851731
0.172322 0.261588 0.921645
0.171779 0.261044 0.991346
0.171237 0.260502 1.000000
0.174088 0.336869 0.000000
0.174051 0.336832 0.000000
0.173428 0.336209 0.051559
0.172835 0.335616 0.127626
0.172254 0.335035 0.202160
0.171681 0.334461 0.275705
0.171113 0.333894 0.348520
0.170550 0.333331 0.420757
0.169991 0.332771 0.492515
0.169434 0.332215 0.563867
0.168881 0.331661 0.634864
0.168330 0.331110 0.705547
0.167781 0.330561 0.775950
0.167234 0.330015 0.846097
0.166689 0.329470 0.916012
0.166146 0.328926 0.985713
0.165604 0.328384 1.000000
0.168501 0.404189 0.000000
0.168464 0.404152 0.000000
0.167841 0.403529 0.045972
0.167248 0.402936 0.122039
0.166667 0.402355 0.196573
0.166094 0.401782 0.270118
0.165526 0.401214 0.342933
0.164963 0.400651 0.415170
0.164404 0.400092 0.486929
0.163847 0.399535 0.558280
0.163294 0.398982 0.629277
0.162743 0.398431 0.699961
0.162194 0.397882 0.770363
0.161647 0.397335 0.840510
0.161102 0.396790 0.910425
0.160559 0.396247 0.980126
0.160017 0.395705 1.000000
0.162953 0.471049 0.000000
0.162916 0.471012 0.000000
0.162293 0.470389 0.040424
0.161700 0.469796 0.116491
0.161119 0.469215 0.191024
0.160545 0.468642 0.264569
0.159978 0.468074 0.337384
0.159415 0.467511 0.409621
0.158855 0.466951 0.481380
0.158299 0.466395 0.552732
0.157745 0.465841 0.623729
0.157194 0.465290 0.694412
0.156646 0.464742 0.764814
0.156099 0.464195 0.834962
0.155554 0.463650 0.904877
0.155010 0.463106 0.974577
0.154468 0.462564 1.000000
0.157437 0.537518 0.000000
0.157400 0.537481 0.000000
0.156777 0.536858 0.034907
0.156184 0.536265 0.110975
0.155603 0.535684 0.185508
0.155029 0.535111 0.259053
0.154462 0.534543 0.331868
0.153899 0.533980 0.404105
0.153339 0.533420 0.475864
0.152783 0.532864 0.547216
0.152229 0.532311 0.618213
0.151678 0.531760 0.688896
0.151129 0.531211 0.759298
0.150583 0.530664 0.829446
0.150037 0.530119 0.899361
0.149494 0.529575 0.969061
0.148952 0.529033 1.000000
0.151949 0.603648 0.000000
0.151912 0.603611 0.000000
0.151289 0.602988 0.029419
0.150696 0.602395 0.105487
0.150115 0.601814 0.180020
0.149541 0.601241 0.253565
0.148974 0.600673 0.326380
0.148411 0.600110 0.398617
0.147851 0.599551 0.470376
0.147295 0.598994 0.541728
0.146741 0.598441 0.612725
0.146190 0.597890 0.683408
0.145641 0.597341 0.753810
0.145095 0.596794 0.823958
0.144549 0.596249 0.893873
0.144006 0.595706 0.963573
0.143464 0.595164 1.000000
0.146485 0.669480 0.000000
0.146448 0.669443 0.000000
0.145826 0.668820 0.023956
0.145233 0.668227 0.100023
0.144651 0.667646 0.174557
0.144078 0.667073 0.248102
0.143510 0.666505 0.320917
0.142947 0.665942 0.393154
0.142388 0.665382 0.464913
0.141832 0.664826 0.536264
0.141278 0.664273 0.607261
0.140727 0.663721 0.677945
0.140178 0.663173 0.748347
0.139631 0.662626 0.818494
0.139086 0.662081 0.888409
0.138543 0.661537 0.958110
0.138001 0.660995 1.000000
0.141044 0.735044 0.000000
0.141007 0.735007 0.000000
0.140385 0.734384 0.018515
0.139791 0.733791 0.094582
0.139210 0.733210 0.169116
0.138637 0.732637 0.242661
0.138069 0.732069 0.315476
0.137506 0.731506 0.387713
0.136947 0.730947 0.459472
0.136391 0.730390 0.530823
0.135837 0.729837 0.601820
0.135286 0.729286 0.672504
0.134737 0.728737 0.742906
0.134190 0.728190 0.813053
0.133645 0.727645 0.882968
0.133102 0.727102 0.952669
0.132560 0.726560 1.000000
0.135623 0.800367 0.000000
0.135586 0.800330 0.000000
0.134964 0.799707 0.013094
0.134370 0.799114 0.089161
0.133789 0.798533 0.163695
0.133216 0.797960 0.237240
0.132648 0.797392 0.310055
0.132085 0.796829 0.382292
0.131526 0.796270 0.454051
0.130970 0.795713 0.525402
0.130416 0.795160 0.596399
0.129865 0.794609 0.667083
0.129316 0.794060 0.737485
0.128769 0.793513 0.807632
0.128224 0.792968 0.877547
0.127681 0.792425 0.947248
0.127139 0.791883 1.000000
0.130221 0.865469 0.000000
0.130184 0.865432 0.000000
0.129561 0.864810 0.007691
0.128968 0.864217 0.083759
0.128387 0.863636 0.158292
0.127813 0.863062 0.231837
0.127246 0.862495 0.304652
0.126683 0.861931 0.376889
0.126123 0.861372 0.448648
0.125567 0.860816 0.520000
0.125013 0.860262 0.590997
0.124462 0.859711 0.661680
0.123913 0.859162 0.732082
0.123367 0.858615 0.802230
0.122822 0.858070 0.872145
0.122278 0.857527 0.941845
0.121736 0.856985 1.000000
0.124835 0.930369 0.000000
0.124798 0.930332 0.000000
0.124175 0.929710 0.002306
0.123582 0.929117 0.078373
0.123001 0.928536 0.152906
0.122427 0.927962 0.226451
0.121860 0.927395 0.299266
0.121297 0.926831 0.371503
0.120737 0.926272 0.443262
0.120181 0.925716 0.514614
0.119627 0.925162 0.585611
0.119076 0.924611 0.656294
0.118528 0.924062 0.726696
0.117981 0.923515 0.796844
0.117436 0.922970 0.866759
0.116892 0.922427 0.936459
0.116350 0.921885 1.000000
0.119464 0.995082 0.000000
0.119427 0.995045 0.000000
0.118805 0.994422 0.000000
0.118212 0.993829 0.073002
0.117630 0.993248 0.147536
0.117057 0.992675 0.221081
0.116489 0.992107 0.293896
0.115926 0.991544 0.366133
0.115367 0.990985 0.437892
0.114811 0.990428 0.509243
0.114257 0.989875 0.580240
0.113706 0.989324 0.650924
0.113157 0.988775 0.721326
0.112610 0.988228 0.791473
0.112065 0.987683 0.861388
0.111522 0.987140 0.931089
0.110980 0.986598 1.000000
0.116612 1.000000 0.000000
0.116575 1.000000 0.000000
0.115952 1.000000 0.000000
0.115359 1.000000 0.070150
0.114778 1.000000 0.144683
0.114204 1.000000 0.218228
0.113637 1.000000 0.291043
0.113074 1.000000 0.363280
0.112514 1.000000 0.435039
0.111958 1.000000 0.506391
0.111404 1.000000 0.577388
0.110853 1.000000 0.648071
0.110304 1.000000 0.718473
0.109758 1.000000 0.788621
0.109213 1.000000 0.858536
0.108669 1.000000 0.928236
0.108127 1.000000 0.997739
0.275215 0.000000 0.000000
0.275178 0.000000 0.000000
0.274556 0.000000 0.078210
0.273962 0.000000 0.154277
0.273381 0.000000 0.228811
0.272808 0.000000 0.302356
0.272240 0.000000 0.375171
0.271677 0.000000 0.447408
0.271118 0.000000 0.519167
0.270562 0.000000 0.590518
0.270008 0.000000 0.661515
0.269457 0.000000 0.732199
0.268908 0.000000 0.802601
0.268361 0.000000 0.872748
0.267816 0.000000 0.942663
0.267273 0.000000 1.000000
0.266731 0.000000 1.000000
0.269877 0.057907 0.000000
