skills/editops-orchestrator/assets/grade/luts/ad_warm_v05.cube
TITLE "ad_warm_v05"
LUT_3D_SIZE 9
DOMAIN_MIN 0.0 0.0 0.0
DOMAIN_MAX 1.0 1.0 1.0
0.018201 0.000000 0.000000
0.017877 0.000000 0.113340
0.017498 0.000000 0.245909
0.017123 0.000000 0.377238
0.016750 0.000000 0.507797
0.016379 0.000000 0.637795
0.016009 0.000000 0.767353
0.015640 0.000000 0.896547
0.015272 0.000000 1.000000
0.014435 0.129606 0.000000
0.014111 0.129282 0.109574
0.013732 0.128904 0.242143
0.013357 0.128529 0.373472
0.012985 0.128156 0.504031
0.012613 0.127785 0.634030
0.012243 0.127415 0.763587
0.011875 0.127046 0.892781
0.011507 0.126678 1.000000
0.010692 0.258573 0.000000
0.010368 0.258249 0.105832
0.009990 0.257870 0.238400
0.009615 0.257495 0.369729
0.009242 0.257123 0.500288
0.008871 0.256752 0.630287
0.008501 0.256382 0.759844
0.008132 0.256013 0.889038
0.007764 0.255645 1.000000
0.006981 0.386433 0.000000
0.006657 0.386109 0.102121
0.006279 0.385730 0.234689
0.005904 0.385355 0.366018
0.005531 0.384983 0.496578
0.005160 0.384612 0.626576
0.004790 0.384242 0.756134
0.004421 0.383873 0.885328
0.004053 0.383505 1.000000
0.003291 0.513582 0.000000
0.002967 0.513258 0.098431
0.002589 0.512879 0.230999
0.002214 0.512504 0.362328
0.001841 0.512132 0.492887
0.001470 0.511760 0.622886
0.001100 0.511391 0.752444
0.000731 0.511022 0.881638
0.000363 0.510654 1.000000
0.000000 0.640205 0.000000
0.000000 0.639881 0.094756
0.000000 0.639503 0.227324
0.000000 0.639128 0.358653
0.000000 0.638755 0.489213
0.000000 0.638384 0.619211
0.000000 0.638014 0.748769
0.000000 0.637645 0.877963
0.000000 0.637277 1.000000
0.000000 0.766412 0.000000
0.000000 0.766088 0.091093
0.000000 0.765710 0.223662
0.000000 0.765335 0.354991
0.000000 0.764962 0.485550
0.000000 0.764591 0.615549
0.000000 0.764221 0.745106
0.000000 0.763852 0.874300
0.000000 0.763484 1.000000
0.000000 0.892274 0.000000
0.000000 0.891950 0.087441
0.000000 0.891571 0.220009
0.000000 0.891196 0.351338
0.000000 0.890824 0.481897
0.000000 0.890452 0.611896
0.000000 0.890082 0.741453
0.000000 0.889714 0.870647
0.000000 0.889346 0.999532
0.000000 1.000000 0.000000
0.000000 1.000000 0.083979
0.000000 1.000000 0.216548
0.000000 1.000000 0.347877
0.000000 1.000000 0.478436
0.000000 1.000000 0.608435
0.000000 1.000000 0.737992
0.000000 1.000000 0.867186
0.000000 1.000000 0.996071
0.151901 0.000000 0.000000
0.151577 0.000000 0.112210
0.151199 0.000000 0.244778
0.150824 0.000000 0.376107
0.150451 0.000000 0.506666
0.150080 0.000000 0.636665
0.149710 0.000000 0.766223
0.149341 0.000000 0.895417
0.148973 0.000000 1.000000
0.148135 0.128476 0.000000
0.147811 0.128152 0.108444
0.147433 0.127773 0.241012
0.147058 0.127398 0.372341
0.146685 0.127026 0.502901
0.146314 0.126654 0.632899
0.145944 0.126284 0.762457
0.145575 0.125916 0.891651
0.145207 0.125548 1.000000
0.144393 0.257443 0.000000
0.144068 0.257119 0.104701
0.143690 0.256740 0.237270
0.143315 0.256365 0.368599
0.142942 0.255992 0.499158
0.142571 0.255621 0.629156
0.142201 0.255251 0.758714
0.141832 0.254882 0.887908
0.141464 0.254514 1.000000
0.140682 0.385303 0.000000
0.140358 0.384979 0.100991
0.139979 0.384600 0.233559
0.139604 0.384225 0.364888
0.139232 0.383852 0.495447
0.138860 0.383481 0.625446
0.138490 0.383111 0.755003
0.138122 0.382742 0.884197
0.137754 0.382374 1.000000
0.136992 0.512452 0.000000
0.136668 0.512128 0.097300
0.136289 0.511749 0.229869
0.135914 0.511374 0.361198
0.135541 0.511001 0.491757
0.135170 0.510630 0.621756
0.134800 0.510260 0.751313
0.134431 0.509891 0.880507
0.134063 0.509523 1.000000
0.133317 0.639075 0.000000
0.132993 0.638751 0.093626
0.132614 0.638373 0.226194
0.132239 0.637998 0.357523
0.131867 0.637625 0.488082
0.131495 0.637254 0.618081
0.131126 0.636884 0.747638
0.130757 0.636515 0.876832
0.130389 0.636147 1.000000
0.129654 0.765282 0.000000
0.129330 0.764958 0.089963
0.128952 0.764579 0.222531
0.128577 0.764204 0.353860
0.128204 0.763832 0.484420
0.127833 0.763460 0.614418
0.127463 0.763091 0.743976
0.127094 0.762722 0.873170
0.126726 0.762354 1.000000
0.126002 0.891143 0.000000
0.125678 0.890819 0.086310
0.125299 0.890441 0.218879
0.124924 0.890066 0.350208
0.124551 0.889693 0.480767
0.124180 0.889322 0.610765
0.123810 0.888952 0.740323
0.123441 0.888583 0.869517
0.123073 0.888215 0.998402
0.122540 1.000000 0.000000
0.122216 1.000000 0.082849
0.121838 1.000000 0.215417
0.121463 1.000000 0.346746
0.121090 1.000000 0.477306
0.120719 1.000000 0.607304
0.120349 1.000000 0.736862
0.119980 1.000000 0.866056
0.119612 1.000000 0.994941
0.283287 0.000000 0.000000
0.282963 0.000000 0.111099
0.282585 0.000000 0.243667
0.282210 0.000000 0.374997
0.281837 0.000000 0.505556
0.281466 0.000000 0.635554
0.281096 0.000000 0.765112
0.280727 0.000000 0.894306
0.280359 0.000000 1.000000
0.279522 0.127365 0.000000
0.279198 0.127041 0.107333
0.278819 0.126662 0.239902
0.278444 0.126288 0.371231
0.278071 0.125915 0.501790
0.277700 0.125544 0.631788
0.277330 0.125174 0.761346
0.276961 0.124805 0.890540
0.276593 0.124437 1.000000
0.275779 0.256332 0.000000
0.275455 0.256008 0.103590
0.275076 0.255629 0.236159
0.274701 0.255254 0.367488
0.274328 0.254882 0.498047
0.273957 0.254510 0.628046
0.273587 0.254140 0.757603
0.273218 0.253772 0.886797
0.272850 0.253404 1.000000
0.272068 0.384192 0.000000
0.271744 0.383868 0.099880
0.271366 0.383489 0.232448
0.270991 0.383114 0.363777
0.270618 0.382742 0.494336
0.270247 0.382370 0.624335
0.269877 0.382000 0.753892
0.269508 0.381632 0.883086
0.269140 0.381264 1.000000
0.268378 0.511341 0.000000
0.268054 0.511017 0.096190
0.267675 0.510638 0.228758
0.267300 0.510263 0.360087
0.266928 0.509890 0.490646
0.266557 0.509519 0.620645
0.266187 0.509149 0.750202
0.265818 0.508780 0.879396
0.265450 0.508412 1.000000
0.264703 0.637964 0.000000
0.264379 0.637640 0.092515
0.264001 0.637262 0.225083
0.263626 0.636887 0.356412
0.263253 0.636514 0.486971
0.262882 0.636143 0.616970
0.262512 0.635773 0.746528
0.262143 0.635404 0.875722
0.261775 0.635036 1.000000
0.261040 0.764171 0.000000
0.260716 0.763847 0.088852
0.260338 0.763469 0.221421
0.259963 0.763094 0.352750
0.259590 0.762721 0.483309
0.259219 0.762350 0.613307
0.258849 0.761980 0.742865
0.258480 0.761611 0.872059
0.258112 0.761243 1.000000
0.257388 0.890033 0.000000
0.257064 0.889709 0.085199
0.256685 0.889330 0.217768
0.256310 0.888955 0.349097
0.255937 0.888582 0.479656
0.255566 0.888211 0.609655
0.255196 0.887841 0.739212
0.254827 0.887472 0.868406
0.254459 0.887104 0.997291
0.253927 1.000000 0.000000
0.253603 1.000000 0.081738
0.253224 1.000000 0.214307
0.252849 1.000000 0.345636
0.252476 1.000000 0.476195
0.252105 1.000000 0.606193
0.251735 1.000000 0.735751
0.251366 1.000000 0.864945
0.250998 1.000000 0.993830
0.413631 0.000000 0.000000
0.413307 0.000000 0.109997
0.412928 0.000000 0.242565
0.412553 0.000000 0.373895
0.412180 0.000000 0.504454
0.411809 0.000000 0.634452
0.411439 0.000000 0.764010
0.411070 0.000000 0.893204
0.410702 0.000000 1.000000
0.409865 0.126263 0.000000
0.409541 0.125939 0.106231
0.409162 0.125560 0.238800
0.408787 0.125186 0.370129
0.408415 0.124813 0.500688
0.408043 0.124442 0.630686
0.407674 0.124072 0.760244
0.407305 0.123703 0.889438
0.406937 0.123335 1.000000
0.406122 0.255230 0.000000
0.405798 0.254906 0.102488
0.405420 0.254527 0.235057
0.405045 0.254152 0.366386
0.404672 0.253780 0.496945
0.404301 0.253408 0.626944
0.403931 0.253038 0.756501
0.403562 0.252670 0.885695
0.403194 0.252302 1.000000
0.402411 0.383090 0.000000
0.402087 0.382766 0.098778
0.401709 0.382387 0.231346
0.401334 0.382012 0.362675
0.400961 0.381640 0.493234
0.400590 0.381268 0.623233
0.400220 0.380898 0.752790
0.399851 0.380530 0.881984
0.399483 0.380162 1.000000
0.398721 0.510239 0.000000
0.398397 0.509915 0.095088
0.398019 0.509536 0.227656
0.397644 0.509161 0.358985
0.397271 0.508788 0.489544
0.396900 0.508417 0.619543
0.396530 0.508047 0.749100
0.396161 0.507678 0.878294
0.395793 0.507310 1.000000
0.395047 0.636862 0.000000
0.394723 0.636538 0.091413
0.394344 0.636160 0.223981
0.393969 0.635785 0.355310
0.393596 0.635412 0.485869
0.393225 0.635041 0.615868
0.392855 0.634671 0.745426
0.392486 0.634302 0.874620
0.392118 0.633934 1.000000
0.391384 0.763069 0.000000
0.391060 0.762745 0.087750
0.390681 0.762367 0.220319
0.390306 0.761992 0.351648
0.389934 0.761619 0.482207
0.389562 0.761248 0.612205
0.389192 0.760878 0.741763
0.388824 0.760509 0.870957
0.388456 0.760141 0.999842
0.387731 0.888931 0.000000
0.387407 0.888607 0.084097
0.387029 0.888228 0.216666
0.386654 0.887853 0.347995
0.386281 0.887480 0.478554
0.385910 0.887109 0.608553
0.385540 0.886739 0.738110
0.385171 0.886370 0.867304
0.384803 0.886002 0.996189
0.384270 1.000000 0.000000
0.383946 1.000000 0.080636
0.383567 1.000000 0.213205
0.383192 1.000000 0.344534
0.382820 1.000000 0.475093
0.382448 1.000000 0.605091
0.382079 1.000000 0.734649
0.381710 1.000000 0.863843
0.381342 1.000000 0.992728
0.543285 0.000000 0.000000
0.542961 0.000000 0.108901
0.542582 0.000000 0.241469
0.542207 0.000000 0.372798
0.541834 0.000000 0.503358
0.541463 0.000000 0.633356
0.541093 0.000000 0.762914
0.540724 0.000000 0.892108
0.540356 0.000000 1.000000
0.539519 0.125167 0.000000
0.539195 0.124843 0.105135
0.538816 0.124464 0.237703
0.538441 0.124089 0.369033
0.538068 0.123717 0.499592
0.537697 0.123345 0.629590
0.537327 0.122975 0.759148
0.536958 0.122607 0.888342
0.536590 0.122239 1.000000
0.535776 0.254134 0.000000
0.535452 0.253810 0.101392
0.535073 0.253431 0.233961
0.534698 0.253056 0.365290
0.534326 0.252683 0.495849
0.533954 0.252312 0.625847
0.533584 0.251942 0.755405
0.533216 0.251573 0.884599
0.532848 0.251205 1.000000
0.532065 0.381994 0.000000
0.531741 0.381670 0.097682
0.531363 0.381291 0.230250
0.530988 0.380916 0.361579
0.530615 0.380543 0.492138
0.530244 0.380172 0.622137
0.529874 0.379802 0.751694
0.529505 0.379433 0.880888
0.529137 0.379065 1.000000
0.528375 0.509143 0.000000
0.528051 0.508819 0.093991
0.527673 0.508440 0.226560
0.527298 0.508065 0.357889
0.526925 0.507692 0.488448
0.526554 0.507321 0.618447
0.526184 0.506951 0.748004
0.525815 0.506582 0.877198
0.525447 0.506214 1.000000
0.524700 0.635766 0.000000
0.524376 0.635442 0.090317
0.523998 0.635064 0.222885
0.523623 0.634689 0.354214
0.523250 0.634316 0.484773
0.522879 0.633945 0.614772
0.522509 0.633575 0.744329
0.522140 0.633206 0.873523
0.521772 0.632838 1.000000
0.521038 0.761973 0.000000
0.520714 0.761649 0.086654
0.520335 0.761270 0.219222
0.519960 0.760895 0.350551
0.519587 0.760523 0.481111
0.519216 0.760151 0.611109
0.518846 0.759782 0.740667
0.518477 0.759413 0.869861
0.518109 0.759045 0.998746
0.517385 0.887835 0.000000
0.517061 0.887510 0.083001
0.516682 0.887132 0.215570
0.516307 0.886757 0.346899
0.515935 0.886384 0.477458
0.515563 0.886013 0.607456
0.515194 0.885643 0.737014
0.514825 0.885274 0.866208
0.514457 0.884906 0.995093
0.513924 1.000000 0.000000
0.513600 1.000000 0.079540
0.513221 1.000000 0.212108
0.512846 1.000000 0.343438
0.512473 1.000000 0.473997
0.512102 1.000000 0.603995
0.511732 1.000000 0.733553
0.511363 1.000000 0.862747
0.510995 1.000000 0.991632
0.672422 0.000000 0.000000
0.672098 0.000000 0.107809
0.671720 0.000000 0.240377
0.671345 0.000000 0.371707
0.670972 0.000000 0.502266
0.670601 0.000000 0.632264
0.670231 0.000000 0.761822
0.669862 0.000000 0.891016
0.669494 0.000000 1.000000
0.668656 0.124075 0.000000
0.668332 0.123751 0.104043
0.667954 0.123373 0.236612
0.667579 0.122998 0.367941
0.667206 0.122625 0.498500
0.666835 0.122254 0.628498
0.666465 0.121884 0.758056
0.666096 0.121515 0.887250
0.665728 0.121147 1.000000
0.664913 0.253042 0.000000
0.664589 0.252718 0.100300
0.664211 0.252339 0.232869
0.663836 0.251964 0.364198
0.663463 0.251592 0.494757
0.663092 0.251220 0.624756
0.662722 0.250851 0.754313
0.662353 0.250482 0.883507
0.661985 0.250114 1.000000
0.661203 0.380902 0.000000
0.660879 0.380578 0.096590
0.660500 0.380199 0.229158
0.660125 0.379824 0.360487
0.659752 0.379452 0.491046
0.659381 0.379080 0.621045
0.659011 0.378711 0.750602
0.658642 0.378342 0.879797
0.658274 0.377974 1.000000
0.657513 0.508051 0.000000
0.657189 0.507727 0.092900
0.656810 0.507348 0.225468
0.656435 0.506973 0.356797
0.656062 0.506601 0.487356
0.655691 0.506229 0.617355
0.655321 0.505859 0.746912
0.654952 0.505491 0.876106
0.654584 0.505123 1.000000
0.653838 0.634674 0.000000
0.653514 0.634350 0.089225
0.653135 0.633972 0.221793
0.652760 0.633597 0.353122
0.652388 0.633224 0.483682
0.652016 0.632853 0.613680
0.651646 0.632483 0.743238
0.651278 0.632114 0.872432
0.650910 0.631746 1.000000
0.650175 0.760881 0.000000
0.649851 0.760557 0.085562
0.649473 0.760179 0.218131
0.649098 0.759804 0.349460
0.648725 0.759431 0.480019
0.648354 0.759060 0.610017
0.647984 0.758690 0.739575
0.647615 0.758321 0.868769
0.647247 0.757953 0.997654
0.646523 0.886743 0.000000
0.646198 0.886419 0.081909
0.645820 0.886040 0.214478
0.645445 0.885665 0.345807
0.645072 0.885292 0.476366
0.644701 0.884921 0.606365
0.644331 0.884551 0.735922
0.643962 0.884182 0.865116
0.643594 0.883814 0.994001
0.643061 1.000000 0.000000
0.642737 1.000000 0.078448
0.642359 1.000000 0.211017
0.641984 1.000000 0.342346
0.641611 1.000000 0.472905
0.641240 1.000000 0.602903
0.640870 1.000000 0.732461
0.640501 1.000000 0.861655
0.640133 1.000000 0.990540
0.801147 0.000000 0.000000
0.800823 0.000000 0.106721
0.800444 0.000000 0.239289
0.800069 0.000000 0.370618
0.799697 0.000000 0.501177
0.799326 0.000000 0.631176
0.798956 0.000000 0.760734
0.798587 0.000000 0.889928
0.798219 0.000000 1.000000
0.797381 0.122987 0.000000
0.797057 0.122663 0.102955
0.796679 0.122284 0.235523
0.796304 0.121909 0.366852
0.795931 0.121536 0.497412
0.795560 0.121165 0.627410
0.795190 0.120795 0.756968
0.794821 0.120427 0.886162
0.794453 0.120059 1.000000
0.793638 0.251954 0.000000
0.793314 0.251630 0.099212
0.792936 0.251251 0.231781
0.792561 0.250876 0.363110
0.792188 0.250503 0.493669
0.791817 0.250132 0.623667
0.791447 0.249762 0.753225
0.791078 0.249393 0.882419
0.790710 0.249025 1.000000
0.789928 0.379814 0.000000
0.789604 0.379490 0.095501
0.789225 0.379111 0.228070
0.788850 0.378736 0.359399
0.788477 0.378363 0.489958
0.788106 0.377992 0.619957
0.787736 0.377622 0.749514
0.787367 0.377253 0.878708
0.786999 0.376885 1.000000
0.786238 0.506963 0.000000
0.785914 0.506638 0.091811
0.785535 0.506260 0.224380
0.785160 0.505885 0.355709
0.784787 0.505512 0.486268
0.784416 0.505141 0.616267
0.784046 0.504771 0.745824
0.783677 0.504402 0.875018
0.783309 0.504034 1.000000
0.782563 0.633586 0.000000
0.782239 0.633262 0.088137
0.781860 0.632884 0.220705
0.781485 0.632509 0.352034
0.781112 0.632136 0.482593
0.780741 0.631765 0.612592
0.780371 0.631395 0.742149
0.780002 0.631026 0.871343
0.779634 0.630658 1.000000
0.778900 0.759793 0.000000
0.778576 0.759469 0.084474
0.778198 0.759090 0.217042
0.777823 0.758715 0.348371
0.777450 0.758343 0.478931
0.777079 0.757971 0.608929
0.776709 0.757601 0.738487
0.776340 0.757233 0.867681
0.775972 0.756865 0.996566
0.775247 0.885654 0.000000
0.774923 0.885330 0.080821
0.774545 0.884952 0.213390
0.774170 0.884577 0.344719
0.773797 0.884204 0.475278
0.773426 0.883833 0.605276
0.773056 0.883463 0.734834
0.772687 0.883094 0.864028
0.772319 0.882726 0.992913
0.771786 1.000000 0.000000
0.771462 1.000000 0.077360
0.771084 1.000000 0.209928
0.770709 1.000000 0.341257
0.770336 1.000000 0.471817
0.769965 1.000000 0.601815
0.769595 1.000000 0.731373
0.769226 1.000000 0.860567
0.768858 1.000000 0.989452
0.929528 0.000000 0.000000
0.929204 0.000000 0.105635
0.928826 0.000000 0.238204
0.928451 0.000000 0.369533
0.928078 0.000000 0.500092
0.927707 0.000000 0.630091
0.927337 0.000000 0.759648
0.926968 0.000000 0.888842
0.926600 0.000000 1.000000
0.925762 0.121901 0.000000
0.925438 0.121577 0.101870
0.925060 0.121199 0.234438
0.924685 0.120824 0.365767
0.924312 0.120451 0.496326
0.923941 0.120080 0.626325
0.923571 0.119710 0.755882
0.923202 0.119341 0.885076
0.922834 0.118973 1.000000
0.922020 0.250868 0.000000
0.921696 0.250544 0.098127
0.921317 0.250166 0.230695
0.920942 0.249791 0.362024
0.920569 0.249418 0.492583
0.920198 0.249047 0.622582
0.919828 0.248677 0.752139
0.919459 0.248308 0.881333
0.919091 0.247940 1.000000
0.918309 0.378728 0.000000
0.917985 0.378404 0.094416
0.917606 0.378026 0.226984
0.917231 0.377651 0.358314
0.916859 0.377278 0.488873
0.916487 0.376907 0.618871
0.916117 0.376537 0.748429
0.915749 0.376168 0.877623
0.915381 0.375800 1.000000
0.914619 0.505877 0.000000
0.914295 0.505553 0.090726
0.913916 0.505175 0.223294
0.913541 0.504800 0.354623
0.913169 0.504427 0.485183
0.912797 0.504056 0.615181
0.912427 0.503686 0.744739
0.912059 0.503317 0.873933
0.911691 0.502949 1.000000
0.910944 0.632501 0.000000
0.910620 0.632177 0.087051
0.910241 0.631798 0.219620
0.909866 0.631423 0.350949
0.909494 0.631050 0.481508
0.909123 0.630679 0.611506
0.908753 0.630309 0.741064
0.908384 0.629940 0.870258
0.908016 0.629572 0.999143
0.907281 0.758707 0.000000
0.906957 0.758383 0.083388
0.906579 0.758005 0.215957
0.906204 0.757630 0.347286
0.905831 0.757257 0.477845
0.905460 0.756886 0.607844
0.905090 0.756516 0.737401
0.904721 0.756147 0.866595
0.904353 0.755779 0.995480
0.903629 0.884569 0.000000
0.903305 0.884245 0.079736
0.902926 0.883866 0.212304
0.902551 0.883491 0.343633
0.902178 0.883119 0.474192
0.901807 0.882748 0.604191
0.901437 0.882378 0.733749
0.901068 0.882009 0.862943
0.900700 0.881641 0.991827
0.900167 1.000000 0.000000
0.899843 1.000000 0.076275
0.899465 1.000000 0.208843
0.899090 1.000000 0.340172
0.898717 1.000000 0.470731
0.898346 1.000000 0.600730
0.897976 1.000000 0.730287
0.897607 1.000000 0.859481
0.897239 1.000000 0.988366
1.000000 0.000000 0.000000
1.000000 0.000000 0.104766
1.000000 0.000000 0.237335
1.000000 0.000000 0.368664
1.000000 0.000000 0.499223
1.000000 0.000000 0.629222
1.000000 0.000000 0.758779
1.000000 0.000000 0.887973
1.000000 0.000000 1.000000
1.000000 0.121032 0.000000
1.000000 0.120708 0.101000
1.000000 0.120330 0.233569
1.000000 0.119955 0.364898
1.000000 0.119582 0.495457
1.000000 0.119211 0.625456
1.000000 0.118841 0.755013
1.000000 0.118472 0.884207
1.000000 0.118104 1.000000
1.000000 0.249999 0.000000
1.000000 0.249675 0.097258
1.000000 0.249297 0.229826
1.000000 0.248922 0.361155
1.000000 0.248549 0.491714
1.000000 0.248178 0.621713
1.000000 0.247808 0.751270
1.000000 0.247439 0.880464
1.000000 0.247071 1.000000
1.000000 0.377859 0.000000
1.000000 0.377535 0.093547
1.000000 0.377157 0.226115
1.000000 0.376782 0.357444
1.000000 0.376409 0.488004
1.000000 0.376038 0.618002
1.000000 0.375668 0.747560
1.000000 0.375299 0.876754
1.000000 0.374931 1.000000
1.000000 0.505008 0.000000
1.000000 0.504684 0.089857
1.000000 0.504305 0.222425
1.000000 0.503930 0.353754
1.000000 0.503558 0.484314
1.000000 0.503187 0.614312
1.000000 0.502817 0.743870
1.000000 0.502448 0.873064
1.000000 0.502080 1.000000
1.000000 0.631632 0.000000
1.000000 0.631308 0.086182
1.000000 0.630929 0.218750
1.000000 0.630554 0.350080
1.000000 0.630181 0.480639
1.000000 0.629810 0.610637
1.000000 0.629440 0.740195
1.000000 0.629071 0.869389
1.000000 0.628703 0.998274
1.000000 0.757838 0.000000
1.000000 0.757514 0.082519
1.000000 0.757136 0.215088
1.000000 0.756761 0.346417
1.000000 0.756388 0.476976
1.000000 0.756017 0.606975
1.000000 0.755647 0.736532
1.000000 0.755278 0.865726
1.000000 0.754910 0.994611
1.000000 0.883700 0.000000
1.000000 0.883376 0.078867
1.000000 0.882997 0.211435
1.000000 0.882622 0.342764
1.000000 0.882250 0.473323
1.000000 0.881878 0.603322
1.000000 0.881508 0.732879
1.000000 0.881140 0.862073
1.000000 0.880772 0.990958
1.000000 1.000000 0.000000
1.000000 1.000000 0.075405
1.000000 1.000000 0.207974
1.000000 1.000000 0.339303
1.000000 1.000000 0.469862
1.000000 1.000000 0.599861
1.000000 1.000000 0.729418
1.000000 1.000000 0.858612
1.000000 1.000000 0.987497
