skills/editops-orchestrator/assets/grade/luts/ad_warm_v18.cube
TITLE "ad_warm_v18"
LUT_3D_SIZE 5
DOMAIN_MIN 0.0 0.0 0.0
DOMAIN_MAX 1.0 1.0 1.0
0.047505 0.000000 0.000000
0.045805 0.000000 0.236010
0.043750 0.000000 0.522418
0.041739 0.000000 0.802614
0.039756 0.000000 1.000000
0.026880 0.270620 0.000000
0.025180 0.268919 0.215385
0.023125 0.266864 0.501793
0.021114 0.264854 0.781990
0.019131 0.262870 1.000000
0.006628 0.537347 0.000000
0.004928 0.535646 0.195132
0.002873 0.533591 0.481541
0.000862 0.531580 0.761737
0.000000 0.529597 1.000000
0.000000 0.798882 0.000000
0.000000 0.797181 0.175275
0.000000 0.795126 0.461683
0.000000 0.793115 0.741879
0.000000 0.791132 1.000000
0.000000 1.000000 0.000000
0.000000 1.000000 0.157714
0.000000 1.000000 0.444123
0.000000 1.000000 0.724319
0.000000 1.000000 1.000000
0.338177 0.000000 0.000000
0.336476 0.000000 0.229781
0.334421 0.000000 0.516190
0.332410 0.000000 0.796386
0.330427 0.000000 1.000000
0.317552 0.264392 0.000000
0.315851 0.262691 0.209156
0.313796 0.260636 0.495565
0.311785 0.258625 0.775761
0.309802 0.256642 1.000000
0.297300 0.531118 0.000000
0.295599 0.529418 0.188904
0.293544 0.527363 0.475313
0.291533 0.525352 0.755509
0.289550 0.523369 1.000000
0.277442 0.792653 0.000000
0.275741 0.790953 0.169046
0.273686 0.788898 0.455455
0.271675 0.786887 0.735651
0.269692 0.784904 1.000000
0.259881 1.000000 0.000000
0.258180 1.000000 0.151486
0.256125 1.000000 0.437894
0.254115 1.000000 0.718091
0.252131 1.000000 0.994518
0.617874 0.000000 0.000000
0.616173 0.000000 0.223788
0.614118 0.000000 0.510197
0.612107 0.000000 0.790393
0.610124 0.000000 1.000000
0.597249 0.258399 0.000000
0.595548 0.256698 0.203163
0.593493 0.254643 0.489572
0.591482 0.252632 0.769768
0.589499 0.250649 1.000000
0.576996 0.525125 0.000000
0.575296 0.523425 0.182911
0.573241 0.521370 0.469320
0.571230 0.519359 0.749516
0.569247 0.517376 1.000000
0.557139 0.786660 0.000000
0.555438 0.784960 0.163053
0.553383 0.782905 0.449462
0.551372 0.780894 0.729658
0.549389 0.778911 1.000000
0.539578 1.000000 0.000000
0.537877 1.000000 0.145493
0.535822 1.000000 0.431901
0.533812 1.000000 0.712098
0.531828 1.000000 0.988525
0.892628 0.000000 0.000000
0.890927 0.000000 0.217901
0.888872 0.000000 0.504310
0.886861 0.000000 0.784506
0.884878 0.000000 1.000000
0.872003 0.252511 0.000000
0.870302 0.250811 0.197276
0.868247 0.248756 0.483685
0.866237 0.246745 0.763881
0.864253 0.244762 1.000000
0.851751 0.519238 0.000000
0.850050 0.517537 0.177024
0.847995 0.515482 0.463433
0.845984 0.513472 0.743629
0.844001 0.511488 1.000000
0.831893 0.780773 0.000000
0.830192 0.779072 0.157166
0.828137 0.777017 0.443575
0.826126 0.775007 0.723771
0.824143 0.773024 1.000000
0.814332 1.000000 0.000000
0.812631 1.000000 0.139605
0.810576 1.000000 0.426014
0.808566 1.000000 0.706210
0.806582 1.000000 0.982638
1.000000 0.000000 0.000000
1.000000 0.000000 0.213753
1.000000 0.000000 0.500162
1.000000 0.000000 0.780358
1.000000 0.000000 1.000000
1.000000 0.248364 0.000000
1.000000 0.246663 0.193128
1.000000 0.244608 0.479537
1.000000 0.242598 0.759733
1.000000 0.240614 1.000000
1.000000 0.515090 0.000000
1.000000 0.513390 0.172876
1.000000 0.511335 0.459285
1.000000 0.509324 0.739481
1.000000 0.507341 1.000000
1.000000 0.776626 0.000000
1.000000 0.774925 0.153018
1.000000 0.772870 0.439427
1.000000 0.770859 0.719623
1.000000 0.768876 0.996051
1.000000 1.000000 0.000000
1.000000 1.000000 0.135458
1.000000 1.000000 0.421867
1.000000 1.000000 0.702063
1.000000 1.000000 0.978490
