skills/editops-orchestrator/assets/grade/luts/ad_warm_v04.cube
TITLE "ad_warm_v04"
LUT_3D_SIZE 5
DOMAIN_MIN 0.0 0.0 0.0
DOMAIN_MAX 1.0 1.0 1.0
0.016246 0.000000 0.000000
0.015629 0.000000 0.246455
0.014978 0.000000 0.506532
0.014333 0.000000 0.764528
0.013691 0.000000 1.000000
0.009714 0.257651 0.000000
0.009097 0.257034 0.239924
0.008447 0.256384 0.500000
0.007802 0.255738 0.757996
0.007160 0.255096 1.000000
0.003275 0.511760 0.000000
0.002659 0.511143 0.233485
0.002008 0.510493 0.493561
0.001363 0.509847 0.751558
0.000721 0.509205 1.000000
0.000000 0.763910 0.000000
0.000000 0.763293 0.227096
0.000000 0.762642 0.487172
0.000000 0.761997 0.745169
0.000000 0.761355 1.000000
0.000000 1.000000 0.000000
0.000000 1.000000 0.220859
0.000000 1.000000 0.480935
0.000000 1.000000 0.738931
0.000000 1.000000 0.995606
0.279329 0.000000 0.000000
0.278712 0.000000 0.244508
0.278062 0.000000 0.504585
0.277416 0.000000 0.762581
0.276775 0.000000 1.000000
0.272797 0.255704 0.000000
0.272181 0.255087 0.237977
0.271530 0.254437 0.498053
0.270885 0.253791 0.756049
0.270243 0.253149 1.000000
0.266359 0.509813 0.000000
0.265742 0.509196 0.231538
0.265091 0.508546 0.491615
0.264446 0.507901 0.749611
0.263804 0.507259 1.000000
0.259970 0.761963 0.000000
0.259353 0.761346 0.225149
0.258702 0.760696 0.485225
0.258057 0.760050 0.743222
0.257415 0.759408 0.999896
0.253732 1.000000 0.000000
0.253115 1.000000 0.218912
0.252465 1.000000 0.478988
0.251820 1.000000 0.736984
0.251178 1.000000 0.993659
0.537793 0.000000 0.000000
0.537177 0.000000 0.242596
0.536526 0.000000 0.502672
0.535881 0.000000 0.760668
0.535239 0.000000 1.000000
0.531262 0.253791 0.000000
0.530645 0.253174 0.236064
0.529995 0.252524 0.496141
0.529350 0.251879 0.754137
0.528708 0.251237 1.000000
0.524823 0.507900 0.000000
0.524207 0.507283 0.229626
0.523556 0.506633 0.489702
0.522911 0.505988 0.747698
0.522269 0.505346 1.000000
0.518434 0.760050 0.000000
0.517817 0.759433 0.223236
0.517167 0.758783 0.483313
0.516522 0.758138 0.741309
0.515880 0.757496 0.997983
0.512197 1.000000 0.000000
0.511580 1.000000 0.216999
0.510930 1.000000 0.477075
0.510284 1.000000 0.735072
0.509642 1.000000 0.991746
0.794334 0.000000 0.000000
0.793717 0.000000 0.240697
0.793067 0.000000 0.500774
0.792422 0.000000 0.758770
0.791780 0.000000 1.000000
0.787803 0.251893 0.000000
0.787186 0.251276 0.234166
0.786535 0.250625 0.494242
0.785890 0.249980 0.752238
0.785248 0.249338 1.000000
0.781364 0.506002 0.000000
0.780747 0.505385 0.227727
0.780097 0.504735 0.487803
0.779451 0.504089 0.745800
0.778810 0.503447 1.000000
0.774975 0.758151 0.000000
0.774358 0.757535 0.221338
0.773708 0.756884 0.481414
0.773062 0.756239 0.739410
0.772421 0.755597 0.996085
0.768737 1.000000 0.000000
0.768121 1.000000 0.215101
0.767470 1.000000 0.475177
0.766825 1.000000 0.733173
0.766183 1.000000 0.989848
1.000000 0.000000 0.000000
1.000000 0.000000 0.238967
1.000000 0.000000 0.499043
1.000000 0.000000 0.757039
1.000000 0.000000 1.000000
1.000000 0.250162 0.000000
1.000000 0.249545 0.232435
1.000000 0.248895 0.492512
1.000000 0.248250 0.750508
1.000000 0.247608 1.000000
1.000000 0.504271 0.000000
1.000000 0.503654 0.225997
1.000000 0.503004 0.486073
1.000000 0.502359 0.744069
1.000000 0.501717 1.000000
1.000000 0.756421 0.000000
1.000000 0.755804 0.219607
1.000000 0.755154 0.479684
1.000000 0.754509 0.737680
1.000000 0.753867 0.994354
1.000000 1.000000 0.000000
1.000000 1.000000 0.213370
1.000000 1.000000 0.473446
1.000000 1.000000 0.731443
1.000000 1.000000 0.988117
