skills/editops-orchestrator/assets/grade/luts/ad_warm_v06.cube
TITLE "ad_warm_v06"
LUT_3D_SIZE 5
DOMAIN_MIN 0.0 0.0 0.0
DOMAIN_MAX 1.0 1.0 1.0
0.020199 0.000000 0.000000
0.019411 0.000000 0.245333
0.018566 0.000000 0.509043
0.017729 0.000000 0.770162
0.016897 0.000000 1.000000
0.011708 0.259496 0.000000
0.010921 0.258709 0.236842
0.010076 0.257864 0.500552
0.009238 0.257026 0.761672
0.008406 0.256194 1.000000
0.003342 0.515405 0.000000
0.002554 0.514618 0.228476
0.001709 0.513773 0.492186
0.000872 0.512935 0.753306
0.000040 0.512103 1.000000
0.000000 0.768915 0.000000
0.000000 0.768128 0.220188
0.000000 0.767282 0.483898
0.000000 0.766445 0.745017
0.000000 0.765613 1.000000
0.000000 1.000000 0.000000
0.000000 1.000000 0.212207
0.000000 1.000000 0.475918
0.000000 1.000000 0.737037
0.000000 1.000000 0.996522
0.287283 0.000000 0.000000
0.286496 0.000000 0.242795
0.285651 0.000000 0.506505
0.284813 0.000000 0.767625
0.283981 0.000000 1.000000
0.278793 0.256959 0.000000
0.278006 0.256172 0.234305
0.277160 0.255326 0.498015
0.276323 0.254489 0.759135
0.275491 0.253657 1.000000
0.270427 0.512868 0.000000
0.269639 0.512081 0.225938
0.268794 0.511235 0.489648
0.267957 0.510398 0.750768
0.267125 0.509566 1.000000
0.262138 0.766377 0.000000
0.261351 0.765590 0.217650
0.260506 0.764745 0.481360
0.259668 0.763907 0.742480
0.258836 0.763075 1.000000
0.254158 1.000000 0.000000
0.253371 1.000000 0.209670
0.252526 1.000000 0.473380
0.251688 1.000000 0.734500
0.250856 1.000000 0.993984
0.548811 0.000000 0.000000
0.548024 0.000000 0.240311
0.547178 0.000000 0.504021
0.546341 0.000000 0.765141
0.545509 0.000000 1.000000
0.540321 0.254474 0.000000
0.539534 0.253687 0.231820
0.538688 0.252842 0.495530
0.537851 0.252004 0.756650
0.537019 0.251172 1.000000
0.531954 0.510383 0.000000
0.531167 0.509596 0.223454
0.530321 0.508751 0.487164
0.529484 0.507913 0.748284
0.528652 0.507081 1.000000
0.523666 0.763893 0.000000
0.522879 0.763106 0.215166
0.522033 0.762260 0.478876
0.521196 0.761423 0.739996
0.520364 0.760591 0.999480
0.515686 1.000000 0.000000
0.514899 1.000000 0.207186
0.514053 1.000000 0.470896
0.513216 1.000000 0.732015
0.512384 1.000000 0.991500
0.807992 0.000000 0.000000
0.807205 0.000000 0.237848
0.806360 0.000000 0.501558
0.805522 0.000000 0.762678
0.804690 0.000000 1.000000
0.799502 0.252012 0.000000
0.798715 0.251225 0.229358
0.797869 0.250379 0.493068
0.797032 0.249542 0.754188
0.796200 0.248710 1.000000
0.791135 0.507921 0.000000
0.790348 0.507134 0.220991
0.789503 0.506288 0.484702
0.788666 0.505451 0.745821
0.787834 0.504619 1.000000
0.782847 0.761430 0.000000
0.782060 0.760643 0.212703
0.781215 0.759798 0.476413
0.780377 0.758961 0.737533
0.779545 0.758129 0.997018
0.774867 1.000000 0.000000
0.774080 1.000000 0.204723
0.773235 1.000000 0.468433
0.772397 1.000000 0.729553
0.771565 1.000000 0.989038
1.000000 0.000000 0.000000
1.000000 0.000000 0.235678
1.000000 0.000000 0.499388
1.000000 0.000000 0.760508
1.000000 0.000000 1.000000
1.000000 0.249841 0.000000
1.000000 0.249054 0.227187
1.000000 0.248209 0.490898
1.000000 0.247372 0.752017
1.000000 0.246540 1.000000
1.000000 0.505750 0.000000
1.000000 0.504963 0.218821
1.000000 0.504118 0.482531
1.000000 0.503281 0.743651
1.000000 0.502449 1.000000
1.000000 0.759260 0.000000
1.000000 0.758473 0.210533
1.000000 0.757627 0.474243
1.000000 0.756790 0.735363
1.000000 0.755958 0.994847
1.000000 1.000000 0.000000
1.000000 1.000000 0.202553
1.000000 1.000000 0.466263
1.000000 1.000000 0.727383
1.000000 1.000000 0.986867
