skills/editops-orchestrator/assets/grade/luts/ad_warm_v16.cube
TITLE "ad_warm_v16"
LUT_3D_SIZE 5
DOMAIN_MIN 0.0 0.0 0.0
DOMAIN_MAX 1.0 1.0 1.0
0.042524 0.000000 0.000000
0.040962 0.000000 0.237885
0.039114 0.000000 0.520397
0.037302 0.000000 0.797372
0.035511 0.000000 1.000000
0.023969 0.268762 0.000000
0.022407 0.267200 0.219330
0.020559 0.265352 0.501841
0.018746 0.263540 0.778817
0.016956 0.261749 1.000000
0.005735 0.533685 0.000000
0.004173 0.532123 0.201096
0.002325 0.530274 0.483607
0.000512 0.528462 0.760583
0.000000 0.526672 1.000000
0.000000 0.793899 0.000000
0.000000 0.792337 0.183186
0.000000 0.790488 0.465697
0.000000 0.788676 0.742673
0.000000 0.786886 1.000000
0.000000 1.000000 0.000000
0.000000 1.000000 0.167118
0.000000 1.000000 0.449629
0.000000 1.000000 0.726605
0.000000 1.000000 1.000000
0.329315 0.000000 0.000000
0.327753 0.000000 0.232288
0.325904 0.000000 0.514800
0.324092 0.000000 0.791775
0.322302 0.000000 1.000000
0.310759 0.263165 0.000000
0.309197 0.261603 0.213733
0.307349 0.259755 0.496244
0.305536 0.257943 0.773220
0.303746 0.256152 1.000000
0.292525 0.528088 0.000000
0.290963 0.526526 0.195499
0.289115 0.524677 0.478010
0.287302 0.522865 0.754986
0.285512 0.521075 1.000000
0.274615 0.788302 0.000000
0.273053 0.786740 0.177589
0.271205 0.784891 0.460100
0.269392 0.783079 0.737076
0.267602 0.781289 1.000000
0.258547 1.000000 0.000000
0.256985 1.000000 0.161521
0.255137 1.000000 0.444032
0.253325 1.000000 0.721008
0.251534 1.000000 0.994601
0.606012 0.000000 0.000000
0.604450 0.000000 0.226888
0.602601 0.000000 0.509400
0.600789 0.000000 0.786375
0.598999 0.000000 1.000000
0.587456 0.257766 0.000000
0.585894 0.256204 0.208333
0.584046 0.254355 0.490844
0.582234 0.252543 0.767820
0.580443 0.250752 1.000000
0.569222 0.522688 0.000000
0.567660 0.521126 0.190099
0.565812 0.519277 0.472610
0.564000 0.517465 0.749586
0.562209 0.515675 1.000000
0.551313 0.782902 0.000000
0.549751 0.781340 0.172189
0.547902 0.779491 0.454700
0.546090 0.777679 0.731676
0.544299 0.775889 1.000000
0.535245 1.000000 0.000000
0.533683 1.000000 0.156121
0.531834 1.000000 0.438632
0.530022 1.000000 0.715608
0.528232 1.000000 0.989201
0.878206 0.000000 0.000000
0.876644 0.000000 0.221576
0.874795 0.000000 0.504088
0.872983 0.000000 0.781063
0.871193 0.000000 1.000000
0.859650 0.252453 0.000000
0.858088 0.250891 0.203021
0.856240 0.249043 0.485532
0.854427 0.247231 0.762508
0.852637 0.245440 1.000000
0.841416 0.517376 0.000000
0.839854 0.515814 0.184787
0.838006 0.513965 0.467298
0.836193 0.512153 0.744274
0.834403 0.510363 1.000000
0.823506 0.777590 0.000000
0.821944 0.776028 0.166877
0.820096 0.774179 0.449388
0.818284 0.772367 0.726364
0.816493 0.770577 0.999957
0.807439 1.000000 0.000000
0.805877 1.000000 0.150809
0.804028 1.000000 0.433320
0.802216 1.000000 0.710296
0.800425 1.000000 0.983889
1.000000 0.000000 0.000000
1.000000 0.000000 0.217679
1.000000 0.000000 0.500190
1.000000 0.000000 0.777166
1.000000 0.000000 1.000000
1.000000 0.248556 0.000000
1.000000 0.246994 0.199123
1.000000 0.245146 0.481635
1.000000 0.243333 0.758610
1.000000 0.241543 1.000000
1.000000 0.513479 0.000000
1.000000 0.511917 0.180889
1.000000 0.510068 0.463401
1.000000 0.508256 0.740376
1.000000 0.506465 1.000000
1.000000 0.773693 0.000000
1.000000 0.772131 0.162979
1.000000 0.770282 0.445491
1.000000 0.768470 0.722466
1.000000 0.766679 0.996060
1.000000 1.000000 0.000000
1.000000 1.000000 0.146912
1.000000 1.000000 0.429423
1.000000 1.000000 0.706399
1.000000 1.000000 0.979992
