skills/editops-orchestrator/assets/grade/luts/ad_warm_v10.cube
TITLE "ad_warm_v10"
LUT_3D_SIZE 9
DOMAIN_MIN 0.0 0.0 0.0
DOMAIN_MAX 1.0 1.0 1.0
0.028616 0.000000 0.000000
0.028135 0.000000 0.104520
0.027503 0.000000 0.242728
0.026879 0.000000 0.378893
0.026262 0.000000 0.513828
0.025648 0.000000 0.647880
0.025037 0.000000 0.781242
0.024429 0.000000 0.914039
0.023824 0.000000 1.000000
0.022395 0.131203 0.000000
0.021914 0.130723 0.098299
0.021282 0.130090 0.236507
0.020658 0.129467 0.372672
0.020041 0.128849 0.507607
0.019427 0.128236 0.641659
0.018816 0.127625 0.775021
0.018208 0.127017 0.907818
0.017603 0.126412 1.000000
0.016155 0.263197 0.000000
0.015674 0.262716 0.092059
0.015042 0.262084 0.230267
0.014418 0.261460 0.366432
0.013801 0.260843 0.501367
0.013187 0.260229 0.635419
0.012576 0.259618 0.768781
0.011968 0.259010 0.901578
0.011363 0.258405 1.000000
0.009995 0.393493 0.000000
0.009515 0.393013 0.085899
0.008882 0.392380 0.224108
0.008259 0.391757 0.360272
0.007641 0.391139 0.495207
0.007027 0.390526 0.629259
0.006417 0.389915 0.762621
0.005809 0.389307 0.895418
0.005203 0.388701 1.000000
0.003886 0.522709 0.000000
0.003406 0.522228 0.079791
0.002773 0.521596 0.217999
0.002150 0.520972 0.354164
0.001532 0.520355 0.489099
0.000919 0.519741 0.623150
0.000308 0.519131 0.756513
0.000000 0.518523 0.889310
0.000000 0.517917 1.000000
0.000000 0.651129 0.000000
0.000000 0.650648 0.073720
0.000000 0.650016 0.211928
0.000000 0.649392 0.348093
0.000000 0.648775 0.483028
0.000000 0.648161 0.617079
0.000000 0.647550 0.750442
0.000000 0.646942 0.883239
0.000000 0.646337 1.000000
0.000000 0.778919 0.000000
0.000000 0.778439 0.067678
0.000000 0.777806 0.205887
0.000000 0.777183 0.342052
0.000000 0.776565 0.476986
0.000000 0.775951 0.611038
0.000000 0.775341 0.744400
0.000000 0.774733 0.877197
0.000000 0.774127 1.000000
0.000000 0.906190 0.000000
0.000000 0.905709 0.061662
0.000000 0.905077 0.199870
0.000000 0.904453 0.336035
0.000000 0.903836 0.470970
0.000000 0.903222 0.605021
0.000000 0.902611 0.738384
0.000000 0.902003 0.871181
0.000000 0.901398 1.000000
0.000000 1.000000 0.000000
0.000000 1.000000 0.056338
0.000000 1.000000 0.194546
0.000000 1.000000 0.330711
0.000000 1.000000 0.465646
0.000000 1.000000 0.599698
0.000000 1.000000 0.733060
0.000000 1.000000 0.865857
0.000000 1.000000 0.998176
0.167766 0.000000 0.000000
0.167286 0.000000 0.102627
0.166653 0.000000 0.240836
0.166030 0.000000 0.377001
0.165412 0.000000 0.511936
0.164798 0.000000 0.645987
0.164188 0.000000 0.779349
0.163580 0.000000 0.912147
0.162974 0.000000 1.000000
0.161545 0.129311 0.000000
0.161065 0.128831 0.096406
0.160432 0.128198 0.234615
0.159809 0.127574 0.370780
0.159191 0.126957 0.505715
0.158577 0.126343 0.639766
0.157967 0.125733 0.773128
0.157359 0.125125 0.905926
0.156753 0.124519 1.000000
0.155305 0.261304 0.000000
0.154825 0.260824 0.090166
0.154192 0.260191 0.228375
0.153569 0.259568 0.364540
0.152951 0.258950 0.499475
0.152337 0.258336 0.633526
0.151727 0.257726 0.766888
0.151119 0.257118 0.899686
0.150513 0.256512 1.000000
0.149145 0.391601 0.000000
0.148665 0.391120 0.084007
0.148032 0.390488 0.222215
0.147409 0.389864 0.358380
0.146791 0.389247 0.493315
0.146178 0.388633 0.627366
0.145567 0.388023 0.760729
0.144959 0.387415 0.893526
0.144353 0.386809 1.000000
0.143037 0.520816 0.000000
0.142556 0.520336 0.077898
0.141924 0.519703 0.216106
0.141300 0.519080 0.352271
0.140683 0.518462 0.487206
0.140069 0.517848 0.621258
0.139458 0.517238 0.754620
0.138850 0.516630 0.887417
0.138245 0.516024 1.000000
0.136966 0.649236 0.000000
0.136485 0.648756 0.071827
0.135853 0.648123 0.210035
0.135229 0.647500 0.346200
0.134612 0.646882 0.481135
0.133998 0.646268 0.615187
0.133387 0.645658 0.748549
0.132779 0.645050 0.881346
0.132174 0.644444 1.000000
0.130924 0.777027 0.000000
0.130444 0.776546 0.065786
0.129811 0.775914 0.203994
0.129188 0.775290 0.340159
0.128570 0.774673 0.475094
0.127957 0.774059 0.609145
0.127346 0.773448 0.742508
0.126738 0.772840 0.875305
0.126132 0.772235 1.000000
0.124908 0.904297 0.000000
0.124427 0.903817 0.059769
0.123795 0.903184 0.197977
0.123171 0.902561 0.334142
0.122554 0.901943 0.469077
0.121940 0.901329 0.603129
0.121329 0.900719 0.736491
0.120721 0.900111 0.869288
0.120116 0.899505 1.000000
0.119584 1.000000 0.000000
0.119104 1.000000 0.054445
0.118471 1.000000 0.192654
0.117848 1.000000 0.328819
0.117230 1.000000 0.463754
0.116616 1.000000 0.597805
0.116006 1.000000 0.731167
0.115398 1.000000 0.863965
0.114792 1.000000 0.996283
0.303642 0.000000 0.000000
0.303162 0.000000 0.100779
0.302529 0.000000 0.238988
0.301906 0.000000 0.375153
0.301288 0.000000 0.510088
0.300675 0.000000 0.644139
0.300064 0.000000 0.777501
0.299456 0.000000 0.910299
0.298850 0.000000 1.000000
0.297421 0.127463 0.000000
0.296941 0.126982 0.094558
0.296308 0.126350 0.232767
0.295685 0.125726 0.368932
0.295067 0.125109 0.503867
0.294454 0.124495 0.637918
0.293843 0.123885 0.771280
0.293235 0.123277 0.904077
0.292629 0.122671 1.000000
0.291181 0.259456 0.000000
0.290701 0.258976 0.088318
0.290068 0.258343 0.226527
0.289445 0.257720 0.362692
0.288827 0.257102 0.497627
0.288214 0.256488 0.631678
0.287603 0.255878 0.765040
0.286995 0.255270 0.897838
0.286389 0.254664 1.000000
0.285022 0.389753 0.000000
0.284541 0.389272 0.082159
0.283909 0.388640 0.220367
0.283285 0.388016 0.356532
0.282668 0.387399 0.491467
0.282054 0.386785 0.625518
0.281443 0.386174 0.758881
0.280835 0.385567 0.891678
0.280230 0.384961 1.000000
0.278913 0.518968 0.000000
0.278433 0.518488 0.076050
0.277800 0.517855 0.214258
0.277177 0.517232 0.350423
0.276559 0.516614 0.485358
0.275945 0.516000 0.619410
0.275335 0.515390 0.752772
0.274727 0.514782 0.885569
0.274121 0.514176 1.000000
0.272842 0.647388 0.000000
0.272362 0.646908 0.069979
0.271729 0.646275 0.208187
0.271106 0.645652 0.344352
0.270488 0.645034 0.479287
0.269874 0.644420 0.613339
0.269264 0.643810 0.746701
0.268656 0.643202 0.879498
0.268050 0.642596 1.000000
0.266801 0.775178 0.000000
0.266320 0.774698 0.063938
0.265688 0.774066 0.202146
0.265064 0.773442 0.338311
0.264447 0.772824 0.473246
0.263833 0.772211 0.607297
0.263222 0.771600 0.740660
0.262614 0.770992 0.873457
0.262009 0.770387 1.000000
0.260784 0.902449 0.000000
0.260304 0.901969 0.057921
0.259671 0.901336 0.196129
0.259048 0.900713 0.332294
0.258430 0.900095 0.467229
0.257816 0.899481 0.601281
0.257206 0.898871 0.734643
0.256598 0.898263 0.867440
0.255992 0.897657 0.999759
0.255460 1.000000 0.000000
0.254980 1.000000 0.052597
0.254347 1.000000 0.190806
0.253724 1.000000 0.326971
0.253106 1.000000 0.461906
0.252493 1.000000 0.595957
0.251882 1.000000 0.729319
0.251274 1.000000 0.862117
0.250669 1.000000 0.994435
0.437971 0.000000 0.000000
0.437491 0.000000 0.098952
0.436858 0.000000 0.237161
0.436235 0.000000 0.373326
0.435617 0.000000 0.508261
0.435004 0.000000 0.642312
0.434393 0.000000 0.775674
0.433785 0.000000 0.908471
0.433180 0.000000 1.000000
0.431750 0.125636 0.000000
0.431270 0.125155 0.092731
0.430637 0.124523 0.230940
0.430014 0.123899 0.367105
0.429396 0.123282 0.502039
0.428783 0.122668 0.636091
0.428172 0.122058 0.769453
0.427564 0.121450 0.902250
0.426959 0.120844 1.000000
0.425510 0.257629 0.000000
0.425030 0.257149 0.086491
0.424397 0.256516 0.224700
0.423774 0.255893 0.360865
0.423156 0.255275 0.495800
0.422543 0.254661 0.629851
0.421932 0.254051 0.763213
0.421324 0.253443 0.896011
0.420719 0.252837 1.000000
0.419351 0.387926 0.000000
0.418870 0.387445 0.080332
0.418238 0.386813 0.218540
0.417614 0.386189 0.354705
0.416997 0.385572 0.489640
0.416383 0.384958 0.623691
0.415772 0.384347 0.757054
0.415165 0.383740 0.889851
0.414559 0.383134 1.000000
0.413242 0.517141 0.000000
0.412762 0.516661 0.074223
0.412129 0.516028 0.212431
0.411506 0.515405 0.348596
0.410888 0.514787 0.483531
0.410274 0.514173 0.617583
0.409664 0.513563 0.750945
0.409056 0.512955 0.883742
0.408450 0.512349 1.000000
0.407171 0.645561 0.000000
0.406691 0.645081 0.068152
0.406058 0.644448 0.206360
0.405435 0.643825 0.342525
0.404817 0.643207 0.477460
0.404203 0.642593 0.611512
0.403593 0.641983 0.744874
0.402985 0.641375 0.877671
0.402379 0.640769 1.000000
0.401130 0.773351 0.000000
0.400649 0.772871 0.062111
0.400017 0.772239 0.200319
0.399393 0.771615 0.336484
0.398776 0.770997 0.471419
0.398162 0.770384 0.605470
0.397552 0.769773 0.738833
0.396944 0.769165 0.871630
0.396338 0.768560 1.000000
0.395113 0.900622 0.000000
0.394633 0.900142 0.056094
0.394000 0.899509 0.194302
0.393377 0.898886 0.330467
0.392759 0.898268 0.465402
0.392145 0.897654 0.599454
0.391535 0.897044 0.732816
0.390927 0.896436 0.865613
0.390321 0.895830 0.997932
0.389790 1.000000 0.000000
0.389309 1.000000 0.050770
0.388677 1.000000 0.188979
0.388053 1.000000 0.325144
0.387435 1.000000 0.460079
0.386822 1.000000 0.594130
0.386211 1.000000 0.727492
0.385603 1.000000 0.860290
0.384998 1.000000 0.992608
0.571269 0.000000 0.000000
0.570789 0.000000 0.097139
0.570156 0.000000 0.235348
0.569533 0.000000 0.371513
0.568915 0.000000 0.506448
0.568301 0.000000 0.640499
0.567691 0.000000 0.773861
0.567083 0.000000 0.906659
0.566477 0.000000 1.000000
0.565048 0.123823 0.000000
0.564568 0.123342 0.090918
0.563935 0.122710 0.229127
0.563312 0.122086 0.365292
0.562694 0.121469 0.500227
0.562080 0.120855 0.634278
0.561470 0.120245 0.767640
0.560862 0.119637 0.900437
0.560256 0.119031 1.000000
0.558808 0.255816 0.000000
0.558328 0.255336 0.084678
0.557695 0.254703 0.222887
0.557072 0.254080 0.359052
0.556454 0.253462 0.493987
0.555840 0.252848 0.628038
0.555230 0.252238 0.761400
0.554622 0.251630 0.894198
0.554016 0.251024 1.000000
0.552648 0.386113 0.000000
0.552168 0.385632 0.078519
0.551535 0.385000 0.216727
0.550912 0.384376 0.352892
0.550294 0.383759 0.487827
0.549681 0.383145 0.621878
0.549070 0.382534 0.755241
0.548462 0.381927 0.888038
0.547856 0.381321 1.000000
0.546540 0.515328 0.000000
0.546059 0.514848 0.072410
0.545427 0.514215 0.210618
0.544803 0.513592 0.346783
0.544186 0.512974 0.481718
0.543572 0.512360 0.615770
0.542962 0.511750 0.749132
0.542354 0.511142 0.881929
0.541748 0.510536 1.000000
0.540469 0.643748 0.000000
0.539988 0.643268 0.066339
0.539356 0.642635 0.204547
0.538732 0.642012 0.340712
0.538115 0.641394 0.475647
0.537501 0.640780 0.609699
0.536890 0.640170 0.743061
0.536283 0.639562 0.875858
0.535677 0.638956 1.000000
0.534427 0.771538 0.000000
0.533947 0.771058 0.060298
0.533314 0.770426 0.198506
0.532691 0.769802 0.334671
0.532073 0.769184 0.469606
0.531460 0.768571 0.603657
0.530849 0.767960 0.737020
0.530241 0.767352 0.869817
0.529636 0.766747 1.000000
0.528411 0.898809 0.000000
0.527930 0.898329 0.054281
0.527298 0.897696 0.192489
0.526674 0.897073 0.328654
0.526057 0.896455 0.463589
0.525443 0.895841 0.597641
0.524833 0.895231 0.731003
0.524225 0.894623 0.863800
0.523619 0.894017 0.996119
0.523087 1.000000 0.000000
0.522607 1.000000 0.048957
0.521974 1.000000 0.187166
0.521351 1.000000 0.323331
0.520733 1.000000 0.458266
0.520120 1.000000 0.592317
0.519509 1.000000 0.725679
0.518901 1.000000 0.858477
0.518295 1.000000 0.990795
0.703792 0.000000 0.000000
0.703312 0.000000 0.095337
0.702679 0.000000 0.233545
0.702056 0.000000 0.369710
0.701438 0.000000 0.504645
0.700825 0.000000 0.638697
0.700214 0.000000 0.772059
0.699606 0.000000 0.904856
0.699000 0.000000 1.000000
0.697571 0.122020 0.000000
0.697091 0.121540 0.089116
0.696458 0.120907 0.227324
0.695835 0.120284 0.363489
0.695217 0.119666 0.498424
0.694604 0.119053 0.632476
0.693993 0.118442 0.765838
0.693385 0.117834 0.898635
0.692779 0.117228 1.000000
0.691331 0.254013 0.000000
0.690851 0.253533 0.082876
0.690218 0.252901 0.221084
0.689595 0.252277 0.357249
0.688977 0.251659 0.492184
0.688364 0.251046 0.626236
0.687753 0.250435 0.759598
0.687145 0.249827 0.892395
0.686539 0.249222 1.000000
0.685171 0.384310 0.000000
0.684691 0.383830 0.076716
0.684059 0.383197 0.214924
0.683435 0.382574 0.351089
0.682817 0.381956 0.486024
0.682204 0.381343 0.620076
0.681593 0.380732 0.753438
0.680985 0.380124 0.886235
0.680380 0.379518 1.000000
0.679063 0.513526 0.000000
0.678583 0.513045 0.070607
0.677950 0.512413 0.208816
0.677327 0.511789 0.344981
0.676709 0.511172 0.479916
0.676095 0.510558 0.613967
0.675485 0.509947 0.747329
0.674877 0.509339 0.880127
0.674271 0.508734 1.000000
0.672992 0.641945 0.000000
0.672512 0.641465 0.064536
0.671879 0.640832 0.202745
0.671256 0.640209 0.338910
0.670638 0.639591 0.473845
0.670024 0.638978 0.607896
0.669414 0.638367 0.741258
0.668806 0.637759 0.874056
0.668200 0.637154 1.000000
0.666951 0.769736 0.000000
0.666470 0.769256 0.058495
0.665838 0.768623 0.196703
0.665214 0.768000 0.332868
0.664597 0.767382 0.467803
0.663983 0.766768 0.601855
0.663372 0.766158 0.735217
0.662764 0.765550 0.868014
0.662159 0.764944 1.000000
0.660934 0.897006 0.000000
0.660454 0.896526 0.052478
0.659821 0.895893 0.190687
0.659198 0.895270 0.326852
0.658580 0.894652 0.461787
0.657966 0.894039 0.595838
0.657356 0.893428 0.729200
0.656748 0.892820 0.861998
0.656142 0.892215 0.994316
0.655610 1.000000 0.000000
0.655130 1.000000 0.047155
0.654497 1.000000 0.185363
0.653874 1.000000 0.321528
0.653256 1.000000 0.456463
0.652643 1.000000 0.590515
0.652032 1.000000 0.723877
0.651424 1.000000 0.856674
0.650818 1.000000 0.988993
0.835695 0.000000 0.000000
0.835215 0.000000 0.093543
0.834582 0.000000 0.231751
0.833959 0.000000 0.367916
0.833341 0.000000 0.502851
0.832728 0.000000 0.636903
0.832117 0.000000 0.770265
0.831509 0.000000 0.903062
0.830903 0.000000 1.000000
0.829474 0.120226 0.000000
0.828994 0.119746 0.087322
0.828361 0.119113 0.225530
0.827738 0.118490 0.361695
0.827120 0.117872 0.496630
0.826507 0.117259 0.630682
0.825896 0.116648 0.764044
0.825288 0.116040 0.896841
0.824682 0.115434 1.000000
0.823234 0.252219 0.000000
0.822754 0.251739 0.081082
0.822121 0.251106 0.219290
0.821498 0.250483 0.355455
0.820880 0.249865 0.490390
0.820267 0.249252 0.624442
0.819656 0.248641 0.757804
0.819048 0.248033 0.890601
0.818442 0.247428 1.000000
0.817075 0.382516 0.000000
0.816594 0.382036 0.074922
0.815962 0.381403 0.213130
0.815338 0.380780 0.349295
0.814721 0.380162 0.484230
0.814107 0.379549 0.618282
0.813496 0.378938 0.751644
0.812888 0.378330 0.884441
0.812283 0.377724 1.000000
0.810966 0.511732 0.000000
0.810486 0.511251 0.068813
0.809853 0.510619 0.207022
0.809230 0.509995 0.343187
0.808612 0.509378 0.478122
0.807998 0.508764 0.612173
0.807388 0.508153 0.745535
0.806780 0.507545 0.878333
0.806174 0.506940 1.000000
0.804895 0.640151 0.000000
0.804415 0.639671 0.062742
0.803782 0.639038 0.200951
0.803159 0.638415 0.337116
0.802541 0.637797 0.472051
0.801927 0.637184 0.606102
0.801317 0.636573 0.739464
0.800709 0.635965 0.872262
0.800103 0.635360 1.000000
0.798854 0.767942 0.000000
0.798373 0.767462 0.056701
0.797741 0.766829 0.194909
0.797117 0.766206 0.331074
0.796500 0.765588 0.466009
0.795886 0.764974 0.600061
0.795275 0.764364 0.733423
0.794667 0.763756 0.866220
0.794062 0.763150 0.998539
0.792837 0.895212 0.000000
0.792357 0.894732 0.050684
0.791724 0.894099 0.188893
0.791101 0.893476 0.325058
0.790483 0.892858 0.459993
0.789869 0.892245 0.594044
0.789259 0.891634 0.727406
0.788651 0.891026 0.860204
0.788045 0.890421 0.992522
0.787513 1.000000 0.000000
0.787033 1.000000 0.045361
0.786400 1.000000 0.183569
0.785777 1.000000 0.319734
0.785159 1.000000 0.454669
0.784546 1.000000 0.588721
0.783935 1.000000 0.722083
0.783327 1.000000 0.854880
0.782722 1.000000 0.987199
0.967082 0.000000 0.000000
0.966601 0.000000 0.091756
0.965969 0.000000 0.229964
0.965345 0.000000 0.366129
0.964728 0.000000 0.501064
0.964114 0.000000 0.635116
0.963503 0.000000 0.768478
0.962895 0.000000 0.901275
0.962290 0.000000 1.000000
0.960861 0.118439 0.000000
0.960380 0.117959 0.085535
0.959748 0.117326 0.223743
0.959124 0.116703 0.359908
0.958507 0.116085 0.494843
0.957893 0.115472 0.628895
0.957282 0.114861 0.762257
0.956674 0.114253 0.895054
0.956069 0.113647 1.000000
0.954621 0.250432 0.000000
0.954140 0.249952 0.079295
0.953508 0.249320 0.217503
0.952884 0.248696 0.353668
0.952267 0.248078 0.488603
0.951653 0.247465 0.622655
0.951042 0.246854 0.756017
0.950435 0.246246 0.888814
0.949829 0.245641 1.000000
0.948461 0.380729 0.000000
0.947981 0.380249 0.073135
0.947348 0.379616 0.211343
0.946725 0.378993 0.347508
0.946107 0.378375 0.482443
0.945493 0.377762 0.616495
0.944883 0.377151 0.749857
0.944275 0.376543 0.882654
0.943669 0.375937 1.000000
0.942352 0.509945 0.000000
0.941872 0.509464 0.067026
0.941239 0.508832 0.205235
0.940616 0.508208 0.341400
0.939998 0.507591 0.476335
0.939385 0.506977 0.610386
0.938774 0.506366 0.743748
0.938166 0.505758 0.876546
0.937560 0.505153 1.000000
0.936281 0.638364 0.000000
0.935801 0.637884 0.060955
0.935168 0.637251 0.199164
0.934545 0.636628 0.335329
0.933927 0.636010 0.470264
0.933314 0.635397 0.604315
0.932703 0.634786 0.737677
0.932095 0.634178 0.870475
0.931489 0.633573 1.000000
0.930240 0.766155 0.000000
0.929760 0.765675 0.054914
0.929127 0.765042 0.193122
0.928504 0.764419 0.329287
0.927886 0.763801 0.464222
0.927272 0.763187 0.598274
0.926662 0.762577 0.731636
0.926054 0.761969 0.864433
0.925448 0.761363 0.996752
0.924223 0.893425 0.000000
0.923743 0.892945 0.048897
0.923110 0.892312 0.187106
0.922487 0.891689 0.323271
0.921869 0.891071 0.458206
0.921256 0.890458 0.592257
0.920645 0.889847 0.725619
0.920037 0.889239 0.858417
0.919431 0.888634 0.990735
0.918900 1.000000 0.000000
0.918419 1.000000 0.043574
0.917787 1.000000 0.181782
0.917163 1.000000 0.317947
0.916546 1.000000 0.452882
0.915932 1.000000 0.586934
0.915322 1.000000 0.720296
0.914714 1.000000 0.853093
0.914108 1.000000 0.985412
1.000000 0.000000 0.000000
1.000000 0.000000 0.090587
1.000000 0.000000 0.228795
1.000000 0.000000 0.364960
1.000000 0.000000 0.499895
1.000000 0.000000 0.633946
1.000000 0.000000 0.767309
1.000000 0.000000 0.900106
1.000000 0.000000 1.000000
1.000000 0.117270 0.000000
1.000000 0.116790 0.084366
1.000000 0.116157 0.222574
1.000000 0.115534 0.358739
1.000000 0.114916 0.493674
1.000000 0.114302 0.627725
1.000000 0.113692 0.761088
1.000000 0.113084 0.893885
1.000000 0.112478 1.000000
1.000000 0.249263 0.000000
1.000000 0.248783 0.078126
1.000000 0.248150 0.216334
1.000000 0.247527 0.352499
1.000000 0.246909 0.487434
1.000000 0.246296 0.621485
1.000000 0.245685 0.754848
1.000000 0.245077 0.887645
1.000000 0.244471 1.000000
1.000000 0.379560 0.000000
1.000000 0.379080 0.071966
1.000000 0.378447 0.210174
1.000000 0.377824 0.346339
1.000000 0.377206 0.481274
1.000000 0.376592 0.615326
1.000000 0.375982 0.748688
1.000000 0.375374 0.881485
1.000000 0.374768 1.000000
1.000000 0.508775 0.000000
1.000000 0.508295 0.065857
1.000000 0.507662 0.204066
1.000000 0.507039 0.340231
1.000000 0.506421 0.475165
1.000000 0.505808 0.609217
1.000000 0.505197 0.742579
1.000000 0.504589 0.875376
1.000000 0.503984 1.000000
1.000000 0.637195 0.000000
1.000000 0.636715 0.059786
1.000000 0.636082 0.197995
1.000000 0.635459 0.334159
1.000000 0.634841 0.469094
1.000000 0.634228 0.603146
1.000000 0.633617 0.736508
1.000000 0.633009 0.869305
1.000000 0.632403 1.000000
1.000000 0.764986 0.000000
1.000000 0.764506 0.053745
1.000000 0.763873 0.191953
1.000000 0.763250 0.328118
1.000000 0.762632 0.463053
1.000000 0.762018 0.597105
1.000000 0.761408 0.730467
1.000000 0.760800 0.863264
1.000000 0.760194 0.995583
1.000000 0.892256 0.000000
1.000000 0.891776 0.047728
1.000000 0.891143 0.185937
1.000000 0.890520 0.322102
1.000000 0.889902 0.457036
1.000000 0.889289 0.591088
1.000000 0.888678 0.724450
1.000000 0.888070 0.857247
1.000000 0.887464 0.989566
1.000000 1.000000 0.000000
1.000000 1.000000 0.042405
1.000000 1.000000 0.180613
1.000000 1.000000 0.316778
1.000000 1.000000 0.451713
1.000000 1.000000 0.585765
1.000000 1.000000 0.719127
1.000000 1.000000 0.851924
1.000000 1.000000 0.984243
