skills/editops-orchestrator/assets/grade/luts/ad_warm_v18.cube
TITLE "ad_warm_v18"
LUT_3D_SIZE 17
DOMAIN_MIN 0.0 0.0 0.0
DOMAIN_MAX 1.0 1.0 1.0
0.047505 0.000000 0.000000
0.047424 0.000000 0.010373
0.046867 0.000000 0.088026
0.046331 0.000000 0.162682
0.045805 0.000000 0.236010
0.045285 0.000000 0.308464
0.044770 0.000000 0.380270
0.044258 0.000000 0.451558
0.043750 0.000000 0.522418
0.043244 0.000000 0.592912
0.042740 0.000000 0.663086
0.042239 0.000000 0.732977
0.041739 0.000000 0.802614
0.041241 0.000000 0.872021
0.040745 0.000000 0.941217
0.040250 0.000000 1.000000
0.039756 0.000000 1.000000
0.042620 0.063319 0.000000
0.042539 0.063237 0.005488
0.041982 0.062680 0.083141
0.041446 0.062144 0.157797
0.040920 0.061618 0.231125
0.040400 0.061098 0.303579
0.039885 0.060583 0.375385
0.039373 0.060072 0.446673
0.038865 0.059563 0.517533
0.038359 0.059057 0.588027
0.037855 0.058554 0.658201
0.037354 0.058052 0.728092
0.036854 0.057553 0.797730
0.036356 0.057055 0.867136
0.035860 0.056558 0.936332
0.035365 0.056063 1.000000
0.034871 0.055569 1.000000
0.037278 0.133686 0.000000
0.037196 0.133604 0.000145
0.036639 0.133047 0.077798
0.036103 0.132511 0.152455
0.035577 0.131985 0.225782
0.035057 0.131465 0.298236
0.034542 0.130950 0.370042
0.034030 0.130439 0.441331
0.033522 0.129930 0.512190
0.033016 0.129424 0.582684
0.032513 0.128921 0.652858
0.032011 0.128419 0.722750
0.031511 0.127920 0.792387
0.031013 0.127422 0.861793
0.030517 0.126925 0.930990
0.030022 0.126430 0.999992
0.029528 0.125936 1.000000
0.032045 0.202603 0.000000
0.031963 0.202521 0.000000
0.031406 0.201964 0.072565
0.030870 0.201428 0.147222
0.030344 0.200902 0.220549
0.029824 0.200382 0.293004
0.029309 0.199867 0.364809
0.028798 0.199355 0.436098
0.028289 0.198847 0.506958
0.027783 0.198341 0.577451
0.027280 0.197837 0.647626
0.026778 0.197336 0.717517
0.026279 0.196836 0.787154
0.025781 0.196338 0.856561
0.025284 0.195842 0.925757
0.024789 0.195347 0.994759
0.024295 0.194853 1.000000
0.026880 0.270620 0.000000
0.026799 0.270538 0.000000
0.026242 0.269981 0.067401
0.025706 0.269445 0.142057
0.025180 0.268919 0.215385
0.024660 0.268399 0.287839
0.024145 0.267884 0.359645
0.023633 0.267373 0.430933
0.023125 0.266864 0.501793
0.022619 0.266358 0.572287
0.022115 0.265855 0.642461
0.021614 0.265353 0.712352
0.021114 0.264854 0.781990
0.020616 0.264356 0.851396
0.020120 0.263859 0.920592
0.019625 0.263364 0.989595
0.019131 0.262870 1.000000
0.021766 0.337985 0.000000
0.021684 0.337903 0.000000
0.021127 0.337346 0.062286
0.020591 0.336810 0.136943
0.020065 0.336284 0.210270
0.019545 0.335764 0.282724
0.019030 0.335249 0.354530
0.018518 0.334738 0.425819
0.018010 0.334229 0.496678
0.017504 0.333723 0.567172
0.017000 0.333220 0.637346
0.016499 0.332718 0.707237
0.015999 0.332219 0.776875
0.015501 0.331721 0.846281
0.015005 0.331224 0.915478
0.014510 0.330729 0.984480
0.014016 0.330235 1.000000
0.016690 0.404838 0.000000
0.016608 0.404756 0.000000
0.016051 0.404199 0.057210
0.015515 0.403664 0.131867
0.014989 0.403137 0.205194
0.014469 0.402618 0.277648
0.013954 0.402102 0.349454
0.013442 0.401591 0.420743
0.012934 0.401082 0.491602
0.012428 0.400577 0.562096
0.011924 0.400073 0.632270
0.011423 0.399572 0.702161
0.010923 0.399072 0.771799
0.010425 0.398574 0.841205
0.009929 0.398077 0.910401
0.009434 0.397582 0.979404
0.008940 0.397088 1.000000
0.011645 0.471271 0.000000
0.011564 0.471189 0.000000
0.011007 0.470632 0.052166
0.010471 0.470096 0.126822
0.009945 0.469570 0.200149
0.009425 0.469050 0.272604
0.008910 0.468535 0.344410
0.008398 0.468023 0.415698
0.007890 0.467515 0.486558
0.007384 0.467009 0.557052
0.006880 0.466506 0.627226
0.006379 0.466004 0.697117
0.005879 0.465505 0.766754
0.005381 0.465007 0.836161
0.004885 0.464510 0.905357
0.004390 0.464015 0.974359
0.003896 0.463521 1.000000
0.006628 0.537347 0.000000
0.006547 0.537265 0.000000
0.005989 0.536708 0.047149
0.005454 0.536172 0.121805
0.004928 0.535646 0.195132
0.004408 0.535126 0.267587
0.003893 0.534611 0.339393
0.003381 0.534099 0.410681
0.002873 0.533591 0.481541
0.002367 0.533085 0.552035
0.001863 0.532582 0.622209
0.001362 0.532080 0.692100
0.000862 0.531580 0.761737
0.000364 0.531082 0.831144
0.000000 0.530586 0.900340
0.000000 0.530091 0.969342
0.000000 0.529597 1.000000
0.001635 0.603113 0.000000
0.001553 0.603031 0.000000
0.000996 0.602474 0.042155
0.000460 0.601938 0.116812
0.000000 0.601412 0.190139
0.000000 0.600892 0.262594
0.000000 0.600377 0.334399
0.000000 0.599866 0.405688
0.000000 0.599357 0.476548
0.000000 0.598851 0.547041
0.000000 0.598348 0.617216
0.000000 0.597846 0.687107
0.000000 0.597347 0.756744
0.000000 0.596849 0.826151
0.000000 0.596352 0.895347
0.000000 0.595857 0.964349
0.000000 0.595363 1.000000
0.000000 0.668606 0.000000
0.000000 0.668524 0.000000
0.000000 0.667967 0.037182
0.000000 0.667431 0.111839
0.000000 0.666905 0.185166
0.000000 0.666385 0.257621
0.000000 0.665870 0.329426
0.000000 0.665359 0.400715
0.000000 0.664850 0.471575
0.000000 0.664344 0.542069
0.000000 0.663841 0.612243
0.000000 0.663339 0.682134
0.000000 0.662840 0.751771
0.000000 0.662342 0.821178
0.000000 0.661845 0.890374
0.000000 0.661350 0.959376
0.000000 0.660856 1.000000
0.000000 0.733854 0.000000
0.000000 0.733773 0.000000
0.000000 0.733216 0.032228
0.000000 0.732680 0.106885
0.000000 0.732154 0.180212
0.000000 0.731634 0.252667
0.000000 0.731119 0.324472
0.000000 0.730607 0.395761
0.000000 0.730099 0.466621
0.000000 0.729593 0.537114
0.000000 0.729089 0.607289
0.000000 0.728588 0.677180
0.000000 0.728088 0.746817
0.000000 0.727590 0.816224
0.000000 0.727094 0.885420
0.000000 0.726599 0.954422
0.000000 0.726105 1.000000
0.000000 0.798882 0.000000
0.000000 0.798800 0.000000
0.000000 0.798243 0.027291
0.000000 0.797707 0.101947
0.000000 0.797181 0.175275
0.000000 0.796661 0.247729
0.000000 0.796146 0.319535
0.000000 0.795634 0.390823
0.000000 0.795126 0.461683
0.000000 0.794620 0.532177
0.000000 0.794117 0.602351
0.000000 0.793615 0.672242
0.000000 0.793115 0.741879
0.000000 0.792617 0.811286
0.000000 0.792121 0.880482
0.000000 0.791626 0.949485
0.000000 0.791132 1.000000
0.000000 0.863707 0.000000
0.000000 0.863626 0.000000
0.000000 0.863068 0.022369
0.000000 0.862533 0.097025
0.000000 0.862007 0.170352
0.000000 0.861487 0.242807
0.000000 0.860971 0.314613
0.000000 0.860460 0.385901
0.000000 0.859951 0.456761
0.000000 0.859446 0.527255
0.000000 0.858942 0.597429
0.000000 0.858441 0.667320
0.000000 0.857941 0.736957
0.000000 0.857443 0.806364
0.000000 0.856946 0.875560
0.000000 0.856451 0.944562
0.000000 0.855958 1.000000
0.000000 0.928347 0.000000
0.000000 0.928265 0.000000
0.000000 0.927708 0.017461
0.000000 0.927173 0.092117
0.000000 0.926646 0.165444
0.000000 0.926127 0.237899
0.000000 0.925611 0.309705
0.000000 0.925100 0.380993
0.000000 0.924591 0.451853
0.000000 0.924086 0.522347
0.000000 0.923582 0.592521
0.000000 0.923081 0.662412
0.000000 0.922581 0.732049
0.000000 0.922083 0.801456
0.000000 0.921586 0.870652
0.000000 0.921091 0.939654
0.000000 0.920598 1.000000
0.000000 0.992815 0.000000
0.000000 0.992734 0.000000
0.000000 0.992177 0.012566
0.000000 0.991641 0.087222
0.000000 0.991115 0.160549
0.000000 0.990595 0.233004
0.000000 0.990080 0.304810
0.000000 0.989568 0.376098
0.000000 0.989060 0.446958
0.000000 0.988554 0.517452
0.000000 0.988050 0.587626
0.000000 0.987549 0.657517
0.000000 0.987049 0.727154
0.000000 0.986551 0.796561
0.000000 0.986055 0.865757
0.000000 0.985560 0.934759
0.000000 0.985066 1.000000
0.000000 1.000000 0.000000
0.000000 1.000000 0.000000
0.000000 1.000000 0.009730
0.000000 1.000000 0.084387
0.000000 1.000000 0.157714
0.000000 1.000000 0.230169
0.000000 1.000000 0.301974
0.000000 1.000000 0.373263
0.000000 1.000000 0.444123
0.000000 1.000000 0.514616
0.000000 1.000000 0.584791
0.000000 1.000000 0.654682
0.000000 1.000000 0.724319
0.000000 1.000000 0.793726
0.000000 1.000000 0.862922
0.000000 1.000000 0.931924
0.000000 1.000000 1.000000
0.122263 0.000000 0.000000
0.122181 0.000000 0.008771
0.121624 0.000000 0.086424
0.121088 0.000000 0.161081
0.120562 0.000000 0.234408
0.120042 0.000000 0.306862
0.119527 0.000000 0.378668
0.119016 0.000000 0.449957
0.118507 0.000000 0.520816
0.118001 0.000000 0.591310
0.117498 0.000000 0.661484
0.116996 0.000000 0.731376
0.116497 0.000000 0.801013
0.115999 0.000000 0.870419
0.115502 0.000000 0.939616
0.115007 0.000000 1.000000
0.114513 0.000000 1.000000
0.117378 0.061717 0.000000
0.117296 0.061635 0.003886
0.116739 0.061078 0.081539
0.116203 0.060543 0.156196
0.115677 0.060016 0.229523
0.115157 0.059496 0.301978
0.114642 0.058981 0.373783
0.114131 0.058470 0.445072
0.113622 0.057961 0.515931
0.113116 0.057456 0.586425
0.112613 0.056952 0.656599
0.112111 0.056451 0.726491
0.111612 0.055951 0.796128
0.111114 0.055453 0.865534
0.110617 0.054956 0.934731
0.110122 0.054461 1.000000
0.109628 0.053967 1.000000
0.112035 0.132084 0.000000
0.111953 0.132002 0.000000
0.111396 0.131445 0.076196
0.110861 0.130910 0.150853
0.110334 0.130383 0.224180
0.109815 0.129864 0.296635
0.109299 0.129348 0.368440
0.108788 0.128837 0.439729
0.108279 0.128328 0.510589
0.107774 0.127823 0.581082
0.107270 0.127319 0.651256
0.106769 0.126818 0.721148
0.106269 0.126318 0.790785
0.105771 0.125820 0.860192
0.105274 0.125323 0.929388
0.104779 0.124828 0.998390
0.104285 0.124335 1.000000
0.106802 0.201001 0.000000
0.106721 0.200919 0.000000
0.106164 0.200362 0.070963
0.105628 0.199826 0.145620
0.105102 0.199300 0.218947
0.104582 0.198780 0.291402
0.104067 0.198265 0.363207
0.103555 0.197753 0.434496
0.103047 0.197245 0.505356
0.102541 0.196739 0.575850
0.102037 0.196236 0.646024
0.101536 0.195734 0.715915
0.101036 0.195234 0.785552
0.100538 0.194736 0.854959
0.100042 0.194240 0.924155
0.099547 0.193745 0.993157
0.099053 0.193251 1.000000
0.101638 0.269018 0.000000
0.101556 0.268936 0.000000
0.100999 0.268379 0.065799
0.100463 0.267844 0.140456
0.099937 0.267317 0.213783
0.099417 0.266798 0.286238
0.098902 0.266282 0.358043
0.098391 0.265771 0.429332
0.097882 0.265262 0.500191
0.097376 0.264757 0.570685
0.096873 0.264253 0.640859
0.096371 0.263752 0.710751
0.095872 0.263252 0.780388
0.095374 0.262754 0.849794
0.094877 0.262257 0.918991
0.094382 0.261762 0.987993
0.093888 0.261268 1.000000
0.096523 0.336383 0.000000
0.096441 0.336301 0.000000
0.095884 0.335744 0.060684
0.095349 0.335208 0.135341
0.094822 0.334682 0.208668
0.094302 0.334162 0.281123
0.093787 0.333647 0.352928
0.093276 0.333136 0.424217
0.092767 0.332627 0.495077
0.092262 0.332121 0.565570
0.091758 0.331618 0.635744
0.091257 0.331116 0.705636
0.090757 0.330617 0.775273
0.090259 0.330119 0.844680
0.089762 0.329622 0.913876
0.089267 0.329127 0.982878
0.088773 0.328633 1.000000
0.091447 0.403236 0.000000
0.091365 0.403155 0.000000
0.090808 0.402597 0.055608
0.090272 0.402062 0.130265
0.089746 0.401536 0.203592
0.089226 0.401016 0.276047
0.088711 0.400500 0.347852
0.088200 0.399989 0.419141
0.087691 0.399481 0.490001
0.087185 0.398975 0.560494
0.086682 0.398471 0.630668
0.086180 0.397970 0.700560
0.085681 0.397470 0.770197
0.085183 0.396972 0.839603
0.084686 0.396476 0.908800
0.084191 0.395980 0.977802
0.083697 0.395487 1.000000
0.086403 0.469669 0.000000
0.086321 0.469587 0.000000
0.085764 0.469030 0.050564
0.085228 0.468494 0.125221
0.084702 0.467968 0.198548
0.084182 0.467448 0.271002
0.083667 0.466933 0.342808
0.083156 0.466422 0.414097
0.082647 0.465913 0.484956
0.082141 0.465407 0.555450
0.081638 0.464904 0.625624
0.081136 0.464402 0.695515
0.080637 0.463903 0.765153
0.080139 0.463405 0.834559
0.079642 0.462908 0.903756
0.079147 0.462413 0.972758
0.078653 0.461919 1.000000
0.081386 0.535745 0.000000
0.081304 0.535663 0.000000
0.080747 0.535106 0.045547
0.080211 0.534570 0.120204
0.079685 0.534044 0.193531
0.079165 0.533524 0.265985
0.078650 0.533009 0.337791
0.078139 0.532497 0.409080
0.077630 0.531989 0.479939
0.077124 0.531483 0.550433
0.076621 0.530980 0.620607
0.076119 0.530478 0.690498
0.075620 0.529979 0.760136
0.075122 0.529481 0.829542
0.074625 0.528984 0.898738
0.074130 0.528489 0.967741
0.073636 0.527995 1.000000
0.076392 0.601511 0.000000
0.076311 0.601429 0.000000
0.075753 0.600872 0.040553
0.075218 0.600337 0.115210
0.074692 0.599810 0.188537
0.074172 0.599290 0.260992
0.073657 0.598775 0.332797
0.073145 0.598264 0.404086
0.072637 0.597755 0.474946
0.072131 0.597250 0.545439
0.071627 0.596746 0.615614
0.071126 0.596245 0.685505
0.070626 0.595745 0.755142
0.070128 0.595247 0.824549
0.069632 0.594750 0.893745
0.069137 0.594255 0.962747
0.068643 0.593761 1.000000
0.071420 0.667004 0.000000
0.071338 0.666922 0.000000
0.070781 0.666365 0.035580
0.070245 0.665830 0.110237
0.069719 0.665303 0.183564
0.069199 0.664783 0.256019
0.068684 0.664268 0.327825
0.068172 0.663757 0.399113
0.067664 0.663248 0.469973
0.067158 0.662743 0.540467
0.066655 0.662239 0.610641
0.066153 0.661738 0.680532
0.065653 0.661238 0.750169
0.065155 0.660740 0.819576
0.064659 0.660243 0.888772
0.064164 0.659748 0.957774
0.063670 0.659254 1.000000
0.066465 0.732253 0.000000
0.066384 0.732171 0.000000
0.065826 0.731614 0.030626
0.065291 0.731078 0.105283
0.064765 0.730552 0.178610
0.064245 0.730032 0.251065
0.063730 0.729517 0.322870
0.063218 0.729005 0.394159
0.062710 0.728497 0.465019
0.062204 0.727991 0.535512
0.061700 0.727487 0.605687
0.061199 0.726986 0.675578
0.060699 0.726486 0.745215
0.060201 0.725988 0.814622
0.059705 0.725492 0.883818
0.059210 0.724997 0.952820
0.058716 0.724503 1.000000
0.061528 0.797280 0.000000
0.061446 0.797198 0.000000
0.060889 0.796641 0.025689
0.060353 0.796105 0.100346
0.059827 0.795579 0.173673
0.059307 0.795059 0.246127
0.058792 0.794544 0.317933
0.058281 0.794033 0.389222
0.057772 0.793524 0.460081
0.057266 0.793018 0.530575
0.056763 0.792515 0.600749
0.056261 0.792013 0.670641
0.055762 0.791514 0.740278
0.055264 0.791016 0.809684
0.054767 0.790519 0.878881
0.054272 0.790024 0.947883
0.053778 0.789530 1.000000
0.056606 0.862105 0.000000
0.056524 0.862024 0.000000
0.055967 0.861466 0.020767
0.055431 0.860931 0.095424
0.054905 0.860405 0.168751
0.054385 0.859885 0.241205
0.053870 0.859370 0.313011
0.053359 0.858858 0.384300
0.052850 0.858350 0.455159
0.052344 0.857844 0.525653
0.051841 0.857340 0.595827
0.051339 0.856839 0.665718
0.050840 0.856339 0.735356
0.050342 0.855841 0.804762
0.049845 0.855345 0.873958
0.049350 0.854850 0.942961
0.048856 0.854356 1.000000
0.051698 0.926745 0.000000
0.051616 0.926664 0.000000
0.051059 0.926106 0.015859
0.050523 0.925571 0.090516
0.049997 0.925045 0.163843
0.049477 0.924525 0.236297
0.048962 0.924010 0.308103
0.048451 0.923498 0.379392
0.047942 0.922990 0.450251
0.047436 0.922484 0.520745
0.046933 0.921980 0.590919
0.046431 0.921479 0.660810
0.045932 0.920979 0.730448
0.045434 0.920481 0.799854
0.044937 0.919985 0.869050
0.044442 0.919490 0.938053
0.043948 0.918996 1.000000
0.046803 0.991214 0.000000
0.046721 0.991132 0.000000
0.046164 0.990575 0.010964
0.045628 0.990039 0.085621
0.045102 0.989513 0.158948
0.044582 0.988993 0.231402
0.044067 0.988478 0.303208
0.043556 0.987966 0.374497
0.043047 0.987458 0.445356
0.042541 0.986952 0.515850
0.042038 0.986449 0.586024
0.041536 0.985947 0.655915
0.041037 0.985447 0.725553
0.040539 0.984949 0.794959
0.040042 0.984453 0.864156
0.039547 0.983958 0.933158
0.039053 0.983464 1.000000
0.043967 1.000000 0.000000
0.043886 1.000000 0.000000
0.043329 1.000000 0.008128
0.042793 1.000000 0.082785
0.042267 1.000000 0.156112
0.041747 1.000000 0.228567
0.041232 1.000000 0.300372
0.040720 1.000000 0.371661
0.040212 1.000000 0.442521
0.039706 1.000000 0.513015
0.039202 1.000000 0.583189
0.038701 1.000000 0.653080
0.038201 1.000000 0.722717
0.037703 1.000000 0.792124
0.037207 1.000000 0.861320
0.036712 1.000000 0.930322
0.036218 1.000000 0.999144
0.195184 0.000000 0.000000
0.195102 0.000000 0.007208
0.194545 0.000000 0.084861
0.194009 0.000000 0.159518
0.193483 0.000000 0.232845
0.192963 0.000000 0.305300
0.192448 0.000000 0.377105
0.191936 0.000000 0.448394
0.191428 0.000000 0.519254
0.190922 0.000000 0.589748
0.190419 0.000000 0.659922
0.189917 0.000000 0.729813
0.189418 0.000000 0.799450
0.188920 0.000000 0.868857
0.188423 0.000000 0.938053
0.187928 0.000000 1.000000
0.187434 0.000000 1.000000
0.190299 0.060155 0.000000
0.190217 0.060073 0.002323
0.189660 0.059516 0.079976
0.189124 0.058980 0.154633
0.188598 0.058454 0.227960
0.188078 0.057934 0.300415
0.187563 0.057419 0.372220
0.187051 0.056907 0.443509
0.186543 0.056399 0.514369
0.186037 0.055893 0.584863
0.185534 0.055390 0.655037
0.185032 0.054888 0.724928
0.184533 0.054388 0.794565
0.184035 0.053890 0.863972
0.183538 0.053394 0.933168
0.183043 0.052899 1.000000
0.182549 0.052405 1.000000
0.184956 0.130522 0.000000
0.184874 0.130440 0.000000
0.184317 0.129883 0.074633
0.183781 0.129347 0.149290
0.183255 0.128821 0.222617
0.182735 0.128301 0.295072
0.182220 0.127786 0.366878
0.181709 0.127274 0.438166
0.181200 0.126766 0.509026
0.180694 0.126260 0.579520
0.180191 0.125757 0.649694
0.179689 0.125255 0.719585
0.179190 0.124755 0.789222
0.178692 0.124257 0.858629
0.178195 0.123761 0.927825
0.177700 0.123266 0.996827
0.177206 0.122772 1.000000
0.179723 0.199438 0.000000
0.179642 0.199356 0.000000
0.179084 0.198799 0.069401
0.178549 0.198264 0.144058
0.178023 0.197737 0.217385
0.177503 0.197218 0.289839
0.176987 0.196702 0.361645
0.176476 0.196191 0.432934
0.175967 0.195682 0.503793
0.175462 0.195177 0.574287
0.174958 0.194673 0.644461
0.174457 0.194172 0.714352
0.173957 0.193672 0.783990
0.173459 0.193174 0.853396
0.172963 0.192677 0.922593
0.172467 0.192182 0.991595
0.171974 0.191689 1.000000
0.174559 0.267456 0.000000
0.174477 0.267374 0.000000
0.173920 0.266817 0.064236
0.173384 0.266281 0.138893
0.172858 0.265755 0.212220
0.172338 0.265235 0.284675
0.171823 0.264720 0.356480
0.171311 0.264208 0.427769
0.170803 0.263700 0.498629
0.170297 0.263194 0.569123
0.169794 0.262691 0.639297
0.169292 0.262189 0.709188
0.168793 0.261689 0.778825
0.168295 0.261191 0.848232
0.167798 0.260695 0.917428
0.167303 0.260200 0.986430
0.166809 0.259706 1.000000
0.169444 0.334821 0.000000
0.169362 0.334739 0.000000
0.168805 0.334182 0.059121
0.168269 0.333646 0.133778
0.167743 0.333120 0.207105
0.167223 0.332600 0.279560
0.166708 0.332085 0.351366
0.166197 0.331573 0.422654
0.165688 0.331065 0.493514
0.165182 0.330559 0.564008
0.164679 0.330056 0.634182
0.164177 0.329554 0.704073
0.163678 0.329054 0.773710
0.163180 0.328556 0.843117
0.162683 0.328060 0.912313
0.162188 0.327565 0.981315
0.161694 0.327071 1.000000
0.164368 0.401674 0.000000
0.164286 0.401592 0.000000
0.163729 0.401035 0.054045
0.163193 0.400499 0.128702
0.162667 0.399973 0.202029
0.162147 0.399453 0.274484
0.161632 0.398938 0.346290
0.161121 0.398426 0.417578
0.160612 0.397918 0.488438
0.160106 0.397412 0.558932
0.159603 0.396909 0.629106
0.159101 0.396407 0.698997
0.158602 0.395908 0.768634
0.158104 0.395410 0.838041
0.157607 0.394913 0.907237
0.157112 0.394418 0.976239
0.156618 0.393924 1.000000
0.159324 0.468106 0.000000
0.159242 0.468025 0.000000
0.158685 0.467468 0.049001
0.158149 0.466932 0.123658
0.157623 0.466406 0.196985
0.157103 0.465886 0.269440
0.156588 0.465371 0.341245
0.156076 0.464859 0.412534
0.155568 0.464351 0.483394
0.155062 0.463845 0.553888
0.154559 0.463341 0.624062
0.154057 0.462840 0.693953
0.153558 0.462340 0.763590
0.153059 0.461842 0.832997
0.152563 0.461346 0.902193
0.152068 0.460851 0.971195
0.151574 0.460357 1.000000
0.154307 0.534182 0.000000
0.154225 0.534101 0.000000
0.153668 0.533543 0.043984
0.153132 0.533008 0.118641
0.152606 0.532482 0.191968
0.152086 0.531962 0.264423
0.151571 0.531446 0.336228
0.151059 0.530935 0.407517
0.150551 0.530427 0.478377
0.150045 0.529921 0.548871
0.149542 0.529417 0.619045
0.149040 0.528916 0.688936
0.148540 0.528416 0.758573
0.148042 0.527918 0.827980
0.147546 0.527422 0.897176
0.147051 0.526926 0.966178
0.146557 0.526433 1.000000
0.149313 0.599949 0.000000
0.149231 0.599867 0.000000
0.148674 0.599310 0.038991
0.148139 0.598774 0.113648
0.147612 0.598248 0.186975
0.147093 0.597728 0.259429
0.146577 0.597213 0.331235
0.146066 0.596701 0.402524
0.145557 0.596193 0.473383
0.145052 0.595687 0.543877
0.144548 0.595184 0.614051
0.144047 0.594682 0.683942
0.143547 0.594182 0.753580
0.143049 0.593684 0.822986
0.142552 0.593188 0.892182
0.142057 0.592693 0.961185
0.141564 0.592199 1.000000
0.144340 0.665442 0.000000
0.144259 0.665360 0.000000
0.143702 0.664803 0.034018
0.143166 0.664267 0.108675
0.142640 0.663741 0.182002
0.142120 0.663221 0.254457
0.141605 0.662706 0.326262
0.141093 0.662194 0.397551
0.140585 0.661686 0.468411
0.140079 0.661180 0.538904
0.139575 0.660677 0.609078
0.139074 0.660175 0.678970
0.138574 0.659675 0.748607
0.138076 0.659177 0.818014
0.137580 0.658681 0.887210
0.137085 0.658186 0.956212
0.136591 0.657692 1.000000
0.139386 0.730690 0.000000
0.139304 0.730608 0.000000
0.138747 0.730051 0.029064
0.138212 0.729516 0.103721
0.137685 0.728989 0.177048
0.137166 0.728469 0.249502
0.136650 0.727954 0.321308
0.136139 0.727443 0.392597
0.135630 0.726934 0.463456
0.135125 0.726429 0.533950
0.134621 0.725925 0.604124
0.134120 0.725424 0.674015
0.133620 0.724924 0.743653
0.133122 0.724426 0.813059
0.132625 0.723929 0.882256
0.132130 0.723434 0.951258
0.131637 0.722940 1.000000
0.134449 0.795717 0.000000
0.134367 0.795636 0.000000
0.133810 0.795079 0.024126
0.133274 0.794543 0.098783
0.132748 0.794017 0.172110
0.132228 0.793497 0.244565
0.131713 0.792982 0.316370
0.131201 0.792470 0.387659
0.130693 0.791962 0.458519
0.130187 0.791456 0.529013
0.129684 0.790952 0.599187
0.129182 0.790451 0.669078
0.128683 0.789951 0.738715
0.128185 0.789453 0.808122
0.127688 0.788957 0.877318
0.127193 0.788462 0.946320
0.126699 0.787968 1.000000
0.129527 0.860543 0.000000
0.129445 0.860461 0.000000
0.128888 0.859904 0.019204
0.128352 0.859368 0.093861
0.127826 0.858842 0.167188
0.127306 0.858322 0.239643
0.126791 0.857807 0.311448
0.126279 0.857296 0.382737
0.125771 0.856787 0.453597
0.125265 0.856281 0.524091
0.124762 0.855778 0.594265
0.124260 0.855276 0.664156
0.123760 0.854777 0.733793
0.123262 0.854279 0.803200
0.122766 0.853782 0.872396
0.122271 0.853287 0.941398
0.121777 0.852793 1.000000
0.124619 0.925183 0.000000
0.124537 0.925101 0.000000
0.123980 0.924544 0.014296
0.123444 0.924008 0.088953
0.122918 0.923482 0.162280
0.122398 0.922962 0.234735
0.121883 0.922447 0.306540
0.121371 0.921936 0.377829
0.120863 0.921427 0.448689
0.120357 0.920921 0.519183
0.119854 0.920418 0.589357
0.119352 0.919916 0.659248
0.118852 0.919417 0.728885
0.118354 0.918919 0.798292
0.117858 0.918422 0.867488
0.117363 0.917927 0.936490
0.116869 0.917433 1.000000
0.119724 0.989651 0.000000
0.119642 0.989569 0.000000
0.119085 0.989012 0.009401
0.118549 0.988477 0.084058
0.118023 0.987950 0.157385
0.117503 0.987431 0.229840
0.116988 0.986915 0.301645
0.116476 0.986404 0.372934
0.115968 0.985895 0.443794
0.115462 0.985390 0.514288
0.114959 0.984886 0.584462
0.114457 0.984385 0.654353
0.113958 0.983885 0.723990
0.113460 0.983387 0.793397
0.112963 0.982890 0.862593
0.112468 0.982395 0.931595
0.111974 0.981902 1.000000
0.116888 1.000000 0.000000
0.116806 1.000000 0.000000
0.116249 1.000000 0.006566
0.115714 1.000000 0.081223
0.115188 1.000000 0.154550
0.114668 1.000000 0.227004
0.114152 1.000000 0.298810
0.113641 1.000000 0.370099
0.113132 1.000000 0.440958
0.112627 1.000000 0.511452
0.112123 1.000000 0.581626
0.111622 1.000000 0.651517
0.111122 1.000000 0.721155
0.110624 1.000000 0.790561
0.110127 1.000000 0.859758
0.109632 1.000000 0.928760
0.109139 1.000000 0.997582
0.267051 0.000000 0.000000
0.266969 0.000000 0.005669
0.266412 0.000000 0.083321
0.265877 0.000000 0.157978
0.265350 0.000000 0.231305
0.264831 0.000000 0.303760
0.264315 0.000000 0.375566
0.263804 0.000000 0.446854
0.263295 0.000000 0.517714
0.262790 0.000000 0.588208
0.262286 0.000000 0.658382
0.261785 0.000000 0.728273
0.261285 0.000000 0.797910
0.260787 0.000000 0.867317
0.260290 0.000000 0.936513
0.259795 0.000000 1.000000
0.259301 0.000000 1.000000
0.262166 0.058615 0.000000
