skills/editops-orchestrator/assets/grade/luts/ad_warm_v18.cube
TITLE "ad_warm_v18"
LUT_3D_SIZE 9
DOMAIN_MIN 0.0 0.0 0.0
DOMAIN_MAX 1.0 1.0 1.0
0.047505 0.000000 0.000000
0.046867 0.000000 0.088026
0.045805 0.000000 0.236010
0.044770 0.000000 0.380270
0.043750 0.000000 0.522418
0.042740 0.000000 0.663086
0.041739 0.000000 0.802614
0.040745 0.000000 0.941217
0.039756 0.000000 1.000000
0.037278 0.133686 0.000000
0.036639 0.133047 0.077798
0.035577 0.131985 0.225782
0.034542 0.130950 0.370042
0.033522 0.129930 0.512190
0.032513 0.128921 0.652858
0.031511 0.127920 0.792387
0.030517 0.126925 0.930990
0.029528 0.125936 1.000000
0.026880 0.270620 0.000000
0.026242 0.269981 0.067401
0.025180 0.268919 0.215385
0.024145 0.267884 0.359645
0.023125 0.266864 0.501793
0.022115 0.265855 0.642461
0.021114 0.264854 0.781990
0.020120 0.263859 0.920592
0.019131 0.262870 1.000000
0.016690 0.404838 0.000000
0.016051 0.404199 0.057210
0.014989 0.403137 0.205194
0.013954 0.402102 0.349454
0.012934 0.401082 0.491602
0.011924 0.400073 0.632270
0.010923 0.399072 0.771799
0.009929 0.398077 0.910401
0.008940 0.397088 1.000000
0.006628 0.537347 0.000000
0.005989 0.536708 0.047149
0.004928 0.535646 0.195132
0.003893 0.534611 0.339393
0.002873 0.533591 0.481541
0.001863 0.532582 0.622209
0.000862 0.531580 0.761737
0.000000 0.530586 0.900340
0.000000 0.529597 1.000000
0.000000 0.668606 0.000000
0.000000 0.667967 0.037182
0.000000 0.666905 0.185166
0.000000 0.665870 0.329426
0.000000 0.664850 0.471575
0.000000 0.663841 0.612243
0.000000 0.662840 0.751771
0.000000 0.661845 0.890374
0.000000 0.660856 1.000000
0.000000 0.798882 0.000000
0.000000 0.798243 0.027291
0.000000 0.797181 0.175275
0.000000 0.796146 0.319535
0.000000 0.795126 0.461683
0.000000 0.794117 0.602351
0.000000 0.793115 0.741879
0.000000 0.792121 0.880482
0.000000 0.791132 1.000000
0.000000 0.928347 0.000000
0.000000 0.927708 0.017461
0.000000 0.926646 0.165444
0.000000 0.925611 0.309705
0.000000 0.924591 0.451853
0.000000 0.923582 0.592521
0.000000 0.922581 0.732049
0.000000 0.921586 0.870652
0.000000 0.920598 1.000000
0.000000 1.000000 0.000000
0.000000 1.000000 0.009730
0.000000 1.000000 0.157714
0.000000 1.000000 0.301974
0.000000 1.000000 0.444123
0.000000 1.000000 0.584791
0.000000 1.000000 0.724319
0.000000 1.000000 0.862922
0.000000 1.000000 1.000000
0.195184 0.000000 0.000000
0.194545 0.000000 0.084861
0.193483 0.000000 0.232845
0.192448 0.000000 0.377105
0.191428 0.000000 0.519254
0.190419 0.000000 0.659922
0.189418 0.000000 0.799450
0.188423 0.000000 0.938053
0.187434 0.000000 1.000000
0.184956 0.130522 0.000000
0.184317 0.129883 0.074633
0.183255 0.128821 0.222617
0.182220 0.127786 0.366878
0.181200 0.126766 0.509026
0.180191 0.125757 0.649694
0.179190 0.124755 0.789222
0.178195 0.123761 0.927825
0.177206 0.122772 1.000000
0.174559 0.267456 0.000000
0.173920 0.266817 0.064236
0.172858 0.265755 0.212220
0.171823 0.264720 0.356480
0.170803 0.263700 0.498629
0.169794 0.262691 0.639297
0.168793 0.261689 0.778825
0.167798 0.260695 0.917428
0.166809 0.259706 1.000000
0.164368 0.401674 0.000000
0.163729 0.401035 0.054045
0.162667 0.399973 0.202029
0.161632 0.398938 0.346290
0.160612 0.397918 0.488438
0.159603 0.396909 0.629106
0.158602 0.395908 0.768634
0.157607 0.394913 0.907237
0.156618 0.393924 1.000000
0.154307 0.534182 0.000000
0.153668 0.533543 0.043984
0.152606 0.532482 0.191968
0.151571 0.531446 0.336228
0.150551 0.530427 0.478377
0.149542 0.529417 0.619045
0.148540 0.528416 0.758573
0.147546 0.527422 0.897176
0.146557 0.526433 1.000000
0.144340 0.665442 0.000000
0.143702 0.664803 0.034018
0.142640 0.663741 0.182002
0.141605 0.662706 0.326262
0.140585 0.661686 0.468411
0.139575 0.660677 0.609078
0.138574 0.659675 0.748607
0.137580 0.658681 0.887210
0.136591 0.657692 1.000000
0.134449 0.795717 0.000000
0.133810 0.795079 0.024126
0.132748 0.794017 0.172110
0.131713 0.792982 0.316370
0.130693 0.791962 0.458519
0.129684 0.790952 0.599187
0.128683 0.789951 0.738715
0.127688 0.788957 0.877318
0.126699 0.787968 1.000000
0.124619 0.925183 0.000000
0.123980 0.924544 0.014296
0.122918 0.923482 0.162280
0.121883 0.922447 0.306540
0.120863 0.921427 0.448689
0.119854 0.920418 0.589357
0.118852 0.919417 0.728885
0.117858 0.918422 0.867488
0.116869 0.917433 1.000000
0.116888 1.000000 0.000000
0.116249 1.000000 0.006566
0.115188 1.000000 0.154550
0.114152 1.000000 0.298810
0.113132 1.000000 0.440958
0.112123 1.000000 0.581626
0.111122 1.000000 0.721155
0.110127 1.000000 0.859758
0.109139 1.000000 0.997582
0.338177 0.000000 0.000000
0.337538 0.000000 0.081797
0.336476 0.000000 0.229781
0.335441 0.000000 0.374042
0.334421 0.000000 0.516190
0.333412 0.000000 0.656858
0.332410 0.000000 0.796386
0.331416 0.000000 0.934989
0.330427 0.000000 1.000000
0.327949 0.127458 0.000000
0.327310 0.126819 0.071570
0.326248 0.125757 0.219553
0.325213 0.124722 0.363814
0.324193 0.123702 0.505962
0.323184 0.122693 0.646630
0.322183 0.121692 0.786158
0.321188 0.120697 0.924761
0.320199 0.119708 1.000000
0.317552 0.264392 0.000000
0.316913 0.263753 0.061172
0.315851 0.262691 0.209156
0.314816 0.261656 0.353417
0.313796 0.260636 0.495565
0.312787 0.259627 0.636233
0.311785 0.258625 0.775761
0.310791 0.257631 0.914364
0.309802 0.256642 1.000000
0.307361 0.398610 0.000000
0.306722 0.397971 0.050981
0.305660 0.396909 0.198965
0.304625 0.395874 0.343226
0.303605 0.394854 0.485374
0.302596 0.393845 0.626042
0.301595 0.392844 0.765570
0.300600 0.391849 0.904173
0.299611 0.390860 1.000000
0.297300 0.531118 0.000000
0.296661 0.530479 0.040920
0.295599 0.529418 0.188904
0.294564 0.528383 0.333164
0.293544 0.527363 0.475313
0.292535 0.526353 0.615981
0.291533 0.525352 0.755509
0.290539 0.524358 0.894112
0.289550 0.523369 1.000000
0.287333 0.662378 0.000000
0.286694 0.661739 0.030954
0.285633 0.660677 0.178938
0.284597 0.659642 0.323198
0.283578 0.658622 0.465347
0.282568 0.657613 0.606015
0.281567 0.656611 0.745543
0.280573 0.655617 0.884146
0.279584 0.654628 1.000000
0.277442 0.792653 0.000000
0.276803 0.792015 0.021062
0.275741 0.790953 0.169046
0.274706 0.789918 0.313307
0.273686 0.788898 0.455455
0.272677 0.787888 0.596123
0.271675 0.786887 0.735651
0.270681 0.785893 0.874254
0.269692 0.784904 1.000000
0.267612 0.922119 0.000000
0.266973 0.921480 0.011232
0.265911 0.920418 0.159216
0.264876 0.919383 0.303476
0.263856 0.918363 0.445625
0.262847 0.917354 0.586293
0.261845 0.916353 0.725821
0.260851 0.915358 0.864424
0.259862 0.914369 1.000000
0.259881 1.000000 0.000000
0.259242 1.000000 0.003502
0.258180 1.000000 0.151486
0.257145 1.000000 0.295746
0.256125 1.000000 0.437894
0.255116 1.000000 0.578562
0.254115 1.000000 0.718091
0.253120 1.000000 0.856694
0.252131 1.000000 0.994518
0.478818 0.000000 0.000000
0.478180 0.000000 0.078784
0.477118 0.000000 0.226768
0.476083 0.000000 0.371028
0.475063 0.000000 0.513177
0.474053 0.000000 0.653844
0.473052 0.000000 0.793373
0.472058 0.000000 0.931976
0.471069 0.000000 1.000000
0.468591 0.124444 0.000000
0.467952 0.123805 0.068556
0.466890 0.122744 0.216540
0.465855 0.121708 0.360800
0.464835 0.120688 0.502949
0.463826 0.119679 0.643617
0.462824 0.118678 0.783145
0.461830 0.117684 0.921748
0.460841 0.116695 1.000000
0.458193 0.261378 0.000000
0.457555 0.260739 0.058159
0.456493 0.259677 0.206143
0.455458 0.258642 0.350403
0.454438 0.257622 0.492552
0.453428 0.256613 0.633219
0.452427 0.255612 0.772748
0.451433 0.254617 0.911351
0.450444 0.253629 1.000000
0.448003 0.395596 0.000000
0.447364 0.394957 0.047968
0.446302 0.393896 0.195952
0.445267 0.392861 0.340212
0.444247 0.391841 0.482361
0.443237 0.390831 0.623028
0.442236 0.389830 0.762557
0.441242 0.388836 0.901160
0.440253 0.387847 1.000000
0.437941 0.528105 0.000000
0.437302 0.527466 0.037907
0.436241 0.526404 0.185891
0.435206 0.525369 0.330151
0.434186 0.524349 0.472299
0.433176 0.523340 0.612967
0.432175 0.522339 0.752496
0.431181 0.521344 0.891099
0.430192 0.520355 1.000000
0.427975 0.659364 0.000000
0.427336 0.658725 0.027940
0.426274 0.657663 0.175924
0.425239 0.656628 0.320185
0.424219 0.655608 0.462333
0.423210 0.654599 0.603001
0.422209 0.653598 0.742529
0.421214 0.652603 0.881132
0.420225 0.651614 1.000000
0.418083 0.789640 0.000000
0.417445 0.789001 0.018049
0.416383 0.787939 0.166033
0.415348 0.786904 0.310293
0.414328 0.785884 0.452442
0.413318 0.784875 0.593109
0.412317 0.783874 0.732638
0.411323 0.782879 0.871241
0.410334 0.781890 1.000000
0.408253 0.919105 0.000000
0.407614 0.918467 0.008219
0.406553 0.917405 0.156203
0.405518 0.916370 0.300463
0.404498 0.915350 0.442611
0.403488 0.914340 0.583279
0.402487 0.913339 0.722808
0.401493 0.912345 0.861411
0.400504 0.911356 0.999235
0.400523 1.000000 0.000000
0.399884 1.000000 0.000488
0.398822 1.000000 0.148472
0.397787 1.000000 0.292732
0.396767 1.000000 0.434881
0.395758 1.000000 0.575549
0.394757 1.000000 0.715077
0.393762 1.000000 0.853680
0.392773 1.000000 0.991504
0.617874 0.000000 0.000000
0.617235 0.000000 0.075804
0.616173 0.000000 0.223788
0.615138 0.000000 0.368048
0.614118 0.000000 0.510197
0.613108 0.000000 0.650865
0.612107 0.000000 0.790393
0.611113 0.000000 0.928996
0.610124 0.000000 1.000000
0.607646 0.121465 0.000000
0.607007 0.120826 0.065576
0.605945 0.119764 0.213560
0.604910 0.118729 0.357821
0.603890 0.117709 0.499969
0.602881 0.116700 0.640637
0.601879 0.115698 0.780165
0.600885 0.114704 0.918768
0.599896 0.113715 1.000000
0.597249 0.258399 0.000000
0.596610 0.257760 0.055179
0.595548 0.256698 0.203163
0.594513 0.255663 0.347423
0.593493 0.254643 0.489572
0.592483 0.253634 0.630240
0.591482 0.252632 0.769768
0.590488 0.251638 0.908371
0.589499 0.250649 1.000000
0.587058 0.392617 0.000000
0.586419 0.391978 0.044988
0.585357 0.390916 0.192972
0.584322 0.389881 0.337232
0.583302 0.388861 0.479381
0.582292 0.387852 0.620049
0.581291 0.386851 0.759577
0.580297 0.385856 0.898180
0.579308 0.384867 1.000000
0.576996 0.525125 0.000000
0.576358 0.524486 0.034927
0.575296 0.523425 0.182911
0.574261 0.522389 0.327171
0.573241 0.521370 0.469320
0.572231 0.520360 0.609988
0.571230 0.519359 0.749516
0.570236 0.518365 0.888119
0.569247 0.517376 1.000000
0.567030 0.656385 0.000000
0.566391 0.655746 0.024961
0.565329 0.654684 0.172945
0.564294 0.653649 0.317205
0.563274 0.652629 0.459354
0.562265 0.651620 0.600021
0.561264 0.650618 0.739550
0.560269 0.649624 0.878153
0.559280 0.648635 1.000000
0.557139 0.786660 0.000000
0.556500 0.786021 0.015069
0.555438 0.784960 0.163053
0.554403 0.783925 0.307313
0.553383 0.782905 0.449462
0.552373 0.781895 0.590130
0.551372 0.780894 0.729658
0.550378 0.779900 0.868261
0.549389 0.778911 1.000000
0.547308 0.916126 0.000000
0.546670 0.915487 0.005239
0.545608 0.914425 0.153223
0.544573 0.913390 0.297483
0.543553 0.912370 0.439632
0.542543 0.911361 0.580300
0.541542 0.910360 0.719828
0.540548 0.909365 0.858431
0.539559 0.908376 0.996255
0.539578 1.000000 0.000000
0.538939 1.000000 0.000000
0.537877 1.000000 0.145493
0.536842 1.000000 0.289753
0.535822 1.000000 0.431901
0.534813 1.000000 0.572569
0.533812 1.000000 0.712098
0.532817 1.000000 0.850700
0.531828 1.000000 0.988525
0.755731 0.000000 0.000000
0.755092 0.000000 0.072850
0.754030 0.000000 0.220834
0.752995 0.000000 0.365095
0.751975 0.000000 0.507243
0.750966 0.000000 0.647911
0.749965 0.000000 0.787439
0.748970 0.000000 0.926042
0.747981 0.000000 1.000000
0.745503 0.118511 0.000000
0.744864 0.117872 0.062623
0.743802 0.116810 0.210606
0.742767 0.115775 0.354867
0.741747 0.114755 0.497015
0.740738 0.113746 0.637683
0.739737 0.112745 0.777211
0.738742 0.111750 0.915814
0.737754 0.110761 1.000000
0.735106 0.255445 0.000000
0.734467 0.254806 0.052225
0.733405 0.253744 0.200209
0.732370 0.252709 0.344470
0.731350 0.251689 0.486618
0.730341 0.250680 0.627286
0.729340 0.249678 0.766814
0.728345 0.248684 0.905417
0.727356 0.247695 1.000000
0.724915 0.389663 0.000000
0.724276 0.389024 0.042034
0.723214 0.387962 0.190018
0.722179 0.386927 0.334279
0.721159 0.385907 0.476427
0.720150 0.384898 0.617095
0.719149 0.383897 0.756623
0.718154 0.382902 0.895226
0.717165 0.381913 1.000000
0.714854 0.522171 0.000000
0.714215 0.521533 0.031973
0.713153 0.520471 0.179957
0.712118 0.519436 0.324217
0.711098 0.518416 0.466366
0.710089 0.517406 0.607034
0.709088 0.516405 0.746562
0.708093 0.515411 0.885165
0.707104 0.514422 1.000000
0.704888 0.653431 0.000000
0.704249 0.652792 0.022007
0.703187 0.651730 0.169991
0.702152 0.650695 0.314251
0.701132 0.649675 0.456400
0.700123 0.648666 0.597068
0.699121 0.647664 0.736596
0.698127 0.646670 0.875199
0.697138 0.645681 1.000000
0.694996 0.783707 0.000000
0.694357 0.783068 0.012115
0.693295 0.782006 0.160099
0.692260 0.780971 0.304360
0.691240 0.779951 0.446508
0.690231 0.778941 0.587176
0.689230 0.777940 0.726704
0.688235 0.776946 0.865307
0.687246 0.775957 1.000000
0.685166 0.913172 0.000000
0.684527 0.912533 0.002285
0.683465 0.911471 0.150269
0.682430 0.910436 0.294529
0.681410 0.909416 0.436678
0.680401 0.908407 0.577346
0.679400 0.907406 0.716874
0.678405 0.906411 0.855477
0.677416 0.905422 0.993302
0.677435 1.000000 0.000000
0.676797 1.000000 0.000000
0.675735 1.000000 0.142539
0.674700 1.000000 0.286799
0.673680 1.000000 0.428947
0.672670 1.000000 0.569615
0.671669 1.000000 0.709144
0.670675 1.000000 0.847747
0.669686 1.000000 0.985571
0.892628 0.000000 0.000000
0.891989 0.000000 0.069917
0.890927 0.000000 0.217901
0.889892 0.000000 0.362161
0.888872 0.000000 0.504310
0.887863 0.000000 0.644978
0.886861 0.000000 0.784506
0.885867 0.000000 0.923109
0.884878 0.000000 1.000000
0.882400 0.115578 0.000000
0.881761 0.114939 0.059689
0.880699 0.113877 0.207673
0.879664 0.112842 0.351933
0.878644 0.111822 0.494082
0.877635 0.110812 0.634750
0.876634 0.109811 0.774278
0.875639 0.108817 0.912881
0.874650 0.107828 1.000000
0.872003 0.252511 0.000000
0.871364 0.251873 0.049292
0.870302 0.250811 0.197276
0.869267 0.249776 0.341536
0.868247 0.248756 0.483685
0.867238 0.247746 0.624353
0.866237 0.246745 0.763881
0.865242 0.245751 0.902484
0.864253 0.244762 1.000000
0.861812 0.386730 0.000000
0.861173 0.386091 0.039101
0.860111 0.385029 0.187085
0.859076 0.383994 0.331345
0.858056 0.382974 0.473494
0.857047 0.381965 0.614162
0.856046 0.380963 0.753690
0.855051 0.379969 0.892293
0.854062 0.378980 1.000000
0.851751 0.519238 0.000000
0.851112 0.518599 0.029040
0.850050 0.517537 0.177024
0.849015 0.516502 0.321284
0.847995 0.515482 0.463433
0.846986 0.514473 0.604101
0.845984 0.513472 0.743629
0.844990 0.512477 0.882232
0.844001 0.511488 1.000000
0.841784 0.650497 0.000000
0.841145 0.649859 0.019074
0.840084 0.648797 0.167058
0.839049 0.647762 0.311318
0.838029 0.646742 0.453466
0.837019 0.645732 0.594134
0.836018 0.644731 0.733663
0.835024 0.643737 0.872266
0.834035 0.642748 1.000000
0.831893 0.780773 0.000000
0.831254 0.780134 0.009182
0.830192 0.779072 0.157166
0.829157 0.778037 0.301426
0.828137 0.777017 0.443575
0.827128 0.776008 0.584243
0.826126 0.775007 0.723771
0.825132 0.774012 0.862374
0.824143 0.773024 1.000000
0.822063 0.910239 0.000000
0.821424 0.909600 0.000000
0.820362 0.908538 0.147336
0.819327 0.907503 0.291596
0.818307 0.906483 0.433745
0.817298 0.905474 0.574413
0.816296 0.904472 0.713941
0.815302 0.903478 0.852544
0.814313 0.902489 0.990368
0.814332 1.000000 0.000000
0.813693 1.000000 0.000000
0.812631 1.000000 0.139605
0.811596 1.000000 0.283866
0.810576 1.000000 0.426014
0.809567 1.000000 0.566682
0.808566 1.000000 0.706210
0.807571 1.000000 0.844813
0.806582 1.000000 0.982638
1.000000 0.000000 0.000000
1.000000 0.000000 0.067001
1.000000 0.000000 0.214985
1.000000 0.000000 0.359245
1.000000 0.000000 0.501394
1.000000 0.000000 0.642062
1.000000 0.000000 0.781590
1.000000 0.000000 0.920193
1.000000 0.000000 1.000000
1.000000 0.112661 0.000000
1.000000 0.112022 0.056773
1.000000 0.110961 0.204757
1.000000 0.109926 0.349017
1.000000 0.108906 0.491166
1.000000 0.107896 0.631834
1.000000 0.106895 0.771362
1.000000 0.105901 0.909965
1.000000 0.104912 1.000000
1.000000 0.249595 0.000000
1.000000 0.248956 0.046376
1.000000 0.247895 0.194360
1.000000 0.246859 0.338620
1.000000 0.245840 0.480769
1.000000 0.244830 0.621437
1.000000 0.243829 0.760965
1.000000 0.242835 0.899568
1.000000 0.241846 1.000000
0.997907 0.383813 0.000000
0.997268 0.383175 0.036185
0.996206 0.382113 0.184169
0.995171 0.381078 0.328429
0.994151 0.380058 0.470578
0.993142 0.379048 0.611246
0.992141 0.378047 0.750774
0.991146 0.377053 0.889377
0.990157 0.376064 1.000000
0.987846 0.516322 0.000000
0.987207 0.515683 0.026124
0.986145 0.514621 0.174108
0.985110 0.513586 0.318368
0.984090 0.512566 0.460517
0.983081 0.511557 0.601184
0.982079 0.510556 0.740713
0.981085 0.509561 0.879316
0.980096 0.508572 1.000000
0.977879 0.647581 0.000000
0.977240 0.646942 0.016158
0.976179 0.645881 0.164142
0.975143 0.644845 0.308402
0.974124 0.643826 0.450550
0.973114 0.642816 0.591218
0.972113 0.641815 0.730746
0.971119 0.640821 0.869349
0.970130 0.639832 1.000000
0.967988 0.777857 0.000000
0.967349 0.777218 0.006266
0.966287 0.776156 0.154250
0.965252 0.775121 0.298510
0.964232 0.774101 0.440659
0.963223 0.773092 0.581327
0.962221 0.772091 0.720855
0.961227 0.771096 0.859458
0.960238 0.770107 0.997282
0.958158 0.907323 0.000000
0.957519 0.906684 0.000000
0.956457 0.905622 0.144420
0.955422 0.904587 0.288680
0.954402 0.903567 0.430829
0.953393 0.902557 0.571496
0.952391 0.901556 0.711025
0.951397 0.900562 0.849628
0.950408 0.899573 0.987452
0.950427 1.000000 0.000000
0.949788 1.000000 0.000000
0.948726 1.000000 0.136689
0.947691 1.000000 0.280950
0.946671 1.000000 0.423098
0.945662 1.000000 0.563766
0.944661 1.000000 0.703294
0.943666 1.000000 0.841897
0.942677 1.000000 0.979722
1.000000 0.000000 0.000000
1.000000 0.000000 0.065769
1.000000 0.000000 0.213753
1.000000 0.000000 0.358014
1.000000 0.000000 0.500162
1.000000 0.000000 0.640830
1.000000 0.000000 0.780358
1.000000 0.000000 0.918961
1.000000 0.000000 1.000000
1.000000 0.111430 0.000000
1.000000 0.110791 0.055542
1.000000 0.109729 0.203526
1.000000 0.108694 0.347786
1.000000 0.107674 0.489934
1.000000 0.106665 0.630602
1.000000 0.105664 0.770130
1.000000 0.104669 0.908733
1.000000 0.103680 1.000000
1.000000 0.248364 0.000000
1.000000 0.247725 0.045144
1.000000 0.246663 0.193128
1.000000 0.245628 0.337389
1.000000 0.244608 0.479537
1.000000 0.243599 0.620205
1.000000 0.242598 0.759733
1.000000 0.241603 0.898336
1.000000 0.240614 1.000000
1.000000 0.382582 0.000000
1.000000 0.381943 0.034953
1.000000 0.380881 0.182937
1.000000 0.379846 0.327198
1.000000 0.378826 0.469346
1.000000 0.377817 0.610014
1.000000 0.376816 0.749542
1.000000 0.375821 0.888145
1.000000 0.374832 1.000000
1.000000 0.515090 0.000000
1.000000 0.514452 0.024892
1.000000 0.513390 0.172876
1.000000 0.512355 0.317136
1.000000 0.511335 0.459285
1.000000 0.510325 0.599953
1.000000 0.509324 0.739481
1.000000 0.508330 0.878084
1.000000 0.507341 1.000000
1.000000 0.646350 0.000000
1.000000 0.645711 0.014926
1.000000 0.644649 0.162910
1.000000 0.643614 0.307170
1.000000 0.642594 0.449319
1.000000 0.641585 0.589987
1.000000 0.640583 0.729515
1.000000 0.639589 0.868118
1.000000 0.638600 1.000000
1.000000 0.776626 0.000000
1.000000 0.775987 0.005034
1.000000 0.774925 0.153018
1.000000 0.773890 0.297279
1.000000 0.772870 0.439427
1.000000 0.771860 0.580095
1.000000 0.770859 0.719623
1.000000 0.769865 0.858226
1.000000 0.768876 0.996051
1.000000 0.906091 0.000000
1.000000 0.905452 0.000000
1.000000 0.904390 0.143188
1.000000 0.903355 0.287448
1.000000 0.902335 0.429597
1.000000 0.901326 0.570265
1.000000 0.900325 0.709793
1.000000 0.899330 0.848396
1.000000 0.898341 0.986221
1.000000 1.000000 0.000000
1.000000 1.000000 0.000000
1.000000 1.000000 0.135458
1.000000 1.000000 0.279718
1.000000 1.000000 0.421867
1.000000 1.000000 0.562534
1.000000 1.000000 0.702063
1.000000 1.000000 0.840666
1.000000 1.000000 0.978490
