skills/editops-orchestrator/assets/grade/luts/ad_warm_v20.cube
TITLE "ad_warm_v20"
LUT_3D_SIZE 5
DOMAIN_MIN 0.0 0.0 0.0
DOMAIN_MAX 1.0 1.0 1.0
0.052660 0.000000 0.000000
0.050826 0.000000 0.233999
0.048563 0.000000 0.524354
0.046353 0.000000 0.807788
0.044176 0.000000 1.000000
0.029946 0.272478 0.000000
0.028112 0.270644 0.211284
0.025849 0.268380 0.501640
0.023639 0.266171 0.785074
0.021462 0.263994 1.000000
0.007661 0.541009 0.000000
0.005827 0.539175 0.189000
0.003564 0.536912 0.479355
0.001354 0.534702 0.762789
0.000000 0.532525 1.000000
0.000000 0.803858 0.000000
0.000000 0.802024 0.167186
0.000000 0.799761 0.457542
0.000000 0.797551 0.740976
0.000000 0.795374 1.000000
0.000000 1.000000 0.000000
0.000000 1.000000 0.148175
0.000000 1.000000 0.438530
0.000000 1.000000 0.721964
0.000000 1.000000 1.000000
0.347192 0.000000 0.000000
0.345358 0.000000 0.227133
0.343094 0.000000 0.517489
0.340885 0.000000 0.800923
0.338708 0.000000 1.000000
0.324478 0.265613 0.000000
0.322644 0.263779 0.204419
0.320380 0.261515 0.494775
0.318171 0.259305 0.778209
0.315993 0.257128 1.000000
0.302193 0.534144 0.000000
0.300359 0.532310 0.182134
0.298095 0.530046 0.472490
0.295886 0.527836 0.755924
0.293709 0.525659 1.000000
0.280380 0.796993 0.000000
0.278546 0.795159 0.160321
0.276282 0.792895 0.450676
0.274072 0.790686 0.734111
0.271895 0.788508 1.000000
0.261368 1.000000 0.000000
0.259534 1.000000 0.141309
0.257270 1.000000 0.431665
0.255061 1.000000 0.715099
0.252884 1.000000 0.994364
0.629875 0.000000 0.000000
0.628041 0.000000 0.220544
0.625778 0.000000 0.510900
0.623568 0.000000 0.794334
0.621391 0.000000 1.000000
0.607161 0.259023 0.000000
0.605327 0.257190 0.197830
0.603064 0.254926 0.488185
0.600854 0.252716 0.771620
0.598677 0.250539 1.000000
0.584876 0.527554 0.000000
0.583042 0.525721 0.175545
0.580779 0.523457 0.465901
0.578569 0.521247 0.749335
0.576392 0.519070 1.000000
0.563063 0.790404 0.000000
0.561229 0.788570 0.153732
0.558965 0.786306 0.444087
0.556756 0.784096 0.727522
0.554579 0.781919 1.000000
0.544051 1.000000 0.000000
0.542217 1.000000 0.134720
0.539954 1.000000 0.425076
0.537744 1.000000 0.708510
0.535567 1.000000 0.987775
0.907174 0.000000 0.000000
0.905341 0.000000 0.214080
0.903077 0.000000 0.504436
0.900867 0.000000 0.787870
0.898690 0.000000 1.000000
0.884460 0.252560 0.000000
0.882626 0.250726 0.191366
0.880363 0.248462 0.481722
0.878153 0.246253 0.765156
0.875976 0.244075 1.000000
0.862175 0.521091 0.000000
0.860342 0.519257 0.169081
0.858078 0.516993 0.459437
0.855868 0.514784 0.742871
0.853691 0.512606 1.000000
0.840362 0.783940 0.000000
0.838528 0.782106 0.147268
0.836265 0.779842 0.437624
0.834055 0.777633 0.721058
0.831878 0.775456 1.000000
0.821350 1.000000 0.000000
0.819517 1.000000 0.128256
0.817253 1.000000 0.418612
0.815043 1.000000 0.702046
0.812866 1.000000 0.981311
1.000000 0.000000 0.000000
1.000000 0.000000 0.209714
1.000000 0.000000 0.500070
1.000000 0.000000 0.783504
1.000000 0.000000 1.000000
1.000000 0.248193 0.000000
1.000000 0.246360 0.187000
1.000000 0.244096 0.477355
1.000000 0.241886 0.760790
1.000000 0.239709 1.000000
1.000000 0.516724 0.000000
1.000000 0.514891 0.164715
1.000000 0.512627 0.455071
1.000000 0.510417 0.738505
1.000000 0.508240 1.000000
1.000000 0.779574 0.000000
1.000000 0.777740 0.142902
1.000000 0.775476 0.433257
1.000000 0.773267 0.716692
1.000000 0.771089 0.995957
1.000000 1.000000 0.000000
1.000000 1.000000 0.123890
1.000000 1.000000 0.414246
1.000000 1.000000 0.697680
1.000000 1.000000 0.976945
