skills/editops-orchestrator/assets/grade/luts/ad_warm_v06.cube
TITLE "ad_warm_v06"
LUT_3D_SIZE 17
DOMAIN_MIN 0.0 0.0 0.0
DOMAIN_MAX 1.0 1.0 1.0
0.020199 0.000000 0.000000
0.020057 0.000000 0.043796
0.019840 0.000000 0.111661
0.019625 0.000000 0.178730
0.019411 0.000000 0.245333
0.019199 0.000000 0.311603
0.018987 0.000000 0.377616
0.018776 0.000000 0.443418
0.018566 0.000000 0.509043
0.018356 0.000000 0.574513
0.018146 0.000000 0.639847
0.017937 0.000000 0.705060
0.017729 0.000000 0.770162
0.017520 0.000000 0.835165
0.017312 0.000000 0.900076
0.017104 0.000000 0.964901
0.016897 0.000000 1.000000
0.018089 0.064318 0.000000
0.017948 0.064177 0.041687
0.017731 0.063960 0.109552
0.017516 0.063744 0.176621
0.017302 0.063531 0.243223
0.017090 0.063318 0.309494
0.016878 0.063107 0.375507
0.016667 0.062896 0.441309
0.016457 0.062685 0.506934
0.016247 0.062476 0.572404
0.016037 0.062266 0.637738
0.015828 0.062057 0.702951
0.015620 0.061848 0.768053
0.015411 0.061640 0.833056
0.015203 0.061432 0.897967
0.014995 0.061224 0.962792
0.014788 0.061016 1.000000
0.015944 0.129928 0.000000
0.015803 0.129787 0.039542
0.015586 0.129569 0.107407
0.015371 0.129354 0.174476
0.015157 0.129141 0.241078
0.014945 0.128928 0.307349
0.014733 0.128717 0.373362
0.014522 0.128506 0.439164
0.014312 0.128295 0.504789
0.014102 0.128085 0.570259
0.013892 0.127876 0.635593
0.013683 0.127667 0.700806
0.013474 0.127458 0.765908
0.013266 0.127250 0.830911
0.013058 0.127042 0.895821
0.012850 0.126834 0.960647
0.012643 0.126626 1.000000
0.013820 0.194912 0.000000
0.013679 0.194771 0.037418
0.013461 0.194553 0.105283
0.013246 0.194338 0.172351
0.013033 0.194125 0.238954
0.012820 0.193912 0.305224
0.012609 0.193701 0.371237
0.012398 0.193490 0.437040
0.012187 0.193279 0.502664
0.011977 0.193069 0.568134
0.011768 0.192860 0.633468
0.011559 0.192651 0.698681
0.011350 0.192442 0.763784
0.011141 0.192234 0.828786
0.010933 0.192026 0.893697
0.010726 0.191818 0.958522
0.010518 0.191610 1.000000
0.011708 0.259496 0.000000
0.011567 0.259355 0.035306
0.011350 0.259138 0.103171
0.011135 0.258923 0.170240
0.010921 0.258709 0.236842
0.010709 0.258497 0.303113
0.010497 0.258285 0.369126
0.010286 0.258074 0.434928
0.010076 0.257864 0.500552
0.009866 0.257654 0.566023
0.009656 0.257444 0.631357
0.009447 0.257235 0.696569
0.009238 0.257026 0.761672
0.009030 0.256818 0.826675
0.008822 0.256610 0.891585
0.008614 0.256402 0.956411
0.008406 0.256194 1.000000
0.009606 0.323786 0.000000
0.009465 0.323645 0.033204
0.009248 0.323427 0.101069
0.009033 0.323212 0.168138
0.008819 0.322999 0.234740
0.008607 0.322786 0.301011
0.008395 0.322575 0.367024
0.008184 0.322364 0.432826
0.007974 0.322153 0.498451
0.007764 0.321943 0.563921
0.007554 0.321734 0.629255
0.007345 0.321525 0.694468
0.007137 0.321316 0.759570
0.006928 0.321108 0.824573
0.006720 0.320900 0.889484
0.006512 0.320692 0.954309
0.006305 0.320484 1.000000
0.007512 0.387843 0.000000
0.007371 0.387702 0.031110
0.007154 0.387484 0.098975
0.006939 0.387269 0.166044
0.006725 0.387055 0.232646
0.006513 0.386843 0.298917
0.006301 0.386631 0.364930
0.006090 0.386420 0.430732
0.005879 0.386210 0.496356
0.005670 0.386000 0.561826
0.005460 0.385791 0.627161
0.005251 0.385581 0.692373
0.005042 0.385373 0.757476
0.004834 0.385164 0.822479
0.004626 0.384956 0.887389
0.004418 0.384748 0.952215
0.004210 0.384541 1.000000
0.005424 0.451706 0.000000
0.005283 0.451565 0.029022
0.005066 0.451348 0.096887
0.004851 0.451133 0.163956
0.004637 0.450919 0.230558
0.004425 0.450707 0.296829
0.004213 0.450495 0.362842
0.004002 0.450284 0.428644
0.003792 0.450074 0.494268
0.003582 0.449864 0.559738
0.003372 0.449654 0.625073
0.003163 0.449445 0.690285
0.002954 0.449236 0.755388
0.002746 0.449028 0.820391
0.002538 0.448820 0.885301
0.002330 0.448612 0.950127
0.002122 0.448404 1.000000
0.003342 0.515405 0.000000
0.003201 0.515264 0.026939
0.002983 0.515047 0.094805
0.002768 0.514832 0.161873
0.002554 0.514618 0.228476
0.002342 0.514406 0.294746
0.002130 0.514194 0.360759
0.001919 0.513983 0.426562
0.001709 0.513773 0.492186
0.001499 0.513563 0.557656
0.001290 0.513353 0.622990
0.001081 0.513144 0.688203
0.000872 0.512935 0.753306
0.000663 0.512727 0.818308
0.000455 0.512519 0.883219
0.000247 0.512311 0.948044
0.000040 0.512103 1.000000
0.001264 0.578961 0.000000
0.001123 0.578820 0.024861
0.000905 0.578602 0.092727
0.000690 0.578387 0.159795
0.000477 0.578174 0.226398
0.000264 0.577961 0.292668
0.000052 0.577750 0.358681
0.000000 0.577539 0.424484
0.000000 0.577328 0.490108
0.000000 0.577118 0.555578
0.000000 0.576909 0.620912
0.000000 0.576700 0.686125
0.000000 0.576491 0.751228
0.000000 0.576283 0.816230
0.000000 0.576074 0.881141
0.000000 0.575867 0.945966
0.000000 0.575659 1.000000
0.000000 0.642389 0.000000
0.000000 0.642248 0.022788
0.000000 0.642031 0.090653
0.000000 0.641816 0.157722
0.000000 0.641602 0.224324
0.000000 0.641390 0.290595
0.000000 0.641178 0.356608
0.000000 0.640967 0.422410
0.000000 0.640757 0.488034
0.000000 0.640547 0.553504
0.000000 0.640337 0.618839
0.000000 0.640128 0.684051
0.000000 0.639919 0.749154
0.000000 0.639711 0.814157
0.000000 0.639503 0.879067
0.000000 0.639295 0.943892
0.000000 0.639087 1.000000
0.000000 0.705704 0.000000
0.000000 0.705563 0.020718
0.000000 0.705345 0.088583
0.000000 0.705130 0.155652
0.000000 0.704917 0.222254
0.000000 0.704704 0.288525
0.000000 0.704492 0.354538
0.000000 0.704281 0.420340
0.000000 0.704071 0.485964
0.000000 0.703861 0.551434
0.000000 0.703652 0.616769
0.000000 0.703443 0.681981
0.000000 0.703234 0.747084
0.000000 0.703025 0.812087
0.000000 0.702817 0.876997
0.000000 0.702609 0.941822
0.000000 0.702402 1.000000
0.000000 0.768915 0.000000
0.000000 0.768774 0.018651
0.000000 0.768556 0.086516
0.000000 0.768341 0.153585
0.000000 0.768128 0.220188
0.000000 0.767915 0.286458
0.000000 0.767703 0.352471
0.000000 0.767492 0.418273
0.000000 0.767282 0.483898
0.000000 0.767072 0.549368
0.000000 0.766863 0.614702
0.000000 0.766654 0.679915
0.000000 0.766445 0.745017
0.000000 0.766236 0.810020
0.000000 0.766028 0.874931
0.000000 0.765820 0.939756
0.000000 0.765613 1.000000
0.000000 0.832031 0.000000
0.000000 0.831890 0.016588
0.000000 0.831672 0.084453
0.000000 0.831457 0.151522
0.000000 0.831244 0.218124
0.000000 0.831031 0.284395
0.000000 0.830820 0.350408
0.000000 0.830609 0.416210
0.000000 0.830398 0.481834
0.000000 0.830188 0.547304
0.000000 0.829979 0.612638
0.000000 0.829770 0.677851
0.000000 0.829561 0.742954
0.000000 0.829353 0.807957
0.000000 0.829145 0.872867
0.000000 0.828937 0.937692
0.000000 0.828729 1.000000
0.000000 0.895060 0.000000
0.000000 0.894919 0.014527
0.000000 0.894702 0.082392
0.000000 0.894487 0.149461
0.000000 0.894273 0.216063
0.000000 0.894061 0.282334
0.000000 0.893849 0.348347
0.000000 0.893638 0.414149
0.000000 0.893428 0.479773
0.000000 0.893218 0.545244
0.000000 0.893008 0.610578
0.000000 0.892799 0.675790
0.000000 0.892590 0.740893
0.000000 0.892382 0.805896
0.000000 0.892174 0.870806
0.000000 0.891966 0.935632
0.000000 0.891758 1.000000
0.000000 0.958009 0.000000
0.000000 0.957868 0.012469
0.000000 0.957650 0.080334
0.000000 0.957435 0.147403
0.000000 0.957221 0.214005
0.000000 0.957009 0.280276
0.000000 0.956797 0.346289
0.000000 0.956586 0.412091
0.000000 0.956376 0.477715
0.000000 0.956166 0.543186
0.000000 0.955956 0.608520
0.000000 0.955747 0.673732
0.000000 0.955539 0.738835
0.000000 0.955330 0.803838
0.000000 0.955122 0.868748
0.000000 0.954914 0.933574
0.000000 0.954707 0.998320
0.000000 1.000000 0.000000
0.000000 1.000000 0.010671
0.000000 1.000000 0.078536
0.000000 1.000000 0.145605
0.000000 1.000000 0.212207
0.000000 1.000000 0.278478
0.000000 1.000000 0.344491
0.000000 1.000000 0.410293
0.000000 1.000000 0.475918
0.000000 1.000000 0.541388
0.000000 1.000000 0.606722
0.000000 1.000000 0.671935
0.000000 1.000000 0.737037
0.000000 1.000000 0.802040
0.000000 1.000000 0.866951
0.000000 1.000000 0.931776
0.000000 1.000000 0.996522
0.088132 0.000000 0.000000
0.087991 0.000000 0.043151
0.087773 0.000000 0.111016
0.087558 0.000000 0.178085
0.087344 0.000000 0.244687
0.087132 0.000000 0.310958
0.086920 0.000000 0.376971
0.086709 0.000000 0.442773
0.086499 0.000000 0.508397
0.086289 0.000000 0.573867
0.086079 0.000000 0.639202
0.085870 0.000000 0.704414
0.085662 0.000000 0.769517
0.085453 0.000000 0.834520
0.085245 0.000000 0.899430
0.085037 0.000000 0.964255
0.084830 0.000000 1.000000
0.086023 0.063673 0.000000
0.085881 0.063532 0.041042
0.085664 0.063314 0.108907
0.085449 0.063099 0.175976
0.085235 0.062886 0.242578
0.085023 0.062673 0.308849
0.084811 0.062461 0.374862
0.084600 0.062250 0.440664
0.084390 0.062040 0.506288
0.084180 0.061830 0.571758
0.083970 0.061621 0.637092
0.083761 0.061412 0.702305
0.083553 0.061203 0.767408
0.083344 0.060994 0.832411
0.083136 0.060786 0.897321
0.082928 0.060578 0.962146
0.082721 0.060371 1.000000
0.083877 0.129283 0.000000
0.083736 0.129142 0.038897
0.083519 0.128924 0.106762
0.083304 0.128709 0.173831
0.083090 0.128495 0.240433
0.082878 0.128283 0.306704
0.082666 0.128071 0.372717
0.082455 0.127860 0.438519
0.082245 0.127650 0.504143
0.082035 0.127440 0.569613
0.081825 0.127231 0.634947
0.081616 0.127021 0.700160
0.081408 0.126813 0.765263
0.081199 0.126604 0.830266
0.080991 0.126396 0.895176
0.080783 0.126188 0.960001
0.080576 0.125981 1.000000
0.081753 0.194267 0.000000
0.081612 0.194126 0.036772
0.081394 0.193908 0.104637
0.081179 0.193693 0.171706
0.080966 0.193479 0.238308
0.080753 0.193267 0.304579
0.080542 0.193055 0.370592
0.080331 0.192844 0.436394
0.080120 0.192634 0.502019
0.079910 0.192424 0.567489
0.079701 0.192215 0.632823
0.079492 0.192005 0.698036
0.079283 0.191797 0.763138
0.079075 0.191588 0.828141
0.078866 0.191380 0.893052
0.078659 0.191172 0.957877
0.078451 0.190965 1.000000
0.079641 0.258851 0.000000
0.079500 0.258710 0.034661
0.079283 0.258492 0.102526
0.079068 0.258277 0.169595
0.078854 0.258064 0.236197
0.078642 0.257851 0.302468
0.078430 0.257640 0.368480
0.078219 0.257429 0.434283
0.078009 0.257218 0.499907
0.077799 0.257008 0.565377
0.077589 0.256799 0.630711
0.077380 0.256590 0.695924
0.077171 0.256381 0.761027
0.076963 0.256173 0.826030
0.076755 0.255964 0.890940
0.076547 0.255757 0.955765
0.076340 0.255549 1.000000
0.077540 0.323141 0.000000
0.077398 0.323000 0.032559
0.077181 0.322782 0.100424
0.076966 0.322567 0.167493
0.076752 0.322353 0.234095
0.076540 0.322141 0.300366
0.076328 0.321929 0.366379
0.076117 0.321718 0.432181
0.075907 0.321508 0.497805
0.075697 0.321298 0.563275
0.075487 0.321089 0.628610
0.075278 0.320880 0.693822
0.075070 0.320671 0.758925
0.074861 0.320462 0.823928
0.074653 0.320254 0.888838
0.074445 0.320046 0.953663
0.074238 0.319839 1.000000
0.075445 0.387197 0.000000
0.075304 0.387056 0.030464
0.075087 0.386839 0.098330
0.074872 0.386624 0.165398
0.074658 0.386410 0.232001
0.074446 0.386198 0.298271
0.074234 0.385986 0.364284
0.074023 0.385775 0.430087
0.073813 0.385565 0.495711
0.073603 0.385355 0.561181
0.073393 0.385145 0.626515
0.073184 0.384936 0.691728
0.072975 0.384727 0.756831
0.072767 0.384519 0.821833
0.072559 0.384311 0.886744
0.072351 0.384103 0.951569
0.072143 0.383895 1.000000
0.073357 0.451061 0.000000
0.073216 0.450920 0.028377
0.072999 0.450702 0.096242
0.072784 0.450487 0.163311
0.072570 0.450274 0.229913
0.072358 0.450061 0.296183
0.072146 0.449850 0.362196
0.071935 0.449639 0.427999
0.071725 0.449428 0.493623
0.071515 0.449218 0.559093
0.071305 0.449009 0.624427
0.071096 0.448800 0.689640
0.070887 0.448591 0.754743
0.070679 0.448383 0.819745
0.070471 0.448174 0.884656
0.070263 0.447967 0.949481
0.070055 0.447759 1.000000
0.071275 0.514760 0.000000
0.071134 0.514619 0.026294
0.070916 0.514401 0.094159
0.070701 0.514186 0.161228
0.070488 0.513973 0.227830
0.070275 0.513760 0.294101
0.070063 0.513549 0.360114
0.069852 0.513338 0.425916
0.069642 0.513127 0.491540
0.069432 0.512917 0.557011
0.069223 0.512708 0.622345
0.069014 0.512499 0.687557
0.068805 0.512290 0.752660
0.068596 0.512082 0.817663
0.068388 0.511873 0.882573
0.068180 0.511666 0.947399
0.067973 0.511458 1.000000
0.069197 0.578315 0.000000
0.069056 0.578174 0.024216
0.068838 0.577957 0.092081
0.068623 0.577742 0.159150
0.068410 0.577528 0.225752
0.068197 0.577316 0.292023
0.067986 0.577104 0.358036
0.067775 0.576893 0.423838
0.067564 0.576683 0.489463
0.067354 0.576473 0.554933
0.067145 0.576263 0.620267
0.066936 0.576054 0.685480
0.066727 0.575846 0.750582
0.066519 0.575637 0.815585
0.066310 0.575429 0.880496
0.066103 0.575221 0.945321
0.065895 0.575014 1.000000
0.067123 0.641744 0.000000
0.066982 0.641603 0.022142
0.066765 0.641385 0.090008
0.066550 0.641170 0.157076
0.066336 0.640957 0.223679
0.066123 0.640744 0.289949
0.065912 0.640533 0.355962
0.065701 0.640322 0.421765
0.065490 0.640111 0.487389
0.065281 0.639901 0.552859
0.065071 0.639692 0.618193
0.064862 0.639483 0.683406
0.064653 0.639274 0.748509
0.064445 0.639066 0.813511
0.064237 0.638858 0.878422
0.064029 0.638650 0.943247
0.063821 0.638442 1.000000
0.065053 0.705058 0.000000
0.064912 0.704917 0.020072
0.064695 0.704700 0.087938
0.064480 0.704485 0.155006
0.064266 0.704271 0.221609
0.064054 0.704059 0.287879
0.063842 0.703847 0.353892
0.063631 0.703636 0.419695
0.063420 0.703426 0.485319
0.063211 0.703216 0.550789
0.063001 0.703006 0.616123
0.062792 0.702797 0.681336
0.062583 0.702588 0.746439
0.062375 0.702380 0.811441
0.062167 0.702172 0.876352
0.061959 0.701964 0.941177
0.061751 0.701756 1.000000
0.062987 0.768269 0.000000
0.062846 0.768128 0.018006
0.062628 0.767911 0.085871
0.062413 0.767696 0.152940
0.062199 0.767482 0.219542
0.061987 0.767270 0.285813
0.061775 0.767058 0.351826
0.061564 0.766847 0.417628
0.061354 0.766637 0.483252
0.061144 0.766427 0.548722
0.060934 0.766217 0.614057
0.060725 0.766008 0.679269
0.060517 0.765799 0.744372
0.060308 0.765591 0.809375
0.060100 0.765383 0.874285
0.059892 0.765175 0.939110
0.059685 0.764967 1.000000
0.060923 0.831386 0.000000
0.060782 0.831245 0.015942
0.060564 0.831027 0.083807
0.060349 0.830812 0.150876
0.060136 0.830598 0.217479
0.059923 0.830386 0.283749
0.059712 0.830174 0.349762
0.059501 0.829963 0.415564
0.059290 0.829753 0.481189
0.059080 0.829543 0.546659
0.058871 0.829334 0.611993
0.058662 0.829124 0.677206
0.058453 0.828916 0.742309
0.058245 0.828707 0.807311
0.058037 0.828499 0.872222
0.057829 0.828291 0.937047
0.057621 0.828084 1.000000
0.058862 0.894415 0.000000
0.058721 0.894274 0.013882
0.058504 0.894056 0.081747
0.058289 0.893841 0.148816
0.058075 0.893628 0.215418
0.057863 0.893415 0.281689
0.057651 0.893204 0.347701
0.057440 0.892993 0.413504
0.057230 0.892782 0.479128
0.057020 0.892572 0.544598
0.056810 0.892363 0.609932
0.056601 0.892154 0.675145
0.056392 0.891945 0.740248
0.056184 0.891737 0.805251
0.055976 0.891528 0.870161
0.055768 0.891321 0.934986
0.055561 0.891113 0.999732
0.056804 0.957363 0.000000
0.056663 0.957222 0.011824
0.056446 0.957005 0.079689
0.056231 0.956790 0.146758
0.056017 0.956576 0.213360
0.055805 0.956364 0.279631
0.055593 0.956152 0.345643
0.055382 0.955941 0.411446
0.055172 0.955730 0.477070
0.054962 0.955521 0.542540
0.054752 0.955311 0.607874
0.054543 0.955102 0.673087
0.054334 0.954893 0.738190
0.054126 0.954685 0.803193
0.053918 0.954477 0.868103
0.053710 0.954269 0.932928
0.053502 0.954061 0.997674
0.055007 1.000000 0.000000
0.054866 1.000000 0.010026
0.054648 1.000000 0.077891
0.054433 1.000000 0.144960
0.054219 1.000000 0.211562
0.054007 1.000000 0.277833
0.053795 1.000000 0.343846
0.053584 1.000000 0.409648
0.053374 1.000000 0.475272
0.053164 1.000000 0.540742
0.052954 1.000000 0.606077
0.052745 1.000000 0.671289
0.052537 1.000000 0.736392
0.052328 1.000000 0.801395
0.052120 1.000000 0.866305
0.051912 1.000000 0.931130
0.051705 1.000000 0.995876
0.154997 0.000000 0.000000
0.154856 0.000000 0.042516
0.154638 0.000000 0.110381
0.154423 0.000000 0.177450
0.154210 0.000000 0.244052
0.153997 0.000000 0.310322
0.153786 0.000000 0.376335
0.153575 0.000000 0.442138
0.153364 0.000000 0.507762
0.153154 0.000000 0.573232
0.152945 0.000000 0.638566
0.152736 0.000000 0.703779
0.152527 0.000000 0.768882
0.152319 0.000000 0.833884
0.152111 0.000000 0.898795
0.151903 0.000000 0.963620
0.151695 0.000000 1.000000
0.152888 0.063038 0.000000
0.152747 0.062897 0.040406
0.152529 0.062679 0.108272
0.152314 0.062464 0.175340
0.152101 0.062250 0.241943
0.151888 0.062038 0.308213
0.151677 0.061826 0.374226
0.151466 0.061615 0.440029
0.151255 0.061405 0.505653
0.151045 0.061195 0.571123
0.150836 0.060985 0.636457
0.150627 0.060776 0.701670
0.150418 0.060568 0.766773
0.150210 0.060359 0.831775
0.150001 0.060151 0.896686
0.149794 0.059943 0.961511
0.149586 0.059736 1.000000
0.150743 0.128647 0.000000
0.150602 0.128506 0.038261
0.150384 0.128289 0.106127
0.150169 0.128074 0.173195
0.149956 0.127860 0.239798
0.149743 0.127648 0.306068
0.149532 0.127436 0.372081
0.149321 0.127225 0.437884
0.149110 0.127015 0.503508
0.148900 0.126805 0.568978
0.148691 0.126595 0.634312
0.148482 0.126386 0.699525
0.148273 0.126177 0.764628
0.148065 0.125969 0.829630
0.147856 0.125761 0.894541
0.147649 0.125553 0.959366
0.147441 0.125346 1.000000
0.148618 0.193631 0.000000
0.148477 0.193490 0.036137
0.148260 0.193273 0.104002
0.148045 0.193058 0.171071
0.147831 0.192844 0.237673
0.147619 0.192632 0.303944
0.147407 0.192420 0.369957
0.147196 0.192209 0.435759
0.146986 0.191999 0.501383
0.146776 0.191789 0.566853
0.146566 0.191579 0.632188
0.146357 0.191370 0.697400
0.146148 0.191161 0.762503
0.145940 0.190953 0.827506
0.145732 0.190745 0.892416
0.145524 0.190537 0.957242
0.145316 0.190329 1.000000
0.146507 0.258216 0.000000
0.146366 0.258075 0.034025
0.146148 0.257857 0.101891
0.145933 0.257642 0.168959
0.145720 0.257428 0.235562
0.145507 0.257216 0.301832
0.145295 0.257004 0.367845
0.145084 0.256793 0.433648
0.144874 0.256583 0.499272
0.144664 0.256373 0.564742
0.144455 0.256164 0.630076
0.144246 0.255954 0.695289
0.144037 0.255746 0.760392
0.143828 0.255537 0.825394
0.143620 0.255329 0.890305
0.143412 0.255121 0.955130
0.143205 0.254914 1.000000
0.144405 0.322505 0.000000
0.144264 0.322364 0.031923
0.144046 0.322147 0.099789
0.143831 0.321932 0.166857
0.143618 0.321718 0.233460
0.143405 0.321506 0.299730
0.143194 0.321294 0.365743
0.142983 0.321083 0.431546
0.142772 0.320873 0.497170
0.142562 0.320663 0.562640
0.142353 0.320453 0.627974
0.142144 0.320244 0.693187
0.141935 0.320036 0.758290
0.141727 0.319827 0.823292
0.141518 0.319619 0.888203
0.141311 0.319411 0.953028
0.141103 0.319204 1.000000
0.142311 0.386562 0.000000
0.142170 0.386421 0.029829
0.141952 0.386203 0.097694
0.141737 0.385988 0.164763
0.141523 0.385775 0.231366
0.141311 0.385562 0.297636
0.141099 0.385351 0.363649
0.140888 0.385140 0.429451
0.140678 0.384929 0.495076
0.140468 0.384719 0.560546
0.140259 0.384510 0.625880
0.140049 0.384301 0.691093
0.139841 0.384092 0.756196
0.139632 0.383884 0.821198
0.139424 0.383676 0.886109
0.139216 0.383468 0.950934
0.139009 0.383260 1.000000
0.140223 0.450426 0.000000
0.140082 0.450285 0.027741
0.139864 0.450067 0.095606
0.139649 0.449852 0.162675
0.139435 0.449638 0.229278
0.139223 0.449426 0.295548
0.139011 0.449214 0.361561
0.138800 0.449003 0.427363
0.138590 0.448793 0.492988
0.138380 0.448583 0.558458
0.138171 0.448374 0.623792
0.137962 0.448164 0.689005
0.137753 0.447956 0.754108
0.137544 0.447747 0.819110
0.137336 0.447539 0.884021
0.137128 0.447331 0.948846
0.136921 0.447124 1.000000
0.138140 0.514125 0.000000
0.137999 0.513984 0.025659
0.137782 0.513766 0.093524
0.137566 0.513551 0.160593
0.137353 0.513337 0.227195
0.137140 0.513125 0.293466
0.136929 0.512913 0.359479
0.136718 0.512702 0.425281
0.136507 0.512492 0.490905
0.136298 0.512282 0.556375
0.136088 0.512073 0.621710
0.135879 0.511863 0.686922
0.135670 0.511655 0.752025
0.135462 0.511446 0.817028
0.135254 0.511238 0.881938
0.135046 0.511030 0.946763
0.134838 0.510823 1.000000
0.136062 0.577680 0.000000
0.135921 0.577539 0.023581
0.135704 0.577322 0.091446
0.135489 0.577107 0.158515
0.135275 0.576893 0.225117
0.135063 0.576681 0.291388
0.134851 0.576469 0.357401
0.134640 0.576258 0.423203
0.134430 0.576048 0.488827
0.134220 0.575838 0.554297
0.134010 0.575628 0.619632
0.133801 0.575419 0.684844
0.133592 0.575210 0.749947
0.133384 0.575002 0.814950
0.133176 0.574794 0.879860
0.132968 0.574586 0.944686
0.132760 0.574378 1.000000
0.133989 0.641109 0.000000
0.133848 0.640968 0.021507
0.133630 0.640750 0.089372
0.133415 0.640535 0.156441
0.133201 0.640322 0.223043
0.132989 0.640109 0.289314
0.132777 0.639897 0.355327
0.132566 0.639686 0.421129
0.132356 0.639476 0.486754
0.132146 0.639266 0.552224
0.131936 0.639057 0.617558
0.131727 0.638848 0.682771
0.131519 0.638639 0.747873
0.131310 0.638430 0.812876
0.131102 0.638222 0.877787
0.130894 0.638014 0.942612
0.130687 0.637807 1.000000
0.131919 0.704423 0.000000
0.131778 0.704282 0.019437
0.131560 0.704065 0.087302
0.131345 0.703849 0.154371
0.131131 0.703636 0.220974
0.130919 0.703423 0.287244
0.130707 0.703212 0.353257
0.130496 0.703001 0.419059
0.130286 0.702790 0.484684
0.130076 0.702581 0.550154
0.129866 0.702371 0.615488
0.129657 0.702162 0.680701
0.129449 0.701953 0.745803
0.129240 0.701745 0.810806
0.129032 0.701537 0.875717
0.128824 0.701329 0.940542
0.128617 0.701121 1.000000
0.129852 0.767634 0.000000
0.129711 0.767493 0.017371
0.129493 0.767275 0.085236
0.129278 0.767060 0.152305
0.129065 0.766847 0.218907
0.128852 0.766634 0.285177
0.128641 0.766423 0.351190
0.128430 0.766212 0.416993
0.128219 0.766001 0.482617
0.128009 0.765791 0.548087
0.127800 0.765582 0.613421
0.127591 0.765373 0.678634
0.127382 0.765164 0.743737
0.127174 0.764956 0.808739
0.126965 0.764748 0.873650
0.126758 0.764540 0.938475
0.126550 0.764332 1.000000
0.127788 0.830750 0.000000
0.127647 0.830609 0.015307
0.127430 0.830392 0.083172
0.127215 0.830177 0.150241
0.127001 0.829963 0.216843
0.126789 0.829751 0.283114
0.126577 0.829539 0.349127
0.126366 0.829328 0.414929
0.126156 0.829118 0.480553
0.125946 0.828908 0.546024
0.125736 0.828698 0.611358
0.125527 0.828489 0.676570
0.125319 0.828281 0.741673
0.125110 0.828072 0.806676
0.124902 0.827864 0.871586
0.124694 0.827656 0.936412
0.124487 0.827449 1.000000
0.125728 0.893780 0.000000
0.125587 0.893639 0.013246
0.125369 0.893421 0.081112
0.125154 0.893206 0.148180
0.124941 0.892992 0.214783
0.124728 0.892780 0.281053
0.124516 0.892568 0.347066
0.124305 0.892357 0.412869
0.124095 0.892147 0.478493
0.123885 0.891937 0.543963
0.123676 0.891728 0.609297
0.123467 0.891518 0.674510
0.123258 0.891310 0.739613
0.123049 0.891101 0.804615
0.122841 0.890893 0.869526
0.122633 0.890685 0.934351
0.122426 0.890478 0.999097
0.123670 0.956728 0.000000
0.123529 0.956587 0.011188
0.123311 0.956369 0.079054
0.123096 0.956154 0.146122
0.122883 0.955941 0.212725
0.122670 0.955728 0.278995
0.122458 0.955517 0.345008
0.122247 0.955306 0.410811
0.122037 0.955095 0.476435
0.121827 0.954885 0.541905
0.121618 0.954676 0.607239
0.121409 0.954467 0.672452
0.121200 0.954258 0.737555
0.120991 0.954050 0.802557
0.120783 0.953841 0.867468
0.120575 0.953634 0.932293
0.120368 0.953426 0.997039
0.121872 1.000000 0.000000
0.121731 1.000000 0.009391
0.121513 1.000000 0.077256
0.121298 1.000000 0.144324
0.121085 1.000000 0.210927
0.120872 1.000000 0.277197
0.120661 1.000000 0.343210
0.120450 1.000000 0.409013
0.120239 1.000000 0.474637
0.120029 1.000000 0.540107
0.119820 1.000000 0.605441
0.119611 1.000000 0.670654
0.119402 1.000000 0.735757
0.119194 1.000000 0.800759
0.118985 1.000000 0.865670
0.118778 1.000000 0.930495
0.118570 1.000000 0.995241
0.221323 0.000000 0.000000
0.221182 0.000000 0.041885
0.220964 0.000000 0.109751
0.220749 0.000000 0.176819
0.220536 0.000000 0.243422
0.220323 0.000000 0.309692
0.220112 0.000000 0.375705
0.219901 0.000000 0.441508
0.219690 0.000000 0.507132
0.219480 0.000000 0.572602
0.219271 0.000000 0.637936
0.219062 0.000000 0.703149
0.218853 0.000000 0.768252
0.218645 0.000000 0.833254
0.218437 0.000000 0.898165
0.218229 0.000000 0.962990
0.218021 0.000000 1.000000
0.219214 0.062407 0.000000
