skills/editops-orchestrator/assets/grade/luts/ad_warm_v20.cube
TITLE "ad_warm_v20"
LUT_3D_SIZE 9
DOMAIN_MIN 0.0 0.0 0.0
DOMAIN_MAX 1.0 1.0 1.0
0.052660 0.000000 0.000000
0.052000 0.000000 0.083398
0.050826 0.000000 0.233999
0.049685 0.000000 0.380358
0.048563 0.000000 0.524354
0.047453 0.000000 0.666703
0.046353 0.000000 0.807788
0.045261 0.000000 0.947851
0.044176 0.000000 1.000000
0.041414 0.134290 0.000000
0.040754 0.133630 0.072151
0.039580 0.132456 0.222752
0.038439 0.131315 0.369112
0.037316 0.130193 0.513108
0.036207 0.129083 0.655456
0.035107 0.127983 0.796542
0.034015 0.126891 0.936604
0.032930 0.125806 1.000000
0.029946 0.272478 0.000000
0.029286 0.271818 0.060683
0.028112 0.270644 0.211284
0.026971 0.269503 0.357644
0.025849 0.268380 0.501640
0.024739 0.267271 0.643989
0.023639 0.266171 0.785074
0.022547 0.265079 0.925137
0.021462 0.263994 1.000000
0.018726 0.407680 0.000000
0.018066 0.407021 0.049463
0.016892 0.405846 0.200064
0.015751 0.404705 0.346424
0.014628 0.403583 0.490420
0.013519 0.402473 0.632768
0.012419 0.401373 0.773854
0.011327 0.400281 0.913916
0.010242 0.399196 1.000000
0.007661 0.541009 0.000000
0.007001 0.540349 0.038399
0.005827 0.539175 0.189000
0.004686 0.538034 0.335359
0.003564 0.536912 0.479355
0.002454 0.535802 0.621704
0.001354 0.534702 0.762789
0.000262 0.533610 0.902852
0.000000 0.532525 1.000000
0.000000 0.672971 0.000000
0.000000 0.672311 0.027447
0.000000 0.671137 0.178048
0.000000 0.669996 0.324408
0.000000 0.668873 0.468404
0.000000 0.667764 0.610753
0.000000 0.666664 0.751838
0.000000 0.665572 0.891901
0.000000 0.664487 1.000000
0.000000 0.803858 0.000000
0.000000 0.803198 0.016585
0.000000 0.802024 0.167186
0.000000 0.800883 0.313546
0.000000 0.799761 0.457542
0.000000 0.798651 0.599891
0.000000 0.797551 0.740976
0.000000 0.796459 0.881038
0.000000 0.795374 1.000000
0.000000 0.933861 0.000000
0.000000 0.933201 0.005797
0.000000 0.932027 0.156398
0.000000 0.930886 0.302758
0.000000 0.929763 0.446753
0.000000 0.928653 0.589102
0.000000 0.927553 0.730187
0.000000 0.926462 0.870250
0.000000 0.925376 1.000000
0.000000 1.000000 0.000000
0.000000 1.000000 0.000000
0.000000 1.000000 0.148175
0.000000 1.000000 0.294534
0.000000 1.000000 0.438530
0.000000 1.000000 0.580879
0.000000 1.000000 0.721964
0.000000 1.000000 0.862027
0.000000 1.000000 1.000000
0.202436 0.000000 0.000000
0.201776 0.000000 0.079906
0.200602 0.000000 0.230507
0.199461 0.000000 0.376867
0.198338 0.000000 0.520863
0.197228 0.000000 0.663212
0.196128 0.000000 0.804297
0.195037 0.000000 0.944360
0.193951 0.000000 1.000000
0.191189 0.130799 0.000000
0.190529 0.130139 0.068660
0.189355 0.128965 0.219261
0.188214 0.127824 0.365621
0.187092 0.126702 0.509617
0.185982 0.125592 0.651965
0.184882 0.124492 0.793051
0.183790 0.123400 0.933113
0.182705 0.122315 1.000000
0.179721 0.268987 0.000000
0.179062 0.268327 0.057192
0.177888 0.267153 0.207793
0.176746 0.266012 0.354153
0.175624 0.264889 0.498149
0.174514 0.263780 0.640497
0.173414 0.262680 0.781583
0.172322 0.261588 0.921645
0.171237 0.260502 1.000000
0.168501 0.404189 0.000000
0.167841 0.403529 0.045972
0.166667 0.402355 0.196573
0.165526 0.401214 0.342933
0.164404 0.400092 0.486929
0.163294 0.398982 0.629277
0.162194 0.397882 0.770363
0.161102 0.396790 0.910425
0.160017 0.395705 1.000000
0.157437 0.537518 0.000000
0.156777 0.536858 0.034907
0.155603 0.535684 0.185508
0.154462 0.534543 0.331868
0.153339 0.533420 0.475864
0.152229 0.532311 0.618213
0.151129 0.531211 0.759298
0.150037 0.530119 0.899361
0.148952 0.529033 1.000000
0.146485 0.669480 0.000000
0.145826 0.668820 0.023956
0.144651 0.667646 0.174557
0.143510 0.666505 0.320917
0.142388 0.665382 0.464913
0.141278 0.664273 0.607261
0.140178 0.663173 0.748347
0.139086 0.662081 0.888409
0.138001 0.660995 1.000000
0.135623 0.800367 0.000000
0.134964 0.799707 0.013094
0.133789 0.798533 0.163695
0.132648 0.797392 0.310055
0.131526 0.796270 0.454051
0.130416 0.795160 0.596399
0.129316 0.794060 0.737485
0.128224 0.792968 0.877547
0.127139 0.791883 1.000000
0.124835 0.930369 0.000000
0.124175 0.929710 0.002306
0.123001 0.928536 0.152906
0.121860 0.927395 0.299266
0.120737 0.926272 0.443262
0.119627 0.925162 0.585611
0.118528 0.924062 0.726696
0.117436 0.922970 0.866759
0.116350 0.921885 1.000000
0.116612 1.000000 0.000000
0.115952 1.000000 0.000000
0.114778 1.000000 0.144683
0.113637 1.000000 0.291043
0.112514 1.000000 0.435039
0.111404 1.000000 0.577388
0.110304 1.000000 0.718473
0.109213 1.000000 0.858536
0.108127 1.000000 0.997739
0.347192 0.000000 0.000000
0.346532 0.000000 0.076532
0.345358 0.000000 0.227133
0.344217 0.000000 0.373493
0.343094 0.000000 0.517489
0.341985 0.000000 0.659837
0.340885 0.000000 0.800923
0.339793 0.000000 0.940985
0.338708 0.000000 1.000000
0.335946 0.127425 0.000000
0.335286 0.126765 0.065286
0.334112 0.125591 0.215887
0.332971 0.124450 0.362247
0.331848 0.123327 0.506242
0.330738 0.122218 0.648591
0.329638 0.121118 0.789677
0.328546 0.120026 0.929739
0.327461 0.118941 1.000000
0.324478 0.265613 0.000000
0.323818 0.264953 0.053818
0.322644 0.263779 0.204419
0.321503 0.262638 0.350779
0.320380 0.261515 0.494775
0.319270 0.260405 0.637123
0.318171 0.259305 0.778209
0.317079 0.258214 0.918271
0.315993 0.257128 1.000000
0.313257 0.400815 0.000000
0.312598 0.400155 0.042598
0.311424 0.398981 0.193199
0.310283 0.397840 0.339559
0.309160 0.396717 0.483554
0.308050 0.395608 0.625903
0.306950 0.394508 0.766989
0.305858 0.393416 0.907051
0.304773 0.392331 1.000000
0.302193 0.534144 0.000000
0.301533 0.533484 0.031533
0.300359 0.532310 0.182134
0.299218 0.531169 0.328494
0.298095 0.530046 0.472490
0.296986 0.528936 0.614838
0.295886 0.527836 0.755924
0.294794 0.526745 0.895986
0.293709 0.525659 1.000000
0.291242 0.666106 0.000000
0.290582 0.665446 0.020582
0.289408 0.664272 0.171183
0.288267 0.663131 0.317543
0.287144 0.662008 0.461539
0.286034 0.660898 0.603887
0.284934 0.659798 0.744973
0.283843 0.658706 0.885035
0.282757 0.657621 1.000000
0.280380 0.796993 0.000000
0.279720 0.796333 0.009720
0.278546 0.795159 0.160321
0.277405 0.794018 0.306681
0.276282 0.792895 0.450676
0.275172 0.791786 0.593025
0.274072 0.790686 0.734111
0.272981 0.789594 0.874173
0.271895 0.788508 1.000000
0.269591 0.926995 0.000000
0.268931 0.926335 0.000000
0.267757 0.925161 0.149532
0.266616 0.924020 0.295892
0.265493 0.922898 0.439888
0.264384 0.921788 0.582237
0.263284 0.920688 0.723322
0.262192 0.919596 0.863384
0.261107 0.918511 1.000000
0.261368 1.000000 0.000000
0.260708 1.000000 0.000000
0.259534 1.000000 0.141309
0.258393 1.000000 0.287669
0.257270 1.000000 0.431665
0.256161 1.000000 0.574013
0.255061 1.000000 0.715099
0.253969 1.000000 0.855161
0.252884 1.000000 0.994364
0.489397 0.000000 0.000000
0.488737 0.000000 0.073217
0.487563 0.000000 0.223818
0.486422 0.000000 0.370178
0.485300 0.000000 0.514174
0.484190 0.000000 0.656523
0.483090 0.000000 0.797608
0.481998 0.000000 0.937671
0.480913 0.000000 1.000000
0.478151 0.124110 0.000000
0.477491 0.123450 0.061971
0.476317 0.122276 0.212572
0.475176 0.121135 0.358932
0.474053 0.120013 0.502928
0.472943 0.118903 0.645276
0.471844 0.117803 0.786362
0.470752 0.116711 0.926424
0.469666 0.115626 1.000000
0.466683 0.262298 0.000000
0.466023 0.261638 0.050503
0.464849 0.260464 0.201104
0.463708 0.259323 0.347464
0.462585 0.258200 0.491460
0.461476 0.257091 0.633808
0.460376 0.255991 0.774894
0.459284 0.254899 0.914956
0.458198 0.253814 1.000000
0.455463 0.397500 0.000000
0.454803 0.396840 0.039283
0.453629 0.395666 0.189884
0.452488 0.394525 0.336244
0.451365 0.393403 0.480240
0.450255 0.392293 0.622588
0.449155 0.391193 0.763674
0.448064 0.390101 0.903736
0.446978 0.389016 1.000000
0.444398 0.530829 0.000000
0.443738 0.530169 0.028218
0.442564 0.528995 0.178819
0.441423 0.527854 0.325179
0.440300 0.526731 0.469175
0.439191 0.525622 0.611524
0.438091 0.524522 0.752609
0.436999 0.523430 0.892672
0.435914 0.522345 1.000000
0.433447 0.662791 0.000000
0.432787 0.662131 0.017267
0.431613 0.660957 0.167868
0.430472 0.659816 0.314228
0.429349 0.658693 0.458224
0.428240 0.657584 0.600572
0.427140 0.656484 0.741658
0.426048 0.655392 0.881720
0.424962 0.654307 1.000000
0.422585 0.793678 0.000000
0.421925 0.793018 0.006405
0.420751 0.791844 0.157006
0.419610 0.790703 0.303366
0.418487 0.789581 0.447362
0.417377 0.788471 0.589710
0.416278 0.787371 0.730796
0.415186 0.786279 0.870858
0.414100 0.785194 1.000000
0.411796 0.923680 0.000000
0.411136 0.923021 0.000000
0.409962 0.921847 0.146218
0.408821 0.920706 0.292577
0.407699 0.919583 0.436573
0.406589 0.918473 0.578922
0.405489 0.917373 0.720007
0.404397 0.916281 0.860070
0.403312 0.915196 0.999273
0.403573 1.000000 0.000000
0.402913 1.000000 0.000000
0.401739 1.000000 0.137994
0.400598 1.000000 0.284354
0.399476 1.000000 0.428350
0.398366 1.000000 0.570699
0.397266 1.000000 0.711784
0.396174 1.000000 0.851847
0.395089 1.000000 0.991050
0.629875 0.000000 0.000000
0.629215 0.000000 0.069943
0.628041 0.000000 0.220544
0.626900 0.000000 0.366904
0.625778 0.000000 0.510900
0.624668 0.000000 0.653248
0.623568 0.000000 0.794334
0.622476 0.000000 0.934396
0.621391 0.000000 1.000000
0.618629 0.120836 0.000000
0.617969 0.120176 0.058697
0.616795 0.119002 0.209298
0.615654 0.117861 0.355658
0.614531 0.116738 0.499653
0.613422 0.115628 0.642002
0.612322 0.114528 0.783087
0.611230 0.113437 0.923150
0.610145 0.112351 1.000000
0.607161 0.259023 0.000000
0.606501 0.258364 0.047229
0.605327 0.257190 0.197830
0.604186 0.256048 0.344190
0.603064 0.254926 0.488185
0.601954 0.253816 0.630534
0.600854 0.252716 0.771620
0.599762 0.251624 0.911682
0.598677 0.250539 1.000000
0.595941 0.394226 0.000000
0.595281 0.393566 0.036009
0.594107 0.392392 0.186610
0.592966 0.391251 0.332970
0.591843 0.390128 0.476965
0.590734 0.389018 0.619314
0.589634 0.387919 0.760399
0.588542 0.386827 0.900462
0.587457 0.385741 1.000000
0.584876 0.527554 0.000000
0.584216 0.526895 0.024944
0.583042 0.525721 0.175545
0.581901 0.524579 0.321905
0.580779 0.523457 0.465901
0.579669 0.522347 0.608249
0.578569 0.521247 0.749335
0.577477 0.520155 0.889397
0.576392 0.519070 1.000000
0.573925 0.659516 0.000000
0.573265 0.658857 0.013993
0.572091 0.657682 0.164594
0.570950 0.656541 0.310954
0.569827 0.655419 0.454949
0.568718 0.654309 0.597298
0.567618 0.653209 0.738384
0.566526 0.652117 0.878446
0.565441 0.651032 1.000000
0.563063 0.790404 0.000000
0.562403 0.789744 0.003131
0.561229 0.788570 0.153732
0.560088 0.787429 0.300092
0.558965 0.786306 0.444087
0.557856 0.785196 0.586436
0.556756 0.784096 0.727522
0.555664 0.783005 0.867584
0.554579 0.781919 1.000000
0.552274 0.920406 0.000000
0.551615 0.919746 0.000000
0.550440 0.918572 0.142943
0.549299 0.917431 0.289303
0.548177 0.916309 0.433299
0.547067 0.915199 0.575647
0.545967 0.914099 0.716733
0.544875 0.913007 0.856795
0.543790 0.911922 0.995998
0.544051 1.000000 0.000000
0.543391 1.000000 0.000000
0.542217 1.000000 0.134720
0.541076 1.000000 0.281080
0.539954 1.000000 0.425076
0.538844 1.000000 0.567424
0.537744 1.000000 0.708510
0.536652 1.000000 0.848572
0.535567 1.000000 0.987775
0.769049 0.000000 0.000000
0.768389 0.000000 0.066699
0.767215 0.000000 0.217300
0.766074 0.000000 0.363660
0.764951 0.000000 0.507656
0.763841 0.000000 0.650004
0.762741 0.000000 0.791090
0.761650 0.000000 0.931152
0.760564 0.000000 1.000000
0.757802 0.117591 0.000000
0.757143 0.116932 0.055453
0.755968 0.115758 0.206054
0.754827 0.114617 0.352414
0.753705 0.113494 0.496409
0.752595 0.112384 0.638758
0.751495 0.111284 0.779843
0.750403 0.110192 0.919906
0.749318 0.109107 1.000000
0.746334 0.255779 0.000000
0.745675 0.255120 0.043985
0.744501 0.253945 0.194586
0.743360 0.252804 0.340946
0.742237 0.251682 0.484941
0.741127 0.250572 0.627290
0.740027 0.249472 0.768376
0.738935 0.248380 0.908438
0.737850 0.247295 1.000000
0.735114 0.390982 0.000000
0.734454 0.390322 0.032765
0.733280 0.389148 0.183366
0.732139 0.388007 0.329725
0.731017 0.386884 0.473721
0.729907 0.385774 0.616070
0.728807 0.384674 0.757155
0.727715 0.383583 0.897218
0.726630 0.382497 1.000000
0.724050 0.524310 0.000000
0.723390 0.523651 0.021700
0.722216 0.522476 0.172301
0.721075 0.521335 0.318661
0.719952 0.520213 0.462656
0.718842 0.519103 0.605005
0.717742 0.518003 0.746091
0.716651 0.516911 0.886153
0.715565 0.515826 1.000000
0.713098 0.656272 0.000000
0.712439 0.655613 0.010749
0.711265 0.654438 0.161350
0.710123 0.653297 0.307710
0.709001 0.652175 0.451705
0.707891 0.651065 0.594054
0.706791 0.649965 0.735139
0.705699 0.648873 0.875202
0.704614 0.647788 1.000000
0.702236 0.787159 0.000000
0.701577 0.786500 0.000000
0.700402 0.785326 0.150488
0.699261 0.784185 0.296848
0.698139 0.783062 0.440843
0.697029 0.781952 0.583192
0.695929 0.780852 0.724277
0.694837 0.779760 0.864340
0.693752 0.778675 1.000000
0.691448 0.917162 0.000000
0.690788 0.916502 0.000000
0.689614 0.915328 0.139699
0.688473 0.914187 0.286059
0.687350 0.913064 0.430055
0.686240 0.911955 0.572403
0.685141 0.910855 0.713489
0.684049 0.909763 0.853551
0.682963 0.908678 0.992754
0.683225 1.000000 0.000000
0.682565 1.000000 0.000000
0.681391 1.000000 0.131476
0.680250 1.000000 0.277836
0.679127 1.000000 0.421832
0.678017 1.000000 0.564180
0.676917 1.000000 0.705266
0.675826 1.000000 0.845328
0.674740 1.000000 0.984531
0.907174 0.000000 0.000000
0.906515 0.000000 0.063479
0.905341 0.000000 0.214080
0.904200 0.000000 0.360440
0.903077 0.000000 0.504436
0.901967 0.000000 0.646784
0.900867 0.000000 0.787870
0.899775 0.000000 0.927932
0.898690 0.000000 1.000000
0.895928 0.114372 0.000000
0.895268 0.113712 0.052233
0.894094 0.112538 0.202834
0.892953 0.111397 0.349194
0.891831 0.110274 0.493190
0.890721 0.109165 0.635538
0.889621 0.108065 0.776624
0.888529 0.106973 0.916686
0.887444 0.105888 1.000000
0.884460 0.252560 0.000000
0.883800 0.251900 0.040765
0.882626 0.250726 0.191366
0.881485 0.249585 0.337726
0.880363 0.248462 0.481722
0.879253 0.247352 0.624070
0.878153 0.246253 0.765156
0.877061 0.245161 0.905218
0.875976 0.244075 1.000000
0.873240 0.387762 0.000000
0.872580 0.387102 0.029545
0.871406 0.385928 0.180146
0.870265 0.384787 0.326506
0.869143 0.383664 0.470502
0.868033 0.382555 0.612850
0.866933 0.381455 0.753936
0.865841 0.380363 0.893998
0.864756 0.379278 1.000000
0.862175 0.521091 0.000000
0.861516 0.520431 0.018480
0.860342 0.519257 0.169081
0.859201 0.518116 0.315441
0.858078 0.516993 0.459437
0.856968 0.515883 0.601785
0.855868 0.514784 0.742871
0.854776 0.513692 0.882933
0.853691 0.512606 1.000000
0.851224 0.653053 0.000000
0.850564 0.652393 0.007529
0.849390 0.651219 0.158130
0.848249 0.650078 0.304490
0.847127 0.648955 0.448486
0.846017 0.647845 0.590834
0.844917 0.646745 0.731920
0.843825 0.645654 0.871982
0.842740 0.644568 1.000000
0.840362 0.783940 0.000000
0.839702 0.783280 0.000000
0.838528 0.782106 0.147268
0.837387 0.780965 0.293628
0.836265 0.779842 0.437624
0.835155 0.778733 0.579972
0.834055 0.777633 0.721058
0.832963 0.776541 0.861120
0.831878 0.775456 1.000000
0.829573 0.913942 0.000000
0.828914 0.913283 0.000000
0.827740 0.912108 0.136479
0.826599 0.910967 0.282839
0.825476 0.909845 0.426835
0.824366 0.908735 0.569184
0.823266 0.907635 0.710269
0.822174 0.906543 0.850332
0.821089 0.905458 0.989535
0.821350 1.000000 0.000000
0.820691 1.000000 0.000000
0.819517 1.000000 0.128256
0.818376 1.000000 0.274616
0.817253 1.000000 0.418612
0.816143 1.000000 0.560960
0.815043 1.000000 0.702046
0.813951 1.000000 0.842108
0.812866 1.000000 0.981311
1.000000 0.000000 0.000000
1.000000 0.000000 0.060280
1.000000 0.000000 0.210881
1.000000 0.000000 0.357241
1.000000 0.000000 0.501237
1.000000 0.000000 0.643585
1.000000 0.000000 0.784671
1.000000 0.000000 0.924733
1.000000 0.000000 1.000000
1.000000 0.111173 0.000000
1.000000 0.110513 0.049034
1.000000 0.109339 0.199635
1.000000 0.108198 0.345995
1.000000 0.107075 0.489990
1.000000 0.105965 0.632339
1.000000 0.104865 0.773425
1.000000 0.103774 0.913487
1.000000 0.102688 1.000000
1.000000 0.249360 0.000000
1.000000 0.248701 0.037566
1.000000 0.247527 0.188167
1.000000 0.246385 0.334527
1.000000 0.245263 0.478522
1.000000 0.244153 0.620871
1.000000 0.243053 0.761957
1.000000 0.241961 0.902019
1.000000 0.240876 1.000000
1.000000 0.384563 0.000000
1.000000 0.383903 0.026346
1.000000 0.382729 0.176947
1.000000 0.381588 0.323307
1.000000 0.380465 0.467302
1.000000 0.379355 0.609651
1.000000 0.378256 0.750736
1.000000 0.377164 0.890799
1.000000 0.376078 1.000000
0.999427 0.517891 0.000000
0.998767 0.517232 0.015281
0.997593 0.516058 0.165882
0.996452 0.514917 0.312242
0.995329 0.513794 0.456238
0.994220 0.512684 0.598586
0.993120 0.511584 0.739672
0.992028 0.510492 0.879734
0.990943 0.509407 1.000000
0.988476 0.649853 0.000000
0.987816 0.649194 0.004330
0.986642 0.648020 0.154931
0.985501 0.646878 0.301291
0.984378 0.645756 0.445286
0.983268 0.644646 0.587635
0.982169 0.643546 0.728721
0.981077 0.642454 0.868783
0.979991 0.641369 1.000000
0.977614 0.780741 0.000000
0.976954 0.780081 0.000000
0.975780 0.778907 0.144069
0.974639 0.777766 0.290429
0.973516 0.776643 0.434424
0.972406 0.775533 0.576773
0.971306 0.774433 0.717859
0.970215 0.773342 0.857921
0.969129 0.772256 0.997124
0.966825 0.910743 0.000000
0.966165 0.910083 0.000000
0.964991 0.908909 0.133280
0.963850 0.907768 0.279640
0.962728 0.906646 0.423636
0.961618 0.905536 0.565984
0.960518 0.904436 0.707070
0.959426 0.903344 0.847132
0.958341 0.902259 0.986335
0.958602 1.000000 0.000000
0.957942 1.000000 0.000000
0.956768 1.000000 0.125057
0.955627 1.000000 0.271417
0.954504 1.000000 0.415413
0.953395 1.000000 0.557761
0.952295 1.000000 0.698847
0.951203 1.000000 0.838909
0.950118 1.000000 0.978112
1.000000 0.000000 0.000000
1.000000 0.000000 0.059113
1.000000 0.000000 0.209714
1.000000 0.000000 0.356074
1.000000 0.000000 0.500070
1.000000 0.000000 0.642418
1.000000 0.000000 0.783504
1.000000 0.000000 0.923566
1.000000 0.000000 1.000000
1.000000 0.110006 0.000000
1.000000 0.109346 0.047867
1.000000 0.108172 0.198468
1.000000 0.107031 0.344828
1.000000 0.105908 0.488823
1.000000 0.104798 0.631172
1.000000 0.103699 0.772258
1.000000 0.102607 0.912320
1.000000 0.101521 1.000000
1.000000 0.248193 0.000000
1.000000 0.247534 0.036399
1.000000 0.246360 0.187000
1.000000 0.245219 0.333360
1.000000 0.244096 0.477355
1.000000 0.242986 0.619704
1.000000 0.241886 0.760790
1.000000 0.240794 0.900852
1.000000 0.239709 1.000000
1.000000 0.383396 0.000000
1.000000 0.382736 0.025179
1.000000 0.381562 0.175780
1.000000 0.380421 0.322140
1.000000 0.379298 0.466135
1.000000 0.378189 0.608484
1.000000 0.377089 0.749570
1.000000 0.375997 0.889632
1.000000 0.374911 1.000000
1.000000 0.516724 0.000000
1.000000 0.516065 0.014114
1.000000 0.514891 0.164715
1.000000 0.513750 0.311075
1.000000 0.512627 0.455071
1.000000 0.511517 0.597419
1.000000 0.510417 0.738505
1.000000 0.509325 0.878567
1.000000 0.508240 1.000000
1.000000 0.648686 0.000000
1.000000 0.648027 0.003163
1.000000 0.646853 0.153764
1.000000 0.645712 0.300124
1.000000 0.644589 0.444119
1.000000 0.643479 0.586468
1.000000 0.642379 0.727554
1.000000 0.641287 0.867616
1.000000 0.640202 1.000000
1.000000 0.779574 0.000000
1.000000 0.778914 0.000000
1.000000 0.777740 0.142902
1.000000 0.776599 0.289262
1.000000 0.775476 0.433257
1.000000 0.774366 0.575606
1.000000 0.773267 0.716692
1.000000 0.772175 0.856754
1.000000 0.771089 0.995957
1.000000 0.909576 0.000000
1.000000 0.908916 0.000000
1.000000 0.907742 0.132113
1.000000 0.906601 0.278473
1.000000 0.905479 0.422469
1.000000 0.904369 0.564817
1.000000 0.903269 0.705903
1.000000 0.902177 0.845965
1.000000 0.901092 0.985168
1.000000 1.000000 0.000000
1.000000 1.000000 0.000000
1.000000 1.000000 0.123890
1.000000 1.000000 0.270250
1.000000 1.000000 0.414246
1.000000 1.000000 0.556594
1.000000 1.000000 0.697680
1.000000 1.000000 0.837742
1.000000 1.000000 0.976945
