skills/editops-orchestrator/assets/grade/luts/ad_warm_v04.cube
TITLE "ad_warm_v04"
LUT_3D_SIZE 17
DOMAIN_MIN 0.0 0.0 0.0
DOMAIN_MAX 1.0 1.0 1.0
0.016246 0.000000 0.000000
0.016124 0.000000 0.048449
0.015958 0.000000 0.114978
0.015793 0.000000 0.180899
0.015629 0.000000 0.246455
0.015466 0.000000 0.311748
0.015303 0.000000 0.376836
0.015140 0.000000 0.441755
0.014978 0.000000 0.506532
0.014817 0.000000 0.571184
0.014655 0.000000 0.635727
0.014494 0.000000 0.700172
0.014333 0.000000 0.764528
0.014172 0.000000 0.828803
0.014012 0.000000 0.893003
0.013852 0.000000 0.957135
0.013691 0.000000 1.000000
0.014610 0.064432 0.000000
0.014488 0.064311 0.046813
0.014322 0.064144 0.113342
0.014157 0.063980 0.179264
0.013993 0.063816 0.244820
0.013830 0.063652 0.310113
0.013667 0.063490 0.375200
0.013505 0.063327 0.440120
0.013343 0.063165 0.504896
0.013181 0.063004 0.569548
0.013020 0.062842 0.634091
0.012859 0.062681 0.698536
0.012698 0.062520 0.762892
0.012537 0.062359 0.827167
0.012376 0.062199 0.891368
0.012216 0.062038 0.955499
0.012056 0.061878 1.000000
0.012967 0.129283 0.000000
0.012845 0.129162 0.045170
0.012679 0.128996 0.111699
0.012514 0.128831 0.177621
0.012350 0.128667 0.243176
0.012187 0.128503 0.308470
0.012024 0.128341 0.373557
0.011862 0.128178 0.438476
0.011700 0.128016 0.503253
0.011538 0.127855 0.567905
0.011376 0.127693 0.632448
0.011215 0.127532 0.696893
0.011054 0.127371 0.761249
0.010894 0.127210 0.825524
0.010733 0.127050 0.889725
0.010573 0.126889 0.953856
0.010412 0.126729 1.000000
0.011336 0.193629 0.000000
0.011215 0.193508 0.043540
0.011048 0.193341 0.110069
0.010884 0.193176 0.175990
0.010720 0.193012 0.241546
0.010556 0.192849 0.306839
0.010394 0.192686 0.371927
0.010231 0.192524 0.436846
0.010069 0.192362 0.501622
0.009907 0.192200 0.566275
0.009746 0.192039 0.630818
0.009585 0.191878 0.695262
0.009424 0.191717 0.759618
0.009263 0.191556 0.823894
0.009103 0.191395 0.888094
0.008942 0.191235 0.952226
0.008782 0.191075 1.000000
0.009714 0.257651 0.000000
0.009593 0.257529 0.041917
0.009426 0.257363 0.108446
0.009261 0.257198 0.174368
0.009097 0.257034 0.239924
0.008934 0.256871 0.305217
0.008771 0.256708 0.370305
0.008609 0.256546 0.435224
0.008447 0.256384 0.500000
0.008285 0.256222 0.564652
0.008124 0.256060 0.629195
0.007963 0.255899 0.693640
0.007802 0.255738 0.757996
0.007641 0.255578 0.822271
0.007480 0.255417 0.886472
0.007320 0.255257 0.950604
0.007160 0.255096 1.000000
0.008098 0.321433 0.000000
0.007976 0.321311 0.040301
0.007810 0.321145 0.106830
0.007645 0.320980 0.172752
0.007481 0.320816 0.238308
0.007318 0.320653 0.303601
0.007155 0.320490 0.368689
0.006993 0.320328 0.433608
0.006831 0.320166 0.498384
0.006669 0.320004 0.563036
0.006508 0.319842 0.627579
0.006347 0.319681 0.692024
0.006186 0.319520 0.756380
0.006025 0.319360 0.820655
0.005864 0.319199 0.884856
0.005704 0.319039 0.948987
0.005544 0.318878 1.000000
0.006487 0.385025 0.000000
0.006365 0.384903 0.038690
0.006199 0.384737 0.105219
0.006034 0.384572 0.171140
0.005870 0.384408 0.236696
0.005707 0.384245 0.301989
0.005544 0.384082 0.367077
0.005382 0.383920 0.431996
0.005220 0.383758 0.496773
0.005058 0.383596 0.561425
0.004896 0.383435 0.625968
0.004735 0.383273 0.690413
0.004574 0.383112 0.754769
0.004414 0.382952 0.819044
0.004253 0.382791 0.883245
0.004093 0.382631 0.947376
0.003932 0.382470 1.000000
0.004879 0.448459 0.000000
0.004758 0.448338 0.037083
0.004591 0.448172 0.103612
0.004427 0.448007 0.169533
0.004263 0.447843 0.235089
0.004099 0.447679 0.300382
0.003937 0.447517 0.365470
0.003774 0.447354 0.430389
0.003612 0.447192 0.495165
0.003450 0.447031 0.559818
0.003289 0.446869 0.624361
0.003128 0.446708 0.688805
0.002967 0.446547 0.753162
0.002806 0.446386 0.817437
0.002646 0.446226 0.881637
0.002485 0.446065 0.945769
0.002325 0.445905 1.000000
0.003275 0.511760 0.000000
0.003154 0.511638 0.035479
0.002988 0.511472 0.102008
0.002823 0.511307 0.167929
0.002659 0.511143 0.233485
0.002495 0.510980 0.298778
0.002333 0.510817 0.363866
0.002170 0.510655 0.428785
0.002008 0.510493 0.493561
0.001847 0.510331 0.558214
0.001685 0.510170 0.622757
0.001524 0.510008 0.687201
0.001363 0.509847 0.751558
0.001202 0.509687 0.815833
0.001042 0.509526 0.880033
0.000881 0.509366 0.944165
0.000721 0.509205 1.000000
0.001674 0.574943 0.000000
0.001553 0.574821 0.033878
0.001387 0.574655 0.100407
0.001222 0.574490 0.166328
0.001058 0.574326 0.231884
0.000894 0.574163 0.297177
0.000732 0.574000 0.362265
0.000569 0.573838 0.427184
0.000407 0.573676 0.491960
0.000246 0.573514 0.556613
0.000084 0.573353 0.621156
0.000000 0.573192 0.685601
0.000000 0.573031 0.749957
0.000000 0.572870 0.814232
0.000000 0.572709 0.878432
0.000000 0.572549 0.942564
0.000000 0.572389 1.000000
0.000076 0.638022 0.000000
0.000000 0.637901 0.032279
0.000000 0.637734 0.098808
0.000000 0.637569 0.164730
0.000000 0.637406 0.230286
0.000000 0.637242 0.295579
0.000000 0.637079 0.360667
0.000000 0.636917 0.425586
0.000000 0.636755 0.490362
0.000000 0.636593 0.555014
0.000000 0.636432 0.619557
0.000000 0.636271 0.684002
0.000000 0.636110 0.748358
0.000000 0.635949 0.812633
0.000000 0.635789 0.876834
0.000000 0.635628 0.940966
0.000000 0.635468 1.000000
0.000000 0.701008 0.000000
0.000000 0.700887 0.030684
0.000000 0.700720 0.097212
0.000000 0.700555 0.163134
0.000000 0.700392 0.228690
0.000000 0.700228 0.293983
0.000000 0.700065 0.359071
0.000000 0.699903 0.423990
0.000000 0.699741 0.488766
0.000000 0.699579 0.553419
0.000000 0.699418 0.617961
0.000000 0.699257 0.682406
0.000000 0.699096 0.746762
0.000000 0.698935 0.811037
0.000000 0.698775 0.875238
0.000000 0.698614 0.939370
0.000000 0.698454 1.000000
0.000000 0.763910 0.000000
0.000000 0.763788 0.029090
0.000000 0.763622 0.095619
0.000000 0.763457 0.161540
0.000000 0.763293 0.227096
0.000000 0.763130 0.292389
0.000000 0.762967 0.357477
0.000000 0.762804 0.422396
0.000000 0.762642 0.487172
0.000000 0.762481 0.551825
0.000000 0.762319 0.616368
0.000000 0.762158 0.680812
0.000000 0.761997 0.745169
0.000000 0.761836 0.809444
0.000000 0.761676 0.873644
0.000000 0.761516 0.937776
0.000000 0.761355 1.000000
0.000000 0.826733 0.000000
0.000000 0.826612 0.027498
0.000000 0.826446 0.094027
0.000000 0.826281 0.159948
0.000000 0.826117 0.225504
0.000000 0.825954 0.290797
0.000000 0.825791 0.355885
0.000000 0.825628 0.420804
0.000000 0.825466 0.485581
0.000000 0.825305 0.550233
0.000000 0.825143 0.614776
0.000000 0.824982 0.679221
0.000000 0.824821 0.743577
0.000000 0.824660 0.807852
0.000000 0.824500 0.872052
0.000000 0.824339 0.936184
0.000000 0.824179 1.000000
0.000000 0.889486 0.000000
0.000000 0.889365 0.025908
0.000000 0.889198 0.092437
0.000000 0.889033 0.158358
0.000000 0.888869 0.223914
0.000000 0.888706 0.289207
0.000000 0.888543 0.354295
0.000000 0.888381 0.419214
0.000000 0.888219 0.483990
0.000000 0.888057 0.548643
0.000000 0.887896 0.613186
0.000000 0.887735 0.677630
0.000000 0.887574 0.741987
0.000000 0.887413 0.806262
0.000000 0.887252 0.870462
0.000000 0.887092 0.934594
0.000000 0.886932 0.998661
0.000000 0.952172 0.000000
0.000000 0.952051 0.024319
0.000000 0.951885 0.090848
0.000000 0.951720 0.156770
0.000000 0.951556 0.222326
0.000000 0.951392 0.287619
0.000000 0.951230 0.352707
0.000000 0.951067 0.417626
0.000000 0.950905 0.482402
0.000000 0.950744 0.547054
0.000000 0.950582 0.611597
0.000000 0.950421 0.676042
0.000000 0.950260 0.740398
0.000000 0.950099 0.804673
0.000000 0.949939 0.868874
0.000000 0.949778 0.933006
0.000000 0.949618 0.997073
0.000000 1.000000 0.000000
0.000000 1.000000 0.022852
0.000000 1.000000 0.089381
0.000000 1.000000 0.155303
0.000000 1.000000 0.220859
0.000000 1.000000 0.286152
0.000000 1.000000 0.351239
0.000000 1.000000 0.416159
0.000000 1.000000 0.480935
0.000000 1.000000 0.545587
0.000000 1.000000 0.610130
0.000000 1.000000 0.674575
0.000000 1.000000 0.738931
0.000000 1.000000 0.803206
0.000000 1.000000 0.867407
0.000000 1.000000 0.931538
0.000000 1.000000 0.995606
0.083002 0.000000 0.000000
0.082880 0.000000 0.047955
0.082714 0.000000 0.114484
0.082549 0.000000 0.180405
0.082385 0.000000 0.245961
0.082222 0.000000 0.311254
0.082059 0.000000 0.376342
0.081897 0.000000 0.441261
0.081735 0.000000 0.506038
0.081573 0.000000 0.570690
0.081412 0.000000 0.635233
0.081250 0.000000 0.699678
0.081089 0.000000 0.764034
0.080929 0.000000 0.828309
0.080768 0.000000 0.892509
0.080608 0.000000 0.956641
0.080448 0.000000 1.000000
0.081366 0.063938 0.000000
0.081245 0.063817 0.046319
0.081078 0.063650 0.112848
0.080913 0.063486 0.178770
0.080749 0.063322 0.244326
0.080586 0.063158 0.309619
0.080423 0.062996 0.374706
0.080261 0.062833 0.439626
0.080099 0.062671 0.504402
0.079937 0.062510 0.569054
0.079776 0.062348 0.633597
0.079615 0.062187 0.698042
0.079454 0.062026 0.762398
0.079293 0.061865 0.826673
0.079133 0.061705 0.890874
0.078972 0.061544 0.955005
0.078812 0.061384 1.000000
0.079723 0.128789 0.000000
0.079601 0.128668 0.044676
0.079435 0.128501 0.111205
0.079270 0.128337 0.177127
0.079106 0.128173 0.242682
0.078943 0.128009 0.307976
0.078780 0.127847 0.373063
0.078618 0.127684 0.437982
0.078456 0.127522 0.502759
0.078294 0.127361 0.567411
0.078133 0.127199 0.631954
0.077972 0.127038 0.696399
0.077811 0.126877 0.760755
0.077650 0.126716 0.825030
0.077489 0.126556 0.889231
0.077329 0.126395 0.953362
0.077169 0.126235 1.000000
0.078093 0.193135 0.000000
0.077971 0.193014 0.043046
0.077805 0.192847 0.109575
0.077640 0.192682 0.175496
0.077476 0.192518 0.241052
0.077313 0.192355 0.306345
0.077150 0.192192 0.371433
0.076987 0.192030 0.436352
0.076825 0.191868 0.501128
0.076664 0.191706 0.565781
0.076502 0.191545 0.630324
0.076341 0.191384 0.694768
0.076180 0.191223 0.759124
0.076019 0.191062 0.823400
0.075859 0.190901 0.887600
0.075698 0.190741 0.951732
0.075538 0.190581 1.000000
0.076470 0.257157 0.000000
0.076349 0.257035 0.041423
0.076182 0.256869 0.107952
0.076018 0.256704 0.173874
0.075854 0.256540 0.239430
0.075690 0.256377 0.304723
0.075528 0.256214 0.369811
0.075365 0.256052 0.434730
0.075203 0.255890 0.499506
0.075042 0.255728 0.564158
0.074880 0.255566 0.628701
0.074719 0.255405 0.693146
0.074558 0.255244 0.757502
0.074397 0.255084 0.821777
0.074237 0.254923 0.885978
0.074076 0.254763 0.950110
0.073916 0.254602 1.000000
0.074854 0.320939 0.000000
0.074733 0.320817 0.039807
0.074566 0.320651 0.106336
0.074401 0.320486 0.172258
0.074238 0.320322 0.237814
0.074074 0.320159 0.303107
0.073911 0.319996 0.368194
0.073749 0.319834 0.433114
0.073587 0.319672 0.497890
0.073425 0.319510 0.562542
0.073264 0.319348 0.627085
0.073103 0.319187 0.691530
0.072942 0.319026 0.755886
0.072781 0.318866 0.820161
0.072621 0.318705 0.884362
0.072460 0.318545 0.948493
0.072300 0.318384 1.000000
0.073243 0.384531 0.000000
0.073121 0.384409 0.038196
0.072955 0.384243 0.104725
0.072790 0.384078 0.170646
0.072626 0.383914 0.236202
0.072463 0.383751 0.301495
0.072300 0.383588 0.366583
0.072138 0.383426 0.431502
0.071976 0.383264 0.496279
0.071814 0.383102 0.560931
0.071653 0.382941 0.625474
0.071491 0.382779 0.689919
0.071331 0.382618 0.754275
0.071170 0.382458 0.818550
0.071009 0.382297 0.882751
0.070849 0.382137 0.946882
0.070689 0.381976 1.000000
0.071636 0.447965 0.000000
0.071514 0.447844 0.036589
0.071348 0.447678 0.103118
0.071183 0.447513 0.169039
0.071019 0.447349 0.234595
0.070856 0.447185 0.299888
0.070693 0.447023 0.364976
0.070530 0.446860 0.429895
0.070368 0.446698 0.494671
0.070207 0.446537 0.559324
0.070045 0.446375 0.623867
0.069884 0.446214 0.688311
0.069723 0.446053 0.752667
0.069562 0.445892 0.816943
0.069402 0.445732 0.881143
0.069242 0.445571 0.945275
0.069081 0.445411 1.000000
0.070032 0.511266 0.000000
0.069910 0.511144 0.034985
0.069744 0.510978 0.101514
0.069579 0.510813 0.167435
0.069415 0.510649 0.232991
0.069252 0.510486 0.298284
0.069089 0.510323 0.363372
0.068927 0.510161 0.428291
0.068765 0.509999 0.493067
0.068603 0.509837 0.557720
0.068441 0.509676 0.622263
0.068280 0.509514 0.686707
0.068119 0.509353 0.751064
0.067959 0.509193 0.815339
0.067798 0.509032 0.879539
0.067638 0.508872 0.943671
0.067477 0.508711 1.000000
0.068431 0.574449 0.000000
0.068309 0.574327 0.033384
0.068143 0.574161 0.099913
0.067978 0.573996 0.165834
0.067814 0.573832 0.231390
0.067651 0.573669 0.296683
0.067488 0.573506 0.361771
0.067326 0.573344 0.426690
0.067164 0.573182 0.491466
0.067002 0.573020 0.556119
0.066840 0.572859 0.620662
0.066679 0.572698 0.685106
0.066518 0.572537 0.749463
0.066358 0.572376 0.813738
0.066197 0.572215 0.877938
0.066037 0.572055 0.942070
0.065876 0.571895 1.000000
0.066832 0.637528 0.000000
0.066711 0.637407 0.031785
0.066544 0.637240 0.098314
0.066380 0.637075 0.164236
0.066216 0.636912 0.229792
0.066052 0.636748 0.295085
0.065890 0.636585 0.360173
0.065727 0.636423 0.425092
0.065565 0.636261 0.489868
0.065404 0.636099 0.554520
0.065242 0.635938 0.619063
0.065081 0.635777 0.683508
0.064920 0.635616 0.747864
0.064759 0.635455 0.812139
0.064599 0.635295 0.876340
0.064438 0.635134 0.940472
0.064278 0.634974 1.000000
0.065236 0.700514 0.000000
0.065115 0.700393 0.030189
0.064949 0.700226 0.096718
0.064784 0.700061 0.162640
0.064620 0.699898 0.228196
0.064456 0.699734 0.293489
0.064294 0.699571 0.358577
0.064131 0.699409 0.423496
0.063969 0.699247 0.488272
0.063808 0.699085 0.552925
0.063646 0.698924 0.617467
0.063485 0.698763 0.681912
0.063324 0.698602 0.746268
0.063163 0.698441 0.810543
0.063003 0.698281 0.874744
0.062842 0.698120 0.938876
0.062682 0.697960 1.000000
0.063643 0.763416 0.000000
0.063521 0.763294 0.028596
0.063355 0.763128 0.095125
0.063190 0.762963 0.161046
0.063026 0.762799 0.226602
0.062863 0.762636 0.291895
0.062700 0.762473 0.356983
0.062537 0.762310 0.421902
0.062375 0.762148 0.486678
0.062214 0.761987 0.551331
0.062052 0.761825 0.615874
0.061891 0.761664 0.680318
0.061730 0.761503 0.744675
0.061569 0.761342 0.808950
0.061409 0.761182 0.873150
0.061249 0.761022 0.937282
0.061088 0.760861 1.000000
0.062051 0.826239 0.000000
0.061929 0.826118 0.027004
0.061763 0.825952 0.093533
0.061598 0.825787 0.159454
0.061434 0.825623 0.225010
0.061271 0.825460 0.290303
0.061108 0.825297 0.355391
0.060946 0.825134 0.420310
0.060784 0.824972 0.485087
0.060622 0.824811 0.549739
0.060460 0.824649 0.614282
0.060299 0.824488 0.678727
0.060138 0.824327 0.743083
0.059978 0.824166 0.807358
0.059817 0.824006 0.871558
0.059657 0.823845 0.935690
0.059496 0.823685 0.999757
0.060461 0.888992 0.000000
0.060339 0.888871 0.025414
0.060173 0.888704 0.091943
0.060008 0.888539 0.157864
0.059844 0.888375 0.223420
0.059681 0.888212 0.288713
0.059518 0.888049 0.353801
0.059356 0.887887 0.418720
0.059194 0.887725 0.483496
0.059032 0.887563 0.548149
0.058870 0.887402 0.612692
0.058709 0.887241 0.677136
0.058548 0.887080 0.741493
0.058388 0.886919 0.805768
0.058227 0.886758 0.869968
0.058067 0.886598 0.934100
0.057906 0.886438 0.998167
0.058872 0.951678 0.000000
0.058751 0.951557 0.023825
0.058584 0.951390 0.090354
0.058420 0.951226 0.156276
0.058256 0.951062 0.221832
0.058092 0.950898 0.287125
0.057930 0.950736 0.352213
0.057767 0.950573 0.417132
0.057605 0.950411 0.481908
0.057443 0.950250 0.546560
0.057282 0.950088 0.611103
0.057121 0.949927 0.675548
0.056960 0.949766 0.739904
0.056799 0.949605 0.804179
0.056639 0.949445 0.868380
0.056478 0.949284 0.932511
0.056318 0.949124 0.996579
0.057405 1.000000 0.000000
0.057284 1.000000 0.022358
0.057117 1.000000 0.088887
0.056952 1.000000 0.154809
0.056789 1.000000 0.220365
0.056625 1.000000 0.285658
0.056462 1.000000 0.350745
0.056300 1.000000 0.415665
0.056138 1.000000 0.480441
0.055976 1.000000 0.545093
0.055815 1.000000 0.609636
0.055654 1.000000 0.674081
0.055493 1.000000 0.738437
0.055332 1.000000 0.802712
0.055172 1.000000 0.866913
0.055011 1.000000 0.931044
0.054851 1.000000 0.995112
0.148844 0.000000 0.000000
0.148722 0.000000 0.047468
0.148556 0.000000 0.113997
0.148391 0.000000 0.179918
0.148227 0.000000 0.245474
0.148064 0.000000 0.310767
0.147901 0.000000 0.375855
0.147739 0.000000 0.440774
0.147577 0.000000 0.505550
0.147415 0.000000 0.570203
0.147253 0.000000 0.634746
0.147092 0.000000 0.699190
0.146931 0.000000 0.763547
0.146771 0.000000 0.827822
0.146610 0.000000 0.892022
0.146450 0.000000 0.956154
0.146289 0.000000 1.000000
0.147208 0.063451 0.000000
0.147087 0.063330 0.045832
0.146920 0.063163 0.112361
0.146755 0.062998 0.178282
0.146591 0.062834 0.243838
0.146428 0.062671 0.309131
0.146265 0.062508 0.374219
0.146103 0.062346 0.439138
0.145941 0.062184 0.503915
0.145779 0.062022 0.568567
0.145618 0.061861 0.633110
0.145457 0.061700 0.697555
0.145296 0.061539 0.761911
0.145135 0.061378 0.826186
0.144974 0.061217 0.890387
0.144814 0.061057 0.954518
0.144654 0.060897 1.000000
0.145565 0.128302 0.000000
0.145443 0.128181 0.044189
0.145277 0.128014 0.110718
0.145112 0.127849 0.176639
0.144948 0.127685 0.242195
0.144785 0.127522 0.307488
0.144622 0.127359 0.372576
0.144460 0.127197 0.437495
0.144298 0.127035 0.502271
0.144136 0.126873 0.566924
0.143975 0.126712 0.631467
0.143813 0.126551 0.695912
0.143652 0.126390 0.760268
0.143492 0.126229 0.824543
0.143331 0.126068 0.888743
0.143171 0.125908 0.952875
0.143011 0.125748 1.000000
0.143934 0.192648 0.000000
0.143813 0.192526 0.042558
0.143647 0.192360 0.109087
0.143482 0.192195 0.175009
0.143318 0.192031 0.240565
0.143154 0.191868 0.305858
0.142992 0.191705 0.370946
0.142829 0.191543 0.435865
0.142667 0.191381 0.500641
0.142506 0.191219 0.565293
0.142344 0.191058 0.629836
0.142183 0.190896 0.694281
0.142022 0.190736 0.758637
0.141861 0.190575 0.822912
0.141701 0.190414 0.887113
0.141540 0.190254 0.951244
0.141380 0.190094 1.000000
0.142312 0.256669 0.000000
0.142191 0.256548 0.040936
0.142024 0.256382 0.107465
0.141859 0.256217 0.173387
0.141696 0.256053 0.238943
0.141532 0.255889 0.304236
0.141369 0.255727 0.369323
0.141207 0.255564 0.434243
0.141045 0.255402 0.499019
0.140883 0.255241 0.563671
0.140722 0.255079 0.628214
0.140561 0.254918 0.692659
0.140400 0.254757 0.757015
0.140239 0.254596 0.821290
0.140079 0.254436 0.885491
0.139918 0.254275 0.949622
0.139758 0.254115 1.000000
0.140696 0.320451 0.000000
0.140575 0.320330 0.039320
0.140408 0.320164 0.105849
0.140243 0.319999 0.171771
0.140079 0.319835 0.237326
0.139916 0.319671 0.302620
0.139753 0.319509 0.367707
0.139591 0.319346 0.432626
0.139429 0.319184 0.497403
0.139267 0.319023 0.562055
0.139106 0.318861 0.626598
0.138945 0.318700 0.691043
0.138784 0.318539 0.755399
0.138623 0.318378 0.819674
0.138462 0.318218 0.883875
0.138302 0.318057 0.948006
0.138142 0.317897 1.000000
0.139085 0.384043 0.000000
0.138963 0.383922 0.037709
0.138797 0.383756 0.104238
0.138632 0.383591 0.170159
0.138468 0.383427 0.235715
0.138305 0.383264 0.301008
0.138142 0.383101 0.366096
0.137980 0.382938 0.431015
0.137818 0.382776 0.495791
0.137656 0.382615 0.560444
0.137495 0.382453 0.624987
0.137333 0.382292 0.689431
0.137172 0.382131 0.753788
0.137012 0.381970 0.818063
0.136851 0.381810 0.882263
0.136691 0.381649 0.946395
0.136530 0.381489 1.000000
0.137477 0.447478 0.000000
0.137356 0.447357 0.036101
0.137190 0.447190 0.102630
0.137025 0.447025 0.168552
0.136861 0.446861 0.234108
0.136697 0.446698 0.299401
0.136535 0.446535 0.364489
0.136372 0.446373 0.429408
0.136210 0.446211 0.494184
0.136049 0.446049 0.558836
0.135887 0.445888 0.623379
0.135726 0.445727 0.687824
0.135565 0.445566 0.752180
0.135404 0.445405 0.816455
0.135244 0.445244 0.880656
0.135083 0.445084 0.944787
0.134923 0.444924 1.000000
0.135873 0.510778 0.000000
0.135752 0.510657 0.034497
0.135586 0.510491 0.101026
0.135421 0.510326 0.166948
0.135257 0.510162 0.232504
0.135094 0.509999 0.297797
0.134931 0.509836 0.362885
0.134768 0.509673 0.427804
0.134606 0.509511 0.492580
0.134445 0.509350 0.557233
0.134283 0.509188 0.621775
0.134122 0.509027 0.686220
0.133961 0.508866 0.750576
0.133800 0.508705 0.814851
0.133640 0.508545 0.879052
0.133479 0.508384 0.943184
0.133319 0.508224 1.000000
0.134273 0.573962 0.000000
0.134151 0.573840 0.032897
0.133985 0.573674 0.099425
0.133820 0.573509 0.165347
0.133656 0.573345 0.230903
0.133493 0.573182 0.296196
0.133330 0.573019 0.361284
0.133167 0.572857 0.426203
0.133005 0.572695 0.490979
0.132844 0.572533 0.555632
0.132682 0.572371 0.620174
0.132521 0.572210 0.684619
0.132360 0.572049 0.748975
0.132199 0.571889 0.813250
0.132039 0.571728 0.877451
0.131878 0.571568 0.941583
0.131718 0.571407 1.000000
0.132674 0.637041 0.000000
0.132553 0.636919 0.031298
0.132386 0.636753 0.097827
0.132221 0.636588 0.163749
0.132058 0.636424 0.229305
0.131894 0.636261 0.294598
0.131731 0.636098 0.359685
0.131569 0.635936 0.424605
0.131407 0.635774 0.489381
0.131245 0.635612 0.554033
0.131084 0.635451 0.618576
0.130923 0.635290 0.683021
0.130762 0.635129 0.747377
0.130601 0.634968 0.811652
0.130441 0.634807 0.875853
0.130280 0.634647 0.939984
0.130120 0.634487 1.000000
0.131078 0.700027 0.000000
0.130957 0.699905 0.029702
0.130790 0.699739 0.096231
0.130626 0.699574 0.162153
0.130462 0.699410 0.227709
0.130298 0.699247 0.293002
0.130135 0.699084 0.358089
0.129973 0.698922 0.423009
0.129811 0.698760 0.487785
0.129649 0.698598 0.552437
0.129488 0.698437 0.616980
0.129327 0.698276 0.681425
0.129166 0.698115 0.745781
0.129005 0.697954 0.810056
0.128845 0.697793 0.874257
0.128684 0.697633 0.938388
0.128524 0.697473 1.000000
0.129484 0.762928 0.000000
0.129363 0.762807 0.028108
0.129197 0.762640 0.094637
0.129032 0.762476 0.160559
0.128868 0.762312 0.226115
0.128704 0.762148 0.291408
0.128542 0.761986 0.356496
0.128379 0.761823 0.421415
0.128217 0.761661 0.486191
0.128056 0.761500 0.550843
0.127894 0.761338 0.615386
0.127733 0.761177 0.679831
0.127572 0.761016 0.744187
0.127411 0.760855 0.808462
0.127251 0.760695 0.872663
0.127090 0.760534 0.936795
0.126930 0.760374 1.000000
0.127893 0.825752 0.000000
0.127771 0.825631 0.026517
0.127605 0.825464 0.093046
0.127440 0.825300 0.158967
0.127276 0.825136 0.224523
0.127113 0.824972 0.289816
0.126950 0.824809 0.354904
0.126787 0.824647 0.419823
0.126625 0.824485 0.484599
0.126464 0.824323 0.549252
0.126302 0.824162 0.613794
0.126141 0.824001 0.678239
0.125980 0.823840 0.742595
0.125819 0.823679 0.806871
0.125659 0.823519 0.871071
0.125499 0.823358 0.935203
0.125338 0.823198 0.999270
0.126303 0.888505 0.000000
0.126181 0.888383 0.024927
0.126015 0.888217 0.091455
0.125850 0.888052 0.157377
0.125686 0.887888 0.222933
0.125523 0.887725 0.288226
0.125360 0.887562 0.353314
0.125197 0.887400 0.418233
0.125035 0.887238 0.483009
0.124874 0.887076 0.547662
0.124712 0.886915 0.612204
0.124551 0.886753 0.676649
0.124390 0.886592 0.741005
0.124229 0.886432 0.805280
0.124069 0.886271 0.869481
0.123908 0.886111 0.933613
0.123748 0.885950 0.997680
0.124714 0.951191 0.000000
0.124593 0.951070 0.023338
0.124426 0.950903 0.089867
0.124261 0.950738 0.155789
0.124097 0.950574 0.221345
0.123934 0.950411 0.286638
0.123771 0.950248 0.351725
0.123609 0.950086 0.416645
0.123447 0.949924 0.481421
0.123285 0.949762 0.546073
0.123124 0.949601 0.610616
0.122963 0.949440 0.675061
0.122802 0.949279 0.739417
0.122641 0.949118 0.803692
0.122480 0.948957 0.867893
0.122320 0.948797 0.932024
0.122160 0.948637 0.996092
0.123247 1.000000 0.000000
0.123126 1.000000 0.021871
0.122959 1.000000 0.088400
0.122794 1.000000 0.154321
0.122630 1.000000 0.219877
0.122467 1.000000 0.285171
0.122304 1.000000 0.350258
0.122142 1.000000 0.415177
0.121980 1.000000 0.479954
0.121818 1.000000 0.544606
0.121657 1.000000 0.609149
0.121496 1.000000 0.673594
0.121335 1.000000 0.737950
0.121174 1.000000 0.802225
0.121013 1.000000 0.866426
0.120853 1.000000 0.930557
0.120693 1.000000 0.994624
0.214237 0.000000 0.000000
0.214116 0.000000 0.046984
0.213949 0.000000 0.113513
0.213785 0.000000 0.179434
0.213621 0.000000 0.244990
0.213457 0.000000 0.310283
0.213295 0.000000 0.375371
0.213132 0.000000 0.440290
0.212970 0.000000 0.505066
0.212808 0.000000 0.569719
0.212647 0.000000 0.634262
0.212486 0.000000 0.698706
0.212325 0.000000 0.763063
0.212164 0.000000 0.827338
0.212004 0.000000 0.891538
0.211843 0.000000 0.955670
0.211683 0.000000 1.000000
0.212602 0.062967 0.000000
