skills/editops-orchestrator/assets/grade/luts/ad_warm_v04.cube
TITLE "ad_warm_v04"
LUT_3D_SIZE 9
DOMAIN_MIN 0.0 0.0 0.0
DOMAIN_MAX 1.0 1.0 1.0
0.016246 0.000000 0.000000
0.015958 0.000000 0.114978
0.015629 0.000000 0.246455
0.015303 0.000000 0.376836
0.014978 0.000000 0.506532
0.014655 0.000000 0.635727
0.014333 0.000000 0.764528
0.014012 0.000000 0.893003
0.013691 0.000000 1.000000
0.012967 0.129283 0.000000
0.012679 0.128996 0.111699
0.012350 0.128667 0.243176
0.012024 0.128341 0.373557
0.011700 0.128016 0.503253
0.011376 0.127693 0.632448
0.011054 0.127371 0.761249
0.010733 0.127050 0.889725
0.010412 0.126729 1.000000
0.009714 0.257651 0.000000
0.009426 0.257363 0.108446
0.009097 0.257034 0.239924
0.008771 0.256708 0.370305
0.008447 0.256384 0.500000
0.008124 0.256060 0.629195
0.007802 0.255738 0.757996
0.007480 0.255417 0.886472
0.007160 0.255096 1.000000
0.006487 0.385025 0.000000
0.006199 0.384737 0.105219
0.005870 0.384408 0.236696
0.005544 0.384082 0.367077
0.005220 0.383758 0.496773
0.004896 0.383435 0.625968
0.004574 0.383112 0.754769
0.004253 0.382791 0.883245
0.003932 0.382470 1.000000
0.003275 0.511760 0.000000
0.002988 0.511472 0.102008
0.002659 0.511143 0.233485
0.002333 0.510817 0.363866
0.002008 0.510493 0.493561
0.001685 0.510170 0.622757
0.001363 0.509847 0.751558
0.001042 0.509526 0.880033
0.000721 0.509205 1.000000
0.000076 0.638022 0.000000
0.000000 0.637734 0.098808
0.000000 0.637406 0.230286
0.000000 0.637079 0.360667
0.000000 0.636755 0.490362
0.000000 0.636432 0.619557
0.000000 0.636110 0.748358
0.000000 0.635789 0.876834
0.000000 0.635468 1.000000
0.000000 0.763910 0.000000
0.000000 0.763622 0.095619
0.000000 0.763293 0.227096
0.000000 0.762967 0.357477
0.000000 0.762642 0.487172
0.000000 0.762319 0.616368
0.000000 0.761997 0.745169
0.000000 0.761676 0.873644
0.000000 0.761355 1.000000
0.000000 0.889486 0.000000
0.000000 0.889198 0.092437
0.000000 0.888869 0.223914
0.000000 0.888543 0.354295
0.000000 0.888219 0.483990
0.000000 0.887896 0.613186
0.000000 0.887574 0.741987
0.000000 0.887252 0.870462
0.000000 0.886932 0.998661
0.000000 1.000000 0.000000
0.000000 1.000000 0.089381
0.000000 1.000000 0.220859
0.000000 1.000000 0.351239
0.000000 1.000000 0.480935
0.000000 1.000000 0.610130
0.000000 1.000000 0.738931
0.000000 1.000000 0.867407
0.000000 1.000000 0.995606
0.148844 0.000000 0.000000
0.148556 0.000000 0.113997
0.148227 0.000000 0.245474
0.147901 0.000000 0.375855
0.147577 0.000000 0.505550
0.147253 0.000000 0.634746
0.146931 0.000000 0.763547
0.146610 0.000000 0.892022
0.146289 0.000000 1.000000
0.145565 0.128302 0.000000
0.145277 0.128014 0.110718
0.144948 0.127685 0.242195
0.144622 0.127359 0.372576
0.144298 0.127035 0.502271
0.143975 0.126712 0.631467
0.143652 0.126390 0.760268
0.143331 0.126068 0.888743
0.143011 0.125748 1.000000
0.142312 0.256669 0.000000
0.142024 0.256382 0.107465
0.141696 0.256053 0.238943
0.141369 0.255727 0.369323
0.141045 0.255402 0.499019
0.140722 0.255079 0.628214
0.140400 0.254757 0.757015
0.140079 0.254436 0.885491
0.139758 0.254115 1.000000
0.139085 0.384043 0.000000
0.138797 0.383756 0.104238
0.138468 0.383427 0.235715
0.138142 0.383101 0.366096
0.137818 0.382776 0.495791
0.137495 0.382453 0.624987
0.137172 0.382131 0.753788
0.136851 0.381810 0.882263
0.136530 0.381489 1.000000
0.135873 0.510778 0.000000
0.135586 0.510491 0.101026
0.135257 0.510162 0.232504
0.134931 0.509836 0.362885
0.134606 0.509511 0.492580
0.134283 0.509188 0.621775
0.133961 0.508866 0.750576
0.133640 0.508545 0.879052
0.133319 0.508224 1.000000
0.132674 0.637041 0.000000
0.132386 0.636753 0.097827
0.132058 0.636424 0.229305
0.131731 0.636098 0.359685
0.131407 0.635774 0.489381
0.131084 0.635451 0.618576
0.130762 0.635129 0.747377
0.130441 0.634807 0.875853
0.130120 0.634487 1.000000
0.129484 0.762928 0.000000
0.129197 0.762640 0.094637
0.128868 0.762312 0.226115
0.128542 0.761986 0.356496
0.128217 0.761661 0.486191
0.127894 0.761338 0.615386
0.127572 0.761016 0.744187
0.127251 0.760695 0.872663
0.126930 0.760374 1.000000
0.126303 0.888505 0.000000
0.126015 0.888217 0.091455
0.125686 0.887888 0.222933
0.125360 0.887562 0.353314
0.125035 0.887238 0.483009
0.124712 0.886915 0.612204
0.124390 0.886592 0.741005
0.124069 0.886271 0.869481
0.123748 0.885950 0.997680
0.123247 1.000000 0.000000
0.122959 1.000000 0.088400
0.122630 1.000000 0.219877
0.122304 1.000000 0.350258
0.121980 1.000000 0.479954
0.121657 1.000000 0.609149
0.121335 1.000000 0.737950
0.121013 1.000000 0.866426
0.120693 1.000000 0.994624
0.279329 0.000000 0.000000
0.279041 0.000000 0.113031
0.278712 0.000000 0.244508
0.278386 0.000000 0.374889
0.278062 0.000000 0.504585
0.277739 0.000000 0.633780
0.277416 0.000000 0.762581
0.277095 0.000000 0.891057
0.276775 0.000000 1.000000
0.276050 0.127336 0.000000
0.275762 0.127049 0.109752
0.275433 0.126720 0.241230
0.275107 0.126394 0.371610
0.274783 0.126069 0.501306
0.274460 0.125746 0.630501
0.274138 0.125424 0.759302
0.273816 0.125103 0.887778
0.273496 0.124782 1.000000
0.272797 0.255704 0.000000
0.272509 0.255416 0.106500
0.272181 0.255087 0.237977
0.271855 0.254761 0.368358
0.271530 0.254437 0.498053
0.271207 0.254114 0.627248
0.270885 0.253791 0.756049
0.270564 0.253470 0.884525
0.270243 0.253149 1.000000
0.269570 0.383078 0.000000
0.269282 0.382790 0.103272
0.268953 0.382461 0.234749
0.268627 0.382135 0.365130
0.268303 0.381811 0.494826
0.267980 0.381488 0.624021
0.267658 0.381166 0.752822
0.267336 0.380844 0.881298
0.267016 0.380524 1.000000
0.266359 0.509813 0.000000
0.266071 0.509525 0.100061
0.265742 0.509196 0.231538
0.265416 0.508870 0.361919
0.265091 0.508546 0.491615
0.264768 0.508223 0.620810
0.264446 0.507901 0.749611
0.264125 0.507579 0.878086
0.263804 0.507259 1.000000
0.263159 0.636075 0.000000
0.262871 0.635787 0.096862
0.262543 0.635459 0.228339
0.262217 0.635133 0.358720
0.261892 0.634808 0.488415
0.261569 0.634485 0.617610
0.261247 0.634163 0.746411
0.260926 0.633842 0.874887
0.260605 0.633521 1.000000
0.259970 0.761963 0.000000
0.259682 0.761675 0.093672
0.259353 0.761346 0.225149
0.259027 0.761020 0.355530
0.258702 0.760696 0.485225
0.258379 0.760372 0.614421
0.258057 0.760050 0.743222
0.257736 0.759729 0.871697
0.257415 0.759408 0.999896
0.256788 0.887539 0.000000
0.256500 0.887251 0.090490
0.256171 0.886922 0.221967
0.255845 0.886596 0.352348
0.255521 0.886272 0.482044
0.255197 0.885949 0.611239
0.254875 0.885627 0.740040
0.254554 0.885305 0.868515
0.254233 0.884985 0.996714
0.253732 1.000000 0.000000
0.253444 1.000000 0.087434
0.253115 1.000000 0.218912
0.252789 1.000000 0.349293
0.252465 1.000000 0.478988
0.252142 1.000000 0.608183
0.251820 1.000000 0.736984
0.251499 1.000000 0.865460
0.251178 1.000000 0.993659
0.408872 0.000000 0.000000
0.408584 0.000000 0.112072
0.408255 0.000000 0.243550
0.407929 0.000000 0.373931
0.407605 0.000000 0.503626
0.407282 0.000000 0.632821
0.406960 0.000000 0.761622
0.406638 0.000000 0.890098
0.406318 0.000000 1.000000
0.405593 0.126378 0.000000
0.405305 0.126090 0.108793
0.404976 0.125761 0.240271
0.404650 0.125435 0.370652
0.404326 0.125111 0.500347
0.404003 0.124788 0.629542
0.403681 0.124465 0.758343
0.403359 0.124144 0.886819
0.403039 0.123824 1.000000
0.402341 0.254745 0.000000
0.402053 0.254457 0.105541
0.401724 0.254128 0.237018
0.401398 0.253802 0.367399
0.401073 0.253478 0.497095
0.400750 0.253155 0.626290
0.400428 0.252833 0.755091
0.400107 0.252511 0.883566
0.399786 0.252191 1.000000
0.399113 0.382119 0.000000
0.398825 0.381831 0.102313
0.398496 0.381503 0.233791
0.398170 0.381176 0.364172
0.397846 0.380852 0.493867
0.397523 0.380529 0.623062
0.397201 0.380207 0.751863
0.396879 0.379886 0.880339
0.396559 0.379565 1.000000
0.395902 0.508854 0.000000
0.395614 0.508566 0.099102
0.395285 0.508238 0.230580
0.394959 0.507911 0.360960
0.394635 0.507587 0.490656
0.394312 0.507264 0.619851
0.393989 0.506942 0.748652
0.393668 0.506621 0.877128
0.393348 0.506300 1.000000
0.392703 0.635117 0.000000
0.392415 0.634829 0.095903
0.392086 0.634500 0.227380
0.391760 0.634174 0.357761
0.391435 0.633850 0.487457
0.391112 0.633526 0.616652
0.390790 0.633204 0.745453
0.390469 0.632883 0.873928
0.390148 0.632562 1.000000
0.389513 0.761004 0.000000
0.389225 0.760716 0.092713
0.388896 0.760387 0.224191
0.388570 0.760061 0.354571
0.388246 0.759737 0.484267
0.387923 0.759414 0.613462
0.387600 0.759092 0.742263
0.387279 0.758770 0.870739
0.386958 0.758450 0.998938
0.386331 0.886580 0.000000
0.386043 0.886293 0.089531
0.385714 0.885964 0.221009
0.385388 0.885638 0.351389
0.385064 0.885313 0.481085
0.384741 0.884990 0.610280
0.384418 0.884668 0.739081
0.384097 0.884347 0.867557
0.383777 0.884026 0.995756
0.383275 1.000000 0.000000
0.382988 1.000000 0.086476
0.382659 1.000000 0.217953
0.382333 1.000000 0.348334
0.382008 1.000000 0.478029
0.381685 1.000000 0.607225
0.381363 1.000000 0.736026
0.381042 1.000000 0.864501
0.380721 1.000000 0.992700
0.537793 0.000000 0.000000
0.537506 0.000000 0.111118
0.537177 0.000000 0.242596
0.536851 0.000000 0.372977
0.536526 0.000000 0.502672
0.536203 0.000000 0.631867
0.535881 0.000000 0.760668
0.535560 0.000000 0.889144
0.535239 0.000000 1.000000
0.534515 0.125424 0.000000
0.534227 0.125136 0.107839
0.533898 0.124807 0.239317
0.533572 0.124481 0.369698
0.533247 0.124157 0.499393
0.532924 0.123834 0.628588
0.532602 0.123511 0.757389
0.532281 0.123190 0.885865
0.531960 0.122869 1.000000
0.531262 0.253791 0.000000
0.530974 0.253503 0.104587
0.530645 0.253174 0.236064
0.530319 0.252848 0.366445
0.529995 0.252524 0.496141
0.529672 0.252201 0.625336
0.529350 0.251879 0.754137
0.529028 0.251557 0.882612
0.528708 0.251237 1.000000
0.528034 0.381165 0.000000
0.527747 0.380877 0.101359
0.527418 0.380548 0.232837
0.527092 0.380222 0.363218
0.526767 0.379898 0.492913
0.526444 0.379575 0.622108
0.526122 0.379253 0.750909
0.525801 0.378931 0.879385
0.525480 0.378611 1.000000
0.524823 0.507900 0.000000
0.524535 0.507612 0.098148
0.524207 0.507283 0.229626
0.523880 0.506957 0.360006
0.523556 0.506633 0.489702
0.523233 0.506310 0.618897
0.522911 0.505988 0.747698
0.522590 0.505666 0.876174
0.522269 0.505346 1.000000
0.521624 0.634163 0.000000
0.521336 0.633875 0.094949
0.521007 0.633546 0.226426
0.520681 0.633220 0.356807
0.520357 0.632895 0.486503
0.520034 0.632572 0.615698
0.519712 0.632250 0.744499
0.519390 0.631929 0.872974
0.519070 0.631608 1.000000
0.518434 0.760050 0.000000
0.518146 0.759762 0.091759
0.517817 0.759433 0.223236
0.517491 0.759107 0.353617
0.517167 0.758783 0.483313
0.516844 0.758460 0.612508
0.516522 0.758138 0.741309
0.516200 0.757816 0.869785
0.515880 0.757496 0.997983
0.515252 0.885626 0.000000
0.514964 0.885339 0.088577
0.514636 0.885010 0.220055
0.514309 0.884684 0.350435
0.513985 0.884359 0.480131
0.513662 0.884036 0.609326
0.513340 0.883714 0.738127
0.513019 0.883393 0.866603
0.512698 0.883072 0.994802
0.512197 1.000000 0.000000
0.511909 1.000000 0.085522
0.511580 1.000000 0.216999
0.511254 1.000000 0.347380
0.510930 1.000000 0.477075
0.510607 1.000000 0.606271
0.510284 1.000000 0.735072
0.509963 1.000000 0.863547
0.509642 1.000000 0.991746
0.666250 0.000000 0.000000
0.665962 0.000000 0.110168
0.665633 0.000000 0.241645
0.665307 0.000000 0.372026
0.664982 0.000000 0.501721
0.664659 0.000000 0.630917
0.664337 0.000000 0.759718
0.664016 0.000000 0.888193
0.663695 0.000000 1.000000
0.662971 0.124473 0.000000
0.662683 0.124185 0.106889
0.662354 0.123856 0.238366
0.662028 0.123530 0.368747
0.661704 0.123206 0.498443
0.661380 0.122883 0.627638
0.661058 0.122561 0.756439
0.660737 0.122239 0.884914
0.660416 0.121919 1.000000
0.659718 0.252840 0.000000
0.659430 0.252553 0.103636
0.659101 0.252224 0.235114
0.658775 0.251898 0.365494
0.658451 0.251573 0.495190
0.658128 0.251250 0.624385
0.657806 0.250928 0.753186
0.657484 0.250607 0.881662
0.657164 0.250286 1.000000
0.656491 0.380215 0.000000
0.656203 0.379927 0.100409
0.655874 0.379598 0.231886
0.655548 0.379272 0.362267
0.655224 0.378947 0.491962
0.654900 0.378624 0.621158
0.654578 0.378302 0.749959
0.654257 0.377981 0.878434
0.653936 0.377660 1.000000
0.653279 0.506950 0.000000
0.652992 0.506662 0.097197
0.652663 0.506333 0.228675
0.652337 0.506007 0.359056
0.652012 0.505682 0.488751
0.651689 0.505359 0.617946
0.651367 0.505037 0.746747
0.651046 0.504716 0.875223
0.650725 0.504395 1.000000
0.650080 0.633212 0.000000
0.649792 0.632924 0.093998
0.649463 0.632595 0.225476
0.649137 0.632269 0.355856
0.648813 0.631945 0.485552
0.648490 0.631622 0.614747
0.648168 0.631300 0.743548
0.647846 0.630978 0.872024
0.647526 0.630658 1.000000
0.646890 0.759099 0.000000
0.646602 0.758811 0.090808
0.646274 0.758483 0.222286
0.645948 0.758157 0.352667
0.645623 0.757832 0.482362
0.645300 0.757509 0.611557
0.644978 0.757187 0.740358
0.644657 0.756866 0.868834
0.644336 0.756545 0.997033
0.643708 0.884676 0.000000
0.643421 0.884388 0.087627
0.643092 0.884059 0.219104
0.642766 0.883733 0.349485
0.642441 0.883409 0.479180
0.642118 0.883086 0.608375
0.641796 0.882763 0.737176
0.641475 0.882442 0.865652
0.641154 0.882122 0.993851
0.640653 1.000000 0.000000
0.640365 1.000000 0.084571
0.640036 1.000000 0.216048
0.639710 1.000000 0.346429
0.639386 1.000000 0.476125
0.639063 1.000000 0.605320
0.638741 1.000000 0.734121
0.638419 1.000000 0.862597
0.638099 1.000000 0.990795
0.794334 0.000000 0.000000
0.794046 0.000000 0.109220
0.793717 0.000000 0.240697
0.793391 0.000000 0.371078
0.793067 0.000000 0.500774
0.792744 0.000000 0.629969
0.792422 0.000000 0.758770
0.792100 0.000000 0.887245
0.791780 0.000000 1.000000
0.791055 0.123525 0.000000
0.790767 0.123237 0.105941
0.790438 0.122909 0.237418
0.790112 0.122583 0.367799
0.789788 0.122258 0.497495
0.789465 0.121935 0.626690
0.789143 0.121613 0.755491
0.788822 0.121292 0.883967
0.788501 0.120971 1.000000
0.787803 0.251893 0.000000
0.787515 0.251605 0.102688
0.787186 0.251276 0.234166
0.786860 0.250950 0.364547
0.786535 0.250625 0.494242
0.786212 0.250302 0.623437
0.785890 0.249980 0.752238
0.785569 0.249659 0.880714
0.785248 0.249338 1.000000
0.784575 0.379267 0.000000
0.784287 0.378979 0.099461
0.783958 0.378650 0.230938
0.783632 0.378324 0.361319
0.783308 0.378000 0.491015
0.782985 0.377676 0.620210
0.782663 0.377354 0.749011
0.782341 0.377033 0.877486
0.782021 0.376712 1.000000
0.781364 0.506002 0.000000
0.781076 0.505714 0.096250
0.780747 0.505385 0.227727
0.780421 0.505059 0.358108
0.780097 0.504735 0.487803
0.779774 0.504411 0.616999
0.779451 0.504089 0.745800
0.779130 0.503768 0.874275
0.778810 0.503447 1.000000
0.778165 0.632264 0.000000
0.777877 0.631976 0.093050
0.777548 0.631647 0.224528
0.777222 0.631321 0.354909
0.776897 0.630997 0.484604
0.776574 0.630674 0.613799
0.776252 0.630352 0.742600
0.775931 0.630030 0.871076
0.775610 0.629710 0.999275
0.774975 0.758151 0.000000
0.774687 0.757864 0.089861
0.774358 0.757535 0.221338
0.774032 0.757209 0.351719
0.773708 0.756884 0.481414
0.773385 0.756561 0.610609
0.773062 0.756239 0.739410
0.772741 0.755918 0.867886
0.772421 0.755597 0.996085
0.771793 0.883728 0.000000
0.771505 0.883440 0.086679
0.771176 0.883111 0.218156
0.770850 0.882785 0.348537
0.770526 0.882461 0.478232
0.770203 0.882138 0.607428
0.769881 0.881816 0.736229
0.769559 0.881494 0.864704
0.769239 0.881174 0.992903
0.768737 1.000000 0.000000
0.768450 1.000000 0.083623
0.768121 1.000000 0.215101
0.767795 1.000000 0.345481
0.767470 1.000000 0.475177
0.767147 1.000000 0.604372
0.766825 1.000000 0.733173
0.766504 1.000000 0.861649
0.766183 1.000000 0.989848
0.922109 0.000000 0.000000
0.921821 0.000000 0.108274
0.921492 0.000000 0.239752
0.921166 0.000000 0.370132
0.920842 0.000000 0.499828
0.920519 0.000000 0.629023
0.920197 0.000000 0.757824
0.919875 0.000000 0.886300
0.919555 0.000000 1.000000
0.918830 0.122580 0.000000
0.918542 0.122292 0.104995
0.918213 0.121963 0.236473
0.917887 0.121637 0.366854
0.917563 0.121313 0.496549
0.917240 0.120989 0.625744
0.916918 0.120667 0.754545
0.916596 0.120346 0.883021
0.916276 0.120025 1.000000
0.915577 0.250947 0.000000
0.915290 0.250659 0.101743
0.914961 0.250330 0.233220
0.914635 0.250004 0.363601
0.914310 0.249680 0.493296
0.913987 0.249357 0.622492
0.913665 0.249035 0.751293
0.913344 0.248713 0.879768
0.913023 0.248393 1.000000
0.912350 0.378321 0.000000
0.912062 0.378033 0.098515
0.911733 0.377704 0.229993
0.911407 0.377378 0.360374
0.911083 0.377054 0.490069
0.910760 0.376731 0.619264
0.910438 0.376409 0.748065
0.910116 0.376087 0.876541
0.909796 0.375767 1.000000
0.909139 0.505056 0.000000
0.908851 0.504768 0.095304
0.908522 0.504439 0.226781
0.908196 0.504113 0.357162
0.907872 0.503789 0.486858
0.907549 0.503466 0.616053
0.907226 0.503144 0.744854
0.906905 0.502822 0.873330
0.906584 0.502502 1.000000
0.905939 0.631319 0.000000
0.905652 0.631031 0.092105
0.905323 0.630702 0.223582
0.904997 0.630376 0.353963
0.904672 0.630051 0.483658
0.904349 0.629728 0.612854
0.904027 0.629406 0.741655
0.903706 0.629085 0.870130
0.903385 0.628764 0.998329
0.902750 0.757206 0.000000
0.902462 0.756918 0.088915
0.902133 0.756589 0.220392
0.901807 0.756263 0.350773
0.901483 0.755939 0.480469
0.901159 0.755616 0.609664
0.900837 0.755294 0.738465
0.900516 0.754972 0.866941
0.900195 0.754652 0.995139
0.899568 0.882782 0.000000
0.899280 0.882495 0.085733
0.898951 0.882166 0.217211
0.898625 0.881840 0.347591
0.898301 0.881515 0.477287
0.897978 0.881192 0.606482
0.897655 0.880870 0.735283
0.897334 0.880549 0.863759
0.897014 0.880228 0.991958
0.896512 1.000000 0.000000
0.896224 1.000000 0.082678
0.895896 1.000000 0.214155
0.895570 1.000000 0.344536
0.895245 1.000000 0.474231
0.894922 1.000000 0.603427
0.894600 1.000000 0.732227
0.894279 1.000000 0.860703
0.893958 1.000000 0.988902
1.000000 0.000000 0.000000
1.000000 0.000000 0.107489
1.000000 0.000000 0.238967
1.000000 0.000000 0.369348
1.000000 0.000000 0.499043
1.000000 0.000000 0.628238
1.000000 0.000000 0.757039
1.000000 0.000000 0.885515
1.000000 0.000000 1.000000
1.000000 0.121795 0.000000
1.000000 0.121507 0.104210
1.000000 0.121178 0.235688
1.000000 0.120852 0.366069
1.000000 0.120528 0.495764
1.000000 0.120205 0.624959
1.000000 0.119882 0.753760
1.000000 0.119561 0.882236
1.000000 0.119240 1.000000
1.000000 0.250162 0.000000
1.000000 0.249874 0.100958
1.000000 0.249545 0.232435
1.000000 0.249219 0.362816
1.000000 0.248895 0.492512
1.000000 0.248572 0.621707
1.000000 0.248250 0.750508
1.000000 0.247928 0.878983
1.000000 0.247608 1.000000
1.000000 0.377536 0.000000
1.000000 0.377248 0.097730
1.000000 0.376919 0.229208
1.000000 0.376593 0.359589
1.000000 0.376269 0.489284
1.000000 0.375946 0.618479
1.000000 0.375624 0.747280
1.000000 0.375302 0.875756
1.000000 0.374982 1.000000
1.000000 0.504271 0.000000
1.000000 0.503983 0.094519
1.000000 0.503654 0.225997
1.000000 0.503328 0.356377
1.000000 0.503004 0.486073
1.000000 0.502681 0.615268
1.000000 0.502359 0.744069
1.000000 0.502037 0.872545
1.000000 0.501717 1.000000
1.000000 0.630534 0.000000
1.000000 0.630246 0.091320
1.000000 0.629917 0.222797
1.000000 0.629591 0.353178
1.000000 0.629266 0.482874
1.000000 0.628943 0.612069
1.000000 0.628621 0.740870
1.000000 0.628300 0.869345
1.000000 0.627979 0.997544
1.000000 0.756421 0.000000
1.000000 0.756133 0.088130
1.000000 0.755804 0.219607
1.000000 0.755478 0.349988
1.000000 0.755154 0.479684
1.000000 0.754831 0.608879
1.000000 0.754509 0.737680
1.000000 0.754187 0.866156
1.000000 0.753867 0.994354
1.000000 0.881997 0.000000
1.000000 0.881710 0.084948
1.000000 0.881381 0.216426
1.000000 0.881055 0.346806
1.000000 0.880730 0.476502
1.000000 0.880407 0.605697
1.000000 0.880085 0.734498
1.000000 0.879764 0.862974
1.000000 0.879443 0.991173
1.000000 1.000000 0.000000
1.000000 1.000000 0.081893
1.000000 1.000000 0.213370
1.000000 1.000000 0.343751
1.000000 1.000000 0.473446
1.000000 1.000000 0.602642
1.000000 1.000000 0.731443
1.000000 1.000000 0.859918
1.000000 1.000000 0.988117
