skills/editops-orchestrator/assets/grade/luts/clean_bright_v12.cube
TITLE "clean_bright_v12"
LUT_3D_SIZE 17
DOMAIN_MIN 0.0 0.0 0.0
DOMAIN_MAX 1.0 1.0 1.0
0.030632 0.030632 0.030632
0.030484 0.030484 0.103056
0.030342 0.030342 0.172713
0.030204 0.030204 0.240917
0.030067 0.030067 0.308131
0.029932 0.029932 0.374595
0.029798 0.029798 0.440455
0.029664 0.029664 0.505811
0.029532 0.029532 0.570735
0.029401 0.029401 0.635280
0.029270 0.029270 0.699490
0.029140 0.029140 0.763397
0.029011 0.029011 0.827030
0.028882 0.028882 0.890413
0.028753 0.028753 0.953564
0.028625 0.028625 1.000000
0.028606 0.028606 1.000000
0.029171 0.101744 0.029171
0.029024 0.101596 0.101596
0.028882 0.101454 0.171252
0.028743 0.101316 0.239457
0.028607 0.101179 0.306671
0.028471 0.101043 0.373135
0.028337 0.100909 0.438995
0.028204 0.100776 0.504351
0.028072 0.100644 0.569274
0.027941 0.100513 0.633820
0.027810 0.100382 0.698029
0.027680 0.100252 0.761937
0.027551 0.100123 0.825570
0.027421 0.099994 0.888953
0.027293 0.099865 0.952103
0.027165 0.099737 1.000000
0.027145 0.099718 1.000000
0.027767 0.170137 0.027767
0.027620 0.169990 0.100192
0.027478 0.169848 0.169848
0.027339 0.169709 0.238052
0.027202 0.169572 0.305267
0.027067 0.169437 0.371730
0.026933 0.169303 0.437590
0.026800 0.169170 0.502946
0.026668 0.169038 0.567870
0.026536 0.168907 0.632415
0.026406 0.168776 0.696625
0.026276 0.168646 0.760532
0.026146 0.168516 0.824166
0.026017 0.168387 0.887548
0.025889 0.168259 0.950699
0.025760 0.168131 1.000000
0.025741 0.168111 1.000000
0.026392 0.237105 0.026392
0.026245 0.236958 0.098817
0.026103 0.236816 0.168473
0.025964 0.236677 0.236677
0.025827 0.236541 0.303891
0.025692 0.236405 0.370355
0.025558 0.236271 0.436215
0.025425 0.236138 0.501571
0.025293 0.236006 0.566495
0.025161 0.235875 0.631040
0.025031 0.235744 0.695250
0.024901 0.235614 0.759157
0.024771 0.235484 0.822791
0.024642 0.235355 0.886173
0.024513 0.235227 0.949324
0.024385 0.235099 1.000000
0.024366 0.235079 1.000000
0.025037 0.303101 0.025037
0.024889 0.302954 0.097462
0.024748 0.302812 0.167118
0.024609 0.302673 0.235322
0.024472 0.302536 0.302536
0.024337 0.302401 0.369000
0.024203 0.302267 0.434860
0.024070 0.302134 0.500216
0.023938 0.302002 0.565140
0.023806 0.301870 0.629685
0.023675 0.301740 0.693895
0.023545 0.301610 0.757802
0.023416 0.301480 0.821436
0.023287 0.301351 0.884818
0.023158 0.301223 0.947969
0.023030 0.301095 1.000000
0.023011 0.301075 1.000000
0.023697 0.368360 0.023697
0.023549 0.368213 0.096121
0.023408 0.368071 0.165778
0.023269 0.367932 0.233982
0.023132 0.367795 0.301196
0.022997 0.367660 0.367660
0.022863 0.367526 0.433520
0.022730 0.367393 0.498876
0.022597 0.367261 0.563800
0.022466 0.367129 0.628345
0.022335 0.366999 0.692555
0.022205 0.366868 0.756462
0.022076 0.366739 0.820096
0.021947 0.366610 0.883478
0.021818 0.366481 0.946629
0.021690 0.366353 1.000000
0.021671 0.366334 1.000000
0.022369 0.433026 0.022369
0.022222 0.432879 0.094794
0.022080 0.432737 0.164450
0.021941 0.432598 0.232654
0.021804 0.432461 0.299868
0.021669 0.432326 0.366332
0.021535 0.432192 0.432192
0.021402 0.432059 0.497548
0.021270 0.431927 0.562472
0.021138 0.431796 0.627017
0.021008 0.431665 0.691227
0.020878 0.431535 0.755134
0.020748 0.431405 0.818768
0.020619 0.431276 0.882150
0.020490 0.431148 0.945301
0.020362 0.431020 1.000000
0.020343 0.431000 1.000000
0.021051 0.497198 0.021051
0.020904 0.497050 0.093476
0.020762 0.496908 0.163132
0.020623 0.496770 0.231337
0.020486 0.496633 0.298551
0.020351 0.496497 0.365014
0.020217 0.496363 0.430874
0.020084 0.496230 0.496230
0.019952 0.496098 0.561154
0.019821 0.495967 0.625700
0.019690 0.495836 0.689909
0.019560 0.495706 0.753817
0.019430 0.495577 0.817450
0.019301 0.495448 0.880832
0.019173 0.495319 0.943983
0.019045 0.495191 1.000000
0.019025 0.495172 1.000000
0.019742 0.560944 0.019742
0.019595 0.560797 0.092167
0.019453 0.560655 0.161823
0.019314 0.560516 0.230028
0.019177 0.560380 0.297242
0.019042 0.560244 0.363705
0.018908 0.560110 0.429565
0.018775 0.559977 0.494921
0.018643 0.559845 0.559845
0.018512 0.559714 0.624391
0.018381 0.559583 0.688600
0.018251 0.559453 0.752508
0.018121 0.559324 0.816141
0.017992 0.559194 0.879523
0.017864 0.559066 0.942674
0.017736 0.558938 1.000000
0.017716 0.558918 1.000000
0.018441 0.624320 0.018441
0.018294 0.624173 0.090866
0.018152 0.624031 0.160522
0.018013 0.623892 0.228726
0.017876 0.623755 0.295940
0.017741 0.623620 0.362404
0.017607 0.623486 0.428264
0.017474 0.623353 0.493620
0.017342 0.623221 0.558544
0.017210 0.623089 0.623089
0.017080 0.622959 0.687299
0.016949 0.622829 0.751206
0.016820 0.622699 0.814840
0.016691 0.622570 0.878222
0.016562 0.622441 0.941373
0.016434 0.622313 1.000000
0.016415 0.622294 1.000000
0.017146 0.687366 0.017146
0.016999 0.687218 0.089571
0.016857 0.687076 0.159227
0.016718 0.686938 0.227432
0.016582 0.686801 0.294646
0.016446 0.686666 0.361109
0.016312 0.686531 0.426969
0.016179 0.686398 0.492326
0.016047 0.686266 0.557249
0.015916 0.686135 0.621795
0.015785 0.686004 0.686004
0.015655 0.685874 0.749912
0.015525 0.685745 0.813545
0.015396 0.685616 0.876927
0.015268 0.685487 0.940078
0.015140 0.685359 1.000000
0.015120 0.685340 1.000000
0.015858 0.750115 0.015858
0.015710 0.749967 0.088283
0.015569 0.749826 0.157939
0.015430 0.749687 0.226143
0.015293 0.749550 0.293357
0.015158 0.749415 0.359821
0.015024 0.749281 0.425681
0.014891 0.749148 0.491037
0.014759 0.749015 0.555961
0.014627 0.748884 0.620506
0.014497 0.748753 0.684716
0.014366 0.748623 0.748623
0.014237 0.748494 0.812257
0.014108 0.748365 0.875639
0.013979 0.748236 0.938790
0.013851 0.748108 1.000000
0.013832 0.748089 1.000000
0.014575 0.812595 0.014575
0.014428 0.812447 0.087000
0.014286 0.812305 0.156656
0.014147 0.812167 0.224860
0.014010 0.812030 0.292074
0.013875 0.811895 0.358538
0.013741 0.811760 0.424398
0.013608 0.811627 0.489754
0.013476 0.811495 0.554678
0.013344 0.811364 0.619223
0.013214 0.811233 0.683433
0.013083 0.811103 0.747340
0.012954 0.810974 0.810974
0.012825 0.810845 0.874356
0.012696 0.810716 0.937507
0.012568 0.810588 1.000000
0.012549 0.810569 1.000000
0.013297 0.874828 0.013297
0.013150 0.874681 0.085722
0.013008 0.874539 0.155378
0.012869 0.874400 0.223582
0.012732 0.874263 0.290797
0.012597 0.874128 0.357260
0.012463 0.873994 0.423120
0.012330 0.873861 0.488476
0.012198 0.873729 0.553400
0.012066 0.873597 0.617945
0.011936 0.873467 0.682155
0.011806 0.873337 0.746062
0.011676 0.873207 0.809696
0.011547 0.873078 0.873078
0.011419 0.872950 0.936229
0.011290 0.872821 0.999165
0.011271 0.872802 1.000000
0.012024 0.936834 0.012024
0.011876 0.936687 0.084449
0.011735 0.936545 0.154105
0.011596 0.936406 0.222309
0.011459 0.936269 0.289523
0.011324 0.936134 0.355987
0.011190 0.936000 0.421847
0.011057 0.935867 0.487203
0.010925 0.935735 0.552127
0.010793 0.935604 0.616672
0.010662 0.935473 0.680882
0.010532 0.935343 0.744789
0.010403 0.935213 0.808423
0.010274 0.935084 0.871805
0.010145 0.934956 0.934956
0.010017 0.934828 0.997892
0.009998 0.934808 1.000000
0.010755 0.998630 0.010755
0.010607 0.998483 0.083180
0.010466 0.998341 0.152836
0.010327 0.998202 0.221040
0.010190 0.998065 0.288254
0.010055 0.997930 0.354718
0.009921 0.997796 0.420578
0.009788 0.997663 0.485934
0.009656 0.997531 0.550858
0.009524 0.997399 0.615403
0.009394 0.997269 0.679613
0.009263 0.997139 0.743520
0.009134 0.997009 0.807154
0.009005 0.996880 0.870536
0.008876 0.996751 0.933687
0.008748 0.996623 0.996623
0.008729 0.996604 1.000000
0.010563 1.000000 0.010563
0.010415 1.000000 0.082987
0.010273 1.000000 0.152644
0.010135 1.000000 0.220848
0.009998 1.000000 0.288062
0.009863 1.000000 0.354526
0.009729 1.000000 0.420386
0.009596 1.000000 0.485742
0.009463 1.000000 0.550666
0.009332 1.000000 0.615211
0.009201 1.000000 0.679421
0.009071 1.000000 0.743328
0.008942 1.000000 0.806961
0.008813 1.000000 0.870344
0.008684 1.000000 0.933495
0.008556 1.000000 0.996431
0.008537 1.000000 1.000000
0.102770 0.030198 0.030198
0.102622 0.030050 0.102622
0.102481 0.029908 0.172279
0.102342 0.029770 0.240483
0.102205 0.029633 0.307697
0.102070 0.029498 0.374161
0.101936 0.029363 0.440021
0.101803 0.029230 0.505377
0.101670 0.029098 0.570300
0.101539 0.028967 0.634846
0.101408 0.028836 0.699056
0.101278 0.028706 0.762963
0.101149 0.028577 0.826596
0.101020 0.028448 0.889979
0.100891 0.028319 0.953130
0.100763 0.028191 1.000000
0.100744 0.028172 1.000000
0.101310 0.101310 0.028737
0.101162 0.101162 0.101162
0.101020 0.101020 0.170818
0.100882 0.100882 0.239023
0.100745 0.100745 0.306237
0.100609 0.100609 0.372700
0.100475 0.100475 0.438561
0.100342 0.100342 0.503917
0.100210 0.100210 0.568840
0.100079 0.100079 0.633386
0.099948 0.099948 0.697595
0.099818 0.099818 0.761503
0.099689 0.099689 0.825136
0.099560 0.099560 0.888518
0.099431 0.099431 0.951669
0.099303 0.099303 1.000000
0.099284 0.099284 1.000000
0.099905 0.169703 0.027333
0.099758 0.169556 0.099758
0.099616 0.169414 0.169414
0.099477 0.169275 0.237618
0.099340 0.169138 0.304833
0.099205 0.169003 0.371296
0.099071 0.168869 0.437156
0.098938 0.168736 0.502512
0.098806 0.168604 0.567436
0.098674 0.168473 0.631981
0.098544 0.168342 0.696191
0.098414 0.168212 0.760098
0.098284 0.168082 0.823732
0.098155 0.167953 0.887114
0.098027 0.167825 0.950265
0.097899 0.167697 1.000000
0.097879 0.167677 1.000000
0.098530 0.236671 0.025958
0.098383 0.236524 0.098383
0.098241 0.236382 0.168039
0.098102 0.236243 0.236243
0.097965 0.236106 0.303457
0.097830 0.235971 0.369921
0.097696 0.235837 0.435781
0.097563 0.235704 0.501137
0.097431 0.235572 0.566061
0.097299 0.235441 0.630606
0.097169 0.235310 0.694816
0.097039 0.235180 0.758723
0.096909 0.235050 0.822357
0.096780 0.234921 0.885739
0.096652 0.234793 0.948890
0.096523 0.234665 1.000000
0.096504 0.234645 1.000000
0.097175 0.302667 0.024603
0.097027 0.302520 0.097027
0.096886 0.302378 0.166684
0.096747 0.302239 0.234888
0.096610 0.302102 0.302102
0.096475 0.301967 0.368566
0.096341 0.301833 0.434426
0.096208 0.301700 0.499782
0.096076 0.301568 0.564706
0.095944 0.301436 0.629251
0.095814 0.301306 0.693461
0.095683 0.301176 0.757368
0.095554 0.301046 0.821001
0.095425 0.300917 0.884384
0.095296 0.300789 0.947535
0.095168 0.300660 1.000000
0.095149 0.300641 1.000000
0.095835 0.367926 0.023263
0.095687 0.367778 0.095687
0.095546 0.367637 0.165344
0.095407 0.367498 0.233548
0.095270 0.367361 0.300762
0.095135 0.367226 0.367226
0.095001 0.367092 0.433086
0.094868 0.366959 0.498442
0.094736 0.366827 0.563366
0.094604 0.366695 0.627911
0.094473 0.366565 0.692121
0.094343 0.366434 0.756028
0.094214 0.366305 0.819661
0.094085 0.366176 0.883044
0.093956 0.366047 0.946195
0.093828 0.365919 1.000000
0.093809 0.365900 1.000000
0.094507 0.432592 0.021935
0.094360 0.432445 0.094360
0.094218 0.432303 0.164016
0.094079 0.432164 0.232220
0.093942 0.432027 0.299434
0.093807 0.431892 0.365898
0.093673 0.431758 0.431758
0.093540 0.431625 0.497114
0.093408 0.431493 0.562038
0.093276 0.431361 0.626583
0.093146 0.431231 0.690793
0.093016 0.431101 0.754700
0.092886 0.430971 0.818334
0.092757 0.430842 0.881716
0.092629 0.430714 0.944867
0.092500 0.430586 1.000000
0.092481 0.430566 1.000000
0.093189 0.496764 0.020617
0.093042 0.496616 0.093042
0.092900 0.496474 0.162698
0.092761 0.496336 0.230903
0.092624 0.496199 0.298117
0.092489 0.496063 0.364580
0.092355 0.495929 0.430440
0.092222 0.495796 0.495796
0.092090 0.495664 0.560720
0.091959 0.495533 0.625266
0.091828 0.495402 0.689475
0.091698 0.495272 0.753383
0.091568 0.495143 0.817016
0.091439 0.495014 0.880398
0.091311 0.494885 0.943549
0.091183 0.494757 1.000000
0.091163 0.494738 1.000000
0.091880 0.560510 0.019308
0.091733 0.560363 0.091733
0.091591 0.560221 0.161389
0.091452 0.560082 0.229594
0.091316 0.559946 0.296808
0.091180 0.559810 0.363271
0.091046 0.559676 0.429131
0.090913 0.559543 0.494487
0.090781 0.559411 0.559411
0.090650 0.559280 0.623957
0.090519 0.559149 0.688166
0.090389 0.559019 0.752074
0.090259 0.558889 0.815707
0.090130 0.558760 0.879089
0.090002 0.558632 0.942240
0.089874 0.558504 1.000000
0.089854 0.558484 1.000000
0.090579 0.623886 0.018007
0.090432 0.623738 0.090432
0.090290 0.623597 0.160088
0.090151 0.623458 0.228292
0.090014 0.623321 0.295506
0.089879 0.623186 0.361970
0.089745 0.623052 0.427830
0.089612 0.622919 0.493186
0.089480 0.622787 0.558110
0.089348 0.622655 0.622655
0.089218 0.622525 0.686865
0.089088 0.622394 0.750772
0.088958 0.622265 0.814406
0.088829 0.622136 0.877788
0.088701 0.622007 0.940939
0.088572 0.621879 1.000000
0.088553 0.621860 1.000000
0.089284 0.686932 0.016712
0.089137 0.686784 0.089137
0.088995 0.686642 0.158793
0.088856 0.686504 0.226998
0.088720 0.686367 0.294212
0.088584 0.686231 0.360675
0.088450 0.686097 0.426535
0.088317 0.685964 0.491891
0.088185 0.685832 0.556815
0.088054 0.685701 0.621361
0.087923 0.685570 0.685570
0.087793 0.685440 0.749478
0.087663 0.685311 0.813111
0.087534 0.685182 0.876493
0.087406 0.685053 0.939644
0.087278 0.684925 1.000000
0.087258 0.684906 1.000000
0.087996 0.749681 0.015424
0.087849 0.749533 0.087849
0.087707 0.749391 0.157505
0.087568 0.749253 0.225709
0.087431 0.749116 0.292923
0.087296 0.748981 0.359387
0.087162 0.748847 0.425247
0.087029 0.748714 0.490603
0.086897 0.748581 0.555527
0.086765 0.748450 0.620072
0.086635 0.748319 0.684282
0.086505 0.748189 0.748189
0.086375 0.748060 0.811823
0.086246 0.747931 0.875205
0.086117 0.747802 0.938356
0.085989 0.747674 1.000000
0.085970 0.747655 1.000000
0.086713 0.812161 0.014141
0.086566 0.812013 0.086566
0.086424 0.811871 0.156222
0.086285 0.811733 0.224426
0.086148 0.811596 0.291640
0.086013 0.811460 0.358104
0.085879 0.811326 0.423964
0.085746 0.811193 0.489320
0.085614 0.811061 0.554244
0.085482 0.810930 0.618789
0.085352 0.810799 0.682999
0.085222 0.810669 0.746906
0.085092 0.810540 0.810540
0.084963 0.810411 0.873922
0.084835 0.810282 0.937073
0.084706 0.810154 1.000000
0.084687 0.810135 1.000000
0.085435 0.874394 0.012863
0.085288 0.874247 0.085288
0.085146 0.874105 0.154944
0.085007 0.873966 0.223148
0.084870 0.873829 0.290362
0.084735 0.873694 0.356826
0.084601 0.873560 0.422686
0.084468 0.873427 0.488042
0.084336 0.873295 0.552966
0.084204 0.873163 0.617511
0.084074 0.873033 0.681721
0.083944 0.872903 0.745628
0.083814 0.872773 0.809262
0.083685 0.872644 0.872644
0.083557 0.872515 0.935795
0.083429 0.872387 0.998731
0.083409 0.872368 1.000000
0.084162 0.936400 0.011590
0.084014 0.936253 0.084014
0.083873 0.936111 0.153671
0.083734 0.935972 0.221875
0.083597 0.935835 0.289089
0.083462 0.935700 0.355553
0.083328 0.935566 0.421413
0.083195 0.935433 0.486769
0.083063 0.935301 0.551693
0.082931 0.935170 0.616238
0.082801 0.935039 0.680448
0.082670 0.934909 0.744355
0.082541 0.934779 0.807988
0.082412 0.934650 0.871371
0.082283 0.934522 0.934522
0.082155 0.934394 0.997458
0.082136 0.934374 1.000000
0.082893 0.998196 0.010321
0.082746 0.998048 0.082746
0.082604 0.997907 0.152402
0.082465 0.997768 0.220606
0.082328 0.997631 0.287820
0.082193 0.997496 0.354284
0.082059 0.997362 0.420144
0.081926 0.997229 0.485500
0.081794 0.997097 0.550424
0.081662 0.996965 0.614969
0.081532 0.996835 0.679179
0.081402 0.996704 0.743086
0.081272 0.996575 0.806720
0.081143 0.996446 0.870102
0.081014 0.996317 0.933253
0.080886 0.996189 0.996189
0.080867 0.996170 1.000000
0.082701 1.000000 0.010129
0.082553 1.000000 0.082553
0.082412 1.000000 0.152210
0.082273 1.000000 0.220414
0.082136 1.000000 0.287628
0.082001 1.000000 0.354092
0.081867 1.000000 0.419952
0.081734 1.000000 0.485308
0.081601 1.000000 0.550231
0.081470 1.000000 0.614777
0.081339 1.000000 0.678987
0.081209 1.000000 0.742894
0.081080 1.000000 0.806527
0.080951 1.000000 0.869910
0.080822 1.000000 0.933061
0.080694 1.000000 0.995997
0.080675 1.000000 1.000000
0.172150 0.029780 0.029780
0.172003 0.029633 0.102205
0.171861 0.029491 0.171861
0.171722 0.029352 0.240066
0.171586 0.029215 0.307280
0.171450 0.029080 0.373743
0.171316 0.028946 0.439603
0.171183 0.028813 0.504959
0.171051 0.028681 0.569883
0.170920 0.028549 0.634428
0.170789 0.028419 0.698638
0.170659 0.028289 0.762546
0.170529 0.028159 0.826179
0.170400 0.028030 0.889561
0.170272 0.027902 0.952712
0.170144 0.027774 1.000000
0.170124 0.027754 1.000000
0.170690 0.100892 0.028320
0.170543 0.100745 0.100745
0.170401 0.100603 0.170401
0.170262 0.100464 0.238605
0.170125 0.100327 0.305819
0.169990 0.100192 0.372283
0.169856 0.100058 0.438143
0.169723 0.099925 0.503499
0.169591 0.099793 0.568423
0.169459 0.099661 0.632968
0.169329 0.099531 0.697178
0.169199 0.099401 0.761085
0.169069 0.099271 0.824719
0.168940 0.099142 0.888101
0.168812 0.099014 0.951252
0.168684 0.098885 1.000000
0.168664 0.098866 1.000000
0.169286 0.169286 0.026916
0.169138 0.169138 0.099340
0.168997 0.168997 0.168997
0.168858 0.168858 0.237201
0.168721 0.168721 0.304415
0.168586 0.168586 0.370879
0.168452 0.168452 0.436739
0.168319 0.168319 0.502095
0.168186 0.168186 0.567018
0.168055 0.168055 0.631564
0.167924 0.167924 0.695773
0.167794 0.167794 0.759681
0.167665 0.167665 0.823314
0.167536 0.167536 0.886697
0.167407 0.167407 0.949848
0.167279 0.167279 1.000000
0.167260 0.167260 1.000000
0.167911 0.236254 0.025540
0.167763 0.236106 0.097965
0.167621 0.235965 0.167621
0.167483 0.235826 0.235826
0.167346 0.235689 0.303040
0.167211 0.235554 0.369503
0.167076 0.235420 0.435364
0.166943 0.235287 0.500720
0.166811 0.235155 0.565643
0.166680 0.235023 0.630189
0.166549 0.234892 0.694398
0.166419 0.234762 0.758306
0.166290 0.234633 0.821939
0.166161 0.234504 0.885321
0.166032 0.234375 0.948472
0.165904 0.234247 1.000000
0.165885 0.234228 1.000000
0.166555 0.302250 0.024185
0.166408 0.302102 0.096610
0.166266 0.301960 0.166266
0.166127 0.301822 0.234471
0.165991 0.301685 0.301685
0.165855 0.301549 0.368148
0.165721 0.301415 0.434008
0.165588 0.301282 0.499364
0.165456 0.301150 0.564288
0.165325 0.301019 0.628834
0.165194 0.300888 0.693043
0.165064 0.300758 0.756951
0.164935 0.300629 0.820584
0.164806 0.300500 0.883966
0.164677 0.300371 0.947117
0.164549 0.300243 1.000000
0.164529 0.300224 1.000000
0.165215 0.367508 0.022845
0.165068 0.367361 0.095270
0.164926 0.367219 0.164926
0.164787 0.367080 0.233131
0.164651 0.366944 0.300345
0.164515 0.366808 0.366808
0.164381 0.366674 0.432668
0.164248 0.366541 0.498024
0.164116 0.366409 0.562948
0.163985 0.366278 0.627494
0.163854 0.366147 0.691703
0.163724 0.366017 0.755611
0.163595 0.365887 0.819244
0.163466 0.365758 0.882626
0.163337 0.365630 0.945777
0.163209 0.365502 1.000000
0.163189 0.365482 1.000000
0.163888 0.432175 0.021517
0.163740 0.432027 0.093942
0.163598 0.431885 0.163598
0.163460 0.431747 0.231803
0.163323 0.431610 0.299017
0.163188 0.431475 0.365480
0.163053 0.431341 0.431341
0.162920 0.431208 0.496697
0.162788 0.431075 0.561620
0.162657 0.430944 0.626166
0.162526 0.430813 0.690375
0.162396 0.430683 0.754283
0.162267 0.430554 0.817916
0.162138 0.430425 0.881298
0.162009 0.430296 0.944449
0.161881 0.430168 1.000000
0.161862 0.430149 1.000000
0.162570 0.496346 0.020200
0.162422 0.496199 0.092624
0.162281 0.496057 0.162281
0.162142 0.495918 0.230485
0.162005 0.495781 0.297699
0.161870 0.495646 0.364163
0.161736 0.495512 0.430023
0.161603 0.495379 0.495379
0.161471 0.495247 0.560303
0.161339 0.495115 0.624848
0.161209 0.494985 0.689058
0.161078 0.494855 0.752965
0.160949 0.494725 0.816598
0.160820 0.494596 0.879981
0.160691 0.494468 0.943132
0.160563 0.494339 1.000000
0.160544 0.494320 1.000000
0.161261 0.560093 0.018891
0.161114 0.559946 0.091315
0.160972 0.559804 0.160972
0.160833 0.559665 0.229176
0.160696 0.559528 0.296390
0.160561 0.559393 0.362854
0.160427 0.559259 0.428714
0.160294 0.559126 0.494070
0.160162 0.558994 0.558994
0.160030 0.558862 0.623539
0.159900 0.558732 0.687749
0.159770 0.558601 0.751656
0.159640 0.558472 0.815289
0.159511 0.558343 0.878672
0.159382 0.558214 0.941823
0.159254 0.558086 1.000000
0.159235 0.558067 1.000000
0.159960 0.623468 0.017589
0.159812 0.623321 0.090014
0.159670 0.623179 0.159670
0.159532 0.623040 0.227875
0.159395 0.622904 0.295089
0.159260 0.622768 0.361552
0.159125 0.622634 0.427413
0.158992 0.622501 0.492769
0.158860 0.622369 0.557692
0.158729 0.622238 0.622238
0.158598 0.622107 0.686447
0.158468 0.621977 0.750355
0.158339 0.621847 0.813988
0.158210 0.621718 0.877370
0.158081 0.621590 0.940521
0.157953 0.621462 1.000000
0.157934 0.621442 1.000000
0.158665 0.686514 0.016295
0.158518 0.686367 0.088720
0.158376 0.686225 0.158376
0.158237 0.686086 0.226580
0.158100 0.685949 0.293794
0.157965 0.685814 0.360258
0.157831 0.685680 0.426118
0.157698 0.685547 0.491474
0.157566 0.685415 0.556398
0.157434 0.685283 0.620943
0.157304 0.685153 0.685153
0.157174 0.685023 0.749060
0.157044 0.684893 0.812694
0.156915 0.684764 0.876076
0.156787 0.684636 0.939227
0.156658 0.684508 1.000000
0.156639 0.684488 1.000000
0.157377 0.749263 0.015006
0.157229 0.749116 0.087431
0.157087 0.748974 0.157087
0.156949 0.748835 0.225292
0.156812 0.748698 0.292506
0.156676 0.748563 0.358969
0.156542 0.748429 0.424829
0.156409 0.748296 0.490186
0.156277 0.748164 0.555109
0.156146 0.748033 0.619655
0.156015 0.747902 0.683864
0.155885 0.747772 0.747772
0.155756 0.747642 0.811405
0.155627 0.747513 0.874787
0.155498 0.747385 0.937938
0.155370 0.747257 1.000000
0.155351 0.747237 1.000000
0.156094 0.811743 0.013723
0.155946 0.811596 0.086148
0.155804 0.811454 0.155804
0.155666 0.811315 0.224009
0.155529 0.811178 0.291223
0.155394 0.811043 0.357686
0.155259 0.810909 0.423547
0.155126 0.810776 0.488903
0.154994 0.810644 0.553826
0.154863 0.810512 0.618372
0.154732 0.810382 0.682581
0.154602 0.810252 0.746489
0.154473 0.810122 0.810122
0.154344 0.809993 0.873504
0.154215 0.809865 0.936655
0.154087 0.809737 0.999592
0.154068 0.809717 1.000000
0.154816 0.873976 0.012445
0.154668 0.873829 0.084870
0.154527 0.873687 0.154527
0.154388 0.873548 0.222731
0.154251 0.873412 0.289945
0.154116 0.873276 0.356409
0.153982 0.873142 0.422269
0.153849 0.873009 0.487625
0.153716 0.872877 0.552548
0.153585 0.872746 0.617094
0.153454 0.872615 0.681303
0.153324 0.872485 0.745211
0.153195 0.872356 0.808844
0.153066 0.872227 0.872227
0.152937 0.872098 0.935378
0.152809 0.871970 0.998314
0.152790 0.871951 1.000000
0.153542 0.935983 0.011172
0.153395 0.935835 0.083597
0.153253 0.935694 0.153253
0.153114 0.935555 0.221458
0.152978 0.935418 0.288672
0.152842 0.935283 0.355135
0.152708 0.935149 0.420995
0.152575 0.935016 0.486351
0.152443 0.934883 0.551275
0.152312 0.934752 0.615821
0.152181 0.934621 0.680030
0.152051 0.934491 0.743938
0.151922 0.934362 0.807571
0.151793 0.934233 0.870953
0.151664 0.934104 0.934104
0.151536 0.933976 0.997041
0.151516 0.933957 1.000000
0.152274 0.997778 0.009903
0.152126 0.997631 0.082328
0.151984 0.997489 0.151984
0.151846 0.997350 0.220189
0.151709 0.997214 0.287403
0.151573 0.997078 0.353866
0.151439 0.996944 0.419727
0.151306 0.996811 0.485083
0.151174 0.996679 0.550006
0.151043 0.996548 0.614552
0.150912 0.996417 0.678761
0.150782 0.996287 0.742669
0.150653 0.996157 0.806302
0.150524 0.996028 0.869684
0.150395 0.995900 0.932835
0.150267 0.995772 0.995772
0.150248 0.995752 1.000000
0.152081 1.000000 0.009711
0.151934 1.000000 0.082136
0.151792 1.000000 0.151792
0.151653 1.000000 0.219997
0.151517 1.000000 0.287211
0.151381 1.000000 0.353674
0.151247 1.000000 0.419534
0.151114 1.000000 0.484890
0.150982 1.000000 0.549814
0.150851 1.000000 0.614360
0.150720 1.000000 0.678569
0.150590 1.000000 0.742477
0.150460 1.000000 0.806110
0.150331 1.000000 0.869492
0.150203 1.000000 0.932643
0.150075 1.000000 0.995580
0.150055 1.000000 1.000000
0.240085 0.029371 0.029371
0.239937 0.029224 0.101796
0.239796 0.029082 0.171452
0.239657 0.028943 0.239657
0.239520 0.028807 0.306871
0.239385 0.028671 0.373334
0.239251 0.028537 0.439194
0.239118 0.028404 0.504551
0.238985 0.028272 0.569474
0.238854 0.028141 0.634020
0.238723 0.028010 0.698229
0.238593 0.027880 0.762137
0.238464 0.027750 0.825770
0.238335 0.027621 0.889152
0.238206 0.027493 0.952303
0.238078 0.027365 1.000000
0.238059 0.027345 1.000000
0.238625 0.100483 0.027911
