skills/editops-orchestrator/assets/grade/luts/clean_bright_v10.cube
TITLE "clean_bright_v10"
LUT_3D_SIZE 9
DOMAIN_MIN 0.0 0.0 0.0
DOMAIN_MAX 1.0 1.0 1.0
0.026714 0.026714 0.026714
0.026480 0.026480 0.166592
0.026256 0.026256 0.300442
0.026037 0.026037 0.431529
0.025820 0.025820 0.560794
0.025606 0.025606 0.688702
0.025394 0.025394 0.815527
0.025184 0.025184 0.941455
0.025050 0.025050 1.000000
0.024396 0.164508 0.024396
0.024162 0.164274 0.164274
0.023938 0.164050 0.298124
0.023718 0.163830 0.429210
0.023502 0.163614 0.558476
0.023288 0.163400 0.686383
0.023076 0.163188 0.813209
0.022865 0.162977 0.939137
0.022731 0.162843 1.000000
0.022177 0.296363 0.022177
0.021943 0.296129 0.162055
0.021719 0.295905 0.295905
0.021500 0.295686 0.426992
0.021283 0.295469 0.556257
0.021069 0.295255 0.684165
0.020857 0.295043 0.810990
0.020647 0.294832 0.936918
0.020513 0.294699 1.000000
0.020004 0.425497 0.020004
0.019770 0.425263 0.159882
0.019546 0.425039 0.293732
0.019327 0.424819 0.424819
0.019111 0.424603 0.554085
0.018897 0.424389 0.681992
0.018685 0.424177 0.808818
0.018474 0.423966 0.934745
0.018340 0.423832 1.000000
0.017862 0.552836 0.017862
0.017628 0.552602 0.157740
0.017404 0.552378 0.291590
0.017184 0.552158 0.422677
0.016968 0.551942 0.551942
0.016754 0.551728 0.679849
0.016542 0.551516 0.806675
0.016331 0.551305 0.932603
0.016198 0.551171 1.000000
0.015742 0.678837 0.015742
0.015508 0.678603 0.155620
0.015284 0.678379 0.289470
0.015064 0.678160 0.420557
0.014848 0.677943 0.549822
0.014634 0.677729 0.677729
0.014422 0.677517 0.804555
0.014211 0.677306 0.930483
0.014078 0.677173 1.000000
0.013640 0.803773 0.013640
0.013406 0.803539 0.153518
0.013182 0.803315 0.287368
0.012962 0.803095 0.418455
0.012746 0.802879 0.547720
0.012532 0.802665 0.675627
0.012320 0.802453 0.802453
0.012109 0.802242 0.928381
0.011975 0.802108 1.000000
0.011553 0.927824 0.011553
0.011318 0.927590 0.151431
0.011094 0.927366 0.285280
0.010875 0.927147 0.416367
0.010659 0.926930 0.545633
0.010445 0.926716 0.673540
0.010233 0.926504 0.800366
0.010022 0.926293 0.926293
0.009888 0.926160 1.000000
0.010228 1.000000 0.010228
0.009994 1.000000 0.150106
0.009770 1.000000 0.283956
0.009550 1.000000 0.415042
0.009334 1.000000 0.544308
0.009120 1.000000 0.672215
0.008908 1.000000 0.799041
0.008697 1.000000 0.924969
0.008563 1.000000 1.000000
0.166137 0.026025 0.026025
0.165903 0.025791 0.165903
0.165679 0.025567 0.299753
0.165460 0.025348 0.430840
0.165243 0.025131 0.560105
0.165029 0.024917 0.688012
0.164817 0.024705 0.814838
0.164606 0.024494 0.940766
0.164473 0.024361 1.000000
0.163819 0.163819 0.023706
0.163585 0.163585 0.163585
0.163361 0.163361 0.297434
0.163141 0.163141 0.428521
0.162925 0.162925 0.557787
0.162711 0.162711 0.685694
0.162499 0.162499 0.812520
0.162288 0.162288 0.938447
0.162154 0.162154 1.000000
0.161600 0.295674 0.021488
0.161366 0.295440 0.161366
0.161142 0.295216 0.295216
0.160923 0.294997 0.426303
0.160706 0.294780 0.555568
0.160492 0.294566 0.683475
0.160280 0.294354 0.810301
0.160069 0.294143 0.936229
0.159936 0.294010 1.000000
0.159427 0.424807 0.019315
0.159193 0.424573 0.159193
0.158969 0.424349 0.293043
0.158750 0.424130 0.424130
0.158534 0.423914 0.553396
0.158320 0.423700 0.681303
0.158107 0.423488 0.808128
0.157897 0.423277 0.934056
0.157763 0.423143 1.000000
0.157285 0.552147 0.017173
0.157051 0.551913 0.157051
0.156827 0.551689 0.290901
0.156607 0.551469 0.421988
0.156391 0.551253 0.551253
0.156177 0.551039 0.679160
0.155965 0.550827 0.805986
0.155754 0.550616 0.931914
0.155620 0.550482 1.000000
0.155165 0.678148 0.015053
0.154931 0.677914 0.154931
0.154707 0.677690 0.288781
0.154487 0.677471 0.419867
0.154271 0.677254 0.549133
0.154057 0.677040 0.677040
0.153845 0.676828 0.803866
0.153634 0.676617 0.929794
0.153500 0.676484 1.000000
0.153063 0.803084 0.012951
0.152829 0.802849 0.152829
0.152605 0.802626 0.286678
0.152385 0.802406 0.417765
0.152169 0.802190 0.547031
0.151955 0.801976 0.674938
0.151743 0.801764 0.801764
0.151532 0.801553 0.927691
0.151398 0.801419 1.000000
0.150975 0.927135 0.010863
0.150741 0.926901 0.150741
0.150517 0.926677 0.284591
0.150298 0.926457 0.415678
0.150082 0.926241 0.544944
0.149868 0.926027 0.672851
0.149656 0.925815 0.799676
0.149445 0.925604 0.925604
0.149311 0.925470 1.000000
0.149651 1.000000 0.009538
0.149417 1.000000 0.149417
0.149193 1.000000 0.283266
0.148973 1.000000 0.414353
0.148757 1.000000 0.543619
0.148543 1.000000 0.671526
0.148331 1.000000 0.798352
0.148120 1.000000 0.924279
0.147986 1.000000 1.000000
0.299551 0.025365 0.025365
0.299317 0.025131 0.165243
0.299093 0.024907 0.299093
0.298874 0.024688 0.430180
0.298658 0.024472 0.559446
0.298444 0.024258 0.687353
0.298231 0.024046 0.814179
0.298021 0.023835 0.940106
0.297887 0.023701 1.000000
0.297233 0.163159 0.023047
0.296999 0.162925 0.162925
0.296775 0.162701 0.296775
0.296556 0.162482 0.427862
0.296339 0.162265 0.557127
0.296125 0.162051 0.685035
0.295913 0.161839 0.811860
0.295702 0.161629 0.937788
0.295569 0.161495 1.000000
0.295014 0.295014 0.020828
0.294780 0.294780 0.160707
0.294556 0.294556 0.294556
0.294337 0.294337 0.425643
0.294121 0.294121 0.554909
0.293907 0.293907 0.682816
0.293695 0.293695 0.809642
0.293484 0.293484 0.935569
0.293350 0.293350 1.000000
0.292842 0.424148 0.018656
0.292608 0.423914 0.158534
0.292384 0.423690 0.292384
0.292164 0.423471 0.423471
0.291948 0.423254 0.552736
0.291734 0.423040 0.680643
0.291522 0.422828 0.807469
0.291311 0.422617 0.933397
0.291177 0.422484 1.000000
0.290699 0.551487 0.016513
0.290465 0.551253 0.156391
0.290241 0.551029 0.290241
0.290022 0.550810 0.421328
0.289805 0.550594 0.550594
0.289591 0.550379 0.678501
0.289379 0.550167 0.805326
0.289169 0.549957 0.931254
0.289035 0.549823 1.000000
0.288579 0.677488 0.014393
0.288345 0.677254 0.154271
0.288121 0.677030 0.288121
0.287902 0.676811 0.419208
0.287685 0.676595 0.548473
0.287471 0.676381 0.676381
0.287259 0.676169 0.803206
0.287049 0.675958 0.929134
0.286915 0.675824 1.000000
0.286477 0.802424 0.012291
0.286243 0.802190 0.152169
0.286019 0.801966 0.286019
0.285800 0.801747 0.417106
0.285583 0.801530 0.546371
0.285369 0.801316 0.674279
0.285157 0.801104 0.801104
0.284946 0.800893 0.927032
0.284813 0.800760 1.000000
0.284390 0.926475 0.010204
0.284156 0.926241 0.150082
0.283932 0.926017 0.283932
0.283712 0.925798 0.415019
0.283496 0.925582 0.544284
0.283282 0.925368 0.672191
0.283070 0.925155 0.799017
0.282859 0.924945 0.924945
0.282725 0.924811 1.000000
0.283065 1.000000 0.008879
0.282831 1.000000 0.148757
0.282607 1.000000 0.282607
0.282388 1.000000 0.413694
0.282171 1.000000 0.542959
0.281957 1.000000 0.670867
0.281745 1.000000 0.797692
0.281534 1.000000 0.923620
0.281401 1.000000 1.000000
0.430212 0.024720 0.024720
0.429978 0.024486 0.164598
0.429754 0.024262 0.298447
0.429534 0.024042 0.429534
0.429318 0.023826 0.558800
0.429104 0.023612 0.686707
0.428892 0.023400 0.813533
0.428681 0.023189 0.939460
0.428547 0.023055 1.000000
0.427893 0.162513 0.022401
0.427659 0.162279 0.162279
0.427435 0.162055 0.296129
0.427216 0.161836 0.427216
0.427000 0.161620 0.556481
0.426786 0.161406 0.684389
0.426573 0.161193 0.811214
0.426363 0.160983 0.937142
0.426229 0.160849 1.000000
0.425675 0.294369 0.020183
0.425441 0.294134 0.160061
0.425217 0.293911 0.293911
0.424997 0.293691 0.424997
0.424781 0.293475 0.554263
0.424567 0.293261 0.682170
0.424355 0.293049 0.808996
0.424144 0.292838 0.934923
0.424010 0.292704 1.000000
0.423502 0.423502 0.018010
0.423268 0.423268 0.157888
0.423044 0.423044 0.291738
0.422825 0.422825 0.422825
0.422608 0.422608 0.552090
0.422394 0.422394 0.679997
0.422182 0.422182 0.806823
0.421971 0.421971 0.932751
0.421838 0.421838 1.000000
0.421360 0.550841 0.015867
0.421125 0.550607 0.155745
0.420902 0.550383 0.289595
0.420682 0.550164 0.420682
0.420466 0.549948 0.549948
0.420252 0.549734 0.677855
0.420040 0.549521 0.804680
0.419829 0.549311 0.930608
0.419695 0.549177 1.000000
0.419239 0.676843 0.013747
0.419005 0.676608 0.153625
0.418781 0.676385 0.287475
0.418562 0.676165 0.418562
0.418346 0.675949 0.547828
0.418132 0.675735 0.675735
0.417920 0.675523 0.802560
0.417709 0.675312 0.928488
0.417575 0.675178 1.000000
0.417137 0.801778 0.011645
0.416903 0.801544 0.151523
0.416679 0.801320 0.285373
0.416460 0.801101 0.416460
0.416244 0.800885 0.545726
0.416030 0.800671 0.673633
0.415818 0.800458 0.800458
0.415607 0.800248 0.926386
0.415473 0.800114 1.000000
0.415050 0.925829 0.009558
0.414816 0.925595 0.149436
0.414592 0.925371 0.283286
0.414373 0.925152 0.414373
0.414157 0.924936 0.543638
0.413943 0.924722 0.671546
0.413730 0.924510 0.798371
0.413520 0.924299 0.924299
0.413386 0.924165 1.000000
0.413725 1.000000 0.008233
0.413491 1.000000 0.148111
0.413267 1.000000 0.281961
0.413048 1.000000 0.413048
0.412832 1.000000 0.542313
0.412618 1.000000 0.670221
0.412405 1.000000 0.797046
0.412195 1.000000 0.922974
0.412061 1.000000 1.000000
0.559057 0.024083 0.024083
0.558823 0.023849 0.163961
0.558599 0.023625 0.297811
0.558379 0.023405 0.428898
0.558163 0.023189 0.558163
0.557949 0.022975 0.686070
0.557737 0.022763 0.812896
0.557526 0.022552 0.938824
0.557392 0.022418 1.000000
0.556738 0.161876 0.021764
0.556504 0.161642 0.161642
0.556280 0.161418 0.295492
0.556061 0.161199 0.426579
0.555845 0.160983 0.555845
0.555631 0.160769 0.683752
0.555418 0.160556 0.810577
0.555208 0.160346 0.936505
0.555074 0.160212 1.000000
0.554520 0.293732 0.019546
0.554286 0.293498 0.159424
0.554062 0.293274 0.293274
0.553842 0.293054 0.424361
0.553626 0.292838 0.553626
0.553412 0.292624 0.681533
0.553200 0.292412 0.808359
0.552989 0.292201 0.934287
0.552855 0.292067 1.000000
0.552347 0.422865 0.017373
0.552113 0.422631 0.157251
0.551889 0.422407 0.291101
0.551670 0.422188 0.422188
0.551453 0.421972 0.551453
0.551239 0.421758 0.679361
0.551027 0.421545 0.806186
0.550816 0.421335 0.932114
0.550683 0.421201 1.000000
0.550204 0.550204 0.015230
0.549970 0.549970 0.155108
0.549746 0.549746 0.288958
0.549527 0.549527 0.420045
0.549311 0.549311 0.549311
0.549097 0.549097 0.677218
0.548885 0.548885 0.804044
0.548674 0.548674 0.929971
0.548540 0.548540 1.000000
0.548084 0.676206 0.013110
0.547850 0.675972 0.152988
0.547626 0.675748 0.286838
0.547407 0.675528 0.417925
0.547191 0.675312 0.547191
0.546977 0.675098 0.675098
0.546765 0.674886 0.801924
0.546554 0.674675 0.927851
0.546420 0.674541 1.000000
0.545982 0.801141 0.011008
0.545748 0.800907 0.150886
0.545524 0.800683 0.284736
0.545305 0.800464 0.415823
0.545089 0.800248 0.545089
0.544875 0.800034 0.672996
0.544662 0.799821 0.799821
0.544452 0.799611 0.925749
0.544318 0.799477 1.000000
0.543895 0.925193 0.008921
0.543661 0.924958 0.148799
0.543437 0.924735 0.282649
0.543218 0.924515 0.413736
0.543001 0.924299 0.543001
0.542787 0.924085 0.670909
0.542575 0.923873 0.797734
0.542364 0.923662 0.923662
0.542231 0.923528 1.000000
0.542570 1.000000 0.007596
0.542336 1.000000 0.147474
0.542112 1.000000 0.281324
0.541893 1.000000 0.412411
0.541677 1.000000 0.541677
0.541463 1.000000 0.669584
0.541250 1.000000 0.796409
0.541040 1.000000 0.922337
0.540906 1.000000 1.000000
0.686548 0.023452 0.023452
0.686314 0.023218 0.163331
0.686090 0.022994 0.297180
0.685870 0.022775 0.428267
0.685654 0.022559 0.557533
0.685440 0.022345 0.685440
0.685228 0.022133 0.812266
0.685017 0.021922 0.938193
0.684883 0.021788 1.000000
0.684229 0.161246 0.021134
0.683995 0.161012 0.161012
0.683771 0.160788 0.294862
0.683552 0.160569 0.425949
0.683336 0.160352 0.555214
0.683122 0.160138 0.683122
0.682909 0.159926 0.809947
0.682699 0.159716 0.935875
0.682565 0.159582 1.000000
0.682011 0.293101 0.018916
0.681777 0.292867 0.158794
0.681553 0.292643 0.292643
0.681333 0.292424 0.423730
0.681117 0.292208 0.552996
0.680903 0.291994 0.680903
0.680691 0.291782 0.807729
0.680480 0.291571 0.933656
0.680346 0.291437 1.000000
0.679838 0.422235 0.016743
0.679604 0.422001 0.156621
0.679380 0.421777 0.290471
0.679161 0.421558 0.421558
0.678944 0.421341 0.550823
0.678730 0.421127 0.678730
0.678518 0.420915 0.805556
0.678307 0.420704 0.931484
0.678174 0.420571 1.000000
0.677695 0.549574 0.014600
0.677461 0.549340 0.154478
0.677237 0.549116 0.288328
0.677018 0.548897 0.419415
0.676802 0.548681 0.548681
0.676588 0.548467 0.676588
0.676376 0.548254 0.803413
0.676165 0.548044 0.929341
0.676031 0.547910 1.000000
0.675575 0.675575 0.012480
0.675341 0.675341 0.152358
0.675117 0.675117 0.286208
0.674898 0.674898 0.417295
0.674682 0.674682 0.546561
0.674468 0.674468 0.674468
0.674256 0.674256 0.801293
0.674045 0.674045 0.927221
0.673911 0.673911 1.000000
0.673473 0.800511 0.010378
0.673239 0.800277 0.150256
0.673015 0.800053 0.284106
0.672796 0.799834 0.415193
0.672580 0.799617 0.544458
0.672366 0.799403 0.672366
0.672153 0.799191 0.799191
0.671943 0.798981 0.925119
0.671809 0.798847 1.000000
0.671386 0.924562 0.008291
0.671152 0.924328 0.148169
0.670928 0.924104 0.282019
0.670709 0.923885 0.413106
0.670492 0.923669 0.542371
0.670278 0.923455 0.670278
0.670066 0.923242 0.797104
0.669856 0.923032 0.923032
0.669722 0.922898 1.000000
0.670061 1.000000 0.006966
0.669827 1.000000 0.146844
0.669603 1.000000 0.280694
0.669384 1.000000 0.411781
0.669168 1.000000 0.541046
0.668954 1.000000 0.668954
0.668741 1.000000 0.795779
0.668531 1.000000 0.921707
0.668397 1.000000 1.000000
0.812961 0.022828 0.022828
0.812727 0.022594 0.162706
0.812503 0.022370 0.296556
0.812283 0.022150 0.427642
0.812067 0.021934 0.556908
0.811853 0.021720 0.684815
0.811641 0.021508 0.811641
0.811430 0.021297 0.937568
0.811296 0.021163 1.000000
0.810642 0.160621 0.020509
0.810408 0.160387 0.160387
0.810184 0.160163 0.294237
0.809965 0.159944 0.425324
0.809749 0.159728 0.554589
0.809534 0.159514 0.682497
0.809322 0.159301 0.809322
0.809112 0.159091 0.935250
0.808978 0.158957 1.000000
0.808424 0.292477 0.018291
0.808190 0.292243 0.158169
0.807966 0.292019 0.292019
0.807746 0.291799 0.423105
0.807530 0.291583 0.552371
0.807316 0.291369 0.680278
0.807104 0.291157 0.807104
0.806893 0.290946 0.933032
0.806759 0.290812 1.000000
0.806251 0.421610 0.016118
0.806017 0.421376 0.155996
0.805793 0.421152 0.289846
0.805574 0.420933 0.420933
0.805357 0.420716 0.550198
0.805143 0.420502 0.678105
0.804931 0.420290 0.804931
0.804720 0.420080 0.930859
0.804587 0.419946 1.000000
0.804108 0.548949 0.013975
0.803874 0.548715 0.153853
0.803650 0.548491 0.287703
0.803431 0.548272 0.418790
0.803215 0.548056 0.548056
0.803001 0.547842 0.675963
0.802788 0.547629 0.802788
0.802578 0.547419 0.928716
0.802444 0.547285 1.000000
0.801988 0.674951 0.011855
0.801754 0.674717 0.151733
0.801530 0.674493 0.285583
0.801311 0.674273 0.416670
0.801095 0.674057 0.545936
0.800881 0.673843 0.673843
0.800668 0.673631 0.800668
0.800458 0.673420 0.926596
0.800324 0.673286 1.000000
0.799886 0.799886 0.009753
0.799652 0.799652 0.149631
0.799428 0.799428 0.283481
0.799209 0.799209 0.414568
0.798993 0.798993 0.543834
0.798779 0.798779 0.671741
0.798566 0.798566 0.798566
0.798356 0.798356 0.924494
0.798222 0.798222 1.000000
0.797799 0.923937 0.007666
0.797565 0.923703 0.147544
0.797341 0.923479 0.281394
0.797122 0.923260 0.412481
0.796905 0.923044 0.541746
0.796691 0.922830 0.669654
0.796479 0.922618 0.796479
0.796268 0.922407 0.922407
0.796135 0.922273 1.000000
0.796474 1.000000 0.006341
0.796240 1.000000 0.146219
0.796016 1.000000 0.280069
0.795797 1.000000 0.411156
0.795581 1.000000 0.540421
0.795366 1.000000 0.668329
0.795154 1.000000 0.795154
0.794944 1.000000 0.921082
0.794810 1.000000 1.000000
0.938479 0.022207 0.022207
0.938245 0.021973 0.162085
0.938021 0.021749 0.295935
0.937801 0.021530 0.427022
0.937585 0.021314 0.556287
0.937371 0.021100 0.684195
0.937159 0.020887 0.811020
0.936948 0.020677 0.936948
0.936814 0.020543 1.000000
0.936160 0.160001 0.019889
0.935926 0.159767 0.159767
0.935702 0.159543 0.293617
0.935483 0.159323 0.424704
0.935267 0.159107 0.553969
0.935053 0.158893 0.681876
0.934840 0.158681 0.808702
0.934630 0.158470 0.934630
0.934496 0.158336 1.000000
0.933942 0.291856 0.017670
0.933708 0.291622 0.157548
0.933484 0.291398 0.291398
0.933264 0.291179 0.422485
0.933048 0.290962 0.551751
0.932834 0.290748 0.679658
0.932622 0.290536 0.806483
0.932411 0.290326 0.932411
0.932277 0.290192 1.000000
0.931769 0.420990 0.015497
0.931535 0.420756 0.155376
0.931311 0.420532 0.289225
0.931092 0.420312 0.420312
0.930875 0.420096 0.549578
0.930661 0.419882 0.677485
0.930449 0.419670 0.804311
0.930238 0.419459 0.930238
0.930105 0.419325 1.000000
0.929626 0.548329 0.013355
0.929392 0.548095 0.153233
0.929168 0.547871 0.287083
0.928949 0.547652 0.418170
0.928733 0.547435 0.547435
0.928519 0.547221 0.675342
0.928307 0.547009 0.802168
0.928096 0.546798 0.928096
0.927962 0.546665 1.000000
0.927506 0.674330 0.011235
0.927272 0.674096 0.151113
0.927048 0.673872 0.284963
0.926829 0.673653 0.416050
0.926613 0.673436 0.545315
0.926399 0.673222 0.673222
0.926186 0.673010 0.800048
0.925976 0.672800 0.925976
0.925842 0.672666 1.000000
0.925404 0.799266 0.009133
0.925170 0.799032 0.149011
0.924946 0.798808 0.282861
0.924727 0.798588 0.413948
0.924511 0.798372 0.543213
0.924297 0.798158 0.671120
0.924084 0.797946 0.797946
0.923874 0.797735 0.923874
0.923740 0.797601 1.000000
0.923317 0.923317 0.007046
0.923083 0.923083 0.146924
0.922859 0.922859 0.280774
0.922640 0.922640 0.411860
0.922423 0.922423 0.541126
0.922209 0.922209 0.669033
0.921997 0.921997 0.795859
0.921786 0.921786 0.921786
0.921653 0.921653 1.000000
0.921992 1.000000 0.005721
0.921758 1.000000 0.145599
0.921534 1.000000 0.279449
0.921315 1.000000 0.410536
0.921099 1.000000 0.539801
0.920885 1.000000 0.667708
0.920672 1.000000 0.794534
0.920462 1.000000 0.920462
0.920328 1.000000 1.000000
1.000000 0.021813 0.021813
1.000000 0.021579 0.161691
1.000000 0.021355 0.295541
1.000000 0.021136 0.426628
1.000000 0.020920 0.555894
1.000000 0.020706 0.683801
1.000000 0.020493 0.810626
1.000000 0.020283 0.936554
1.000000 0.020149 1.000000
1.000000 0.159607 0.019495
1.000000 0.159373 0.159373
1.000000 0.159149 0.293223
1.000000 0.158930 0.424310
1.000000 0.158713 0.553575
1.000000 0.158499 0.681482
1.000000 0.158287 0.808308
1.000000 0.158076 0.934236
1.000000 0.157943 1.000000
1.000000 0.291462 0.017276
1.000000 0.291228 0.157154
1.000000 0.291004 0.291004
1.000000 0.290785 0.422091
1.000000 0.290569 0.551357
1.000000 0.290355 0.679264
1.000000 0.290142 0.806089
1.000000 0.289932 0.932017
1.000000 0.289798 1.000000
1.000000 0.420596 0.015104
1.000000 0.420362 0.154982
1.000000 0.420138 0.288832
1.000000 0.419918 0.419918
1.000000 0.419702 0.549184
1.000000 0.419488 0.677091
1.000000 0.419276 0.803917
1.000000 0.419065 0.929845
1.000000 0.418932 1.000000
1.000000 0.547935 0.012961
1.000000 0.547701 0.152839
1.000000 0.547477 0.286689
1.000000 0.547258 0.417776
1.000000 0.547041 0.547041
1.000000 0.546827 0.674949
1.000000 0.546615 0.801774
1.000000 0.546404 0.927702
1.000000 0.546271 1.000000
1.000000 0.673936 0.010841
1.000000 0.673702 0.150719
1.000000 0.673478 0.284569
1.000000 0.673259 0.415656
1.000000 0.673043 0.544921
1.000000 0.672829 0.672829
1.000000 0.672616 0.799654
1.000000 0.672406 0.925582
1.000000 0.672272 1.000000
1.000000 0.798872 0.008739
1.000000 0.798638 0.148617
1.000000 0.798414 0.282467
1.000000 0.798195 0.413554
1.000000 0.797978 0.542819
1.000000 0.797764 0.670727
1.000000 0.797552 0.797552
1.000000 0.797341 0.923480
1.000000 0.797208 1.000000
1.000000 0.922923 0.006652
1.000000 0.922689 0.146530
1.000000 0.922465 0.280380
1.000000 0.922246 0.411467
1.000000 0.922030 0.540732
1.000000 0.921816 0.668639
1.000000 0.921603 0.795465
1.000000 0.921393 0.921393
1.000000 0.921259 1.000000
1.000000 1.000000 0.005327
1.000000 1.000000 0.145205
1.000000 1.000000 0.279055
1.000000 1.000000 0.410142
1.000000 1.000000 0.539407
1.000000 1.000000 0.667314
1.000000 1.000000 0.794140
1.000000 1.000000 0.920068
1.000000 1.000000 1.000000
