skills/editops-orchestrator/assets/grade/luts/clean_bright_v19.cube
TITLE "clean_bright_v19"
LUT_3D_SIZE 17
DOMAIN_MIN 0.0 0.0 0.0
DOMAIN_MAX 1.0 1.0 1.0
0.045505 0.045505 0.045505
0.045254 0.045254 0.122028
0.045015 0.045015 0.195034
0.044782 0.044782 0.266089
0.044554 0.044554 0.335791
0.044329 0.044329 0.404461
0.044107 0.044107 0.472300
0.043887 0.043887 0.539442
0.043669 0.043669 0.605986
0.043452 0.043452 0.672007
0.043237 0.043237 0.737563
0.043024 0.043024 0.802702
0.042812 0.042812 0.867462
0.042601 0.042601 0.931874
0.042391 0.042391 0.995967
0.042240 0.042240 1.000000
0.042240 0.042240 1.000000
0.043021 0.119796 0.043021
0.042771 0.119545 0.119545
0.042532 0.119306 0.192551
0.042299 0.119073 0.263605
0.042070 0.118845 0.333308
0.041845 0.118620 0.401978
0.041623 0.118398 0.469816
0.041403 0.118178 0.536958
0.041185 0.117960 0.603502
0.040969 0.117743 0.669524
0.040754 0.117529 0.735080
0.040541 0.117315 0.800219
0.040329 0.117103 0.864978
0.040118 0.116892 0.929391
0.039908 0.116682 0.993484
0.039757 0.116531 1.000000
0.039757 0.116531 1.000000
0.040652 0.190672 0.040652
0.040402 0.190421 0.117176
0.040162 0.190182 0.190182
0.039930 0.189949 0.261236
0.039701 0.189721 0.330938
0.039476 0.189496 0.399609
0.039254 0.189274 0.467447
0.039034 0.189054 0.534589
0.038816 0.188836 0.601133
0.038600 0.188619 0.667154
0.038385 0.188405 0.732711
0.038172 0.188191 0.797849
0.037959 0.187979 0.862609
0.037748 0.187768 0.927022
0.037538 0.187558 0.991115
0.037388 0.187407 1.000000
0.037388 0.187407 1.000000
0.038346 0.259653 0.038346
0.038096 0.259402 0.114870
0.037857 0.259163 0.187876
0.037624 0.258930 0.258930
0.037395 0.258702 0.328633
0.037170 0.258477 0.397303
0.036948 0.258255 0.465141
0.036728 0.258035 0.532283
0.036510 0.257817 0.598827
0.036294 0.257601 0.664849
0.036079 0.257386 0.730405
0.035866 0.257172 0.795544
0.035654 0.256960 0.860303
0.035443 0.256749 0.924716
0.035233 0.256539 0.988809
0.035082 0.256389 1.000000
0.035082 0.256389 1.000000
0.036084 0.327322 0.036084
0.035834 0.327071 0.112608
0.035595 0.326832 0.185614
0.035362 0.326599 0.256668
0.035133 0.326371 0.326371
0.034908 0.326146 0.395041
0.034686 0.325923 0.462879
0.034466 0.325703 0.530021
0.034248 0.325485 0.596566
0.034032 0.325269 0.662587
0.033817 0.325054 0.728143
0.033604 0.324841 0.793282
0.033392 0.324629 0.858041
0.033181 0.324418 0.922454
0.032971 0.324208 0.986547
0.032820 0.324057 1.000000
0.032820 0.324057 1.000000
0.033856 0.393989 0.033856
0.033605 0.393738 0.110380
0.033366 0.393499 0.183386
0.033133 0.393266 0.254440
0.032905 0.393038 0.324142
0.032680 0.392813 0.392813
0.032458 0.392590 0.460651
0.032238 0.392370 0.527793
0.032020 0.392152 0.594337
0.031804 0.391936 0.660358
0.031589 0.391721 0.725915
0.031375 0.391508 0.791053
0.031163 0.391296 0.855813
0.030952 0.391085 0.920225
0.030742 0.390875 0.984319
0.030592 0.390724 1.000000
0.030592 0.390724 1.000000
0.031654 0.459848 0.031654
0.031404 0.459597 0.108178
0.031165 0.459358 0.181184
0.030932 0.459125 0.252238
0.030703 0.458897 0.321941
0.030479 0.458672 0.390611
0.030256 0.458449 0.458449
0.030036 0.458229 0.525591
0.029818 0.458011 0.592136
0.029602 0.457795 0.658157
0.029387 0.457580 0.723713
0.029174 0.457367 0.788852
0.028962 0.457155 0.853611
0.028751 0.456944 0.918024
0.028541 0.456734 0.982117
0.028390 0.456583 1.000000
0.028390 0.456583 1.000000
0.029476 0.525031 0.029476
0.029225 0.524780 0.105999
0.028986 0.524541 0.179005
0.028753 0.524308 0.250060
0.028525 0.524080 0.319762
0.028300 0.523855 0.388432
0.028077 0.523632 0.456271
0.027857 0.523413 0.523413
0.027639 0.523195 0.589957
0.027423 0.522978 0.655978
0.027208 0.522763 0.721534
0.026995 0.522550 0.786673
0.026783 0.522338 0.851432
0.026572 0.522127 0.915845
0.026362 0.521917 0.979938
0.026211 0.521766 1.000000
0.026211 0.521766 1.000000
0.027316 0.589633 0.027316
0.027065 0.589383 0.103840
0.026826 0.589144 0.176846
0.026593 0.588911 0.247900
0.026365 0.588682 0.317602
0.026140 0.588457 0.386273
0.025918 0.588235 0.454111
0.025698 0.588015 0.521253
0.025480 0.587797 0.587797
0.025264 0.587581 0.653818
0.025049 0.587366 0.719375
0.024836 0.587153 0.784513
0.024623 0.586941 0.849273
0.024412 0.586730 0.913686
0.024202 0.586520 0.977779
0.024052 0.586369 1.000000
0.024052 0.586369 1.000000
0.025174 0.653728 0.025174
0.024923 0.653478 0.101697
0.024684 0.653238 0.174703
0.024451 0.653006 0.245758
0.024223 0.652777 0.315460
0.023998 0.652552 0.384130
0.023775 0.652330 0.451969
0.023555 0.652110 0.519111
0.023337 0.651892 0.585655
0.023121 0.651676 0.651676
0.022906 0.651461 0.717232
0.022693 0.651248 0.782371
0.022481 0.651036 0.847131
0.022270 0.650824 0.911543
0.022060 0.650615 0.975636
0.021909 0.650464 1.000000
0.021909 0.650464 1.000000
0.023046 0.717372 0.023046
0.022796 0.717121 0.099570
0.022556 0.716882 0.172576
0.022324 0.716649 0.243630
0.022095 0.716421 0.313332
0.021870 0.716196 0.382003
0.021648 0.715974 0.449841
0.021428 0.715754 0.516983
0.021210 0.715536 0.583527
0.020994 0.715320 0.649548
0.020779 0.715105 0.715105
0.020566 0.714891 0.780244
0.020353 0.714679 0.845003
0.020142 0.714468 0.909416
0.019932 0.714258 0.973509
0.019782 0.714108 1.000000
0.019782 0.714108 1.000000
0.020932 0.780610 0.020932
0.020682 0.780360 0.097456
0.020442 0.780120 0.170462
0.020210 0.779888 0.241516
0.019981 0.779659 0.311219
0.019756 0.779434 0.379889
0.019534 0.779212 0.447727
0.019314 0.778992 0.514869
0.019096 0.778774 0.581413
0.018880 0.778558 0.647435
0.018665 0.778343 0.712991
0.018452 0.778130 0.778130
0.018240 0.777917 0.842889
0.018029 0.777706 0.907302
0.017819 0.777497 0.971395
0.017668 0.777346 1.000000
0.017668 0.777346 1.000000
0.018831 0.843480 0.018831
0.018580 0.843230 0.095355
0.018341 0.842991 0.168361
0.018108 0.842758 0.239415
0.017880 0.842529 0.309117
0.017655 0.842304 0.377788
0.017433 0.842082 0.445626
0.017213 0.841862 0.512768
0.016995 0.841644 0.579312
0.016778 0.841428 0.645333
0.016564 0.841213 0.710889
0.016350 0.841000 0.776028
0.016138 0.840788 0.840788
0.015927 0.840577 0.905200
0.015717 0.840367 0.969293
0.015566 0.840216 1.000000
0.015566 0.840216 1.000000
0.016741 0.906014 0.016741
0.016490 0.905763 0.093264
0.016251 0.905524 0.166270
0.016018 0.905291 0.237324
0.015790 0.905063 0.307027
0.015565 0.904838 0.375697
0.015342 0.904616 0.443535
0.015122 0.904396 0.510677
0.014904 0.904178 0.577222
0.014688 0.903961 0.643243
0.014473 0.903747 0.708799
0.014260 0.903533 0.773938
0.014048 0.903321 0.838697
0.013837 0.903110 0.903110
0.013627 0.902900 0.967203
0.013476 0.902749 1.000000
0.013476 0.902749 1.000000
0.014661 0.968237 0.014661
0.014410 0.967986 0.091184
0.014171 0.967747 0.164190
0.013938 0.967514 0.235245
0.013710 0.967286 0.304947
0.013485 0.967061 0.373617
0.013262 0.966839 0.441456
0.013042 0.966619 0.508598
0.012824 0.966401 0.575142
0.012608 0.966184 0.641163
0.012393 0.965970 0.706719
0.012180 0.965756 0.771858
0.011968 0.965544 0.836617
0.011757 0.965333 0.901030
0.011547 0.965123 0.965123
0.011396 0.964973 1.000000
0.011396 0.964973 1.000000
0.013168 1.000000 0.013168
0.012918 1.000000 0.089692
0.012679 1.000000 0.162698
0.012446 1.000000 0.233752
0.012217 1.000000 0.303455
0.011992 1.000000 0.372125
0.011770 1.000000 0.439963
0.011550 1.000000 0.507105
0.011332 1.000000 0.573650
0.011116 1.000000 0.639671
0.010901 1.000000 0.705227
0.010688 1.000000 0.770366
0.010476 1.000000 0.835125
0.010265 1.000000 0.899538
0.010055 1.000000 0.963631
0.009904 1.000000 1.000000
0.009904 1.000000 1.000000
0.013168 1.000000 0.013168
0.012918 1.000000 0.089692
0.012679 1.000000 0.162698
0.012446 1.000000 0.233752
0.012217 1.000000 0.303455
0.011992 1.000000 0.372125
0.011770 1.000000 0.439963
0.011550 1.000000 0.507105
0.011332 1.000000 0.573650
0.011116 1.000000 0.639671
0.010901 1.000000 0.705227
0.010688 1.000000 0.770366
0.010476 1.000000 0.835125
0.010265 1.000000 0.899538
0.010055 1.000000 0.963631
0.009904 1.000000 1.000000
0.009904 1.000000 1.000000
0.121541 0.044767 0.044767
0.121290 0.044516 0.121290
0.121051 0.044277 0.194296
0.120818 0.044044 0.265350
0.120590 0.043816 0.335053
0.120365 0.043591 0.403723
0.120143 0.043368 0.471561
0.119923 0.043148 0.538703
0.119705 0.042930 0.605248
0.119488 0.042714 0.671269
0.119274 0.042499 0.736825
0.119060 0.042286 0.801964
0.118848 0.042074 0.866723
0.118637 0.041863 0.931136
0.118427 0.041653 0.995229
0.118277 0.041502 1.000000
0.118277 0.041502 1.000000
0.119058 0.119058 0.042283
0.118807 0.118807 0.118807
0.118568 0.118568 0.191813
0.118335 0.118335 0.262867
0.118107 0.118107 0.332569
0.117882 0.117882 0.401240
0.117659 0.117659 0.469078
0.117439 0.117439 0.536220
0.117221 0.117221 0.602764
0.117005 0.117005 0.668785
0.116790 0.116790 0.734342
0.116577 0.116577 0.799480
0.116365 0.116365 0.864240
0.116154 0.116154 0.928653
0.115944 0.115944 0.992746
0.115793 0.115793 1.000000
0.115793 0.115793 1.000000
0.116688 0.189934 0.039914
0.116438 0.189683 0.116438
0.116199 0.189444 0.189444
0.115966 0.189211 0.260498
0.115737 0.188983 0.330200
0.115512 0.188758 0.398871
0.115290 0.188535 0.466709
0.115070 0.188315 0.533851
0.114852 0.188097 0.600395
0.114636 0.187881 0.666416
0.114421 0.187666 0.731973
0.114208 0.187453 0.797111
0.113996 0.187241 0.861871
0.113785 0.187030 0.926284
0.113575 0.186820 0.990377
0.113424 0.186669 1.000000
0.113424 0.186669 1.000000
0.114383 0.258915 0.037608
0.114132 0.258664 0.114132
0.113893 0.258425 0.187138
0.113660 0.258192 0.258192
0.113432 0.257964 0.327894
0.113207 0.257739 0.396565
0.112984 0.257517 0.464403
0.112764 0.257297 0.531545
0.112546 0.257079 0.598089
0.112330 0.256862 0.664110
0.112115 0.256648 0.729667
0.111902 0.256434 0.794805
0.111690 0.256222 0.859565
0.111479 0.256011 0.923978
0.111269 0.255801 0.988071
0.111118 0.255650 1.000000
0.111118 0.255650 1.000000
0.112121 0.326583 0.035346
0.111870 0.326333 0.111870
0.111631 0.326094 0.184876
0.111398 0.325861 0.255930
0.111170 0.325632 0.325632
0.110945 0.325407 0.394303
0.110722 0.325185 0.462141
0.110502 0.324965 0.529283
0.110284 0.324747 0.595827
0.110068 0.324531 0.661848
0.109853 0.324316 0.727405
0.109640 0.324103 0.792544
0.109428 0.323891 0.857303
0.109217 0.323680 0.921716
0.109007 0.323470 0.985809
0.108856 0.323319 1.000000
0.108856 0.323319 1.000000
0.109892 0.393250 0.033118
0.109641 0.393000 0.109641
0.109402 0.392761 0.182647
0.109170 0.392528 0.253702
0.108941 0.392299 0.323404
0.108716 0.392074 0.392074
0.108494 0.391852 0.459913
0.108274 0.391632 0.527055
0.108056 0.391414 0.593599
0.107840 0.391198 0.659620
0.107625 0.390983 0.725176
0.107412 0.390770 0.790315
0.107199 0.390558 0.855075
0.106988 0.390347 0.919487
0.106778 0.390137 0.983580
0.106628 0.389986 1.000000
0.106628 0.389986 1.000000
0.107691 0.459109 0.030916
0.107440 0.458859 0.107440
0.107201 0.458620 0.180446
0.106968 0.458387 0.251500
0.106740 0.458158 0.321202
0.106515 0.457933 0.389873
0.106292 0.457711 0.457711
0.106073 0.457491 0.524853
0.105855 0.457273 0.591397
0.105638 0.457057 0.657418
0.105423 0.456842 0.722975
0.105210 0.456629 0.788114
0.104998 0.456417 0.852873
0.104787 0.456206 0.917286
0.104577 0.455996 0.981379
0.104426 0.455845 1.000000
0.104426 0.455845 1.000000
0.105512 0.524292 0.028737
0.105261 0.524042 0.105261
0.105022 0.523803 0.178267
0.104789 0.523570 0.249321
0.104561 0.523342 0.319024
0.104336 0.523117 0.387694
0.104114 0.522894 0.455532
0.103894 0.522674 0.522674
0.103676 0.522456 0.589219
0.103459 0.522240 0.655240
0.103245 0.522025 0.720796
0.103031 0.521812 0.785935
0.102819 0.521600 0.850694
0.102608 0.521389 0.915107
0.102398 0.521179 0.979200
0.102247 0.521028 1.000000
0.102247 0.521028 1.000000
0.103352 0.588895 0.026578
0.103102 0.588645 0.103102
0.102862 0.588405 0.176108
0.102630 0.588173 0.247162
0.102401 0.587944 0.316864
0.102176 0.587719 0.385535
0.101954 0.587497 0.453373
0.101734 0.587277 0.520515
0.101516 0.587059 0.587059
0.101300 0.586843 0.653080
0.101085 0.586628 0.718637
0.100872 0.586415 0.783775
0.100660 0.586202 0.848535
0.100449 0.585991 0.912947
0.100239 0.585781 0.977041
0.100088 0.585631 1.000000
0.100088 0.585631 1.000000
0.101210 0.652990 0.024435
0.100959 0.652739 0.100959
0.100720 0.652500 0.173965
0.100487 0.652267 0.245019
0.100259 0.652039 0.314722
0.100034 0.651814 0.383392
0.099812 0.651592 0.451230
0.099592 0.651372 0.518372
0.099374 0.651154 0.584917
0.099157 0.650938 0.650938
0.098943 0.650723 0.716494
0.098729 0.650509 0.781633
0.098517 0.650297 0.846392
0.098306 0.650086 0.910805
0.098096 0.649876 0.974898
0.097945 0.649726 1.000000
0.097945 0.649726 1.000000
0.099082 0.716634 0.022308
0.098832 0.716383 0.098832
0.098593 0.716144 0.171838
0.098360 0.715911 0.242892
0.098131 0.715683 0.312594
0.097906 0.715458 0.381265
0.097684 0.715236 0.449103
0.097464 0.715016 0.516245
0.097246 0.714798 0.582789
0.097030 0.714581 0.648810
0.096815 0.714367 0.714367
0.096602 0.714153 0.779505
0.096390 0.713941 0.844265
0.096179 0.713730 0.908678
0.095969 0.713520 0.972771
0.095818 0.713369 1.000000
0.095818 0.713369 1.000000
0.096969 0.779872 0.020194
0.096718 0.779621 0.096718
0.096479 0.779382 0.169724
0.096246 0.779149 0.240778
0.096018 0.778921 0.310480
0.095793 0.778696 0.379151
0.095570 0.778474 0.446989
0.095350 0.778254 0.514131
0.095132 0.778036 0.580675
0.094916 0.777820 0.646696
0.094701 0.777605 0.712253
0.094488 0.777391 0.777391
0.094276 0.777179 0.842151
0.094065 0.776968 0.906564
0.093855 0.776758 0.970657
0.093704 0.776608 1.000000
0.093704 0.776608 1.000000
0.094867 0.842742 0.018093
0.094616 0.842492 0.094616
0.094377 0.842252 0.167622
0.094144 0.842020 0.238677
0.093916 0.841791 0.308379
0.093691 0.841566 0.377049
0.093469 0.841344 0.444888
0.093249 0.841124 0.512030
0.093031 0.840906 0.578574
0.092815 0.840690 0.644595
0.092600 0.840475 0.710151
0.092386 0.840262 0.775290
0.092174 0.840049 0.840049
0.091963 0.839838 0.904462
0.091753 0.839628 0.968555
0.091603 0.839478 1.000000
0.091603 0.839478 1.000000
0.092777 0.905276 0.016002
0.092526 0.905025 0.092526
0.092287 0.904786 0.165532
0.092054 0.904553 0.236586
0.091826 0.904325 0.306288
0.091601 0.904100 0.374959
0.091379 0.903877 0.442797
0.091159 0.903657 0.509939
0.090941 0.903439 0.576483
0.090724 0.903223 0.642505
0.090510 0.903008 0.708061
0.090296 0.902795 0.773200
0.090084 0.902583 0.837959
0.089873 0.902372 0.902372
0.089663 0.902162 0.966465
0.089512 0.902011 1.000000
0.089512 0.902011 1.000000
0.090697 0.967499 0.013922
0.090446 0.967248 0.090446
0.090207 0.967009 0.163452
0.089974 0.966776 0.234506
0.089746 0.966548 0.304209
0.089521 0.966323 0.372879
0.089299 0.966101 0.440717
0.089079 0.965881 0.507859
0.088861 0.965663 0.574404
0.088644 0.965446 0.640425
0.088430 0.965232 0.705981
0.088216 0.965018 0.771120
0.088004 0.964806 0.835879
0.087793 0.964595 0.900292
0.087583 0.964385 0.964385
0.087432 0.964234 1.000000
0.087432 0.964234 1.000000
0.089205 1.000000 0.012430
0.088954 1.000000 0.088954
0.088715 1.000000 0.161960
0.088482 1.000000 0.233014
0.088254 1.000000 0.302716
0.088029 1.000000 0.371387
0.087806 1.000000 0.439225
0.087586 1.000000 0.506367
0.087368 1.000000 0.572911
0.087152 1.000000 0.638932
0.086937 1.000000 0.704489
0.086724 1.000000 0.769628
0.086512 1.000000 0.834387
0.086301 1.000000 0.898800
0.086091 1.000000 0.962893
0.085940 1.000000 1.000000
0.085940 1.000000 1.000000
0.089205 1.000000 0.012430
0.088954 1.000000 0.088954
0.088715 1.000000 0.161960
0.088482 1.000000 0.233014
0.088254 1.000000 0.302716
0.088029 1.000000 0.371387
0.087806 1.000000 0.439225
0.087586 1.000000 0.506367
0.087368 1.000000 0.572911
0.087152 1.000000 0.638932
0.086937 1.000000 0.704489
0.086724 1.000000 0.769628
0.086512 1.000000 0.834387
0.086301 1.000000 0.898800
0.086091 1.000000 0.962893
0.085940 1.000000 1.000000
0.085940 1.000000 1.000000
0.194082 0.044062 0.044062
0.193831 0.043812 0.120586
0.193592 0.043572 0.193592
0.193359 0.043340 0.264646
0.193131 0.043111 0.334348
0.192906 0.042886 0.403019
0.192684 0.042664 0.470857
0.192464 0.042444 0.537999
0.192246 0.042226 0.604543
0.192029 0.042010 0.670564
0.191815 0.041795 0.736121
0.191601 0.041582 0.801260
0.191389 0.041369 0.866019
0.191178 0.041158 0.930432
0.190968 0.040949 0.994525
0.190817 0.040798 1.000000
0.190817 0.040798 1.000000
0.191599 0.118353 0.041579
0.191348 0.118103 0.118103
0.191109 0.117863 0.191109
0.190876 0.117631 0.262163
0.190648 0.117402 0.331865
0.190423 0.117177 0.400536
0.190200 0.116955 0.468374
0.189980 0.116735 0.535516
0.189762 0.116517 0.602060
0.189546 0.116301 0.668081
0.189331 0.116086 0.733638
0.189118 0.115873 0.798776
0.188906 0.115661 0.863536
0.188695 0.115450 0.927948
0.188485 0.115240 0.992042
0.188334 0.115089 1.000000
0.188334 0.115089 1.000000
0.189229 0.189229 0.039210
0.188979 0.188979 0.115733
0.188739 0.188739 0.188739
0.188507 0.188507 0.259794
0.188278 0.188278 0.329496
0.188053 0.188053 0.398166
0.187831 0.187831 0.466005
0.187611 0.187611 0.533147
0.187393 0.187393 0.599691
0.187177 0.187177 0.665712
0.186962 0.186962 0.731268
0.186749 0.186749 0.796407
0.186537 0.186537 0.861167
0.186326 0.186326 0.925579
0.186116 0.186116 0.989672
0.185965 0.185965 1.000000
0.185965 0.185965 1.000000
0.186924 0.258211 0.036904
0.186673 0.257960 0.113428
0.186434 0.257721 0.186434
0.186201 0.257488 0.257488
0.185973 0.257260 0.327190
0.185748 0.257035 0.395861
0.185525 0.256812 0.463699
0.185305 0.256592 0.530841
0.185087 0.256374 0.597385
0.184871 0.256158 0.663406
0.184656 0.255943 0.728963
0.184443 0.255730 0.794101
0.184231 0.255518 0.858861
0.184020 0.255307 0.923273
0.183810 0.255097 0.987367
0.183659 0.254946 1.000000
0.183659 0.254946 1.000000
0.184662 0.325879 0.034642
0.184411 0.325628 0.111166
0.184172 0.325389 0.184172
0.183939 0.325156 0.255226
0.183711 0.324928 0.324928
0.183486 0.324703 0.393599
0.183263 0.324481 0.461437
0.183043 0.324261 0.528579
0.182825 0.324043 0.595123
0.182609 0.323827 0.661144
0.182394 0.323612 0.726701
0.182181 0.323399 0.791839
0.181969 0.323186 0.856599
0.181758 0.322975 0.921012
0.181548 0.322765 0.985105
0.181397 0.322615 1.000000
0.181397 0.322615 1.000000
0.182433 0.392546 0.032413
0.182182 0.392295 0.108937
0.181943 0.392056 0.181943
0.181710 0.391824 0.252997
0.181482 0.391595 0.322700
0.181257 0.391370 0.391370
0.181035 0.391148 0.459208
0.180815 0.390928 0.526350
0.180597 0.390710 0.592895
0.180381 0.390494 0.658916
0.180166 0.390279 0.724472
0.179952 0.390066 0.789611
0.179740 0.389853 0.854370
0.179529 0.389642 0.918783
0.179319 0.389432 0.982876
0.179169 0.389282 1.000000
0.179169 0.389282 1.000000
0.180232 0.458405 0.030212
0.179981 0.458154 0.106736
0.179742 0.457915 0.179742
0.179509 0.457683 0.250796
0.179281 0.457454 0.320498
0.179056 0.457229 0.389169
0.178833 0.457007 0.457007
0.178613 0.456787 0.524149
0.178395 0.456569 0.590693
0.178179 0.456353 0.656714
0.177964 0.456138 0.722271
0.177751 0.455925 0.787409
0.177539 0.455712 0.852169
0.177328 0.455501 0.916582
0.177118 0.455291 0.980675
0.176967 0.455141 1.000000
0.176967 0.455141 1.000000
0.178053 0.523588 0.028033
0.177802 0.523338 0.104557
0.177563 0.523098 0.177563
0.177330 0.522866 0.248617
0.177102 0.522637 0.318319
0.176877 0.522412 0.386990
0.176655 0.522190 0.454828
0.176435 0.521970 0.521970
0.176217 0.521752 0.588514
0.176000 0.521536 0.654535
0.175786 0.521321 0.720092
0.175572 0.521108 0.785230
0.175360 0.520895 0.849990
0.175149 0.520684 0.914403
0.174939 0.520474 0.978496
0.174788 0.520324 1.000000
0.174788 0.520324 1.000000
0.175893 0.588191 0.025874
0.175643 0.587940 0.102397
0.175403 0.587701 0.175403
0.175171 0.587468 0.246458
0.174942 0.587240 0.316160
0.174717 0.587015 0.384830
0.174495 0.586793 0.452669
0.174275 0.586573 0.519811
0.174057 0.586355 0.586355
0.173841 0.586139 0.652376
0.173626 0.585924 0.717932
0.173413 0.585710 0.783071
0.173201 0.585498 0.847831
0.172990 0.585287 0.912243
0.172780 0.585077 0.976336
0.172629 0.584927 1.000000
0.172629 0.584927 1.000000
0.173751 0.652286 0.023731
0.173500 0.652035 0.100255
0.173261 0.651796 0.173261
0.173028 0.651563 0.244315
0.172800 0.651335 0.314017
0.172575 0.651110 0.382688
0.172353 0.650888 0.450526
0.172133 0.650668 0.517668
0.171915 0.650450 0.584212
0.171698 0.650233 0.650233
0.171484 0.650019 0.715790
0.171270 0.649805 0.780928
0.171058 0.649593 0.845688
0.170847 0.649382 0.910101
0.170637 0.649172 0.974194
0.170486 0.649021 1.000000
0.170486 0.649021 1.000000
0.171623 0.715930 0.021604
0.171373 0.715679 0.098127
0.171134 0.715440 0.171134
0.170901 0.715207 0.242188
0.170672 0.714979 0.311890
0.170447 0.714754 0.380560
0.170225 0.714531 0.448399
0.170005 0.714311 0.515541
0.169787 0.714093 0.582085
0.169571 0.713877 0.648106
0.169356 0.713662 0.713662
0.169143 0.713449 0.778801
0.168931 0.713237 0.843561
0.168720 0.713026 0.907973
0.168510 0.712816 0.972066
0.168359 0.712665 1.000000
0.168359 0.712665 1.000000
0.169510 0.779168 0.019490
0.169259 0.778917 0.096014
0.169020 0.778678 0.169020
0.168787 0.778445 0.240074
0.168559 0.778217 0.309776
0.168334 0.777992 0.378447
0.168111 0.777770 0.446285
0.167891 0.777550 0.513427
0.167673 0.777332 0.579971
0.167457 0.777115 0.645992
0.167242 0.776901 0.711548
0.167029 0.776687 0.776687
0.166817 0.776475 0.841447
0.166606 0.776264 0.905859
0.166396 0.776054 0.969953
0.166245 0.775903 1.000000
0.166245 0.775903 1.000000
0.167408 0.842038 0.017388
0.167157 0.841787 0.093912
0.166918 0.841548 0.166918
0.166685 0.841315 0.237972
0.166457 0.841087 0.307675
0.166232 0.840862 0.376345
0.166010 0.840640 0.444183
0.165790 0.840420 0.511325
0.165572 0.840202 0.577869
0.165356 0.839986 0.643891
0.165141 0.839771 0.709447
0.164927 0.839557 0.774586
0.164715 0.839345 0.839345
0.164504 0.839134 0.903758
0.164294 0.838924 0.967851
0.164144 0.838774 1.000000
0.164144 0.838774 1.000000
0.165318 0.904571 0.015298
0.165067 0.904321 0.091822
0.164828 0.904082 0.164828
0.164595 0.903849 0.235882
0.164367 0.903620 0.305584
0.164142 0.903395 0.374255
0.163919 0.903173 0.442093
0.163700 0.902953 0.509235
0.163482 0.902735 0.575779
0.163265 0.902519 0.641800
0.163050 0.902304 0.707357
0.162837 0.902091 0.772495
0.162625 0.901879 0.837255
0.162414 0.901668 0.901668
0.162204 0.901458 0.965761
0.162053 0.901307 1.000000
0.162053 0.901307 1.000000
0.163238 0.966794 0.013218
0.162987 0.966544 0.089742
0.162748 0.966305 0.162748
0.162515 0.966072 0.233802
0.162287 0.965843 0.303504
0.162062 0.965619 0.372175
0.161840 0.965396 0.440013
0.161620 0.965176 0.507155
0.161402 0.964958 0.573699
0.161185 0.964742 0.639720
0.160971 0.964527 0.705277
0.160757 0.964314 0.770415
0.160545 0.964102 0.835175
0.160334 0.963891 0.899588
0.160124 0.963681 0.963681
0.159973 0.963530 1.000000
0.159973 0.963530 1.000000
0.161746 1.000000 0.011726
0.161495 1.000000 0.088250
0.161256 1.000000 0.161256
0.161023 1.000000 0.232310
0.160795 1.000000 0.302012
0.160570 1.000000 0.370683
0.160347 1.000000 0.438521
0.160127 1.000000 0.505663
0.159909 1.000000 0.572207
0.159693 1.000000 0.638228
0.159478 1.000000 0.703785
0.159265 1.000000 0.768923
0.159053 1.000000 0.833683
0.158842 1.000000 0.898096
0.158632 1.000000 0.962189
0.158481 1.000000 1.000000
0.158481 1.000000 1.000000
0.161746 1.000000 0.011726
0.161495 1.000000 0.088250
0.161256 1.000000 0.161256
0.161023 1.000000 0.232310
0.160795 1.000000 0.302012
0.160570 1.000000 0.370683
0.160347 1.000000 0.438521
0.160127 1.000000 0.505663
0.159909 1.000000 0.572207
0.159693 1.000000 0.638228
0.159478 1.000000 0.703785
0.159265 1.000000 0.768923
0.159053 1.000000 0.833683
0.158842 1.000000 0.898096
0.158632 1.000000 0.962189
0.158481 1.000000 1.000000
0.158481 1.000000 1.000000
0.264683 0.043377 0.043377
0.264433 0.043126 0.119901
0.264194 0.042887 0.192907
0.263961 0.042654 0.263961
0.263732 0.042426 0.333663
0.263507 0.042201 0.402334
0.263285 0.041979 0.470172
0.263065 0.041759 0.537314
0.262847 0.041541 0.603858
0.262631 0.041324 0.669879
0.262416 0.041110 0.735435
0.262203 0.040896 0.800574
0.261991 0.040684 0.865334
0.261780 0.040473 0.929746
0.261570 0.040263 0.993839
0.261419 0.040112 1.000000
0.261419 0.040112 1.000000
0.262200 0.117668 0.040893
