skills/editops-orchestrator/assets/grade/luts/clean_bright_v03.cube
TITLE "clean_bright_v03"
LUT_3D_SIZE 9
DOMAIN_MIN 0.0 0.0 0.0
DOMAIN_MAX 1.0 1.0 1.0
0.014194 0.014194 0.014194
0.014144 0.014144 0.146100
0.014096 0.014096 0.274326
0.014048 0.014048 0.400954
0.014000 0.014000 0.526537
0.013953 0.013953 0.651340
0.013906 0.013906 0.775523
0.013859 0.013859 0.899190
0.013819 0.013819 1.000000
0.013700 0.145656 0.013700
0.013650 0.145606 0.145606
0.013602 0.145558 0.273831
0.013554 0.145510 0.400460
0.013506 0.145462 0.526042
0.013459 0.145415 0.650846
0.013412 0.145368 0.775028
0.013365 0.145321 0.898696
0.013325 0.145281 1.000000
0.013220 0.273450 0.013220
0.013170 0.273400 0.145126
0.013121 0.273351 0.273351
0.013073 0.273303 0.399980
0.013026 0.273256 0.525562
0.012979 0.273209 0.650365
0.012932 0.273162 0.774548
0.012885 0.273115 0.898215
0.012845 0.273075 1.000000
0.012745 0.399652 0.012745
0.012695 0.399602 0.144651
0.012647 0.399553 0.272877
0.012599 0.399505 0.399505
0.012551 0.399458 0.525088
0.012504 0.399411 0.649891
0.012457 0.399364 0.774074
0.012411 0.399317 0.897741
0.012371 0.399277 1.000000
0.012275 0.524811 0.012275
0.012225 0.524761 0.144181
0.012176 0.524713 0.272406
0.012129 0.524665 0.399035
0.012081 0.524617 0.524617
0.012034 0.524570 0.649421
0.011987 0.524523 0.773603
0.011940 0.524476 0.897271
0.011900 0.524437 1.000000
0.011807 0.649194 0.011807
0.011757 0.649144 0.143714
0.011709 0.649096 0.271939
0.011661 0.649048 0.398567
0.011614 0.649000 0.524150
0.011566 0.648953 0.648953
0.011519 0.648906 0.773136
0.011473 0.648859 0.896803
0.011433 0.648820 1.000000
0.011342 0.772959 0.011342
0.011292 0.772909 0.143248
0.011244 0.772860 0.271474
0.011196 0.772812 0.398102
0.011148 0.772765 0.523685
0.011101 0.772718 0.648488
0.011054 0.772671 0.772671
0.011007 0.772624 0.896338
0.010968 0.772584 1.000000
0.010879 0.896209 0.010879
0.010829 0.896159 0.142785
0.010780 0.896111 0.271010
0.010733 0.896063 0.397639
0.010685 0.896016 0.523221
0.010638 0.895968 0.648025
0.010591 0.895921 0.772207
0.010544 0.895875 0.895875
0.010504 0.895835 1.000000
0.010483 1.000000 0.010483
0.010433 1.000000 0.142389
0.010385 1.000000 0.270615
0.010337 1.000000 0.397243
0.010289 1.000000 0.522826
0.010242 1.000000 0.647629
0.010195 1.000000 0.771812
0.010149 1.000000 0.895479
0.010109 1.000000 1.000000
0.146003 0.014047 0.014047
0.145953 0.013997 0.145953
0.145905 0.013949 0.274179
0.145857 0.013901 0.400807
0.145809 0.013853 0.526390
0.145762 0.013806 0.651193
0.145715 0.013759 0.775376
0.145669 0.013712 0.899043
0.145629 0.013673 1.000000
0.145509 0.145509 0.013553
0.145459 0.145459 0.145459
0.145411 0.145411 0.273685
0.145363 0.145363 0.400313
0.145315 0.145315 0.525896
0.145268 0.145268 0.650699
0.145221 0.145221 0.774882
0.145174 0.145174 0.898549
0.145135 0.145135 1.000000
0.145029 0.273303 0.013073
0.144979 0.273253 0.144979
0.144930 0.273204 0.273204
0.144883 0.273156 0.399833
0.144835 0.273109 0.525415
0.144788 0.273062 0.650219
0.144741 0.273015 0.774401
0.144694 0.272968 0.898069
0.144654 0.272928 1.000000
0.144554 0.399505 0.012598
0.144505 0.399455 0.144505
0.144456 0.399406 0.272730
0.144408 0.399358 0.399358
0.144361 0.399311 0.524941
0.144314 0.399264 0.649744
0.144267 0.399217 0.773927
0.144220 0.399170 0.897594
0.144180 0.399130 1.000000
0.144084 0.524664 0.012128
0.144034 0.524614 0.144034
0.143986 0.524566 0.272260
0.143938 0.524518 0.398888
0.143890 0.524470 0.524470
0.143843 0.524423 0.649274
0.143796 0.524376 0.773457
0.143749 0.524330 0.897124
0.143709 0.524290 1.000000
0.143617 0.649047 0.011660
0.143567 0.648997 0.143567
0.143518 0.648949 0.271792
0.143470 0.648901 0.398421
0.143423 0.648854 0.524003
0.143376 0.648806 0.648806
0.143329 0.648759 0.772989
0.143282 0.648713 0.896656
0.143242 0.648673 1.000000
0.143151 0.772812 0.011195
0.143101 0.772762 0.143101
0.143053 0.772713 0.271327
0.143005 0.772665 0.397955
0.142958 0.772618 0.523538
0.142910 0.772571 0.648341
0.142863 0.772524 0.772524
0.142817 0.772477 0.896191
0.142777 0.772437 1.000000
0.142688 0.896062 0.010732
0.142638 0.896013 0.142638
0.142590 0.895964 0.270864
0.142542 0.895916 0.397492
0.142494 0.895869 0.523075
0.142447 0.895822 0.647878
0.142400 0.895775 0.772061
0.142353 0.895728 0.895728
0.142314 0.895688 1.000000
0.142292 1.000000 0.010336
0.142243 1.000000 0.142243
0.142194 1.000000 0.270468
0.142146 1.000000 0.397096
0.142099 1.000000 0.522679
0.142052 1.000000 0.647482
0.142005 1.000000 0.771665
0.141958 1.000000 0.895332
0.141918 1.000000 1.000000
0.274134 0.013904 0.013904
0.274084 0.013854 0.145811
0.274036 0.013806 0.274036
0.273988 0.013758 0.400664
0.273941 0.013711 0.526247
0.273893 0.013663 0.651050
0.273846 0.013616 0.775233
0.273800 0.013570 0.898900
0.273760 0.013530 1.000000
0.273640 0.145366 0.013410
0.273590 0.145316 0.145316
0.273542 0.145268 0.273542
0.273494 0.145220 0.400170
0.273446 0.145173 0.525753
0.273399 0.145125 0.650556
0.273352 0.145078 0.774739
0.273306 0.145032 0.898406
0.273266 0.144992 1.000000
0.273160 0.273160 0.012930
0.273110 0.273110 0.144836
0.273061 0.273061 0.273061
0.273014 0.273014 0.399690
0.272966 0.272966 0.525272
0.272919 0.272919 0.650076
0.272872 0.272872 0.774259
0.272825 0.272825 0.897926
0.272785 0.272785 1.000000
0.272686 0.399362 0.012456
0.272636 0.399312 0.144362
0.272587 0.399264 0.272587
0.272539 0.399216 0.399216
0.272492 0.399168 0.524798
0.272445 0.399121 0.649601
0.272398 0.399074 0.773784
0.272351 0.399027 0.897451
0.272311 0.398987 1.000000
0.272215 0.524521 0.011985
0.272165 0.524472 0.143891
0.272117 0.524423 0.272117
0.272069 0.524375 0.398745
0.272021 0.524328 0.524328
0.271974 0.524281 0.649131
0.271927 0.524234 0.773314
0.271880 0.524187 0.896981
0.271840 0.524147 1.000000
0.271748 0.648904 0.011518
0.271698 0.648855 0.143424
0.271649 0.648806 0.271649
0.271601 0.648758 0.398278
0.271554 0.648711 0.523860
0.271507 0.648664 0.648664
0.271460 0.648617 0.772846
0.271413 0.648570 0.896513
0.271373 0.648530 1.000000
0.271282 0.772669 0.011052
0.271233 0.772619 0.142959
0.271184 0.772571 0.271184
0.271136 0.772523 0.397813
0.271089 0.772475 0.523395
0.271041 0.772428 0.648198
0.270995 0.772381 0.772381
0.270948 0.772334 0.896048
0.270908 0.772294 1.000000
0.270819 0.895920 0.010589
0.270769 0.895870 0.142495
0.270721 0.895821 0.270721
0.270673 0.895773 0.397349
0.270625 0.895726 0.522932
0.270578 0.895679 0.647735
0.270531 0.895632 0.771918
0.270485 0.895585 0.895585
0.270445 0.895545 1.000000
0.270424 1.000000 0.010194
0.270374 1.000000 0.142100
0.270325 1.000000 0.270325
0.270277 1.000000 0.396954
0.270230 1.000000 0.522536
0.270183 1.000000 0.647339
0.270136 1.000000 0.771522
0.270089 1.000000 0.895189
0.270049 1.000000 1.000000
0.400670 0.013763 0.013763
0.400620 0.013713 0.145670
0.400571 0.013665 0.273895
0.400523 0.013617 0.400523
0.400476 0.013570 0.526106
0.400429 0.013522 0.650909
0.400382 0.013475 0.775092
0.400335 0.013429 0.898759
0.400295 0.013389 1.000000
0.400176 0.145225 0.013269
0.400126 0.145175 0.145175
0.400077 0.145127 0.273401
0.400029 0.145079 0.400029
0.399982 0.145032 0.525612
0.399935 0.144984 0.650415
0.399888 0.144937 0.774598
0.399841 0.144891 0.898265
0.399801 0.144851 1.000000
0.399695 0.273019 0.012789
0.399645 0.272969 0.144695
0.399597 0.272920 0.272920
0.399549 0.272873 0.399549
0.399502 0.272825 0.525131
0.399454 0.272778 0.649935
0.399407 0.272731 0.774118
0.399361 0.272684 0.897785
0.399321 0.272644 1.000000
0.399221 0.399221 0.012315
0.399171 0.399171 0.144221
0.399123 0.399123 0.272446
0.399075 0.399075 0.399075
0.399027 0.399027 0.524657
0.398980 0.398980 0.649460
0.398933 0.398933 0.773643
0.398886 0.398886 0.897310
0.398846 0.398846 1.000000
0.398751 0.524380 0.011844
0.398701 0.524331 0.143750
0.398652 0.524282 0.271976
0.398604 0.524234 0.398604
0.398557 0.524187 0.524187
0.398510 0.524140 0.648990
0.398463 0.524093 0.773173
0.398416 0.524046 0.896840
0.398376 0.524006 1.000000
0.398283 0.648763 0.011377
0.398233 0.648714 0.143283
0.398185 0.648665 0.271508
0.398137 0.648617 0.398137
0.398089 0.648570 0.523719
0.398042 0.648523 0.648523
0.397995 0.648476 0.772705
0.397948 0.648429 0.896372
0.397908 0.648389 1.000000
0.397818 0.772528 0.010911
0.397768 0.772478 0.142818
0.397719 0.772430 0.271043
0.397672 0.772382 0.397672
0.397624 0.772334 0.523254
0.397577 0.772287 0.648057
0.397530 0.772240 0.772240
0.397483 0.772193 0.895907
0.397443 0.772153 1.000000
0.397355 0.895779 0.010448
0.397305 0.895729 0.142354
0.397256 0.895680 0.270580
0.397208 0.895632 0.397208
0.397161 0.895585 0.522791
0.397114 0.895538 0.647594
0.397067 0.895491 0.771777
0.397020 0.895444 0.895444
0.396980 0.895404 1.000000
0.396959 1.000000 0.010053
0.396909 1.000000 0.141959
0.396861 1.000000 0.270184
0.396813 1.000000 0.396813
0.396765 1.000000 0.522395
0.396718 1.000000 0.647198
0.396671 1.000000 0.771381
0.396624 1.000000 0.895048
0.396584 1.000000 1.000000
0.526160 0.013623 0.013623
0.526110 0.013574 0.145530
0.526061 0.013525 0.273755
0.526014 0.013477 0.400384
0.525966 0.013430 0.525966
0.525919 0.013383 0.650769
0.525872 0.013336 0.774952
0.525825 0.013289 0.898619
0.525785 0.013249 1.000000
0.525666 0.145086 0.013129
0.525616 0.145036 0.145036
0.525567 0.144987 0.273261
0.525519 0.144939 0.399890
0.525472 0.144892 0.525472
0.525425 0.144845 0.650275
0.525378 0.144798 0.774458
0.525331 0.144751 0.898125
0.525291 0.144711 1.000000
0.525185 0.272879 0.012649
0.525136 0.272829 0.144555
0.525087 0.272781 0.272781
0.525039 0.272733 0.399409
0.524992 0.272685 0.524992
0.524944 0.272638 0.649795
0.524897 0.272591 0.773978
0.524851 0.272544 0.897645
0.524811 0.272504 1.000000
0.524711 0.399081 0.012175
0.524661 0.399031 0.144081
0.524613 0.398983 0.272306
0.524565 0.398935 0.398935
0.524517 0.398887 0.524517
0.524470 0.398840 0.649321
0.524423 0.398793 0.773503
0.524376 0.398746 0.897171
0.524336 0.398707 1.000000
0.524241 0.524241 0.011704
0.524191 0.524191 0.143611
0.524142 0.524142 0.271836
0.524094 0.524094 0.398464
0.524047 0.524047 0.524047
0.524000 0.524000 0.648850
0.523953 0.523953 0.773033
0.523906 0.523906 0.896700
0.523866 0.523866 1.000000
0.523773 0.648624 0.011237
0.523723 0.648574 0.143143
0.523675 0.648525 0.271368
0.523627 0.648477 0.397997
0.523579 0.648430 0.523579
0.523532 0.648383 0.648383
0.523485 0.648336 0.772565
0.523438 0.648289 0.896233
0.523399 0.648249 1.000000
0.523308 0.772388 0.010772
0.523258 0.772338 0.142678
0.523210 0.772290 0.270903
0.523162 0.772242 0.397532
0.523114 0.772194 0.523114
0.523067 0.772147 0.647918
0.523020 0.772100 0.772100
0.522973 0.772053 0.895767
0.522933 0.772014 1.000000
0.522845 0.895639 0.010308
0.522795 0.895589 0.142215
0.522746 0.895540 0.270440
0.522698 0.895493 0.397069
0.522651 0.895445 0.522651
0.522604 0.895398 0.647454
0.522557 0.895351 0.771637
0.522510 0.895304 0.895304
0.522470 0.895264 1.000000
0.522449 1.000000 0.009913
0.522399 1.000000 0.141819
0.522351 1.000000 0.270044
0.522303 1.000000 0.396673
0.522255 1.000000 0.522255
0.522208 1.000000 0.647059
0.522161 1.000000 0.771241
0.522114 1.000000 0.894909
0.522074 1.000000 1.000000
0.650871 0.013485 0.013485
0.650821 0.013435 0.145391
0.650773 0.013386 0.273616
0.650725 0.013338 0.400245
0.650678 0.013291 0.525827
0.650630 0.013244 0.650630
0.650583 0.013197 0.774813
0.650537 0.013150 0.898480
0.650497 0.013110 1.000000
0.650377 0.144947 0.012990
0.650327 0.144897 0.144897
0.650279 0.144848 0.273122
0.650231 0.144800 0.399751
0.650184 0.144753 0.525333
0.650136 0.144706 0.650136
0.650089 0.144659 0.774319
0.650043 0.144612 0.897986
0.650003 0.144572 1.000000
0.649897 0.272740 0.012510
0.649847 0.272690 0.144416
0.649799 0.272642 0.272642
0.649751 0.272594 0.399270
0.649703 0.272546 0.524853
0.649656 0.272499 0.649656
0.649609 0.272452 0.773839
0.649562 0.272405 0.897506
0.649522 0.272365 1.000000
0.649423 0.398942 0.012036
0.649373 0.398892 0.143942
0.649324 0.398844 0.272167
0.649276 0.398796 0.398796
0.649229 0.398748 0.524378
0.649182 0.398701 0.649182
0.649135 0.398654 0.773364
0.649088 0.398607 0.897032
0.649048 0.398568 1.000000
0.648952 0.524102 0.011565
0.648902 0.524052 0.143472
0.648854 0.524003 0.271697
0.648806 0.523955 0.398325
0.648758 0.523908 0.523908
0.648711 0.523861 0.648711
0.648664 0.523814 0.772894
0.648618 0.523767 0.896561
0.648578 0.523727 1.000000
0.648485 0.648485 0.011098
0.648435 0.648435 0.143004
0.648386 0.648386 0.271229
0.648338 0.648338 0.397858
0.648291 0.648291 0.523440
0.648244 0.648244 0.648244
0.648197 0.648197 0.772426
0.648150 0.648150 0.896094
0.648110 0.648110 1.000000
0.648019 0.772249 0.010633
0.647970 0.772199 0.142539
0.647921 0.772151 0.270764
0.647873 0.772103 0.397393
0.647826 0.772055 0.522975
0.647779 0.772008 0.647779
0.647732 0.771961 0.771961
0.647685 0.771914 0.895628
0.647645 0.771875 1.000000
0.647556 0.895500 0.010169
0.647506 0.895450 0.142076
0.647458 0.895402 0.270301
0.647410 0.895354 0.396930
0.647362 0.895306 0.522512
0.647315 0.895259 0.647315
0.647268 0.895212 0.771498
0.647222 0.895165 0.895165
0.647182 0.895125 1.000000
0.647161 1.000000 0.009774
0.647111 1.000000 0.141680
0.647062 1.000000 0.269905
0.647014 1.000000 0.396534
0.646967 1.000000 0.522116
0.646920 1.000000 0.646920
0.646873 1.000000 0.771102
0.646826 1.000000 0.894770
0.646786 1.000000 1.000000
0.774963 0.013346 0.013346
0.774913 0.013296 0.145252
0.774864 0.013248 0.273478
0.774816 0.013200 0.400106
0.774769 0.013152 0.525689
0.774722 0.013105 0.650492
0.774675 0.013058 0.774675
0.774628 0.013012 0.898342
0.774588 0.012972 1.000000
0.774469 0.144808 0.012852
0.774419 0.144758 0.144758
0.774370 0.144710 0.272984
0.774322 0.144662 0.399612
0.774275 0.144615 0.525195
0.774228 0.144567 0.649998
0.774181 0.144520 0.774181
0.774134 0.144474 0.897848
0.774094 0.144434 1.000000
0.773988 0.272602 0.012372
0.773938 0.272552 0.144278
0.773890 0.272503 0.272503
0.773842 0.272456 0.399132
0.773795 0.272408 0.524714
0.773747 0.272361 0.649518
0.773700 0.272314 0.773700
0.773654 0.272267 0.897368
0.773614 0.272227 1.000000
0.773514 0.398804 0.011897
0.773464 0.398754 0.143804
0.773416 0.398706 0.272029
0.773368 0.398658 0.398658
0.773320 0.398610 0.524240
0.773273 0.398563 0.649043
0.773226 0.398516 0.773226
0.773179 0.398469 0.896893
0.773139 0.398429 1.000000
0.773044 0.523963 0.011427
0.772994 0.523913 0.143333
0.772945 0.523865 0.271559
0.772897 0.523817 0.398187
0.772850 0.523770 0.523770
0.772803 0.523722 0.648573
0.772756 0.523675 0.772756
0.772709 0.523629 0.896423
0.772669 0.523589 1.000000
0.772576 0.648346 0.010960
0.772526 0.648297 0.142866
0.772478 0.648248 0.271091
0.772430 0.648200 0.397720
0.772382 0.648153 0.523302
0.772335 0.648105 0.648105
0.772288 0.648058 0.772288
0.772241 0.648012 0.895955
0.772201 0.647972 1.000000
0.772111 0.772111 0.010494
0.772061 0.772061 0.142401
0.772013 0.772013 0.270626
0.771965 0.771965 0.397255
0.771917 0.771917 0.522837
0.771870 0.771870 0.647640
0.771823 0.771823 0.771823
0.771776 0.771776 0.895490
0.771736 0.771736 1.000000
0.771648 0.895362 0.010031
0.771598 0.895312 0.141937
0.771549 0.895263 0.270163
0.771501 0.895215 0.396791
0.771454 0.895168 0.522374
0.771407 0.895121 0.647177
0.771360 0.895074 0.771360
0.771313 0.895027 0.895027
0.771273 0.894987 1.000000
0.771252 1.000000 0.009635
0.771202 1.000000 0.141542
0.771154 1.000000 0.269767
0.771106 1.000000 0.396396
0.771058 1.000000 0.521978
0.771011 1.000000 0.646781
0.770964 1.000000 0.770964
0.770917 1.000000 0.894631
0.770877 1.000000 1.000000
0.898539 0.013209 0.013209
0.898489 0.013159 0.145115
0.898441 0.013110 0.273340
0.898393 0.013062 0.399969
0.898345 0.013015 0.525551
0.898298 0.012968 0.650354
0.898251 0.012921 0.774537
0.898204 0.012874 0.898204
0.898164 0.012834 1.000000
0.898045 0.144671 0.012714
0.897995 0.144621 0.144621
0.897947 0.144572 0.272846
0.897899 0.144524 0.399475
0.897851 0.144477 0.525057
0.897804 0.144430 0.649860
0.897757 0.144383 0.774043
0.897710 0.144336 0.897710
0.897670 0.144296 1.000000
0.897565 0.272464 0.012234
0.897515 0.272414 0.144140
0.897466 0.272366 0.272366
0.897418 0.272318 0.398994
0.897371 0.272270 0.524577
0.897324 0.272223 0.649380
0.897277 0.272176 0.773563
0.897230 0.272129 0.897230
0.897190 0.272089 1.000000
0.897090 0.398666 0.011760
0.897040 0.398616 0.143666
0.896992 0.398568 0.271891
0.896944 0.398520 0.398520
0.896897 0.398472 0.524102
0.896849 0.398425 0.648906
0.896802 0.398378 0.773088
0.896756 0.398332 0.896756
0.896716 0.398292 1.000000
0.896620 0.523826 0.011289
0.896570 0.523776 0.143196
0.896521 0.523727 0.271421
0.896474 0.523679 0.398049
0.896426 0.523632 0.523632
0.896379 0.523585 0.648435
0.896332 0.523538 0.772618
0.896285 0.523491 0.896285
0.896245 0.523451 1.000000
0.896152 0.648209 0.010822
0.896102 0.648159 0.142728
0.896054 0.648110 0.270953
0.896006 0.648062 0.397582
0.895959 0.648015 0.523164
0.895911 0.647968 0.647968
0.895864 0.647921 0.772150
0.895818 0.647874 0.895818
0.895778 0.647834 1.000000
0.895687 0.771973 0.010357
0.895637 0.771923 0.142263
0.895589 0.771875 0.270488
0.895541 0.771827 0.397117
0.895493 0.771779 0.522699
0.895446 0.771732 0.647503
0.895399 0.771685 0.771685
0.895352 0.771639 0.895352
0.895313 0.771599 1.000000
0.895224 0.895224 0.009893
0.895174 0.895174 0.141800
0.895126 0.895126 0.270025
0.895078 0.895078 0.396654
0.895030 0.895030 0.522236
0.894983 0.894983 0.647039
0.894936 0.894936 0.771222
0.894889 0.894889 0.894889
0.894849 0.894849 1.000000
0.894828 1.000000 0.009498
0.894778 1.000000 0.141404
0.894730 1.000000 0.269629
0.894682 1.000000 0.396258
0.894635 1.000000 0.521840
0.894587 1.000000 0.646644
0.894540 1.000000 0.770826
0.894494 1.000000 0.894494
0.894454 1.000000 1.000000
1.000000 0.013091 0.013091
1.000000 0.013041 0.144997
1.000000 0.012993 0.273223
1.000000 0.012945 0.399851
1.000000 0.012897 0.525434
1.000000 0.012850 0.650237
1.000000 0.012803 0.774420
1.000000 0.012756 0.898087
1.000000 0.012716 1.000000
1.000000 0.144553 0.012597
1.000000 0.144503 0.144503
1.000000 0.144455 0.272728
1.000000 0.144407 0.399357
1.000000 0.144359 0.524939
1.000000 0.144312 0.649743
1.000000 0.144265 0.773925
1.000000 0.144218 0.897593
1.000000 0.144178 1.000000
1.000000 0.272346 0.012116
1.000000 0.272297 0.144023
1.000000 0.272248 0.272248
1.000000 0.272200 0.398877
1.000000 0.272153 0.524459
1.000000 0.272106 0.649262
1.000000 0.272059 0.773445
1.000000 0.272012 0.897112
1.000000 0.271972 1.000000
1.000000 0.398549 0.011642
1.000000 0.398499 0.143548
1.000000 0.398450 0.271774
1.000000 0.398402 0.398402
1.000000 0.398355 0.523985
1.000000 0.398308 0.648788
1.000000 0.398261 0.772971
1.000000 0.398214 0.896638
1.000000 0.398174 1.000000
1.000000 0.523708 0.011172
1.000000 0.523658 0.143078
1.000000 0.523610 0.271303
1.000000 0.523562 0.397932
1.000000 0.523514 0.523514
1.000000 0.523467 0.648318
1.000000 0.523420 0.772500
1.000000 0.523373 0.896168
1.000000 0.523333 1.000000
1.000000 0.648091 0.010704
1.000000 0.648041 0.142610
1.000000 0.647993 0.270836
1.000000 0.647945 0.397464
1.000000 0.647897 0.523047
1.000000 0.647850 0.647850
1.000000 0.647803 0.772033
1.000000 0.647756 0.895700
1.000000 0.647716 1.000000
1.000000 0.771856 0.010239
1.000000 0.771806 0.142145
1.000000 0.771757 0.270371
1.000000 0.771709 0.396999
1.000000 0.771662 0.522582
1.000000 0.771615 0.647385
1.000000 0.771568 0.771568
1.000000 0.771521 0.895235
1.000000 0.771481 1.000000
1.000000 0.895106 0.009776
1.000000 0.895056 0.141682
1.000000 0.895008 0.269907
1.000000 0.894960 0.396536
1.000000 0.894913 0.522118
1.000000 0.894865 0.646922
1.000000 0.894818 0.771104
1.000000 0.894772 0.894772
1.000000 0.894732 1.000000
1.000000 1.000000 0.009380
1.000000 1.000000 0.141286
1.000000 1.000000 0.269512
1.000000 1.000000 0.396140
1.000000 1.000000 0.521723
1.000000 1.000000 0.646526
1.000000 1.000000 0.770709
1.000000 1.000000 0.894376
1.000000 1.000000 1.000000
