skills/editops-orchestrator/assets/grade/luts/clean_bright_v01.cube
TITLE "clean_bright_v01"
LUT_3D_SIZE 17
DOMAIN_MIN 0.0 0.0 0.0
DOMAIN_MAX 1.0 1.0 1.0
0.010965 0.010965 0.010965
0.010965 0.010965 0.076407
0.010965 0.010965 0.140516
0.010965 0.010965 0.204012
0.010965 0.010965 0.267100
0.010965 0.010965 0.329882
0.010965 0.010965 0.392420
0.010965 0.010965 0.454755
0.010965 0.010965 0.516915
0.010965 0.010965 0.578922
0.010965 0.010965 0.640794
0.010965 0.010965 0.702544
0.010965 0.010965 0.764183
0.010965 0.010965 0.825721
0.010965 0.010965 0.887165
0.010965 0.010965 0.948522
0.010965 0.010965 1.000000
0.010965 0.076407 0.010965
0.010965 0.076407 0.076407
0.010965 0.076407 0.140516
0.010965 0.076407 0.204012
0.010965 0.076407 0.267100
0.010965 0.076407 0.329882
0.010965 0.076407 0.392420
0.010965 0.076407 0.454755
0.010965 0.076407 0.516915
0.010965 0.076407 0.578922
0.010965 0.076407 0.640794
0.010965 0.076407 0.702544
0.010965 0.076407 0.764183
0.010965 0.076407 0.825721
0.010965 0.076407 0.887165
0.010965 0.076407 0.948522
0.010965 0.076407 1.000000
0.010965 0.140516 0.010965
0.010965 0.140516 0.076407
0.010965 0.140516 0.140516
0.010965 0.140516 0.204012
0.010965 0.140516 0.267100
0.010965 0.140516 0.329882
0.010965 0.140516 0.392420
0.010965 0.140516 0.454755
0.010965 0.140516 0.516915
0.010965 0.140516 0.578922
0.010965 0.140516 0.640794
0.010965 0.140516 0.702544
0.010965 0.140516 0.764183
0.010965 0.140516 0.825721
0.010965 0.140516 0.887165
0.010965 0.140516 0.948522
0.010965 0.140516 1.000000
0.010965 0.204012 0.010965
0.010965 0.204012 0.076407
0.010965 0.204012 0.140516
0.010965 0.204012 0.204012
0.010965 0.204012 0.267100
0.010965 0.204012 0.329882
0.010965 0.204012 0.392420
0.010965 0.204012 0.454755
0.010965 0.204012 0.516915
0.010965 0.204012 0.578922
0.010965 0.204012 0.640794
0.010965 0.204012 0.702544
0.010965 0.204012 0.764183
0.010965 0.204012 0.825721
0.010965 0.204012 0.887165
0.010965 0.204012 0.948522
0.010965 0.204012 1.000000
0.010965 0.267100 0.010965
0.010965 0.267100 0.076407
0.010965 0.267100 0.140516
0.010965 0.267100 0.204012
0.010965 0.267100 0.267100
0.010965 0.267100 0.329882
0.010965 0.267100 0.392420
0.010965 0.267100 0.454755
0.010965 0.267100 0.516915
0.010965 0.267100 0.578922
0.010965 0.267100 0.640794
0.010965 0.267100 0.702544
0.010965 0.267100 0.764183
0.010965 0.267100 0.825721
0.010965 0.267100 0.887165
0.010965 0.267100 0.948522
0.010965 0.267100 1.000000
0.010965 0.329882 0.010965
0.010965 0.329882 0.076407
0.010965 0.329882 0.140516
0.010965 0.329882 0.204012
0.010965 0.329882 0.267100
0.010965 0.329882 0.329882
0.010965 0.329882 0.392420
0.010965 0.329882 0.454755
0.010965 0.329882 0.516915
0.010965 0.329882 0.578922
0.010965 0.329882 0.640794
0.010965 0.329882 0.702544
0.010965 0.329882 0.764183
0.010965 0.329882 0.825721
0.010965 0.329882 0.887165
0.010965 0.329882 0.948522
0.010965 0.329882 1.000000
0.010965 0.392420 0.010965
0.010965 0.392420 0.076407
0.010965 0.392420 0.140516
0.010965 0.392420 0.204012
0.010965 0.392420 0.267100
0.010965 0.392420 0.329882
0.010965 0.392420 0.392420
0.010965 0.392420 0.454755
0.010965 0.392420 0.516915
0.010965 0.392420 0.578922
0.010965 0.392420 0.640794
0.010965 0.392420 0.702544
0.010965 0.392420 0.764183
0.010965 0.392420 0.825721
0.010965 0.392420 0.887165
0.010965 0.392420 0.948522
0.010965 0.392420 1.000000
0.010965 0.454755 0.010965
0.010965 0.454755 0.076407
0.010965 0.454755 0.140516
0.010965 0.454755 0.204012
0.010965 0.454755 0.267100
0.010965 0.454755 0.329882
0.010965 0.454755 0.392420
0.010965 0.454755 0.454755
0.010965 0.454755 0.516915
0.010965 0.454755 0.578922
0.010965 0.454755 0.640794
0.010965 0.454755 0.702544
0.010965 0.454755 0.764183
0.010965 0.454755 0.825721
0.010965 0.454755 0.887165
0.010965 0.454755 0.948522
0.010965 0.454755 1.000000
0.010965 0.516915 0.010965
0.010965 0.516915 0.076407
0.010965 0.516915 0.140516
0.010965 0.516915 0.204012
0.010965 0.516915 0.267100
0.010965 0.516915 0.329882
0.010965 0.516915 0.392420
0.010965 0.516915 0.454755
0.010965 0.516915 0.516915
0.010965 0.516915 0.578922
0.010965 0.516915 0.640794
0.010965 0.516915 0.702544
0.010965 0.516915 0.764183
0.010965 0.516915 0.825721
0.010965 0.516915 0.887165
0.010965 0.516915 0.948522
0.010965 0.516915 1.000000
0.010965 0.578922 0.010965
0.010965 0.578922 0.076407
0.010965 0.578922 0.140516
0.010965 0.578922 0.204012
0.010965 0.578922 0.267100
0.010965 0.578922 0.329882
0.010965 0.578922 0.392420
0.010965 0.578922 0.454755
0.010965 0.578922 0.516915
0.010965 0.578922 0.578922
0.010965 0.578922 0.640794
0.010965 0.578922 0.702544
0.010965 0.578922 0.764183
0.010965 0.578922 0.825721
0.010965 0.578922 0.887165
0.010965 0.578922 0.948522
0.010965 0.578922 1.000000
0.010965 0.640794 0.010965
0.010965 0.640794 0.076407
0.010965 0.640794 0.140516
0.010965 0.640794 0.204012
0.010965 0.640794 0.267100
0.010965 0.640794 0.329882
0.010965 0.640794 0.392420
0.010965 0.640794 0.454755
0.010965 0.640794 0.516915
0.010965 0.640794 0.578922
0.010965 0.640794 0.640794
0.010965 0.640794 0.702544
0.010965 0.640794 0.764183
0.010965 0.640794 0.825721
0.010965 0.640794 0.887165
0.010965 0.640794 0.948522
0.010965 0.640794 1.000000
0.010965 0.702544 0.010965
0.010965 0.702544 0.076407
0.010965 0.702544 0.140516
0.010965 0.702544 0.204012
0.010965 0.702544 0.267100
0.010965 0.702544 0.329882
0.010965 0.702544 0.392420
0.010965 0.702544 0.454755
0.010965 0.702544 0.516915
0.010965 0.702544 0.578922
0.010965 0.702544 0.640794
0.010965 0.702544 0.702544
0.010965 0.702544 0.764183
0.010965 0.702544 0.825721
0.010965 0.702544 0.887165
0.010965 0.702544 0.948522
0.010965 0.702544 1.000000
0.010965 0.764183 0.010965
0.010965 0.764183 0.076407
0.010965 0.764183 0.140516
0.010965 0.764183 0.204012
0.010965 0.764183 0.267100
0.010965 0.764183 0.329882
0.010965 0.764183 0.392420
0.010965 0.764183 0.454755
0.010965 0.764183 0.516915
0.010965 0.764183 0.578922
0.010965 0.764183 0.640794
0.010965 0.764183 0.702544
0.010965 0.764183 0.764183
0.010965 0.764183 0.825721
0.010965 0.764183 0.887165
0.010965 0.764183 0.948522
0.010965 0.764183 1.000000
0.010965 0.825721 0.010965
0.010965 0.825721 0.076407
0.010965 0.825721 0.140516
0.010965 0.825721 0.204012
0.010965 0.825721 0.267100
0.010965 0.825721 0.329882
0.010965 0.825721 0.392420
0.010965 0.825721 0.454755
0.010965 0.825721 0.516915
0.010965 0.825721 0.578922
0.010965 0.825721 0.640794
0.010965 0.825721 0.702544
0.010965 0.825721 0.764183
0.010965 0.825721 0.825721
0.010965 0.825721 0.887165
0.010965 0.825721 0.948522
0.010965 0.825721 1.000000
0.010965 0.887165 0.010965
0.010965 0.887165 0.076407
0.010965 0.887165 0.140516
0.010965 0.887165 0.204012
0.010965 0.887165 0.267100
0.010965 0.887165 0.329882
0.010965 0.887165 0.392420
0.010965 0.887165 0.454755
0.010965 0.887165 0.516915
0.010965 0.887165 0.578922
0.010965 0.887165 0.640794
0.010965 0.887165 0.702544
0.010965 0.887165 0.764183
0.010965 0.887165 0.825721
0.010965 0.887165 0.887165
0.010965 0.887165 0.948522
0.010965 0.887165 1.000000
0.010965 0.948522 0.010965
0.010965 0.948522 0.076407
0.010965 0.948522 0.140516
0.010965 0.948522 0.204012
0.010965 0.948522 0.267100
0.010965 0.948522 0.329882
0.010965 0.948522 0.392420
0.010965 0.948522 0.454755
0.010965 0.948522 0.516915
0.010965 0.948522 0.578922
0.010965 0.948522 0.640794
0.010965 0.948522 0.702544
0.010965 0.948522 0.764183
0.010965 0.948522 0.825721
0.010965 0.948522 0.887165
0.010965 0.948522 0.948522
0.010965 0.948522 1.000000
0.010965 1.000000 0.010965
0.010965 1.000000 0.076407
0.010965 1.000000 0.140516
0.010965 1.000000 0.204012
0.010965 1.000000 0.267100
0.010965 1.000000 0.329882
0.010965 1.000000 0.392420
0.010965 1.000000 0.454755
0.010965 1.000000 0.516915
0.010965 1.000000 0.578922
0.010965 1.000000 0.640794
0.010965 1.000000 0.702544
0.010965 1.000000 0.764183
0.010965 1.000000 0.825721
0.010965 1.000000 0.887165
0.010965 1.000000 0.948522
0.010965 1.000000 1.000000
0.076407 0.010965 0.010965
0.076407 0.010965 0.076407
0.076407 0.010965 0.140516
0.076407 0.010965 0.204012
0.076407 0.010965 0.267100
0.076407 0.010965 0.329882
0.076407 0.010965 0.392420
0.076407 0.010965 0.454755
0.076407 0.010965 0.516915
0.076407 0.010965 0.578922
0.076407 0.010965 0.640794
0.076407 0.010965 0.702544
0.076407 0.010965 0.764183
0.076407 0.010965 0.825721
0.076407 0.010965 0.887165
0.076407 0.010965 0.948522
0.076407 0.010965 1.000000
0.076407 0.076407 0.010965
0.076407 0.076407 0.076407
0.076407 0.076407 0.140516
0.076407 0.076407 0.204012
0.076407 0.076407 0.267100
0.076407 0.076407 0.329882
0.076407 0.076407 0.392420
0.076407 0.076407 0.454755
0.076407 0.076407 0.516915
0.076407 0.076407 0.578922
0.076407 0.076407 0.640794
0.076407 0.076407 0.702544
0.076407 0.076407 0.764183
0.076407 0.076407 0.825721
0.076407 0.076407 0.887165
0.076407 0.076407 0.948522
0.076407 0.076407 1.000000
0.076407 0.140516 0.010965
0.076407 0.140516 0.076407
0.076407 0.140516 0.140516
0.076407 0.140516 0.204012
0.076407 0.140516 0.267100
0.076407 0.140516 0.329882
0.076407 0.140516 0.392420
0.076407 0.140516 0.454755
0.076407 0.140516 0.516915
0.076407 0.140516 0.578922
0.076407 0.140516 0.640794
0.076407 0.140516 0.702544
0.076407 0.140516 0.764183
0.076407 0.140516 0.825721
0.076407 0.140516 0.887165
0.076407 0.140516 0.948522
0.076407 0.140516 1.000000
0.076407 0.204012 0.010965
0.076407 0.204012 0.076407
0.076407 0.204012 0.140516
0.076407 0.204012 0.204012
0.076407 0.204012 0.267100
0.076407 0.204012 0.329882
0.076407 0.204012 0.392420
0.076407 0.204012 0.454755
0.076407 0.204012 0.516915
0.076407 0.204012 0.578922
0.076407 0.204012 0.640794
0.076407 0.204012 0.702544
0.076407 0.204012 0.764183
0.076407 0.204012 0.825721
0.076407 0.204012 0.887165
0.076407 0.204012 0.948522
0.076407 0.204012 1.000000
0.076407 0.267100 0.010965
0.076407 0.267100 0.076407
0.076407 0.267100 0.140516
0.076407 0.267100 0.204012
0.076407 0.267100 0.267100
0.076407 0.267100 0.329882
0.076407 0.267100 0.392420
0.076407 0.267100 0.454755
0.076407 0.267100 0.516915
0.076407 0.267100 0.578922
0.076407 0.267100 0.640794
0.076407 0.267100 0.702544
0.076407 0.267100 0.764183
0.076407 0.267100 0.825721
0.076407 0.267100 0.887165
0.076407 0.267100 0.948522
0.076407 0.267100 1.000000
0.076407 0.329882 0.010965
0.076407 0.329882 0.076407
0.076407 0.329882 0.140516
0.076407 0.329882 0.204012
0.076407 0.329882 0.267100
0.076407 0.329882 0.329882
0.076407 0.329882 0.392420
0.076407 0.329882 0.454755
0.076407 0.329882 0.516915
0.076407 0.329882 0.578922
0.076407 0.329882 0.640794
0.076407 0.329882 0.702544
0.076407 0.329882 0.764183
0.076407 0.329882 0.825721
0.076407 0.329882 0.887165
0.076407 0.329882 0.948522
0.076407 0.329882 1.000000
0.076407 0.392420 0.010965
0.076407 0.392420 0.076407
0.076407 0.392420 0.140516
0.076407 0.392420 0.204012
0.076407 0.392420 0.267100
0.076407 0.392420 0.329882
0.076407 0.392420 0.392420
0.076407 0.392420 0.454755
0.076407 0.392420 0.516915
0.076407 0.392420 0.578922
0.076407 0.392420 0.640794
0.076407 0.392420 0.702544
0.076407 0.392420 0.764183
0.076407 0.392420 0.825721
0.076407 0.392420 0.887165
0.076407 0.392420 0.948522
0.076407 0.392420 1.000000
0.076407 0.454755 0.010965
0.076407 0.454755 0.076407
0.076407 0.454755 0.140516
0.076407 0.454755 0.204012
0.076407 0.454755 0.267100
0.076407 0.454755 0.329882
0.076407 0.454755 0.392420
0.076407 0.454755 0.454755
0.076407 0.454755 0.516915
0.076407 0.454755 0.578922
0.076407 0.454755 0.640794
0.076407 0.454755 0.702544
0.076407 0.454755 0.764183
0.076407 0.454755 0.825721
0.076407 0.454755 0.887165
0.076407 0.454755 0.948522
0.076407 0.454755 1.000000
0.076407 0.516915 0.010965
0.076407 0.516915 0.076407
0.076407 0.516915 0.140516
0.076407 0.516915 0.204012
0.076407 0.516915 0.267100
0.076407 0.516915 0.329882
0.076407 0.516915 0.392420
0.076407 0.516915 0.454755
0.076407 0.516915 0.516915
0.076407 0.516915 0.578922
0.076407 0.516915 0.640794
0.076407 0.516915 0.702544
0.076407 0.516915 0.764183
0.076407 0.516915 0.825721
0.076407 0.516915 0.887165
0.076407 0.516915 0.948522
0.076407 0.516915 1.000000
0.076407 0.578922 0.010965
0.076407 0.578922 0.076407
0.076407 0.578922 0.140516
0.076407 0.578922 0.204012
0.076407 0.578922 0.267100
0.076407 0.578922 0.329882
0.076407 0.578922 0.392420
0.076407 0.578922 0.454755
0.076407 0.578922 0.516915
0.076407 0.578922 0.578922
0.076407 0.578922 0.640794
0.076407 0.578922 0.702544
0.076407 0.578922 0.764183
0.076407 0.578922 0.825721
0.076407 0.578922 0.887165
0.076407 0.578922 0.948522
0.076407 0.578922 1.000000
0.076407 0.640794 0.010965
0.076407 0.640794 0.076407
0.076407 0.640794 0.140516
0.076407 0.640794 0.204012
0.076407 0.640794 0.267100
0.076407 0.640794 0.329882
0.076407 0.640794 0.392420
0.076407 0.640794 0.454755
0.076407 0.640794 0.516915
0.076407 0.640794 0.578922
0.076407 0.640794 0.640794
0.076407 0.640794 0.702544
0.076407 0.640794 0.764183
0.076407 0.640794 0.825721
0.076407 0.640794 0.887165
0.076407 0.640794 0.948522
0.076407 0.640794 1.000000
0.076407 0.702544 0.010965
0.076407 0.702544 0.076407
0.076407 0.702544 0.140516
0.076407 0.702544 0.204012
0.076407 0.702544 0.267100
0.076407 0.702544 0.329882
0.076407 0.702544 0.392420
0.076407 0.702544 0.454755
0.076407 0.702544 0.516915
0.076407 0.702544 0.578922
0.076407 0.702544 0.640794
0.076407 0.702544 0.702544
0.076407 0.702544 0.764183
0.076407 0.702544 0.825721
0.076407 0.702544 0.887165
0.076407 0.702544 0.948522
0.076407 0.702544 1.000000
0.076407 0.764183 0.010965
0.076407 0.764183 0.076407
0.076407 0.764183 0.140516
0.076407 0.764183 0.204012
0.076407 0.764183 0.267100
0.076407 0.764183 0.329882
0.076407 0.764183 0.392420
0.076407 0.764183 0.454755
0.076407 0.764183 0.516915
0.076407 0.764183 0.578922
0.076407 0.764183 0.640794
0.076407 0.764183 0.702544
0.076407 0.764183 0.764183
0.076407 0.764183 0.825721
0.076407 0.764183 0.887165
0.076407 0.764183 0.948522
0.076407 0.764183 1.000000
0.076407 0.825721 0.010965
0.076407 0.825721 0.076407
0.076407 0.825721 0.140516
0.076407 0.825721 0.204012
0.076407 0.825721 0.267100
0.076407 0.825721 0.329882
0.076407 0.825721 0.392420
0.076407 0.825721 0.454755
0.076407 0.825721 0.516915
0.076407 0.825721 0.578922
0.076407 0.825721 0.640794
0.076407 0.825721 0.702544
0.076407 0.825721 0.764183
0.076407 0.825721 0.825721
0.076407 0.825721 0.887165
0.076407 0.825721 0.948522
0.076407 0.825721 1.000000
0.076407 0.887165 0.010965
0.076407 0.887165 0.076407
0.076407 0.887165 0.140516
0.076407 0.887165 0.204012
0.076407 0.887165 0.267100
0.076407 0.887165 0.329882
0.076407 0.887165 0.392420
0.076407 0.887165 0.454755
0.076407 0.887165 0.516915
0.076407 0.887165 0.578922
0.076407 0.887165 0.640794
0.076407 0.887165 0.702544
0.076407 0.887165 0.764183
0.076407 0.887165 0.825721
0.076407 0.887165 0.887165
0.076407 0.887165 0.948522
0.076407 0.887165 1.000000
0.076407 0.948522 0.010965
0.076407 0.948522 0.076407
0.076407 0.948522 0.140516
0.076407 0.948522 0.204012
0.076407 0.948522 0.267100
0.076407 0.948522 0.329882
0.076407 0.948522 0.392420
0.076407 0.948522 0.454755
0.076407 0.948522 0.516915
0.076407 0.948522 0.578922
0.076407 0.948522 0.640794
0.076407 0.948522 0.702544
0.076407 0.948522 0.764183
0.076407 0.948522 0.825721
0.076407 0.948522 0.887165
0.076407 0.948522 0.948522
0.076407 0.948522 1.000000
0.076407 1.000000 0.010965
0.076407 1.000000 0.076407
0.076407 1.000000 0.140516
0.076407 1.000000 0.204012
0.076407 1.000000 0.267100
0.076407 1.000000 0.329882
0.076407 1.000000 0.392420
0.076407 1.000000 0.454755
0.076407 1.000000 0.516915
0.076407 1.000000 0.578922
0.076407 1.000000 0.640794
0.076407 1.000000 0.702544
0.076407 1.000000 0.764183
0.076407 1.000000 0.825721
0.076407 1.000000 0.887165
0.076407 1.000000 0.948522
0.076407 1.000000 1.000000
0.140516 0.010965 0.010965
0.140516 0.010965 0.076407
0.140516 0.010965 0.140516
0.140516 0.010965 0.204012
0.140516 0.010965 0.267100
0.140516 0.010965 0.329882
0.140516 0.010965 0.392420
0.140516 0.010965 0.454755
0.140516 0.010965 0.516915
0.140516 0.010965 0.578922
0.140516 0.010965 0.640794
0.140516 0.010965 0.702544
0.140516 0.010965 0.764183
0.140516 0.010965 0.825721
0.140516 0.010965 0.887165
0.140516 0.010965 0.948522
0.140516 0.010965 1.000000
0.140516 0.076407 0.010965
0.140516 0.076407 0.076407
0.140516 0.076407 0.140516
0.140516 0.076407 0.204012
0.140516 0.076407 0.267100
0.140516 0.076407 0.329882
0.140516 0.076407 0.392420
0.140516 0.076407 0.454755
0.140516 0.076407 0.516915
0.140516 0.076407 0.578922
0.140516 0.076407 0.640794
0.140516 0.076407 0.702544
0.140516 0.076407 0.764183
0.140516 0.076407 0.825721
0.140516 0.076407 0.887165
0.140516 0.076407 0.948522
0.140516 0.076407 1.000000
0.140516 0.140516 0.010965
0.140516 0.140516 0.076407
0.140516 0.140516 0.140516
0.140516 0.140516 0.204012
0.140516 0.140516 0.267100
0.140516 0.140516 0.329882
0.140516 0.140516 0.392420
0.140516 0.140516 0.454755
0.140516 0.140516 0.516915
0.140516 0.140516 0.578922
0.140516 0.140516 0.640794
0.140516 0.140516 0.702544
0.140516 0.140516 0.764183
0.140516 0.140516 0.825721
0.140516 0.140516 0.887165
0.140516 0.140516 0.948522
0.140516 0.140516 1.000000
0.140516 0.204012 0.010965
0.140516 0.204012 0.076407
0.140516 0.204012 0.140516
0.140516 0.204012 0.204012
0.140516 0.204012 0.267100
0.140516 0.204012 0.329882
0.140516 0.204012 0.392420
0.140516 0.204012 0.454755
0.140516 0.204012 0.516915
0.140516 0.204012 0.578922
0.140516 0.204012 0.640794
0.140516 0.204012 0.702544
0.140516 0.204012 0.764183
0.140516 0.204012 0.825721
0.140516 0.204012 0.887165
0.140516 0.204012 0.948522
0.140516 0.204012 1.000000
0.140516 0.267100 0.010965
0.140516 0.267100 0.076407
0.140516 0.267100 0.140516
0.140516 0.267100 0.204012
0.140516 0.267100 0.267100
0.140516 0.267100 0.329882
0.140516 0.267100 0.392420
0.140516 0.267100 0.454755
0.140516 0.267100 0.516915
0.140516 0.267100 0.578922
0.140516 0.267100 0.640794
0.140516 0.267100 0.702544
0.140516 0.267100 0.764183
0.140516 0.267100 0.825721
0.140516 0.267100 0.887165
0.140516 0.267100 0.948522
0.140516 0.267100 1.000000
0.140516 0.329882 0.010965
0.140516 0.329882 0.076407
0.140516 0.329882 0.140516
0.140516 0.329882 0.204012
0.140516 0.329882 0.267100
0.140516 0.329882 0.329882
0.140516 0.329882 0.392420
0.140516 0.329882 0.454755
0.140516 0.329882 0.516915
0.140516 0.329882 0.578922
0.140516 0.329882 0.640794
0.140516 0.329882 0.702544
0.140516 0.329882 0.764183
0.140516 0.329882 0.825721
0.140516 0.329882 0.887165
0.140516 0.329882 0.948522
0.140516 0.329882 1.000000
0.140516 0.392420 0.010965
0.140516 0.392420 0.076407
0.140516 0.392420 0.140516
0.140516 0.392420 0.204012
0.140516 0.392420 0.267100
0.140516 0.392420 0.329882
0.140516 0.392420 0.392420
0.140516 0.392420 0.454755
0.140516 0.392420 0.516915
0.140516 0.392420 0.578922
0.140516 0.392420 0.640794
0.140516 0.392420 0.702544
0.140516 0.392420 0.764183
0.140516 0.392420 0.825721
0.140516 0.392420 0.887165
0.140516 0.392420 0.948522
0.140516 0.392420 1.000000
0.140516 0.454755 0.010965
0.140516 0.454755 0.076407
0.140516 0.454755 0.140516
0.140516 0.454755 0.204012
0.140516 0.454755 0.267100
0.140516 0.454755 0.329882
0.140516 0.454755 0.392420
0.140516 0.454755 0.454755
0.140516 0.454755 0.516915
0.140516 0.454755 0.578922
0.140516 0.454755 0.640794
0.140516 0.454755 0.702544
0.140516 0.454755 0.764183
0.140516 0.454755 0.825721
0.140516 0.454755 0.887165
0.140516 0.454755 0.948522
0.140516 0.454755 1.000000
0.140516 0.516915 0.010965
0.140516 0.516915 0.076407
0.140516 0.516915 0.140516
0.140516 0.516915 0.204012
0.140516 0.516915 0.267100
0.140516 0.516915 0.329882
0.140516 0.516915 0.392420
0.140516 0.516915 0.454755
0.140516 0.516915 0.516915
0.140516 0.516915 0.578922
0.140516 0.516915 0.640794
0.140516 0.516915 0.702544
0.140516 0.516915 0.764183
0.140516 0.516915 0.825721
0.140516 0.516915 0.887165
0.140516 0.516915 0.948522
0.140516 0.516915 1.000000
0.140516 0.578922 0.010965
0.140516 0.578922 0.076407
0.140516 0.578922 0.140516
0.140516 0.578922 0.204012
0.140516 0.578922 0.267100
0.140516 0.578922 0.329882
0.140516 0.578922 0.392420
0.140516 0.578922 0.454755
0.140516 0.578922 0.516915
0.140516 0.578922 0.578922
0.140516 0.578922 0.640794
0.140516 0.578922 0.702544
0.140516 0.578922 0.764183
0.140516 0.578922 0.825721
0.140516 0.578922 0.887165
0.140516 0.578922 0.948522
0.140516 0.578922 1.000000
0.140516 0.640794 0.010965
0.140516 0.640794 0.076407
0.140516 0.640794 0.140516
0.140516 0.640794 0.204012
0.140516 0.640794 0.267100
0.140516 0.640794 0.329882
0.140516 0.640794 0.392420
0.140516 0.640794 0.454755
0.140516 0.640794 0.516915
0.140516 0.640794 0.578922
0.140516 0.640794 0.640794
0.140516 0.640794 0.702544
0.140516 0.640794 0.764183
0.140516 0.640794 0.825721
0.140516 0.640794 0.887165
0.140516 0.640794 0.948522
0.140516 0.640794 1.000000
0.140516 0.702544 0.010965
0.140516 0.702544 0.076407
0.140516 0.702544 0.140516
0.140516 0.702544 0.204012
0.140516 0.702544 0.267100
0.140516 0.702544 0.329882
0.140516 0.702544 0.392420
0.140516 0.702544 0.454755
0.140516 0.702544 0.516915
0.140516 0.702544 0.578922
0.140516 0.702544 0.640794
0.140516 0.702544 0.702544
0.140516 0.702544 0.764183
0.140516 0.702544 0.825721
0.140516 0.702544 0.887165
0.140516 0.702544 0.948522
0.140516 0.702544 1.000000
0.140516 0.764183 0.010965
0.140516 0.764183 0.076407
0.140516 0.764183 0.140516
0.140516 0.764183 0.204012
0.140516 0.764183 0.267100
0.140516 0.764183 0.329882
0.140516 0.764183 0.392420
0.140516 0.764183 0.454755
0.140516 0.764183 0.516915
0.140516 0.764183 0.578922
0.140516 0.764183 0.640794
0.140516 0.764183 0.702544
0.140516 0.764183 0.764183
0.140516 0.764183 0.825721
0.140516 0.764183 0.887165
0.140516 0.764183 0.948522
0.140516 0.764183 1.000000
0.140516 0.825721 0.010965
0.140516 0.825721 0.076407
0.140516 0.825721 0.140516
0.140516 0.825721 0.204012
0.140516 0.825721 0.267100
0.140516 0.825721 0.329882
0.140516 0.825721 0.392420
0.140516 0.825721 0.454755
0.140516 0.825721 0.516915
0.140516 0.825721 0.578922
0.140516 0.825721 0.640794
0.140516 0.825721 0.702544
0.140516 0.825721 0.764183
0.140516 0.825721 0.825721
0.140516 0.825721 0.887165
0.140516 0.825721 0.948522
0.140516 0.825721 1.000000
0.140516 0.887165 0.010965
0.140516 0.887165 0.076407
0.140516 0.887165 0.140516
0.140516 0.887165 0.204012
0.140516 0.887165 0.267100
0.140516 0.887165 0.329882
0.140516 0.887165 0.392420
0.140516 0.887165 0.454755
0.140516 0.887165 0.516915
0.140516 0.887165 0.578922
0.140516 0.887165 0.640794
0.140516 0.887165 0.702544
0.140516 0.887165 0.764183
0.140516 0.887165 0.825721
0.140516 0.887165 0.887165
0.140516 0.887165 0.948522
0.140516 0.887165 1.000000
0.140516 0.948522 0.010965
0.140516 0.948522 0.076407
0.140516 0.948522 0.140516
0.140516 0.948522 0.204012
0.140516 0.948522 0.267100
0.140516 0.948522 0.329882
0.140516 0.948522 0.392420
0.140516 0.948522 0.454755
0.140516 0.948522 0.516915
0.140516 0.948522 0.578922
0.140516 0.948522 0.640794
0.140516 0.948522 0.702544
0.140516 0.948522 0.764183
0.140516 0.948522 0.825721
0.140516 0.948522 0.887165
0.140516 0.948522 0.948522
0.140516 0.948522 1.000000
0.140516 1.000000 0.010965
0.140516 1.000000 0.076407
0.140516 1.000000 0.140516
0.140516 1.000000 0.204012
0.140516 1.000000 0.267100
0.140516 1.000000 0.329882
0.140516 1.000000 0.392420
0.140516 1.000000 0.454755
0.140516 1.000000 0.516915
0.140516 1.000000 0.578922
0.140516 1.000000 0.640794
0.140516 1.000000 0.702544
0.140516 1.000000 0.764183
0.140516 1.000000 0.825721
0.140516 1.000000 0.887165
0.140516 1.000000 0.948522
0.140516 1.000000 1.000000
0.204012 0.010965 0.010965
0.204012 0.010965 0.076407
0.204012 0.010965 0.140516
0.204012 0.010965 0.204012
0.204012 0.010965 0.267100
0.204012 0.010965 0.329882
0.204012 0.010965 0.392420
0.204012 0.010965 0.454755
0.204012 0.010965 0.516915
0.204012 0.010965 0.578922
0.204012 0.010965 0.640794
0.204012 0.010965 0.702544
0.204012 0.010965 0.764183
0.204012 0.010965 0.825721
0.204012 0.010965 0.887165
0.204012 0.010965 0.948522
0.204012 0.010965 1.000000
0.204012 0.076407 0.010965
