skills/editops-orchestrator/assets/grade/luts/clean_bright_v14.cube
TITLE "clean_bright_v14"
LUT_3D_SIZE 17
DOMAIN_MIN 0.0 0.0 0.0
DOMAIN_MAX 1.0 1.0 1.0
0.034698 0.034698 0.034698
0.034522 0.034522 0.108320
0.034352 0.034352 0.178949
0.034187 0.034187 0.247980
0.034025 0.034025 0.315917
0.033864 0.033864 0.383023
0.033705 0.033705 0.449460
0.033547 0.033547 0.515338
0.033391 0.033391 0.580736
0.033235 0.033235 0.645715
0.033080 0.033080 0.710321
0.032926 0.032926 0.774592
0.032773 0.032773 0.838559
0.032621 0.032621 0.902247
0.032469 0.032469 0.965679
0.032318 0.032318 1.000000
0.032313 0.032313 1.000000
0.032952 0.106750 0.032952
0.032776 0.106574 0.106574
0.032607 0.106405 0.177203
0.032441 0.106240 0.246234
0.032279 0.106077 0.314171
0.032118 0.105916 0.381277
0.031959 0.105757 0.447714
0.031801 0.105599 0.513592
0.031645 0.105443 0.578990
0.031489 0.105287 0.643969
0.031334 0.105133 0.708575
0.031181 0.104979 0.772846
0.031027 0.104826 0.836813
0.030875 0.104673 0.900501
0.030723 0.104521 0.963933
0.030572 0.104370 1.000000
0.030568 0.104366 1.000000
0.031277 0.175873 0.031277
0.031101 0.175697 0.104899
0.030932 0.175528 0.175528
0.030766 0.175363 0.244559
0.030604 0.175200 0.312496
0.030443 0.175039 0.379602
0.030284 0.174880 0.446039
0.030126 0.174723 0.511917
0.029970 0.174566 0.577315
0.029814 0.174410 0.642294
0.029659 0.174256 0.706900
0.029506 0.174102 0.771171
0.029352 0.173949 0.835138
0.029200 0.173796 0.898826
0.029048 0.173644 0.962258
0.028897 0.173493 1.000000
0.028893 0.173489 1.000000
0.029640 0.243433 0.029640
0.029464 0.243257 0.103262
0.029295 0.243088 0.173891
0.029129 0.242922 0.242922
0.028967 0.242760 0.310859
0.028806 0.242599 0.377965
0.028647 0.242440 0.444402
0.028489 0.242282 0.510280
0.028333 0.242126 0.575678
0.028177 0.241970 0.640657
0.028022 0.241815 0.705263
0.027869 0.241662 0.769534
0.027715 0.241508 0.833501
0.027563 0.241356 0.897189
0.027411 0.241204 0.960621
0.027260 0.241053 1.000000
0.027256 0.241049 1.000000
0.028029 0.309921 0.028029
0.027853 0.309745 0.101651
0.027683 0.309576 0.172280
0.027518 0.309411 0.241311
0.027356 0.309248 0.309248
0.027195 0.309088 0.376354
0.027036 0.308928 0.442791
0.026878 0.308771 0.508669
0.026722 0.308614 0.574067
0.026566 0.308459 0.639046
0.026411 0.308304 0.703652
0.026257 0.308150 0.767923
0.026104 0.307997 0.831890
0.025952 0.307844 0.895578
0.025800 0.307693 0.959010
0.025649 0.307541 1.000000
0.025644 0.307537 1.000000
0.026437 0.375596 0.026437
0.026261 0.375420 0.100059
0.026092 0.375251 0.170688
0.025927 0.375086 0.239720
0.025764 0.374923 0.307657
0.025603 0.374763 0.374763
0.025444 0.374604 0.441199
0.025287 0.374446 0.507077
0.025130 0.374289 0.572476
0.024975 0.374134 0.637454
0.024820 0.373979 0.702060
0.024666 0.373825 0.766331
0.024513 0.373672 0.830298
0.024360 0.373520 0.893987
0.024209 0.373368 0.957419
0.024057 0.373216 1.000000
0.024053 0.373212 1.000000
0.024862 0.440617 0.024862
0.024686 0.440441 0.098484
0.024517 0.440272 0.169113
0.024351 0.440106 0.238144
0.024189 0.439944 0.306081
0.024028 0.439783 0.373187
0.023869 0.439624 0.439624
0.023711 0.439466 0.505502
0.023555 0.439310 0.570900
0.023399 0.439154 0.635879
0.023244 0.438999 0.700485
0.023091 0.438846 0.764756
0.022937 0.438692 0.828723
0.022785 0.438540 0.892411
0.022633 0.438388 0.955843
0.022482 0.438237 1.000000
0.022478 0.438233 1.000000
0.023300 0.505090 0.023300
0.023123 0.504914 0.096922
0.022954 0.504745 0.167551
0.022789 0.504580 0.236582
0.022626 0.504417 0.304519
0.022466 0.504256 0.371625
0.022307 0.504097 0.438062
0.022149 0.503940 0.503940
0.021992 0.503783 0.569338
0.021837 0.503627 0.634317
0.021682 0.503473 0.698923
0.021528 0.503319 0.763194
0.021375 0.503166 0.827160
0.021223 0.503013 0.890849
0.021071 0.502861 0.954281
0.020920 0.502710 1.000000
0.020915 0.502706 1.000000
0.021749 0.569094 0.021749
0.021572 0.568918 0.095371
0.021403 0.568749 0.166000
0.021238 0.568584 0.235031
0.021075 0.568421 0.302968
0.020915 0.568260 0.370074
0.020756 0.568101 0.436511
0.020598 0.567944 0.502389
0.020441 0.567787 0.567787
0.020286 0.567631 0.632766
0.020131 0.567477 0.697372
0.019977 0.567323 0.761643
0.019824 0.567170 0.825610
0.019672 0.567017 0.889298
0.019520 0.566865 0.952730
0.019369 0.566714 1.000000
0.019364 0.566710 1.000000
0.020208 0.632687 0.020208
0.020031 0.632511 0.093830
0.019862 0.632342 0.164459
0.019697 0.632177 0.233490
0.019534 0.632014 0.301427
0.019374 0.631854 0.368533
0.019215 0.631695 0.434970
0.019057 0.631537 0.500848
0.018901 0.631380 0.566246
0.018745 0.631225 0.631225
0.018590 0.631070 0.695831
0.018436 0.630916 0.760102
0.018283 0.630763 0.824069
0.018131 0.630611 0.887757
0.017979 0.630459 0.951189
0.017828 0.630307 1.000000
0.017823 0.630303 1.000000
0.018676 0.695916 0.018676
0.018499 0.695740 0.092298
0.018330 0.695571 0.162927
0.018165 0.695405 0.231958
0.018002 0.695243 0.299895
0.017842 0.695082 0.367001
0.017683 0.694923 0.433438
0.017525 0.694765 0.499316
0.017368 0.694609 0.564714
0.017213 0.694453 0.629693
0.017058 0.694299 0.694299
0.016904 0.694145 0.758570
0.016751 0.693992 0.822536
0.016599 0.693839 0.886225
0.016447 0.693687 0.949657
0.016296 0.693536 1.000000
0.016291 0.693532 1.000000
0.017151 0.758817 0.017151
0.016975 0.758641 0.090773
0.016806 0.758471 0.161402
0.016641 0.758306 0.230434
0.016478 0.758144 0.298371
0.016318 0.757983 0.365477
0.016159 0.757824 0.431914
0.016001 0.757666 0.497791
0.015844 0.757510 0.563190
0.015689 0.757354 0.628168
0.015534 0.757199 0.692774
0.015380 0.757045 0.757045
0.015227 0.756892 0.821012
0.015075 0.756740 0.884701
0.014923 0.756588 0.948133
0.014771 0.756437 1.000000
0.014767 0.756432 1.000000
0.015635 0.821420 0.015635
0.015458 0.821244 0.089257
0.015289 0.821074 0.159885
0.015124 0.820909 0.228917
0.014961 0.820747 0.296854
0.014801 0.820586 0.363960
0.014642 0.820427 0.430397
0.014484 0.820269 0.496274
0.014327 0.820113 0.561673
0.014172 0.819957 0.626651
0.014017 0.819802 0.691258
0.013863 0.819648 0.755529
0.013710 0.819495 0.819495
0.013558 0.819343 0.883184
0.013406 0.819191 0.946616
0.013254 0.819040 1.000000
0.013250 0.819036 1.000000
0.014124 0.883750 0.014124
0.013948 0.883574 0.087746
0.013779 0.883405 0.158375
0.013614 0.883240 0.227407
0.013451 0.883077 0.295344
0.013290 0.882916 0.362449
0.013131 0.882757 0.428886
0.012973 0.882600 0.494764
0.012817 0.882443 0.560162
0.012661 0.882288 0.625141
0.012507 0.882133 0.689747
0.012353 0.881979 0.754018
0.012200 0.881826 0.817985
0.012047 0.881673 0.881673
0.011895 0.881522 0.945105
0.011744 0.881370 1.000000
0.011740 0.881366 1.000000
0.012620 0.945830 0.012620
0.012444 0.945654 0.086242
0.012275 0.945485 0.156871
0.012109 0.945319 0.225902
0.011947 0.945157 0.293839
0.011786 0.944996 0.360945
0.011627 0.944837 0.427382
0.011469 0.944679 0.493260
0.011313 0.944523 0.558658
0.011157 0.944367 0.623637
0.011002 0.944212 0.688243
0.010849 0.944059 0.752514
0.010695 0.943905 0.816481
0.010543 0.943753 0.880169
0.010391 0.943601 0.943601
0.010240 0.943450 1.000000
0.010236 0.943446 1.000000
0.011121 1.000000 0.011121
0.010945 1.000000 0.084743
0.010776 1.000000 0.155372
0.010611 1.000000 0.224404
0.010448 1.000000 0.292341
0.010287 1.000000 0.359446
0.010128 1.000000 0.425883
0.009971 1.000000 0.491761
0.009814 1.000000 0.557160
0.009658 1.000000 0.622138
0.009504 1.000000 0.686744
0.009350 1.000000 0.751015
0.009197 1.000000 0.814982
0.009044 1.000000 0.878671
0.008892 1.000000 0.942102
0.008741 1.000000 1.000000
0.008737 1.000000 1.000000
0.011079 1.000000 0.011079
0.010903 1.000000 0.084701
0.010734 1.000000 0.155330
0.010569 1.000000 0.224362
0.010406 1.000000 0.292299
0.010245 1.000000 0.359405
0.010086 1.000000 0.425841
0.009929 1.000000 0.491719
0.009772 1.000000 0.557118
0.009617 1.000000 0.622096
0.009462 1.000000 0.686702
0.009308 1.000000 0.750973
0.009155 1.000000 0.814940
0.009002 1.000000 0.878629
0.008851 1.000000 0.942061
0.008699 1.000000 1.000000
0.008695 1.000000 1.000000
0.107977 0.034179 0.034179
0.107801 0.034003 0.107801
0.107632 0.033833 0.178430
0.107466 0.033668 0.247461
0.107304 0.033506 0.315398
0.107143 0.033345 0.382504
0.106984 0.033186 0.448941
0.106826 0.033028 0.514819
0.106670 0.032872 0.580217
0.106514 0.032716 0.645196
0.106360 0.032561 0.709802
0.106206 0.032407 0.774073
0.106053 0.032254 0.838040
0.105900 0.032102 0.901728
0.105748 0.031950 0.965160
0.105597 0.031799 1.000000
0.105593 0.031794 1.000000
0.106231 0.106231 0.032433
0.106055 0.106055 0.106055
0.105886 0.105886 0.176684
0.105721 0.105721 0.245715
0.105558 0.105558 0.313652
0.105397 0.105397 0.380758
0.105238 0.105238 0.447195
0.105080 0.105080 0.513073
0.104924 0.104924 0.578471
0.104768 0.104768 0.643450
0.104614 0.104614 0.708056
0.104460 0.104460 0.772327
0.104307 0.104307 0.836294
0.104154 0.104154 0.899982
0.104002 0.104002 0.963414
0.103851 0.103851 1.000000
0.103847 0.103847 1.000000
0.104556 0.175354 0.030758
0.104380 0.175178 0.104380
0.104211 0.175009 0.175009
0.104046 0.174844 0.244040
0.103883 0.174681 0.311977
0.103722 0.174520 0.379083
0.103563 0.174361 0.445520
0.103406 0.174204 0.511398
0.103249 0.174047 0.576796
0.103093 0.173891 0.641775
0.102939 0.173737 0.706381
0.102785 0.173583 0.770652
0.102632 0.173430 0.834619
0.102479 0.173277 0.898307
0.102327 0.173125 0.961739
0.102176 0.172974 1.000000
0.102172 0.172970 1.000000
0.102919 0.242914 0.029121
0.102743 0.242738 0.102743
0.102574 0.242569 0.173372
0.102409 0.242403 0.242403
0.102246 0.242241 0.310340
0.102085 0.242080 0.377446
0.101926 0.241921 0.443883
0.101768 0.241763 0.509761
0.101612 0.241607 0.575159
0.101456 0.241451 0.640138
0.101302 0.241296 0.704744
0.101148 0.241143 0.769015
0.100995 0.240989 0.832982
0.100842 0.240837 0.896670
0.100690 0.240685 0.960102
0.100539 0.240534 1.000000
0.100535 0.240530 1.000000
0.101308 0.309402 0.027510
0.101132 0.309226 0.101132
0.100963 0.309057 0.171761
0.100797 0.308892 0.240792
0.100635 0.308729 0.308729
0.100474 0.308569 0.375835
0.100315 0.308409 0.442272
0.100157 0.308252 0.508150
0.100001 0.308095 0.573548
0.099845 0.307940 0.638527
0.099691 0.307785 0.703133
0.099537 0.307631 0.767404
0.099384 0.307478 0.831371
0.099231 0.307326 0.895059
0.099079 0.307174 0.958491
0.098928 0.307022 1.000000
0.098924 0.307018 1.000000
0.099717 0.375077 0.025918
0.099540 0.374901 0.099540
0.099371 0.374732 0.170169
0.099206 0.374567 0.239201
0.099043 0.374404 0.307138
0.098883 0.374244 0.374244
0.098724 0.374085 0.440680
0.098566 0.373927 0.506558
0.098409 0.373770 0.571957
0.098254 0.373615 0.636935
0.098099 0.373460 0.701541
0.097945 0.373306 0.765812
0.097792 0.373153 0.829779
0.097640 0.373001 0.893468
0.097488 0.372849 0.956900
0.097337 0.372697 1.000000
0.097332 0.372693 1.000000
0.098141 0.440098 0.024343
0.097965 0.439922 0.097965
0.097796 0.439753 0.168594
0.097631 0.439587 0.237625
0.097468 0.439425 0.305562
0.097307 0.439264 0.372668
0.097148 0.439105 0.439105
0.096990 0.438947 0.504983
0.096834 0.438791 0.570381
0.096678 0.438635 0.635360
0.096524 0.438480 0.699966
0.096370 0.438327 0.764237
0.096217 0.438173 0.828204
0.096064 0.438021 0.891892
0.095912 0.437869 0.955324
0.095761 0.437718 1.000000
0.095757 0.437714 1.000000
0.096579 0.504571 0.022781
0.096403 0.504395 0.096403
0.096234 0.504226 0.167032
0.096068 0.504061 0.236063
0.095906 0.503898 0.304000
0.095745 0.503737 0.371106
0.095586 0.503578 0.437543
0.095428 0.503421 0.503421
0.095272 0.503264 0.568819
0.095116 0.503108 0.633798
0.094961 0.502954 0.698404
0.094808 0.502800 0.762675
0.094654 0.502647 0.826641
0.094502 0.502494 0.890330
0.094350 0.502342 0.953762
0.094199 0.502191 1.000000
0.094195 0.502187 1.000000
0.095028 0.568575 0.021230
0.094852 0.568399 0.094852
0.094683 0.568230 0.165481
0.094517 0.568065 0.234512
0.094355 0.567902 0.302449
0.094194 0.567741 0.369555
0.094035 0.567582 0.435992
0.093877 0.567425 0.501870
0.093721 0.567268 0.567268
0.093565 0.567112 0.632247
0.093410 0.566958 0.696853
0.093257 0.566804 0.761124
0.093103 0.566651 0.825091
0.092951 0.566498 0.888779
0.092799 0.566346 0.952211
0.092648 0.566195 1.000000
0.092644 0.566191 1.000000
0.093487 0.632169 0.019689
0.093311 0.631992 0.093311
0.093142 0.631823 0.163940
0.092976 0.631658 0.232971
0.092814 0.631495 0.300908
0.092653 0.631335 0.368014
0.092494 0.631176 0.434451
0.092336 0.631018 0.500329
0.092180 0.630861 0.565727
0.092024 0.630706 0.630706
0.091870 0.630551 0.695312
0.091716 0.630397 0.759583
0.091563 0.630244 0.823550
0.091410 0.630092 0.887238
0.091258 0.629940 0.950670
0.091107 0.629788 1.000000
0.091103 0.629784 1.000000
0.091955 0.695397 0.018157
0.091779 0.695221 0.091779
0.091610 0.695052 0.162408
0.091444 0.694887 0.231439
0.091282 0.694724 0.299376
0.091121 0.694563 0.366482
0.090962 0.694404 0.432919
0.090804 0.694246 0.498797
0.090648 0.694090 0.564195
0.090492 0.693934 0.629174
0.090337 0.693780 0.693780
0.090184 0.693626 0.758051
0.090030 0.693473 0.822017
0.089878 0.693320 0.885706
0.089726 0.693168 0.949138
0.089575 0.693017 1.000000
0.089571 0.693013 1.000000
0.090431 0.758298 0.016632
0.090254 0.758122 0.090254
0.090085 0.757952 0.160883
0.089920 0.757787 0.229915
0.089757 0.757625 0.297852
0.089597 0.757464 0.364958
0.089438 0.757305 0.431395
0.089280 0.757147 0.497272
0.089123 0.756991 0.562671
0.088968 0.756835 0.627649
0.088813 0.756680 0.692255
0.088659 0.756526 0.756526
0.088506 0.756373 0.820493
0.088354 0.756221 0.884182
0.088202 0.756069 0.947614
0.088051 0.755918 1.000000
0.088046 0.755914 1.000000
0.088914 0.820901 0.015116
0.088738 0.820725 0.088738
0.088568 0.820555 0.159366
0.088403 0.820390 0.228398
0.088241 0.820228 0.296335
0.088080 0.820067 0.363441
0.087921 0.819908 0.429878
0.087763 0.819750 0.495755
0.087607 0.819594 0.561154
0.087451 0.819438 0.626132
0.087296 0.819283 0.690739
0.087142 0.819130 0.755010
0.086989 0.818976 0.818976
0.086837 0.818824 0.882665
0.086685 0.818672 0.946097
0.086534 0.818521 1.000000
0.086529 0.818517 1.000000
0.087403 0.883231 0.013605
0.087227 0.883055 0.087227
0.087058 0.882886 0.157856
0.086893 0.882721 0.226888
0.086730 0.882558 0.294825
0.086570 0.882397 0.361930
0.086410 0.882238 0.428367
0.086253 0.882081 0.494245
0.086096 0.881924 0.559643
0.085941 0.881769 0.624622
0.085786 0.881614 0.689228
0.085632 0.881460 0.753499
0.085479 0.881307 0.817466
0.085326 0.881154 0.881154
0.085175 0.881003 0.944586
0.085023 0.880851 1.000000
0.085019 0.880847 1.000000
0.085899 0.945311 0.012101
0.085723 0.945135 0.085723
0.085554 0.944966 0.156352
0.085389 0.944800 0.225383
0.085226 0.944638 0.293320
0.085065 0.944477 0.360426
0.084906 0.944318 0.426863
0.084748 0.944160 0.492741
0.084592 0.944004 0.558139
0.084436 0.943848 0.623118
0.084282 0.943693 0.687724
0.084128 0.943540 0.751995
0.083975 0.943386 0.815962
0.083822 0.943234 0.879650
0.083670 0.943082 0.943082
0.083519 0.942931 1.000000
0.083515 0.942927 1.000000
0.084401 1.000000 0.010602
0.084224 1.000000 0.084224
0.084055 1.000000 0.154853
0.083890 1.000000 0.223885
0.083727 1.000000 0.291822
0.083567 1.000000 0.358927
0.083408 1.000000 0.425364
0.083250 1.000000 0.491242
0.083093 1.000000 0.556641
0.082938 1.000000 0.621619
0.082783 1.000000 0.686225
0.082629 1.000000 0.750496
0.082476 1.000000 0.814463
0.082324 1.000000 0.878152
0.082172 1.000000 0.941583
0.082020 1.000000 1.000000
0.082016 1.000000 1.000000
0.084359 1.000000 0.010560
0.084182 1.000000 0.084182
0.084013 1.000000 0.154811
0.083848 1.000000 0.223843
0.083685 1.000000 0.291780
0.083525 1.000000 0.358886
0.083366 1.000000 0.425322
0.083208 1.000000 0.491200
0.083051 1.000000 0.556599
0.082896 1.000000 0.621577
0.082741 1.000000 0.686183
0.082587 1.000000 0.750454
0.082434 1.000000 0.814421
0.082282 1.000000 0.878110
0.082130 1.000000 0.941542
0.081979 1.000000 1.000000
0.081974 1.000000 1.000000
0.178277 0.033681 0.033681
0.178101 0.033505 0.107303
0.177932 0.033336 0.177932
0.177767 0.033170 0.246963
0.177604 0.033008 0.314900
0.177443 0.032847 0.382006
0.177284 0.032688 0.448443
0.177127 0.032530 0.514321
0.176970 0.032374 0.579719
0.176814 0.032218 0.644698
0.176660 0.032063 0.709304
0.176506 0.031910 0.773575
0.176353 0.031756 0.837542
0.176200 0.031604 0.901230
0.176048 0.031452 0.964662
0.175897 0.031301 1.000000
0.175893 0.031297 1.000000
0.176531 0.105733 0.031935
0.176355 0.105557 0.105557
0.176186 0.105388 0.176186
0.176021 0.105223 0.245217
0.175858 0.105060 0.313154
0.175697 0.104899 0.380260
0.175538 0.104740 0.446697
0.175381 0.104583 0.512575
0.175224 0.104426 0.577973
0.175068 0.104270 0.642952
0.174914 0.104116 0.707558
0.174760 0.103962 0.771829
0.174607 0.103809 0.835796
0.174454 0.103656 0.899484
0.174302 0.103504 0.962916
0.174151 0.103353 1.000000
0.174147 0.103349 1.000000
0.174856 0.174856 0.030260
0.174680 0.174680 0.103882
0.174511 0.174511 0.174511
0.174346 0.174346 0.243542
0.174183 0.174183 0.311479
0.174022 0.174022 0.378585
0.173863 0.173863 0.445022
0.173706 0.173706 0.510900
0.173549 0.173549 0.576298
0.173394 0.173394 0.641277
0.173239 0.173239 0.705883
0.173085 0.173085 0.770154
0.172932 0.172932 0.834121
0.172779 0.172779 0.897809
0.172628 0.172628 0.961241
0.172476 0.172476 1.000000
0.172472 0.172472 1.000000
0.173219 0.242416 0.028623
0.173043 0.242240 0.102245
0.172874 0.242071 0.172874
0.172709 0.241905 0.241905
0.172546 0.241743 0.309842
0.172385 0.241582 0.376948
0.172226 0.241423 0.443385
0.172069 0.241265 0.509263
0.171912 0.241109 0.574661
0.171756 0.240953 0.639640
0.171602 0.240799 0.704246
0.171448 0.240645 0.768517
0.171295 0.240492 0.832484
0.171142 0.240339 0.896172
0.170990 0.240187 0.959604
0.170839 0.240036 1.000000
0.170835 0.240032 1.000000
0.171608 0.308905 0.027012
0.171432 0.308728 0.100634
0.171263 0.308559 0.171263
0.171098 0.308394 0.240294
0.170935 0.308231 0.308231
0.170774 0.308071 0.375337
0.170615 0.307912 0.441774
0.170458 0.307754 0.507652
0.170301 0.307597 0.573050
0.170145 0.307442 0.638029
0.169991 0.307287 0.702635
0.169837 0.307133 0.766906
0.169684 0.306980 0.830873
0.169531 0.306828 0.894561
0.169379 0.306676 0.957993
0.169228 0.306524 1.000000
0.169224 0.306520 1.000000
0.170017 0.374580 0.025420
0.169841 0.374403 0.099042
0.169671 0.374234 0.169671
0.169506 0.374069 0.238703
0.169344 0.373906 0.306640
0.169183 0.373746 0.373746
0.169024 0.373587 0.440183
0.168866 0.373429 0.506060
0.168710 0.373272 0.571459
0.168554 0.373117 0.636437
0.168399 0.372962 0.701044
0.168245 0.372808 0.765315
0.168092 0.372655 0.829281
0.167940 0.372503 0.892970
0.167788 0.372351 0.956402
0.167637 0.372200 1.000000
0.167632 0.372195 1.000000
0.168441 0.439600 0.023845
0.168265 0.439424 0.097467
0.168096 0.439255 0.168096
0.167931 0.439089 0.237127
0.167768 0.438927 0.305064
0.167607 0.438766 0.372170
0.167448 0.438607 0.438607
0.167291 0.438449 0.504485
0.167134 0.438293 0.569883
0.166978 0.438137 0.634862
0.166824 0.437983 0.699468
0.166670 0.437829 0.763739
0.166517 0.437676 0.827706
0.166364 0.437523 0.891394
0.166212 0.437371 0.954826
0.166061 0.437220 1.000000
0.166057 0.437216 1.000000
0.166879 0.504073 0.022283
0.166703 0.503897 0.095905
0.166534 0.503728 0.166534
0.166368 0.503563 0.235565
0.166206 0.503400 0.303502
0.166045 0.503239 0.370608
0.165886 0.503080 0.437045
0.165728 0.502923 0.502923
0.165572 0.502766 0.568321
0.165416 0.502611 0.633300
0.165262 0.502456 0.697906
0.165108 0.502302 0.762177
0.164955 0.502149 0.826144
0.164802 0.501996 0.889832
0.164650 0.501845 0.953264
0.164499 0.501693 1.000000
0.164495 0.501689 1.000000
0.165328 0.568077 0.020732
0.165152 0.567901 0.094354
0.164983 0.567732 0.164983
0.164817 0.567567 0.234014
0.164655 0.567404 0.301951
0.164494 0.567243 0.369057
0.164335 0.567084 0.435494
0.164177 0.566927 0.501372
0.164021 0.566770 0.566770
0.163865 0.566614 0.631749
0.163711 0.566460 0.696355
0.163557 0.566306 0.760626
0.163404 0.566153 0.824593
0.163251 0.566000 0.888281
0.163099 0.565848 0.951713
0.162948 0.565697 1.000000
0.162944 0.565693 1.000000
0.163787 0.631671 0.019191
0.163611 0.631494 0.092813
0.163442 0.631325 0.163442
0.163277 0.631160 0.232473
0.163114 0.630997 0.300410
0.162953 0.630837 0.367516
0.162794 0.630678 0.433953
0.162636 0.630520 0.499831
0.162480 0.630363 0.565229
0.162324 0.630208 0.630208
0.162170 0.630053 0.694814
0.162016 0.629899 0.759085
0.161863 0.629746 0.823052
0.161710 0.629594 0.886740
0.161558 0.629442 0.950172
0.161407 0.629291 1.000000
0.161403 0.629286 1.000000
0.162255 0.694899 0.017659
0.162079 0.694723 0.091281
0.161910 0.694554 0.161910
0.161744 0.694389 0.230941
0.161582 0.694226 0.298878
0.161421 0.694065 0.365984
0.161262 0.693906 0.432421
0.161104 0.693749 0.498299
0.160948 0.693592 0.563697
0.160792 0.693436 0.628676
0.160638 0.693282 0.693282
0.160484 0.693128 0.757553
0.160331 0.692975 0.821520
0.160178 0.692822 0.885208
0.160026 0.692670 0.948640
0.159875 0.692519 1.000000
0.159871 0.692515 1.000000
0.160731 0.757800 0.016135
0.160555 0.757624 0.089757
0.160386 0.757455 0.160386
0.160220 0.757289 0.229417
0.160058 0.757127 0.297354
0.159897 0.756966 0.364460
0.159738 0.756807 0.430897
0.159580 0.756649 0.496775
0.159424 0.756493 0.562173
0.159268 0.756337 0.627152
0.159113 0.756182 0.691758
0.158960 0.756029 0.756029
0.158806 0.755875 0.819995
0.158654 0.755723 0.883684
0.158502 0.755571 0.947116
0.158351 0.755420 1.000000
0.158347 0.755416 1.000000
0.159214 0.820403 0.014618
0.159038 0.820227 0.088240
0.158869 0.820058 0.158869
0.158703 0.819892 0.227900
0.158541 0.819730 0.295837
0.158380 0.819569 0.362943
0.158221 0.819410 0.429380
0.158063 0.819252 0.495258
0.157907 0.819096 0.560656
0.157751 0.818940 0.625635
0.157596 0.818785 0.690241
0.157443 0.818632 0.754512
0.157289 0.818478 0.818478
0.157137 0.818326 0.882167
0.156985 0.818174 0.945599
0.156834 0.818023 1.000000
0.156830 0.818019 1.000000
0.157704 0.882733 0.013107
0.157527 0.882557 0.086729
0.157358 0.882388 0.157358
0.157193 0.882223 0.226390
0.157030 0.882060 0.294327
0.156870 0.881900 0.361432
0.156711 0.881741 0.427869
0.156553 0.881583 0.493747
0.156396 0.881426 0.559146
0.156241 0.881271 0.624124
0.156086 0.881116 0.688730
0.155932 0.880962 0.753001
0.155779 0.880809 0.816968
0.155627 0.880657 0.880657
0.155475 0.880505 0.944088
0.155323 0.880353 1.000000
0.155319 0.880349 1.000000
0.156199 0.944813 0.011603
0.156023 0.944637 0.085225
0.155854 0.944468 0.155854
0.155689 0.944302 0.224885
0.155526 0.944140 0.292822
0.155365 0.943979 0.359928
0.155206 0.943820 0.426365
0.155049 0.943662 0.492243
0.154892 0.943506 0.557641
0.154737 0.943350 0.622620
0.154582 0.943196 0.687226
0.154428 0.943042 0.751497
0.154275 0.942889 0.815464
0.154122 0.942736 0.879152
0.153971 0.942584 0.942584
0.153819 0.942433 1.000000
0.153815 0.942429 1.000000
0.154701 1.000000 0.010104
0.154524 1.000000 0.083726
0.154355 1.000000 0.154355
0.154190 1.000000 0.223387
0.154027 1.000000 0.291324
0.153867 1.000000 0.358430
0.153708 1.000000 0.424866
0.153550 1.000000 0.490744
0.153393 1.000000 0.556143
0.153238 1.000000 0.621121
0.153083 1.000000 0.685727
0.152929 1.000000 0.749998
0.152776 1.000000 0.813965
0.152624 1.000000 0.877654
0.152472 1.000000 0.941086
0.152321 1.000000 1.000000
0.152316 1.000000 1.000000
0.154659 1.000000 0.010062
0.154483 1.000000 0.083685
0.154313 1.000000 0.154313
0.154148 1.000000 0.223345
0.153986 1.000000 0.291282
0.153825 1.000000 0.358388
0.153666 1.000000 0.424825
0.153508 1.000000 0.490702
0.153352 1.000000 0.556101
0.153196 1.000000 0.621079
0.153041 1.000000 0.685686
0.152887 1.000000 0.749957
0.152734 1.000000 0.813923
0.152582 1.000000 0.877612
0.152430 1.000000 0.941044
0.152279 1.000000 1.000000
0.152274 1.000000 1.000000
0.246987 0.033194 0.033194
0.246811 0.033018 0.106816
0.246642 0.032849 0.177445
0.246477 0.032684 0.246477
0.246314 0.032521 0.314414
0.246153 0.032360 0.381519
0.245994 0.032201 0.447956
0.245837 0.032044 0.513834
0.245680 0.031887 0.579233
0.245525 0.031731 0.644211
0.245370 0.031577 0.708817
0.245216 0.031423 0.773088
0.245063 0.031270 0.837055
0.244910 0.031117 0.900744
0.244759 0.030965 0.964175
0.244607 0.030814 1.000000
0.244603 0.030810 1.000000
0.245241 0.105247 0.031448
