skills/editops-orchestrator/assets/grade/luts/clean_bright_v17.cube
TITLE "clean_bright_v17"
LUT_3D_SIZE 9
DOMAIN_MIN 0.0 0.0 0.0
DOMAIN_MAX 1.0 1.0 1.0
0.041073 0.041073 0.041073
0.040641 0.040641 0.188516
0.040234 0.040234 0.327773
0.039838 0.039838 0.463110
0.039450 0.039450 0.595846
0.039067 0.039067 0.726641
0.038689 0.038689 0.855889
0.038314 0.038314 0.983855
0.038158 0.038158 1.000000
0.036800 0.184674 0.036800
0.036368 0.184243 0.184243
0.035961 0.183836 0.323500
0.035565 0.183440 0.458836
0.035177 0.183051 0.591573
0.034794 0.182669 0.722367
0.034416 0.182291 0.851616
0.034041 0.181916 0.979582
0.033884 0.181759 1.000000
0.032764 0.320303 0.032764
0.032332 0.319871 0.180207
0.031925 0.319464 0.319464
0.031529 0.319068 0.454801
0.031141 0.318680 0.587537
0.030758 0.318297 0.718332
0.030380 0.317919 0.847580
0.030005 0.317544 0.975546
0.029849 0.317388 1.000000
0.028841 0.452113 0.028841
0.028410 0.451682 0.176285
0.028003 0.451274 0.315542
0.027607 0.450878 0.450878
0.027218 0.450490 0.583615
0.026836 0.450107 0.714409
0.026458 0.449729 0.843658
0.026083 0.449355 0.971623
0.025926 0.449198 1.000000
0.024995 0.581391 0.024995
0.024563 0.580959 0.172438
0.024156 0.580552 0.311695
0.023760 0.580156 0.447031
0.023371 0.579768 0.579768
0.022989 0.579385 0.710562
0.022611 0.579007 0.839811
0.022236 0.578633 0.967777
0.022079 0.578476 1.000000
0.021204 0.708778 0.021204
0.020773 0.708346 0.168647
0.020365 0.707939 0.307904
0.019969 0.707543 0.443241
0.019581 0.707154 0.575977
0.019198 0.706772 0.706772
0.018820 0.706394 0.836020
0.018446 0.706019 0.963986
0.018289 0.705862 1.000000
0.017458 0.834658 0.017458
0.017027 0.834227 0.164902
0.016619 0.833819 0.304158
0.016223 0.833423 0.439495
0.015835 0.833035 0.572231
0.015452 0.832652 0.703026
0.015074 0.832274 0.832274
0.014700 0.831900 0.960240
0.014543 0.831743 1.000000
0.013749 0.959290 0.013749
0.013318 0.958858 0.161193
0.012911 0.958451 0.300450
0.012515 0.958055 0.435786
0.012126 0.957667 0.568523
0.011744 0.957284 0.699317
0.011366 0.956906 0.828566
0.010991 0.956531 0.956531
0.010834 0.956375 1.000000
0.012196 1.000000 0.012196
0.011765 1.000000 0.159639
0.011357 1.000000 0.298896
0.010961 1.000000 0.434233
0.010573 1.000000 0.566969
0.010190 1.000000 0.697764
0.009812 1.000000 0.827012
0.009438 1.000000 0.954978
0.009281 1.000000 1.000000
0.187677 0.039803 0.039803
0.187246 0.039371 0.187246
0.186839 0.038964 0.326503
0.186443 0.038568 0.461839
0.186054 0.038179 0.594576
0.185672 0.037797 0.725370
0.185293 0.037419 0.854619
0.184919 0.037044 0.982584
0.184762 0.036887 1.000000
0.183404 0.183404 0.035529
0.182973 0.182973 0.182973
0.182565 0.182565 0.322229
0.182169 0.182169 0.457566
0.181781 0.181781 0.590303
0.181398 0.181398 0.721097
0.181020 0.181020 0.850346
0.180646 0.180646 0.978311
0.180489 0.180489 1.000000
0.179368 0.319032 0.031494
0.178937 0.318601 0.178937
0.178530 0.318194 0.318194
0.178134 0.317798 0.453530
0.177745 0.317409 0.586267
0.177363 0.317027 0.717061
0.176984 0.316649 0.846310
0.176610 0.316274 0.974275
0.176453 0.316117 1.000000
0.175446 0.450843 0.027571
0.175015 0.450411 0.175015
0.174607 0.450004 0.314271
0.174211 0.449608 0.449608
0.173823 0.449220 0.582344
0.173440 0.448837 0.713139
0.173062 0.448459 0.842387
0.172688 0.448085 0.970353
0.172531 0.447928 1.000000
0.171599 0.580121 0.023724
0.171168 0.579689 0.171168
0.170760 0.579282 0.310424
0.170364 0.578886 0.445761
0.169976 0.578498 0.578498
0.169593 0.578115 0.709292
0.169215 0.577737 0.838540
0.168841 0.577362 0.966506
0.168684 0.577205 1.000000
0.167809 0.707507 0.019934
0.167377 0.707076 0.167377
0.166970 0.706668 0.306634
0.166574 0.706273 0.441971
0.166185 0.705884 0.574707
0.165803 0.705502 0.705502
0.165425 0.705123 0.834750
0.165050 0.704749 0.962716
0.164893 0.704592 1.000000
0.164063 0.833388 0.016188
0.163631 0.832957 0.163631
0.163224 0.832549 0.302888
0.162828 0.832153 0.438225
0.162440 0.831765 0.570961
0.162057 0.831382 0.701756
0.161679 0.831004 0.831004
0.161304 0.830630 0.958970
0.161148 0.830473 1.000000
0.160354 0.958020 0.012479
0.159923 0.957588 0.159923
0.159515 0.957181 0.299179
0.159119 0.956785 0.434516
0.158731 0.956396 0.567252
0.158348 0.956014 0.698047
0.157970 0.955636 0.827295
0.157596 0.955261 0.955261
0.157439 0.955104 1.000000
0.158801 1.000000 0.010926
0.158369 1.000000 0.158369
0.157962 1.000000 0.297626
0.157566 1.000000 0.432962
0.157177 1.000000 0.565699
0.156795 1.000000 0.696493
0.156417 1.000000 0.825742
0.156042 1.000000 0.953708
0.155885 1.000000 1.000000
0.326142 0.038603 0.038603
0.325710 0.038171 0.186046
0.325303 0.037764 0.325303
0.324907 0.037368 0.460640
0.324519 0.036980 0.593376
0.324136 0.036597 0.724171
0.323758 0.036219 0.853419
0.323383 0.035845 0.981385
0.323227 0.035688 1.000000
0.321869 0.182205 0.034330
0.321437 0.181773 0.181773
0.321030 0.181366 0.321030
0.320634 0.180970 0.456366
0.320245 0.180581 0.589103
0.319863 0.180199 0.719897
0.319485 0.179821 0.849146
0.319110 0.179446 0.977112
0.318953 0.179289 1.000000
0.317833 0.317833 0.030294
0.317401 0.317401 0.177737
0.316994 0.316994 0.316994
0.316598 0.316598 0.452331
0.316210 0.316210 0.585067
0.315827 0.315827 0.715862
0.315449 0.315449 0.845110
0.315074 0.315074 0.973076
0.314918 0.314918 1.000000
0.313910 0.449643 0.026372
0.313479 0.449212 0.173815
0.313072 0.448804 0.313072
0.312676 0.448408 0.448408
0.312287 0.448020 0.581145
0.311905 0.447637 0.711939
0.311527 0.447259 0.841188
0.311152 0.446885 0.969154
0.310995 0.446728 1.000000
0.310064 0.578921 0.022525
0.309632 0.578490 0.169968
0.309225 0.578082 0.309225
0.308829 0.577686 0.444561
0.308440 0.577298 0.577298
0.308058 0.576915 0.708092
0.307680 0.576537 0.837341
0.307305 0.576163 0.965307
0.307148 0.576006 1.000000
0.306273 0.706308 0.018734
0.305842 0.705876 0.166177
0.305434 0.705469 0.305434
0.305038 0.705073 0.440771
0.304650 0.704684 0.573507
0.304267 0.704302 0.704302
0.303889 0.703924 0.833550
0.303515 0.703549 0.961516
0.303358 0.703392 1.000000
0.302527 0.832188 0.014988
0.302096 0.831757 0.162432
0.301688 0.831349 0.301688
0.301292 0.830954 0.437025
0.300904 0.830565 0.569761
0.300521 0.830182 0.700556
0.300143 0.829804 0.829804
0.299769 0.829430 0.957770
0.299612 0.829273 1.000000
0.298818 0.956820 0.011280
0.298387 0.956388 0.158723
0.297980 0.955981 0.297980
0.297584 0.955585 0.433316
0.297195 0.955197 0.566053
0.296813 0.954814 0.696847
0.296435 0.954436 0.826096
0.296060 0.954062 0.954062
0.295903 0.953905 1.000000
0.297265 1.000000 0.009726
0.296834 1.000000 0.157169
0.296426 1.000000 0.296426
0.296030 1.000000 0.431763
0.295642 1.000000 0.564499
0.295259 1.000000 0.695294
0.294881 1.000000 0.824542
0.294507 1.000000 0.952508
0.294350 1.000000 1.000000
0.460708 0.037437 0.037437
0.460277 0.037006 0.184880
0.459870 0.036598 0.324137
0.459474 0.036202 0.459474
0.459085 0.035814 0.592210
0.458703 0.035431 0.723005
0.458325 0.035053 0.852253
0.457950 0.034679 0.980219
0.457793 0.034522 1.000000
0.456435 0.181039 0.033164
0.456004 0.180607 0.180607
0.455597 0.180200 0.319864
0.455201 0.179804 0.455201
0.454812 0.179415 0.587937
0.454430 0.179033 0.718732
0.454051 0.178655 0.847980
0.453677 0.178280 0.975946
0.453520 0.178123 1.000000
0.452399 0.316667 0.029128
0.451968 0.316235 0.176571
0.451561 0.315828 0.315828
0.451165 0.315432 0.451165
0.450776 0.315044 0.583901
0.450394 0.314661 0.714696
0.450016 0.314283 0.843944
0.449641 0.313908 0.971910
0.449484 0.313752 1.000000
0.448477 0.448477 0.025206
0.448046 0.448046 0.172649
0.447638 0.447638 0.311906
0.447242 0.447242 0.447242
0.446854 0.446854 0.579979
0.446471 0.446471 0.710773
0.446093 0.446093 0.840022
0.445719 0.445719 0.967988
0.445562 0.445562 1.000000
0.444630 0.577755 0.021359
0.444199 0.577324 0.168802
0.443791 0.576916 0.308059
0.443396 0.576520 0.443396
0.443007 0.576132 0.576132
0.442625 0.575749 0.706927
0.442246 0.575371 0.836175
0.441872 0.574997 0.964141
0.441715 0.574840 1.000000
0.440840 0.705142 0.017568
0.440408 0.704710 0.165012
0.440001 0.704303 0.304268
0.439605 0.703907 0.439605
0.439217 0.703519 0.572341
0.438834 0.703136 0.703136
0.438456 0.702758 0.832384
0.438081 0.702383 0.960350
0.437925 0.702227 1.000000
0.437094 0.831022 0.013822
0.436662 0.830591 0.161266
0.436255 0.830184 0.300522
0.435859 0.829788 0.435859
0.435471 0.829399 0.568595
0.435088 0.829017 0.699390
0.434710 0.828638 0.828638
0.434336 0.828264 0.956604
0.434179 0.828107 1.000000
0.433385 0.955654 0.010114
0.432954 0.955223 0.157557
0.432546 0.954815 0.296814
0.432150 0.954419 0.432150
0.431762 0.954031 0.564887
0.431379 0.953648 0.695681
0.431001 0.953270 0.824930
0.430627 0.952896 0.952896
0.430470 0.952739 1.000000
0.431832 1.000000 0.008560
0.431400 1.000000 0.156003
0.430993 1.000000 0.295260
0.430597 1.000000 0.430597
0.430209 1.000000 0.563333
0.429826 1.000000 0.694128
0.429448 1.000000 0.823376
0.429073 1.000000 0.951342
0.428916 1.000000 1.000000
0.592690 0.036293 0.036293
0.592258 0.035862 0.183737
0.591851 0.035455 0.322993
0.591455 0.035059 0.458330
0.591067 0.034670 0.591067
0.590684 0.034288 0.721861
0.590306 0.033909 0.851109
0.589931 0.033535 0.979075
0.589774 0.033378 1.000000
0.588417 0.179895 0.032020
0.587985 0.179464 0.179464
0.587578 0.179056 0.318720
0.587182 0.178660 0.454057
0.586793 0.178272 0.586793
0.586411 0.177889 0.717588
0.586033 0.177511 0.846836
0.585658 0.177137 0.974802
0.585501 0.176980 1.000000
0.584381 0.315523 0.027984
0.583949 0.315092 0.175428
0.583542 0.314684 0.314684
0.583146 0.314289 0.450021
0.582758 0.313900 0.582758
0.582375 0.313517 0.713552
0.581997 0.313139 0.842800
0.581622 0.312765 0.970766
0.581465 0.312608 1.000000
0.580458 0.447334 0.024062
0.580027 0.446902 0.171506
0.579620 0.446495 0.310762
0.579224 0.446099 0.446099
0.578835 0.445711 0.578835
0.578453 0.445328 0.709630
0.578074 0.444950 0.838878
0.577700 0.444575 0.966844
0.577543 0.444419 1.000000
0.576611 0.576611 0.020215
0.576180 0.576180 0.167659
0.575773 0.575773 0.306915
0.575377 0.575377 0.442252
0.574988 0.574988 0.574988
0.574606 0.574606 0.705783
0.574228 0.574228 0.835031
0.573853 0.573853 0.962997
0.573696 0.573696 1.000000
0.572821 0.703998 0.016425
0.572389 0.703567 0.163868
0.571982 0.703159 0.303125
0.571586 0.702763 0.438461
0.571198 0.702375 0.571198
0.570815 0.701992 0.701992
0.570437 0.701614 0.831241
0.570063 0.701240 0.959207
0.569906 0.701083 1.000000
0.569075 0.829879 0.012679
0.568644 0.829447 0.160122
0.568236 0.829040 0.299379
0.567840 0.828644 0.434716
0.567452 0.828256 0.567452
0.567069 0.827873 0.698247
0.566691 0.827495 0.827495
0.566317 0.827120 0.955461
0.566160 0.826964 1.000000
0.565366 0.954510 0.008970
0.564935 0.954079 0.156414
0.564528 0.953672 0.295670
0.564132 0.953276 0.431007
0.563743 0.952887 0.563743
0.563361 0.952505 0.694538
0.562982 0.952126 0.823786
0.562608 0.951752 0.951752
0.562451 0.951595 1.000000
0.563813 1.000000 0.007417
0.563381 1.000000 0.154860
0.562974 1.000000 0.294117
0.562578 1.000000 0.429453
0.562190 1.000000 0.562190
0.561807 1.000000 0.692984
0.561429 1.000000 0.822233
0.561055 1.000000 0.950198
0.560898 1.000000 1.000000
0.722740 0.035167 0.035167
0.722309 0.034735 0.182610
0.721901 0.034328 0.321867
0.721505 0.033932 0.457203
0.721117 0.033543 0.589940
0.720734 0.033161 0.720734
0.720356 0.032783 0.849983
0.719982 0.032408 0.977949
0.719825 0.032251 1.000000
0.718467 0.178768 0.030893
0.718036 0.178337 0.178337
0.717628 0.177929 0.317594
0.717232 0.177533 0.452930
0.716844 0.177145 0.585667
0.716461 0.176762 0.716461
0.716083 0.176384 0.845710
0.715709 0.176010 0.973675
0.715552 0.175853 1.000000
0.714431 0.314396 0.026858
0.714000 0.313965 0.174301
0.713592 0.313558 0.313558
0.713196 0.313162 0.448894
0.712808 0.312773 0.581631
0.712425 0.312391 0.712425
0.712047 0.312013 0.841674
0.711673 0.311638 0.969640
0.711516 0.311481 1.000000
0.710509 0.446207 0.022935
0.710077 0.445775 0.170379
0.709670 0.445368 0.309635
0.709274 0.444972 0.444972
0.708886 0.444584 0.577708
0.708503 0.444201 0.708503
0.708125 0.443823 0.837751
0.707751 0.443449 0.965717
0.707594 0.443292 1.000000
0.706662 0.575485 0.019088
0.706231 0.575053 0.166532
0.705823 0.574646 0.305789
0.705427 0.574250 0.441125
0.705039 0.573862 0.573862
0.704656 0.573479 0.704656
0.704278 0.573101 0.833905
0.703904 0.572726 0.961870
0.703747 0.572570 1.000000
0.702871 0.702871 0.015298
0.702440 0.702440 0.162741
0.702033 0.702033 0.301998
0.701637 0.701637 0.437335
0.701248 0.701248 0.570071
0.700866 0.700866 0.700866
0.700487 0.700487 0.830114
0.700113 0.700113 0.958080
0.699956 0.699956 1.000000
0.699126 0.828752 0.011552
0.698694 0.828321 0.158995
0.698287 0.827913 0.298252
0.697891 0.827517 0.433589
0.697502 0.827129 0.566325
0.697120 0.826746 0.697120
0.696742 0.826368 0.826368
0.696367 0.825994 0.954334
0.696210 0.825837 1.000000
0.695417 0.953384 0.007843
0.694985 0.952952 0.155287
0.694578 0.952545 0.294543
0.694182 0.952149 0.429880
0.693794 0.951760 0.562616
0.693411 0.951378 0.693411
0.693033 0.951000 0.822659
0.692659 0.950625 0.950625
0.692502 0.950468 1.000000
0.693863 1.000000 0.006290
0.693432 1.000000 0.153733
0.693024 1.000000 0.292990
0.692629 1.000000 0.428327
0.692240 1.000000 0.561063
0.691858 1.000000 0.691858
0.691479 1.000000 0.821106
0.691105 1.000000 0.949072
0.690948 1.000000 1.000000
0.851253 0.034053 0.034053
0.850822 0.033622 0.181497
0.850414 0.033214 0.320753
0.850018 0.032818 0.456090
0.849630 0.032430 0.588826
0.849247 0.032047 0.719621
0.848869 0.031669 0.848869
0.848495 0.031295 0.976835
0.848338 0.031138 1.000000
0.846980 0.177655 0.029780
0.846549 0.177223 0.177223
0.846141 0.176816 0.316480
0.845745 0.176420 0.451817
0.845357 0.176032 0.584553
0.844974 0.175649 0.715348
0.844596 0.175271 0.844596
0.844222 0.174896 0.972562
0.844065 0.174740 1.000000
0.842944 0.313283 0.025744
0.842513 0.312852 0.173188
0.842105 0.312444 0.312444
0.841709 0.312048 0.447781
0.841321 0.311660 0.580517
0.840938 0.311277 0.711312
0.840560 0.310899 0.840560
0.840186 0.310525 0.968526
0.840029 0.310368 1.000000
0.839022 0.445093 0.021822
0.838590 0.444662 0.169265
0.838183 0.444255 0.308522
0.837787 0.443859 0.443859
0.837399 0.443470 0.576595
0.837016 0.443088 0.707390
0.836638 0.442709 0.836638
0.836264 0.442335 0.964604
0.836107 0.442178 1.000000
0.835175 0.574371 0.017975
0.834744 0.573940 0.165418
0.834336 0.573532 0.304675
0.833940 0.573136 0.440012
0.833552 0.572748 0.572748
0.833169 0.572365 0.703543
0.832791 0.571987 0.832791
0.832417 0.571613 0.960757
0.832260 0.571456 1.000000
0.831384 0.701758 0.014184
0.830953 0.701326 0.161628
0.830546 0.700919 0.300884
0.830150 0.700523 0.436221
0.829761 0.700135 0.568957
0.829379 0.699752 0.699752
0.829000 0.699374 0.829000
0.828626 0.699000 0.956966
0.828469 0.698843 1.000000
0.827639 0.827639 0.010438
0.827207 0.827207 0.157882
0.826800 0.826800 0.297139
0.826404 0.826404 0.432475
0.826015 0.826015 0.565212
0.825633 0.825633 0.696006
0.825255 0.825255 0.825255
0.824880 0.824880 0.953220
0.824723 0.824723 1.000000
0.823930 0.952270 0.006730
0.823499 0.951839 0.154173
0.823091 0.951431 0.293430
0.822695 0.951035 0.428767
0.822307 0.950647 0.561503
0.821924 0.950264 0.692298
0.821546 0.949886 0.821546
0.821172 0.949512 0.949512
0.821015 0.949355 1.000000
0.822376 1.000000 0.005176
0.821945 1.000000 0.152620
0.821537 1.000000 0.291876
0.821142 1.000000 0.427213
0.820753 1.000000 0.559949
0.820371 1.000000 0.690744
0.819992 1.000000 0.819992
0.819618 1.000000 0.947958
0.819461 1.000000 1.000000
0.978491 0.032951 0.032951
0.978060 0.032519 0.180394
0.977652 0.032112 0.319651
0.977256 0.031716 0.454987
0.976868 0.031328 0.587724
0.976485 0.030945 0.718518
0.976107 0.030567 0.847767
0.975733 0.030192 0.975733
0.975576 0.030036 1.000000
0.974218 0.176552 0.028678
0.973786 0.176121 0.176121
0.973379 0.175714 0.315378
0.972983 0.175318 0.450714
0.972595 0.174929 0.583451
0.972212 0.174547 0.714245
0.971834 0.174168 0.843494
0.971459 0.173794 0.971459
0.971303 0.173637 1.000000
0.970182 0.312181 0.024642
0.969751 0.311749 0.172085
0.969343 0.311342 0.311342
0.968947 0.310946 0.446678
0.968559 0.310557 0.579415
0.968176 0.310175 0.710209
0.967798 0.309797 0.839458
0.967424 0.309422 0.967424
0.967267 0.309265 1.000000
0.966260 0.443991 0.020719
0.965828 0.443560 0.168163
0.965421 0.443152 0.307419
0.965025 0.442756 0.442756
0.964637 0.442368 0.575493
0.964254 0.441985 0.706287
0.963876 0.441607 0.835536
0.963501 0.441233 0.963501
0.963345 0.441076 1.000000
0.962413 0.573269 0.016872
0.961981 0.572837 0.164316
0.961574 0.572430 0.303573
0.961178 0.572034 0.438909
0.960790 0.571646 0.571646
0.960407 0.571263 0.702440
0.960029 0.570885 0.831689
0.959654 0.570510 0.959654
0.959498 0.570354 1.000000
0.958622 0.700655 0.013082
0.958191 0.700224 0.160525
0.957783 0.699817 0.299782
0.957387 0.699421 0.435119
0.956999 0.699032 0.567855
0.956616 0.698650 0.698650
0.956238 0.698272 0.827898
0.955864 0.697897 0.955864
0.955707 0.697740 1.000000
0.954876 0.826536 0.009336
0.954445 0.826105 0.156779
0.954037 0.825697 0.296036
0.953642 0.825301 0.431373
0.953253 0.824913 0.564109
0.952871 0.824530 0.694904
0.952492 0.824152 0.824152
0.952118 0.823778 0.952118
0.951961 0.823621 1.000000
0.951168 0.951168 0.005627
0.950736 0.950736 0.153071
0.950329 0.950329 0.292328
0.949933 0.949933 0.427664
0.949545 0.949545 0.560401
0.949162 0.949162 0.691195
0.948784 0.948784 0.820444
0.948409 0.948409 0.948409
0.948253 0.948253 1.000000
0.949614 1.000000 0.004074
0.949183 1.000000 0.151517
0.948775 1.000000 0.290774
0.948379 1.000000 0.426111
0.947991 1.000000 0.558847
0.947608 1.000000 0.689642
0.947230 1.000000 0.818890
0.946856 1.000000 0.946856
0.946699 1.000000 1.000000
1.000000 0.032489 0.032489
1.000000 0.032057 0.179932
1.000000 0.031650 0.319189
1.000000 0.031254 0.454526
1.000000 0.030866 0.587262
1.000000 0.030483 0.718057
1.000000 0.030105 0.847305
1.000000 0.029731 0.975271
1.000000 0.029574 1.000000
1.000000 0.176091 0.028216
1.000000 0.175659 0.175659
1.000000 0.175252 0.314916
1.000000 0.174856 0.450253
1.000000 0.174467 0.582989
1.000000 0.174085 0.713783
1.000000 0.173707 0.843032
1.000000 0.173332 0.970998
1.000000 0.173175 1.000000
1.000000 0.311719 0.024180
1.000000 0.311287 0.171623
1.000000 0.310880 0.310880
1.000000 0.310484 0.446217
1.000000 0.310096 0.578953
1.000000 0.309713 0.709748
1.000000 0.309335 0.838996
1.000000 0.308960 0.966962
1.000000 0.308804 1.000000
1.000000 0.443529 0.020258
1.000000 0.443098 0.167701
1.000000 0.442690 0.306958
1.000000 0.442294 0.442294
1.000000 0.441906 0.575031
1.000000 0.441523 0.705825
1.000000 0.441145 0.835074
1.000000 0.440771 0.963040
1.000000 0.440614 1.000000
1.000000 0.572807 0.016411
1.000000 0.572376 0.163854
1.000000 0.571968 0.303111
1.000000 0.571572 0.438447
1.000000 0.571184 0.571184
1.000000 0.570801 0.701978
1.000000 0.570423 0.831227
1.000000 0.570049 0.959193
1.000000 0.569892 1.000000
1.000000 0.700194 0.012620
1.000000 0.699762 0.160063
1.000000 0.699355 0.299320
1.000000 0.698959 0.434657
1.000000 0.698570 0.567393
1.000000 0.698188 0.698188
1.000000 0.697810 0.827436
1.000000 0.697435 0.955402
1.000000 0.697278 1.000000
1.000000 0.826074 0.008874
1.000000 0.825643 0.156318
1.000000 0.825235 0.295574
1.000000 0.824840 0.430911
1.000000 0.824451 0.563647
1.000000 0.824069 0.694442
1.000000 0.823690 0.823690
1.000000 0.823316 0.951656
1.000000 0.823159 1.000000
1.000000 0.950706 0.005166
1.000000 0.950274 0.152609
1.000000 0.949867 0.291866
1.000000 0.949471 0.427202
1.000000 0.949083 0.559939
1.000000 0.948700 0.690733
1.000000 0.948322 0.819982
1.000000 0.947948 0.947948
1.000000 0.947791 1.000000
1.000000 1.000000 0.003612
1.000000 1.000000 0.151055
1.000000 1.000000 0.290312
1.000000 1.000000 0.425649
1.000000 1.000000 0.558385
1.000000 1.000000 0.689180
1.000000 1.000000 0.818428
1.000000 1.000000 0.946394
1.000000 1.000000 1.000000
