skills/editops-orchestrator/assets/grade/luts/clean_bright_v17.cube
TITLE "clean_bright_v17"
LUT_3D_SIZE 5
DOMAIN_MIN 0.0 0.0 0.0
DOMAIN_MAX 1.0 1.0 1.0
0.041073 0.041073 0.041073
0.040234 0.040234 0.327773
0.039450 0.039450 0.595846
0.038689 0.038689 0.855889
0.038158 0.038158 1.000000
0.032764 0.320303 0.032764
0.031925 0.319464 0.319464
0.031141 0.318680 0.587537
0.030380 0.317919 0.847580
0.029849 0.317388 1.000000
0.024995 0.581391 0.024995
0.024156 0.580552 0.311695
0.023371 0.579768 0.579768
0.022611 0.579007 0.839811
0.022079 0.578476 1.000000
0.017458 0.834658 0.017458
0.016619 0.833819 0.304158
0.015835 0.833035 0.572231
0.015074 0.832274 0.832274
0.014543 0.831743 1.000000
0.012196 1.000000 0.012196
0.011357 1.000000 0.298896
0.010573 1.000000 0.566969
0.009812 1.000000 0.827012
0.009281 1.000000 1.000000
0.326142 0.038603 0.038603
0.325303 0.037764 0.325303
0.324519 0.036980 0.593376
0.323758 0.036219 0.853419
0.323227 0.035688 1.000000
0.317833 0.317833 0.030294
0.316994 0.316994 0.316994
0.316210 0.316210 0.585067
0.315449 0.315449 0.845110
0.314918 0.314918 1.000000
0.310064 0.578921 0.022525
0.309225 0.578082 0.309225
0.308440 0.577298 0.577298
0.307680 0.576537 0.837341
0.307148 0.576006 1.000000
0.302527 0.832188 0.014988
0.301688 0.831349 0.301688
0.300904 0.830565 0.569761
0.300143 0.829804 0.829804
0.299612 0.829273 1.000000
0.297265 1.000000 0.009726
0.296426 1.000000 0.296426
0.295642 1.000000 0.564499
0.294881 1.000000 0.824542
0.294350 1.000000 1.000000
0.592690 0.036293 0.036293
0.591851 0.035455 0.322993
0.591067 0.034670 0.591067
0.590306 0.033909 0.851109
0.589774 0.033378 1.000000
0.584381 0.315523 0.027984
0.583542 0.314684 0.314684
0.582758 0.313900 0.582758
0.581997 0.313139 0.842800
0.581465 0.312608 1.000000
0.576611 0.576611 0.020215
0.575773 0.575773 0.306915
0.574988 0.574988 0.574988
0.574228 0.574228 0.835031
0.573696 0.573696 1.000000
0.569075 0.829879 0.012679
0.568236 0.829040 0.299379
0.567452 0.828256 0.567452
0.566691 0.827495 0.827495
0.566160 0.826964 1.000000
0.563813 1.000000 0.007417
0.562974 1.000000 0.294117
0.562190 1.000000 0.562190
0.561429 1.000000 0.822233
0.560898 1.000000 1.000000
0.851253 0.034053 0.034053
0.850414 0.033214 0.320753
0.849630 0.032430 0.588826
0.848869 0.031669 0.848869
0.848338 0.031138 1.000000
0.842944 0.313283 0.025744
0.842105 0.312444 0.312444
0.841321 0.311660 0.580517
0.840560 0.310899 0.840560
0.840029 0.310368 1.000000
0.835175 0.574371 0.017975
0.834336 0.573532 0.304675
0.833552 0.572748 0.572748
0.832791 0.571987 0.832791
0.832260 0.571456 1.000000
0.827639 0.827639 0.010438
0.826800 0.826800 0.297139
0.826015 0.826015 0.565212
0.825255 0.825255 0.825255
0.824723 0.824723 1.000000
0.822376 1.000000 0.005176
0.821537 1.000000 0.291876
0.820753 1.000000 0.559949
0.819992 1.000000 0.819992
0.819461 1.000000 1.000000
1.000000 0.032489 0.032489
1.000000 0.031650 0.319189
1.000000 0.030866 0.587262
1.000000 0.030105 0.847305
1.000000 0.029574 1.000000
1.000000 0.311719 0.024180
1.000000 0.310880 0.310880
1.000000 0.310096 0.578953
1.000000 0.309335 0.838996
1.000000 0.308804 1.000000
1.000000 0.572807 0.016411
1.000000 0.571968 0.303111
1.000000 0.571184 0.571184
1.000000 0.570423 0.831227
1.000000 0.569892 1.000000
1.000000 0.826074 0.008874
1.000000 0.825235 0.295574
1.000000 0.824451 0.563647
1.000000 0.823690 0.823690
1.000000 0.823159 1.000000
1.000000 1.000000 0.003612
1.000000 1.000000 0.290312
1.000000 1.000000 0.558385
1.000000 1.000000 0.818428
1.000000 1.000000 1.000000
