skills/editops-orchestrator/assets/grade/luts/clean_bright_v13.cube
TITLE "clean_bright_v13"
LUT_3D_SIZE 17
DOMAIN_MIN 0.0 0.0 0.0
DOMAIN_MAX 1.0 1.0 1.0
0.032646 0.032646 0.032646
0.032484 0.032484 0.105672
0.032329 0.032329 0.175816
0.032177 0.032177 0.244435
0.032027 0.032027 0.312012
0.031879 0.031879 0.378798
0.031733 0.031733 0.444948
0.031588 0.031588 0.510566
0.031443 0.031443 0.575728
0.031300 0.031300 0.640491
0.031157 0.031157 0.704900
0.031015 0.031015 0.768990
0.030874 0.030874 0.832792
0.030733 0.030733 0.896328
0.030593 0.030593 0.959621
0.030453 0.030453 1.000000
0.030441 0.030441 1.000000
0.031044 0.104232 0.031044
0.030882 0.104070 0.104070
0.030727 0.103914 0.174214
0.030575 0.103762 0.242833
0.030425 0.103613 0.310410
0.030277 0.103465 0.377196
0.030131 0.103318 0.443345
0.029985 0.103173 0.508963
0.029841 0.103029 0.574125
0.029697 0.102885 0.638889
0.029555 0.102743 0.703298
0.029413 0.102601 0.767388
0.029271 0.102459 0.831189
0.029131 0.102318 0.894726
0.028991 0.102178 0.958018
0.028851 0.102039 1.000000
0.028838 0.102026 1.000000
0.029505 0.172992 0.029505
0.029343 0.172830 0.102531
0.029188 0.172675 0.172675
0.029036 0.172523 0.241294
0.028886 0.172373 0.308871
0.028738 0.172225 0.375657
0.028591 0.172079 0.441806
0.028446 0.171933 0.507424
0.028302 0.171789 0.572586
0.028158 0.171646 0.637350
0.028016 0.171503 0.701759
0.027874 0.171361 0.765849
0.027732 0.171220 0.829650
0.027592 0.171079 0.893187
0.027451 0.170939 0.956479
0.027312 0.170799 1.000000
0.027299 0.170786 1.000000
0.027999 0.240257 0.027999
0.027837 0.240096 0.101025
0.027682 0.239940 0.171169
0.027530 0.239788 0.239788
0.027380 0.239639 0.307365
0.027232 0.239491 0.374151
0.027086 0.239344 0.440300
0.026940 0.239199 0.505919
0.026796 0.239054 0.571081
0.026653 0.238911 0.635844
0.026510 0.238768 0.700253
0.026368 0.238626 0.764343
0.026227 0.238485 0.828144
0.026086 0.238344 0.891681
0.025946 0.238204 0.954974
0.025806 0.238064 1.000000
0.025793 0.238052 1.000000
0.026516 0.306501 0.026516
0.026355 0.306339 0.099542
0.026199 0.306184 0.169686
0.026047 0.306032 0.238306
0.025897 0.305882 0.305882
0.025750 0.305734 0.372668
0.025603 0.305588 0.438818
0.025458 0.305442 0.504436
0.025313 0.305298 0.569598
0.025170 0.305155 0.634361
0.025027 0.305012 0.698770
0.024885 0.304870 0.762860
0.024744 0.304729 0.826662
0.024603 0.304588 0.890198
0.024463 0.304448 0.953491
0.024323 0.304308 1.000000
0.024311 0.304296 1.000000
0.025051 0.371969 0.025051
0.024889 0.371808 0.098077
0.024734 0.371652 0.168221
0.024582 0.371500 0.236840
0.024432 0.371351 0.304417
0.024284 0.371203 0.371203
0.024138 0.371056 0.437352
0.023992 0.370911 0.502970
0.023848 0.370766 0.568132
0.023704 0.370623 0.632896
0.023562 0.370480 0.697305
0.023420 0.370338 0.761395
0.023278 0.370197 0.825196
0.023138 0.370056 0.888733
0.022997 0.369916 0.952025
0.022858 0.369776 1.000000
0.022845 0.369764 1.000000
0.023599 0.436814 0.023599
0.023438 0.436652 0.096625
0.023282 0.436497 0.166769
0.023130 0.436345 0.235389
0.022981 0.436195 0.302965
0.022833 0.436047 0.369751
0.022686 0.435901 0.435901
0.022541 0.435755 0.501519
0.022396 0.435611 0.566681
0.022253 0.435468 0.631444
0.022110 0.435325 0.695853
0.021968 0.435183 0.759944
0.021827 0.435042 0.823745
0.021686 0.434901 0.887281
0.021546 0.434761 0.950574
0.021406 0.434621 1.000000
0.021394 0.434608 1.000000
0.022160 0.501138 0.022160
0.021998 0.500976 0.095186
0.021842 0.500821 0.165330
0.021690 0.500669 0.233949
0.021541 0.500519 0.301526
0.021393 0.500371 0.368311
0.021246 0.500224 0.434461
0.021101 0.500079 0.500079
0.020957 0.499935 0.565241
0.020813 0.499791 0.630004
0.020670 0.499649 0.694413
0.020528 0.499507 0.758504
0.020387 0.499365 0.822305
0.020246 0.499224 0.885841
0.020106 0.499084 0.949134
0.019966 0.498945 1.000000
0.019954 0.498932 1.000000
0.020730 0.565014 0.020730
0.020568 0.564853 0.093756
0.020413 0.564697 0.163900
0.020261 0.564545 0.232519
0.020111 0.564395 0.300096
0.019963 0.564248 0.366882
0.019816 0.564101 0.433031
0.019671 0.563956 0.498649
0.019527 0.563811 0.563811
0.019383 0.563668 0.628575
0.019241 0.563525 0.692984
0.019099 0.563383 0.757074
0.018957 0.563242 0.820875
0.018817 0.563101 0.884412
0.018676 0.562961 0.947704
0.018537 0.562821 1.000000
0.018524 0.562809 1.000000
0.019309 0.628500 0.019309
0.019147 0.628338 0.092335
0.018992 0.628183 0.162479
0.018840 0.628031 0.231098
0.018690 0.627881 0.298675
0.018542 0.627733 0.365460
0.018395 0.627587 0.431610
0.018250 0.627441 0.497228
0.018106 0.627297 0.562390
0.017962 0.627154 0.627154
0.017820 0.627011 0.691562
0.017678 0.626869 0.755653
0.017536 0.626728 0.819454
0.017396 0.626587 0.882991
0.017255 0.626447 0.946283
0.017116 0.626307 1.000000
0.017103 0.626294 1.000000
0.017895 0.691638 0.017895
0.017734 0.691477 0.090921
0.017578 0.691321 0.161065
0.017426 0.691169 0.229685
0.017277 0.691019 0.297261
0.017129 0.690872 0.364047
0.016982 0.690725 0.430197
0.016837 0.690580 0.495815
0.016692 0.690435 0.560977
0.016549 0.690292 0.625740
0.016406 0.690149 0.690149
0.016264 0.690007 0.754240
0.016123 0.689866 0.818041
0.015982 0.689725 0.881577
0.015842 0.689585 0.944870
0.015702 0.689445 1.000000
0.015690 0.689433 1.000000
0.016489 0.754464 0.016489
0.016327 0.754303 0.089515
0.016172 0.754147 0.159659
0.016020 0.753995 0.228278
0.015870 0.753846 0.295855
0.015722 0.753698 0.362641
0.015576 0.753551 0.428790
0.015430 0.753406 0.494409
0.015286 0.753261 0.559571
0.015143 0.753118 0.624334
0.015000 0.752975 0.688743
0.014858 0.752833 0.752833
0.014717 0.752692 0.816635
0.014576 0.752551 0.880171
0.014436 0.752411 0.943464
0.014296 0.752271 1.000000
0.014284 0.752259 1.000000
0.015089 0.817007 0.015089
0.014927 0.816845 0.088115
0.014772 0.816690 0.158259
0.014620 0.816538 0.226878
0.014470 0.816388 0.294455
0.014322 0.816240 0.361241
0.014176 0.816094 0.427391
0.014030 0.815948 0.493009
0.013886 0.815804 0.558171
0.013743 0.815661 0.622934
0.013600 0.815518 0.687343
0.013458 0.815376 0.751433
0.013317 0.815235 0.815235
0.013176 0.815094 0.878771
0.013036 0.814954 0.942064
0.012896 0.814814 1.000000
0.012884 0.814801 1.000000
0.013695 0.879290 0.013695
0.013533 0.879128 0.086721
0.013378 0.878973 0.156865
0.013226 0.878821 0.225484
0.013076 0.878671 0.293061
0.012928 0.878523 0.359847
0.012782 0.878377 0.425996
0.012636 0.878231 0.491614
0.012492 0.878087 0.556777
0.012349 0.877944 0.621540
0.012206 0.877801 0.685949
0.012064 0.877659 0.750039
0.011923 0.877518 0.813840
0.011782 0.877377 0.877377
0.011642 0.877237 0.940670
0.011502 0.877097 1.000000
0.011489 0.877085 1.000000
0.012306 0.941334 0.012306
0.012144 0.941172 0.085332
0.011989 0.941017 0.155476
0.011837 0.940865 0.224095
0.011687 0.940715 0.291672
0.011539 0.940567 0.358458
0.011393 0.940421 0.424608
0.011248 0.940275 0.490226
0.011103 0.940131 0.555388
0.010960 0.939988 0.620151
0.010817 0.939845 0.684560
0.010675 0.939703 0.748650
0.010534 0.939562 0.812452
0.010393 0.939421 0.875988
0.010253 0.939281 0.939281
0.010113 0.939141 1.000000
0.010101 0.939129 1.000000
0.010922 1.000000 0.010922
0.010761 1.000000 0.083948
0.010605 1.000000 0.154092
0.010453 1.000000 0.222712
0.010304 1.000000 0.290288
0.010156 1.000000 0.357074
0.010009 1.000000 0.423224
0.009864 1.000000 0.488842
0.009719 1.000000 0.554004
0.009576 1.000000 0.618767
0.009433 1.000000 0.683176
0.009291 1.000000 0.747267
0.009150 1.000000 0.811068
0.009009 1.000000 0.874604
0.008869 1.000000 0.937897
0.008729 1.000000 1.000000
0.008717 1.000000 1.000000
0.010798 1.000000 0.010798
0.010637 1.000000 0.083824
0.010481 1.000000 0.153968
0.010329 1.000000 0.222588
0.010179 1.000000 0.290164
0.010032 1.000000 0.356950
0.009885 1.000000 0.423100
0.009740 1.000000 0.488718
0.009595 1.000000 0.553880
0.009452 1.000000 0.618643
0.009309 1.000000 0.683052
0.009167 1.000000 0.747142
0.009026 1.000000 0.810944
0.008885 1.000000 0.874480
0.008745 1.000000 0.937773
0.008605 1.000000 1.000000
0.008593 1.000000 1.000000
0.105358 0.032170 0.032170
0.105196 0.032008 0.105196
0.105041 0.031853 0.175340
0.104889 0.031701 0.243959
0.104739 0.031551 0.311536
0.104591 0.031403 0.378322
0.104444 0.031257 0.444471
0.104299 0.031111 0.510089
0.104155 0.030967 0.575252
0.104011 0.030823 0.640015
0.103869 0.030681 0.704424
0.103727 0.030539 0.768514
0.103585 0.030398 0.832315
0.103445 0.030257 0.895852
0.103304 0.030117 0.959144
0.103165 0.029977 1.000000
0.103152 0.029964 1.000000
0.103755 0.103755 0.030568
0.103594 0.103594 0.103594
0.103438 0.103438 0.173738
0.103286 0.103286 0.242357
0.103136 0.103136 0.309934
0.102989 0.102989 0.376719
0.102842 0.102842 0.442869
0.102697 0.102697 0.508487
0.102552 0.102552 0.573649
0.102409 0.102409 0.638412
0.102266 0.102266 0.702821
0.102124 0.102124 0.766912
0.101983 0.101983 0.830713
0.101842 0.101842 0.894249
0.101702 0.101702 0.957542
0.101562 0.101562 1.000000
0.101550 0.101550 1.000000
0.102216 0.172516 0.029028
0.102054 0.172354 0.102054
0.101899 0.172199 0.172199
0.101747 0.172047 0.240818
0.101597 0.171897 0.308394
0.101449 0.171749 0.375180
0.101303 0.171602 0.441330
0.101158 0.171457 0.506948
0.101013 0.171313 0.572110
0.100870 0.171169 0.636873
0.100727 0.171027 0.701282
0.100585 0.170885 0.765373
0.100444 0.170743 0.829174
0.100303 0.170603 0.892710
0.100163 0.170462 0.956003
0.100023 0.170323 1.000000
0.100011 0.170310 1.000000
0.100711 0.239781 0.027523
0.100549 0.239619 0.100549
0.100393 0.239464 0.170693
0.100241 0.239312 0.239312
0.100092 0.239162 0.306889
0.099944 0.239014 0.373675
0.099797 0.238868 0.439824
0.099652 0.238723 0.505442
0.099508 0.238578 0.570604
0.099364 0.238435 0.635368
0.099221 0.238292 0.699777
0.099079 0.238150 0.763867
0.098938 0.238009 0.827668
0.098797 0.237868 0.891205
0.098657 0.237728 0.954497
0.098517 0.237588 1.000000
0.098505 0.237576 1.000000
0.099228 0.306025 0.026040
0.099066 0.305863 0.099066
0.098911 0.305708 0.169210
0.098759 0.305556 0.237829
0.098609 0.305406 0.305406
0.098461 0.305258 0.372192
0.098314 0.305111 0.438341
0.098169 0.304966 0.503959
0.098025 0.304822 0.569122
0.097881 0.304678 0.633885
0.097739 0.304536 0.698294
0.097597 0.304394 0.762384
0.097455 0.304252 0.826185
0.097315 0.304112 0.889722
0.097174 0.303971 0.953014
0.097035 0.303832 1.000000
0.097022 0.303819 1.000000
0.097762 0.371493 0.024575
0.097601 0.371331 0.097601
0.097445 0.371176 0.167745
0.097293 0.371024 0.236364
0.097143 0.370874 0.303940
0.096996 0.370726 0.370726
0.096849 0.370580 0.436876
0.096704 0.370434 0.502494
0.096559 0.370290 0.567656
0.096416 0.370147 0.632419
0.096273 0.370004 0.696828
0.096131 0.369862 0.760919
0.095990 0.369721 0.824720
0.095849 0.369580 0.888256
0.095709 0.369440 0.951549
0.095569 0.369300 1.000000
0.095557 0.369287 1.000000
0.096311 0.436338 0.023123
0.096149 0.436176 0.096149
0.095994 0.436021 0.166293
0.095842 0.435869 0.234912
0.095692 0.435719 0.302489
0.095544 0.435571 0.369275
0.095398 0.435424 0.435424
0.095252 0.435279 0.501042
0.095108 0.435135 0.566205
0.094964 0.434991 0.630968
0.094822 0.434849 0.695377
0.094680 0.434707 0.759467
0.094538 0.434565 0.823268
0.094398 0.434425 0.886805
0.094257 0.434284 0.950098
0.094118 0.434145 1.000000
0.094105 0.434132 1.000000
0.094871 0.500661 0.021683
0.094709 0.500500 0.094709
0.094554 0.500344 0.164853
0.094402 0.500192 0.233472
0.094252 0.500042 0.301049
0.094104 0.499895 0.367835
0.093958 0.499748 0.433985
0.093812 0.499603 0.499603
0.093668 0.499458 0.564765
0.093525 0.499315 0.629528
0.093382 0.499172 0.693937
0.093240 0.499030 0.758027
0.093099 0.498889 0.821829
0.092958 0.498748 0.885365
0.092818 0.498608 0.948658
0.092678 0.498468 1.000000
0.092665 0.498456 1.000000
0.093441 0.564538 0.020253
0.093279 0.564376 0.093279
0.093124 0.564221 0.163424
0.092972 0.564069 0.232043
0.092822 0.563919 0.299619
0.092674 0.563771 0.366405
0.092528 0.563625 0.432555
0.092383 0.563479 0.498173
0.092238 0.563335 0.563335
0.092095 0.563192 0.628098
0.091952 0.563049 0.692507
0.091810 0.562907 0.756598
0.091669 0.562766 0.820399
0.091528 0.562625 0.883935
0.091388 0.562485 0.947228
0.091248 0.562345 1.000000
0.091236 0.562332 1.000000
0.092020 0.628024 0.018832
0.091858 0.627862 0.091858
0.091703 0.627706 0.162002
0.091551 0.627554 0.230622
0.091401 0.627405 0.298198
0.091253 0.627257 0.364984
0.091107 0.627110 0.431134
0.090961 0.626965 0.496752
0.090817 0.626821 0.561914
0.090674 0.626677 0.626677
0.090531 0.626535 0.691086
0.090389 0.626393 0.755177
0.090248 0.626251 0.818978
0.090107 0.626110 0.882514
0.089967 0.625970 0.945807
0.089827 0.625831 1.000000
0.089815 0.625818 1.000000
0.090607 0.691162 0.017419
0.090445 0.691000 0.090445
0.090290 0.690845 0.160589
0.090138 0.690693 0.229208
0.089988 0.690543 0.296785
0.089840 0.690395 0.363571
0.089694 0.690249 0.429720
0.089548 0.690103 0.495339
0.089404 0.689959 0.560501
0.089260 0.689816 0.625264
0.089118 0.689673 0.689673
0.088976 0.689531 0.753763
0.088834 0.689390 0.817564
0.088694 0.689249 0.881101
0.088553 0.689109 0.944394
0.088414 0.688969 1.000000
0.088401 0.688956 1.000000
0.089201 0.753988 0.016013
0.089039 0.753826 0.089039
0.088883 0.753671 0.159183
0.088731 0.753519 0.227802
0.088582 0.753369 0.295379
0.088434 0.753221 0.362165
0.088287 0.753075 0.428314
0.088142 0.752929 0.493932
0.087998 0.752785 0.559094
0.087854 0.752642 0.623858
0.087711 0.752499 0.688267
0.087569 0.752357 0.752357
0.087428 0.752216 0.816158
0.087287 0.752075 0.879695
0.087147 0.751935 0.942987
0.087007 0.751795 1.000000
0.086995 0.751782 1.000000
0.087801 0.816531 0.014613
0.087639 0.816369 0.087639
0.087483 0.816214 0.157783
0.087331 0.816062 0.226402
0.087182 0.815912 0.293979
0.087034 0.815764 0.360765
0.086887 0.815617 0.426914
0.086742 0.815472 0.492532
0.086598 0.815328 0.557694
0.086454 0.815184 0.622458
0.086311 0.815042 0.686867
0.086169 0.814900 0.750957
0.086028 0.814758 0.814758
0.085887 0.814617 0.878295
0.085747 0.814477 0.941587
0.085608 0.814338 1.000000
0.085595 0.814325 1.000000
0.086406 0.878814 0.013219
0.086245 0.878652 0.086245
0.086089 0.878497 0.156389
0.085937 0.878345 0.225008
0.085788 0.878195 0.292585
0.085640 0.878047 0.359370
0.085493 0.877900 0.425520
0.085348 0.877755 0.491138
0.085203 0.877611 0.556300
0.085060 0.877467 0.621064
0.084917 0.877325 0.685472
0.084775 0.877183 0.749563
0.084634 0.877041 0.813364
0.084493 0.876901 0.876901
0.084353 0.876760 0.940193
0.084213 0.876621 1.000000
0.084201 0.876608 1.000000
0.085018 0.940858 0.011830
0.084856 0.940696 0.084856
0.084701 0.940541 0.155000
0.084549 0.940389 0.223619
0.084399 0.940239 0.291196
0.084251 0.940091 0.357982
0.084104 0.939944 0.424131
0.083959 0.939799 0.489749
0.083815 0.939655 0.554911
0.083671 0.939511 0.619675
0.083529 0.939369 0.684084
0.083387 0.939227 0.748174
0.083245 0.939085 0.811975
0.083104 0.938945 0.875512
0.082964 0.938804 0.938804
0.082825 0.938665 1.000000
0.082812 0.938652 1.000000
0.083634 1.000000 0.010446
0.083472 1.000000 0.083472
0.083317 1.000000 0.153616
0.083165 1.000000 0.222235
0.083015 1.000000 0.289812
0.082867 1.000000 0.356598
0.082721 1.000000 0.422747
0.082575 1.000000 0.488366
0.082431 1.000000 0.553528
0.082287 1.000000 0.618291
0.082145 1.000000 0.682700
0.082003 1.000000 0.746790
0.081861 1.000000 0.810591
0.081721 1.000000 0.874128
0.081580 1.000000 0.937421
0.081441 1.000000 1.000000
0.081428 1.000000 1.000000
0.083510 1.000000 0.010322
0.083348 1.000000 0.083348
0.083193 1.000000 0.153492
0.083041 1.000000 0.222111
0.082891 1.000000 0.289688
0.082743 1.000000 0.356474
0.082596 1.000000 0.422623
0.082451 1.000000 0.488241
0.082307 1.000000 0.553404
0.082163 1.000000 0.618167
0.082021 1.000000 0.682576
0.081879 1.000000 0.746666
0.081737 1.000000 0.810467
0.081597 1.000000 0.874004
0.081456 1.000000 0.937296
0.081317 1.000000 1.000000
0.081304 1.000000 1.000000
0.175200 0.031712 0.031712
0.175038 0.031551 0.104738
0.174883 0.031395 0.174883
0.174731 0.031243 0.243502
0.174581 0.031094 0.311078
0.174433 0.030946 0.377864
0.174286 0.030799 0.444014
0.174141 0.030654 0.509632
0.173997 0.030509 0.574794
0.173853 0.030366 0.639557
0.173711 0.030223 0.703966
0.173569 0.030081 0.768057
0.173427 0.029940 0.831858
0.173286 0.029799 0.895394
0.173146 0.029659 0.958687
0.173007 0.029519 1.000000
0.172994 0.029507 1.000000
0.173597 0.103298 0.030110
0.173436 0.103136 0.103136
0.173280 0.102981 0.173280
0.173128 0.102829 0.241899
0.172978 0.102679 0.309476
0.172831 0.102531 0.376262
0.172684 0.102384 0.442411
0.172539 0.102239 0.508029
0.172394 0.102095 0.573192
0.172251 0.101951 0.637955
0.172108 0.101809 0.702364
0.171966 0.101667 0.766454
0.171825 0.101525 0.830255
0.171684 0.101385 0.893792
0.171544 0.101244 0.957085
0.171404 0.101105 1.000000
0.171392 0.101092 1.000000
0.172058 0.172058 0.028571
0.171896 0.171896 0.101597
0.171741 0.171741 0.171741
0.171589 0.171589 0.240360
0.171439 0.171439 0.307937
0.171291 0.171291 0.374723
0.171145 0.171145 0.440872
0.171000 0.171000 0.506490
0.170855 0.170855 0.571652
0.170712 0.170712 0.636416
0.170569 0.170569 0.700825
0.170427 0.170427 0.764915
0.170286 0.170286 0.828716
0.170145 0.170145 0.892253
0.170005 0.170005 0.955545
0.169865 0.169865 1.000000
0.169853 0.169853 1.000000
0.170552 0.239324 0.027065
0.170391 0.239162 0.100091
0.170235 0.239006 0.170235
0.170083 0.238855 0.238855
0.169934 0.238705 0.306431
0.169786 0.238557 0.373217
0.169639 0.238410 0.439367
0.169494 0.238265 0.504985
0.169349 0.238121 0.570147
0.169206 0.237977 0.634910
0.169063 0.237835 0.699319
0.168921 0.237693 0.763409
0.168780 0.237551 0.827211
0.168639 0.237410 0.890747
0.168499 0.237270 0.954040
0.168359 0.237131 1.000000
0.168347 0.237118 1.000000
0.169070 0.305567 0.025582
0.168908 0.305405 0.098608
0.168753 0.305250 0.168753
0.168601 0.305098 0.237372
0.168451 0.304948 0.304948
0.168303 0.304800 0.371734
0.168156 0.304654 0.437884
0.168011 0.304509 0.503502
0.167867 0.304364 0.568664
0.167723 0.304221 0.633427
0.167581 0.304078 0.697836
0.167439 0.303936 0.761927
0.167297 0.303795 0.825728
0.167157 0.303654 0.889264
0.167016 0.303514 0.952557
0.166877 0.303374 1.000000
0.166864 0.303362 1.000000
0.167604 0.371036 0.024117
0.167442 0.370874 0.097143
0.167287 0.370718 0.167287
0.167135 0.370566 0.235906
0.166985 0.370417 0.303483
0.166837 0.370269 0.370269
0.166691 0.370122 0.436418
0.166546 0.369977 0.502036
0.166401 0.369833 0.567199
0.166258 0.369689 0.631962
0.166115 0.369546 0.696371
0.165973 0.369404 0.760461
0.165832 0.369263 0.824262
0.165691 0.369122 0.887799
0.165551 0.368982 0.951092
0.165411 0.368843 1.000000
0.165399 0.368830 1.000000
0.166153 0.435880 0.022666
0.165991 0.435718 0.095692
0.165836 0.435563 0.165836
0.165684 0.435411 0.234455
0.165534 0.435261 0.302031
0.165386 0.435113 0.368817
0.165239 0.434967 0.434967
0.165094 0.434822 0.500585
0.164950 0.434677 0.565747
0.164806 0.434534 0.630510
0.164664 0.434391 0.694919
0.164522 0.434249 0.759010
0.164380 0.434108 0.822811
0.164240 0.433967 0.886347
0.164099 0.433827 0.949640
0.163960 0.433687 1.000000
0.163947 0.433675 1.000000
0.164713 0.500204 0.021226
0.164551 0.500042 0.094252
0.164396 0.499887 0.164396
0.164244 0.499735 0.233015
0.164094 0.499585 0.300592
0.163946 0.499437 0.367377
0.163800 0.499291 0.433527
0.163654 0.499145 0.499145
0.163510 0.499001 0.564307
0.163367 0.498857 0.629071
0.163224 0.498715 0.693479
0.163082 0.498573 0.757570
0.162941 0.498431 0.821371
0.162800 0.498291 0.884908
0.162660 0.498150 0.948200
0.162520 0.498011 1.000000
0.162507 0.497998 1.000000
0.163283 0.564080 0.019796
0.163121 0.563919 0.092822
0.162966 0.563763 0.162966
0.162814 0.563611 0.231585
0.162664 0.563462 0.299162
0.162516 0.563314 0.365948
0.162370 0.563167 0.432097
0.162224 0.563022 0.497715
0.162080 0.562877 0.562877
0.161937 0.562734 0.627641
0.161794 0.562591 0.692050
0.161652 0.562449 0.756140
0.161511 0.562308 0.819941
0.161370 0.562167 0.883478
0.161230 0.562027 0.946770
0.161090 0.561887 1.000000
0.161078 0.561875 1.000000
0.161862 0.627566 0.018375
0.161700 0.627404 0.091401
0.161545 0.627249 0.161545
0.161393 0.627097 0.230164
0.161243 0.626947 0.297741
0.161095 0.626799 0.364527
0.160949 0.626653 0.430676
0.160803 0.626507 0.496294
0.160659 0.626363 0.561456
0.160516 0.626220 0.626220
0.160373 0.626077 0.690629
0.160231 0.625935 0.754719
0.160090 0.625794 0.818520
0.159949 0.625653 0.882057
0.159809 0.625513 0.945349
0.159669 0.625373 1.000000
0.159657 0.625361 1.000000
0.160449 0.690704 0.016962
0.160287 0.690543 0.089988
0.160132 0.690387 0.160132
0.159980 0.690235 0.228751
0.159830 0.690086 0.296328
0.159682 0.689938 0.363113
0.159536 0.689791 0.429263
0.159390 0.689646 0.494881
0.159246 0.689501 0.560043
0.159102 0.689358 0.624806
0.158960 0.689215 0.689215
0.158818 0.689073 0.753306
0.158676 0.688932 0.817107
0.158536 0.688791 0.880643
0.158395 0.688651 0.943936
0.158256 0.688511 1.000000
0.158243 0.688499 1.000000
0.159042 0.753531 0.015555
0.158881 0.753369 0.088581
0.158725 0.753213 0.158725
0.158573 0.753061 0.227345
0.158424 0.752912 0.294921
0.158276 0.752764 0.361707
0.158129 0.752617 0.427857
0.157984 0.752472 0.493475
0.157840 0.752328 0.558637
0.157696 0.752184 0.623400
0.157553 0.752041 0.687809
0.157411 0.751899 0.751899
0.157270 0.751758 0.815701
0.157129 0.751617 0.879237
0.156989 0.751477 0.942530
0.156849 0.751337 1.000000
0.156837 0.751325 1.000000
0.157643 0.816073 0.014155
0.157481 0.815911 0.087181
0.157325 0.815756 0.157325
0.157173 0.815604 0.225945
0.157024 0.815454 0.293521
0.156876 0.815306 0.360307
0.156729 0.815160 0.426457
0.156584 0.815014 0.492075
0.156440 0.814870 0.557237
0.156296 0.814727 0.622000
0.156153 0.814584 0.686409
0.156011 0.814442 0.750499
0.155870 0.814301 0.814301
0.155729 0.814160 0.877837
0.155589 0.814020 0.941130
0.155450 0.813880 1.000000
0.155437 0.813868 1.000000
0.156248 0.878356 0.012761
0.156087 0.878194 0.085787
0.155931 0.878039 0.155931
0.155779 0.877887 0.224550
0.155630 0.877737 0.292127
0.155482 0.877589 0.358913
0.155335 0.877443 0.425063
0.155190 0.877298 0.490681
0.155045 0.877153 0.555843
0.154902 0.877010 0.620606
0.154759 0.876867 0.685015
0.154617 0.876725 0.749105
0.154476 0.876584 0.812907
0.154335 0.876443 0.876443
0.154195 0.876303 0.939736
0.154055 0.876163 1.000000
0.154043 0.876151 1.000000
0.154860 0.940400 0.011372
0.154698 0.940238 0.084398
0.154542 0.940083 0.154542
0.154390 0.939931 0.223162
0.154241 0.939781 0.290738
0.154093 0.939633 0.357524
0.153946 0.939487 0.423674
0.153801 0.939342 0.489292
0.153657 0.939197 0.554454
0.153513 0.939054 0.619217
0.153371 0.938911 0.683626
0.153229 0.938769 0.747717
0.153087 0.938628 0.811518
0.152946 0.938487 0.875054
0.152806 0.938347 0.938347
0.152667 0.938207 1.000000
0.152654 0.938195 1.000000
0.153476 1.000000 0.009989
0.153314 1.000000 0.083015
0.153159 1.000000 0.153159
0.153007 1.000000 0.221778
0.152857 1.000000 0.289355
0.152709 1.000000 0.356140
0.152563 1.000000 0.422290
0.152417 1.000000 0.487908
0.152273 1.000000 0.553070
0.152129 1.000000 0.617833
0.151987 1.000000 0.682242
0.151845 1.000000 0.746333
0.151703 1.000000 0.810134
0.151563 1.000000 0.873670
0.151422 1.000000 0.936963
0.151283 1.000000 1.000000
0.151270 1.000000 1.000000
0.153352 1.000000 0.009864
0.153190 1.000000 0.082890
0.153035 1.000000 0.153035
0.152883 1.000000 0.221654
0.152733 1.000000 0.289230
0.152585 1.000000 0.356016
0.152438 1.000000 0.422166
0.152293 1.000000 0.487784
0.152149 1.000000 0.552946
0.152005 1.000000 0.617709
0.151863 1.000000 0.682118
0.151721 1.000000 0.746209
0.151579 1.000000 0.810010
0.151439 1.000000 0.873546
0.151298 1.000000 0.936839
0.151159 1.000000 0.999905
0.151146 1.000000 1.000000
0.243523 0.031265 0.031265
0.243361 0.031103 0.104291
0.243206 0.030948 0.174435
0.243054 0.030796 0.243054
0.242904 0.030646 0.310631
0.242756 0.030498 0.377417
0.242610 0.030352 0.443566
0.242465 0.030206 0.509184
0.242320 0.030062 0.574346
0.242177 0.029918 0.639110
0.242034 0.029776 0.703519
0.241892 0.029634 0.767609
0.241751 0.029492 0.831410
0.241610 0.029352 0.894947
0.241470 0.029211 0.958239
0.241330 0.029072 1.000000
0.241318 0.029059 1.000000
0.241921 0.102850 0.029662
