skills/editops-orchestrator/assets/grade/luts/clean_bright_v09.cube
TITLE "clean_bright_v09"
LUT_3D_SIZE 5
DOMAIN_MIN 0.0 0.0 0.0
DOMAIN_MAX 1.0 1.0 1.0
0.024811 0.024811 0.024811
0.024406 0.024406 0.296634
0.024020 0.024020 0.555848
0.023641 0.023641 0.809786
0.023329 0.023329 1.000000
0.020797 0.293025 0.020797
0.020392 0.292620 0.292620
0.020005 0.292234 0.551834
0.019627 0.291855 0.805772
0.019315 0.291543 1.000000
0.016969 0.548798 0.016969
0.016564 0.548392 0.288792
0.016177 0.548006 0.548006
0.015799 0.547627 0.801944
0.015487 0.547315 1.000000
0.013219 0.799364 0.013219
0.012813 0.798959 0.285042
0.012427 0.798572 0.544256
0.012048 0.798193 0.798193
0.011736 0.797881 1.000000
0.010128 1.000000 0.010128
0.009723 1.000000 0.281951
0.009336 1.000000 0.541165
0.008958 1.000000 0.795103
0.008646 1.000000 1.000000
0.295846 0.023618 0.023618
0.295441 0.023213 0.295441
0.295055 0.022826 0.554655
0.294676 0.022448 0.808593
0.294364 0.022136 1.000000
0.291832 0.291832 0.019604
0.291427 0.291427 0.291427
0.291040 0.291040 0.550641
0.290662 0.290662 0.804579
0.290350 0.290350 1.000000
0.288004 0.547604 0.015776
0.287599 0.547199 0.287599
0.287212 0.546813 0.546813
0.286834 0.546434 0.800750
0.286522 0.546122 1.000000
0.284254 0.798170 0.012025
0.283848 0.797765 0.283848
0.283462 0.797379 0.543062
0.283083 0.797000 0.797000
0.282771 0.796688 1.000000
0.281163 1.000000 0.008935
0.280758 1.000000 0.280758
0.280371 1.000000 0.539972
0.279993 1.000000 0.793910
0.279681 1.000000 1.000000
0.554309 0.022480 0.022480
0.553904 0.022075 0.294303
0.553517 0.021688 0.553517
0.553139 0.021310 0.807455
0.552827 0.020998 1.000000
0.550295 0.290694 0.018466
0.549889 0.290289 0.290289
0.549503 0.289902 0.549503
0.549124 0.289524 0.803441
0.548812 0.289212 1.000000
0.546466 0.546466 0.014638
0.546061 0.546061 0.286461
0.545675 0.545675 0.545675
0.545296 0.545296 0.799612
0.544984 0.544984 1.000000
0.542716 0.797033 0.010887
0.542311 0.796627 0.282710
0.541924 0.796241 0.541924
0.541546 0.795862 0.795862
0.541234 0.795550 1.000000
0.539626 1.000000 0.007797
0.539220 1.000000 0.279620
0.538834 1.000000 0.538834
0.538455 1.000000 0.792772
0.538143 1.000000 1.000000
0.807511 0.021365 0.021365
0.807105 0.020960 0.293188
0.806719 0.020574 0.552402
0.806340 0.020195 0.806340
0.806028 0.019883 1.000000
0.803496 0.289579 0.017351
0.803091 0.289174 0.289174
0.802704 0.288788 0.548388
0.802326 0.288409 0.802326
0.802014 0.288097 1.000000
0.799668 0.545352 0.013523
0.799263 0.544946 0.285346
0.798876 0.544560 0.544560
0.798498 0.544181 0.798498
0.798186 0.543869 1.000000
0.795918 0.795918 0.009773
0.795512 0.795512 0.281596
0.795126 0.795126 0.540810
0.794747 0.794747 0.794747
0.794435 0.794435 1.000000
0.792827 1.000000 0.006682
0.792422 1.000000 0.278505
0.792036 1.000000 0.537719
0.791657 1.000000 0.791657
0.791345 1.000000 1.000000
1.000000 0.020447 0.020447
1.000000 0.020041 0.292270
1.000000 0.019655 0.551484
1.000000 0.019276 0.805422
1.000000 0.018964 1.000000
1.000000 0.288661 0.016432
1.000000 0.288255 0.288255
1.000000 0.287869 0.547469
1.000000 0.287490 0.801407
1.000000 0.287178 1.000000
1.000000 0.544433 0.012604
1.000000 0.544028 0.284427
1.000000 0.543641 0.543641
1.000000 0.543263 0.797579
1.000000 0.542951 1.000000
1.000000 0.794999 0.008854
1.000000 0.794594 0.280677
1.000000 0.794207 0.539891
1.000000 0.793829 0.793829
1.000000 0.793517 1.000000
1.000000 1.000000 0.005763
1.000000 1.000000 0.277586
1.000000 1.000000 0.536800
1.000000 1.000000 0.790738
1.000000 1.000000 1.000000
