skills/editops-orchestrator/assets/grade/luts/clean_bright_v04.cube
TITLE "clean_bright_v04"
LUT_3D_SIZE 5
DOMAIN_MIN 0.0 0.0 0.0
DOMAIN_MAX 1.0 1.0 1.0
0.015867 0.015867 0.015867
0.015719 0.015719 0.277979
0.015576 0.015576 0.531376
0.015434 0.015434 0.781209
0.015306 0.015306 1.000000
0.014398 0.276658 0.014398
0.014250 0.276509 0.276509
0.014107 0.276366 0.529907
0.013965 0.276225 0.779740
0.013837 0.276097 1.000000
0.012978 0.528779 0.012978
0.012830 0.528630 0.275089
0.012686 0.528487 0.528487
0.012545 0.528346 0.778319
0.012417 0.528218 1.000000
0.011577 0.777352 0.011577
0.011429 0.777204 0.273689
0.011286 0.777060 0.527087
0.011144 0.776919 0.776919
0.011017 0.776791 1.000000
0.010311 1.000000 0.010311
0.010162 1.000000 0.272422
0.010019 1.000000 0.525820
0.009878 1.000000 0.775652
0.009750 1.000000 1.000000
0.277690 0.015431 0.015431
0.277542 0.015282 0.277542
0.277398 0.015139 0.530940
0.277257 0.014998 0.780772
0.277129 0.014870 1.000000
0.276221 0.276221 0.013961
0.276073 0.276073 0.276073
0.275929 0.275929 0.529471
0.275788 0.275788 0.779303
0.275660 0.275660 1.000000
0.274801 0.528342 0.012541
0.274652 0.528194 0.274652
0.274509 0.528050 0.528050
0.274367 0.527909 0.777883
0.274240 0.527781 1.000000
0.273400 0.776915 0.011141
0.273252 0.776767 0.273252
0.273108 0.776624 0.526650
0.272967 0.776482 0.776482
0.272839 0.776354 1.000000
0.272133 1.000000 0.009874
0.271985 1.000000 0.271985
0.271842 1.000000 0.525383
0.271700 1.000000 0.775216
0.271572 1.000000 1.000000
0.530809 0.015008 0.015008
0.530661 0.014860 0.277120
0.530518 0.014717 0.530518
0.530376 0.014575 0.780350
0.530248 0.014448 1.000000
0.529340 0.275799 0.013539
0.529192 0.275650 0.275650
0.529048 0.275507 0.529048
0.528907 0.275366 0.778881
0.528779 0.275238 1.000000
0.527920 0.527920 0.012119
0.527771 0.527771 0.274230
0.527628 0.527628 0.527628
0.527487 0.527487 0.777460
0.527359 0.527359 1.000000
0.526519 0.776493 0.010719
0.526371 0.776345 0.272830
0.526228 0.776201 0.526228
0.526086 0.776060 0.776060
0.525958 0.775932 1.000000
0.525253 1.000000 0.009452
0.525104 1.000000 0.271563
0.524961 1.000000 0.524961
0.524819 1.000000 0.774793
0.524692 1.000000 1.000000
0.780367 0.014592 0.014592
0.780219 0.014444 0.276703
0.780075 0.014300 0.530101
0.779934 0.014159 0.779934
0.779806 0.014031 1.000000
0.778898 0.275382 0.013123
0.778749 0.275234 0.275234
0.778606 0.275091 0.528632
0.778465 0.274949 0.778465
0.778337 0.274821 1.000000
0.777477 0.527503 0.011703
0.777329 0.527355 0.273814
0.777186 0.527212 0.527212
0.777044 0.527070 0.777044
0.776916 0.526942 1.000000
0.776077 0.776077 0.010302
0.775929 0.775929 0.272413
0.775785 0.775785 0.525811
0.775644 0.775644 0.775644
0.775516 0.775516 1.000000
0.774810 1.000000 0.009035
0.774662 1.000000 0.271147
0.774518 1.000000 0.524545
0.774377 1.000000 0.774377
0.774249 1.000000 1.000000
1.000000 0.014216 0.014216
1.000000 0.014067 0.276327
1.000000 0.013924 0.529725
1.000000 0.013783 0.779557
1.000000 0.013655 1.000000
1.000000 0.275006 0.012746
1.000000 0.274858 0.274858
1.000000 0.274714 0.528255
1.000000 0.274573 0.778088
1.000000 0.274445 1.000000
1.000000 0.527127 0.011326
1.000000 0.526979 0.273437
1.000000 0.526835 0.526835
1.000000 0.526694 0.776668
1.000000 0.526566 1.000000
1.000000 0.775700 0.009926
1.000000 0.775552 0.272037
1.000000 0.775409 0.525435
1.000000 0.775267 0.775267
1.000000 0.775139 1.000000
1.000000 1.000000 0.008659
1.000000 1.000000 0.270770
1.000000 1.000000 0.524168
1.000000 1.000000 0.774000
1.000000 1.000000 1.000000
