skills/editops-orchestrator/assets/grade/luts/clean_bright_v03.cube
TITLE "clean_bright_v03"
LUT_3D_SIZE 17
DOMAIN_MIN 0.0 0.0 0.0
DOMAIN_MAX 1.0 1.0 1.0
0.014194 0.014194 0.014194
0.014169 0.014169 0.080959
0.014144 0.014144 0.146100
0.014120 0.014120 0.210470
0.014096 0.014096 0.274326
0.014072 0.014072 0.337795
0.014048 0.014048 0.400954
0.014024 0.014024 0.463856
0.014000 0.014000 0.526537
0.013977 0.013977 0.589024
0.013953 0.013953 0.651340
0.013930 0.013930 0.713501
0.013906 0.013906 0.775523
0.013883 0.013883 0.837415
0.013859 0.013859 0.899190
0.013836 0.013836 0.960854
0.013819 0.013819 1.000000
0.013944 0.080734 0.013944
0.013919 0.080709 0.080709
0.013894 0.080685 0.145850
0.013870 0.080660 0.210220
0.013846 0.080636 0.274075
0.013822 0.080612 0.337544
0.013798 0.080588 0.400704
0.013774 0.080564 0.463606
0.013750 0.080541 0.526286
0.013727 0.080517 0.588774
0.013703 0.080493 0.651090
0.013679 0.080470 0.713251
0.013656 0.080447 0.775273
0.013633 0.080423 0.837165
0.013609 0.080400 0.898940
0.013586 0.080376 0.960604
0.013569 0.080360 1.000000
0.013700 0.145656 0.013700
0.013675 0.145631 0.080465
0.013650 0.145606 0.145606
0.013626 0.145582 0.209976
0.013602 0.145558 0.273831
0.013578 0.145534 0.337300
0.013554 0.145510 0.400460
0.013530 0.145486 0.463362
0.013506 0.145462 0.526042
0.013483 0.145439 0.588530
0.013459 0.145415 0.650846
0.013435 0.145392 0.713007
0.013412 0.145368 0.775028
0.013389 0.145345 0.836921
0.013365 0.145321 0.898696
0.013342 0.145298 0.960360
0.013325 0.145281 1.000000
0.013459 0.209809 0.013459
0.013434 0.209784 0.080224
0.013409 0.209759 0.145365
0.013385 0.209735 0.209735
0.013360 0.209711 0.273590
0.013336 0.209687 0.337059
0.013313 0.209663 0.400219
0.013289 0.209639 0.463121
0.013265 0.209615 0.525801
0.013241 0.209592 0.588289
0.013218 0.209568 0.650605
0.013194 0.209545 0.712766
0.013171 0.209521 0.774787
0.013147 0.209498 0.836680
0.013124 0.209474 0.898455
0.013101 0.209451 0.960119
0.013084 0.209435 1.000000
0.013220 0.273450 0.013220
0.013194 0.273424 0.079985
0.013170 0.273400 0.145126
0.013145 0.273375 0.209496
0.013121 0.273351 0.273351
0.013097 0.273327 0.336820
0.013073 0.273303 0.399980
0.013050 0.273279 0.462881
0.013026 0.273256 0.525562
0.013002 0.273232 0.588050
0.012979 0.273209 0.650365
0.012955 0.273185 0.712527
0.012932 0.273162 0.774548
0.012908 0.273138 0.836441
0.012885 0.273115 0.898215
0.012862 0.273092 0.959880
0.012845 0.273075 1.000000
0.012982 0.336705 0.012982
0.012957 0.336680 0.079747
0.012932 0.336655 0.144888
0.012908 0.336631 0.209258
0.012883 0.336606 0.273113
0.012859 0.336582 0.336582
0.012836 0.336558 0.399742
0.012812 0.336535 0.462644
0.012788 0.336511 0.525324
0.012764 0.336487 0.587812
0.012741 0.336464 0.650128
0.012717 0.336440 0.712289
0.012694 0.336417 0.774310
0.012671 0.336393 0.836203
0.012647 0.336370 0.897978
0.012624 0.336347 0.959642
0.012607 0.336330 1.000000
0.012745 0.399652 0.012745
0.012720 0.399626 0.079510
0.012695 0.399602 0.144651
0.012671 0.399577 0.209021
0.012647 0.399553 0.272877
0.012623 0.399529 0.336346
0.012599 0.399505 0.399505
0.012575 0.399482 0.462407
0.012551 0.399458 0.525088
0.012528 0.399434 0.587575
0.012504 0.399411 0.649891
0.012481 0.399387 0.712053
0.012457 0.399364 0.774074
0.012434 0.399340 0.835967
0.012411 0.399317 0.897741
0.012387 0.399294 0.959406
0.012371 0.399277 1.000000
0.012510 0.462341 0.012510
0.012484 0.462316 0.079275
0.012460 0.462292 0.144416
0.012435 0.462267 0.208786
0.012411 0.462243 0.272641
0.012387 0.462219 0.336110
0.012363 0.462195 0.399270
0.012340 0.462171 0.462171
0.012316 0.462148 0.524852
0.012292 0.462124 0.587340
0.012269 0.462101 0.649655
0.012245 0.462077 0.711817
0.012222 0.462054 0.773838
0.012198 0.462030 0.835731
0.012175 0.462007 0.897505
0.012152 0.461984 0.959170
0.012135 0.461967 1.000000
0.012275 0.524811 0.012275
0.012250 0.524786 0.079040
0.012225 0.524761 0.144181
0.012201 0.524737 0.208551
0.012176 0.524713 0.272406
0.012152 0.524689 0.335875
0.012129 0.524665 0.399035
0.012105 0.524641 0.461937
0.012081 0.524617 0.524617
0.012057 0.524594 0.587105
0.012034 0.524570 0.649421
0.012010 0.524547 0.711582
0.011987 0.524523 0.773603
0.011963 0.524500 0.835496
0.011940 0.524476 0.897271
0.011917 0.524453 0.958935
0.011900 0.524437 1.000000
0.012041 0.587088 0.012041
0.012015 0.587063 0.078806
0.011991 0.587038 0.143947
0.011967 0.587014 0.208317
0.011942 0.586990 0.272172
0.011918 0.586966 0.335641
0.011894 0.586942 0.398801
0.011871 0.586918 0.461703
0.011847 0.586894 0.524383
0.011823 0.586871 0.586871
0.011800 0.586847 0.649187
0.011776 0.586824 0.711348
0.011753 0.586800 0.773369
0.011729 0.586777 0.835262
0.011706 0.586753 0.897037
0.011683 0.586730 0.958701
0.011666 0.586714 1.000000
0.011807 0.649194 0.011807
0.011782 0.649169 0.078573
0.011757 0.649144 0.143714
0.011733 0.649120 0.208083
0.011709 0.649096 0.271939
0.011685 0.649072 0.335408
0.011661 0.649048 0.398567
0.011637 0.649024 0.461469
0.011614 0.649000 0.524150
0.011590 0.648977 0.586637
0.011566 0.648953 0.648953
0.011543 0.648930 0.711115
0.011519 0.648906 0.773136
0.011496 0.648883 0.835029
0.011473 0.648859 0.896803
0.011449 0.648836 0.958468
0.011433 0.648820 1.000000
0.011574 0.711146 0.011574
0.011549 0.711121 0.078340
0.011525 0.711096 0.143481
0.011500 0.711072 0.207851
0.011476 0.711048 0.271706
0.011452 0.711024 0.335175
0.011428 0.711000 0.398335
0.011404 0.710976 0.461236
0.011381 0.710953 0.523917
0.011357 0.710929 0.586405
0.011334 0.710905 0.648720
0.011310 0.710882 0.710882
0.011287 0.710858 0.772903
0.011263 0.710835 0.834796
0.011240 0.710812 0.896570
0.011216 0.710788 0.958235
0.011200 0.710772 1.000000
0.011342 0.772959 0.011342
0.011317 0.772933 0.078107
0.011292 0.772909 0.143248
0.011268 0.772884 0.207618
0.011244 0.772860 0.271474
0.011220 0.772836 0.334943
0.011196 0.772812 0.398102
0.011172 0.772789 0.461004
0.011148 0.772765 0.523685
0.011125 0.772741 0.586172
0.011101 0.772718 0.648488
0.011078 0.772694 0.710649
0.011054 0.772671 0.772671
0.011031 0.772647 0.834564
0.011007 0.772624 0.896338
0.010984 0.772601 0.958002
0.010968 0.772584 1.000000
0.011110 0.834643 0.011110
0.011085 0.834618 0.077876
0.011060 0.834593 0.143017
0.011036 0.834569 0.207386
0.011012 0.834545 0.271242
0.010988 0.834521 0.334711
0.010964 0.834497 0.397870
0.010940 0.834473 0.460772
0.010917 0.834449 0.523453
0.010893 0.834426 0.585940
0.010869 0.834402 0.648256
0.010846 0.834379 0.710418
0.010822 0.834355 0.772439
0.010799 0.834332 0.834332
0.010776 0.834308 0.896106
0.010752 0.834285 0.957771
0.010736 0.834268 1.000000
0.010879 0.896209 0.010879
0.010854 0.896184 0.077644
0.010829 0.896159 0.142785
0.010805 0.896135 0.207155
0.010780 0.896111 0.271010
0.010756 0.896087 0.334479
0.010733 0.896063 0.397639
0.010709 0.896039 0.460541
0.010685 0.896016 0.523221
0.010661 0.895992 0.585709
0.010638 0.895968 0.648025
0.010614 0.895945 0.710186
0.010591 0.895921 0.772207
0.010568 0.895898 0.834100
0.010544 0.895875 0.895875
0.010521 0.895851 0.957539
0.010504 0.895835 1.000000
0.010648 0.957666 0.010648
0.010623 0.957641 0.077413
0.010598 0.957616 0.142554
0.010574 0.957592 0.206924
0.010550 0.957568 0.270779
0.010526 0.957544 0.334248
0.010502 0.957520 0.397408
0.010478 0.957496 0.460310
0.010454 0.957472 0.522990
0.010431 0.957449 0.585478
0.010407 0.957425 0.647794
0.010383 0.957402 0.709955
0.010360 0.957378 0.771976
0.010337 0.957355 0.833869
0.010313 0.957332 0.895644
0.010290 0.957308 0.957308
0.010273 0.957292 1.000000
0.010483 1.000000 0.010483
0.010458 1.000000 0.077248
0.010433 1.000000 0.142389
0.010409 1.000000 0.206759
0.010385 1.000000 0.270615
0.010361 1.000000 0.334084
0.010337 1.000000 0.397243
0.010313 1.000000 0.460145
0.010289 1.000000 0.522826
0.010266 1.000000 0.585313
0.010242 1.000000 0.647629
0.010219 1.000000 0.709791
0.010195 1.000000 0.771812
0.010172 1.000000 0.833705
0.010149 1.000000 0.895479
0.010125 1.000000 0.957144
0.010109 1.000000 1.000000
0.080910 0.014120 0.014120
0.080885 0.014094 0.080885
0.080860 0.014070 0.146026
0.080836 0.014045 0.210396
0.080812 0.014021 0.274251
0.080788 0.013997 0.337720
0.080764 0.013973 0.400880
0.080740 0.013950 0.463781
0.080716 0.013926 0.526462
0.080693 0.013902 0.588950
0.080669 0.013879 0.651266
0.080646 0.013855 0.713427
0.080622 0.013832 0.775448
0.080599 0.013808 0.837341
0.080575 0.013785 0.899115
0.080552 0.013762 0.960780
0.080536 0.013745 1.000000
0.080660 0.080660 0.013870
0.080635 0.080635 0.080635
0.080610 0.080610 0.145776
0.080586 0.080586 0.210146
0.080562 0.080562 0.274001
0.080538 0.080538 0.337470
0.080514 0.080514 0.400630
0.080490 0.080490 0.463531
0.080466 0.080466 0.526212
0.080443 0.080443 0.588700
0.080419 0.080419 0.651015
0.080396 0.080396 0.713177
0.080372 0.080372 0.775198
0.080349 0.080349 0.837091
0.080325 0.080325 0.898865
0.080302 0.080302 0.960530
0.080285 0.080285 1.000000
0.080416 0.145582 0.013626
0.080391 0.145556 0.080391
0.080366 0.145532 0.145532
0.080342 0.145507 0.209902
0.080318 0.145483 0.273757
0.080294 0.145459 0.337226
0.080270 0.145435 0.400386
0.080246 0.145412 0.463287
0.080222 0.145388 0.525968
0.080199 0.145364 0.588456
0.080175 0.145341 0.650771
0.080152 0.145317 0.712933
0.080128 0.145294 0.774954
0.080105 0.145270 0.836847
0.080081 0.145247 0.898621
0.080058 0.145224 0.960286
0.080041 0.145207 1.000000
0.080175 0.209735 0.013384
0.080150 0.209710 0.080150
0.080125 0.209685 0.145291
0.080101 0.209661 0.209661
0.080077 0.209636 0.273516
0.080053 0.209612 0.336985
0.080029 0.209589 0.400145
0.080005 0.209565 0.463046
0.079981 0.209541 0.525727
0.079958 0.209517 0.588214
0.079934 0.209494 0.650530
0.079910 0.209470 0.712692
0.079887 0.209447 0.774713
0.079864 0.209423 0.836606
0.079840 0.209400 0.898380
0.079817 0.209377 0.960045
0.079800 0.209360 1.000000
0.079936 0.273375 0.013145
0.079910 0.273350 0.079910
0.079886 0.273325 0.145051
0.079862 0.273301 0.209421
0.079837 0.273277 0.273277
0.079813 0.273253 0.336746
0.079789 0.273229 0.399905
0.079766 0.273205 0.462807
0.079742 0.273181 0.525488
0.079718 0.273158 0.587975
0.079695 0.273134 0.650291
0.079671 0.273111 0.712453
0.079648 0.273087 0.774474
0.079624 0.273064 0.836367
0.079601 0.273041 0.898141
0.079578 0.273017 0.959806
0.079561 0.273001 1.000000
0.079698 0.336630 0.012907
0.079673 0.336605 0.079673
0.079648 0.336581 0.144814
0.079624 0.336556 0.209184
0.079600 0.336532 0.273039
0.079576 0.336508 0.336508
0.079552 0.336484 0.399668
0.079528 0.336460 0.462569
0.079504 0.336437 0.525250
0.079481 0.336413 0.587738
0.079457 0.336389 0.650053
0.079434 0.336366 0.712215
0.079410 0.336343 0.774236
0.079387 0.336319 0.836129
0.079363 0.336296 0.897903
0.079340 0.336272 0.959568
0.079323 0.336256 1.000000
0.079461 0.399577 0.012671
0.079436 0.399552 0.079436
0.079412 0.399527 0.144577
0.079387 0.399503 0.208947
0.079363 0.399479 0.272802
0.079339 0.399455 0.336271
0.079315 0.399431 0.399431
0.079291 0.399407 0.462333
0.079268 0.399384 0.525013
0.079244 0.399360 0.587501
0.079220 0.399336 0.649817
0.079197 0.399313 0.711978
0.079173 0.399289 0.773999
0.079150 0.399266 0.835892
0.079127 0.399243 0.897667
0.079103 0.399219 0.959331
0.079087 0.399203 1.000000
0.079226 0.462267 0.012435
0.079201 0.462242 0.079201
0.079176 0.462217 0.144341
0.079152 0.462193 0.208711
0.079127 0.462169 0.272567
0.079103 0.462145 0.336036
0.079080 0.462121 0.399195
0.079056 0.462097 0.462097
0.079032 0.462073 0.524778
0.079008 0.462050 0.587265
0.078985 0.462026 0.649581
0.078961 0.462003 0.711743
0.078938 0.461979 0.773764
0.078914 0.461956 0.835657
0.078891 0.461932 0.897431
0.078868 0.461909 0.959096
0.078851 0.461893 1.000000
0.078991 0.524737 0.012200
0.078966 0.524712 0.078966
0.078941 0.524687 0.144107
0.078917 0.524663 0.208477
0.078893 0.524638 0.272332
0.078869 0.524614 0.335801
0.078845 0.524591 0.398961
0.078821 0.524567 0.461862
0.078797 0.524543 0.524543
0.078774 0.524519 0.587031
0.078750 0.524496 0.649346
0.078727 0.524472 0.711508
0.078703 0.524449 0.773529
0.078680 0.524425 0.835422
0.078656 0.524402 0.897196
0.078633 0.524379 0.958861
0.078616 0.524362 1.000000
0.078757 0.587014 0.011966
0.078732 0.586989 0.078732
0.078707 0.586964 0.143873
0.078683 0.586940 0.208243
0.078659 0.586915 0.272098
0.078635 0.586891 0.335567
0.078611 0.586868 0.398727
0.078587 0.586844 0.461628
0.078563 0.586820 0.524309
0.078540 0.586796 0.586796
0.078516 0.586773 0.649112
0.078492 0.586749 0.711274
0.078469 0.586726 0.773295
0.078446 0.586703 0.835188
0.078422 0.586679 0.896962
0.078399 0.586656 0.958627
0.078382 0.586639 1.000000
0.078523 0.649120 0.011733
0.078498 0.649095 0.078498
0.078474 0.649070 0.143639
0.078449 0.649046 0.208009
0.078425 0.649021 0.271865
0.078401 0.648997 0.335334
0.078377 0.648974 0.398493
0.078353 0.648950 0.461395
0.078330 0.648926 0.524076
0.078306 0.648902 0.586563
0.078283 0.648879 0.648879
0.078259 0.648855 0.711040
0.078236 0.648832 0.773062
0.078212 0.648808 0.834954
0.078189 0.648785 0.896729
0.078165 0.648762 0.958393
0.078149 0.648745 1.000000
0.078291 0.711072 0.011500
0.078265 0.711047 0.078265
0.078241 0.711022 0.143406
0.078216 0.710998 0.207776
0.078192 0.710974 0.271632
0.078168 0.710950 0.335101
0.078144 0.710926 0.398260
0.078121 0.710902 0.461162
0.078097 0.710878 0.523843
0.078073 0.710855 0.586330
0.078050 0.710831 0.648646
0.078026 0.710807 0.710807
0.078003 0.710784 0.772829
0.077979 0.710761 0.834722
0.077956 0.710737 0.896496
0.077933 0.710714 0.958160
0.077916 0.710697 1.000000
0.078058 0.772884 0.011268
0.078033 0.772859 0.078033
0.078008 0.772834 0.143174
0.077984 0.772810 0.207544
0.077960 0.772786 0.271399
0.077936 0.772762 0.334868
0.077912 0.772738 0.398028
0.077888 0.772714 0.460930
0.077865 0.772691 0.523610
0.077841 0.772667 0.586098
0.077817 0.772643 0.648414
0.077794 0.772620 0.710575
0.077770 0.772596 0.772596
0.077747 0.772573 0.834489
0.077724 0.772550 0.896264
0.077700 0.772526 0.957928
0.077684 0.772510 1.000000
0.077826 0.834569 0.011036
0.077801 0.834543 0.077801
0.077777 0.834519 0.142942
0.077752 0.834494 0.207312
0.077728 0.834470 0.271168
0.077704 0.834446 0.334636
0.077680 0.834422 0.397796
0.077656 0.834399 0.460698
0.077633 0.834375 0.523379
0.077609 0.834351 0.585866
0.077585 0.834328 0.648182
0.077562 0.834304 0.710343
0.077539 0.834281 0.772365
0.077515 0.834257 0.834257
0.077492 0.834234 0.896032
0.077468 0.834211 0.957696
0.077452 0.834194 1.000000
0.077595 0.896135 0.010805
0.077570 0.896110 0.077570
0.077545 0.896085 0.142711
0.077521 0.896061 0.207081
0.077497 0.896037 0.270936
0.077473 0.896013 0.334405
0.077449 0.895989 0.397565
0.077425 0.895965 0.460466
0.077401 0.895941 0.523147
0.077378 0.895918 0.585635
0.077354 0.895894 0.647950
0.077331 0.895871 0.710112
0.077307 0.895847 0.772133
0.077284 0.895824 0.834026
0.077260 0.895800 0.895800
0.077237 0.895777 0.957465
0.077220 0.895760 1.000000
0.077364 0.957592 0.010574
0.077339 0.957567 0.077339
0.077314 0.957542 0.142480
0.077290 0.957518 0.206850
0.077266 0.957493 0.270705
0.077242 0.957469 0.334174
0.077218 0.957446 0.397334
0.077194 0.957422 0.460235
0.077170 0.957398 0.522916
0.077147 0.957374 0.585404
0.077123 0.957351 0.647719
0.077100 0.957327 0.709881
0.077076 0.957304 0.771902
0.077053 0.957281 0.833795
0.077029 0.957257 0.895569
0.077006 0.957234 0.957234
0.076989 0.957217 1.000000
0.077199 1.000000 0.010409
0.077174 1.000000 0.077174
0.077149 1.000000 0.142315
0.077125 1.000000 0.206685
0.077101 1.000000 0.270540
0.077077 1.000000 0.334009
0.077053 1.000000 0.397169
0.077029 1.000000 0.460071
0.077006 1.000000 0.522751
0.076982 1.000000 0.585239
0.076958 1.000000 0.647555
0.076935 1.000000 0.709716
0.076911 1.000000 0.771737
0.076888 1.000000 0.833630
0.076865 1.000000 0.895405
0.076841 1.000000 0.957069
0.076825 1.000000 1.000000
0.146003 0.014047 0.014047
0.145978 0.014022 0.080812
0.145953 0.013997 0.145953
0.145929 0.013973 0.210323
0.145905 0.013949 0.274179
0.145881 0.013925 0.337648
0.145857 0.013901 0.400807
0.145833 0.013877 0.463709
0.145809 0.013853 0.526390
0.145786 0.013830 0.588877
0.145762 0.013806 0.651193
0.145739 0.013783 0.713354
0.145715 0.013759 0.775376
0.145692 0.013736 0.837269
0.145669 0.013712 0.899043
0.145645 0.013689 0.960707
0.145629 0.013673 1.000000
0.145753 0.080588 0.013797
0.145728 0.080562 0.080562
0.145703 0.080538 0.145703
0.145679 0.080513 0.210073
0.145655 0.080489 0.273929
0.145631 0.080465 0.337398
0.145607 0.080441 0.400557
0.145583 0.080417 0.463459
0.145559 0.080394 0.526140
0.145536 0.080370 0.588627
0.145512 0.080347 0.650943
0.145489 0.080323 0.713104
0.145465 0.080300 0.775126
0.145442 0.080276 0.837018
0.145418 0.080253 0.898793
0.145395 0.080230 0.960457
0.145379 0.080213 1.000000
0.145509 0.145509 0.013553
0.145484 0.145484 0.080318
0.145459 0.145459 0.145459
0.145435 0.145435 0.209829
0.145411 0.145411 0.273685
0.145387 0.145387 0.337154
0.145363 0.145363 0.400313
0.145339 0.145339 0.463215
0.145315 0.145315 0.525896
0.145292 0.145292 0.588383
0.145268 0.145268 0.650699
0.145245 0.145245 0.712860
0.145221 0.145221 0.774882
0.145198 0.145198 0.836774
0.145174 0.145174 0.898549
0.145151 0.145151 0.960213
0.145135 0.145135 1.000000
0.145268 0.209662 0.013312
0.145243 0.209637 0.080077
0.145218 0.209612 0.145218
0.145194 0.209588 0.209588
0.145170 0.209564 0.273443
0.145146 0.209540 0.336912
0.145122 0.209516 0.400072
0.145098 0.209492 0.462974
0.145074 0.209469 0.525654
0.145051 0.209445 0.588142
0.145027 0.209421 0.650458
0.145004 0.209398 0.712619
0.144980 0.209374 0.774640
0.144957 0.209351 0.836533
0.144933 0.209328 0.898308
0.144910 0.209304 0.959972
0.144893 0.209288 1.000000
0.145029 0.273303 0.013073
0.145004 0.273277 0.079838
0.144979 0.273253 0.144979
0.144955 0.273228 0.209349
0.144930 0.273204 0.273204
0.144906 0.273180 0.336673
0.144883 0.273156 0.399833
0.144859 0.273133 0.462735
0.144835 0.273109 0.525415
0.144811 0.273085 0.587903
0.144788 0.273062 0.650219
0.144764 0.273038 0.712380
0.144741 0.273015 0.774401
0.144718 0.272991 0.836294
0.144694 0.272968 0.898069
0.144671 0.272945 0.959733
0.144654 0.272928 1.000000
0.144791 0.336558 0.012835
0.144766 0.336533 0.079600
0.144741 0.336508 0.144741
0.144717 0.336484 0.209111
0.144693 0.336460 0.272967
0.144669 0.336436 0.336436
0.144645 0.336412 0.399595
0.144621 0.336388 0.462497
0.144597 0.336364 0.525178
0.144574 0.336340 0.587665
0.144550 0.336317 0.649981
0.144527 0.336293 0.712142
0.144503 0.336270 0.774164
0.144480 0.336247 0.836056
0.144456 0.336223 0.897831
0.144433 0.336200 0.959495
0.144416 0.336183 1.000000
0.144554 0.399505 0.012598
0.144529 0.399479 0.079364
0.144505 0.399455 0.144505
0.144480 0.399431 0.208874
0.144456 0.399406 0.272730
0.144432 0.399382 0.336199
0.144408 0.399358 0.399358
0.144384 0.399335 0.462260
0.144361 0.399311 0.524941
0.144337 0.399287 0.587428
0.144314 0.399264 0.649744
0.144290 0.399240 0.711906
0.144267 0.399217 0.773927
0.144243 0.399193 0.835820
0.144220 0.399170 0.897594
0.144196 0.399147 0.959259
0.144180 0.399130 1.000000
0.144319 0.462195 0.012363
0.144294 0.462169 0.079128
0.144269 0.462145 0.144269
0.144245 0.462120 0.208639
0.144220 0.462096 0.272494
0.144196 0.462072 0.335963
0.144173 0.462048 0.399123
0.144149 0.462025 0.462025
0.144125 0.462001 0.524705
0.144101 0.461977 0.587193
0.144078 0.461954 0.649509
0.144054 0.461930 0.711670
0.144031 0.461907 0.773691
0.144008 0.461883 0.835584
0.143984 0.461860 0.897359
0.143961 0.461837 0.959023
0.143944 0.461820 1.000000
0.144084 0.524664 0.012128
0.144059 0.524639 0.078893
0.144034 0.524614 0.144034
0.144010 0.524590 0.208404
0.143986 0.524566 0.272260
0.143962 0.524542 0.335728
0.143938 0.524518 0.398888
0.143914 0.524494 0.461790
0.143890 0.524470 0.524470
0.143867 0.524447 0.586958
0.143843 0.524423 0.649274
0.143820 0.524400 0.711435
0.143796 0.524376 0.773457
0.143773 0.524353 0.835349
0.143749 0.524330 0.897124
0.143726 0.524306 0.958788
0.143709 0.524290 1.000000
0.143850 0.586941 0.011894
0.143825 0.586916 0.078659
0.143800 0.586891 0.143800
0.143776 0.586867 0.208170
0.143752 0.586843 0.272025
0.143728 0.586819 0.335494
0.143704 0.586795 0.398654
0.143680 0.586771 0.461556
0.143656 0.586748 0.524236
0.143633 0.586724 0.586724
0.143609 0.586700 0.649040
0.143586 0.586677 0.711201
0.143562 0.586653 0.773222
0.143539 0.586630 0.835115
0.143515 0.586607 0.896890
0.143492 0.586583 0.958554
0.143475 0.586567 1.000000
0.143617 0.649047 0.011660
0.143591 0.649022 0.078426
0.143567 0.648997 0.143567
0.143542 0.648973 0.207937
0.143518 0.648949 0.271792
0.143494 0.648925 0.335261
0.143470 0.648901 0.398421
0.143447 0.648877 0.461322
0.143423 0.648854 0.524003
0.143399 0.648830 0.586490
0.143376 0.648806 0.648806
0.143352 0.648783 0.710968
0.143329 0.648759 0.772989
0.143305 0.648736 0.834882
0.143282 0.648713 0.896656
0.143259 0.648689 0.958321
0.143242 0.648673 1.000000
0.143384 0.710999 0.011428
0.143358 0.710974 0.078193
0.143334 0.710949 0.143334
0.143309 0.710925 0.207704
0.143285 0.710901 0.271559
0.143261 0.710877 0.335028
0.143237 0.710853 0.398188
0.143214 0.710829 0.461089
0.143190 0.710806 0.523770
0.143166 0.710782 0.586258
0.143143 0.710758 0.648573
0.143119 0.710735 0.710735
0.143096 0.710711 0.772756
0.143072 0.710688 0.834649
0.143049 0.710665 0.896423
0.143026 0.710641 0.958088
0.143009 0.710625 1.000000
0.143151 0.772812 0.011195
0.143126 0.772786 0.077961
0.143101 0.772762 0.143101
0.143077 0.772738 0.207471
0.143053 0.772713 0.271327
0.143029 0.772689 0.334796
0.143005 0.772665 0.397955
0.142981 0.772642 0.460857
0.142958 0.772618 0.523538
0.142934 0.772594 0.586025
0.142910 0.772571 0.648341
0.142887 0.772547 0.710503
0.142863 0.772524 0.772524
0.142840 0.772500 0.834417
0.142817 0.772477 0.896191
0.142793 0.772454 0.957856
0.142777 0.772437 1.000000
0.142920 0.834496 0.010963
0.142894 0.834471 0.077729
0.142870 0.834446 0.142870
0.142845 0.834422 0.207240
0.142821 0.834398 0.271095
0.142797 0.834374 0.334564
0.142773 0.834350 0.397724
0.142749 0.834326 0.460625
0.142726 0.834302 0.523306
0.142702 0.834279 0.585793
0.142679 0.834255 0.648109
0.142655 0.834232 0.710271
0.142632 0.834208 0.772292
0.142608 0.834185 0.834185
0.142585 0.834161 0.895959
0.142562 0.834138 0.957624
0.142545 0.834122 1.000000
0.142688 0.896062 0.010732
0.142663 0.896037 0.077497
0.142638 0.896013 0.142638
0.142614 0.895988 0.207008
0.142590 0.895964 0.270864
0.142566 0.895940 0.334333
0.142542 0.895916 0.397492
0.142518 0.895892 0.460394
0.142494 0.895869 0.523075
0.142471 0.895845 0.585562
0.142447 0.895822 0.647878
0.142424 0.895798 0.710039
0.142400 0.895775 0.772061
0.142377 0.895751 0.833953
0.142353 0.895728 0.895728
0.142330 0.895705 0.957392
0.142314 0.895688 1.000000
0.142457 0.957519 0.010501
0.142432 0.957494 0.077266
0.142407 0.957469 0.142407
0.142383 0.957445 0.206777
0.142359 0.957421 0.270633
0.142335 0.957397 0.334102
0.142311 0.957373 0.397261
0.142287 0.957349 0.460163
0.142263 0.957326 0.522844
0.142240 0.957302 0.585331
0.142216 0.957278 0.647647
0.142193 0.957255 0.709808
0.142169 0.957231 0.771830
0.142146 0.957208 0.833722
0.142122 0.957185 0.895497
0.142099 0.957161 0.957161
0.142083 0.957145 1.000000
0.142292 1.000000 0.010336
0.142267 1.000000 0.077102
0.142243 1.000000 0.142243
0.142218 1.000000 0.206612
0.142194 1.000000 0.270468
0.142170 1.000000 0.333937
0.142146 1.000000 0.397096
0.142122 1.000000 0.459998
0.142099 1.000000 0.522679
0.142075 1.000000 0.585166
0.142052 1.000000 0.647482
0.142028 1.000000 0.709644
0.142005 1.000000 0.771665
0.141981 1.000000 0.833558
0.141958 1.000000 0.895332
0.141934 1.000000 0.956997
0.141918 1.000000 1.000000
0.210326 0.013975 0.013975
0.210301 0.013950 0.080741
0.210276 0.013926 0.145882
0.210252 0.013901 0.210252
0.210227 0.013877 0.274107
0.210203 0.013853 0.337576
0.210180 0.013829 0.400736
0.210156 0.013805 0.463637
0.210132 0.013782 0.526318
0.210108 0.013758 0.588806
0.210085 0.013734 0.651121
0.210061 0.013711 0.713283
0.210038 0.013688 0.775304
0.210014 0.013664 0.837197
0.209991 0.013641 0.898971
0.209968 0.013617 0.960636
0.209951 0.013601 1.000000
0.210076 0.080516 0.013725
