skills/editops-orchestrator/assets/grade/luts/clean_bright_v10.cube
TITLE "clean_bright_v10"
LUT_3D_SIZE 5
DOMAIN_MIN 0.0 0.0 0.0
DOMAIN_MAX 1.0 1.0 1.0
0.026714 0.026714 0.026714
0.026256 0.026256 0.300442
0.025820 0.025820 0.560794
0.025394 0.025394 0.815527
0.025050 0.025050 1.000000
0.022177 0.296363 0.022177
0.021719 0.295905 0.295905
0.021283 0.295469 0.556257
0.020857 0.295043 0.810990
0.020513 0.294699 1.000000
0.017862 0.552836 0.017862
0.017404 0.552378 0.291590
0.016968 0.551942 0.551942
0.016542 0.551516 0.806675
0.016198 0.551171 1.000000
0.013640 0.803773 0.013640
0.013182 0.803315 0.287368
0.012746 0.802879 0.547720
0.012320 0.802453 0.802453
0.011975 0.802108 1.000000
0.010228 1.000000 0.010228
0.009770 1.000000 0.283956
0.009334 1.000000 0.544308
0.008908 1.000000 0.799041
0.008563 1.000000 1.000000
0.299551 0.025365 0.025365
0.299093 0.024907 0.299093
0.298658 0.024472 0.559446
0.298231 0.024046 0.814179
0.297887 0.023701 1.000000
0.295014 0.295014 0.020828
0.294556 0.294556 0.294556
0.294121 0.294121 0.554909
0.293695 0.293695 0.809642
0.293350 0.293350 1.000000
0.290699 0.551487 0.016513
0.290241 0.551029 0.290241
0.289805 0.550594 0.550594
0.289379 0.550167 0.805326
0.289035 0.549823 1.000000
0.286477 0.802424 0.012291
0.286019 0.801966 0.286019
0.285583 0.801530 0.546371
0.285157 0.801104 0.801104
0.284813 0.800760 1.000000
0.283065 1.000000 0.008879
0.282607 1.000000 0.282607
0.282171 1.000000 0.542959
0.281745 1.000000 0.797692
0.281401 1.000000 1.000000
0.559057 0.024083 0.024083
0.558599 0.023625 0.297811
0.558163 0.023189 0.558163
0.557737 0.022763 0.812896
0.557392 0.022418 1.000000
0.554520 0.293732 0.019546
0.554062 0.293274 0.293274
0.553626 0.292838 0.553626
0.553200 0.292412 0.808359
0.552855 0.292067 1.000000
0.550204 0.550204 0.015230
0.549746 0.549746 0.288958
0.549311 0.549311 0.549311
0.548885 0.548885 0.804044
0.548540 0.548540 1.000000
0.545982 0.801141 0.011008
0.545524 0.800683 0.284736
0.545089 0.800248 0.545089
0.544662 0.799821 0.799821
0.544318 0.799477 1.000000
0.542570 1.000000 0.007596
0.542112 1.000000 0.281324
0.541677 1.000000 0.541677
0.541250 1.000000 0.796409
0.540906 1.000000 1.000000
0.812961 0.022828 0.022828
0.812503 0.022370 0.296556
0.812067 0.021934 0.556908
0.811641 0.021508 0.811641
0.811296 0.021163 1.000000
0.808424 0.292477 0.018291
0.807966 0.292019 0.292019
0.807530 0.291583 0.552371
0.807104 0.291157 0.807104
0.806759 0.290812 1.000000
0.804108 0.548949 0.013975
0.803650 0.548491 0.287703
0.803215 0.548056 0.548056
0.802788 0.547629 0.802788
0.802444 0.547285 1.000000
0.799886 0.799886 0.009753
0.799428 0.799428 0.283481
0.798993 0.798993 0.543834
0.798566 0.798566 0.798566
0.798222 0.798222 1.000000
0.796474 1.000000 0.006341
0.796016 1.000000 0.280069
0.795581 1.000000 0.540421
0.795154 1.000000 0.795154
0.794810 1.000000 1.000000
1.000000 0.021813 0.021813
1.000000 0.021355 0.295541
1.000000 0.020920 0.555894
1.000000 0.020493 0.810626
1.000000 0.020149 1.000000
1.000000 0.291462 0.017276
1.000000 0.291004 0.291004
1.000000 0.290569 0.551357
1.000000 0.290142 0.806089
1.000000 0.289798 1.000000
1.000000 0.547935 0.012961
1.000000 0.547477 0.286689
1.000000 0.547041 0.547041
1.000000 0.546615 0.801774
1.000000 0.546271 1.000000
1.000000 0.798872 0.008739
1.000000 0.798414 0.282467
1.000000 0.797978 0.542819
1.000000 0.797552 0.797552
1.000000 0.797208 1.000000
1.000000 1.000000 0.005327
1.000000 1.000000 0.279055
1.000000 1.000000 0.539407
1.000000 1.000000 0.794140
1.000000 1.000000 1.000000
