skills/editops-orchestrator/assets/grade/luts/clean_bright_v12.cube
TITLE "clean_bright_v12"
LUT_3D_SIZE 5
DOMAIN_MIN 0.0 0.0 0.0
DOMAIN_MAX 1.0 1.0 1.0
0.030632 0.030632 0.030632
0.030067 0.030067 0.308131
0.029532 0.029532 0.570735
0.029011 0.029011 0.827030
0.028606 0.028606 1.000000
0.025037 0.303101 0.025037
0.024472 0.302536 0.302536
0.023938 0.302002 0.565140
0.023416 0.301480 0.821436
0.023011 0.301075 1.000000
0.019742 0.560944 0.019742
0.019177 0.560380 0.297242
0.018643 0.559845 0.559845
0.018121 0.559324 0.816141
0.017716 0.558918 1.000000
0.014575 0.812595 0.014575
0.014010 0.812030 0.292074
0.013476 0.811495 0.554678
0.012954 0.810974 0.810974
0.012549 0.810569 1.000000
0.010563 1.000000 0.010563
0.009998 1.000000 0.288062
0.009463 1.000000 0.550666
0.008942 1.000000 0.806961
0.008537 1.000000 1.000000
0.307033 0.028969 0.028969
0.306468 0.028404 0.306468
0.305934 0.027869 0.569071
0.305412 0.027348 0.825367
0.305007 0.026943 1.000000
0.301438 0.301438 0.023374
0.300873 0.300873 0.300873
0.300339 0.300339 0.563477
0.299817 0.299817 0.819772
0.299412 0.299412 1.000000
0.296143 0.559281 0.018079
0.295579 0.558717 0.295579
0.295044 0.558182 0.558182
0.294523 0.557660 0.814478
0.294117 0.557255 1.000000
0.290976 0.810931 0.012912
0.290411 0.810367 0.290411
0.289877 0.809832 0.553015
0.289355 0.809311 0.809311
0.288950 0.808906 1.000000
0.286964 1.000000 0.008900
0.286399 1.000000 0.286399
0.285865 1.000000 0.549002
0.285343 1.000000 0.805298
0.284938 1.000000 1.000000
0.568597 0.027395 0.027395
0.568032 0.026830 0.304894
0.567498 0.026295 0.567498
0.566976 0.025774 0.823793
0.566571 0.025369 1.000000
0.563002 0.299864 0.021800
0.562437 0.299299 0.299299
0.561903 0.298765 0.561903
0.561381 0.298243 0.818199
0.560976 0.297838 1.000000
0.557707 0.557707 0.016505
0.557143 0.557143 0.294005
0.556608 0.556608 0.556608
0.556087 0.556087 0.812904
0.555681 0.555681 1.000000
0.552540 0.809358 0.011338
0.551975 0.808793 0.288837
0.551441 0.808258 0.551441
0.550919 0.807737 0.807737
0.550514 0.807332 1.000000
0.548528 1.000000 0.007326
0.547963 1.000000 0.284825
0.547429 1.000000 0.547429
0.546907 1.000000 0.803724
0.546502 1.000000 1.000000
0.823878 0.025859 0.025859
0.823314 0.025294 0.303358
0.822779 0.024759 0.565962
0.822257 0.024238 0.822257
0.821852 0.023833 1.000000
0.818283 0.298328 0.020264
0.817719 0.297763 0.297763
0.817184 0.297229 0.560367
0.816663 0.296707 0.816663
0.816257 0.296302 1.000000
0.812989 0.556171 0.014969
0.812424 0.555607 0.292469
0.811890 0.555072 0.555072
0.811368 0.554550 0.811368
0.810963 0.554145 1.000000
0.807822 0.807822 0.009802
0.807257 0.807257 0.287301
0.806722 0.806722 0.549905
0.806201 0.806201 0.806201
0.805796 0.805796 1.000000
0.803809 1.000000 0.005790
0.803245 1.000000 0.283289
0.802710 1.000000 0.545893
0.802188 1.000000 0.802188
0.801783 1.000000 1.000000
1.000000 0.024666 0.024666
1.000000 0.024101 0.302165
1.000000 0.023567 0.564769
1.000000 0.023045 0.821065
1.000000 0.022640 1.000000
1.000000 0.297135 0.019071
1.000000 0.296571 0.296571
1.000000 0.296036 0.559174
1.000000 0.295514 0.815470
1.000000 0.295109 1.000000
1.000000 0.554979 0.013777
1.000000 0.554414 0.291276
1.000000 0.553879 0.553879
1.000000 0.553358 0.810175
1.000000 0.552953 1.000000
1.000000 0.806629 0.008609
1.000000 0.806064 0.286109
1.000000 0.805530 0.548712
1.000000 0.805008 0.805008
1.000000 0.804603 1.000000
1.000000 1.000000 0.004597
1.000000 1.000000 0.282096
1.000000 1.000000 0.544700
1.000000 1.000000 0.800996
1.000000 1.000000 1.000000
