skills/editops-orchestrator/assets/grade/luts/clean_bright_v18.cube
TITLE "clean_bright_v18"
LUT_3D_SIZE 9
DOMAIN_MIN 0.0 0.0 0.0
DOMAIN_MAX 1.0 1.0 1.0
0.043271 0.043271 0.043271
0.042810 0.042810 0.191761
0.042376 0.042376 0.331771
0.041954 0.041954 0.467696
0.041541 0.041541 0.600909
0.041134 0.041134 0.732098
0.040733 0.040733 0.861674
0.040335 0.040335 0.989912
0.040180 0.040180 1.000000
0.038709 0.187660 0.038709
0.038248 0.187200 0.187200
0.037814 0.186766 0.327209
0.037393 0.186344 0.463134
0.036979 0.185931 0.596348
0.036573 0.185524 0.727536
0.036171 0.185122 0.857112
0.035773 0.184724 0.985350
0.035619 0.184570 1.000000
0.034408 0.323802 0.034408
0.033947 0.323342 0.182899
0.033513 0.322908 0.322908
0.033091 0.322486 0.458833
0.032678 0.322073 0.592047
0.032271 0.321666 0.723235
0.031870 0.321264 0.852811
0.031472 0.320867 0.981049
0.031317 0.320712 1.000000
0.030232 0.455973 0.030232
0.029771 0.455513 0.178723
0.029337 0.455079 0.318732
0.028916 0.454657 0.454657
0.028503 0.454244 0.587871
0.028096 0.453837 0.719059
0.027694 0.453435 0.848635
0.027296 0.453038 0.976873
0.027142 0.452883 1.000000
0.026140 0.585508 0.026140
0.025679 0.585047 0.174630
0.025245 0.584613 0.314640
0.024823 0.584192 0.450565
0.024410 0.583778 0.583778
0.024003 0.583372 0.714967
0.023601 0.582970 0.844543
0.023204 0.582572 0.972781
0.023049 0.582418 1.000000
0.022109 0.713073 0.022109
0.021649 0.712612 0.170600
0.021215 0.712178 0.310609
0.020793 0.711757 0.446535
0.020380 0.711344 0.579748
0.019973 0.710937 0.710937
0.019571 0.710535 0.840512
0.019174 0.710137 0.968751
0.019019 0.709983 1.000000
0.018129 0.839070 0.018129
0.017668 0.838609 0.166620
0.017234 0.838175 0.306629
0.016812 0.837754 0.442554
0.016399 0.837340 0.575768
0.015992 0.836934 0.706956
0.015591 0.836532 0.836532
0.015193 0.836134 0.964770
0.015039 0.835980 1.000000
0.014189 0.963766 0.014189
0.013729 0.963306 0.162680
0.013294 0.962871 0.302689
0.012873 0.962450 0.438614
0.012460 0.962037 0.571828
0.012053 0.961630 0.703016
0.011651 0.961228 0.832592
0.011253 0.960830 0.960830
0.011099 0.960676 1.000000
0.012659 1.000000 0.012659
0.012199 1.000000 0.161150
0.011765 1.000000 0.301159
0.011343 1.000000 0.437085
0.010930 1.000000 0.570298
0.010523 1.000000 0.701487
0.010121 1.000000 0.831062
0.009724 1.000000 0.959301
0.009569 1.000000 1.000000
0.190866 0.041915 0.041915
0.190405 0.041454 0.190405
0.189971 0.041020 0.330415
0.189550 0.040598 0.466340
0.189137 0.040185 0.599553
0.188730 0.039778 0.730742
0.188328 0.039377 0.860318
0.187930 0.038979 0.988556
0.187776 0.038824 1.000000
0.186304 0.186304 0.037353
0.185844 0.185844 0.185844
0.185409 0.185409 0.325853
0.184988 0.184988 0.461778
0.184575 0.184575 0.594992
0.184168 0.184168 0.726180
0.183766 0.183766 0.855756
0.183368 0.183368 0.983994
0.183214 0.183214 1.000000
0.182003 0.322446 0.033052
0.181543 0.321986 0.181543
0.181108 0.321552 0.321552
0.180687 0.321130 0.457477
0.180274 0.320717 0.590691
0.179867 0.320310 0.721879
0.179465 0.319908 0.851455
0.179067 0.319511 0.979693
0.178913 0.319356 1.000000
0.177827 0.454617 0.028876
0.177367 0.454157 0.177367
0.176933 0.453723 0.317376
0.176511 0.453301 0.453301
0.176098 0.452888 0.586515
0.175691 0.452481 0.717703
0.175289 0.452079 0.847279
0.174892 0.451682 0.975517
0.174737 0.451527 1.000000
0.173735 0.584152 0.024784
0.173274 0.583691 0.173274
0.172840 0.583257 0.313284
0.172419 0.582836 0.449209
0.172006 0.582422 0.582422
0.171599 0.582016 0.713611
0.171197 0.581614 0.843187
0.170799 0.581216 0.971425
0.170645 0.581062 1.000000
0.169705 0.711717 0.020753
0.169244 0.711256 0.169244
0.168810 0.710822 0.309253
0.168388 0.710401 0.445179
0.167975 0.709988 0.578392
0.167568 0.709581 0.709581
0.167167 0.709179 0.839156
0.166769 0.708781 0.967395
0.166614 0.708627 1.000000
0.165724 0.837714 0.016773
0.165264 0.837253 0.165264
0.164829 0.836819 0.305273
0.164408 0.836398 0.441198
0.163995 0.835984 0.574412
0.163588 0.835578 0.705600
0.163186 0.835176 0.835176
0.162788 0.834778 0.963414
0.162634 0.834624 1.000000
0.161784 0.962410 0.012833
0.161324 0.961950 0.161324
0.160890 0.961515 0.301333
0.160468 0.961094 0.437258
0.160055 0.960681 0.570472
0.159648 0.960274 0.701660
0.159246 0.959872 0.831236
0.158849 0.959474 0.959474
0.158694 0.959320 1.000000
0.160255 1.000000 0.011303
0.159794 1.000000 0.159794
0.159360 1.000000 0.299803
0.158938 1.000000 0.435728
0.158525 1.000000 0.568942
0.158118 1.000000 0.700131
0.157717 1.000000 0.829706
0.157319 1.000000 0.957944
0.157164 1.000000 1.000000
0.330031 0.040636 0.040636
0.329570 0.040176 0.189127
0.329136 0.039741 0.329136
0.328715 0.039320 0.465061
0.328301 0.038907 0.598275
0.327895 0.038500 0.729463
0.327493 0.038098 0.859039
0.327095 0.037700 0.987277
0.326941 0.037546 1.000000
0.325469 0.185026 0.036074
0.325009 0.184565 0.184565
0.324574 0.184131 0.324574
0.324153 0.183709 0.460500
0.323740 0.183296 0.593713
0.323333 0.182889 0.724902
0.322931 0.182488 0.854477
0.322533 0.182090 0.982715
0.322379 0.181935 1.000000
0.321168 0.321168 0.031773
0.320707 0.320707 0.180264
0.320273 0.320273 0.320273
0.319852 0.319852 0.456198
0.319438 0.319438 0.589412
0.319032 0.319032 0.720600
0.318630 0.318630 0.850176
0.318232 0.318232 0.978414
0.318078 0.318078 1.000000
0.316992 0.453339 0.027597
0.316532 0.452878 0.176088
0.316097 0.452444 0.316097
0.315676 0.452023 0.452023
0.315263 0.451609 0.585236
0.314856 0.451203 0.716425
0.314454 0.450801 0.846000
0.314056 0.450403 0.974239
0.313902 0.450249 1.000000
0.312900 0.582873 0.023505
0.312439 0.582413 0.171996
0.312005 0.581979 0.312005
0.311583 0.581557 0.447930
0.311170 0.581144 0.581144
0.310763 0.580737 0.712332
0.310362 0.580335 0.841908
0.309964 0.579937 0.970146
0.309809 0.579783 1.000000
0.308870 0.710438 0.019475
0.308409 0.709978 0.167966
0.307975 0.709544 0.307975
0.307553 0.709122 0.443900
0.307140 0.708709 0.577114
0.306733 0.708302 0.708302
0.306331 0.707900 0.837878
0.305934 0.707503 0.966116
0.305779 0.707348 1.000000
0.304889 0.836435 0.015494
0.304428 0.835975 0.163985
0.303994 0.835541 0.303994
0.303573 0.835119 0.439919
0.303159 0.834706 0.573133
0.302753 0.834299 0.704321
0.302351 0.833897 0.833897
0.301953 0.833499 0.962135
0.301799 0.833345 1.000000
0.300949 0.961132 0.011555
0.300489 0.960671 0.160045
0.300055 0.960237 0.300055
0.299633 0.959815 0.435980
0.299220 0.959402 0.569193
0.298813 0.958995 0.700382
0.298411 0.958593 0.829958
0.298014 0.958196 0.958196
0.297859 0.958041 1.000000
0.299419 1.000000 0.010025
0.298959 1.000000 0.158516
0.298525 1.000000 0.298525
0.298103 1.000000 0.434450
0.297690 1.000000 0.567664
0.297283 1.000000 0.698852
0.296881 1.000000 0.828428
0.296484 1.000000 0.956666
0.296329 1.000000 1.000000
0.465136 0.039395 0.039395
0.464676 0.038934 0.187886
0.464242 0.038500 0.327895
0.463820 0.038079 0.463820
0.463407 0.037665 0.597034
0.463000 0.037259 0.728222
0.462598 0.036857 0.857798
0.462200 0.036459 0.986036
0.462046 0.036305 1.000000
0.460574 0.183784 0.034833
0.460114 0.183324 0.183324
0.459680 0.182890 0.323333
0.459258 0.182468 0.459258
0.458845 0.182055 0.592472
0.458438 0.181648 0.723660
0.458036 0.181246 0.853236
0.457639 0.180849 0.981474
0.457484 0.180694 1.000000
0.456273 0.319927 0.030532
0.455813 0.319466 0.179023
0.455379 0.319032 0.319032
0.454957 0.318610 0.454957
0.454544 0.318197 0.588171
0.454137 0.317790 0.719359
0.453735 0.317388 0.848935
0.453338 0.316991 0.977173
0.453183 0.316836 1.000000
0.452098 0.452098 0.026356
0.451637 0.451637 0.174847
0.451203 0.451203 0.314856
0.450781 0.450781 0.450781
0.450368 0.450368 0.583995
0.449961 0.449961 0.715183
0.449560 0.449560 0.844759
0.449162 0.449162 0.972997
0.449007 0.449007 1.000000
0.448005 0.581632 0.022264
0.447545 0.581171 0.170755
0.447110 0.580737 0.310764
0.446689 0.580316 0.446689
0.446276 0.579903 0.579903
0.445869 0.579496 0.711091
0.445467 0.579094 0.840667
0.445069 0.578696 0.968905
0.444915 0.578542 1.000000
0.443975 0.709197 0.018234
0.443514 0.708737 0.166724
0.443080 0.708302 0.306734
0.442659 0.707881 0.442659
0.442246 0.707468 0.575872
0.441839 0.707061 0.707061
0.441437 0.706659 0.836637
0.441039 0.706261 0.964875
0.440885 0.706107 1.000000
0.439994 0.835194 0.014253
0.439534 0.834733 0.162744
0.439100 0.834299 0.302753
0.438678 0.833878 0.438678
0.438265 0.833465 0.571892
0.437858 0.833058 0.703080
0.437456 0.832656 0.832656
0.437059 0.832258 0.960894
0.436904 0.832104 1.000000
0.436055 0.959890 0.010313
0.435594 0.959430 0.158804
0.435160 0.958996 0.298813
0.434739 0.958574 0.434739
0.434325 0.958161 0.567952
0.433919 0.957754 0.699141
0.433517 0.957352 0.828716
0.433119 0.956955 0.956955
0.432965 0.956800 1.000000
0.434525 1.000000 0.008783
0.434064 1.000000 0.157274
0.433630 1.000000 0.297283
0.433209 1.000000 0.433209
0.432796 1.000000 0.566422
0.432389 1.000000 0.697611
0.431987 1.000000 0.827186
0.431589 1.000000 0.955425
0.431435 1.000000 1.000000
0.597547 0.038178 0.038178
0.597086 0.037718 0.186669
0.596652 0.037284 0.326678
0.596230 0.036862 0.462603
0.595817 0.036449 0.595817
0.595410 0.036042 0.727006
0.595008 0.035640 0.856581
0.594611 0.035242 0.984819
0.594456 0.035088 1.000000
0.592985 0.182568 0.033617
0.592524 0.182107 0.182107
0.592090 0.181673 0.322117
0.591669 0.181252 0.458042
0.591255 0.180838 0.591255
0.590849 0.180432 0.722444
0.590447 0.180030 0.852020
0.590049 0.179632 0.980258
0.589895 0.179478 1.000000
0.588684 0.318710 0.029315
0.588223 0.318250 0.177806
0.587789 0.317815 0.317815
0.587367 0.317394 0.453741
0.586954 0.316981 0.586954
0.586547 0.316574 0.718143
0.586146 0.316172 0.847718
0.585748 0.315774 0.975957
0.585593 0.315620 1.000000
0.584508 0.450881 0.025140
0.584047 0.450421 0.173630
0.583613 0.449986 0.313640
0.583192 0.449565 0.449565
0.582779 0.449152 0.582779
0.582372 0.448745 0.713967
0.581970 0.448343 0.843543
0.581572 0.447945 0.971781
0.581418 0.447791 1.000000
0.580415 0.580415 0.021047
0.579955 0.579955 0.169538
0.579521 0.579521 0.309547
0.579099 0.579099 0.445472
0.578686 0.578686 0.578686
0.578279 0.578279 0.709875
0.577877 0.577877 0.839450
0.577480 0.577480 0.967688
0.577325 0.577325 1.000000
0.576385 0.707981 0.017017
0.575925 0.707520 0.165508
0.575491 0.707086 0.305517
0.575069 0.706664 0.441442
0.574656 0.706251 0.574656
0.574249 0.705844 0.705844
0.573847 0.705442 0.835420
0.573449 0.705045 0.963658
0.573295 0.704890 1.000000
0.572405 0.833977 0.013036
0.571944 0.833517 0.161527
0.571510 0.833083 0.301536
0.571088 0.832661 0.437462
0.570675 0.832248 0.570675
0.570268 0.831841 0.701864
0.569867 0.831439 0.831439
0.569469 0.831042 0.959678
0.569314 0.830887 1.000000
0.568465 0.958674 0.009097
0.568005 0.958213 0.157588
0.567570 0.957779 0.297597
0.567149 0.957358 0.433522
0.566736 0.956944 0.566736
0.566329 0.956538 0.697924
0.565927 0.956136 0.827500
0.565529 0.955738 0.955738
0.565375 0.955584 1.000000
0.566935 1.000000 0.007567
0.566475 1.000000 0.156058
0.566040 1.000000 0.296067
0.565619 1.000000 0.431992
0.565206 1.000000 0.565206
0.564799 1.000000 0.696394
0.564397 1.000000 0.825970
0.563999 1.000000 0.954208
0.563845 1.000000 1.000000
0.727944 0.036980 0.036980
0.727483 0.036520 0.185471
0.727049 0.036086 0.325480
0.726628 0.035664 0.461405
0.726214 0.035251 0.594619
0.725808 0.034844 0.725808
0.725406 0.034442 0.855383
0.725008 0.034044 0.983621
0.724854 0.033890 1.000000
0.723382 0.181370 0.032419
0.722922 0.180909 0.180909
0.722487 0.180475 0.320919
0.722066 0.180054 0.456844
0.721653 0.179640 0.590057
0.721246 0.179234 0.721246
0.720844 0.178832 0.850822
0.720446 0.178434 0.979060
0.720292 0.178280 1.000000
0.719081 0.317512 0.028117
0.718620 0.317052 0.176608
0.718186 0.316617 0.316617
0.717765 0.316196 0.452543
0.717351 0.315783 0.585756
0.716945 0.315376 0.716945
0.716543 0.314974 0.846520
0.716145 0.314576 0.974759
0.715991 0.314422 1.000000
0.714905 0.449683 0.023942
0.714445 0.449223 0.172432
0.714010 0.448788 0.312442
0.713589 0.448367 0.448367
0.713176 0.447954 0.581580
0.712769 0.447547 0.712769
0.712367 0.447145 0.842345
0.711969 0.446747 0.970583
0.711815 0.446593 1.000000
0.710813 0.579217 0.019849
0.710352 0.578757 0.168340
0.709918 0.578323 0.308349
0.709497 0.577901 0.444274
0.709083 0.577488 0.577488
0.708677 0.577081 0.708677
0.708275 0.576679 0.838252
0.707877 0.576282 0.966490
0.707723 0.576127 1.000000
0.706783 0.706783 0.015819
0.706322 0.706322 0.164310
0.705888 0.705888 0.304319
0.705466 0.705466 0.440244
0.705053 0.705053 0.573458
0.704646 0.704646 0.704646
0.704244 0.704244 0.834222
0.703847 0.703847 0.962460
0.703692 0.703692 1.000000
0.702802 0.832779 0.011838
0.702341 0.832319 0.160329
0.701907 0.831885 0.300338
0.701486 0.831463 0.436264
0.701073 0.831050 0.569477
0.700666 0.830643 0.700666
0.700264 0.830241 0.830241
0.699866 0.829844 0.958480
0.699712 0.829689 1.000000
0.698862 0.957476 0.007899
0.698402 0.957015 0.156390
0.697968 0.956581 0.296399
0.697546 0.956160 0.432324
0.697133 0.955746 0.565538
0.696726 0.955340 0.696726
0.696324 0.954938 0.826302
0.695927 0.954540 0.954540
0.695772 0.954386 1.000000
0.697332 1.000000 0.006369
0.696872 1.000000 0.154860
0.696438 1.000000 0.294869
0.696016 1.000000 0.430794
0.695603 1.000000 0.564008
0.695196 1.000000 0.695196
0.694794 1.000000 0.824772
0.694397 1.000000 0.953010
0.694242 1.000000 1.000000
0.856738 0.035797 0.035797
0.856278 0.035336 0.184288
0.855843 0.034902 0.324297
0.855422 0.034481 0.460222
0.855009 0.034068 0.593436
0.854602 0.033661 0.724624
0.854200 0.033259 0.854200
0.853802 0.032861 0.982438
0.853648 0.032707 1.000000
0.852176 0.180187 0.031235
0.851716 0.179726 0.179726
0.851282 0.179292 0.319735
0.850860 0.178870 0.455660
0.850447 0.178457 0.588874
0.850040 0.178050 0.720063
0.849638 0.177648 0.849638
0.849241 0.177251 0.977876
0.849086 0.177096 1.000000
0.847875 0.316329 0.026934
0.847415 0.315868 0.175425
0.846980 0.315434 0.315434
0.846559 0.315013 0.451359
0.846146 0.314599 0.584573
0.845739 0.314193 0.715761
0.845337 0.313791 0.845337
0.844939 0.313393 0.973575
0.844785 0.313239 1.000000
0.843699 0.448500 0.022758
0.843239 0.448039 0.171249
0.842805 0.447605 0.311258
0.842383 0.447184 0.447184
0.841970 0.446770 0.580397
0.841563 0.446364 0.711586
0.841161 0.445962 0.841161
0.840764 0.445564 0.969400
0.840609 0.445410 1.000000
0.839607 0.578034 0.018666
0.839147 0.577574 0.167157
0.838712 0.577139 0.307166
0.838291 0.576718 0.443091
0.837878 0.576305 0.576305
0.837471 0.575898 0.707493
0.837069 0.575496 0.837069
0.836671 0.575098 0.965307
0.836517 0.574944 1.000000
0.835577 0.705599 0.014636
0.835116 0.705139 0.163127
0.834682 0.704705 0.303136
0.834261 0.704283 0.439061
0.833847 0.703870 0.572275
0.833441 0.703463 0.703463
0.833039 0.703061 0.833039
0.832641 0.702663 0.961277
0.832487 0.702509 1.000000
0.831596 0.831596 0.010655
0.831136 0.831136 0.159146
0.830701 0.830701 0.299155
0.830280 0.830280 0.435080
0.829867 0.829867 0.568294
0.829460 0.829460 0.699482
0.829058 0.829058 0.829058
0.828660 0.828660 0.957296
0.828506 0.828506 1.000000
0.827657 0.956292 0.006716
0.827196 0.955832 0.155206
0.826762 0.955398 0.295216
0.826340 0.954976 0.431141
0.825927 0.954563 0.564354
0.825520 0.954156 0.695543
0.825119 0.953754 0.825119
0.824721 0.953357 0.953357
0.824566 0.953202 1.000000
0.826127 1.000000 0.005186
0.825666 1.000000 0.153676
0.825232 1.000000 0.293686
0.824811 1.000000 0.429611
0.824397 1.000000 0.562825
0.823991 1.000000 0.694013
0.823589 1.000000 0.823589
0.823191 1.000000 0.951827
0.823037 1.000000 1.000000
0.984203 0.034626 0.034626
0.983742 0.034165 0.183117
0.983308 0.033731 0.323126
0.982887 0.033310 0.459051
0.982473 0.032896 0.592265
0.982067 0.032490 0.723453
0.981665 0.032088 0.853029
0.981267 0.031690 0.981267
0.981113 0.031536 1.000000
0.979641 0.179015 0.030064
0.979181 0.178555 0.178555
0.978746 0.178121 0.318564
0.978325 0.177699 0.454489
0.977912 0.177286 0.587703
0.977505 0.176879 0.718891
0.977103 0.176477 0.848467
0.976705 0.176080 0.976705
0.976551 0.175925 1.000000
0.975340 0.315158 0.025763
0.974879 0.314697 0.174254
0.974445 0.314263 0.314263
0.974024 0.313841 0.450188
0.973611 0.313428 0.583402
0.973204 0.313021 0.714590
0.972802 0.312620 0.844166
0.972404 0.312222 0.972404
0.972250 0.312067 1.000000
0.971164 0.447329 0.021587
0.970704 0.446868 0.170078
0.970270 0.446434 0.310087
0.969848 0.446012 0.446012
0.969435 0.445599 0.579226
0.969028 0.445192 0.710415
0.968626 0.444791 0.839990
0.968228 0.444393 0.968228
0.968074 0.444238 1.000000
0.967072 0.576863 0.017495
0.966611 0.576403 0.165986
0.966177 0.575968 0.305995
0.965756 0.575547 0.441920
0.965342 0.575134 0.575134
0.964936 0.574727 0.706322
0.964534 0.574325 0.835898
0.964136 0.573927 0.964136
0.963982 0.573773 1.000000
0.963042 0.704428 0.013465
0.962581 0.703968 0.161955
0.962147 0.703533 0.301965
0.961725 0.703112 0.437890
0.961312 0.702699 0.571104
0.960905 0.702292 0.702292
0.960504 0.701890 0.831868
0.960106 0.701492 0.960106
0.959951 0.701338 1.000000
0.959061 0.830425 0.009484
0.958600 0.829965 0.157975
0.958166 0.829530 0.297984
0.957745 0.829109 0.433909
0.957332 0.828696 0.567123
0.956925 0.828289 0.698311
0.956523 0.827887 0.827887
0.956125 0.827489 0.956125
0.955971 0.827335 1.000000
0.955121 0.955121 0.005544
0.954661 0.954661 0.154035
0.954227 0.954227 0.294044
0.953805 0.953805 0.429970
0.953392 0.953392 0.563183
0.952985 0.952985 0.694372
0.952583 0.952583 0.823947
0.952186 0.952186 0.952186
0.952031 0.952031 1.000000
0.953592 1.000000 0.004015
0.953131 1.000000 0.152505
0.952697 1.000000 0.292515
0.952275 1.000000 0.428440
0.951862 1.000000 0.561653
0.951455 1.000000 0.692842
0.951053 1.000000 0.822418
0.950656 1.000000 0.950656
0.950501 1.000000 1.000000
1.000000 0.034171 0.034171
1.000000 0.033711 0.182662
1.000000 0.033276 0.322671
1.000000 0.032855 0.458596
1.000000 0.032442 0.591810
1.000000 0.032035 0.722998
1.000000 0.031633 0.852574
1.000000 0.031235 0.980812
1.000000 0.031081 1.000000
1.000000 0.178561 0.029609
1.000000 0.178100 0.178100
1.000000 0.177666 0.318109
1.000000 0.177244 0.454035
1.000000 0.176831 0.587248
1.000000 0.176424 0.718437
1.000000 0.176023 0.848012
1.000000 0.175625 0.976251
1.000000 0.175470 1.000000
1.000000 0.314703 0.025308
1.000000 0.314242 0.173799
1.000000 0.313808 0.313808
1.000000 0.313387 0.449733
1.000000 0.312974 0.582947
1.000000 0.312567 0.714136
1.000000 0.312165 0.843711
1.000000 0.311767 0.971949
1.000000 0.311613 1.000000
1.000000 0.446874 0.021132
1.000000 0.446413 0.169623
1.000000 0.445979 0.309633
1.000000 0.445558 0.445558
1.000000 0.445145 0.578771
1.000000 0.444738 0.709960
1.000000 0.444336 0.839536
1.000000 0.443938 0.967774
1.000000 0.443784 1.000000
1.000000 0.576408 0.017040
1.000000 0.575948 0.165531
1.000000 0.575514 0.305540
1.000000 0.575092 0.441465
1.000000 0.574679 0.574679
1.000000 0.574272 0.705867
1.000000 0.573870 0.835443
1.000000 0.573473 0.963681
1.000000 0.573318 1.000000
1.000000 0.703973 0.013010
1.000000 0.703513 0.161501
1.000000 0.703079 0.301510
1.000000 0.702657 0.437435
1.000000 0.702244 0.570649
1.000000 0.701837 0.701837
1.000000 0.701435 0.831413
1.000000 0.701038 0.959651
1.000000 0.700883 1.000000
1.000000 0.829970 0.009029
1.000000 0.829510 0.157520
1.000000 0.829076 0.297529
1.000000 0.828654 0.433454
1.000000 0.828241 0.566668
1.000000 0.827834 0.697857
1.000000 0.827432 0.827432
1.000000 0.827035 0.955670
1.000000 0.826880 1.000000
1.000000 0.954667 0.005090
1.000000 0.954206 0.153580
1.000000 0.953772 0.293590
1.000000 0.953350 0.429515
1.000000 0.952937 0.562729
1.000000 0.952530 0.693917
1.000000 0.952129 0.823493
1.000000 0.951731 0.951731
1.000000 0.951576 1.000000
1.000000 1.000000 0.003560
1.000000 1.000000 0.152051
1.000000 1.000000 0.292060
1.000000 1.000000 0.427985
1.000000 1.000000 0.561199
1.000000 1.000000 0.692387
1.000000 1.000000 0.821963
1.000000 1.000000 0.950201
1.000000 1.000000 1.000000
