skills/editops-orchestrator/assets/grade/luts/clean_bright_v04.cube
TITLE "clean_bright_v04"
LUT_3D_SIZE 17
DOMAIN_MIN 0.0 0.0 0.0
DOMAIN_MAX 1.0 1.0 1.0
0.015867 0.015867 0.015867
0.015829 0.015829 0.083285
0.015792 0.015792 0.148938
0.015755 0.015755 0.213742
0.015719 0.015719 0.277979
0.015683 0.015683 0.341788
0.015647 0.015647 0.405256
0.015611 0.015611 0.468438
0.015576 0.015576 0.531376
0.015540 0.015540 0.594101
0.015505 0.015505 0.656636
0.015470 0.015470 0.719000
0.015434 0.015434 0.781209
0.015399 0.015399 0.843276
0.015364 0.015364 0.905212
0.015329 0.015329 0.967027
0.015306 0.015306 1.000000
0.015490 0.082945 0.015490
0.015451 0.082907 0.082907
0.015414 0.082870 0.148560
0.015378 0.082833 0.213364
0.015341 0.082797 0.277601
0.015305 0.082761 0.341410
0.015269 0.082725 0.404878
0.015233 0.082689 0.468060
0.015198 0.082653 0.530999
0.015162 0.082618 0.593723
0.015127 0.082582 0.656258
0.015092 0.082547 0.718622
0.015056 0.082512 0.780831
0.015021 0.082477 0.842898
0.014986 0.082442 0.904834
0.014951 0.082407 0.966649
0.014929 0.082384 1.000000
0.015122 0.148267 0.015122
0.015083 0.148229 0.082539
0.015046 0.148192 0.148192
0.015010 0.148155 0.212996
0.014973 0.148119 0.277233
0.014937 0.148083 0.341042
0.014901 0.148047 0.404510
0.014865 0.148011 0.467692
0.014830 0.147975 0.530631
0.014794 0.147940 0.593355
0.014759 0.147905 0.655890
0.014724 0.147869 0.718254
0.014688 0.147834 0.780463
0.014653 0.147799 0.842530
0.014618 0.147764 0.904466
0.014583 0.147729 0.966281
0.014561 0.147706 1.000000
0.014758 0.212745 0.014758
0.014720 0.212707 0.082176
0.014683 0.212670 0.147829
0.014646 0.212633 0.212633
0.014610 0.212597 0.276869
0.014574 0.212560 0.340679
0.014538 0.212525 0.404147
0.014502 0.212489 0.467329
0.014467 0.212453 0.530267
0.014431 0.212418 0.592992
0.014396 0.212382 0.655527
0.014360 0.212347 0.717891
0.014325 0.212312 0.780100
0.014290 0.212277 0.842167
0.014255 0.212242 0.904103
0.014220 0.212207 0.965918
0.014197 0.212184 1.000000
0.014398 0.276658 0.014398
0.014360 0.276620 0.081816
0.014323 0.276582 0.147469
0.014286 0.276546 0.212273
0.014250 0.276509 0.276509
0.014214 0.276473 0.340319
0.014178 0.276437 0.403787
0.014142 0.276402 0.466969
0.014107 0.276366 0.529907
0.014071 0.276330 0.592632
0.014036 0.276295 0.655167
0.014000 0.276260 0.717531
0.013965 0.276225 0.779740
0.013930 0.276189 0.841807
0.013895 0.276154 0.903743
0.013860 0.276119 0.965558
0.013837 0.276097 1.000000
0.014041 0.340146 0.014041
0.014002 0.340108 0.081458
0.013965 0.340070 0.147111
0.013929 0.340034 0.211915
0.013892 0.339997 0.276152
0.013856 0.339961 0.339961
0.013820 0.339925 0.403429
0.013784 0.339890 0.466611
0.013749 0.339854 0.529550
0.013713 0.339818 0.592274
0.013678 0.339783 0.654809
0.013643 0.339748 0.717173
0.013607 0.339713 0.779382
0.013572 0.339677 0.841449
0.013537 0.339642 0.903385
0.013502 0.339607 0.965200
0.013480 0.339585 1.000000
0.013685 0.403293 0.013685
0.013647 0.403255 0.081102
0.013609 0.403218 0.146755
0.013573 0.403181 0.211559
0.013536 0.403145 0.275796
0.013500 0.403109 0.339605
0.013464 0.403073 0.403073
0.013429 0.403037 0.466256
0.013393 0.403002 0.529194
0.013358 0.402966 0.591918
0.013322 0.402931 0.654453
0.013287 0.402896 0.716817
0.013252 0.402860 0.779026
0.013217 0.402825 0.841094
0.013182 0.402790 0.903030
0.013147 0.402755 0.964845
0.013124 0.402732 1.000000
0.013331 0.466158 0.013331
0.013292 0.466119 0.080748
0.013255 0.466082 0.146401
0.013219 0.466046 0.211205
0.013182 0.466009 0.275442
0.013146 0.465973 0.339251
0.013110 0.465937 0.402719
0.013075 0.465901 0.465901
0.013039 0.465866 0.528840
0.013003 0.465830 0.591564
0.012968 0.465795 0.654099
0.012933 0.465760 0.716463
0.012898 0.465724 0.778672
0.012862 0.465689 0.840739
0.012827 0.465654 0.902676
0.012792 0.465619 0.964490
0.012770 0.465597 1.000000
0.012978 0.528779 0.012978
0.012940 0.528740 0.080395
0.012903 0.528703 0.146048
0.012866 0.528667 0.210852
0.012830 0.528630 0.275089
0.012793 0.528594 0.338899
0.012758 0.528558 0.402366
0.012722 0.528523 0.465549
0.012686 0.528487 0.528487
0.012651 0.528451 0.591211
0.012615 0.528416 0.653746
0.012580 0.528381 0.716110
0.012545 0.528346 0.778319
0.012510 0.528310 0.840387
0.012475 0.528275 0.902323
0.012440 0.528240 0.964138
0.012417 0.528218 1.000000
0.012626 0.591187 0.012626
0.012588 0.591149 0.080044
0.012551 0.591112 0.145697
0.012514 0.591075 0.210501
0.012478 0.591039 0.274737
0.012442 0.591003 0.338547
0.012406 0.590967 0.402015
0.012370 0.590931 0.465197
0.012335 0.590895 0.528135
0.012299 0.590860 0.590860
0.012264 0.590825 0.653395
0.012228 0.590789 0.715759
0.012193 0.590754 0.777968
0.012158 0.590719 0.840035
0.012123 0.590684 0.901971
0.012088 0.590649 0.963786
0.012065 0.590626 1.000000
0.012276 0.653407 0.012276
0.012238 0.653369 0.079693
0.012200 0.653331 0.145346
0.012164 0.653295 0.210150
0.012127 0.653258 0.274387
0.012091 0.653222 0.338196
0.012055 0.653186 0.401664
0.012020 0.653151 0.464847
0.011984 0.653115 0.527785
0.011949 0.653080 0.590509
0.011913 0.653044 0.653044
0.011878 0.653009 0.715408
0.011843 0.652974 0.777617
0.011808 0.652939 0.839684
0.011772 0.652903 0.901621
0.011738 0.652868 0.963435
0.011715 0.652846 1.000000
0.011926 0.715457 0.011926
0.011888 0.715418 0.079343
0.011851 0.715381 0.144997
0.011814 0.715345 0.209801
0.011778 0.715308 0.274037
0.011742 0.715272 0.337847
0.011706 0.715236 0.401314
0.011670 0.715200 0.464497
0.011634 0.715165 0.527435
0.011599 0.715129 0.590160
0.011564 0.715094 0.652695
0.011528 0.715059 0.715059
0.011493 0.715023 0.777268
0.011458 0.714988 0.839335
0.011423 0.714953 0.901271
0.011388 0.714918 0.963086
0.011365 0.714896 1.000000
0.011577 0.777352 0.011577
0.011539 0.777314 0.078995
0.011502 0.777277 0.144648
0.011466 0.777240 0.209452
0.011429 0.777204 0.273689
0.011393 0.777168 0.337498
0.011357 0.777132 0.400966
0.011321 0.777096 0.464148
0.011286 0.777060 0.527087
0.011250 0.777025 0.589811
0.011215 0.776990 0.652346
0.011180 0.776954 0.714710
0.011144 0.776919 0.776919
0.011109 0.776884 0.838986
0.011074 0.776849 0.900922
0.011039 0.776814 0.962737
0.011017 0.776791 1.000000
0.011230 0.839106 0.011230
0.011191 0.839068 0.078647
0.011154 0.839031 0.144300
0.011118 0.838995 0.209104
0.011081 0.838958 0.273341
0.011045 0.838922 0.337150
0.011009 0.838886 0.400618
0.010973 0.838850 0.463800
0.010938 0.838815 0.526739
0.010902 0.838779 0.589463
0.010867 0.838744 0.651998
0.010832 0.838709 0.714362
0.010796 0.838673 0.776571
0.010761 0.838638 0.838638
0.010726 0.838603 0.900575
0.010691 0.838568 0.962389
0.010669 0.838546 1.000000
0.010882 0.900731 0.010882
0.010844 0.900692 0.078300
0.010807 0.900655 0.143953
0.010770 0.900619 0.208757
0.010734 0.900582 0.272994
0.010698 0.900546 0.336803
0.010662 0.900510 0.400271
0.010626 0.900475 0.463453
0.010591 0.900439 0.526391
0.010555 0.900403 0.589116
0.010520 0.900368 0.651651
0.010485 0.900333 0.714015
0.010449 0.900298 0.776224
0.010414 0.900262 0.838291
0.010379 0.900227 0.900227
0.010344 0.900192 0.962042
0.010321 0.900170 1.000000
0.010536 0.962234 0.010536
0.010498 0.962196 0.077953
0.010461 0.962159 0.143606
0.010424 0.962122 0.208411
0.010388 0.962086 0.272647
0.010351 0.962049 0.336457
0.010316 0.962014 0.399924
0.010280 0.961978 0.463107
0.010244 0.961942 0.526045
0.010209 0.961907 0.588770
0.010173 0.961871 0.651304
0.010138 0.961836 0.713668
0.010103 0.961801 0.775878
0.010068 0.961766 0.837945
0.010033 0.961731 0.899881
0.009998 0.961696 0.961696
0.009975 0.961673 1.000000
0.010311 1.000000 0.010311
0.010273 1.000000 0.077728
0.010235 1.000000 0.143381
0.010199 1.000000 0.208185
0.010162 1.000000 0.272422
0.010126 1.000000 0.336231
0.010090 1.000000 0.399699
0.010055 1.000000 0.462882
0.010019 1.000000 0.525820
0.009983 1.000000 0.588544
0.009948 1.000000 0.651079
0.009913 1.000000 0.713443
0.009878 1.000000 0.775652
0.009842 1.000000 0.837719
0.009807 1.000000 0.899656
0.009772 1.000000 0.961470
0.009750 1.000000 1.000000
0.083211 0.015755 0.015755
0.083172 0.015717 0.083172
0.083135 0.015680 0.148825
0.083099 0.015643 0.213630
0.083062 0.015607 0.277866
0.083026 0.015571 0.341676
0.082990 0.015535 0.405143
0.082954 0.015499 0.468326
0.082919 0.015463 0.531264
0.082883 0.015428 0.593989
0.082848 0.015392 0.656523
0.082813 0.015357 0.718888
0.082777 0.015322 0.781097
0.082742 0.015287 0.843164
0.082707 0.015252 0.905100
0.082672 0.015217 0.966915
0.082650 0.015194 1.000000
0.082833 0.082833 0.015377
0.082794 0.082794 0.082794
0.082757 0.082757 0.148448
0.082721 0.082721 0.213252
0.082684 0.082684 0.277488
0.082648 0.082648 0.341298
0.082612 0.082612 0.404766
0.082577 0.082577 0.467948
0.082541 0.082541 0.530886
0.082505 0.082505 0.593611
0.082470 0.082470 0.656146
0.082435 0.082435 0.718510
0.082400 0.082400 0.780719
0.082364 0.082364 0.842786
0.082329 0.082329 0.904722
0.082294 0.082294 0.966537
0.082272 0.082272 1.000000
0.082465 0.148155 0.015009
0.082426 0.148117 0.082426
0.082389 0.148080 0.148080
0.082353 0.148043 0.212884
0.082316 0.148007 0.277120
0.082280 0.147970 0.340930
0.082244 0.147935 0.404398
0.082209 0.147899 0.467580
0.082173 0.147863 0.530518
0.082137 0.147828 0.593243
0.082102 0.147792 0.655778
0.082067 0.147757 0.718142
0.082032 0.147722 0.780351
0.081996 0.147687 0.842418
0.081961 0.147652 0.904354
0.081926 0.147617 0.966169
0.081904 0.147594 1.000000
0.082101 0.212633 0.014646
0.082063 0.212594 0.082063
0.082026 0.212557 0.147716
0.081989 0.212521 0.212521
0.081953 0.212484 0.276757
0.081917 0.212448 0.340567
0.081881 0.212412 0.404034
0.081845 0.212376 0.467217
0.081810 0.212341 0.530155
0.081774 0.212305 0.592880
0.081739 0.212270 0.655414
0.081704 0.212235 0.717778
0.081668 0.212199 0.779988
0.081633 0.212164 0.842055
0.081598 0.212129 0.903991
0.081563 0.212094 0.965806
0.081540 0.212072 1.000000
0.081741 0.276545 0.014286
0.081703 0.276507 0.081703
0.081666 0.276470 0.147356
0.081629 0.276433 0.212161
0.081593 0.276397 0.276397
0.081557 0.276361 0.340207
0.081521 0.276325 0.403674
0.081485 0.276289 0.466857
0.081450 0.276254 0.529795
0.081414 0.276218 0.592520
0.081379 0.276183 0.655054
0.081343 0.276147 0.717418
0.081308 0.276112 0.779627
0.081273 0.276077 0.841695
0.081238 0.276042 0.903631
0.081203 0.276007 0.965446
0.081180 0.275984 1.000000
0.081384 0.340033 0.013928
0.081346 0.339995 0.081346
0.081308 0.339958 0.146999
0.081272 0.339921 0.211803
0.081235 0.339885 0.276039
0.081199 0.339849 0.339849
0.081163 0.339813 0.403317
0.081128 0.339777 0.466499
0.081092 0.339742 0.529437
0.081056 0.339706 0.592162
0.081021 0.339671 0.654697
0.080986 0.339635 0.717061
0.080951 0.339600 0.779270
0.080915 0.339565 0.841337
0.080880 0.339530 0.903273
0.080845 0.339495 0.965088
0.080823 0.339472 1.000000
0.081028 0.403181 0.013572
0.080990 0.403143 0.080990
0.080953 0.403106 0.146643
0.080916 0.403069 0.211447
0.080880 0.403033 0.275684
0.080843 0.402997 0.339493
0.080808 0.402961 0.402961
0.080772 0.402925 0.466143
0.080736 0.402889 0.529082
0.080701 0.402854 0.591806
0.080665 0.402819 0.654341
0.080630 0.402783 0.716705
0.080595 0.402748 0.778914
0.080560 0.402713 0.840981
0.080525 0.402678 0.902917
0.080490 0.402643 0.964732
0.080467 0.402620 1.000000
0.080674 0.466045 0.013218
0.080636 0.466007 0.080636
0.080598 0.465970 0.146289
0.080562 0.465933 0.211093
0.080525 0.465897 0.275329
0.080489 0.465861 0.339139
0.080453 0.465825 0.402607
0.080418 0.465789 0.465789
0.080382 0.465754 0.528727
0.080347 0.465718 0.591452
0.080311 0.465683 0.653987
0.080276 0.465647 0.716351
0.080241 0.465612 0.778560
0.080206 0.465577 0.840627
0.080171 0.465542 0.902563
0.080136 0.465507 0.964378
0.080113 0.465484 1.000000
0.080321 0.528666 0.012866
0.080283 0.528628 0.080283
0.080246 0.528591 0.145936
0.080209 0.528554 0.210740
0.080173 0.528518 0.274977
0.080137 0.528482 0.338786
0.080101 0.528446 0.402254
0.080065 0.528410 0.465436
0.080029 0.528375 0.528375
0.079994 0.528339 0.591099
0.079958 0.528304 0.653634
0.079923 0.528268 0.715998
0.079888 0.528233 0.778207
0.079853 0.528198 0.840274
0.079818 0.528163 0.902210
0.079783 0.528128 0.964025
0.079760 0.528105 1.000000
0.079969 0.591075 0.012514
0.079931 0.591037 0.079931
0.079894 0.590999 0.145584
0.079857 0.590963 0.210389
0.079821 0.590926 0.274625
0.079785 0.590890 0.338435
0.079749 0.590854 0.401902
0.079713 0.590819 0.465085
0.079678 0.590783 0.528023
0.079642 0.590748 0.590748
0.079607 0.590712 0.653282
0.079572 0.590677 0.715646
0.079536 0.590642 0.777856
0.079501 0.590607 0.839923
0.079466 0.590572 0.901859
0.079431 0.590537 0.963674
0.079408 0.590514 1.000000
0.079619 0.653294 0.012163
0.079581 0.653256 0.079581
0.079544 0.653219 0.145234
0.079507 0.653182 0.210038
0.079471 0.653146 0.274275
0.079434 0.653110 0.338084
0.079399 0.653074 0.401552
0.079363 0.653038 0.464734
0.079327 0.653003 0.527672
0.079292 0.652967 0.590397
0.079256 0.652932 0.652932
0.079221 0.652897 0.715296
0.079186 0.652861 0.777505
0.079151 0.652826 0.839572
0.079116 0.652791 0.901508
0.079081 0.652756 0.963323
0.079058 0.652733 1.000000
0.079269 0.715344 0.011814
0.079231 0.715306 0.079231
0.079194 0.715269 0.144884
0.079157 0.715232 0.209688
0.079121 0.715196 0.273925
0.079085 0.715160 0.337735
0.079049 0.715124 0.401202
0.079013 0.715088 0.464385
0.078978 0.715053 0.527323
0.078942 0.715017 0.590047
0.078907 0.714982 0.652582
0.078871 0.714946 0.714946
0.078836 0.714911 0.777155
0.078801 0.714876 0.839223
0.078766 0.714841 0.901159
0.078731 0.714806 0.962974
0.078708 0.714783 1.000000
0.078921 0.777240 0.011465
0.078882 0.777202 0.078882
0.078845 0.777165 0.144536
0.078809 0.777128 0.209340
0.078772 0.777091 0.273576
0.078736 0.777055 0.337386
0.078700 0.777019 0.400853
0.078665 0.776984 0.464036
0.078629 0.776948 0.526974
0.078593 0.776913 0.589699
0.078558 0.776877 0.652234
0.078523 0.776842 0.714598
0.078488 0.776807 0.776807
0.078452 0.776772 0.838874
0.078417 0.776737 0.900810
0.078382 0.776702 0.962625
0.078360 0.776679 1.000000
0.078573 0.838994 0.011117
0.078535 0.838956 0.078535
0.078497 0.838919 0.144188
0.078461 0.838882 0.208992
0.078424 0.838846 0.273228
0.078388 0.838810 0.337038
0.078352 0.838774 0.400506
0.078317 0.838738 0.463688
0.078281 0.838702 0.526626
0.078246 0.838667 0.589351
0.078210 0.838632 0.651886
0.078175 0.838596 0.714250
0.078140 0.838561 0.776459
0.078105 0.838526 0.838526
0.078069 0.838491 0.900462
0.078034 0.838456 0.962277
0.078012 0.838433 1.000000
0.078226 0.900618 0.010770
0.078187 0.900580 0.078187
0.078150 0.900543 0.143840
0.078114 0.900506 0.208645
0.078077 0.900470 0.272881
0.078041 0.900434 0.336691
0.078005 0.900398 0.400158
0.077969 0.900362 0.463341
0.077934 0.900327 0.526279
0.077898 0.900291 0.589004
0.077863 0.900256 0.651538
0.077828 0.900220 0.713903
0.077792 0.900185 0.776112
0.077757 0.900150 0.838179
0.077722 0.900115 0.900115
0.077687 0.900080 0.961930
0.077665 0.900057 1.000000
0.077879 0.962122 0.010424
0.077841 0.962083 0.077841
0.077804 0.962046 0.143494
0.077767 0.962010 0.208298
0.077731 0.961973 0.272535
0.077695 0.961937 0.336344
0.077659 0.961901 0.399812
0.077623 0.961865 0.462994
0.077587 0.961830 0.525933
0.077552 0.961794 0.588657
0.077516 0.961759 0.651192
0.077481 0.961724 0.713556
0.077446 0.961688 0.775765
0.077411 0.961653 0.837832
0.077376 0.961618 0.899769
0.077341 0.961583 0.961583
0.077318 0.961561 1.000000
0.077654 1.000000 0.010198
0.077616 1.000000 0.077616
0.077579 1.000000 0.143269
0.077542 1.000000 0.208073
0.077505 1.000000 0.272309
0.077469 1.000000 0.336119
0.077433 1.000000 0.399587
0.077398 1.000000 0.462769
0.077362 1.000000 0.525707
0.077327 1.000000 0.588432
0.077291 1.000000 0.650967
0.077256 1.000000 0.713331
0.077221 1.000000 0.775540
0.077186 1.000000 0.837607
0.077151 1.000000 0.899543
0.077116 1.000000 0.961358
0.077093 1.000000 1.000000
0.148791 0.015646 0.015646
0.148753 0.015608 0.083063
0.148716 0.015570 0.148716
0.148679 0.015534 0.213520
0.148643 0.015497 0.277757
0.148607 0.015461 0.341566
0.148571 0.015425 0.405034
0.148535 0.015390 0.468217
0.148500 0.015354 0.531155
0.148464 0.015318 0.593879
0.148429 0.015283 0.656414
0.148393 0.015248 0.718778
0.148358 0.015213 0.780987
0.148323 0.015177 0.843054
0.148288 0.015142 0.904991
0.148253 0.015107 0.966805
0.148230 0.015085 1.000000
0.148413 0.082723 0.015268
0.148375 0.082685 0.082685
0.148338 0.082648 0.148338
0.148301 0.082611 0.213142
0.148265 0.082575 0.277379
0.148229 0.082539 0.341189
0.148193 0.082503 0.404656
0.148157 0.082467 0.467839
0.148122 0.082432 0.530777
0.148086 0.082396 0.593501
0.148051 0.082361 0.656036
0.148016 0.082325 0.718400
0.147980 0.082290 0.780609
0.147945 0.082255 0.842677
0.147910 0.082220 0.904613
0.147875 0.082185 0.966428
0.147853 0.082162 1.000000
0.148045 0.148045 0.014900
0.148007 0.148007 0.082317
0.147970 0.147970 0.147970
0.147933 0.147933 0.212774
0.147897 0.147897 0.277011
0.147861 0.147861 0.340821
0.147825 0.147825 0.404288
0.147789 0.147789 0.467471
0.147754 0.147754 0.530409
0.147718 0.147718 0.593133
0.147683 0.147683 0.655668
0.147648 0.147648 0.718032
0.147612 0.147612 0.780241
0.147577 0.147577 0.842309
0.147542 0.147542 0.904245
0.147507 0.147507 0.966060
0.147485 0.147485 1.000000
0.147682 0.212523 0.014537
0.147644 0.212485 0.081954
0.147607 0.212448 0.147607
0.147570 0.212411 0.212411
0.147534 0.212375 0.276648
0.147498 0.212339 0.340457
0.147462 0.212303 0.403925
0.147426 0.212267 0.467107
0.147391 0.212231 0.530046
0.147355 0.212196 0.592770
0.147320 0.212161 0.655305
0.147284 0.212125 0.717669
0.147249 0.212090 0.779878
0.147214 0.212055 0.841945
0.147179 0.212020 0.903881
0.147144 0.211985 0.965696
0.147121 0.211962 1.000000
0.147322 0.276436 0.014176
0.147284 0.276398 0.081594
0.147247 0.276361 0.147247
0.147210 0.276324 0.212051
0.147174 0.276288 0.276288
0.147138 0.276252 0.340097
0.147102 0.276216 0.403565
0.147066 0.276180 0.466747
0.147030 0.276144 0.529686
0.146995 0.276109 0.592410
0.146960 0.276073 0.654945
0.146924 0.276038 0.717309
0.146889 0.276003 0.779518
0.146854 0.275968 0.841585
0.146819 0.275933 0.903521
0.146784 0.275898 0.965336
0.146761 0.275875 1.000000
0.146964 0.339924 0.013819
0.146926 0.339886 0.081236
0.146889 0.339849 0.146889
0.146853 0.339812 0.211693
0.146816 0.339776 0.275930
0.146780 0.339740 0.339740
0.146744 0.339704 0.403207
0.146708 0.339668 0.466390
0.146673 0.339632 0.529328
0.146637 0.339597 0.592052
0.146602 0.339561 0.654587
0.146567 0.339526 0.716951
0.146531 0.339491 0.779160
0.146496 0.339456 0.841228
0.146461 0.339421 0.903164
0.146426 0.339386 0.964979
0.146404 0.339363 1.000000
0.146609 0.403072 0.013463
0.146571 0.403034 0.080880
0.146533 0.402996 0.146533
0.146497 0.402960 0.211338
0.146460 0.402923 0.275574
0.146424 0.402887 0.339384
0.146388 0.402851 0.402851
0.146353 0.402816 0.466034
0.146317 0.402780 0.528972
0.146282 0.402745 0.591697
0.146246 0.402709 0.654231
0.146211 0.402674 0.716596
0.146176 0.402639 0.778805
0.146141 0.402604 0.840872
0.146105 0.402568 0.902808
0.146071 0.402533 0.964623
0.146048 0.402511 1.000000
0.146255 0.465936 0.013109
0.146216 0.465898 0.080526
0.146179 0.465861 0.146179
0.146143 0.465824 0.210984
0.146106 0.465788 0.275220
0.146070 0.465751 0.339030
0.146034 0.465716 0.402497
0.145998 0.465680 0.465680
0.145963 0.465644 0.528618
0.145927 0.465609 0.591343
0.145892 0.465573 0.653877
0.145857 0.465538 0.716241
0.145822 0.465503 0.778451
0.145786 0.465468 0.840518
0.145751 0.465433 0.902454
0.145716 0.465398 0.964269
0.145694 0.465375 1.000000
0.145902 0.528557 0.012756
0.145864 0.528519 0.080173
0.145826 0.528482 0.145826
0.145790 0.528445 0.210631
0.145753 0.528409 0.274867
0.145717 0.528372 0.338677
0.145681 0.528337 0.402144
0.145646 0.528301 0.465327
0.145610 0.528265 0.528265
0.145575 0.528230 0.590990
0.145539 0.528194 0.653525
0.145504 0.528159 0.715889
0.145469 0.528124 0.778098
0.145434 0.528089 0.840165
0.145399 0.528054 0.902101
0.145364 0.528019 0.963916
0.145341 0.527996 1.000000
0.145550 0.590965 0.012405
0.145512 0.590927 0.079822
0.145475 0.590890 0.145475
0.145438 0.590853 0.210279
0.145402 0.590817 0.274516
0.145366 0.590781 0.338325
0.145330 0.590745 0.401793
0.145294 0.590709 0.464975
0.145258 0.590674 0.527914
0.145223 0.590638 0.590638
0.145188 0.590603 0.653173
0.145152 0.590567 0.715537
0.145117 0.590532 0.777746
0.145082 0.590497 0.839813
0.145047 0.590462 0.901749
0.145012 0.590427 0.963564
0.144989 0.590404 1.000000
0.145200 0.653185 0.012054
0.145162 0.653147 0.079471
0.145124 0.653110 0.145124
0.145088 0.653073 0.209929
0.145051 0.653037 0.274165
0.145015 0.653001 0.337975
0.144979 0.652965 0.401442
0.144944 0.652929 0.464625
0.144908 0.652893 0.527563
0.144872 0.652858 0.590288
0.144837 0.652822 0.652822
0.144802 0.652787 0.715187
0.144767 0.652752 0.777396
0.144731 0.652717 0.839463
0.144696 0.652682 0.901399
0.144661 0.652647 0.963214
0.144639 0.652624 1.000000
0.144850 0.715235 0.011704
0.144812 0.715197 0.079122
0.144775 0.715160 0.144775
0.144738 0.715123 0.209579
0.144702 0.715087 0.273816
0.144666 0.715050 0.337625
0.144630 0.715014 0.401093
0.144594 0.714979 0.464275
0.144558 0.714943 0.527214
0.144523 0.714908 0.589938
0.144488 0.714872 0.652473
0.144452 0.714837 0.714837
0.144417 0.714802 0.777046
0.144382 0.714767 0.839113
0.144347 0.714732 0.901049
0.144312 0.714697 0.962864
0.144289 0.714674 1.000000
0.144501 0.777130 0.011356
0.144463 0.777092 0.078773
0.144426 0.777055 0.144426
0.144389 0.777018 0.209230
0.144353 0.776982 0.273467
0.144317 0.776946 0.337276
0.144281 0.776910 0.400744
0.144245 0.776874 0.463927
0.144210 0.776839 0.526865
0.144174 0.776803 0.589589
0.144139 0.776768 0.652124
0.144104 0.776733 0.714488
0.144068 0.776697 0.776697
0.144033 0.776662 0.838764
0.143998 0.776627 0.900701
0.143963 0.776592 0.962515
0.143940 0.776569 1.000000
0.144154 0.838885 0.011008
0.144115 0.838847 0.078425
0.144078 0.838809 0.144078
0.144042 0.838773 0.208882
0.144005 0.838736 0.273119
0.143969 0.838700 0.336929
0.143933 0.838664 0.400396
0.143897 0.838629 0.463579
0.143862 0.838593 0.526517
0.143826 0.838558 0.589241
0.143791 0.838522 0.651776
0.143756 0.838487 0.714140
0.143720 0.838452 0.776349
0.143685 0.838417 0.838417
0.143650 0.838382 0.900353
0.143615 0.838347 0.962168
0.143593 0.838324 1.000000
0.143806 0.900509 0.010661
0.143768 0.900471 0.078078
0.143731 0.900434 0.143731
0.143694 0.900397 0.208535
0.143658 0.900361 0.272772
0.143622 0.900324 0.336581
0.143586 0.900289 0.400049
0.143550 0.900253 0.463232
0.143515 0.900217 0.526170
0.143479 0.900182 0.588894
0.143444 0.900146 0.651429
0.143408 0.900111 0.713793
0.143373 0.900076 0.776002
0.143338 0.900041 0.838069
0.143303 0.900006 0.900006
0.143268 0.899971 0.961820
0.143245 0.899948 1.000000
0.143460 0.962012 0.010314
0.143422 0.961974 0.077732
0.143385 0.961937 0.143385
0.143348 0.961900 0.208189
0.143312 0.961864 0.272425
0.143275 0.961828 0.336235
0.143240 0.961792 0.399703
0.143204 0.961756 0.462885
0.143168 0.961720 0.525823
0.143133 0.961685 0.588548
0.143097 0.961650 0.651083
0.143062 0.961614 0.713447
0.143027 0.961579 0.775656
0.142992 0.961544 0.837723
0.142957 0.961509 0.899659
0.142922 0.961474 0.961474
0.142899 0.961451 1.000000
0.143235 1.000000 0.010089
0.143196 1.000000 0.077506
0.143159 1.000000 0.143159
0.143123 1.000000 0.207964
0.143086 1.000000 0.272200
0.143050 1.000000 0.336010
0.143014 1.000000 0.399477
0.142979 1.000000 0.462660
0.142943 1.000000 0.525598
0.142907 1.000000 0.588323
0.142872 1.000000 0.650857
0.142837 1.000000 0.713221
0.142802 1.000000 0.775431
0.142766 1.000000 0.837498
0.142731 1.000000 0.899434
0.142696 1.000000 0.961249
0.142674 1.000000 1.000000
0.213524 0.015538 0.015538
0.213486 0.015500 0.082955
0.213449 0.015462 0.148608
0.213412 0.015426 0.213412
0.213376 0.015389 0.277649
0.213340 0.015353 0.341458
0.213304 0.015317 0.404926
0.213268 0.015282 0.468109
0.213233 0.015246 0.531047
0.213197 0.015211 0.593771
0.213162 0.015175 0.656306
0.213126 0.015140 0.718670
0.213091 0.015105 0.780879
0.213056 0.015070 0.842946
0.213021 0.015034 0.904883
0.212986 0.014999 0.966697
0.212963 0.014977 1.000000
0.213146 0.082615 0.015160
