skills/editops-orchestrator/assets/grade/luts/clean_bright_v19.cube
TITLE "clean_bright_v19"
LUT_3D_SIZE 5
DOMAIN_MIN 0.0 0.0 0.0
DOMAIN_MAX 1.0 1.0 1.0
0.045505 0.045505 0.045505
0.044554 0.044554 0.335791
0.043669 0.043669 0.605986
0.042812 0.042812 0.867462
0.042240 0.042240 1.000000
0.036084 0.327322 0.036084
0.035133 0.326371 0.326371
0.034248 0.325485 0.596566
0.033392 0.324629 0.858041
0.032820 0.324057 1.000000
0.027316 0.589633 0.027316
0.026365 0.588682 0.317602
0.025480 0.587797 0.587797
0.024623 0.586941 0.849273
0.024052 0.586369 1.000000
0.018831 0.843480 0.018831
0.017880 0.842529 0.309117
0.016995 0.841644 0.579312
0.016138 0.840788 0.840788
0.015566 0.840216 1.000000
0.013168 1.000000 0.013168
0.012217 1.000000 0.303455
0.011332 1.000000 0.573650
0.010476 1.000000 0.835125
0.009904 1.000000 1.000000
0.333942 0.042704 0.042704
0.332991 0.041753 0.332991
0.332105 0.040868 0.603186
0.331249 0.040012 0.864661
0.330677 0.039440 1.000000
0.324521 0.324521 0.033284
0.323570 0.323570 0.323570
0.322685 0.322685 0.593765
0.321829 0.321829 0.855241
0.321257 0.321257 1.000000
0.315753 0.586833 0.024516
0.314802 0.585882 0.314802
0.313917 0.584997 0.584997
0.313060 0.584140 0.846473
0.312489 0.583569 1.000000
0.307268 0.840680 0.016031
0.306317 0.839729 0.306317
0.305432 0.838844 0.576512
0.304575 0.837987 0.837987
0.304003 0.837416 1.000000
0.301605 1.000000 0.010368
0.300654 1.000000 0.300654
0.299769 1.000000 0.570849
0.298913 1.000000 0.832325
0.298341 1.000000 1.000000
0.602415 0.040098 0.040098
0.601464 0.039147 0.330384
0.600579 0.038262 0.600579
0.599722 0.037405 0.862055
0.599151 0.036834 1.000000
0.592995 0.321915 0.030678
0.592044 0.320964 0.320964
0.591159 0.320079 0.591159
0.590302 0.319222 0.852635
0.589731 0.318650 1.000000
0.584227 0.584227 0.021909
0.583276 0.583276 0.312196
0.582391 0.582391 0.582391
0.581534 0.581534 0.843866
0.580962 0.580962 1.000000
0.575741 0.838074 0.013424
0.574790 0.837123 0.303710
0.573905 0.836238 0.573905
0.573049 0.835381 0.835381
0.572477 0.834809 1.000000
0.570079 1.000000 0.007762
0.569128 1.000000 0.298048
0.568243 1.000000 0.568243
0.567386 1.000000 0.829719
0.566815 1.000000 1.000000
0.862225 0.037576 0.037576
0.861274 0.036625 0.327862
0.860389 0.035739 0.598057
0.859533 0.034883 0.859533
0.858961 0.034311 1.000000
0.852805 0.319392 0.028155
0.851854 0.318442 0.318442
0.850969 0.317556 0.588636
0.850112 0.316700 0.850112
0.849541 0.316128 1.000000
0.844037 0.581704 0.019387
0.843086 0.580753 0.309673
0.842201 0.579868 0.579868
0.841344 0.579012 0.841344
0.840772 0.578440 1.000000
0.835551 0.835551 0.010902
0.834600 0.834600 0.301188
0.833715 0.833715 0.571383
0.832859 0.832859 0.832859
0.832287 0.832287 1.000000
0.829889 1.000000 0.005239
0.828938 1.000000 0.295526
0.828053 1.000000 0.565720
0.827196 1.000000 0.827196
0.826625 1.000000 1.000000
1.000000 0.035892 0.035892
1.000000 0.034941 0.326179
1.000000 0.034056 0.596374
1.000000 0.033200 0.857849
1.000000 0.032628 1.000000
1.000000 0.317709 0.026472
1.000000 0.316758 0.316758
1.000000 0.315873 0.586953
1.000000 0.315017 0.848429
1.000000 0.314445 1.000000
1.000000 0.580021 0.017704
1.000000 0.579070 0.307990
1.000000 0.578185 0.578185
1.000000 0.577328 0.839661
1.000000 0.576757 1.000000
1.000000 0.833868 0.009219
1.000000 0.832917 0.299505
1.000000 0.832032 0.569700
1.000000 0.831175 0.831175
1.000000 0.830604 1.000000
1.000000 1.000000 0.003556
1.000000 1.000000 0.293842
1.000000 1.000000 0.564037
1.000000 1.000000 0.825513
1.000000 1.000000 1.000000
