skills/editops-orchestrator/assets/grade/luts/clean_bright_v09.cube
TITLE "clean_bright_v09"
LUT_3D_SIZE 9
DOMAIN_MIN 0.0 0.0 0.0
DOMAIN_MAX 1.0 1.0 1.0
0.024811 0.024811 0.024811
0.024605 0.024605 0.163576
0.024406 0.024406 0.296634
0.024212 0.024212 0.427097
0.024020 0.024020 0.555848
0.023830 0.023830 0.683325
0.023641 0.023641 0.809786
0.023454 0.023454 0.935404
0.023329 0.023329 1.000000
0.022762 0.161733 0.022762
0.022555 0.161526 0.161526
0.022357 0.161328 0.294585
0.022162 0.161133 0.425047
0.021970 0.160941 0.553799
0.021780 0.160751 0.681276
0.021592 0.160563 0.807737
0.021405 0.160376 0.933355
0.021280 0.160251 1.000000
0.020797 0.293025 0.020797
0.020590 0.292818 0.159561
0.020392 0.292620 0.292620
0.020197 0.292426 0.423082
0.020005 0.292234 0.551834
0.019815 0.292044 0.679311
0.019627 0.291855 0.805772
0.019439 0.291668 0.931390
0.019315 0.291543 1.000000
0.018870 0.421755 0.018870
0.018663 0.421548 0.157635
0.018465 0.421350 0.290693
0.018271 0.421156 0.421156
0.018079 0.420964 0.549907
0.017889 0.420774 0.677384
0.017700 0.420585 0.803845
0.017513 0.420398 0.929463
0.017388 0.420273 1.000000
0.016969 0.548798 0.016969
0.016762 0.548591 0.155733
0.016564 0.548392 0.288792
0.016369 0.548198 0.419254
0.016177 0.548006 0.548006
0.015987 0.547816 0.675483
0.015799 0.547627 0.801944
0.015611 0.547440 0.927562
0.015487 0.547315 1.000000
0.015086 0.674582 0.015086
0.014879 0.674375 0.153850
0.014681 0.674176 0.286909
0.014487 0.673982 0.417371
0.014295 0.673790 0.546123
0.014105 0.673600 0.673600
0.013916 0.673411 0.800061
0.013729 0.673224 0.925679
0.013604 0.673099 1.000000
0.013219 0.799364 0.013219
0.013012 0.799157 0.151983
0.012813 0.798959 0.285042
0.012619 0.798764 0.415504
0.012427 0.798572 0.544256
0.012237 0.798382 0.671732
0.012048 0.798193 0.798193
0.011861 0.798006 0.923812
0.011736 0.797881 1.000000
0.011363 0.923314 0.011363
0.011157 0.923107 0.150128
0.010958 0.922909 0.283187
0.010764 0.922714 0.413649
0.010572 0.922522 0.542400
0.010382 0.922332 0.669877
0.010193 0.922144 0.796338
0.010006 0.921956 0.921956
0.009881 0.921832 1.000000
0.010128 1.000000 0.010128
0.009921 1.000000 0.148892
0.009723 1.000000 0.281951
0.009528 1.000000 0.412413
0.009336 1.000000 0.541165
0.009146 1.000000 0.668642
0.008958 1.000000 0.795103
0.008771 1.000000 0.920721
0.008646 1.000000 1.000000
0.163173 0.024202 0.024202
0.162966 0.023995 0.162966
0.162768 0.023797 0.296025
0.162574 0.023603 0.426487
0.162382 0.023411 0.555239
0.162192 0.023221 0.682716
0.162003 0.023032 0.809177
0.161816 0.022845 0.934795
0.161691 0.022720 1.000000
0.161124 0.161124 0.022153
0.160917 0.160917 0.160917
0.160719 0.160719 0.293976
0.160524 0.160524 0.424438
0.160332 0.160332 0.553190
0.160142 0.160142 0.680667
0.159954 0.159954 0.807128
0.159766 0.159766 0.932746
0.159642 0.159642 1.000000
0.159159 0.292416 0.020188
0.158952 0.292209 0.158952
0.158754 0.292011 0.292011
0.158559 0.291816 0.422473
0.158367 0.291624 0.551225
0.158177 0.291434 0.678702
0.157989 0.291246 0.805163
0.157801 0.291059 0.930781
0.157677 0.290934 1.000000
0.157232 0.421146 0.018261
0.157025 0.420939 0.157025
0.156827 0.420741 0.290084
0.156632 0.420546 0.420546
0.156441 0.420354 0.549298
0.156250 0.420164 0.676775
0.156062 0.419976 0.803236
0.155875 0.419789 0.928854
0.155750 0.419664 1.000000
0.155331 0.548188 0.016360
0.155124 0.547982 0.155124
0.154926 0.547783 0.288183
0.154731 0.547589 0.418645
0.154539 0.547397 0.547397
0.154349 0.547207 0.674873
0.154160 0.547018 0.801335
0.153973 0.546831 0.926953
0.153849 0.546706 1.000000
0.153448 0.673973 0.014477
0.153241 0.673766 0.153241
0.153043 0.673567 0.286300
0.152848 0.673373 0.416762
0.152656 0.673181 0.545514
0.152466 0.672991 0.672991
0.152278 0.672802 0.799452
0.152091 0.672615 0.925070
0.151966 0.672490 1.000000
0.151581 0.798755 0.012609
0.151374 0.798548 0.151374
0.151175 0.798349 0.284433
0.150981 0.798155 0.414895
0.150789 0.797963 0.543646
0.150599 0.797773 0.671123
0.150410 0.797584 0.797584
0.150223 0.797397 0.923202
0.150098 0.797272 1.000000
0.149725 0.922705 0.010754
0.149518 0.922498 0.149518
0.149320 0.922300 0.282577
0.149126 0.922105 0.413039
0.148934 0.921913 0.541791
0.148744 0.921723 0.669268
0.148555 0.921535 0.795729
0.148368 0.921347 0.921347
0.148243 0.921223 1.000000
0.148490 1.000000 0.009519
0.148283 1.000000 0.148283
0.148085 1.000000 0.281342
0.147890 1.000000 0.411804
0.147698 1.000000 0.540556
0.147508 1.000000 0.668033
0.147320 1.000000 0.794494
0.147133 1.000000 0.920112
0.147008 1.000000 1.000000
0.295846 0.023618 0.023618
0.295640 0.023411 0.162382
0.295441 0.023213 0.295441
0.295247 0.023018 0.425903
0.295055 0.022826 0.554655
0.294865 0.022636 0.682132
0.294676 0.022448 0.808593
0.294489 0.022261 0.934211
0.294364 0.022136 1.000000
0.293797 0.160540 0.021569
0.293590 0.160333 0.160333
0.293392 0.160135 0.293392
0.293197 0.159940 0.423854
0.293005 0.159748 0.552606
0.292815 0.159558 0.680082
0.292627 0.159370 0.806544
0.292440 0.159182 0.932162
0.292315 0.159058 1.000000
0.291832 0.291832 0.019604
0.291625 0.291625 0.158368
0.291427 0.291427 0.291427
0.291232 0.291232 0.421889
0.291040 0.291040 0.550641
0.290850 0.290850 0.678117
0.290662 0.290662 0.804579
0.290474 0.290474 0.930197
0.290350 0.290350 1.000000
0.289905 0.420562 0.017677
0.289698 0.420355 0.156441
0.289500 0.420157 0.289500
0.289306 0.419962 0.419962
0.289114 0.419770 0.548714
0.288924 0.419580 0.676191
0.288735 0.419392 0.802652
0.288548 0.419204 0.928270
0.288423 0.419080 1.000000
0.288004 0.547604 0.015776
0.287797 0.547397 0.154540
0.287599 0.547199 0.287599
0.287404 0.547005 0.418061
0.287212 0.546813 0.546813
0.287022 0.546623 0.674289
0.286834 0.546434 0.800750
0.286646 0.546247 0.926369
0.286522 0.546122 1.000000
0.286121 0.673388 0.013893
0.285914 0.673182 0.152657
0.285716 0.672983 0.285716
0.285521 0.672789 0.416178
0.285330 0.672597 0.544930
0.285139 0.672407 0.672407
0.284951 0.672218 0.798868
0.284764 0.672031 0.924486
0.284639 0.671906 1.000000
0.284254 0.798170 0.012025
0.284047 0.797964 0.150790
0.283848 0.797765 0.283848
0.283654 0.797571 0.414311
0.283462 0.797379 0.543062
0.283272 0.797189 0.670539
0.283083 0.797000 0.797000
0.282896 0.796813 0.922618
0.282771 0.796688 1.000000
0.282398 0.922121 0.010170
0.282192 0.921914 0.148934
0.281993 0.921716 0.281993
0.281799 0.921521 0.412455
0.281607 0.921329 0.541207
0.281417 0.921139 0.668684
0.281228 0.920950 0.795145
0.281041 0.920763 0.920763
0.280916 0.920638 1.000000
0.281163 1.000000 0.008935
0.280956 1.000000 0.147699
0.280758 1.000000 0.280758
0.280563 1.000000 0.411220
0.280371 1.000000 0.539972
0.280181 1.000000 0.667449
0.279993 1.000000 0.793910
0.279806 1.000000 0.919528
0.279681 1.000000 1.000000
0.425930 0.023045 0.023045
0.425723 0.022839 0.161810
0.425525 0.022640 0.294868
0.425331 0.022446 0.425331
0.425139 0.022254 0.554082
0.424949 0.022064 0.681559
0.424760 0.021875 0.808020
0.424573 0.021688 0.933638
0.424448 0.021563 1.000000
0.423881 0.159967 0.020996
0.423674 0.159760 0.159760
0.423476 0.159562 0.292819
0.423281 0.159367 0.423281
0.423089 0.159175 0.552033
0.422899 0.158985 0.679510
0.422711 0.158797 0.805971
0.422523 0.158610 0.931589
0.422399 0.158485 1.000000
0.421916 0.291259 0.019031
0.421709 0.291052 0.157795
0.421511 0.290854 0.290854
0.421316 0.290660 0.421316
0.421124 0.290468 0.550068
0.420934 0.290278 0.677545
0.420746 0.290089 0.804006
0.420558 0.289902 0.929624
0.420434 0.289777 1.000000
0.419989 0.419989 0.017104
0.419782 0.419782 0.155869
0.419584 0.419584 0.288927
0.419389 0.419389 0.419389
0.419198 0.419198 0.548141
0.419007 0.419007 0.675618
0.418819 0.418819 0.802079
0.418632 0.418632 0.927697
0.418507 0.418507 1.000000
0.418088 0.547032 0.015203
0.417881 0.546825 0.153967
0.417683 0.546626 0.287026
0.417488 0.546432 0.417488
0.417296 0.546240 0.546240
0.417106 0.546050 0.673717
0.416917 0.545861 0.800178
0.416730 0.545674 0.925796
0.416606 0.545549 1.000000
0.416205 0.672816 0.013320
0.415998 0.672609 0.152084
0.415800 0.672410 0.285143
0.415605 0.672216 0.415605
0.415413 0.672024 0.544357
0.415223 0.671834 0.671834
0.415035 0.671645 0.798295
0.414848 0.671458 0.923913
0.414723 0.671333 1.000000
0.414338 0.797598 0.011453
0.414131 0.797391 0.150217
0.413932 0.797192 0.283276
0.413738 0.796998 0.413738
0.413546 0.796806 0.542490
0.413356 0.796616 0.669966
0.413167 0.796427 0.796427
0.412980 0.796240 0.922046
0.412855 0.796115 1.000000
0.412482 0.921548 0.009597
0.412275 0.921341 0.148362
0.412077 0.921143 0.281420
0.411883 0.920948 0.411883
0.411691 0.920756 0.540634
0.411501 0.920566 0.668111
0.411312 0.920378 0.794572
0.411125 0.920190 0.920190
0.411000 0.920066 1.000000
0.411247 1.000000 0.008362
0.411040 1.000000 0.147126
0.410842 1.000000 0.280185
0.410647 1.000000 0.410647
0.410455 1.000000 0.539399
0.410265 1.000000 0.666876
0.410077 1.000000 0.793337
0.409889 1.000000 0.918955
0.409765 1.000000 1.000000
0.554309 0.022480 0.022480
0.554102 0.022273 0.161244
0.553904 0.022075 0.294303
0.553709 0.021880 0.424765
0.553517 0.021688 0.553517
0.553327 0.021498 0.680994
0.553139 0.021310 0.807455
0.552951 0.021123 0.933073
0.552827 0.020998 1.000000
0.552260 0.159402 0.020431
0.552053 0.159195 0.159195
0.551854 0.158997 0.292254
0.551660 0.158802 0.422716
0.551468 0.158610 0.551468
0.551278 0.158420 0.678945
0.551089 0.158232 0.805406
0.550902 0.158044 0.931024
0.550777 0.157920 1.000000
0.550295 0.290694 0.018466
0.550088 0.290487 0.157230
0.549889 0.290289 0.290289
0.549695 0.290094 0.420751
0.549503 0.289902 0.549503
0.549313 0.289712 0.676979
0.549124 0.289524 0.803441
0.548937 0.289337 0.929059
0.548812 0.289212 1.000000
0.548368 0.419424 0.016539
0.548161 0.419217 0.155303
0.547963 0.419019 0.288362
0.547768 0.418824 0.418824
0.547576 0.418632 0.547576
0.547386 0.418442 0.675053
0.547197 0.418254 0.801514
0.547010 0.418066 0.927132
0.546886 0.417942 1.000000
0.546466 0.546466 0.014638
0.546259 0.546259 0.153402
0.546061 0.546061 0.286461
0.545867 0.545867 0.416923
0.545675 0.545675 0.545675
0.545485 0.545485 0.673151
0.545296 0.545296 0.799612
0.545109 0.545109 0.925231
0.544984 0.544984 1.000000
0.544584 0.672250 0.012755
0.544377 0.672044 0.151519
0.544178 0.671845 0.284578
0.543984 0.671651 0.415040
0.543792 0.671459 0.543792
0.543602 0.671269 0.671269
0.543413 0.671080 0.797730
0.543226 0.670893 0.923348
0.543101 0.670768 1.000000
0.542716 0.797033 0.010887
0.542509 0.796826 0.149652
0.542311 0.796627 0.282710
0.542116 0.796433 0.413173
0.541924 0.796241 0.541924
0.541734 0.796051 0.669401
0.541546 0.795862 0.795862
0.541359 0.795675 0.921480
0.541234 0.795550 1.000000
0.540861 0.920983 0.009032
0.540654 0.920776 0.147796
0.540456 0.920578 0.280855
0.540261 0.920383 0.411317
0.540069 0.920191 0.540069
0.539879 0.920001 0.667546
0.539691 0.919813 0.794007
0.539503 0.919625 0.919625
0.539379 0.919501 1.000000
0.539626 1.000000 0.007797
0.539419 1.000000 0.146561
0.539220 1.000000 0.279620
0.539026 1.000000 0.410082
0.538834 1.000000 0.538834
0.538644 1.000000 0.666311
0.538455 1.000000 0.792772
0.538268 1.000000 0.918390
0.538143 1.000000 1.000000
0.681416 0.021921 0.021921
0.681209 0.021714 0.160685
0.681011 0.021515 0.293744
0.680816 0.021321 0.424206
0.680624 0.021129 0.552958
0.680434 0.020939 0.680434
0.680246 0.020750 0.806895
0.680058 0.020563 0.932514
0.679934 0.020438 1.000000
0.679367 0.158842 0.019871
0.679160 0.158635 0.158635
0.678961 0.158437 0.291694
0.678767 0.158243 0.422156
0.678575 0.158051 0.550908
0.678385 0.157861 0.678385
0.678196 0.157672 0.804846
0.678009 0.157485 0.930464
0.677884 0.157360 1.000000
0.677402 0.290134 0.017906
0.677195 0.289928 0.156670
0.676996 0.289729 0.289729
0.676802 0.289535 0.420191
0.676610 0.289343 0.548943
0.676420 0.289153 0.676420
0.676231 0.288964 0.802881
0.676044 0.288777 0.928499
0.675919 0.288652 1.000000
0.675475 0.418864 0.015979
0.675268 0.418658 0.154744
0.675070 0.418459 0.287802
0.674875 0.418265 0.418265
0.674683 0.418073 0.547016
0.674493 0.417883 0.674493
0.674305 0.417694 0.800954
0.674117 0.417507 0.926572
0.673993 0.417382 1.000000
0.673573 0.545907 0.014078
0.673367 0.545700 0.152842
0.673168 0.545501 0.285901
0.672974 0.545307 0.416363
0.672782 0.545115 0.545115
0.672592 0.544925 0.672592
0.672403 0.544736 0.799053
0.672216 0.544549 0.924671
0.672091 0.544424 1.000000
0.671691 0.671691 0.012195
0.671484 0.671484 0.150960
0.671286 0.671286 0.284018
0.671091 0.671091 0.414481
0.670899 0.670899 0.543232
0.670709 0.670709 0.670709
0.670521 0.670521 0.797170
0.670333 0.670333 0.922788
0.670209 0.670209 1.000000
0.669823 0.796473 0.010328
0.669616 0.796266 0.149092
0.669418 0.796068 0.282151
0.669223 0.795873 0.412613
0.669031 0.795681 0.541365
0.668841 0.795491 0.668841
0.668653 0.795303 0.795303
0.668466 0.795115 0.920921
0.668341 0.794991 1.000000
0.667968 0.920423 0.008473
0.667761 0.920216 0.147237
0.667563 0.920018 0.280296
0.667368 0.919823 0.410758
0.667176 0.919631 0.539510
0.666986 0.919441 0.666986
0.666798 0.919253 0.793447
0.666610 0.919066 0.919066
0.666486 0.918941 1.000000
0.666733 1.000000 0.007237
0.666526 1.000000 0.146001
0.666327 1.000000 0.279060
0.666133 1.000000 0.409522
0.665941 1.000000 0.538274
0.665751 1.000000 0.665751
0.665562 1.000000 0.792212
0.665375 1.000000 0.917830
0.665250 1.000000 1.000000
0.807511 0.021365 0.021365
0.807304 0.021159 0.160130
0.807105 0.020960 0.293188
0.806911 0.020766 0.423651
0.806719 0.020574 0.552402
0.806529 0.020384 0.679879
0.806340 0.020195 0.806340
0.806153 0.020008 0.931958
0.806028 0.019883 1.000000
0.805461 0.158287 0.019316
0.805254 0.158080 0.158080
0.805056 0.157882 0.291139
0.804861 0.157687 0.421601
0.804669 0.157495 0.550353
0.804479 0.157305 0.677830
0.804291 0.157117 0.804291
0.804104 0.156930 0.929909
0.803979 0.156805 1.000000
0.803496 0.289579 0.017351
0.803289 0.289372 0.156115
0.803091 0.289174 0.289174
0.802896 0.288980 0.419636
0.802704 0.288788 0.548388
0.802514 0.288598 0.675865
0.802326 0.288409 0.802326
0.802139 0.288222 0.927944
0.802014 0.288097 1.000000
0.801569 0.418309 0.015424
0.801363 0.418102 0.154188
0.801164 0.417904 0.287247
0.800970 0.417709 0.417709
0.800778 0.417518 0.546461
0.800588 0.417327 0.673938
0.800399 0.417139 0.800399
0.800212 0.416952 0.926017
0.800087 0.416827 1.000000
0.799668 0.545352 0.013523
0.799461 0.545145 0.152287
0.799263 0.544946 0.285346
0.799068 0.544752 0.415808
0.798876 0.544560 0.544560
0.798686 0.544370 0.672036
0.798498 0.544181 0.798498
0.798310 0.543994 0.924116
0.798186 0.543869 1.000000
0.797785 0.671136 0.011640
0.797578 0.670929 0.150404
0.797380 0.670730 0.283463
0.797186 0.670536 0.413925
0.796994 0.670344 0.542677
0.796804 0.670154 0.670154
0.796615 0.669965 0.796615
0.796428 0.669778 0.922233
0.796303 0.669653 1.000000
0.795918 0.795918 0.009773
0.795711 0.795711 0.148537
0.795512 0.795512 0.281596
0.795318 0.795318 0.412058
0.795126 0.795126 0.540810
0.794936 0.794936 0.668286
0.794747 0.794747 0.794747
0.794560 0.794560 0.920366
0.794435 0.794435 1.000000
0.794063 0.919868 0.007917
0.793856 0.919661 0.146682
0.793657 0.919463 0.279740
0.793463 0.919268 0.410203
0.793271 0.919076 0.538954
0.793081 0.918886 0.666431
0.792892 0.918698 0.792892
0.792705 0.918510 0.918510
0.792580 0.918386 1.000000
0.792827 1.000000 0.006682
0.792620 1.000000 0.145446
0.792422 1.000000 0.278505
0.792227 1.000000 0.408967
0.792036 1.000000 0.537719
0.791845 1.000000 0.665196
0.791657 1.000000 0.791657
0.791470 1.000000 0.917275
0.791345 1.000000 1.000000
0.932765 0.020814 0.020814
0.932558 0.020607 0.159578
0.932359 0.020409 0.292637
0.932165 0.020214 0.423099
0.931973 0.020022 0.551851
0.931783 0.019832 0.679328
0.931594 0.019644 0.805789
0.931407 0.019456 0.931407
0.931282 0.019332 1.000000
0.930715 0.157736 0.018765
0.930508 0.157529 0.157529
0.930310 0.157330 0.290588
0.930115 0.157136 0.421050
0.929923 0.156944 0.549802
0.929733 0.156754 0.677278
0.929545 0.156565 0.803739
0.929358 0.156378 0.929358
0.929233 0.156253 1.000000
0.928750 0.289028 0.016800
0.928543 0.288821 0.155564
0.928345 0.288623 0.288623
0.928150 0.288428 0.419085
0.927958 0.288236 0.547837
0.927768 0.288046 0.675313
0.927580 0.287858 0.801774
0.927393 0.287670 0.927393
0.927268 0.287546 1.000000
0.926823 0.417758 0.014873
0.926617 0.417551 0.153637
0.926418 0.417352 0.286696
0.926224 0.417158 0.417158
0.926032 0.416966 0.545910
0.925842 0.416776 0.673386
0.925653 0.416587 0.799848
0.925466 0.416400 0.925466
0.925341 0.416275 1.000000
0.924922 0.544800 0.012971
0.924715 0.544593 0.151736
0.924517 0.544395 0.284794
0.924322 0.544200 0.415257
0.924130 0.544008 0.544008
0.923940 0.543818 0.671485
0.923752 0.543630 0.797946
0.923564 0.543442 0.923564
0.923440 0.543318 1.000000
0.923039 0.670584 0.011089
0.922832 0.670377 0.149853
0.922634 0.670179 0.282912
0.922440 0.669984 0.413374
0.922248 0.669792 0.542126
0.922058 0.669602 0.669602
0.921869 0.669414 0.796064
0.921682 0.669227 0.921682
0.921557 0.669102 1.000000
0.921172 0.795366 0.009221
0.920965 0.795159 0.147985
0.920766 0.794961 0.281044
0.920572 0.794766 0.411506
0.920380 0.794575 0.540258
0.920190 0.794384 0.667735
0.920001 0.794196 0.794196
0.919814 0.794009 0.919814
0.919689 0.793884 1.000000
0.919317 0.919317 0.007366
0.919110 0.919110 0.146130
0.918911 0.918911 0.279189
0.918717 0.918717 0.409651
0.918525 0.918525 0.538403
0.918335 0.918335 0.665880
0.918146 0.918146 0.792341
0.917959 0.917959 0.917959
0.917834 0.917834 1.000000
0.918081 1.000000 0.006131
0.917874 1.000000 0.144895
0.917676 1.000000 0.277954
0.917482 1.000000 0.408416
0.917290 1.000000 0.537168
0.917099 1.000000 0.664644
0.916911 1.000000 0.791105
0.916724 1.000000 0.916724
0.916599 1.000000 1.000000
1.000000 0.020447 0.020447
1.000000 0.020240 0.159211
1.000000 0.020041 0.292270
1.000000 0.019847 0.422732
1.000000 0.019655 0.551484
1.000000 0.019465 0.678960
1.000000 0.019276 0.805422
1.000000 0.019089 0.931040
1.000000 0.018964 1.000000
1.000000 0.157368 0.018397
1.000000 0.157162 0.157162
1.000000 0.156963 0.290220
1.000000 0.156769 0.420683
1.000000 0.156577 0.549434
1.000000 0.156387 0.676911
1.000000 0.156198 0.803372
1.000000 0.156011 0.928990
1.000000 0.155886 1.000000
1.000000 0.288661 0.016432
1.000000 0.288454 0.155197
1.000000 0.288255 0.288255
1.000000 0.288061 0.418718
1.000000 0.287869 0.547469
1.000000 0.287679 0.674946
1.000000 0.287490 0.801407
1.000000 0.287303 0.927025
1.000000 0.287178 1.000000
1.000000 0.417391 0.014506
1.000000 0.417184 0.153270
1.000000 0.416985 0.286329
1.000000 0.416791 0.416791
1.000000 0.416599 0.545543
1.000000 0.416409 0.673019
1.000000 0.416220 0.799480
1.000000 0.416033 0.925099
1.000000 0.415908 1.000000
1.000000 0.544433 0.012604
1.000000 0.544226 0.151368
1.000000 0.544028 0.284427
1.000000 0.543833 0.414889
1.000000 0.543641 0.543641
1.000000 0.543451 0.671118
1.000000 0.543263 0.797579
1.000000 0.543075 0.923197
1.000000 0.542951 1.000000
1.000000 0.670217 0.010722
1.000000 0.670010 0.149486
1.000000 0.669812 0.282545
1.000000 0.669617 0.413007
1.000000 0.669425 0.541759
1.000000 0.669235 0.669235
1.000000 0.669047 0.795696
1.000000 0.668859 0.921315
1.000000 0.668735 1.000000
1.000000 0.794999 0.008854
1.000000 0.794792 0.147618
1.000000 0.794594 0.280677
1.000000 0.794399 0.411139
1.000000 0.794207 0.539891
1.000000 0.794017 0.667368
1.000000 0.793829 0.793829
1.000000 0.793641 0.919447
1.000000 0.793517 1.000000
1.000000 0.918949 0.006999
1.000000 0.918742 0.145763
1.000000 0.918544 0.278822
1.000000 0.918350 0.409284
1.000000 0.918158 0.538036
1.000000 0.917968 0.665512
1.000000 0.917779 0.791974
1.000000 0.917592 0.917592
1.000000 0.917467 1.000000
1.000000 1.000000 0.005763
1.000000 1.000000 0.144528
1.000000 1.000000 0.277586
1.000000 1.000000 0.408049
1.000000 1.000000 0.536800
1.000000 1.000000 0.664277
1.000000 1.000000 0.790738
1.000000 1.000000 0.916356
1.000000 1.000000 1.000000
