skills/editops-orchestrator/assets/grade/luts/clean_bright_v09.cube
TITLE "clean_bright_v09"
LUT_3D_SIZE 17
DOMAIN_MIN 0.0 0.0 0.0
DOMAIN_MAX 1.0 1.0 1.0
0.024811 0.024811 0.024811
0.024706 0.024706 0.095400
0.024605 0.024605 0.163576
0.024505 0.024505 0.230521
0.024406 0.024406 0.296634
0.024309 0.024309 0.362118
0.024212 0.024212 0.427097
0.024115 0.024115 0.491653
0.024020 0.024020 0.555848
0.023925 0.023925 0.619727
0.023830 0.023830 0.683325
0.023735 0.023735 0.746670
0.023641 0.023641 0.809786
0.023547 0.023547 0.872692
0.023454 0.023454 0.935404
0.023361 0.023361 0.997937
0.023329 0.023329 1.000000
0.023769 0.094463 0.023769
0.023664 0.094358 0.094358
0.023562 0.094256 0.162533
0.023462 0.094156 0.229479
0.023364 0.094058 0.295592
0.023266 0.093960 0.361076
0.023169 0.093863 0.426054
0.023073 0.093767 0.490611
0.022977 0.093671 0.554806
0.022882 0.093576 0.618685
0.022787 0.093481 0.682283
0.022693 0.093387 0.745628
0.022599 0.093293 0.808744
0.022505 0.093199 0.871650
0.022411 0.093105 0.934362
0.022318 0.093012 0.996895
0.022287 0.092981 1.000000
0.022762 0.161733 0.022762
0.022657 0.161628 0.093351
0.022555 0.161526 0.161526
0.022455 0.161427 0.228472
0.022357 0.161328 0.294585
0.022259 0.161230 0.360069
0.022162 0.161133 0.425047
0.022066 0.161037 0.489604
0.021970 0.160941 0.553799
0.021875 0.160846 0.617678
0.021780 0.160751 0.681276
0.021686 0.160657 0.744621
0.021592 0.160563 0.807737
0.021498 0.160469 0.870643
0.021405 0.160376 0.933355
0.021311 0.160282 0.995888
0.021280 0.160251 1.000000
0.021773 0.227790 0.021773
0.021668 0.227685 0.092362
0.021567 0.227583 0.160538
0.021467 0.227483 0.227483
0.021368 0.227385 0.293596
0.021271 0.227287 0.359080
0.021174 0.227190 0.424059
0.021077 0.227094 0.488615
0.020982 0.226998 0.552810
0.020887 0.226903 0.616689
0.020792 0.226808 0.680287
0.020697 0.226714 0.743632
0.020603 0.226620 0.806748
0.020509 0.226526 0.869654
0.020416 0.226433 0.932366
0.020323 0.226339 0.994899
0.020291 0.226308 1.000000
0.020797 0.293025 0.020797
0.020692 0.292920 0.091386
0.020590 0.292818 0.159561
0.020490 0.292719 0.226507
0.020392 0.292620 0.292620
0.020294 0.292522 0.358104
0.020197 0.292426 0.423082
0.020101 0.292329 0.487639
0.020005 0.292234 0.551834
0.019910 0.292138 0.615713
0.019815 0.292044 0.679311
0.019721 0.291949 0.742656
0.019627 0.291855 0.805772
0.019533 0.291761 0.868678
0.019439 0.291668 0.931390
0.019346 0.291575 0.993923
0.019315 0.291543 1.000000
0.019830 0.357640 0.019830
0.019725 0.357534 0.090419
0.019623 0.357433 0.158594
0.019523 0.357333 0.225540
0.019425 0.357234 0.291653
0.019327 0.357137 0.357137
0.019230 0.357040 0.422115
0.019134 0.356944 0.486672
0.019038 0.356848 0.550867
0.018943 0.356753 0.614746
0.018848 0.356658 0.678344
0.018754 0.356563 0.741689
0.018660 0.356469 0.804805
0.018566 0.356376 0.867711
0.018472 0.356282 0.930423
0.018379 0.356189 0.992956
0.018348 0.356157 1.000000
0.018870 0.421755 0.018870
0.018765 0.421650 0.089459
0.018663 0.421548 0.157635
0.018564 0.421449 0.224580
0.018465 0.421350 0.290693
0.018367 0.421252 0.356177
0.018271 0.421156 0.421156
0.018174 0.421059 0.485712
0.018079 0.420964 0.549907
0.017983 0.420868 0.613786
0.017889 0.420774 0.677384
0.017794 0.420679 0.740729
0.017700 0.420585 0.803845
0.017606 0.420491 0.866751
0.017513 0.420398 0.929463
0.017420 0.420304 0.991996
0.017388 0.420273 1.000000
0.017917 0.485455 0.017917
0.017812 0.485350 0.088506
0.017710 0.485248 0.156681
0.017610 0.485148 0.223627
0.017512 0.485050 0.289740
0.017414 0.484952 0.355224
0.017317 0.484855 0.420202
0.017221 0.484759 0.484759
0.017125 0.484663 0.548954
0.017030 0.484568 0.612833
0.016935 0.484473 0.676431
0.016841 0.484379 0.739776
0.016747 0.484285 0.802892
0.016653 0.484191 0.865798
0.016559 0.484097 0.928510
0.016466 0.484004 0.991043
0.016435 0.483973 1.000000
0.016969 0.548798 0.016969
0.016864 0.548692 0.087558
0.016762 0.548591 0.155733
0.016662 0.548491 0.222679
0.016564 0.548392 0.288792
0.016466 0.548295 0.354276
0.016369 0.548198 0.419254
0.016273 0.548102 0.483811
0.016177 0.548006 0.548006
0.016082 0.547911 0.611885
0.015987 0.547816 0.675483
0.015893 0.547721 0.738828
0.015799 0.547627 0.801944
0.015705 0.547534 0.864850
0.015611 0.547440 0.927562
0.015518 0.547347 0.990095
0.015487 0.547315 1.000000
0.016026 0.611828 0.016026
0.015920 0.611723 0.086614
0.015819 0.611621 0.154790
0.015719 0.611522 0.221736
0.015620 0.611423 0.287849
0.015523 0.611325 0.353332
0.015426 0.611229 0.418311
0.015330 0.611132 0.482867
0.015234 0.611037 0.547063
0.015139 0.610941 0.610941
0.015044 0.610847 0.674539
0.014949 0.610752 0.737884
0.014855 0.610658 0.801000
0.014761 0.610564 0.863906
0.014668 0.610471 0.926619
0.014575 0.610377 0.989151
0.014543 0.610346 1.000000
0.015086 0.674582 0.015086
0.014981 0.674476 0.085675
0.014879 0.674375 0.153850
0.014780 0.674275 0.220796
0.014681 0.674176 0.286909
0.014583 0.674079 0.352393
0.014487 0.673982 0.417371
0.014390 0.673886 0.481928
0.014295 0.673790 0.546123
0.014199 0.673695 0.610002
0.014105 0.673600 0.673600
0.014010 0.673506 0.736945
0.013916 0.673411 0.800061
0.013822 0.673318 0.862967
0.013729 0.673224 0.925679
0.013635 0.673131 0.988212
0.013604 0.673099 1.000000
0.014151 0.737086 0.014151
0.014046 0.736981 0.084740
0.013944 0.736879 0.152915
0.013844 0.736779 0.219861
0.013746 0.736681 0.285974
0.013648 0.736583 0.351458
0.013551 0.736486 0.416436
0.013455 0.736390 0.480993
0.013359 0.736294 0.545188
0.013264 0.736199 0.609067
0.013169 0.736104 0.672664
0.013075 0.736010 0.736010
0.012980 0.735916 0.799126
0.012887 0.735822 0.862031
0.012793 0.735728 0.924744
0.012700 0.735635 0.987277
0.012668 0.735604 1.000000
0.013219 0.799364 0.013219
0.013113 0.799259 0.083807
0.013012 0.799157 0.151983
0.012912 0.799057 0.218929
0.012813 0.798959 0.285042
0.012716 0.798861 0.350525
0.012619 0.798764 0.415504
0.012523 0.798668 0.480061
0.012427 0.798572 0.544256
0.012332 0.798477 0.608134
0.012237 0.798382 0.671732
0.012142 0.798288 0.735078
0.012048 0.798193 0.798193
0.011955 0.798100 0.861099
0.011861 0.798006 0.923812
0.011768 0.797913 0.986344
0.011736 0.797881 1.000000
0.012290 0.861434 0.012290
0.012184 0.861329 0.082878
0.012083 0.861228 0.151054
0.011983 0.861128 0.218000
0.011884 0.861029 0.284113
0.011787 0.860932 0.349596
0.011690 0.860835 0.414575
0.011594 0.860738 0.479132
0.011498 0.860643 0.543327
0.011403 0.860547 0.607205
0.011308 0.860453 0.670803
0.011213 0.860358 0.734149
0.011119 0.860264 0.797264
0.011026 0.860170 0.860170
0.010932 0.860077 0.922883
0.010839 0.859984 0.985415
0.010807 0.859952 1.000000
0.011363 0.923314 0.011363
0.011258 0.923209 0.081952
0.011157 0.923107 0.150128
0.011057 0.923007 0.217073
0.010958 0.922909 0.283187
0.010861 0.922811 0.348670
0.010764 0.922714 0.413649
0.010667 0.922618 0.478205
0.010572 0.922522 0.542400
0.010477 0.922427 0.606279
0.010382 0.922332 0.669877
0.010287 0.922238 0.733222
0.010193 0.922144 0.796338
0.010099 0.922050 0.859244
0.010006 0.921956 0.921956
0.009913 0.921863 0.984489
0.009881 0.921832 1.000000
0.010440 0.985017 0.010440
0.010335 0.984911 0.081029
0.010233 0.984810 0.149204
0.010133 0.984710 0.216150
0.010035 0.984611 0.282263
0.009937 0.984514 0.347747
0.009840 0.984417 0.412725
0.009744 0.984321 0.477282
0.009648 0.984225 0.541477
0.009553 0.984130 0.605356
0.009458 0.984035 0.668954
0.009364 0.983940 0.732299
0.009270 0.983846 0.795415
0.009176 0.983752 0.858321
0.009082 0.983659 0.921033
0.008989 0.983566 0.983566
0.008958 0.983534 1.000000
0.010128 1.000000 0.010128
0.010023 1.000000 0.080717
0.009921 1.000000 0.148892
0.009822 1.000000 0.215838
0.009723 1.000000 0.281951
0.009625 1.000000 0.347435
0.009528 1.000000 0.412413
0.009432 1.000000 0.476970
0.009336 1.000000 0.541165
0.009241 1.000000 0.605044
0.009146 1.000000 0.668642
0.009052 1.000000 0.731987
0.008958 1.000000 0.795103
0.008864 1.000000 0.858009
0.008771 1.000000 0.920721
0.008677 1.000000 0.983254
0.008646 1.000000 1.000000
0.095196 0.024502 0.024502
0.095090 0.024396 0.095090
0.094989 0.024295 0.163266
0.094889 0.024195 0.230212
0.094790 0.024096 0.296325
0.094693 0.023999 0.361808
0.094596 0.023902 0.426787
0.094500 0.023806 0.491343
0.094404 0.023710 0.555539
0.094309 0.023615 0.619417
0.094214 0.023520 0.683015
0.094119 0.023425 0.746361
0.094025 0.023331 0.809476
0.093931 0.023237 0.872382
0.093838 0.023144 0.935095
0.093745 0.023051 0.997627
0.093713 0.023019 1.000000
0.094153 0.094153 0.023459
0.094048 0.094048 0.094048
0.093946 0.093946 0.162223
0.093846 0.093846 0.229169
0.093748 0.093748 0.295282
0.093650 0.093650 0.360766
0.093553 0.093553 0.425744
0.093457 0.093457 0.490301
0.093361 0.093361 0.554496
0.093266 0.093266 0.618375
0.093171 0.093171 0.681973
0.093077 0.093077 0.745318
0.092983 0.092983 0.808434
0.092889 0.092889 0.871340
0.092795 0.092795 0.934052
0.092702 0.092702 0.996585
0.092671 0.092671 1.000000
0.093146 0.161423 0.022452
0.093041 0.161318 0.093041
0.092939 0.161216 0.161216
0.092840 0.161117 0.228162
0.092741 0.161018 0.294275
0.092643 0.160920 0.359759
0.092546 0.160824 0.424737
0.092450 0.160727 0.489294
0.092355 0.160632 0.553489
0.092259 0.160536 0.617368
0.092164 0.160442 0.680966
0.092070 0.160347 0.744311
0.091976 0.160253 0.807427
0.091882 0.160159 0.870333
0.091789 0.160066 0.933045
0.091695 0.159973 0.995578
0.091664 0.159941 1.000000
0.092158 0.227480 0.021464
0.092052 0.227375 0.092052
0.091951 0.227273 0.160228
0.091851 0.227174 0.227174
0.091752 0.227075 0.293287
0.091655 0.226977 0.358770
0.091558 0.226880 0.423749
0.091462 0.226784 0.488305
0.091366 0.226689 0.552501
0.091271 0.226593 0.616379
0.091176 0.226498 0.679977
0.091081 0.226404 0.743322
0.090987 0.226310 0.806438
0.090893 0.226216 0.869344
0.090800 0.226123 0.932057
0.090707 0.226029 0.994589
0.090675 0.225998 1.000000
0.091181 0.292715 0.020487
0.091076 0.292610 0.091076
0.090974 0.292509 0.159251
0.090874 0.292409 0.226197
0.090776 0.292310 0.292310
0.090678 0.292213 0.357794
0.090581 0.292116 0.422772
0.090485 0.292019 0.487329
0.090389 0.291924 0.551524
0.090294 0.291829 0.615403
0.090199 0.291734 0.679001
0.090105 0.291639 0.742346
0.090011 0.291545 0.805462
0.089917 0.291451 0.868368
0.089824 0.291358 0.931080
0.089730 0.291265 0.993613
0.089699 0.291233 1.000000
0.090214 0.357330 0.019520
0.090109 0.357224 0.090109
0.090007 0.357123 0.158284
0.089907 0.357023 0.225230
0.089809 0.356924 0.291343
0.089711 0.356827 0.356827
0.089614 0.356730 0.421805
0.089518 0.356634 0.486362
0.089422 0.356538 0.550557
0.089327 0.356443 0.614436
0.089232 0.356348 0.678034
0.089138 0.356254 0.741379
0.089044 0.356159 0.804495
0.088950 0.356066 0.867401
0.088856 0.355972 0.930113
0.088763 0.355879 0.992646
0.088732 0.355847 1.000000
0.089254 0.421445 0.018560
0.089149 0.421340 0.089149
0.089048 0.421239 0.157325
0.088948 0.421139 0.224270
0.088849 0.421040 0.290384
0.088752 0.420943 0.355867
0.088655 0.420846 0.420846
0.088558 0.420749 0.485402
0.088463 0.420654 0.549597
0.088367 0.420558 0.613476
0.088273 0.420464 0.677074
0.088178 0.420369 0.740419
0.088084 0.420275 0.803535
0.087990 0.420181 0.866441
0.087897 0.420088 0.929153
0.087804 0.419995 0.991686
0.087772 0.419963 1.000000
0.088301 0.485145 0.017607
0.088196 0.485040 0.088196
0.088094 0.484938 0.156371
0.087994 0.484838 0.223317
0.087896 0.484740 0.289430
0.087798 0.484642 0.354914
0.087701 0.484545 0.419892
0.087605 0.484449 0.484449
0.087509 0.484353 0.548644
0.087414 0.484258 0.612523
0.087319 0.484163 0.676121
0.087225 0.484069 0.739466
0.087131 0.483975 0.802582
0.087037 0.483881 0.865488
0.086943 0.483787 0.928200
0.086850 0.483694 0.990733
0.086819 0.483663 1.000000
0.087353 0.548488 0.016659
0.087248 0.548382 0.087248
0.087146 0.548281 0.155423
0.087046 0.548181 0.222369
0.086948 0.548082 0.288482
0.086850 0.547985 0.353966
0.086753 0.547888 0.418944
0.086657 0.547792 0.483501
0.086561 0.547696 0.547696
0.086466 0.547601 0.611575
0.086371 0.547506 0.675173
0.086277 0.547412 0.738518
0.086183 0.547317 0.801634
0.086089 0.547224 0.864540
0.085995 0.547130 0.927252
0.085902 0.547037 0.989785
0.085871 0.547005 1.000000
0.086410 0.611518 0.015716
0.086304 0.611413 0.086304
0.086203 0.611311 0.154480
0.086103 0.611212 0.221426
0.086004 0.611113 0.287539
0.085907 0.611015 0.353022
0.085810 0.610919 0.418001
0.085714 0.610822 0.482558
0.085618 0.610727 0.546753
0.085523 0.610631 0.610631
0.085428 0.610537 0.674229
0.085333 0.610442 0.737575
0.085239 0.610348 0.800690
0.085146 0.610254 0.863596
0.085052 0.610161 0.926309
0.084959 0.610068 0.988841
0.084927 0.610036 1.000000
0.085470 0.674272 0.014776
0.085365 0.674167 0.085365
0.085263 0.674065 0.153541
0.085164 0.673965 0.220486
0.085065 0.673867 0.286599
0.084967 0.673769 0.352083
0.084871 0.673672 0.417062
0.084774 0.673576 0.481618
0.084679 0.673480 0.545813
0.084583 0.673385 0.609692
0.084489 0.673290 0.673290
0.084394 0.673196 0.736635
0.084300 0.673102 0.799751
0.084206 0.673008 0.862657
0.084113 0.672914 0.925369
0.084020 0.672821 0.987902
0.083988 0.672790 1.000000
0.084535 0.736776 0.013841
0.084430 0.736671 0.084430
0.084328 0.736569 0.152605
0.084228 0.736469 0.219551
0.084130 0.736371 0.285664
0.084032 0.736273 0.351148
0.083935 0.736176 0.416126
0.083839 0.736080 0.480683
0.083743 0.735984 0.544878
0.083648 0.735889 0.608757
0.083553 0.735794 0.672355
0.083459 0.735700 0.735700
0.083365 0.735606 0.798816
0.083271 0.735512 0.861722
0.083177 0.735418 0.924434
0.083084 0.735325 0.986967
0.083053 0.735294 1.000000
0.083603 0.799054 0.012909
0.083497 0.798949 0.083497
0.083396 0.798847 0.151673
0.083296 0.798747 0.218619
0.083197 0.798649 0.284732
0.083100 0.798551 0.350216
0.083003 0.798454 0.415194
0.082907 0.798358 0.479751
0.082811 0.798262 0.543946
0.082716 0.798167 0.607825
0.082621 0.798072 0.671422
0.082527 0.797978 0.734768
0.082432 0.797884 0.797884
0.082339 0.797790 0.860789
0.082245 0.797696 0.923502
0.082152 0.797603 0.986035
0.082120 0.797572 1.000000
0.082674 0.861125 0.011980
0.082568 0.861019 0.082568
0.082467 0.860918 0.150744
0.082367 0.860818 0.217690
0.082268 0.860719 0.283803
0.082171 0.860622 0.349286
0.082074 0.860525 0.414265
0.081978 0.860429 0.478822
0.081882 0.860333 0.543017
0.081787 0.860238 0.606896
0.081692 0.860143 0.670493
0.081598 0.860048 0.733839
0.081503 0.859954 0.796955
0.081410 0.859860 0.859860
0.081316 0.859767 0.922573
0.081223 0.859674 0.985106
0.081191 0.859642 1.000000
0.081748 0.923004 0.011054
0.081642 0.922899 0.081642
0.081541 0.922797 0.149818
0.081441 0.922698 0.216764
0.081342 0.922599 0.282877
0.081245 0.922501 0.348360
0.081148 0.922404 0.413339
0.081052 0.922308 0.477895
0.080956 0.922212 0.542091
0.080861 0.922117 0.605969
0.080766 0.922022 0.669567
0.080671 0.921928 0.732913
0.080577 0.921834 0.796028
0.080483 0.921740 0.858934
0.080390 0.921647 0.921647
0.080297 0.921553 0.984179
0.080265 0.921522 1.000000
0.080824 0.984707 0.010130
0.080719 0.984601 0.080719
0.080617 0.984500 0.148894
0.080517 0.984400 0.215840
0.080419 0.984301 0.281953
0.080321 0.984204 0.347437
0.080224 0.984107 0.412415
0.080128 0.984011 0.476972
0.080032 0.983915 0.541167
0.079937 0.983820 0.605046
0.079842 0.983725 0.668644
0.079748 0.983630 0.731989
0.079654 0.983536 0.795105
0.079560 0.983443 0.858011
0.079466 0.983349 0.920723
0.079373 0.983256 0.983256
0.079342 0.983224 1.000000
0.080512 1.000000 0.009818
0.080407 1.000000 0.080407
0.080305 1.000000 0.148583
0.080206 1.000000 0.215528
0.080107 1.000000 0.281641
0.080009 1.000000 0.347125
0.079913 1.000000 0.412103
0.079816 1.000000 0.476660
0.079721 1.000000 0.540855
0.079625 1.000000 0.604734
0.079531 1.000000 0.668332
0.079436 1.000000 0.731677
0.079342 1.000000 0.794793
0.079248 1.000000 0.857699
0.079155 1.000000 0.920411
0.079061 1.000000 0.982944
0.079030 1.000000 1.000000
0.163173 0.024202 0.024202
0.163068 0.024097 0.094791
0.162966 0.023995 0.162966
0.162867 0.023896 0.229912
0.162768 0.023797 0.296025
0.162670 0.023699 0.361509
0.162574 0.023603 0.426487
0.162477 0.023506 0.491044
0.162382 0.023411 0.555239
0.162286 0.023315 0.619118
0.162192 0.023221 0.682716
0.162097 0.023126 0.746061
0.162003 0.023032 0.809177
0.161909 0.022938 0.872083
0.161816 0.022845 0.934795
0.161723 0.022751 0.997328
0.161691 0.022720 1.000000
0.162131 0.093854 0.023160
0.162026 0.093749 0.093749
0.161924 0.093647 0.161924
0.161824 0.093547 0.228870
0.161726 0.093449 0.294983
0.161628 0.093351 0.360467
0.161531 0.093254 0.425445
0.161435 0.093158 0.490002
0.161339 0.093062 0.554197
0.161244 0.092967 0.618076
0.161149 0.092872 0.681673
0.161055 0.092778 0.745019
0.160961 0.092683 0.808135
0.160867 0.092590 0.871041
0.160773 0.092496 0.933753
0.160680 0.092403 0.996286
0.160649 0.092371 1.000000
0.161124 0.161124 0.022153
0.161019 0.161019 0.092742
0.160917 0.160917 0.160917
0.160817 0.160817 0.227863
0.160719 0.160719 0.293976
0.160621 0.160621 0.359460
0.160524 0.160524 0.424438
0.160428 0.160428 0.488995
0.160332 0.160332 0.553190
0.160237 0.160237 0.617069
0.160142 0.160142 0.680667
0.160048 0.160048 0.744012
0.159954 0.159954 0.807128
0.159860 0.159860 0.870034
0.159766 0.159766 0.932746
0.159673 0.159673 0.995279
0.159642 0.159642 1.000000
0.160135 0.227181 0.021164
0.160030 0.227076 0.091753
0.159928 0.226974 0.159928
0.159829 0.226874 0.226874
0.159730 0.226776 0.292987
0.159632 0.226678 0.358471
0.159536 0.226581 0.423449
0.159439 0.226485 0.488006
0.159344 0.226389 0.552201
0.159248 0.226294 0.616080
0.159154 0.226199 0.679678
0.159059 0.226105 0.743023
0.158965 0.226011 0.806139
0.158871 0.225917 0.869045
0.158778 0.225823 0.931757
0.158685 0.225730 0.994290
0.158653 0.225699 1.000000
0.159159 0.292416 0.020188
0.159054 0.292311 0.090777
0.158952 0.292209 0.158952
0.158852 0.292109 0.225898
0.158754 0.292011 0.292011
0.158656 0.291913 0.357495
0.158559 0.291816 0.422473
0.158463 0.291720 0.487030
0.158367 0.291624 0.551225
0.158272 0.291529 0.615104
0.158177 0.291434 0.678702
0.158083 0.291340 0.742047
0.157989 0.291246 0.805163
0.157895 0.291152 0.868069
0.157801 0.291059 0.930781
0.157708 0.290965 0.993314
0.157677 0.290934 1.000000
0.158192 0.357030 0.019221
0.158087 0.356925 0.089810
0.157985 0.356824 0.157985
0.157885 0.356724 0.224931
0.157787 0.356625 0.291044
0.157689 0.356528 0.356528
0.157592 0.356431 0.421506
0.157496 0.356334 0.486063
0.157400 0.356239 0.550258
0.157305 0.356143 0.614137
0.157210 0.356049 0.677734
0.157116 0.355954 0.741080
0.157022 0.355860 0.804196
0.156928 0.355766 0.867102
0.156834 0.355673 0.929814
0.156741 0.355580 0.992347
0.156710 0.355548 1.000000
0.157232 0.421146 0.018261
0.157127 0.421041 0.088850
0.157025 0.420939 0.157025
0.156926 0.420839 0.223971
0.156827 0.420741 0.290084
0.156729 0.420643 0.355568
0.156632 0.420546 0.420546
0.156536 0.420450 0.485103
0.156441 0.420354 0.549298
0.156345 0.420259 0.613177
0.156250 0.420164 0.676775
0.156156 0.420070 0.740120
0.156062 0.419976 0.803236
0.155968 0.419882 0.866142
0.155875 0.419789 0.928854
0.155781 0.419695 0.991387
0.155750 0.419664 1.000000
0.156279 0.484846 0.017308
0.156174 0.484740 0.087897
0.156072 0.484639 0.156072
0.155972 0.484539 0.223018
0.155874 0.484440 0.289131
0.155776 0.484343 0.354615
0.155679 0.484246 0.419593
0.155583 0.484150 0.484150
0.155487 0.484054 0.548345
0.155392 0.483959 0.612224
0.155297 0.483864 0.675821
0.155203 0.483769 0.739167
0.155109 0.483675 0.802283
0.155015 0.483582 0.865188
0.154921 0.483488 0.927901
0.154828 0.483395 0.990434
0.154797 0.483363 1.000000
0.155331 0.548188 0.016360
0.155226 0.548083 0.086948
0.155124 0.547982 0.155124
0.155024 0.547882 0.222070
0.154926 0.547783 0.288183
0.154828 0.547686 0.353666
0.154731 0.547589 0.418645
0.154635 0.547492 0.483202
0.154539 0.547397 0.547397
0.154444 0.547301 0.611276
0.154349 0.547207 0.674873
0.154255 0.547112 0.738219
0.154160 0.547018 0.801335
0.154067 0.546924 0.864240
0.153973 0.546831 0.926953
0.153880 0.546738 0.989486
0.153849 0.546706 1.000000
0.154387 0.611219 0.015416
0.154282 0.611114 0.086005
0.154181 0.611012 0.154181
0.154081 0.610912 0.221126
0.153982 0.610814 0.287239
0.153885 0.610716 0.352723
0.153788 0.610619 0.417702
0.153691 0.610523 0.482258
0.153596 0.610427 0.546453
0.153500 0.610332 0.610332
0.153406 0.610237 0.673930
0.153311 0.610143 0.737275
0.153217 0.610049 0.800391
0.153123 0.609955 0.863297
0.153030 0.609862 0.926009
0.152937 0.609768 0.988542
0.152905 0.609737 1.000000
0.153448 0.673973 0.014477
0.153343 0.673867 0.085066
0.153241 0.673766 0.153241
0.153141 0.673666 0.220187
0.153043 0.673567 0.286300
0.152945 0.673470 0.351784
0.152848 0.673373 0.416762
0.152752 0.673277 0.481319
0.152656 0.673181 0.545514
0.152561 0.673086 0.609393
0.152466 0.672991 0.672991
0.152372 0.672896 0.736336
0.152278 0.672802 0.799452
0.152184 0.672708 0.862358
0.152091 0.672615 0.925070
0.151997 0.672522 0.987603
0.151966 0.672490 1.000000
0.152513 0.736477 0.013542
0.152407 0.736371 0.084130
0.152306 0.736270 0.152306
0.152206 0.736170 0.219252
0.152107 0.736071 0.285365
0.152010 0.735974 0.350848
0.151913 0.735877 0.415827
0.151817 0.735781 0.480383
0.151721 0.735685 0.544579
0.151626 0.735590 0.608457
0.151531 0.735495 0.672055
0.151436 0.735401 0.735401
0.151342 0.735306 0.798516
0.151249 0.735213 0.861422
0.151155 0.735119 0.924135
0.151062 0.735026 0.986667
0.151030 0.734994 1.000000
0.151581 0.798755 0.012609
0.151475 0.798649 0.083198
0.151374 0.798548 0.151374
0.151274 0.798448 0.218319
0.151175 0.798349 0.284433
0.151078 0.798252 0.349916
0.150981 0.798155 0.414895
0.150885 0.798059 0.479451
0.150789 0.797963 0.543646
0.150694 0.797868 0.607525
0.150599 0.797773 0.671123
0.150504 0.797678 0.734468
0.150410 0.797584 0.797584
0.150316 0.797491 0.860490
0.150223 0.797397 0.923202
0.150130 0.797304 0.985735
0.150098 0.797272 1.000000
0.150652 0.860825 0.011680
0.150546 0.860720 0.082269
0.150445 0.860618 0.150445
0.150345 0.860519 0.217390
0.150246 0.860420 0.283503
0.150149 0.860322 0.348987
0.150052 0.860226 0.413966
0.149956 0.860129 0.478522
0.149860 0.860034 0.542717
0.149765 0.859938 0.606596
0.149670 0.859843 0.670194
0.149575 0.859749 0.733539
0.149481 0.859655 0.796655
0.149387 0.859561 0.859561
0.149294 0.859468 0.922273
0.149201 0.859374 0.984806
0.149169 0.859343 1.000000
0.149725 0.922705 0.010754
0.149620 0.922600 0.081343
0.149518 0.922498 0.149518
0.149419 0.922398 0.216464
0.149320 0.922300 0.282577
0.149222 0.922202 0.348061
0.149126 0.922105 0.413039
0.149029 0.922009 0.477596
0.148934 0.921913 0.541791
0.148838 0.921818 0.605670
0.148744 0.921723 0.669268
0.148649 0.921629 0.732613
0.148555 0.921535 0.795729
0.148461 0.921441 0.858635
0.148368 0.921347 0.921347
0.148275 0.921254 0.983880
0.148243 0.921223 1.000000
0.148802 0.984407 0.009831
0.148697 0.984302 0.080420
0.148595 0.984201 0.148595
0.148495 0.984101 0.215541
0.148397 0.984002 0.281654
0.148299 0.983905 0.347138
0.148202 0.983808 0.412116
0.148106 0.983711 0.476673
0.148010 0.983616 0.540868
0.147915 0.983520 0.604747
0.147820 0.983426 0.668344
0.147726 0.983331 0.731690
0.147632 0.983237 0.794806
0.147538 0.983143 0.857712
0.147444 0.983050 0.920424
0.147351 0.982957 0.982957
0.147320 0.982925 1.000000
0.148490 1.000000 0.009519
0.148385 1.000000 0.080108
0.148283 1.000000 0.148283
0.148183 1.000000 0.215229
0.148085 1.000000 0.281342
0.147987 1.000000 0.346826
0.147890 1.000000 0.411804
0.147794 1.000000 0.476361
0.147698 1.000000 0.540556
0.147603 1.000000 0.604435
0.147508 1.000000 0.668033
0.147414 1.000000 0.731378
0.147320 1.000000 0.794494
0.147226 1.000000 0.857400
0.147133 1.000000 0.920112
0.147039 1.000000 0.982645
0.147008 1.000000 1.000000
0.229925 0.023908 0.023908
0.229820 0.023803 0.094497
0.229718 0.023701 0.162673
0.229618 0.023602 0.229618
0.229520 0.023503 0.295731
0.229422 0.023405 0.361215
0.229325 0.023309 0.426194
0.229229 0.023212 0.490750
0.229133 0.023117 0.554945
0.229038 0.023021 0.618824
0.228943 0.022927 0.682422
0.228849 0.022832 0.745767
0.228755 0.022738 0.808883
0.228661 0.022644 0.871789
0.228567 0.022551 0.934501
0.228474 0.022458 0.997034
0.228443 0.022426 1.000000
0.228883 0.093560 0.022866
