skills/editops-orchestrator/assets/grade/luts/clean_bright_v10.cube
TITLE "clean_bright_v10"
LUT_3D_SIZE 17
DOMAIN_MIN 0.0 0.0 0.0
DOMAIN_MAX 1.0 1.0 1.0
0.026714 0.026714 0.026714
0.026595 0.026595 0.097920
0.026480 0.026480 0.166592
0.026367 0.026367 0.233960
0.026256 0.026256 0.300442
0.026146 0.026146 0.366254
0.026037 0.026037 0.431529
0.025928 0.025928 0.496354
0.025820 0.025820 0.560794
0.025713 0.025713 0.624898
0.025606 0.025606 0.688702
0.025500 0.025500 0.752237
0.025394 0.025394 0.815527
0.025289 0.025289 0.878594
0.025184 0.025184 0.941455
0.025079 0.025079 1.000000
0.025050 0.025050 1.000000
0.025534 0.096859 0.025534
0.025415 0.096740 0.096740
0.025300 0.096625 0.165412
0.025187 0.096512 0.232780
0.025076 0.096401 0.299262
0.024966 0.096291 0.365074
0.024857 0.096182 0.430349
0.024748 0.096073 0.495174
0.024640 0.095966 0.559614
0.024533 0.095858 0.623717
0.024426 0.095751 0.687521
0.024320 0.095645 0.751056
0.024214 0.095539 0.814347
0.024108 0.095434 0.877414
0.024003 0.095329 0.940275
0.023898 0.095224 1.000000
0.023870 0.095195 1.000000
0.024396 0.164508 0.024396
0.024277 0.164389 0.095602
0.024162 0.164274 0.164274
0.024049 0.164161 0.231641
0.023938 0.164050 0.298124
0.023828 0.163940 0.363936
0.023718 0.163830 0.429210
0.023610 0.163722 0.494036
0.023502 0.163614 0.558476
0.023395 0.163507 0.622579
0.023288 0.163400 0.686383
0.023182 0.163294 0.749918
0.023076 0.163188 0.813209
0.022970 0.163082 0.876276
0.022865 0.162977 0.939137
0.022760 0.162872 1.000000
0.022731 0.162843 1.000000
0.023279 0.230871 0.023279
0.023160 0.230752 0.094485
0.023045 0.230637 0.163157
0.022932 0.230525 0.230525
0.022821 0.230413 0.297007
0.022711 0.230303 0.362819
0.022602 0.230194 0.428094
0.022493 0.230086 0.492919
0.022385 0.229978 0.557359
0.022278 0.229871 0.621463
0.022171 0.229764 0.685267
0.022065 0.229658 0.748802
0.021959 0.229552 0.812092
0.021854 0.229446 0.875159
0.021748 0.229341 0.938020
0.021644 0.229236 1.000000
0.021615 0.229207 1.000000
0.022177 0.296363 0.022177
0.022058 0.296244 0.093383
0.021943 0.296129 0.162055
0.021830 0.296016 0.229423
0.021719 0.295905 0.295905
0.021609 0.295795 0.361718
0.021500 0.295686 0.426992
0.021391 0.295577 0.491817
0.021283 0.295469 0.556257
0.021176 0.295362 0.620361
0.021069 0.295255 0.684165
0.020963 0.295149 0.747700
0.020857 0.295043 0.810990
0.020752 0.294938 0.874057
0.020647 0.294832 0.936918
0.020542 0.294728 0.999588
0.020513 0.294699 1.000000
0.021086 0.361195 0.021086
0.020967 0.361076 0.092292
0.020852 0.360961 0.160964
0.020740 0.360848 0.228332
0.020628 0.360737 0.294814
0.020518 0.360627 0.360627
0.020409 0.360517 0.425901
0.020300 0.360409 0.490726
0.020193 0.360301 0.555167
0.020085 0.360194 0.619270
0.019979 0.360087 0.683074
0.019872 0.359981 0.746609
0.019766 0.359875 0.809899
0.019661 0.359769 0.872966
0.019556 0.359664 0.935827
0.019451 0.359559 0.998497
0.019422 0.359530 1.000000
0.020004 0.425497 0.020004
0.019885 0.425377 0.091211
0.019770 0.425263 0.159882
0.019658 0.425150 0.227250
0.019546 0.425039 0.293732
0.019436 0.424928 0.359545
0.019327 0.424819 0.424819
0.019219 0.424711 0.489645
0.019111 0.424603 0.554085
0.019003 0.424496 0.618188
0.018897 0.424389 0.681992
0.018790 0.424283 0.745527
0.018685 0.424177 0.808818
0.018579 0.424071 0.871884
0.018474 0.423966 0.934745
0.018369 0.423861 0.997415
0.018340 0.423832 1.000000
0.018930 0.489356 0.018930
0.018811 0.489237 0.090136
0.018696 0.489122 0.158808
0.018583 0.489009 0.226176
0.018472 0.488898 0.292658
0.018362 0.488788 0.358470
0.018253 0.488679 0.423745
0.018144 0.488570 0.488570
0.018036 0.488462 0.553010
0.017929 0.488355 0.617113
0.017822 0.488248 0.680917
0.017716 0.488142 0.744452
0.017610 0.488036 0.807743
0.017505 0.487931 0.870810
0.017399 0.487825 0.933671
0.017294 0.487720 0.996340
0.017266 0.487692 1.000000
0.017862 0.552836 0.017862
0.017743 0.552717 0.089068
0.017628 0.552602 0.157740
0.017515 0.552489 0.225108
0.017404 0.552378 0.291590
0.017294 0.552268 0.357402
0.017184 0.552158 0.422677
0.017076 0.552050 0.487502
0.016968 0.551942 0.551942
0.016861 0.551835 0.616045
0.016754 0.551728 0.679849
0.016648 0.551622 0.743384
0.016542 0.551516 0.806675
0.016436 0.551410 0.869742
0.016331 0.551305 0.932603
0.016226 0.551200 0.995272
0.016198 0.551171 1.000000
0.016799 0.615984 0.016799
0.016680 0.615865 0.088005
0.016565 0.615750 0.156677
0.016453 0.615637 0.224045
0.016341 0.615526 0.290527
0.016231 0.615416 0.356340
0.016122 0.615306 0.421614
0.016014 0.615198 0.486440
0.015906 0.615090 0.550880
0.015798 0.614983 0.614983
0.015692 0.614876 0.678787
0.015585 0.614770 0.742322
0.015479 0.614664 0.805612
0.015374 0.614558 0.868679
0.015269 0.614453 0.931540
0.015164 0.614348 0.994210
0.015135 0.614320 1.000000
0.015742 0.678837 0.015742
0.015623 0.678718 0.086948
0.015508 0.678603 0.155620
0.015395 0.678490 0.222988
0.015284 0.678379 0.289470
0.015174 0.678269 0.355282
0.015064 0.678160 0.420557
0.014956 0.678051 0.485382
0.014848 0.677943 0.549822
0.014741 0.677836 0.613925
0.014634 0.677729 0.677729
0.014528 0.677623 0.741264
0.014422 0.677517 0.804555
0.014316 0.677412 0.867622
0.014211 0.677306 0.930483
0.014106 0.677202 0.993152
0.014078 0.677173 1.000000
0.014689 0.741425 0.014689
0.014570 0.741306 0.085895
0.014455 0.741191 0.154567
0.014342 0.741078 0.221934
0.014231 0.740967 0.288417
0.014121 0.740857 0.354229
0.014011 0.740748 0.419504
0.013903 0.740639 0.484329
0.013795 0.740532 0.548769
0.013688 0.740424 0.612872
0.013581 0.740318 0.676676
0.013475 0.740211 0.740211
0.013369 0.740105 0.803502
0.013263 0.740000 0.866569
0.013158 0.739895 0.929430
0.013053 0.739790 0.992099
0.013024 0.739761 1.000000
0.013640 0.803773 0.013640
0.013521 0.803654 0.084846
0.013406 0.803539 0.153518
0.013293 0.803426 0.220885
0.013182 0.803315 0.287368
0.013072 0.803205 0.353180
0.012962 0.803095 0.418455
0.012854 0.802987 0.483280
0.012746 0.802879 0.547720
0.012639 0.802772 0.611823
0.012532 0.802665 0.675627
0.012426 0.802559 0.739162
0.012320 0.802453 0.802453
0.012214 0.802347 0.865520
0.012109 0.802242 0.928381
0.012004 0.802137 0.991050
0.011975 0.802108 1.000000
0.012594 0.865900 0.012594
0.012475 0.865781 0.083801
0.012360 0.865666 0.152472
0.012248 0.865553 0.219840
0.012136 0.865442 0.286322
0.012026 0.865332 0.352135
0.011917 0.865223 0.417409
0.011809 0.865114 0.482235
0.011701 0.865006 0.546675
0.011594 0.864899 0.610778
0.011487 0.864792 0.674582
0.011380 0.864686 0.738117
0.011275 0.864580 0.801408
0.011169 0.864474 0.864474
0.011064 0.864369 0.927335
0.010959 0.864264 0.990005
0.010930 0.864236 1.000000
0.011553 0.927824 0.011553
0.011433 0.927705 0.082759
0.011318 0.927590 0.151431
0.011206 0.927477 0.218798
0.011094 0.927366 0.285280
0.010984 0.927256 0.351093
0.010875 0.927147 0.416367
0.010767 0.927038 0.481193
0.010659 0.926930 0.545633
0.010552 0.926823 0.609736
0.010445 0.926716 0.673540
0.010339 0.926610 0.737075
0.010233 0.926504 0.800366
0.010127 0.926399 0.863433
0.010022 0.926293 0.926293
0.009917 0.926189 0.988963
0.009888 0.926160 1.000000
0.010514 0.989560 0.010514
0.010395 0.989441 0.081720
0.010280 0.989326 0.150392
0.010167 0.989213 0.217759
0.010056 0.989102 0.284242
0.009946 0.988992 0.350054
0.009836 0.988882 0.415329
0.009728 0.988774 0.480154
0.009620 0.988666 0.544594
0.009513 0.988559 0.608697
0.009406 0.988452 0.672501
0.009300 0.988346 0.736036
0.009194 0.988240 0.799327
0.009088 0.988134 0.862394
0.008983 0.988029 0.925255
0.008878 0.987924 0.987924
0.008849 0.987895 1.000000
0.010228 1.000000 0.010228
0.010109 1.000000 0.081434
0.009994 1.000000 0.150106
0.009881 1.000000 0.217473
0.009770 1.000000 0.283956
0.009660 1.000000 0.349768
0.009550 1.000000 0.415042
0.009442 1.000000 0.479868
0.009334 1.000000 0.544308
0.009227 1.000000 0.608411
0.009120 1.000000 0.672215
0.009014 1.000000 0.735750
0.008908 1.000000 0.799041
0.008802 1.000000 0.862108
0.008697 1.000000 0.924969
0.008592 1.000000 0.987638
0.008563 1.000000 1.000000
0.097689 0.026363 0.026363
0.097569 0.026244 0.097569
0.097454 0.026129 0.166241
0.097342 0.026016 0.233609
0.097231 0.025905 0.300091
0.097120 0.025795 0.365904
0.097011 0.025686 0.431178
0.096903 0.025577 0.496003
0.096795 0.025470 0.560444
0.096688 0.025362 0.624547
0.096581 0.025256 0.688351
0.096475 0.025149 0.751886
0.096369 0.025043 0.815176
0.096263 0.024938 0.878243
0.096158 0.024833 0.941104
0.096053 0.024728 1.000000
0.096024 0.024699 1.000000
0.096508 0.096508 0.025183
0.096389 0.096389 0.096389
0.096274 0.096274 0.165061
0.096162 0.096162 0.232429
0.096050 0.096050 0.298911
0.095940 0.095940 0.364723
0.095831 0.095831 0.429998
0.095722 0.095722 0.494823
0.095615 0.095615 0.559263
0.095507 0.095507 0.623367
0.095401 0.095401 0.687171
0.095294 0.095294 0.750706
0.095188 0.095188 0.813996
0.095083 0.095083 0.877063
0.094978 0.094978 0.939924
0.094873 0.094873 1.000000
0.094844 0.094844 1.000000
0.095370 0.164157 0.024045
0.095251 0.164038 0.095251
0.095136 0.163923 0.163923
0.095023 0.163810 0.231290
0.094912 0.163699 0.297773
0.094802 0.163589 0.363585
0.094693 0.163480 0.428860
0.094584 0.163371 0.493685
0.094476 0.163263 0.558125
0.094369 0.163156 0.622228
0.094262 0.163049 0.686032
0.094156 0.162943 0.749567
0.094050 0.162837 0.812858
0.093945 0.162732 0.875925
0.093840 0.162626 0.938786
0.093735 0.162521 1.000000
0.093706 0.162493 1.000000
0.094253 0.230521 0.022928
0.094134 0.230402 0.094134
0.094019 0.230287 0.162806
0.093907 0.230174 0.230174
0.093795 0.230063 0.296656
0.093685 0.229953 0.362469
0.093576 0.229843 0.427743
0.093468 0.229735 0.492568
0.093360 0.229627 0.557009
0.093253 0.229520 0.621112
0.093146 0.229413 0.684916
0.093040 0.229307 0.748451
0.092934 0.229201 0.811741
0.092828 0.229095 0.874808
0.092723 0.228990 0.937669
0.092618 0.228885 1.000000
0.092589 0.228856 1.000000
0.093152 0.296012 0.021826
0.093032 0.295893 0.093032
0.092918 0.295778 0.161704
0.092805 0.295665 0.229072
0.092694 0.295554 0.295554
0.092583 0.295444 0.361367
0.092474 0.295335 0.426641
0.092366 0.295226 0.491466
0.092258 0.295119 0.555907
0.092151 0.295011 0.620010
0.092044 0.294905 0.683814
0.091938 0.294798 0.747349
0.091832 0.294692 0.810639
0.091726 0.294587 0.873706
0.091621 0.294482 0.936567
0.091516 0.294377 0.999237
0.091487 0.294348 1.000000
0.092061 0.360844 0.020735
0.091942 0.360725 0.091942
0.091827 0.360610 0.160614
0.091714 0.360497 0.227981
0.091603 0.360386 0.294463
0.091493 0.360276 0.360276
0.091383 0.360167 0.425550
0.091275 0.360058 0.490376
0.091167 0.359950 0.554816
0.091060 0.359843 0.618919
0.090953 0.359736 0.682723
0.090847 0.359630 0.746258
0.090741 0.359524 0.809549
0.090635 0.359419 0.872616
0.090530 0.359313 0.935476
0.090425 0.359209 0.998146
0.090396 0.359180 1.000000
0.090979 0.425146 0.019654
0.090860 0.425027 0.090860
0.090745 0.424912 0.159532
0.090632 0.424799 0.226899
0.090521 0.424688 0.293381
0.090411 0.424578 0.359194
0.090301 0.424468 0.424468
0.090193 0.424360 0.489294
0.090085 0.424252 0.553734
0.089978 0.424145 0.617837
0.089871 0.424038 0.681641
0.089765 0.423932 0.745176
0.089659 0.423826 0.808467
0.089553 0.423720 0.871534
0.089448 0.423615 0.934394
0.089343 0.423510 0.997064
0.089315 0.423481 1.000000
0.089904 0.489005 0.018579
0.089785 0.488886 0.089785
0.089670 0.488771 0.158457
0.089558 0.488658 0.225825
0.089446 0.488547 0.292307
0.089336 0.488437 0.358119
0.089227 0.488328 0.423394
0.089119 0.488219 0.488219
0.089011 0.488111 0.552659
0.088903 0.488004 0.616763
0.088797 0.487897 0.680567
0.088690 0.487791 0.744102
0.088585 0.487685 0.807392
0.088479 0.487580 0.870459
0.088374 0.487475 0.933320
0.088269 0.487370 0.995990
0.088240 0.487341 1.000000
0.088836 0.552485 0.017511
0.088717 0.552366 0.088717
0.088602 0.552251 0.157389
0.088490 0.552138 0.224757
0.088378 0.552027 0.291239
0.088268 0.551917 0.357051
0.088159 0.551808 0.422326
0.088050 0.551699 0.487151
0.087943 0.551591 0.551591
0.087835 0.551484 0.615695
0.087729 0.551377 0.679499
0.087622 0.551271 0.743034
0.087516 0.551165 0.806324
0.087411 0.551060 0.869391
0.087306 0.550954 0.932252
0.087201 0.550850 0.994922
0.087172 0.550821 1.000000
0.087774 0.615633 0.016449
0.087655 0.615514 0.087655
0.087540 0.615399 0.156327
0.087427 0.615286 0.223694
0.087316 0.615175 0.290176
0.087206 0.615065 0.355989
0.087096 0.614956 0.421263
0.086988 0.614847 0.486089
0.086880 0.614739 0.550529
0.086773 0.614632 0.614632
0.086666 0.614525 0.678436
0.086560 0.614419 0.741971
0.086454 0.614313 0.805262
0.086348 0.614208 0.868329
0.086243 0.614102 0.931189
0.086138 0.613998 0.993859
0.086109 0.613969 1.000000
0.086716 0.678486 0.015391
0.086597 0.678367 0.086597
0.086482 0.678252 0.155269
0.086369 0.678139 0.222637
0.086258 0.678028 0.289119
0.086148 0.677918 0.354931
0.086039 0.677809 0.420206
0.085930 0.677700 0.485031
0.085823 0.677593 0.549471
0.085715 0.677485 0.613575
0.085609 0.677379 0.677379
0.085502 0.677272 0.740913
0.085396 0.677166 0.804204
0.085291 0.677061 0.867271
0.085186 0.676956 0.930132
0.085081 0.676851 0.992801
0.085052 0.676822 1.000000
0.085663 0.741074 0.014338
0.085544 0.740955 0.085544
0.085429 0.740840 0.154216
0.085316 0.740728 0.221584
0.085205 0.740616 0.288066
0.085095 0.740506 0.353878
0.084986 0.740397 0.419153
0.084877 0.740289 0.483978
0.084770 0.740181 0.548418
0.084662 0.740073 0.612521
0.084556 0.739967 0.676325
0.084449 0.739860 0.739860
0.084343 0.739755 0.803151
0.084238 0.739649 0.866218
0.084133 0.739544 0.929079
0.084028 0.739439 0.991748
0.083999 0.739410 1.000000
0.084614 0.803422 0.013289
0.084495 0.803303 0.084495
0.084380 0.803188 0.153167
0.084267 0.803075 0.220535
0.084156 0.802964 0.287017
0.084046 0.802854 0.352829
0.083937 0.802745 0.418104
0.083828 0.802636 0.482929
0.083721 0.802528 0.547369
0.083613 0.802421 0.611472
0.083507 0.802314 0.675276
0.083400 0.802208 0.738811
0.083294 0.802102 0.802102
0.083189 0.801996 0.865169
0.083084 0.801891 0.928030
0.082979 0.801786 0.990699
0.082950 0.801758 1.000000
0.083569 0.865549 0.012244
0.083450 0.865430 0.083450
0.083335 0.865315 0.152122
0.083222 0.865202 0.219489
0.083111 0.865091 0.285971
0.083001 0.864981 0.351784
0.082892 0.864872 0.417058
0.082783 0.864763 0.481884
0.082675 0.864655 0.546324
0.082568 0.864548 0.610427
0.082461 0.864441 0.674231
0.082355 0.864335 0.737766
0.082249 0.864229 0.801057
0.082143 0.864124 0.864124
0.082038 0.864018 0.926984
0.081933 0.863914 0.989654
0.081905 0.863885 1.000000
0.082527 0.927473 0.011202
0.082408 0.927354 0.082408
0.082293 0.927239 0.151080
0.082180 0.927126 0.218447
0.082069 0.927015 0.284930
0.081959 0.926905 0.350742
0.081850 0.926796 0.416017
0.081741 0.926687 0.480842
0.081633 0.926579 0.545282
0.081526 0.926472 0.609385
0.081419 0.926365 0.673189
0.081313 0.926259 0.736724
0.081207 0.926153 0.800015
0.081102 0.926048 0.863082
0.080996 0.925943 0.925943
0.080892 0.925838 0.988612
0.080863 0.925809 1.000000
0.081488 0.989209 0.010163
0.081369 0.989090 0.081369
0.081254 0.988975 0.150041
0.081141 0.988862 0.217409
0.081030 0.988751 0.283891
0.080920 0.988641 0.349703
0.080811 0.988532 0.414978
0.080702 0.988423 0.479803
0.080595 0.988315 0.544243
0.080487 0.988208 0.608347
0.080381 0.988101 0.672150
0.080274 0.987995 0.735685
0.080168 0.987889 0.798976
0.080063 0.987783 0.862043
0.079958 0.987678 0.924904
0.079853 0.987573 0.987573
0.079824 0.987545 1.000000
0.081202 1.000000 0.009877
0.081083 1.000000 0.081083
0.080968 1.000000 0.149755
0.080855 1.000000 0.217122
0.080744 1.000000 0.283605
0.080634 1.000000 0.349417
0.080525 1.000000 0.414692
0.080416 1.000000 0.479517
0.080308 1.000000 0.543957
0.080201 1.000000 0.608060
0.080094 1.000000 0.671864
0.079988 1.000000 0.735399
0.079882 1.000000 0.798690
0.079777 1.000000 0.861757
0.079672 1.000000 0.924618
0.079567 1.000000 0.987287
0.079538 1.000000 1.000000
0.166137 0.026025 0.026025
0.166018 0.025906 0.097231
0.165903 0.025791 0.165903
0.165790 0.025678 0.233271
0.165679 0.025567 0.299753
0.165569 0.025457 0.365565
0.165460 0.025348 0.430840
0.165351 0.025239 0.495665
0.165243 0.025131 0.560105
0.165136 0.025024 0.624208
0.165029 0.024917 0.688012
0.164923 0.024811 0.751547
0.164817 0.024705 0.814838
0.164712 0.024600 0.877905
0.164606 0.024494 0.940766
0.164502 0.024389 1.000000
0.164473 0.024361 1.000000
0.164957 0.096170 0.024845
0.164838 0.096051 0.096051
0.164723 0.095936 0.164723
0.164610 0.095823 0.232090
0.164499 0.095712 0.298573
0.164389 0.095602 0.364385
0.164279 0.095493 0.429660
0.164171 0.095384 0.494485
0.164063 0.095276 0.558925
0.163956 0.095169 0.623028
0.163849 0.095062 0.686832
0.163743 0.094956 0.750367
0.163637 0.094850 0.813658
0.163531 0.094745 0.876725
0.163426 0.094639 0.939586
0.163321 0.094535 1.000000
0.163292 0.094506 1.000000
0.163819 0.163819 0.023706
0.163699 0.163699 0.094913
0.163585 0.163585 0.163585
0.163472 0.163472 0.230952
0.163361 0.163361 0.297434
0.163250 0.163250 0.363247
0.163141 0.163141 0.428521
0.163033 0.163033 0.493347
0.162925 0.162925 0.557787
0.162818 0.162818 0.621890
0.162711 0.162711 0.685694
0.162605 0.162605 0.749229
0.162499 0.162499 0.812520
0.162393 0.162393 0.875587
0.162288 0.162288 0.938447
0.162183 0.162183 1.000000
0.162154 0.162154 1.000000
0.162702 0.230182 0.022590
0.162583 0.230063 0.093796
0.162468 0.229948 0.162468
0.162355 0.229836 0.229836
0.162244 0.229724 0.296318
0.162134 0.229614 0.362130
0.162025 0.229505 0.427405
0.161916 0.229396 0.492230
0.161808 0.229289 0.556670
0.161701 0.229181 0.620773
0.161594 0.229075 0.684577
0.161488 0.228968 0.748112
0.161382 0.228862 0.811403
0.161277 0.228757 0.874470
0.161171 0.228652 0.937331
0.161067 0.228547 1.000000
0.161038 0.228518 1.000000
0.161600 0.295674 0.021488
0.161481 0.295555 0.092694
0.161366 0.295440 0.161366
0.161253 0.295327 0.228734
0.161142 0.295216 0.295216
0.161032 0.295106 0.361028
0.160923 0.294997 0.426303
0.160814 0.294888 0.491128
0.160706 0.294780 0.555568
0.160599 0.294673 0.619672
0.160492 0.294566 0.683475
0.160386 0.294460 0.747010
0.160280 0.294354 0.810301
0.160175 0.294248 0.873368
0.160069 0.294143 0.936229
0.159965 0.294038 0.998898
0.159936 0.294010 1.000000
0.160509 0.360506 0.020397
0.160390 0.360386 0.091603
0.160275 0.360272 0.160275
0.160162 0.360159 0.227643
0.160051 0.360048 0.294125
0.159941 0.359938 0.359938
0.159832 0.359828 0.425212
0.159723 0.359720 0.490037
0.159616 0.359612 0.554477
0.159508 0.359505 0.618581
0.159402 0.359398 0.682385
0.159295 0.359292 0.745920
0.159189 0.359186 0.809210
0.159084 0.359080 0.872277
0.158979 0.358975 0.935138
0.158874 0.358870 0.997808
0.158845 0.358841 1.000000
0.159427 0.424807 0.019315
0.159308 0.424688 0.090521
0.159193 0.424573 0.159193
0.159081 0.424461 0.226561
0.158969 0.424349 0.293043
0.158859 0.424239 0.358856
0.158750 0.424130 0.424130
0.158641 0.424022 0.488955
0.158534 0.423914 0.553396
0.158426 0.423807 0.617499
0.158320 0.423700 0.681303
0.158213 0.423593 0.744838
0.158107 0.423488 0.808128
0.158002 0.423382 0.871195
0.157897 0.423277 0.934056
0.157792 0.423172 0.996726
0.157763 0.423143 1.000000
0.158353 0.488667 0.018241
0.158234 0.488548 0.089447
0.158119 0.488433 0.158119
0.158006 0.488320 0.225486
0.157895 0.488209 0.291969
0.157785 0.488099 0.357781
0.157675 0.487989 0.423056
0.157567 0.487881 0.487881
0.157459 0.487773 0.552321
0.157352 0.487666 0.616424
0.157245 0.487559 0.680228
0.157139 0.487453 0.743763
0.157033 0.487347 0.807054
0.156927 0.487241 0.870121
0.156822 0.487136 0.932982
0.156717 0.487031 0.995651
0.156689 0.487002 1.000000
0.157285 0.552147 0.017173
0.157166 0.552027 0.088379
0.157051 0.551913 0.157051
0.156938 0.551800 0.224418
0.156827 0.551689 0.290901
0.156717 0.551579 0.356713
0.156607 0.551469 0.421988
0.156499 0.551361 0.486813
0.156391 0.551253 0.551253
0.156284 0.551146 0.615356
0.156177 0.551039 0.679160
0.156071 0.550933 0.742695
0.155965 0.550827 0.805986
0.155859 0.550721 0.869053
0.155754 0.550616 0.931914
0.155649 0.550511 0.994583
0.155620 0.550482 1.000000
0.156222 0.615295 0.016110
0.156103 0.615176 0.087316
0.155988 0.615061 0.155988
0.155876 0.614948 0.223356
0.155764 0.614837 0.289838
0.155654 0.614727 0.355651
0.155545 0.614617 0.420925
0.155436 0.614509 0.485750
0.155329 0.614401 0.550191
0.155221 0.614294 0.614294
0.155115 0.614187 0.678098
0.155008 0.614081 0.741633
0.154902 0.613975 0.804923
0.154797 0.613869 0.867990
0.154692 0.613764 0.930851
0.154587 0.613659 0.993521
0.154558 0.613630 1.000000
0.155165 0.678148 0.015053
0.155046 0.678029 0.086259
0.154931 0.677914 0.154931
0.154818 0.677801 0.222298
0.154707 0.677690 0.288781
0.154597 0.677580 0.354593
0.154487 0.677471 0.419867
0.154379 0.677362 0.484693
0.154271 0.677254 0.549133
0.154164 0.677147 0.613236
0.154057 0.677040 0.677040
0.153951 0.676934 0.740575
0.153845 0.676828 0.803866
0.153739 0.676722 0.866933
0.153634 0.676617 0.929794
0.153529 0.676512 0.992463
0.153500 0.676484 1.000000
0.154112 0.740736 0.014000
0.153993 0.740617 0.085206
0.153878 0.740502 0.153878
0.153765 0.740389 0.221245
0.153654 0.740278 0.287727
0.153544 0.740168 0.353540
0.153434 0.740059 0.418814
0.153326 0.739950 0.483640
0.153218 0.739842 0.548080
0.153111 0.739735 0.612183
0.153004 0.739628 0.675987
0.152898 0.739522 0.739522
0.152792 0.739416 0.802813
0.152686 0.739311 0.865880
0.152581 0.739205 0.928740
0.152476 0.739101 0.991410
0.152447 0.739072 1.000000
0.153063 0.803084 0.012951
0.152943 0.802964 0.084157
0.152829 0.802849 0.152829
0.152716 0.802737 0.220196
0.152605 0.802626 0.286678
0.152495 0.802515 0.352491
0.152385 0.802406 0.417765
0.152277 0.802298 0.482591
0.152169 0.802190 0.547031
0.152062 0.802083 0.611134
0.151955 0.801976 0.674938
0.151849 0.801870 0.738473
0.151743 0.801764 0.801764
0.151637 0.801658 0.864831
0.151532 0.801553 0.927691
0.151427 0.801448 0.990361
0.151398 0.801419 1.000000
0.152017 0.865211 0.011905
0.151898 0.865092 0.083111
0.151783 0.864977 0.151783
0.151671 0.864864 0.219151
0.151559 0.864753 0.285633
0.151449 0.864643 0.351446
0.151340 0.864533 0.416720
0.151232 0.864425 0.481545
0.151124 0.864317 0.545986
0.151016 0.864210 0.610089
0.150910 0.864103 0.673893
0.150803 0.863997 0.737428
0.150697 0.863891 0.800718
0.150592 0.863785 0.863785
0.150487 0.863680 0.926646
0.150382 0.863575 0.989316
0.150353 0.863546 1.000000
0.150975 0.927135 0.010863
0.150856 0.927016 0.082069
0.150741 0.926901 0.150741
0.150629 0.926788 0.218109
0.150517 0.926677 0.284591
0.150407 0.926567 0.350404
0.150298 0.926457 0.415678
0.150190 0.926349 0.480503
0.150082 0.926241 0.544944
0.149975 0.926134 0.609047
0.149868 0.926027 0.672851
0.149761 0.925921 0.736386
0.149656 0.925815 0.799676
0.149550 0.925709 0.862743
0.149445 0.925604 0.925604
0.149340 0.925499 0.988274
0.149311 0.925470 1.000000
0.149937 0.988871 0.009825
0.149818 0.988751 0.081031
0.149703 0.988636 0.149703
0.149590 0.988524 0.217070
0.149479 0.988413 0.283553
0.149369 0.988302 0.349365
0.149259 0.988193 0.414639
0.149151 0.988085 0.479465
0.149043 0.987977 0.543905
0.148936 0.987870 0.608008
0.148829 0.987763 0.671812
0.148723 0.987657 0.735347
0.148617 0.987551 0.798638
0.148511 0.987445 0.861705
0.148406 0.987340 0.924565
0.148301 0.987235 0.987235
0.148272 0.987206 1.000000
0.149651 1.000000 0.009538
0.149531 1.000000 0.080745
0.149417 1.000000 0.149417
0.149304 1.000000 0.216784
0.149193 1.000000 0.283266
0.149082 1.000000 0.349079
0.148973 1.000000 0.414353
0.148865 1.000000 0.479179
0.148757 1.000000 0.543619
0.148650 1.000000 0.607722
0.148543 1.000000 0.671526
0.148437 1.000000 0.735061
0.148331 1.000000 0.798352
0.148225 1.000000 0.861419
0.148120 1.000000 0.924279
0.148015 1.000000 0.986949
0.147986 1.000000 1.000000
0.233285 0.025693 0.025693
0.233166 0.025574 0.096899
0.233051 0.025459 0.165571
0.232939 0.025346 0.232939
0.232827 0.025235 0.299421
0.232717 0.025125 0.365233
0.232608 0.025016 0.430508
0.232500 0.024907 0.495333
0.232392 0.024799 0.559773
0.232285 0.024692 0.623877
0.232178 0.024585 0.687681
0.232071 0.024479 0.751215
0.231966 0.024373 0.814506
0.231860 0.024268 0.877573
0.231755 0.024162 0.940434
0.231650 0.024058 1.000000
0.231621 0.024029 1.000000
0.232105 0.095838 0.024513
