skills/editops-orchestrator/assets/grade/luts/clean_bright_v19.cube
TITLE "clean_bright_v19"
LUT_3D_SIZE 9
DOMAIN_MIN 0.0 0.0 0.0
DOMAIN_MAX 1.0 1.0 1.0
0.045505 0.045505 0.045505
0.045015 0.045015 0.195034
0.044554 0.044554 0.335791
0.044107 0.044107 0.472300
0.043669 0.043669 0.605986
0.043237 0.043237 0.737563
0.042812 0.042812 0.867462
0.042391 0.042391 0.995967
0.042240 0.042240 1.000000
0.040652 0.190672 0.040652
0.040162 0.190182 0.190182
0.039701 0.189721 0.330938
0.039254 0.189274 0.467447
0.038816 0.188836 0.601133
0.038385 0.188405 0.732711
0.037959 0.187979 0.862609
0.037538 0.187558 0.991115
0.037388 0.187407 1.000000
0.036084 0.327322 0.036084
0.035595 0.326832 0.185614
0.035133 0.326371 0.326371
0.034686 0.325923 0.462879
0.034248 0.325485 0.596566
0.033817 0.325054 0.728143
0.033392 0.324629 0.858041
0.032971 0.324208 0.986547
0.032820 0.324057 1.000000
0.031654 0.459848 0.031654
0.031165 0.459358 0.181184
0.030703 0.458897 0.321941
0.030256 0.458449 0.458449
0.029818 0.458011 0.592136
0.029387 0.457580 0.723713
0.028962 0.457155 0.853611
0.028541 0.456734 0.982117
0.028390 0.456583 1.000000
0.027316 0.589633 0.027316
0.026826 0.589144 0.176846
0.026365 0.588682 0.317602
0.025918 0.588235 0.454111
0.025480 0.587797 0.587797
0.025049 0.587366 0.719375
0.024623 0.586941 0.849273
0.024202 0.586520 0.977779
0.024052 0.586369 1.000000
0.023046 0.717372 0.023046
0.022556 0.716882 0.172576
0.022095 0.716421 0.313332
0.021648 0.715974 0.449841
0.021210 0.715536 0.583527
0.020779 0.715105 0.715105
0.020353 0.714679 0.845003
0.019932 0.714258 0.973509
0.019782 0.714108 1.000000
0.018831 0.843480 0.018831
0.018341 0.842991 0.168361
0.017880 0.842529 0.309117
0.017433 0.842082 0.445626
0.016995 0.841644 0.579312
0.016564 0.841213 0.710889
0.016138 0.840788 0.840788
0.015717 0.840367 0.969293
0.015566 0.840216 1.000000
0.014661 0.968237 0.014661
0.014171 0.967747 0.164190
0.013710 0.967286 0.304947
0.013262 0.966839 0.441456
0.012824 0.966401 0.575142
0.012393 0.965970 0.706719
0.011968 0.965544 0.836617
0.011547 0.965123 0.965123
0.011396 0.964973 1.000000
0.013168 1.000000 0.013168
0.012679 1.000000 0.162698
0.012217 1.000000 0.303455
0.011770 1.000000 0.439963
0.011332 1.000000 0.573650
0.010901 1.000000 0.705227
0.010476 1.000000 0.835125
0.010055 1.000000 0.963631
0.009904 1.000000 1.000000
0.194082 0.044062 0.044062
0.193592 0.043572 0.193592
0.193131 0.043111 0.334348
0.192684 0.042664 0.470857
0.192246 0.042226 0.604543
0.191815 0.041795 0.736121
0.191389 0.041369 0.866019
0.190968 0.040949 0.994525
0.190817 0.040798 1.000000
0.189229 0.189229 0.039210
0.188739 0.188739 0.188739
0.188278 0.188278 0.329496
0.187831 0.187831 0.466005
0.187393 0.187393 0.599691
0.186962 0.186962 0.731268
0.186537 0.186537 0.861167
0.186116 0.186116 0.989672
0.185965 0.185965 1.000000
0.184662 0.325879 0.034642
0.184172 0.325389 0.184172
0.183711 0.324928 0.324928
0.183263 0.324481 0.461437
0.182825 0.324043 0.595123
0.182394 0.323612 0.726701
0.181969 0.323186 0.856599
0.181548 0.322765 0.985105
0.181397 0.322615 1.000000
0.180232 0.458405 0.030212
0.179742 0.457915 0.179742
0.179281 0.457454 0.320498
0.178833 0.457007 0.457007
0.178395 0.456569 0.590693
0.177964 0.456138 0.722271
0.177539 0.455712 0.852169
0.177118 0.455291 0.980675
0.176967 0.455141 1.000000
0.175893 0.588191 0.025874
0.175403 0.587701 0.175403
0.174942 0.587240 0.316160
0.174495 0.586793 0.452669
0.174057 0.586355 0.586355
0.173626 0.585924 0.717932
0.173201 0.585498 0.847831
0.172780 0.585077 0.976336
0.172629 0.584927 1.000000
0.171623 0.715930 0.021604
0.171134 0.715440 0.171134
0.170672 0.714979 0.311890
0.170225 0.714531 0.448399
0.169787 0.714093 0.582085
0.169356 0.713662 0.713662
0.168931 0.713237 0.843561
0.168510 0.712816 0.972066
0.168359 0.712665 1.000000
0.167408 0.842038 0.017388
0.166918 0.841548 0.166918
0.166457 0.841087 0.307675
0.166010 0.840640 0.444183
0.165572 0.840202 0.577869
0.165141 0.839771 0.709447
0.164715 0.839345 0.839345
0.164294 0.838924 0.967851
0.164144 0.838774 1.000000
0.163238 0.966794 0.013218
0.162748 0.966305 0.162748
0.162287 0.965843 0.303504
0.161840 0.965396 0.440013
0.161402 0.964958 0.573699
0.160971 0.964527 0.705277
0.160545 0.964102 0.835175
0.160124 0.963681 0.963681
0.159973 0.963530 1.000000
0.161746 1.000000 0.011726
0.161256 1.000000 0.161256
0.160795 1.000000 0.302012
0.160347 1.000000 0.438521
0.159909 1.000000 0.572207
0.159478 1.000000 0.703785
0.159053 1.000000 0.833683
0.158632 1.000000 0.962189
0.158481 1.000000 1.000000
0.333942 0.042704 0.042704
0.333452 0.042215 0.192234
0.332991 0.041753 0.332991
0.332543 0.041306 0.469499
0.332105 0.040868 0.603186
0.331674 0.040437 0.734763
0.331249 0.040012 0.864661
0.330828 0.039591 0.993167
0.330677 0.039440 1.000000
0.329089 0.187872 0.037852
0.328599 0.187382 0.187382
0.328138 0.186921 0.328138
0.327691 0.186473 0.464647
0.327253 0.186035 0.598333
0.326822 0.185604 0.729911
0.326396 0.185179 0.859809
0.325975 0.184758 0.988315
0.325825 0.184607 1.000000
0.324521 0.324521 0.033284
0.324031 0.324031 0.182814
0.323570 0.323570 0.323570
0.323123 0.323123 0.460079
0.322685 0.322685 0.593765
0.322254 0.322254 0.725343
0.321829 0.321829 0.855241
0.321408 0.321408 0.983747
0.321257 0.321257 1.000000
0.320091 0.457047 0.028854
0.319601 0.456558 0.178384
0.319140 0.456096 0.319140
0.318693 0.455649 0.455649
0.318255 0.455211 0.589335
0.317824 0.454780 0.720913
0.317399 0.454355 0.850811
0.316978 0.453934 0.979317
0.316827 0.453783 1.000000
0.315753 0.586833 0.024516
0.315263 0.586343 0.174046
0.314802 0.585882 0.314802
0.314355 0.585435 0.451311
0.313917 0.584997 0.584997
0.313486 0.584566 0.716574
0.313060 0.584140 0.846473
0.312639 0.583719 0.974978
0.312489 0.583569 1.000000
0.311483 0.714572 0.020246
0.310993 0.714082 0.169776
0.310532 0.713621 0.310532
0.310085 0.713174 0.447041
0.309647 0.712736 0.580727
0.309216 0.712305 0.712305
0.308790 0.711879 0.842203
0.308369 0.711458 0.970709
0.308219 0.711307 1.000000
0.307268 0.840680 0.016031
0.306778 0.840190 0.165560
0.306317 0.839729 0.306317
0.305869 0.839282 0.442826
0.305432 0.838844 0.576512
0.305000 0.838413 0.708089
0.304575 0.837987 0.837987
0.304154 0.837566 0.966493
0.304003 0.837416 1.000000
0.303097 0.965437 0.011860
0.302608 0.964947 0.161390
0.302146 0.964486 0.302146
0.301699 0.964038 0.438655
0.301261 0.963601 0.572341
0.300830 0.963169 0.703919
0.300405 0.962744 0.833817
0.299984 0.962323 0.962323
0.299833 0.962172 1.000000
0.301605 1.000000 0.010368
0.301115 1.000000 0.159898
0.300654 1.000000 0.300654
0.300207 1.000000 0.437163
0.299769 1.000000 0.570849
0.299338 1.000000 0.702427
0.298913 1.000000 0.832325
0.298492 1.000000 0.960831
0.298341 1.000000 1.000000
0.469581 0.041388 0.041388
0.469091 0.040898 0.190917
0.468630 0.040437 0.331674
0.468183 0.039989 0.468183
0.467745 0.039551 0.601869
0.467314 0.039120 0.733446
0.466888 0.038695 0.863344
0.466467 0.038274 0.991850
0.466316 0.038123 1.000000
0.464728 0.186555 0.036535
0.464238 0.186065 0.186065
0.463777 0.185604 0.326821
0.463330 0.185157 0.463330
0.462892 0.184719 0.597016
0.462461 0.184287 0.728594
0.462036 0.183862 0.858492
0.461615 0.183441 0.986998
0.461464 0.183290 1.000000
0.460160 0.323204 0.031967
0.459671 0.322715 0.181497
0.459209 0.322253 0.322253
0.458762 0.321806 0.458762
0.458324 0.321368 0.592448
0.457893 0.320937 0.724026
0.457468 0.320512 0.853924
0.457047 0.320091 0.982430
0.456896 0.319940 1.000000
0.455731 0.455731 0.027537
0.455241 0.455241 0.177067
0.454780 0.454780 0.317824
0.454332 0.454332 0.454332
0.453894 0.453894 0.588018
0.453463 0.453463 0.719596
0.453038 0.453038 0.849494
0.452617 0.452617 0.978000
0.452466 0.452466 1.000000
0.451392 0.585516 0.023199
0.450902 0.585026 0.172729
0.450441 0.584565 0.313485
0.449994 0.584118 0.449994
0.449556 0.583680 0.583680
0.449125 0.583249 0.715258
0.448699 0.582824 0.845156
0.448278 0.582403 0.973662
0.448128 0.582252 1.000000
0.447122 0.713255 0.018929
0.446632 0.712765 0.168459
0.446171 0.712304 0.309215
0.445724 0.711857 0.445724
0.445286 0.711419 0.579410
0.444855 0.710988 0.710988
0.444430 0.710562 0.840886
0.444009 0.710141 0.969392
0.443858 0.709991 1.000000
0.442907 0.839363 0.014714
0.442417 0.838873 0.164243
0.441956 0.838412 0.305000
0.441509 0.837965 0.441509
0.441071 0.837527 0.575195
0.440640 0.837096 0.706772
0.440214 0.836671 0.836671
0.439793 0.836250 0.965176
0.439642 0.836099 1.000000
0.438737 0.964120 0.010543
0.438247 0.963630 0.160073
0.437786 0.963169 0.300830
0.437338 0.962722 0.437338
0.436900 0.962284 0.571025
0.436469 0.961853 0.702602
0.436044 0.961427 0.832500
0.435623 0.961006 0.961006
0.435472 0.960855 1.000000
0.437244 1.000000 0.009051
0.436755 1.000000 0.158581
0.436293 1.000000 0.299337
0.435846 1.000000 0.435846
0.435408 1.000000 0.569532
0.434977 1.000000 0.701110
0.434552 1.000000 0.831008
0.434131 1.000000 0.959514
0.433980 1.000000 1.000000
0.602415 0.040098 0.040098
0.601925 0.039608 0.189628
0.601464 0.039147 0.330384
0.601017 0.038700 0.466893
0.600579 0.038262 0.600579
0.600148 0.037831 0.732157
0.599722 0.037405 0.862055
0.599302 0.036984 0.990561
0.599151 0.036834 1.000000
0.597563 0.185265 0.035245
0.597073 0.184775 0.184775
0.596612 0.184314 0.325532
0.596165 0.183867 0.462040
0.595727 0.183429 0.595727
0.595296 0.182998 0.727304
0.594870 0.182572 0.857202
0.594449 0.182151 0.985708
0.594298 0.182001 1.000000
0.592995 0.321915 0.030678
0.592505 0.321425 0.180207
0.592044 0.320964 0.320964
0.591597 0.320517 0.457473
0.591159 0.320079 0.591159
0.590728 0.319648 0.722736
0.590302 0.319222 0.852635
0.589881 0.318801 0.981140
0.589731 0.318650 1.000000
0.588565 0.454441 0.026248
0.588075 0.453951 0.175777
0.587614 0.453490 0.316534
0.587167 0.453043 0.453043
0.586729 0.452605 0.586729
0.586298 0.452174 0.718306
0.585872 0.451748 0.848205
0.585451 0.451327 0.976710
0.585301 0.451177 1.000000
0.584227 0.584227 0.021909
0.583737 0.583737 0.171439
0.583276 0.583276 0.312196
0.582828 0.582828 0.448704
0.582391 0.582391 0.582391
0.581959 0.581959 0.713968
0.581534 0.581534 0.843866
0.581113 0.581113 0.972372
0.580962 0.580962 1.000000
0.579957 0.711965 0.017639
0.579467 0.711475 0.167169
0.579006 0.711014 0.307926
0.578559 0.710567 0.444434
0.578121 0.710129 0.578121
0.577690 0.709698 0.709698
0.577264 0.709273 0.839596
0.576843 0.708852 0.968102
0.576692 0.708701 1.000000
0.575741 0.838074 0.013424
0.575251 0.837584 0.162954
0.574790 0.837123 0.303710
0.574343 0.836676 0.440219
0.573905 0.836238 0.573905
0.573474 0.835807 0.705483
0.573049 0.835381 0.835381
0.572628 0.834960 0.963887
0.572477 0.834809 1.000000
0.571571 0.962830 0.009254
0.571081 0.962340 0.158784
0.570620 0.961879 0.299540
0.570173 0.961432 0.436049
0.569735 0.960994 0.569735
0.569304 0.960563 0.701312
0.568878 0.960137 0.831211
0.568457 0.959716 0.959716
0.568307 0.959566 1.000000
0.570079 1.000000 0.007762
0.569589 1.000000 0.157291
0.569128 1.000000 0.298048
0.568681 1.000000 0.434557
0.568243 1.000000 0.568243
0.567812 1.000000 0.699820
0.567386 1.000000 0.829719
0.566965 1.000000 0.958224
0.566815 1.000000 1.000000
0.733154 0.038829 0.038829
0.732665 0.038339 0.188358
0.732204 0.037878 0.329115
0.731756 0.037431 0.465624
0.731318 0.036993 0.599310
0.730887 0.036561 0.730887
0.730462 0.036136 0.860786
0.730041 0.035715 0.989291
0.729890 0.035564 1.000000
0.728302 0.183996 0.033976
0.727812 0.183506 0.183506
0.727351 0.183045 0.324262
0.726904 0.182598 0.460771
0.726466 0.182160 0.594457
0.726035 0.181729 0.726035
0.725609 0.181303 0.855933
0.725188 0.180882 0.984439
0.725038 0.180731 1.000000
0.723734 0.320646 0.029408
0.723244 0.320156 0.178938
0.722783 0.319695 0.319695
0.722336 0.319247 0.456203
0.721898 0.318809 0.589890
0.721467 0.318378 0.721467
0.721041 0.317953 0.851365
0.720620 0.317532 0.979871
0.720470 0.317381 1.000000
0.719304 0.453172 0.024978
0.718814 0.452682 0.174508
0.718353 0.452221 0.315265
0.717906 0.451773 0.451773
0.717468 0.451335 0.585460
0.717037 0.450904 0.717037
0.716612 0.450479 0.846935
0.716191 0.450058 0.975441
0.716040 0.449907 1.000000
0.714966 0.582957 0.020640
0.714476 0.582468 0.170170
0.714015 0.582006 0.310926
0.713568 0.581559 0.447435
0.713130 0.581121 0.581121
0.712699 0.580690 0.712699
0.712273 0.580265 0.842597
0.711852 0.579844 0.971103
0.711702 0.579693 1.000000
0.710696 0.710696 0.016370
0.710206 0.710206 0.165900
0.709745 0.709745 0.306656
0.709298 0.709298 0.443165
0.708860 0.708860 0.576851
0.708429 0.708429 0.708429
0.708003 0.708003 0.838327
0.707582 0.707582 0.966833
0.707432 0.707432 1.000000
0.706481 0.836804 0.012155
0.705991 0.836315 0.161685
0.705530 0.835853 0.302441
0.705082 0.835406 0.438950
0.704644 0.834968 0.572636
0.704213 0.834537 0.704213
0.703788 0.834112 0.834112
0.703367 0.833691 0.962617
0.703216 0.833540 1.000000
0.702310 0.961561 0.007985
0.701821 0.961071 0.157514
0.701359 0.960610 0.298271
0.700912 0.960163 0.434780
0.700474 0.959725 0.568466
0.700043 0.959294 0.700043
0.699618 0.958868 0.829941
0.699197 0.958447 0.958447
0.699046 0.958297 1.000000
0.700818 1.000000 0.006492
0.700328 1.000000 0.156022
0.699867 1.000000 0.296779
0.699420 1.000000 0.433287
0.698982 1.000000 0.566974
0.698551 1.000000 0.698551
0.698125 1.000000 0.828449
0.697704 1.000000 0.956955
0.697554 1.000000 1.000000
0.862225 0.037576 0.037576
0.861735 0.037086 0.187105
0.861274 0.036625 0.327862
0.860827 0.036177 0.464371
0.860389 0.035739 0.598057
0.859958 0.035308 0.729634
0.859533 0.034883 0.859533
0.859112 0.034462 0.988038
0.858961 0.034311 1.000000
0.857373 0.182743 0.032723
0.856883 0.182253 0.182253
0.856422 0.181792 0.323009
0.855975 0.181345 0.459518
0.855537 0.180907 0.593204
0.855106 0.180476 0.724782
0.854680 0.180050 0.854680
0.854259 0.179629 0.983186
0.854108 0.179478 1.000000
0.852805 0.319392 0.028155
0.852315 0.318903 0.177685
0.851854 0.318442 0.318442
0.851407 0.317994 0.454950
0.850969 0.317556 0.588636
0.850538 0.317125 0.720214
0.850112 0.316700 0.850112
0.849691 0.316279 0.978618
0.849541 0.316128 1.000000
0.848375 0.451919 0.023725
0.847885 0.451429 0.173255
0.847424 0.450968 0.314012
0.846977 0.450520 0.450520
0.846539 0.450082 0.584207
0.846108 0.449651 0.715784
0.845682 0.449226 0.845682
0.845261 0.448805 0.974188
0.845111 0.448654 1.000000
0.844037 0.581704 0.019387
0.843547 0.581214 0.168917
0.843086 0.580753 0.309673
0.842638 0.580306 0.446182
0.842201 0.579868 0.579868
0.841769 0.579437 0.711446
0.841344 0.579012 0.841344
0.840923 0.578591 0.969850
0.840772 0.578440 1.000000
0.839767 0.709443 0.015117
0.839277 0.708953 0.164647
0.838816 0.708492 0.305403
0.838369 0.708045 0.441912
0.837931 0.707607 0.575598
0.837500 0.707176 0.707176
0.837074 0.706750 0.837074
0.836653 0.706329 0.965580
0.836502 0.706179 1.000000
0.835551 0.835551 0.010902
0.835061 0.835061 0.160431
0.834600 0.834600 0.301188
0.834153 0.834153 0.437697
0.833715 0.833715 0.571383
0.833284 0.833284 0.702960
0.832859 0.832859 0.832859
0.832438 0.832438 0.961364
0.832287 0.832287 1.000000
0.831381 0.960308 0.006732
0.830891 0.959818 0.156261
0.830430 0.959357 0.297018
0.829983 0.958910 0.433526
0.829545 0.958472 0.567213
0.829114 0.958041 0.698790
0.828688 0.957615 0.828688
0.828267 0.957194 0.957194
0.828117 0.957043 1.000000
0.829889 1.000000 0.005239
0.829399 1.000000 0.154769
0.828938 1.000000 0.295526
0.828491 1.000000 0.432034
0.828053 1.000000 0.565720
0.827622 1.000000 0.697298
0.827196 1.000000 0.827196
0.826775 1.000000 0.955702
0.826625 1.000000 1.000000
0.989912 0.036336 0.036336
0.989422 0.035846 0.185866
0.988961 0.035385 0.326622
0.988514 0.034938 0.463131
0.988076 0.034500 0.596817
0.987645 0.034069 0.728395
0.987220 0.033643 0.858293
0.986799 0.033222 0.986799
0.986648 0.033072 1.000000
0.985060 0.181503 0.031483
0.984570 0.181013 0.181013
0.984109 0.180552 0.321770
0.983662 0.180105 0.458278
0.983224 0.179667 0.591965
0.982793 0.179236 0.723542
0.982367 0.178810 0.853440
0.981946 0.178389 0.981946
0.981795 0.178239 1.000000
0.980492 0.318153 0.026916
0.980002 0.317663 0.176445
0.979541 0.317202 0.317202
0.979094 0.316755 0.453711
0.978656 0.316317 0.587397
0.978225 0.315886 0.718974
0.977799 0.315460 0.848873
0.977378 0.315039 0.977378
0.977228 0.314888 1.000000
0.976062 0.450679 0.022486
0.975572 0.450189 0.172016
0.975111 0.449728 0.312772
0.974664 0.449281 0.449281
0.974226 0.448843 0.582967
0.973795 0.448412 0.714544
0.973369 0.447986 0.844443
0.972948 0.447565 0.972948
0.972798 0.447415 1.000000
0.971724 0.580465 0.018147
0.971234 0.579975 0.167677
0.970773 0.579514 0.308434
0.970326 0.579067 0.444942
0.969888 0.578629 0.578629
0.969457 0.578197 0.710206
0.969031 0.577772 0.840104
0.968610 0.577351 0.968610
0.968459 0.577200 1.000000
0.967454 0.708203 0.013878
0.966964 0.707713 0.163407
0.966503 0.707252 0.304164
0.966056 0.706805 0.440672
0.965618 0.706367 0.574359
0.965187 0.705936 0.705936
0.964761 0.705511 0.835834
0.964340 0.705090 0.964340
0.964189 0.704939 1.000000
0.963238 0.834312 0.009662
0.962749 0.833822 0.159192
0.962287 0.833361 0.299948
0.961840 0.832914 0.436457
0.961402 0.832476 0.570143
0.960971 0.832045 0.701721
0.960546 0.831619 0.831619
0.960125 0.831198 0.960125
0.959974 0.831047 1.000000
0.959068 0.959068 0.005492
0.958578 0.958578 0.155022
0.958117 0.958117 0.295778
0.957670 0.957670 0.432287
0.957232 0.957232 0.565973
0.956801 0.956801 0.697550
0.956375 0.956375 0.827449
0.955954 0.955954 0.955954
0.955804 0.955804 1.000000
0.957576 1.000000 0.004000
0.957086 1.000000 0.153529
0.956625 1.000000 0.294286
0.956178 1.000000 0.430795
0.955740 1.000000 0.564481
0.955309 1.000000 0.696058
0.954883 1.000000 0.825957
0.954462 1.000000 0.954462
0.954312 1.000000 1.000000
1.000000 0.035892 0.035892
1.000000 0.035403 0.185422
1.000000 0.034941 0.326179
1.000000 0.034494 0.462687
1.000000 0.034056 0.596374
1.000000 0.033625 0.727951
1.000000 0.033200 0.857849
1.000000 0.032779 0.986355
1.000000 0.032628 1.000000
1.000000 0.181060 0.031040
1.000000 0.180570 0.180570
1.000000 0.180109 0.321326
1.000000 0.179661 0.457835
1.000000 0.179223 0.591521
1.000000 0.178792 0.723099
1.000000 0.178367 0.852997
1.000000 0.177946 0.981503
1.000000 0.177795 1.000000
1.000000 0.317709 0.026472
1.000000 0.317219 0.176002
1.000000 0.316758 0.316758
1.000000 0.316311 0.453267
1.000000 0.315873 0.586953
1.000000 0.315442 0.718531
1.000000 0.315017 0.848429
1.000000 0.314596 0.976935
1.000000 0.314445 1.000000
1.000000 0.450235 0.022042
1.000000 0.449746 0.171572
1.000000 0.449284 0.312328
1.000000 0.448837 0.448837
1.000000 0.448399 0.582523
1.000000 0.447968 0.714101
1.000000 0.447543 0.843999
1.000000 0.447122 0.972505
1.000000 0.446971 1.000000
1.000000 0.580021 0.017704
1.000000 0.579531 0.167234
1.000000 0.579070 0.307990
1.000000 0.578623 0.444499
1.000000 0.578185 0.578185
1.000000 0.577754 0.709762
1.000000 0.577328 0.839661
1.000000 0.576907 0.968166
1.000000 0.576757 1.000000
1.000000 0.707760 0.013434
1.000000 0.707270 0.162964
1.000000 0.706809 0.303720
1.000000 0.706362 0.440229
1.000000 0.705924 0.573915
1.000000 0.705493 0.705493
1.000000 0.705067 0.835391
1.000000 0.704646 0.963897
1.000000 0.704495 1.000000
1.000000 0.833868 0.009219
1.000000 0.833378 0.158748
1.000000 0.832917 0.299505
1.000000 0.832470 0.436014
1.000000 0.832032 0.569700
1.000000 0.831601 0.701277
1.000000 0.831175 0.831175
1.000000 0.830754 0.959681
1.000000 0.830604 1.000000
1.000000 0.958625 0.005048
1.000000 0.958135 0.154578
1.000000 0.957674 0.295334
1.000000 0.957226 0.431843
1.000000 0.956789 0.565529
1.000000 0.956357 0.697107
1.000000 0.955932 0.827005
1.000000 0.955511 0.955511
1.000000 0.955360 1.000000
1.000000 1.000000 0.003556
1.000000 1.000000 0.153086
1.000000 1.000000 0.293842
1.000000 1.000000 0.430351
1.000000 1.000000 0.564037
1.000000 1.000000 0.695615
1.000000 1.000000 0.825513
1.000000 1.000000 0.954019
1.000000 1.000000 1.000000
