skills/editops-orchestrator/assets/grade/luts/clean_bright_v13.cube
TITLE "clean_bright_v13"
LUT_3D_SIZE 5
DOMAIN_MIN 0.0 0.0 0.0
DOMAIN_MAX 1.0 1.0 1.0
0.032646 0.032646 0.032646
0.032027 0.032027 0.312012
0.031443 0.031443 0.575728
0.030874 0.030874 0.832792
0.030441 0.030441 1.000000
0.026516 0.306501 0.026516
0.025897 0.305882 0.305882
0.025313 0.305298 0.569598
0.024744 0.304729 0.826662
0.024311 0.304296 1.000000
0.020730 0.565014 0.020730
0.020111 0.564395 0.300096
0.019527 0.563811 0.563811
0.018957 0.563242 0.820875
0.018524 0.562809 1.000000
0.015089 0.817007 0.015089
0.014470 0.816388 0.294455
0.013886 0.815804 0.558171
0.013317 0.815235 0.815235
0.012884 0.814801 1.000000
0.010798 1.000000 0.010798
0.010179 1.000000 0.290164
0.009595 1.000000 0.553880
0.009026 1.000000 0.810944
0.008593 1.000000 1.000000
0.310809 0.030824 0.030824
0.310190 0.030205 0.310190
0.309606 0.029621 0.573906
0.309036 0.029052 0.830969
0.308603 0.028618 1.000000
0.304679 0.304679 0.024694
0.304060 0.304060 0.304060
0.303476 0.303476 0.567776
0.302906 0.302906 0.824840
0.302473 0.302473 1.000000
0.298892 0.563192 0.018908
0.298274 0.562573 0.298274
0.297689 0.561989 0.561989
0.297120 0.561420 0.819053
0.296687 0.560987 1.000000
0.293252 0.815185 0.013267
0.292633 0.814566 0.292633
0.292049 0.813982 0.556349
0.291479 0.813412 0.813412
0.291046 0.812979 1.000000
0.288961 1.000000 0.008976
0.288342 1.000000 0.288342
0.287758 1.000000 0.552058
0.287189 1.000000 0.809122
0.286755 1.000000 1.000000
0.573389 0.029104 0.029104
0.572770 0.028485 0.308470
0.572186 0.027901 0.572186
0.571616 0.027332 0.829249
0.571183 0.026898 1.000000
0.567259 0.302959 0.022974
0.566640 0.302340 0.302340
0.566056 0.301756 0.566056
0.565486 0.301186 0.823119
0.565053 0.300753 1.000000
0.561472 0.561472 0.017187
0.560853 0.560853 0.296553
0.560269 0.560269 0.560269
0.559700 0.559700 0.817333
0.559266 0.559266 1.000000
0.555831 0.813465 0.011547
0.555213 0.812846 0.290913
0.554628 0.812262 0.554628
0.554059 0.811692 0.811692
0.553626 0.811259 1.000000
0.551541 1.000000 0.007256
0.550922 1.000000 0.286622
0.550338 1.000000 0.550338
0.549768 1.000000 0.807401
0.549335 1.000000 1.000000
0.829345 0.027427 0.027427
0.828726 0.026808 0.306793
0.828142 0.026224 0.570509
0.827573 0.025655 0.827573
0.827139 0.025222 1.000000
0.823215 0.301282 0.021297
0.822596 0.300663 0.300663
0.822012 0.300079 0.564379
0.821443 0.299510 0.821443
0.821010 0.299076 1.000000
0.817429 0.559795 0.015511
0.816810 0.559176 0.294877
0.816226 0.558592 0.558592
0.815656 0.558023 0.815656
0.815223 0.557590 1.000000
0.811788 0.811788 0.009870
0.811169 0.811169 0.289236
0.810585 0.810585 0.552952
0.810016 0.810016 0.810016
0.809582 0.809582 1.000000
0.807497 1.000000 0.005579
0.806878 1.000000 0.284945
0.806294 1.000000 0.548661
0.805725 1.000000 0.805725
0.805292 1.000000 1.000000
1.000000 0.026152 0.026152
1.000000 0.025533 0.305518
1.000000 0.024949 0.569233
1.000000 0.024379 0.826297
1.000000 0.023946 1.000000
1.000000 0.300007 0.020022
1.000000 0.299388 0.299388
1.000000 0.298804 0.563103
1.000000 0.298234 0.820167
1.000000 0.297801 1.000000
1.000000 0.558520 0.014235
1.000000 0.557901 0.293601
1.000000 0.557317 0.557317
1.000000 0.556747 0.814381
1.000000 0.556314 1.000000
1.000000 0.810512 0.008595
1.000000 0.809894 0.287961
1.000000 0.809309 0.551676
1.000000 0.808740 0.808740
1.000000 0.808307 1.000000
1.000000 1.000000 0.004304
1.000000 1.000000 0.283670
1.000000 1.000000 0.547385
1.000000 1.000000 0.804449
1.000000 1.000000 1.000000
