skills/editops-orchestrator/assets/grade/luts/clean_bright_v13.cube
TITLE "clean_bright_v13"
LUT_3D_SIZE 9
DOMAIN_MIN 0.0 0.0 0.0
DOMAIN_MAX 1.0 1.0 1.0
0.032646 0.032646 0.032646
0.032329 0.032329 0.175816
0.032027 0.032027 0.312012
0.031733 0.031733 0.444948
0.031443 0.031443 0.575728
0.031157 0.031157 0.704900
0.030874 0.030874 0.832792
0.030593 0.030593 0.959621
0.030441 0.030441 1.000000
0.029505 0.172992 0.029505
0.029188 0.172675 0.172675
0.028886 0.172373 0.308871
0.028591 0.172079 0.441806
0.028302 0.171789 0.572586
0.028016 0.171503 0.701759
0.027732 0.171220 0.829650
0.027451 0.170939 0.956479
0.027299 0.170786 1.000000
0.026516 0.306501 0.026516
0.026199 0.306184 0.169686
0.025897 0.305882 0.305882
0.025603 0.305588 0.438818
0.025313 0.305298 0.569598
0.025027 0.305012 0.698770
0.024744 0.304729 0.826662
0.024463 0.304448 0.953491
0.024311 0.304296 1.000000
0.023599 0.436814 0.023599
0.023282 0.436497 0.166769
0.022981 0.436195 0.302965
0.022686 0.435901 0.435901
0.022396 0.435611 0.566681
0.022110 0.435325 0.695853
0.021827 0.435042 0.823745
0.021546 0.434761 0.950574
0.021394 0.434608 1.000000
0.020730 0.565014 0.020730
0.020413 0.564697 0.163900
0.020111 0.564395 0.300096
0.019816 0.564101 0.433031
0.019527 0.563811 0.563811
0.019241 0.563525 0.692984
0.018957 0.563242 0.820875
0.018676 0.562961 0.947704
0.018524 0.562809 1.000000
0.017895 0.691638 0.017895
0.017578 0.691321 0.161065
0.017277 0.691019 0.297261
0.016982 0.690725 0.430197
0.016692 0.690435 0.560977
0.016406 0.690149 0.690149
0.016123 0.689866 0.818041
0.015842 0.689585 0.944870
0.015690 0.689433 1.000000
0.015089 0.817007 0.015089
0.014772 0.816690 0.158259
0.014470 0.816388 0.294455
0.014176 0.816094 0.427391
0.013886 0.815804 0.558171
0.013600 0.815518 0.687343
0.013317 0.815235 0.815235
0.013036 0.814954 0.942064
0.012884 0.814801 1.000000
0.012306 0.941334 0.012306
0.011989 0.941017 0.155476
0.011687 0.940715 0.291672
0.011393 0.940421 0.424608
0.011103 0.940131 0.555388
0.010817 0.939845 0.684560
0.010534 0.939562 0.812452
0.010253 0.939281 0.939281
0.010101 0.939129 1.000000
0.010798 1.000000 0.010798
0.010481 1.000000 0.153968
0.010179 1.000000 0.290164
0.009885 1.000000 0.423100
0.009595 1.000000 0.553880
0.009309 1.000000 0.683052
0.009026 1.000000 0.810944
0.008745 1.000000 0.937773
0.008593 1.000000 1.000000
0.175200 0.031712 0.031712
0.174883 0.031395 0.174883
0.174581 0.031094 0.311078
0.174286 0.030799 0.444014
0.173997 0.030509 0.574794
0.173711 0.030223 0.703966
0.173427 0.029940 0.831858
0.173146 0.029659 0.958687
0.172994 0.029507 1.000000
0.172058 0.172058 0.028571
0.171741 0.171741 0.171741
0.171439 0.171439 0.307937
0.171145 0.171145 0.440872
0.170855 0.170855 0.571652
0.170569 0.170569 0.700825
0.170286 0.170286 0.828716
0.170005 0.170005 0.955545
0.169853 0.169853 1.000000
0.169070 0.305567 0.025582
0.168753 0.305250 0.168753
0.168451 0.304948 0.304948
0.168156 0.304654 0.437884
0.167867 0.304364 0.568664
0.167581 0.304078 0.697836
0.167297 0.303795 0.825728
0.167016 0.303514 0.952557
0.166864 0.303362 1.000000
0.166153 0.435880 0.022666
0.165836 0.435563 0.165836
0.165534 0.435261 0.302031
0.165239 0.434967 0.434967
0.164950 0.434677 0.565747
0.164664 0.434391 0.694919
0.164380 0.434108 0.822811
0.164099 0.433827 0.949640
0.163947 0.433675 1.000000
0.163283 0.564080 0.019796
0.162966 0.563763 0.162966
0.162664 0.563462 0.299162
0.162370 0.563167 0.432097
0.162080 0.562877 0.562877
0.161794 0.562591 0.692050
0.161511 0.562308 0.819941
0.161230 0.562027 0.946770
0.161078 0.561875 1.000000
0.160449 0.690704 0.016962
0.160132 0.690387 0.160132
0.159830 0.690086 0.296328
0.159536 0.689791 0.429263
0.159246 0.689501 0.560043
0.158960 0.689215 0.689215
0.158676 0.688932 0.817107
0.158395 0.688651 0.943936
0.158243 0.688499 1.000000
0.157643 0.816073 0.014155
0.157325 0.815756 0.157325
0.157024 0.815454 0.293521
0.156729 0.815160 0.426457
0.156440 0.814870 0.557237
0.156153 0.814584 0.686409
0.155870 0.814301 0.814301
0.155589 0.814020 0.941130
0.155437 0.813868 1.000000
0.154860 0.940400 0.011372
0.154542 0.940083 0.154542
0.154241 0.939781 0.290738
0.153946 0.939487 0.423674
0.153657 0.939197 0.554454
0.153371 0.938911 0.683626
0.153087 0.938628 0.811518
0.152806 0.938347 0.938347
0.152654 0.938195 1.000000
0.153352 1.000000 0.009864
0.153035 1.000000 0.153035
0.152733 1.000000 0.289230
0.152438 1.000000 0.422166
0.152149 1.000000 0.552946
0.151863 1.000000 0.682118
0.151579 1.000000 0.810010
0.151298 1.000000 0.936839
0.151146 1.000000 1.000000
0.310809 0.030824 0.030824
0.310492 0.030507 0.173994
0.310190 0.030205 0.310190
0.309896 0.029911 0.443125
0.309606 0.029621 0.573906
0.309320 0.029335 0.703078
0.309036 0.029052 0.830969
0.308756 0.028771 0.957799
0.308603 0.028618 1.000000
0.307667 0.171170 0.027683
0.307350 0.170853 0.170853
0.307049 0.170551 0.307049
0.306754 0.170257 0.439984
0.306464 0.169967 0.570764
0.306178 0.169681 0.699936
0.305895 0.169397 0.827828
0.305614 0.169116 0.954657
0.305462 0.168964 1.000000
0.304679 0.304679 0.024694
0.304362 0.304362 0.167864
0.304060 0.304060 0.304060
0.303766 0.303766 0.436995
0.303476 0.303476 0.567776
0.303190 0.303190 0.696948
0.302906 0.302906 0.824840
0.302626 0.302626 0.951669
0.302473 0.302473 1.000000
0.301762 0.434992 0.021777
0.301445 0.434675 0.164947
0.301143 0.434373 0.301143
0.300849 0.434079 0.434079
0.300559 0.433789 0.564859
0.300273 0.433503 0.694031
0.299990 0.433219 0.821923
0.299709 0.432938 0.948752
0.299556 0.432786 1.000000
0.298892 0.563192 0.018908
0.298575 0.562875 0.162078
0.298274 0.562573 0.298274
0.297979 0.562279 0.431209
0.297689 0.561989 0.561989
0.297403 0.561703 0.691161
0.297120 0.561420 0.819053
0.296839 0.561139 0.945882
0.296687 0.560987 1.000000
0.296058 0.689816 0.016073
0.295741 0.689499 0.159243
0.295439 0.689197 0.295439
0.295145 0.688903 0.428375
0.294855 0.688613 0.559155
0.294569 0.688327 0.688327
0.294286 0.688044 0.816219
0.294005 0.687763 0.943048
0.293852 0.687611 1.000000
0.293252 0.815185 0.013267
0.292935 0.814868 0.156437
0.292633 0.814566 0.292633
0.292338 0.814271 0.425568
0.292049 0.813982 0.556349
0.291763 0.813696 0.685521
0.291479 0.813412 0.813412
0.291198 0.813131 0.940241
0.291046 0.812979 1.000000
0.290469 0.939512 0.010484
0.290152 0.939195 0.153654
0.289850 0.938893 0.289850
0.289556 0.938599 0.422785
0.289266 0.938309 0.553566
0.288980 0.938023 0.682738
0.288696 0.937739 0.810629
0.288415 0.937459 0.937459
0.288263 0.937306 1.000000
0.288961 1.000000 0.008976
0.288644 1.000000 0.152146
0.288342 1.000000 0.288342
0.288048 1.000000 0.421277
0.287758 1.000000 0.552058
0.287472 1.000000 0.681230
0.287189 1.000000 0.809122
0.286908 1.000000 0.935951
0.286755 1.000000 1.000000
0.443172 0.029957 0.029957
0.442854 0.029640 0.173127
0.442553 0.029338 0.309323
0.442258 0.029044 0.442258
0.441969 0.028754 0.573039
0.441683 0.028468 0.702211
0.441399 0.028185 0.830102
0.441118 0.027904 0.956931
0.440966 0.027751 1.000000
0.440030 0.170303 0.026815
0.439713 0.169986 0.169986
0.439411 0.169684 0.306181
0.439117 0.169389 0.439117
0.438827 0.169100 0.569897
0.438541 0.168814 0.699069
0.438258 0.168530 0.826961
0.437977 0.168249 0.953790
0.437825 0.168097 1.000000
0.437042 0.303812 0.023827
0.436725 0.303495 0.166997
0.436423 0.303193 0.303193
0.436128 0.302899 0.436128
0.435839 0.302609 0.566909
0.435553 0.302323 0.696081
0.435269 0.302039 0.823972
0.434988 0.301758 0.950802
0.434836 0.301606 1.000000
0.434125 0.434125 0.020910
0.433808 0.433808 0.164080
0.433506 0.433506 0.300276
0.433211 0.433211 0.433211
0.432922 0.432922 0.563992
0.432636 0.432636 0.693164
0.432352 0.432352 0.821056
0.432071 0.432071 0.947885
0.431919 0.431919 1.000000
0.431255 0.562325 0.018040
0.430938 0.562008 0.161211
0.430636 0.561706 0.297406
0.430342 0.561412 0.430342
0.430052 0.561122 0.561122
0.429766 0.560836 0.690294
0.429483 0.560553 0.818186
0.429202 0.560272 0.945015
0.429050 0.560119 1.000000
0.428421 0.688949 0.015206
0.428104 0.688632 0.158376
0.427802 0.688330 0.294572
0.427507 0.688036 0.427507
0.427218 0.687746 0.558288
0.426932 0.687460 0.687460
0.426648 0.687177 0.815352
0.426367 0.686896 0.942181
0.426215 0.686743 1.000000
0.425615 0.814318 0.012400
0.425297 0.814001 0.155570
0.424996 0.813699 0.291766
0.424701 0.813404 0.424701
0.424412 0.813115 0.555481
0.424125 0.812829 0.684654
0.423842 0.812545 0.812545
0.423561 0.812264 0.939374
0.423409 0.812112 1.000000
0.422832 0.938645 0.009617
0.422514 0.938328 0.152787
0.422213 0.938026 0.288983
0.421918 0.937732 0.421918
0.421629 0.937442 0.552699
0.421342 0.937156 0.681871
0.421059 0.936872 0.809762
0.420778 0.936591 0.936591
0.420626 0.936439 1.000000
0.421324 1.000000 0.008109
0.421007 1.000000 0.151279
0.420705 1.000000 0.287475
0.420410 1.000000 0.420410
0.420121 1.000000 0.551191
0.419835 1.000000 0.680363
0.419551 1.000000 0.808254
0.419270 1.000000 0.935084
0.419118 1.000000 1.000000
0.573389 0.029104 0.029104
0.573071 0.028787 0.172274
0.572770 0.028485 0.308470
0.572475 0.028191 0.441405
0.572186 0.027901 0.572186
0.571899 0.027615 0.701358
0.571616 0.027332 0.829249
0.571335 0.027051 0.956078
0.571183 0.026898 1.000000
0.570247 0.169450 0.025962
0.569930 0.169133 0.169133
0.569628 0.168831 0.305328
0.569334 0.168536 0.438264
0.569044 0.168247 0.569044
0.568758 0.167961 0.698216
0.568475 0.167677 0.826108
0.568194 0.167396 0.952937
0.568041 0.167244 1.000000
0.567259 0.302959 0.022974
0.566941 0.302642 0.166144
0.566640 0.302340 0.302340
0.566345 0.302045 0.435275
0.566056 0.301756 0.566056
0.565769 0.301470 0.695228
0.565486 0.301186 0.823119
0.565205 0.300905 0.949949
0.565053 0.300753 1.000000
0.564342 0.433272 0.020057
0.564025 0.432955 0.163227
0.563723 0.432653 0.299423
0.563428 0.432358 0.432358
0.563139 0.432069 0.563139
0.562853 0.431783 0.692311
0.562569 0.431499 0.820202
0.562288 0.431218 0.947032
0.562136 0.431066 1.000000
0.561472 0.561472 0.017187
0.561155 0.561155 0.160358
0.560853 0.560853 0.296553
0.560559 0.560559 0.429489
0.560269 0.560269 0.560269
0.559983 0.559983 0.689441
0.559700 0.559700 0.817333
0.559419 0.559419 0.944162
0.559266 0.559266 1.000000
0.558638 0.688096 0.014353
0.558321 0.687779 0.157523
0.558019 0.687477 0.293719
0.557724 0.687183 0.426654
0.557435 0.686893 0.557435
0.557149 0.686607 0.686607
0.556865 0.686324 0.814499
0.556584 0.686043 0.941328
0.556432 0.685890 1.000000
0.555831 0.813465 0.011547
0.555514 0.813148 0.154717
0.555213 0.812846 0.290913
0.554918 0.812551 0.423848
0.554628 0.812262 0.554628
0.554342 0.811976 0.683801
0.554059 0.811692 0.811692
0.553778 0.811411 0.938521
0.553626 0.811259 1.000000
0.553048 0.937792 0.008764
0.552731 0.937475 0.151934
0.552430 0.937173 0.288130
0.552135 0.936878 0.421065
0.551846 0.936589 0.551846
0.551559 0.936303 0.681018
0.551276 0.936019 0.808909
0.550995 0.935738 0.935738
0.550843 0.935586 1.000000
0.551541 1.000000 0.007256
0.551223 1.000000 0.150426
0.550922 1.000000 0.286622
0.550627 1.000000 0.419557
0.550338 1.000000 0.550338
0.550051 1.000000 0.679510
0.549768 1.000000 0.807401
0.549487 1.000000 0.934231
0.549335 1.000000 1.000000
0.702004 0.028261 0.028261
0.701687 0.027944 0.171432
0.701385 0.027643 0.307627
0.701091 0.027348 0.440563
0.700801 0.027058 0.571343
0.700515 0.026772 0.700515
0.700232 0.026489 0.828407
0.699951 0.026208 0.955236
0.699799 0.026056 1.000000
0.698863 0.168607 0.025120
0.698546 0.168290 0.168290
0.698244 0.167988 0.304486
0.697950 0.167694 0.437421
0.697660 0.167404 0.568202
0.697374 0.167118 0.697374
0.697090 0.166835 0.825265
0.696809 0.166554 0.952094
0.696657 0.166402 1.000000
0.695874 0.302116 0.022131
0.695557 0.301799 0.165302
0.695256 0.301497 0.301497
0.694961 0.301203 0.434433
0.694671 0.300913 0.565213
0.694385 0.300627 0.694385
0.694102 0.300344 0.822277
0.693821 0.300063 0.949106
0.693669 0.299911 1.000000
0.692957 0.432429 0.019215
0.692640 0.432112 0.162385
0.692339 0.431810 0.298581
0.692044 0.431516 0.431516
0.691754 0.431226 0.562296
0.691468 0.430940 0.691468
0.691185 0.430657 0.819360
0.690904 0.430376 0.946189
0.690752 0.430224 1.000000
0.690088 0.560629 0.016345
0.689771 0.560312 0.159515
0.689469 0.560011 0.295711
0.689175 0.559716 0.428646
0.688885 0.559426 0.559426
0.688599 0.559140 0.688599
0.688315 0.558857 0.816490
0.688034 0.558576 0.943319
0.687882 0.558424 1.000000
0.687253 0.687253 0.013511
0.686936 0.686936 0.156681
0.686635 0.686635 0.292877
0.686340 0.686340 0.425812
0.686050 0.686050 0.556592
0.685764 0.685764 0.685764
0.685481 0.685481 0.813656
0.685200 0.685200 0.940485
0.685048 0.685048 1.000000
0.684447 0.812622 0.010704
0.684130 0.812305 0.153874
0.683828 0.812003 0.290070
0.683534 0.811709 0.423006
0.683244 0.811419 0.553786
0.682958 0.811133 0.682958
0.682675 0.810850 0.810850
0.682394 0.810569 0.937679
0.682242 0.810417 1.000000
0.681664 0.936949 0.007921
0.681347 0.936632 0.151091
0.681045 0.936330 0.287287
0.680751 0.936036 0.420223
0.680461 0.935746 0.551003
0.680175 0.935460 0.680175
0.679892 0.935177 0.808067
0.679611 0.934896 0.934896
0.679459 0.934744 1.000000
0.680156 1.000000 0.006413
0.679839 1.000000 0.149584
0.679538 1.000000 0.285779
0.679243 1.000000 0.418715
0.678953 1.000000 0.549495
0.678667 1.000000 0.678667
0.678384 1.000000 0.806559
0.678103 1.000000 0.933388
0.677951 1.000000 1.000000
0.829345 0.027427 0.027427
0.829028 0.027110 0.170597
0.828726 0.026808 0.306793
0.828432 0.026514 0.439729
0.828142 0.026224 0.570509
0.827856 0.025938 0.699681
0.827573 0.025655 0.827573
0.827292 0.025374 0.954402
0.827139 0.025222 1.000000
0.826204 0.167773 0.024286
0.825886 0.167456 0.167456
0.825585 0.167154 0.303652
0.825290 0.166860 0.436587
0.825001 0.166570 0.567367
0.824714 0.166284 0.696540
0.824431 0.166001 0.824431
0.824150 0.165720 0.951260
0.823998 0.165567 1.000000
0.823215 0.301282 0.021297
0.822898 0.300965 0.164467
0.822596 0.300663 0.300663
0.822302 0.300369 0.433599
0.822012 0.300079 0.564379
0.821726 0.299793 0.693551
0.821443 0.299510 0.821443
0.821162 0.299229 0.948272
0.821010 0.299076 1.000000
0.820298 0.431595 0.018380
0.819981 0.431278 0.161550
0.819679 0.430976 0.297746
0.819385 0.430682 0.430682
0.819095 0.430392 0.561462
0.818809 0.430106 0.690634
0.818526 0.429823 0.818526
0.818245 0.429542 0.945355
0.818093 0.429389 1.000000
0.817429 0.559795 0.015511
0.817111 0.559478 0.158681
0.816810 0.559176 0.294877
0.816515 0.558882 0.427812
0.816226 0.558592 0.558592
0.815939 0.558306 0.687764
0.815656 0.558023 0.815656
0.815375 0.557742 0.942485
0.815223 0.557590 1.000000
0.814594 0.686419 0.012676
0.814277 0.686102 0.155846
0.813975 0.685800 0.292042
0.813681 0.685506 0.424978
0.813391 0.685216 0.555758
0.813105 0.684930 0.684930
0.812822 0.684647 0.812822
0.812541 0.684366 0.939651
0.812389 0.684214 1.000000
0.811788 0.811788 0.009870
0.811471 0.811471 0.153040
0.811169 0.811169 0.289236
0.810875 0.810875 0.422171
0.810585 0.810585 0.552952
0.810299 0.810299 0.682124
0.810016 0.810016 0.810016
0.809735 0.809735 0.936845
0.809582 0.809582 1.000000
0.809005 0.936115 0.007087
0.808688 0.935798 0.150257
0.808386 0.935496 0.286453
0.808092 0.935202 0.419389
0.807802 0.934912 0.550169
0.807516 0.934626 0.679341
0.807233 0.934343 0.807233
0.806952 0.934062 0.934062
0.806799 0.933909 1.000000
0.807497 1.000000 0.005579
0.807180 1.000000 0.148749
0.806878 1.000000 0.284945
0.806584 1.000000 0.417881
0.806294 1.000000 0.548661
0.806008 1.000000 0.677833
0.805725 1.000000 0.805725
0.805444 1.000000 0.932554
0.805292 1.000000 1.000000
0.955628 0.026600 0.026600
0.955311 0.026283 0.169770
0.955009 0.025981 0.305966
0.954715 0.025687 0.438901
0.954425 0.025397 0.569682
0.954139 0.025111 0.698854
0.953855 0.024828 0.826745
0.953574 0.024547 0.953574
0.953422 0.024394 1.000000
0.952486 0.166946 0.023458
0.952169 0.166629 0.166629
0.951868 0.166327 0.302824
0.951573 0.166032 0.435760
0.951283 0.165743 0.566540
0.950997 0.165457 0.695712
0.950714 0.165173 0.823604
0.950433 0.164892 0.950433
0.950281 0.164740 1.000000
0.949498 0.300455 0.020470
0.949181 0.300138 0.163640
0.948879 0.299836 0.299836
0.948585 0.299542 0.432771
0.948295 0.299252 0.563552
0.948009 0.298966 0.692724
0.947725 0.298682 0.820615
0.947445 0.298401 0.947445
0.947292 0.298249 1.000000
0.946581 0.430768 0.017553
0.946264 0.430451 0.160723
0.945962 0.430149 0.296919
0.945668 0.429854 0.429854
0.945378 0.429565 0.560635
0.945092 0.429279 0.689807
0.944809 0.428995 0.817699
0.944528 0.428714 0.944528
0.944375 0.428562 1.000000
0.943711 0.558968 0.014683
0.943394 0.558651 0.157854
0.943093 0.558349 0.294049
0.942798 0.558055 0.426985
0.942508 0.557765 0.557765
0.942222 0.557479 0.686937
0.941939 0.557196 0.814829
0.941658 0.556915 0.941658
0.941506 0.556762 1.000000
0.940877 0.685592 0.011849
0.940560 0.685275 0.155019
0.940258 0.684973 0.291215
0.939964 0.684679 0.424150
0.939674 0.684389 0.554931
0.939388 0.684103 0.684103
0.939105 0.683820 0.811995
0.938824 0.683539 0.938824
0.938671 0.683386 1.000000
0.938071 0.810961 0.009043
0.937754 0.810644 0.152213
0.937452 0.810342 0.288409
0.937157 0.810047 0.421344
0.936868 0.809758 0.552124
0.936582 0.809472 0.681297
0.936298 0.809188 0.809188
0.936017 0.808907 0.936017
0.935865 0.808755 1.000000
0.935288 0.935288 0.006260
0.934971 0.934971 0.149430
0.934669 0.934669 0.285626
0.934375 0.934375 0.418561
0.934085 0.934085 0.549342
0.933799 0.933799 0.678514
0.933515 0.933515 0.806405
0.933234 0.933234 0.933234
0.933082 0.933082 1.000000
0.933780 1.000000 0.004752
0.933463 1.000000 0.147922
0.933161 1.000000 0.284118
0.932867 1.000000 0.417053
0.932577 1.000000 0.547834
0.932291 1.000000 0.677006
0.932007 1.000000 0.804897
0.931727 1.000000 0.931727
0.931574 1.000000 1.000000
1.000000 0.026152 0.026152
1.000000 0.025835 0.169322
1.000000 0.025533 0.305518
1.000000 0.025238 0.438453
1.000000 0.024949 0.569233
1.000000 0.024663 0.698406
1.000000 0.024379 0.826297
1.000000 0.024098 0.953126
1.000000 0.023946 1.000000
1.000000 0.166497 0.023010
1.000000 0.166180 0.166180
1.000000 0.165879 0.302376
1.000000 0.165584 0.435312
1.000000 0.165294 0.566092
1.000000 0.165008 0.695264
1.000000 0.164725 0.823156
1.000000 0.164444 0.949985
1.000000 0.164292 1.000000
1.000000 0.300007 0.020022
1.000000 0.299689 0.163192
1.000000 0.299388 0.299388
1.000000 0.299093 0.432323
1.000000 0.298804 0.563103
1.000000 0.298517 0.692276
1.000000 0.298234 0.820167
1.000000 0.297953 0.946996
1.000000 0.297801 1.000000
1.000000 0.430320 0.017105
1.000000 0.430002 0.160275
1.000000 0.429701 0.296471
1.000000 0.429406 0.429406
1.000000 0.429117 0.560186
1.000000 0.428830 0.689359
1.000000 0.428547 0.817250
1.000000 0.428266 0.944079
1.000000 0.428114 1.000000
1.000000 0.558520 0.014235
1.000000 0.558203 0.157405
1.000000 0.557901 0.293601
1.000000 0.557607 0.426537
1.000000 0.557317 0.557317
1.000000 0.557031 0.686489
1.000000 0.556747 0.814381
1.000000 0.556466 0.941210
1.000000 0.556314 1.000000
1.000000 0.685144 0.011401
1.000000 0.684827 0.154571
1.000000 0.684525 0.290767
1.000000 0.684230 0.423702
1.000000 0.683941 0.554482
1.000000 0.683655 0.683655
1.000000 0.683371 0.811546
1.000000 0.683090 0.938375
1.000000 0.682938 1.000000
1.000000 0.810512 0.008595
1.000000 0.810195 0.151765
1.000000 0.809894 0.287961
1.000000 0.809599 0.420896
1.000000 0.809309 0.551676
1.000000 0.809023 0.680848
1.000000 0.808740 0.808740
1.000000 0.808459 0.935569
1.000000 0.808307 1.000000
1.000000 0.934840 0.005812
1.000000 0.934522 0.148982
1.000000 0.934221 0.285178
1.000000 0.933926 0.418113
1.000000 0.933637 0.548893
1.000000 0.933350 0.678065
1.000000 0.933067 0.805957
1.000000 0.932786 0.932786
1.000000 0.932634 1.000000
1.000000 1.000000 0.004304
1.000000 1.000000 0.147474
1.000000 1.000000 0.283670
1.000000 1.000000 0.416605
1.000000 1.000000 0.547385
1.000000 1.000000 0.676558
1.000000 1.000000 0.804449
1.000000 1.000000 0.931278
1.000000 1.000000 1.000000
