skills/editops-orchestrator/assets/grade/luts/clean_bright_v01.cube
TITLE "clean_bright_v01"
LUT_3D_SIZE 5
DOMAIN_MIN 0.0 0.0 0.0
DOMAIN_MAX 1.0 1.0 1.0
0.010965 0.010965 0.010965
0.010965 0.010965 0.267100
0.010965 0.010965 0.516915
0.010965 0.010965 0.764183
0.010965 0.010965 1.000000
0.010965 0.267100 0.010965
0.010965 0.267100 0.267100
0.010965 0.267100 0.516915
0.010965 0.267100 0.764183
0.010965 0.267100 1.000000
0.010965 0.516915 0.010965
0.010965 0.516915 0.267100
0.010965 0.516915 0.516915
0.010965 0.516915 0.764183
0.010965 0.516915 1.000000
0.010965 0.764183 0.010965
0.010965 0.764183 0.267100
0.010965 0.764183 0.516915
0.010965 0.764183 0.764183
0.010965 0.764183 1.000000
0.010965 1.000000 0.010965
0.010965 1.000000 0.267100
0.010965 1.000000 0.516915
0.010965 1.000000 0.764183
0.010965 1.000000 1.000000
0.267100 0.010965 0.010965
0.267100 0.010965 0.267100
0.267100 0.010965 0.516915
0.267100 0.010965 0.764183
0.267100 0.010965 1.000000
0.267100 0.267100 0.010965
0.267100 0.267100 0.267100
0.267100 0.267100 0.516915
0.267100 0.267100 0.764183
0.267100 0.267100 1.000000
0.267100 0.516915 0.010965
0.267100 0.516915 0.267100
0.267100 0.516915 0.516915
0.267100 0.516915 0.764183
0.267100 0.516915 1.000000
0.267100 0.764183 0.010965
0.267100 0.764183 0.267100
0.267100 0.764183 0.516915
0.267100 0.764183 0.764183
0.267100 0.764183 1.000000
0.267100 1.000000 0.010965
0.267100 1.000000 0.267100
0.267100 1.000000 0.516915
0.267100 1.000000 0.764183
0.267100 1.000000 1.000000
0.516915 0.010965 0.010965
0.516915 0.010965 0.267100
0.516915 0.010965 0.516915
0.516915 0.010965 0.764183
0.516915 0.010965 1.000000
0.516915 0.267100 0.010965
0.516915 0.267100 0.267100
0.516915 0.267100 0.516915
0.516915 0.267100 0.764183
0.516915 0.267100 1.000000
0.516915 0.516915 0.010965
0.516915 0.516915 0.267100
0.516915 0.516915 0.516915
0.516915 0.516915 0.764183
0.516915 0.516915 1.000000
0.516915 0.764183 0.010965
0.516915 0.764183 0.267100
0.516915 0.764183 0.516915
0.516915 0.764183 0.764183
0.516915 0.764183 1.000000
0.516915 1.000000 0.010965
0.516915 1.000000 0.267100
0.516915 1.000000 0.516915
0.516915 1.000000 0.764183
0.516915 1.000000 1.000000
0.764183 0.010965 0.010965
0.764183 0.010965 0.267100
0.764183 0.010965 0.516915
0.764183 0.010965 0.764183
0.764183 0.010965 1.000000
0.764183 0.267100 0.010965
0.764183 0.267100 0.267100
0.764183 0.267100 0.516915
0.764183 0.267100 0.764183
0.764183 0.267100 1.000000
0.764183 0.516915 0.010965
0.764183 0.516915 0.267100
0.764183 0.516915 0.516915
0.764183 0.516915 0.764183
0.764183 0.516915 1.000000
0.764183 0.764183 0.010965
0.764183 0.764183 0.267100
0.764183 0.764183 0.516915
0.764183 0.764183 0.764183
0.764183 0.764183 1.000000
0.764183 1.000000 0.010965
0.764183 1.000000 0.267100
0.764183 1.000000 0.516915
0.764183 1.000000 0.764183
0.764183 1.000000 1.000000
1.000000 0.010965 0.010965
1.000000 0.010965 0.267100
1.000000 0.010965 0.516915
1.000000 0.010965 0.764183
1.000000 0.010965 1.000000
1.000000 0.267100 0.010965
1.000000 0.267100 0.267100
1.000000 0.267100 0.516915
1.000000 0.267100 0.764183
1.000000 0.267100 1.000000
1.000000 0.516915 0.010965
1.000000 0.516915 0.267100
1.000000 0.516915 0.516915
1.000000 0.516915 0.764183
1.000000 0.516915 1.000000
1.000000 0.764183 0.010965
1.000000 0.764183 0.267100
1.000000 0.764183 0.516915
1.000000 0.764183 0.764183
1.000000 0.764183 1.000000
1.000000 1.000000 0.010965
1.000000 1.000000 0.267100
1.000000 1.000000 0.516915
1.000000 1.000000 0.764183
1.000000 1.000000 1.000000
