skills/editops-orchestrator/assets/grade/luts/clean_bright_v14.cube
TITLE "clean_bright_v14"
LUT_3D_SIZE 5
DOMAIN_MIN 0.0 0.0 0.0
DOMAIN_MAX 1.0 1.0 1.0
0.034698 0.034698 0.034698
0.034025 0.034025 0.315917
0.033391 0.033391 0.580736
0.032773 0.032773 0.838559
0.032313 0.032313 1.000000
0.028029 0.309921 0.028029
0.027356 0.309248 0.309248
0.026722 0.308614 0.574067
0.026104 0.307997 0.831890
0.025644 0.307537 1.000000
0.021749 0.569094 0.021749
0.021075 0.568421 0.302968
0.020441 0.567787 0.567787
0.019824 0.567170 0.825610
0.019364 0.566710 1.000000
0.015635 0.821420 0.015635
0.014961 0.820747 0.296854
0.014327 0.820113 0.561673
0.013710 0.819495 0.819495
0.013250 0.819036 1.000000
0.011079 1.000000 0.011079
0.010406 1.000000 0.292299
0.009772 1.000000 0.557118
0.009155 1.000000 0.814940
0.008695 1.000000 1.000000
0.314608 0.032715 0.032715
0.313935 0.032042 0.313935
0.313301 0.031408 0.578754
0.312684 0.030791 0.836576
0.312224 0.030331 1.000000
0.307939 0.307939 0.026046
0.307266 0.307266 0.307266
0.306632 0.306632 0.572085
0.306015 0.306015 0.829907
0.305555 0.305555 1.000000
0.301659 0.567112 0.019766
0.300986 0.566438 0.300986
0.300352 0.565805 0.565805
0.299734 0.565187 0.823627
0.299275 0.564727 1.000000
0.295545 0.819437 0.013652
0.294871 0.818764 0.294871
0.294238 0.818130 0.559690
0.293620 0.817513 0.817513
0.293160 0.817053 1.000000
0.290990 1.000000 0.009097
0.290316 1.000000 0.290316
0.289682 1.000000 0.555135
0.289065 1.000000 0.812958
0.288605 1.000000 1.000000
0.578194 0.030849 0.030849
0.577521 0.030175 0.312068
0.576887 0.029541 0.576887
0.576270 0.028924 0.834709
0.575810 0.028464 1.000000
0.571525 0.306072 0.024180
0.570852 0.305399 0.305399
0.570218 0.304765 0.570218
0.569601 0.304148 0.828040
0.569141 0.303688 1.000000
0.565245 0.565245 0.017899
0.564572 0.564572 0.299119
0.563938 0.563938 0.563938
0.563320 0.563320 0.821760
0.562861 0.562861 1.000000
0.559131 0.817571 0.011785
0.558458 0.816897 0.293005
0.557824 0.816263 0.557824
0.557206 0.815646 0.815646
0.556746 0.815186 1.000000
0.554576 1.000000 0.007230
0.553902 1.000000 0.288450
0.553268 1.000000 0.553268
0.552651 1.000000 0.811091
0.552191 1.000000 1.000000
0.834816 0.029031 0.029031
0.834143 0.028358 0.310250
0.833509 0.027724 0.575069
0.832892 0.027107 0.832892
0.832432 0.026647 1.000000
0.828147 0.304255 0.022362
0.827474 0.303581 0.303581
0.826840 0.302947 0.568400
0.826223 0.302330 0.826223
0.825763 0.301870 1.000000
0.821867 0.563427 0.016082
0.821194 0.562754 0.297301
0.820560 0.562120 0.562120
0.819943 0.561503 0.819943
0.819483 0.561043 1.000000
0.815753 0.815753 0.009968
0.815080 0.815080 0.291187
0.814446 0.814446 0.556006
0.813829 0.813829 0.813829
0.813369 0.813369 1.000000
0.811198 1.000000 0.005413
0.810525 1.000000 0.286632
0.809891 1.000000 0.551451
0.809273 1.000000 0.809273
0.808814 1.000000 1.000000
1.000000 0.027677 0.027677
1.000000 0.027004 0.308896
1.000000 0.026370 0.573715
1.000000 0.025753 0.831538
1.000000 0.025293 1.000000
1.000000 0.302901 0.021008
1.000000 0.302227 0.302227
1.000000 0.301593 0.567046
1.000000 0.300976 0.824869
1.000000 0.300516 1.000000
1.000000 0.562073 0.014728
1.000000 0.561400 0.295947
1.000000 0.560766 0.560766
1.000000 0.560149 0.818589
1.000000 0.559689 1.000000
1.000000 0.814399 0.008614
1.000000 0.813726 0.289833
1.000000 0.813092 0.554652
1.000000 0.812475 0.812475
1.000000 0.812015 1.000000
1.000000 1.000000 0.004059
1.000000 1.000000 0.285278
1.000000 1.000000 0.550097
1.000000 1.000000 0.807919
1.000000 1.000000 1.000000
