skills/editops-orchestrator/assets/grade/luts/clean_bright_v18.cube
TITLE "clean_bright_v18"
LUT_3D_SIZE 5
DOMAIN_MIN 0.0 0.0 0.0
DOMAIN_MAX 1.0 1.0 1.0
0.043271 0.043271 0.043271
0.042376 0.042376 0.331771
0.041541 0.041541 0.600909
0.040733 0.040733 0.861674
0.040180 0.040180 1.000000
0.034408 0.323802 0.034408
0.033513 0.322908 0.322908
0.032678 0.322073 0.592047
0.031870 0.321264 0.852811
0.031317 0.320712 1.000000
0.026140 0.585508 0.026140
0.025245 0.584613 0.314640
0.024410 0.583778 0.583778
0.023601 0.582970 0.844543
0.023049 0.582418 1.000000
0.018129 0.839070 0.018129
0.017234 0.838175 0.306629
0.016399 0.837340 0.575768
0.015591 0.836532 0.836532
0.015039 0.835980 1.000000
0.012659 1.000000 0.012659
0.011765 1.000000 0.301159
0.010930 1.000000 0.570298
0.010121 1.000000 0.831062
0.009569 1.000000 1.000000
0.330031 0.040636 0.040636
0.329136 0.039741 0.329136
0.328301 0.038907 0.598275
0.327493 0.038098 0.859039
0.326941 0.037546 1.000000
0.321168 0.321168 0.031773
0.320273 0.320273 0.320273
0.319438 0.319438 0.589412
0.318630 0.318630 0.850176
0.318078 0.318078 1.000000
0.312900 0.582873 0.023505
0.312005 0.581979 0.312005
0.311170 0.581144 0.581144
0.310362 0.580335 0.841908
0.309809 0.579783 1.000000
0.304889 0.836435 0.015494
0.303994 0.835541 0.303994
0.303159 0.834706 0.573133
0.302351 0.833897 0.833897
0.301799 0.833345 1.000000
0.299419 1.000000 0.010025
0.298525 1.000000 0.298525
0.297690 1.000000 0.567664
0.296881 1.000000 0.828428
0.296329 1.000000 1.000000
0.597547 0.038178 0.038178
0.596652 0.037284 0.326678
0.595817 0.036449 0.595817
0.595008 0.035640 0.856581
0.594456 0.035088 1.000000
0.588684 0.318710 0.029315
0.587789 0.317815 0.317815
0.586954 0.316981 0.586954
0.586146 0.316172 0.847718
0.585593 0.315620 1.000000
0.580415 0.580415 0.021047
0.579521 0.579521 0.309547
0.578686 0.578686 0.578686
0.577877 0.577877 0.839450
0.577325 0.577325 1.000000
0.572405 0.833977 0.013036
0.571510 0.833083 0.301536
0.570675 0.832248 0.570675
0.569867 0.831439 0.831439
0.569314 0.830887 1.000000
0.566935 1.000000 0.007567
0.566040 1.000000 0.296067
0.565206 1.000000 0.565206
0.564397 1.000000 0.825970
0.563845 1.000000 1.000000
0.856738 0.035797 0.035797
0.855843 0.034902 0.324297
0.855009 0.034068 0.593436
0.854200 0.033259 0.854200
0.853648 0.032707 1.000000
0.847875 0.316329 0.026934
0.846980 0.315434 0.315434
0.846146 0.314599 0.584573
0.845337 0.313791 0.845337
0.844785 0.313239 1.000000
0.839607 0.578034 0.018666
0.838712 0.577139 0.307166
0.837878 0.576305 0.576305
0.837069 0.575496 0.837069
0.836517 0.574944 1.000000
0.831596 0.831596 0.010655
0.830701 0.830701 0.299155
0.829867 0.829867 0.568294
0.829058 0.829058 0.829058
0.828506 0.828506 1.000000
0.826127 1.000000 0.005186
0.825232 1.000000 0.293686
0.824397 1.000000 0.562825
0.823589 1.000000 0.823589
0.823037 1.000000 1.000000
1.000000 0.034171 0.034171
1.000000 0.033276 0.322671
1.000000 0.032442 0.591810
1.000000 0.031633 0.852574
1.000000 0.031081 1.000000
1.000000 0.314703 0.025308
1.000000 0.313808 0.313808
1.000000 0.312974 0.582947
1.000000 0.312165 0.843711
1.000000 0.311613 1.000000
1.000000 0.576408 0.017040
1.000000 0.575514 0.305540
1.000000 0.574679 0.574679
1.000000 0.573870 0.835443
1.000000 0.573318 1.000000
1.000000 0.829970 0.009029
1.000000 0.829076 0.297529
1.000000 0.828241 0.566668
1.000000 0.827432 0.827432
1.000000 0.826880 1.000000
1.000000 1.000000 0.003560
1.000000 1.000000 0.292060
1.000000 1.000000 0.561199
1.000000 1.000000 0.821963
1.000000 1.000000 1.000000
