skills/editops-orchestrator/assets/grade/luts/clean_bright_v14.cube
TITLE "clean_bright_v14"
LUT_3D_SIZE 9
DOMAIN_MIN 0.0 0.0 0.0
DOMAIN_MAX 1.0 1.0 1.0
0.034698 0.034698 0.034698
0.034352 0.034352 0.178949
0.034025 0.034025 0.315917
0.033705 0.033705 0.449460
0.033391 0.033391 0.580736
0.033080 0.033080 0.710321
0.032773 0.032773 0.838559
0.032469 0.032469 0.965679
0.032313 0.032313 1.000000
0.031277 0.175873 0.031277
0.030932 0.175528 0.175528
0.030604 0.175200 0.312496
0.030284 0.174880 0.446039
0.029970 0.174566 0.577315
0.029659 0.174256 0.706900
0.029352 0.173949 0.835138
0.029048 0.173644 0.962258
0.028893 0.173489 1.000000
0.028029 0.309921 0.028029
0.027683 0.309576 0.172280
0.027356 0.309248 0.309248
0.027036 0.308928 0.442791
0.026722 0.308614 0.574067
0.026411 0.308304 0.703652
0.026104 0.307997 0.831890
0.025800 0.307693 0.959010
0.025644 0.307537 1.000000
0.024862 0.440617 0.024862
0.024517 0.440272 0.169113
0.024189 0.439944 0.306081
0.023869 0.439624 0.439624
0.023555 0.439310 0.570900
0.023244 0.438999 0.700485
0.022937 0.438692 0.828723
0.022633 0.438388 0.955843
0.022478 0.438233 1.000000
0.021749 0.569094 0.021749
0.021403 0.568749 0.166000
0.021075 0.568421 0.302968
0.020756 0.568101 0.436511
0.020441 0.567787 0.567787
0.020131 0.567477 0.697372
0.019824 0.567170 0.825610
0.019520 0.566865 0.952730
0.019364 0.566710 1.000000
0.018676 0.695916 0.018676
0.018330 0.695571 0.162927
0.018002 0.695243 0.299895
0.017683 0.694923 0.433438
0.017368 0.694609 0.564714
0.017058 0.694299 0.694299
0.016751 0.693992 0.822536
0.016447 0.693687 0.949657
0.016291 0.693532 1.000000
0.015635 0.821420 0.015635
0.015289 0.821074 0.159885
0.014961 0.820747 0.296854
0.014642 0.820427 0.430397
0.014327 0.820113 0.561673
0.014017 0.819802 0.691258
0.013710 0.819495 0.819495
0.013406 0.819191 0.946616
0.013250 0.819036 1.000000
0.012620 0.945830 0.012620
0.012275 0.945485 0.156871
0.011947 0.945157 0.293839
0.011627 0.944837 0.427382
0.011313 0.944523 0.558658
0.011002 0.944212 0.688243
0.010695 0.943905 0.816481
0.010391 0.943601 0.943601
0.010236 0.943446 1.000000
0.011079 1.000000 0.011079
0.010734 1.000000 0.155330
0.010406 1.000000 0.292299
0.010086 1.000000 0.425841
0.009772 1.000000 0.557118
0.009462 1.000000 0.686702
0.009155 1.000000 0.814940
0.008851 1.000000 0.942061
0.008695 1.000000 1.000000
0.178277 0.033681 0.033681
0.177932 0.033336 0.177932
0.177604 0.033008 0.314900
0.177284 0.032688 0.448443
0.176970 0.032374 0.579719
0.176660 0.032063 0.709304
0.176353 0.031756 0.837542
0.176048 0.031452 0.964662
0.175893 0.031297 1.000000
0.174856 0.174856 0.030260
0.174511 0.174511 0.174511
0.174183 0.174183 0.311479
0.173863 0.173863 0.445022
0.173549 0.173549 0.576298
0.173239 0.173239 0.705883
0.172932 0.172932 0.834121
0.172628 0.172628 0.961241
0.172472 0.172472 1.000000
0.171608 0.308905 0.027012
0.171263 0.308559 0.171263
0.170935 0.308231 0.308231
0.170615 0.307912 0.441774
0.170301 0.307597 0.573050
0.169991 0.307287 0.702635
0.169684 0.306980 0.830873
0.169379 0.306676 0.957993
0.169224 0.306520 1.000000
0.168441 0.439600 0.023845
0.168096 0.439255 0.168096
0.167768 0.438927 0.305064
0.167448 0.438607 0.438607
0.167134 0.438293 0.569883
0.166824 0.437983 0.699468
0.166517 0.437676 0.827706
0.166212 0.437371 0.954826
0.166057 0.437216 1.000000
0.165328 0.568077 0.020732
0.164983 0.567732 0.164983
0.164655 0.567404 0.301951
0.164335 0.567084 0.435494
0.164021 0.566770 0.566770
0.163711 0.566460 0.696355
0.163404 0.566153 0.824593
0.163099 0.565848 0.951713
0.162944 0.565693 1.000000
0.162255 0.694899 0.017659
0.161910 0.694554 0.161910
0.161582 0.694226 0.298878
0.161262 0.693906 0.432421
0.160948 0.693592 0.563697
0.160638 0.693282 0.693282
0.160331 0.692975 0.821520
0.160026 0.692670 0.948640
0.159871 0.692515 1.000000
0.159214 0.820403 0.014618
0.158869 0.820058 0.158869
0.158541 0.819730 0.295837
0.158221 0.819410 0.429380
0.157907 0.819096 0.560656
0.157596 0.818785 0.690241
0.157289 0.818478 0.818478
0.156985 0.818174 0.945599
0.156830 0.818019 1.000000
0.156199 0.944813 0.011603
0.155854 0.944468 0.155854
0.155526 0.944140 0.292822
0.155206 0.943820 0.426365
0.154892 0.943506 0.557641
0.154582 0.943196 0.687226
0.154275 0.942889 0.815464
0.153971 0.942584 0.942584
0.153815 0.942429 1.000000
0.154659 1.000000 0.010062
0.154313 1.000000 0.154313
0.153986 1.000000 0.291282
0.153666 1.000000 0.424825
0.153352 1.000000 0.556101
0.153041 1.000000 0.685686
0.152734 1.000000 0.813923
0.152430 1.000000 0.941044
0.152274 1.000000 1.000000
0.314608 0.032715 0.032715
0.314263 0.032370 0.176966
0.313935 0.032042 0.313935
0.313615 0.031722 0.447477
0.313301 0.031408 0.578754
0.312991 0.031098 0.708338
0.312684 0.030791 0.836576
0.312379 0.030487 0.963697
0.312224 0.030331 1.000000
0.311187 0.173891 0.029294
0.310842 0.173545 0.173545
0.310514 0.173218 0.310514
0.310194 0.172898 0.444057
0.309880 0.172584 0.575333
0.309570 0.172273 0.704918
0.309263 0.171966 0.833155
0.308958 0.171662 0.960276
0.308803 0.171506 1.000000
0.307939 0.307939 0.026046
0.307594 0.307594 0.170297
0.307266 0.307266 0.307266
0.306946 0.306946 0.440808
0.306632 0.306632 0.572085
0.306322 0.306322 0.701669
0.306015 0.306015 0.829907
0.305710 0.305710 0.957028
0.305555 0.305555 1.000000
0.304772 0.438634 0.022879
0.304427 0.438289 0.167130
0.304099 0.437961 0.304099
0.303779 0.437641 0.437641
0.303465 0.437327 0.568918
0.303155 0.437017 0.698502
0.302848 0.436710 0.826740
0.302543 0.436406 0.953861
0.302388 0.436250 1.000000
0.301659 0.567112 0.019766
0.301314 0.566766 0.164017
0.300986 0.566438 0.300986
0.300666 0.566119 0.434528
0.300352 0.565805 0.565805
0.300041 0.565494 0.695389
0.299734 0.565187 0.823627
0.299430 0.564883 0.950747
0.299275 0.564727 1.000000
0.298586 0.693934 0.016693
0.298241 0.693588 0.160944
0.297913 0.693260 0.297913
0.297593 0.692941 0.431455
0.297279 0.692626 0.562731
0.296968 0.692316 0.692316
0.296661 0.692009 0.820554
0.296357 0.691705 0.947674
0.296202 0.691549 1.000000
0.295545 0.819437 0.013652
0.295199 0.819092 0.157903
0.294871 0.818764 0.294871
0.294552 0.818444 0.428414
0.294238 0.818130 0.559690
0.293927 0.817820 0.689275
0.293620 0.817513 0.817513
0.293316 0.817209 0.944633
0.293160 0.817053 1.000000
0.292530 0.943847 0.010637
0.292185 0.943502 0.154888
0.291857 0.943174 0.291857
0.291537 0.942854 0.425400
0.291223 0.942540 0.556676
0.290913 0.942230 0.686260
0.290606 0.941923 0.814498
0.290301 0.941619 0.941619
0.290146 0.941463 1.000000
0.290990 1.000000 0.009097
0.290644 1.000000 0.153348
0.290316 1.000000 0.290316
0.289997 1.000000 0.423859
0.289682 1.000000 0.555135
0.289372 1.000000 0.684720
0.289065 1.000000 0.812958
0.288761 1.000000 0.940078
0.288605 1.000000 1.000000
0.447529 0.031774 0.031774
0.447184 0.031429 0.176025
0.446856 0.031101 0.312993
0.446536 0.030781 0.446536
0.446222 0.030467 0.577812
0.445912 0.030157 0.707397
0.445605 0.029850 0.835635
0.445300 0.029545 0.962755
0.445145 0.029390 1.000000
0.444108 0.172949 0.028353
0.443763 0.172604 0.172604
0.443435 0.172276 0.309573
0.443115 0.171956 0.443115
0.442801 0.171642 0.574391
0.442491 0.171332 0.703976
0.442184 0.171025 0.832214
0.441879 0.170721 0.959334
0.441724 0.170565 1.000000
0.440860 0.306998 0.025105
0.440515 0.306652 0.169356
0.440187 0.306324 0.306324
0.439867 0.306005 0.439867
0.439553 0.305690 0.571143
0.439243 0.305380 0.700728
0.438936 0.305073 0.828966
0.438631 0.304769 0.956086
0.438476 0.304613 1.000000
0.437693 0.437693 0.021938
0.437348 0.437348 0.166189
0.437020 0.437020 0.303157
0.436700 0.436700 0.436700
0.436386 0.436386 0.567976
0.436076 0.436076 0.697561
0.435769 0.435769 0.825799
0.435464 0.435464 0.952919
0.435309 0.435309 1.000000
0.434580 0.566170 0.018825
0.434235 0.565825 0.163076
0.433907 0.565497 0.300044
0.433587 0.565177 0.433587
0.433273 0.564863 0.564863
0.432962 0.564553 0.694448
0.432655 0.564246 0.822686
0.432351 0.563942 0.949806
0.432196 0.563786 1.000000
0.431507 0.692992 0.015752
0.431161 0.692647 0.160003
0.430834 0.692319 0.296971
0.430514 0.691999 0.430514
0.430200 0.691685 0.561790
0.429889 0.691375 0.691375
0.429582 0.691068 0.819613
0.429278 0.690763 0.946733
0.429123 0.690608 1.000000
0.428466 0.818496 0.012711
0.428120 0.818151 0.156962
0.427792 0.817823 0.293930
0.427473 0.817503 0.427473
0.427158 0.817189 0.558749
0.426848 0.816879 0.688334
0.426541 0.816572 0.816572
0.426237 0.816267 0.943692
0.426081 0.816112 1.000000
0.425451 0.942906 0.009696
0.425106 0.942561 0.153947
0.424778 0.942233 0.290915
0.424458 0.941913 0.424458
0.424144 0.941599 0.555734
0.423834 0.941289 0.685319
0.423527 0.940982 0.813557
0.423222 0.940677 0.940677
0.423067 0.940522 1.000000
0.423911 1.000000 0.008156
0.423565 1.000000 0.152406
0.423237 1.000000 0.289375
0.422918 1.000000 0.422918
0.422603 1.000000 0.554194
0.422293 1.000000 0.683779
0.421986 1.000000 0.812016
0.421682 1.000000 0.939137
0.421526 1.000000 1.000000
0.578194 0.030849 0.030849
0.577849 0.030503 0.175099
0.577521 0.030175 0.312068
0.577201 0.029856 0.445611
0.576887 0.029541 0.576887
0.576577 0.029231 0.706472
0.576270 0.028924 0.834709
0.575965 0.028620 0.961830
0.575810 0.028464 1.000000
0.574773 0.172024 0.027428
0.574428 0.171679 0.171679
0.574100 0.171351 0.308647
0.573780 0.171031 0.442190
0.573466 0.170717 0.573466
0.573156 0.170407 0.703051
0.572849 0.170100 0.831289
0.572544 0.169795 0.958409
0.572389 0.169640 1.000000
0.571525 0.306072 0.024180
0.571180 0.305727 0.168430
0.570852 0.305399 0.305399
0.570532 0.305079 0.438942
0.570218 0.304765 0.570218
0.569908 0.304455 0.699803
0.569601 0.304148 0.828040
0.569296 0.303843 0.955161
0.569141 0.303688 1.000000
0.568358 0.436768 0.021013
0.568013 0.436422 0.165264
0.567685 0.436094 0.302232
0.567365 0.435775 0.435775
0.567051 0.435460 0.567051
0.566741 0.435150 0.696636
0.566434 0.434843 0.824873
0.566129 0.434539 0.951994
0.565974 0.434383 1.000000
0.565245 0.565245 0.017899
0.564900 0.564900 0.162150
0.564572 0.564572 0.299119
0.564252 0.564252 0.432662
0.563938 0.563938 0.563938
0.563627 0.563627 0.693522
0.563320 0.563320 0.821760
0.563016 0.563016 0.948881
0.562861 0.562861 1.000000
0.562172 0.692067 0.014826
0.561827 0.691722 0.159077
0.561499 0.691394 0.296046
0.561179 0.691074 0.429588
0.560865 0.690760 0.560865
0.560554 0.690449 0.690449
0.560247 0.690142 0.818687
0.559943 0.689838 0.945808
0.559788 0.689683 1.000000
0.559131 0.817571 0.011785
0.558785 0.817225 0.156036
0.558458 0.816897 0.293005
0.558138 0.816578 0.426547
0.557824 0.816263 0.557824
0.557513 0.815953 0.687408
0.557206 0.815646 0.815646
0.556902 0.815342 0.942766
0.556746 0.815186 1.000000
0.556116 0.941981 0.008771
0.555771 0.941635 0.153022
0.555443 0.941307 0.289990
0.555123 0.940988 0.423533
0.554809 0.940673 0.554809
0.554499 0.940363 0.684394
0.554192 0.940056 0.812631
0.553887 0.939752 0.939752
0.553732 0.939596 1.000000
0.554576 1.000000 0.007230
0.554230 1.000000 0.151481
0.553902 1.000000 0.288450
0.553583 1.000000 0.421992
0.553268 1.000000 0.553268
0.552958 1.000000 0.682853
0.552651 1.000000 0.811091
0.552347 1.000000 0.938211
0.552191 1.000000 1.000000
0.707176 0.029935 0.029935
0.706830 0.029590 0.174186
0.706502 0.029262 0.311154
0.706183 0.028942 0.444697
0.705868 0.028628 0.575973
0.705558 0.028318 0.705558
0.705251 0.028011 0.833796
0.704947 0.027706 0.960916
0.704791 0.027551 1.000000
0.703755 0.171110 0.026514
0.703409 0.170765 0.170765
0.703081 0.170437 0.307734
0.702762 0.170118 0.441276
0.702447 0.169803 0.572552
0.702137 0.169493 0.702137
0.701830 0.169186 0.830375
0.701526 0.168882 0.957495
0.701370 0.168726 1.000000
0.700506 0.305159 0.023266
0.700161 0.304813 0.167517
0.699833 0.304485 0.304485
0.699514 0.304166 0.438028
0.699199 0.303851 0.569304
0.698889 0.303541 0.698889
0.698582 0.303234 0.827127
0.698278 0.302930 0.954247
0.698122 0.302774 1.000000
0.697340 0.435854 0.020099
0.696994 0.435509 0.164350
0.696666 0.435181 0.301319
0.696347 0.434861 0.434861
0.696032 0.434547 0.566137
0.695722 0.434237 0.695722
0.695415 0.433930 0.823960
0.695111 0.433625 0.951080
0.694955 0.433470 1.000000
0.694226 0.564331 0.016986
0.693881 0.563986 0.161237
0.693553 0.563658 0.298205
0.693233 0.563338 0.431748
0.692919 0.563024 0.563024
0.692609 0.562714 0.692609
0.692302 0.562407 0.820847
0.691998 0.562103 0.947967
0.691842 0.561947 1.000000
0.691153 0.691153 0.013913
0.690808 0.690808 0.158164
0.690480 0.690480 0.295132
0.690160 0.690160 0.428675
0.689846 0.689846 0.559951
0.689536 0.689536 0.689536
0.689229 0.689229 0.817774
0.688925 0.688925 0.944894
0.688769 0.688769 1.000000
0.688112 0.816657 0.010872
0.687767 0.816312 0.155123
0.687439 0.815984 0.292091
0.687119 0.815664 0.425634
0.686805 0.815350 0.556910
0.686495 0.815040 0.686495
0.686188 0.814733 0.814733
0.685883 0.814428 0.941853
0.685728 0.814273 1.000000
0.685098 0.941067 0.007857
0.684752 0.940722 0.152108
0.684424 0.940394 0.289077
0.684105 0.940074 0.422619
0.683790 0.939760 0.553895
0.683480 0.939450 0.683480
0.683173 0.939143 0.811718
0.682869 0.938838 0.938838
0.682713 0.938683 1.000000
0.683557 1.000000 0.006317
0.683212 1.000000 0.150568
0.682884 1.000000 0.287536
0.682564 1.000000 0.421079
0.682250 1.000000 0.552355
0.681940 1.000000 0.681940
0.681633 1.000000 0.810177
0.681328 1.000000 0.937298
0.681173 1.000000 1.000000
0.834816 0.029031 0.029031
0.834471 0.028686 0.173282
0.834143 0.028358 0.310250
0.833823 0.028038 0.443793
0.833509 0.027724 0.575069
0.833199 0.027414 0.704654
0.832892 0.027107 0.832892
0.832588 0.026802 0.960012
0.832432 0.026647 1.000000
0.831395 0.170206 0.025610
0.831050 0.169861 0.169861
0.830722 0.169533 0.306830
0.830403 0.169214 0.440372
0.830088 0.168899 0.571648
0.829778 0.168589 0.701233
0.829471 0.168282 0.829471
0.829167 0.167978 0.956591
0.829011 0.167822 1.000000
0.828147 0.304255 0.022362
0.827802 0.303909 0.166613
0.827474 0.303581 0.303581
0.827154 0.303262 0.437124
0.826840 0.302947 0.568400
0.826530 0.302637 0.697985
0.826223 0.302330 0.826223
0.825919 0.302026 0.953343
0.825763 0.301870 1.000000
0.824980 0.434950 0.019195
0.824635 0.434605 0.163446
0.824307 0.434277 0.300415
0.823987 0.433957 0.433957
0.823673 0.433643 0.565233
0.823363 0.433333 0.694818
0.823056 0.433026 0.823056
0.822752 0.432721 0.950176
0.822596 0.432566 1.000000
0.821867 0.563427 0.016082
0.821522 0.563082 0.160333
0.821194 0.562754 0.297301
0.820874 0.562434 0.430844
0.820560 0.562120 0.562120
0.820250 0.561810 0.691705
0.819943 0.561503 0.819943
0.819638 0.561199 0.947063
0.819483 0.561043 1.000000
0.818794 0.690249 0.013009
0.818449 0.689904 0.157260
0.818121 0.689576 0.294228
0.817801 0.689256 0.427771
0.817487 0.688942 0.559047
0.817177 0.688632 0.688632
0.816870 0.688325 0.816870
0.816565 0.688021 0.943990
0.816410 0.687865 1.000000
0.815753 0.815753 0.009968
0.815408 0.815408 0.154219
0.815080 0.815080 0.291187
0.814760 0.814760 0.424730
0.814446 0.814446 0.556006
0.814136 0.814136 0.685591
0.813829 0.813829 0.813829
0.813524 0.813524 0.940949
0.813369 0.813369 1.000000
0.812738 0.940163 0.006953
0.812393 0.939818 0.151204
0.812065 0.939490 0.288173
0.811746 0.939170 0.421715
0.811431 0.938856 0.552991
0.811121 0.938546 0.682576
0.810814 0.938239 0.810814
0.810510 0.937934 0.937934
0.810354 0.937779 1.000000
0.811198 1.000000 0.005413
0.810853 1.000000 0.149664
0.810525 1.000000 0.286632
0.810205 1.000000 0.420175
0.809891 1.000000 0.551451
0.809580 1.000000 0.681036
0.809273 1.000000 0.809273
0.808969 1.000000 0.936394
0.808814 1.000000 1.000000
0.961345 0.028135 0.028135
0.961000 0.027790 0.172386
0.960672 0.027462 0.309354
0.960352 0.027142 0.442897
0.960038 0.026828 0.574173
0.959727 0.026517 0.703758
0.959420 0.026210 0.831996
0.959116 0.025906 0.959116
0.958961 0.025751 1.000000
0.957924 0.169310 0.024714
0.957579 0.168965 0.168965
0.957251 0.168637 0.305933
0.956931 0.168317 0.439476
0.956617 0.168003 0.570752
0.956307 0.167693 0.700337
0.956000 0.167386 0.828575
0.955695 0.167082 0.955695
0.955540 0.166926 1.000000
0.954676 0.303359 0.021466
0.954331 0.303013 0.165717
0.954003 0.302685 0.302685
0.953683 0.302366 0.436228
0.953369 0.302051 0.567504
0.953058 0.301741 0.697089
0.952751 0.301434 0.825327
0.952447 0.301130 0.952447
0.952292 0.300974 1.000000
0.951509 0.434054 0.018299
0.951164 0.433709 0.162550
0.950836 0.433381 0.299518
0.950516 0.433061 0.433061
0.950202 0.432747 0.564337
0.949891 0.432437 0.693922
0.949584 0.432130 0.822160
0.949280 0.431825 0.949280
0.949125 0.431670 1.000000
0.948396 0.562531 0.015186
0.948050 0.562186 0.159437
0.947723 0.561858 0.296405
0.947403 0.561538 0.429948
0.947089 0.561224 0.561224
0.946778 0.560914 0.690809
0.946471 0.560607 0.819047
0.946167 0.560303 0.946167
0.946011 0.560147 1.000000
0.945323 0.689353 0.012113
0.944977 0.689008 0.156364
0.944649 0.688680 0.293332
0.944330 0.688360 0.426875
0.944015 0.688046 0.558151
0.943705 0.687736 0.687736
0.943398 0.687429 0.815974
0.943094 0.687124 0.943094
0.942938 0.686969 1.000000
0.942282 0.814857 0.009072
0.941936 0.814512 0.153323
0.941608 0.814184 0.290291
0.941289 0.813864 0.423834
0.940974 0.813550 0.555110
0.940664 0.813239 0.684695
0.940357 0.812932 0.812932
0.940053 0.812628 0.940053
0.939897 0.812473 1.000000
0.939267 0.939267 0.006057
0.938922 0.938922 0.150308
0.938594 0.938594 0.287276
0.938274 0.938274 0.420819
0.937960 0.937960 0.552095
0.937650 0.937650 0.681680
0.937343 0.937343 0.809918
0.937038 0.937038 0.937038
0.936883 0.936883 1.000000
0.937726 1.000000 0.004517
0.937381 1.000000 0.148767
0.937053 1.000000 0.285736
0.936734 1.000000 0.419279
0.936419 1.000000 0.550555
0.936109 1.000000 0.680140
0.935802 1.000000 0.808377
0.935498 1.000000 0.935498
0.935342 1.000000 1.000000
1.000000 0.027677 0.027677
1.000000 0.027332 0.171928
1.000000 0.027004 0.308896
1.000000 0.026684 0.442439
1.000000 0.026370 0.573715
1.000000 0.026060 0.703300
1.000000 0.025753 0.831538
1.000000 0.025448 0.958658
1.000000 0.025293 1.000000
1.000000 0.168852 0.024256
1.000000 0.168507 0.168507
1.000000 0.168179 0.305476
1.000000 0.167859 0.439018
1.000000 0.167545 0.570294
1.000000 0.167235 0.699879
1.000000 0.166928 0.828117
1.000000 0.166624 0.955237
1.000000 0.166468 1.000000
1.000000 0.302901 0.021008
1.000000 0.302555 0.165259
1.000000 0.302227 0.302227
1.000000 0.301908 0.435770
1.000000 0.301593 0.567046
1.000000 0.301283 0.696631
1.000000 0.300976 0.824869
1.000000 0.300672 0.951989
1.000000 0.300516 1.000000
1.000000 0.433596 0.017841
1.000000 0.433251 0.162092
1.000000 0.432923 0.299060
1.000000 0.432603 0.432603
1.000000 0.432289 0.563879
1.000000 0.431979 0.693464
1.000000 0.431672 0.821702
1.000000 0.431367 0.948822
1.000000 0.431212 1.000000
1.000000 0.562073 0.014728
1.000000 0.561728 0.158979
1.000000 0.561400 0.295947
1.000000 0.561080 0.429490
1.000000 0.560766 0.560766
1.000000 0.560456 0.690351
1.000000 0.560149 0.818589
1.000000 0.559845 0.945709
1.000000 0.559689 1.000000
1.000000 0.688895 0.011655
1.000000 0.688550 0.155906
1.000000 0.688222 0.292874
1.000000 0.687902 0.426417
1.000000 0.687588 0.557693
1.000000 0.687278 0.687278
1.000000 0.686971 0.815516
1.000000 0.686667 0.942636
1.000000 0.686511 1.000000
1.000000 0.814399 0.008614
1.000000 0.814054 0.152865
1.000000 0.813726 0.289833
1.000000 0.813406 0.423376
1.000000 0.813092 0.554652
1.000000 0.812782 0.684237
1.000000 0.812475 0.812475
1.000000 0.812170 0.939595
1.000000 0.812015 1.000000
1.000000 0.938809 0.005599
1.000000 0.938464 0.149850
1.000000 0.938136 0.286819
1.000000 0.937816 0.420361
1.000000 0.937502 0.551637
1.000000 0.937192 0.681222
1.000000 0.936885 0.809460
1.000000 0.936580 0.936580
1.000000 0.936425 1.000000
1.000000 1.000000 0.004059
1.000000 1.000000 0.148310
1.000000 1.000000 0.285278
1.000000 1.000000 0.418821
1.000000 1.000000 0.550097
1.000000 1.000000 0.679682
1.000000 1.000000 0.807919
1.000000 1.000000 0.935040
1.000000 1.000000 1.000000
