skills/editops-orchestrator/assets/grade/luts/clean_bright_v04.cube
TITLE "clean_bright_v04"
LUT_3D_SIZE 9
DOMAIN_MIN 0.0 0.0 0.0
DOMAIN_MAX 1.0 1.0 1.0
0.015867 0.015867 0.015867
0.015792 0.015792 0.148938
0.015719 0.015719 0.277979
0.015647 0.015647 0.405256
0.015576 0.015576 0.531376
0.015505 0.015505 0.656636
0.015434 0.015434 0.781209
0.015364 0.015364 0.905212
0.015306 0.015306 1.000000
0.015122 0.148267 0.015122
0.015046 0.148192 0.148192
0.014973 0.148119 0.277233
0.014901 0.148047 0.404510
0.014830 0.147975 0.530631
0.014759 0.147905 0.655890
0.014688 0.147834 0.780463
0.014618 0.147764 0.904466
0.014561 0.147706 1.000000
0.014398 0.276658 0.014398
0.014323 0.276582 0.147469
0.014250 0.276509 0.276509
0.014178 0.276437 0.403787
0.014107 0.276366 0.529907
0.014036 0.276295 0.655167
0.013965 0.276225 0.779740
0.013895 0.276154 0.903743
0.013837 0.276097 1.000000
0.013685 0.403293 0.013685
0.013609 0.403218 0.146755
0.013536 0.403145 0.275796
0.013464 0.403073 0.403073
0.013393 0.403002 0.529194
0.013322 0.402931 0.654453
0.013252 0.402860 0.779026
0.013182 0.402790 0.903030
0.013124 0.402732 1.000000
0.012978 0.528779 0.012978
0.012903 0.528703 0.146048
0.012830 0.528630 0.275089
0.012758 0.528558 0.402366
0.012686 0.528487 0.528487
0.012615 0.528416 0.653746
0.012545 0.528346 0.778319
0.012475 0.528275 0.902323
0.012417 0.528218 1.000000
0.012276 0.653407 0.012276
0.012200 0.653331 0.145346
0.012127 0.653258 0.274387
0.012055 0.653186 0.401664
0.011984 0.653115 0.527785
0.011913 0.653044 0.653044
0.011843 0.652974 0.777617
0.011772 0.652903 0.901621
0.011715 0.652846 1.000000
0.011577 0.777352 0.011577
0.011502 0.777277 0.144648
0.011429 0.777204 0.273689
0.011357 0.777132 0.400966
0.011286 0.777060 0.527087
0.011215 0.776990 0.652346
0.011144 0.776919 0.776919
0.011074 0.776849 0.900922
0.011017 0.776791 1.000000
0.010882 0.900731 0.010882
0.010807 0.900655 0.143953
0.010734 0.900582 0.272994
0.010662 0.900510 0.400271
0.010591 0.900439 0.526391
0.010520 0.900368 0.651651
0.010449 0.900298 0.776224
0.010379 0.900227 0.900227
0.010321 0.900170 1.000000
0.010311 1.000000 0.010311
0.010235 1.000000 0.143381
0.010162 1.000000 0.272422
0.010090 1.000000 0.399699
0.010019 1.000000 0.525820
0.009948 1.000000 0.651079
0.009878 1.000000 0.775652
0.009807 1.000000 0.899656
0.009750 1.000000 1.000000
0.148791 0.015646 0.015646
0.148716 0.015570 0.148716
0.148643 0.015497 0.277757
0.148571 0.015425 0.405034
0.148500 0.015354 0.531155
0.148429 0.015283 0.656414
0.148358 0.015213 0.780987
0.148288 0.015142 0.904991
0.148230 0.015085 1.000000
0.148045 0.148045 0.014900
0.147970 0.147970 0.147970
0.147897 0.147897 0.277011
0.147825 0.147825 0.404288
0.147754 0.147754 0.530409
0.147683 0.147683 0.655668
0.147612 0.147612 0.780241
0.147542 0.147542 0.904245
0.147485 0.147485 1.000000
0.147322 0.276436 0.014176
0.147247 0.276361 0.147247
0.147174 0.276288 0.276288
0.147102 0.276216 0.403565
0.147030 0.276144 0.529686
0.146960 0.276073 0.654945
0.146889 0.276003 0.779518
0.146819 0.275933 0.903521
0.146761 0.275875 1.000000
0.146609 0.403072 0.013463
0.146533 0.402996 0.146533
0.146460 0.402923 0.275574
0.146388 0.402851 0.402851
0.146317 0.402780 0.528972
0.146246 0.402709 0.654231
0.146176 0.402639 0.778805
0.146105 0.402568 0.902808
0.146048 0.402511 1.000000
0.145902 0.528557 0.012756
0.145826 0.528482 0.145826
0.145753 0.528409 0.274867
0.145681 0.528337 0.402144
0.145610 0.528265 0.528265
0.145539 0.528194 0.653525
0.145469 0.528124 0.778098
0.145399 0.528054 0.902101
0.145341 0.527996 1.000000
0.145200 0.653185 0.012054
0.145124 0.653110 0.145124
0.145051 0.653037 0.274165
0.144979 0.652965 0.401442
0.144908 0.652893 0.527563
0.144837 0.652822 0.652822
0.144767 0.652752 0.777396
0.144696 0.652682 0.901399
0.144639 0.652624 1.000000
0.144501 0.777130 0.011356
0.144426 0.777055 0.144426
0.144353 0.776982 0.273467
0.144281 0.776910 0.400744
0.144210 0.776839 0.526865
0.144139 0.776768 0.652124
0.144068 0.776697 0.776697
0.143998 0.776627 0.900701
0.143940 0.776569 1.000000
0.143806 0.900509 0.010661
0.143731 0.900434 0.143731
0.143658 0.900361 0.272772
0.143586 0.900289 0.400049
0.143515 0.900217 0.526170
0.143444 0.900146 0.651429
0.143373 0.900076 0.776002
0.143303 0.900006 0.900006
0.143245 0.899948 1.000000
0.143235 1.000000 0.010089
0.143159 1.000000 0.143159
0.143086 1.000000 0.272200
0.143014 1.000000 0.399477
0.142943 1.000000 0.525598
0.142872 1.000000 0.650857
0.142802 1.000000 0.775431
0.142731 1.000000 0.899434
0.142674 1.000000 1.000000
0.277690 0.015431 0.015431
0.277615 0.015355 0.148501
0.277542 0.015282 0.277542
0.277470 0.015210 0.404819
0.277398 0.015139 0.530940
0.277328 0.015068 0.656199
0.277257 0.014998 0.780772
0.277187 0.014927 0.904776
0.277129 0.014870 1.000000
0.276944 0.147830 0.014685
0.276869 0.147755 0.147755
0.276796 0.147682 0.276796
0.276724 0.147610 0.404073
0.276653 0.147539 0.530194
0.276582 0.147468 0.655453
0.276511 0.147397 0.780026
0.276441 0.147327 0.904030
0.276383 0.147269 1.000000
0.276221 0.276221 0.013961
0.276146 0.276146 0.147032
0.276073 0.276073 0.276073
0.276001 0.276001 0.403350
0.275929 0.275929 0.529471
0.275858 0.275858 0.654730
0.275788 0.275788 0.779303
0.275718 0.275718 0.903306
0.275660 0.275660 1.000000
0.275508 0.402857 0.013248
0.275432 0.402781 0.146318
0.275359 0.402708 0.275359
0.275287 0.402636 0.402636
0.275216 0.402565 0.528757
0.275145 0.402494 0.654016
0.275074 0.402424 0.778590
0.275004 0.402353 0.902593
0.274947 0.402296 1.000000
0.274801 0.528342 0.012541
0.274725 0.528267 0.145611
0.274652 0.528194 0.274652
0.274580 0.528122 0.401929
0.274509 0.528050 0.528050
0.274438 0.527979 0.653310
0.274367 0.527909 0.777883
0.274297 0.527839 0.901886
0.274240 0.527781 1.000000
0.274098 0.652970 0.011839
0.274023 0.652895 0.144909
0.273950 0.652822 0.273950
0.273878 0.652750 0.401227
0.273807 0.652678 0.527348
0.273736 0.652607 0.652607
0.273665 0.652537 0.777181
0.273595 0.652467 0.901184
0.273538 0.652409 1.000000
0.273400 0.776915 0.011141
0.273325 0.776840 0.144211
0.273252 0.776767 0.273252
0.273180 0.776695 0.400529
0.273108 0.776624 0.526650
0.273038 0.776553 0.651909
0.272967 0.776482 0.776482
0.272897 0.776412 0.900486
0.272839 0.776354 1.000000
0.272705 0.900294 0.010446
0.272630 0.900219 0.143516
0.272557 0.900146 0.272557
0.272485 0.900074 0.399834
0.272413 0.900002 0.525955
0.272343 0.899931 0.651214
0.272272 0.899861 0.775787
0.272202 0.899791 0.899791
0.272144 0.899733 1.000000
0.272133 1.000000 0.009874
0.272058 1.000000 0.142944
0.271985 1.000000 0.271985
0.271913 1.000000 0.399262
0.271842 1.000000 0.525383
0.271771 1.000000 0.650642
0.271700 1.000000 0.775216
0.271630 1.000000 0.899219
0.271572 1.000000 1.000000
0.404827 0.015219 0.015219
0.404752 0.015143 0.148289
0.404679 0.015070 0.277330
0.404607 0.014998 0.404607
0.404536 0.014927 0.530728
0.404465 0.014856 0.655987
0.404394 0.014786 0.780560
0.404324 0.014715 0.904564
0.404266 0.014658 1.000000
0.404081 0.147618 0.014473
0.404006 0.147543 0.147543
0.403933 0.147470 0.276584
0.403861 0.147398 0.403861
0.403790 0.147327 0.529982
0.403719 0.147256 0.655241
0.403648 0.147185 0.779814
0.403578 0.147115 0.903818
0.403520 0.147057 1.000000
0.403358 0.276009 0.013749
0.403283 0.275934 0.146820
0.403210 0.275861 0.275861
0.403138 0.275789 0.403138
0.403066 0.275717 0.529258
0.402995 0.275646 0.654518
0.402925 0.275576 0.779091
0.402855 0.275506 0.903094
0.402797 0.275448 1.000000
0.402645 0.402645 0.013036
0.402569 0.402569 0.146106
0.402496 0.402496 0.275147
0.402424 0.402424 0.402424
0.402353 0.402353 0.528545
0.402282 0.402282 0.653804
0.402212 0.402212 0.778378
0.402141 0.402141 0.902381
0.402084 0.402084 1.000000
0.401938 0.528130 0.012329
0.401862 0.528055 0.145399
0.401789 0.527981 0.274440
0.401717 0.527909 0.401717
0.401646 0.527838 0.527838
0.401575 0.527767 0.653097
0.401505 0.527697 0.777671
0.401434 0.527627 0.901674
0.401377 0.527569 1.000000
0.401236 0.652758 0.011627
0.401160 0.652683 0.144697
0.401087 0.652610 0.273738
0.401015 0.652538 0.401015
0.400944 0.652466 0.527136
0.400873 0.652395 0.652395
0.400803 0.652325 0.776969
0.400732 0.652255 0.900972
0.400675 0.652197 1.000000
0.400537 0.776703 0.010929
0.400462 0.776628 0.143999
0.400389 0.776555 0.273040
0.400317 0.776483 0.400317
0.400246 0.776412 0.526438
0.400175 0.776341 0.651697
0.400104 0.776270 0.776270
0.400034 0.776200 0.900274
0.399976 0.776142 1.000000
0.399842 0.900082 0.010234
0.399767 0.900006 0.143304
0.399694 0.899933 0.272345
0.399622 0.899861 0.399622
0.399551 0.899790 0.525743
0.399480 0.899719 0.651002
0.399409 0.899649 0.775575
0.399339 0.899579 0.899579
0.399281 0.899521 1.000000
0.399271 1.000000 0.009662
0.399195 1.000000 0.142732
0.399122 1.000000 0.271773
0.399050 1.000000 0.399050
0.398979 1.000000 0.525171
0.398908 1.000000 0.650430
0.398837 1.000000 0.775003
0.398767 1.000000 0.899007
0.398710 1.000000 1.000000
0.530809 0.015008 0.015008
0.530734 0.014933 0.148079
0.530661 0.014860 0.277120
0.530589 0.014788 0.404397
0.530518 0.014717 0.530518
0.530447 0.014646 0.655777
0.530376 0.014575 0.780350
0.530306 0.014505 0.904353
0.530248 0.014448 1.000000
0.530063 0.147408 0.014263
0.529988 0.147333 0.147333
0.529915 0.147260 0.276374
0.529843 0.147188 0.403651
0.529772 0.147117 0.529772
0.529701 0.147046 0.655031
0.529630 0.146975 0.779604
0.529560 0.146905 0.903608
0.529502 0.146847 1.000000
0.529340 0.275799 0.013539
0.529265 0.275723 0.146610
0.529192 0.275650 0.275650
0.529120 0.275578 0.402928
0.529048 0.275507 0.529048
0.528977 0.275436 0.654308
0.528907 0.275366 0.778881
0.528837 0.275295 0.902884
0.528779 0.275238 1.000000
0.528627 0.402434 0.012826
0.528551 0.402359 0.145896
0.528478 0.402286 0.274937
0.528406 0.402214 0.402214
0.528335 0.402143 0.528335
0.528264 0.402072 0.653594
0.528194 0.402001 0.778167
0.528123 0.401931 0.902171
0.528066 0.401874 1.000000
0.527920 0.527920 0.012119
0.527844 0.527844 0.145189
0.527771 0.527771 0.274230
0.527699 0.527699 0.401507
0.527628 0.527628 0.527628
0.527557 0.527557 0.652887
0.527487 0.527487 0.777460
0.527416 0.527416 0.901464
0.527359 0.527359 1.000000
0.527218 0.652548 0.011417
0.527142 0.652472 0.144487
0.527069 0.652399 0.273528
0.526997 0.652327 0.400805
0.526926 0.652256 0.526926
0.526855 0.652185 0.652185
0.526784 0.652115 0.776758
0.526714 0.652045 0.900762
0.526657 0.651987 1.000000
0.526519 0.776493 0.010719
0.526444 0.776418 0.143789
0.526371 0.776345 0.272830
0.526299 0.776273 0.400107
0.526228 0.776201 0.526228
0.526157 0.776131 0.651487
0.526086 0.776060 0.776060
0.526016 0.775990 0.900063
0.525958 0.775932 1.000000
0.525824 0.899872 0.010023
0.525749 0.899796 0.143094
0.525676 0.899723 0.272135
0.525604 0.899651 0.399412
0.525533 0.899580 0.525533
0.525462 0.899509 0.650792
0.525391 0.899439 0.775365
0.525321 0.899368 0.899368
0.525263 0.899311 1.000000
0.525253 1.000000 0.009452
0.525177 1.000000 0.142522
0.525104 1.000000 0.271563
0.525032 1.000000 0.398840
0.524961 1.000000 0.524961
0.524890 1.000000 0.650220
0.524819 1.000000 0.774793
0.524749 1.000000 0.898797
0.524692 1.000000 1.000000
0.655931 0.014800 0.014800
0.655855 0.014724 0.147870
0.655782 0.014651 0.276911
0.655710 0.014579 0.404188
0.655639 0.014508 0.530309
0.655568 0.014437 0.655568
0.655498 0.014367 0.780141
0.655427 0.014297 0.904145
0.655370 0.014239 1.000000
0.655185 0.147200 0.014054
0.655110 0.147124 0.147124
0.655037 0.147051 0.276165
0.654965 0.146979 0.403442
0.654893 0.146908 0.529563
0.654822 0.146837 0.654822
0.654752 0.146766 0.779395
0.654682 0.146696 0.903399
0.654624 0.146639 1.000000
0.654462 0.275590 0.013331
0.654386 0.275515 0.146401
0.654313 0.275442 0.275442
0.654241 0.275370 0.402719
0.654170 0.275298 0.528840
0.654099 0.275227 0.654099
0.654028 0.275157 0.778672
0.653958 0.275087 0.902676
0.653901 0.275029 1.000000
0.653748 0.402226 0.012617
0.653673 0.402150 0.145687
0.653600 0.402077 0.274728
0.653528 0.402005 0.402005
0.653456 0.401934 0.528126
0.653386 0.401863 0.653386
0.653315 0.401793 0.777959
0.653245 0.401723 0.901962
0.653187 0.401665 1.000000
0.653041 0.527711 0.011910
0.652966 0.527636 0.144981
0.652893 0.527563 0.274021
0.652821 0.527491 0.401299
0.652749 0.527419 0.527419
0.652679 0.527348 0.652679
0.652608 0.527278 0.777252
0.652538 0.527208 0.901255
0.652480 0.527150 1.000000
0.652339 0.652339 0.011208
0.652264 0.652264 0.144278
0.652191 0.652191 0.273319
0.652119 0.652119 0.400596
0.652047 0.652047 0.526717
0.651976 0.651976 0.651976
0.651906 0.651906 0.776550
0.651836 0.651836 0.900553
0.651778 0.651778 1.000000
0.651641 0.776284 0.010510
0.651565 0.776209 0.143580
0.651492 0.776136 0.272621
0.651420 0.776064 0.399898
0.651349 0.775993 0.526019
0.651278 0.775922 0.651278
0.651208 0.775851 0.775851
0.651138 0.775781 0.899855
0.651080 0.775724 1.000000
0.650946 0.899663 0.009815
0.650870 0.899588 0.142885
0.650797 0.899515 0.271926
0.650725 0.899443 0.399203
0.650654 0.899371 0.525324
0.650583 0.899300 0.650583
0.650513 0.899230 0.775156
0.650442 0.899160 0.899160
0.650385 0.899102 1.000000
0.650374 1.000000 0.009243
0.650299 1.000000 0.142313
0.650226 1.000000 0.271354
0.650154 1.000000 0.398631
0.650082 1.000000 0.524752
0.650011 1.000000 0.650011
0.649941 1.000000 0.774585
0.649871 1.000000 0.898588
0.649813 1.000000 1.000000
0.780367 0.014592 0.014592
0.780292 0.014517 0.147663
0.780219 0.014444 0.276703
0.780147 0.014372 0.403981
0.780075 0.014300 0.530101
0.780004 0.014230 0.655361
0.779934 0.014159 0.779934
0.779864 0.014089 0.903937
0.779806 0.014031 1.000000
0.779621 0.146992 0.013846
0.779546 0.146917 0.146917
0.779473 0.146844 0.275957
0.779401 0.146772 0.403235
0.779329 0.146700 0.529355
0.779258 0.146629 0.654615
0.779188 0.146559 0.779188
0.779118 0.146489 0.903191
0.779060 0.146431 1.000000
0.778898 0.275382 0.013123
0.778822 0.275307 0.146193
0.778749 0.275234 0.275234
0.778677 0.275162 0.402511
0.778606 0.275091 0.528632
0.778535 0.275020 0.653891
0.778465 0.274949 0.778465
0.778394 0.274879 0.902468
0.778337 0.274821 1.000000
0.778184 0.402018 0.012410
0.778109 0.401943 0.145480
0.778036 0.401870 0.274521
0.777964 0.401798 0.401798
0.777893 0.401727 0.527919
0.777822 0.401656 0.653178
0.777751 0.401585 0.777751
0.777681 0.401515 0.901755
0.777623 0.401457 1.000000
0.777477 0.527503 0.011703
0.777402 0.527428 0.144773
0.777329 0.527355 0.273814
0.777257 0.527283 0.401091
0.777186 0.527212 0.527212
0.777115 0.527141 0.652471
0.777044 0.527070 0.777044
0.776974 0.527000 0.901048
0.776916 0.526942 1.000000
0.776775 0.652131 0.011001
0.776700 0.652056 0.144071
0.776627 0.651983 0.273112
0.776555 0.651911 0.400389
0.776483 0.651840 0.526510
0.776413 0.651769 0.651769
0.776342 0.651698 0.776342
0.776272 0.651628 0.900345
0.776214 0.651571 1.000000
0.776077 0.776077 0.010302
0.776002 0.776002 0.143373
0.775929 0.775929 0.272413
0.775857 0.775857 0.399691
0.775785 0.775785 0.525811
0.775714 0.775714 0.651071
0.775644 0.775644 0.775644
0.775574 0.775574 0.899647
0.775516 0.775516 1.000000
0.775382 0.899455 0.009607
0.775307 0.899380 0.142678
0.775234 0.899307 0.271718
0.775162 0.899235 0.398995
0.775090 0.899164 0.525116
0.775019 0.899093 0.650376
0.774949 0.899022 0.774949
0.774879 0.898952 0.898952
0.774821 0.898894 1.000000
0.774810 1.000000 0.009035
0.774735 1.000000 0.142106
0.774662 1.000000 0.271147
0.774590 1.000000 0.398424
0.774518 1.000000 0.524545
0.774448 1.000000 0.649804
0.774377 1.000000 0.774377
0.774307 1.000000 0.898380
0.774249 1.000000 1.000000
0.904234 0.014386 0.014386
0.904158 0.014310 0.147456
0.904085 0.014237 0.276497
0.904013 0.014165 0.403774
0.903942 0.014094 0.529895
0.903871 0.014023 0.655154
0.903801 0.013952 0.779727
0.903731 0.013882 0.903731
0.903673 0.013825 1.000000
0.903488 0.146785 0.013640
0.903413 0.146710 0.146710
0.903340 0.146637 0.275751
0.903268 0.146565 0.403028
0.903196 0.146494 0.529149
0.903125 0.146423 0.654408
0.903055 0.146352 0.778981
0.902985 0.146282 0.902985
0.902927 0.146224 1.000000
0.902765 0.275176 0.012916
0.902689 0.275101 0.145987
0.902616 0.275028 0.275028
0.902544 0.274955 0.402305
0.902473 0.274884 0.528425
0.902402 0.274813 0.653685
0.902331 0.274743 0.778258
0.902261 0.274673 0.902261
0.902204 0.274615 1.000000
0.902051 0.401812 0.012203
0.901976 0.401736 0.145273
0.901903 0.401663 0.274314
0.901831 0.401591 0.401591
0.901759 0.401520 0.527712
0.901689 0.401449 0.652971
0.901618 0.401379 0.777545
0.901548 0.401308 0.901548
0.901490 0.401251 1.000000
0.901344 0.527297 0.011496
0.901269 0.527221 0.144566
0.901196 0.527148 0.273607
0.901124 0.527076 0.400884
0.901052 0.527005 0.527005
0.900982 0.526934 0.652264
0.900911 0.526864 0.776838
0.900841 0.526794 0.900841
0.900783 0.526736 1.000000
0.900642 0.651925 0.010794
0.900567 0.651850 0.143864
0.900494 0.651777 0.272905
0.900422 0.651705 0.400182
0.900350 0.651633 0.526303
0.900280 0.651562 0.651562
0.900209 0.651492 0.776135
0.900139 0.651422 0.900139
0.900081 0.651364 1.000000
0.899944 0.775870 0.010096
0.899869 0.775795 0.143166
0.899796 0.775722 0.272207
0.899723 0.775650 0.399484
0.899652 0.775579 0.525605
0.899581 0.775508 0.650864
0.899511 0.775437 0.775437
0.899441 0.775367 0.899441
0.899383 0.775309 1.000000
0.899249 0.899249 0.009401
0.899173 0.899173 0.142471
0.899100 0.899100 0.271512
0.899028 0.899028 0.398789
0.898957 0.898957 0.524910
0.898886 0.898886 0.650169
0.898816 0.898816 0.774742
0.898746 0.898746 0.898746
0.898688 0.898688 1.000000
0.898677 1.000000 0.008829
0.898602 1.000000 0.141899
0.898529 1.000000 0.270940
0.898457 1.000000 0.398217
0.898385 1.000000 0.524338
0.898314 1.000000 0.649597
0.898244 1.000000 0.774170
0.898174 1.000000 0.898174
0.898116 1.000000 1.000000
1.000000 0.014216 0.014216
1.000000 0.014140 0.147286
1.000000 0.014067 0.276327
1.000000 0.013995 0.403604
1.000000 0.013924 0.529725
1.000000 0.013853 0.654984
1.000000 0.013783 0.779557
1.000000 0.013712 0.903561
1.000000 0.013655 1.000000
1.000000 0.146615 0.013470
1.000000 0.146540 0.146540
1.000000 0.146467 0.275581
1.000000 0.146395 0.402858
1.000000 0.146324 0.528979
1.000000 0.146253 0.654238
1.000000 0.146182 0.778811
1.000000 0.146112 0.902815
1.000000 0.146054 1.000000
1.000000 0.275006 0.012746
1.000000 0.274931 0.145817
1.000000 0.274858 0.274858
1.000000 0.274786 0.402135
1.000000 0.274714 0.528255
1.000000 0.274643 0.653515
1.000000 0.274573 0.778088
1.000000 0.274503 0.902091
1.000000 0.274445 1.000000
1.000000 0.401642 0.012033
1.000000 0.401566 0.145103
1.000000 0.401493 0.274144
1.000000 0.401421 0.401421
1.000000 0.401350 0.527542
1.000000 0.401279 0.652801
1.000000 0.401209 0.777375
1.000000 0.401138 0.901378
1.000000 0.401081 1.000000
1.000000 0.527127 0.011326
1.000000 0.527052 0.144396
1.000000 0.526979 0.273437
1.000000 0.526906 0.400714
1.000000 0.526835 0.526835
1.000000 0.526764 0.652094
1.000000 0.526694 0.776668
1.000000 0.526624 0.900671
1.000000 0.526566 1.000000
1.000000 0.651755 0.010624
1.000000 0.651680 0.143694
1.000000 0.651607 0.272735
1.000000 0.651535 0.400012
1.000000 0.651463 0.526133
1.000000 0.651392 0.651392
1.000000 0.651322 0.775966
1.000000 0.651252 0.899969
1.000000 0.651194 1.000000
1.000000 0.775700 0.009926
1.000000 0.775625 0.142996
1.000000 0.775552 0.272037
1.000000 0.775480 0.399314
1.000000 0.775409 0.525435
1.000000 0.775338 0.650694
1.000000 0.775267 0.775267
1.000000 0.775197 0.899271
1.000000 0.775139 1.000000
1.000000 0.899079 0.009231
1.000000 0.899004 0.142301
1.000000 0.898930 0.271342
1.000000 0.898858 0.398619
1.000000 0.898787 0.524740
1.000000 0.898716 0.649999
1.000000 0.898646 0.774572
1.000000 0.898576 0.898576
1.000000 0.898518 1.000000
1.000000 1.000000 0.008659
1.000000 1.000000 0.141729
1.000000 1.000000 0.270770
1.000000 1.000000 0.398047
1.000000 1.000000 0.524168
1.000000 1.000000 0.649427
1.000000 1.000000 0.774000
1.000000 1.000000 0.898004
1.000000 1.000000 1.000000
