skills/editops-orchestrator/assets/grade/luts/clean_bright_v18.cube
TITLE "clean_bright_v18"
LUT_3D_SIZE 17
DOMAIN_MIN 0.0 0.0 0.0
DOMAIN_MAX 1.0 1.0 1.0
0.043271 0.043271 0.043271
0.043035 0.043035 0.119224
0.042810 0.042810 0.191761
0.042591 0.042591 0.262416
0.042376 0.042376 0.331771
0.042164 0.042164 0.400133
0.041954 0.041954 0.467696
0.041747 0.041747 0.534590
0.041541 0.041541 0.600909
0.041337 0.041337 0.666727
0.041134 0.041134 0.732098
0.040933 0.040933 0.797068
0.040733 0.040733 0.861674
0.040533 0.040533 0.925946
0.040335 0.040335 0.989912
0.040180 0.040180 1.000000
0.040180 0.040180 1.000000
0.040937 0.117127 0.040937
0.040702 0.116891 0.116891
0.040477 0.116666 0.189428
0.040258 0.116447 0.260083
0.040043 0.116232 0.329437
0.039831 0.116020 0.397800
0.039621 0.115810 0.465362
0.039414 0.115603 0.532256
0.039208 0.115397 0.598576
0.039004 0.115193 0.664394
0.038801 0.114990 0.729765
0.038600 0.114789 0.794735
0.038399 0.114588 0.859340
0.038200 0.114389 0.923613
0.038001 0.114191 0.987578
0.037847 0.114036 1.000000
0.037847 0.114036 1.000000
0.038709 0.187660 0.038709
0.038473 0.187425 0.114663
0.038248 0.187200 0.187200
0.038029 0.186981 0.257855
0.037814 0.186766 0.327209
0.037602 0.186553 0.395571
0.037393 0.186344 0.463134
0.037185 0.186137 0.530028
0.036979 0.185931 0.596348
0.036775 0.185727 0.662165
0.036573 0.185524 0.727536
0.036371 0.185322 0.792506
0.036171 0.185122 0.857112
0.035971 0.184923 0.921385
0.035773 0.184724 0.985350
0.035619 0.184570 1.000000
0.035619 0.184570 1.000000
0.036538 0.256364 0.036538
0.036303 0.256128 0.112492
0.036078 0.255903 0.185029
0.035859 0.255684 0.255684
0.035644 0.255469 0.325038
0.035432 0.255257 0.393401
0.035222 0.255048 0.460964
0.035015 0.254840 0.527857
0.034809 0.254634 0.594177
0.034605 0.254430 0.659995
0.034402 0.254228 0.725366
0.034201 0.254026 0.790336
0.034000 0.253826 0.854941
0.033801 0.253626 0.919214
0.033603 0.253428 0.983180
0.033448 0.253274 1.000000
0.033448 0.253274 1.000000
0.034408 0.323802 0.034408
0.034172 0.323567 0.110361
0.033947 0.323342 0.182899
0.033728 0.323123 0.253554
0.033513 0.322908 0.322908
0.033301 0.322696 0.391270
0.033091 0.322486 0.458833
0.032884 0.322279 0.525727
0.032678 0.322073 0.592047
0.032474 0.321869 0.657864
0.032271 0.321666 0.723235
0.032070 0.321465 0.788205
0.031870 0.321264 0.852811
0.031670 0.321065 0.917083
0.031472 0.320867 0.981049
0.031317 0.320712 1.000000
0.031317 0.320712 1.000000
0.032308 0.390277 0.032308
0.032072 0.390041 0.108261
0.031847 0.389816 0.180798
0.031628 0.389597 0.251453
0.031413 0.389382 0.320808
0.031201 0.389170 0.389170
0.030991 0.388960 0.456733
0.030784 0.388753 0.523627
0.030578 0.388547 0.589946
0.030374 0.388343 0.655764
0.030171 0.388140 0.721135
0.029970 0.387939 0.786105
0.029769 0.387739 0.850711
0.029570 0.387539 0.914983
0.029372 0.387341 0.978949
0.029217 0.387187 1.000000
0.029217 0.387187 1.000000
0.030232 0.455973 0.030232
0.029996 0.455738 0.106186
0.029771 0.455513 0.178723
0.029552 0.455294 0.249378
0.029337 0.455079 0.318732
0.029125 0.454867 0.387094
0.028916 0.454657 0.454657
0.028708 0.454450 0.521551
0.028503 0.454244 0.587871
0.028298 0.454040 0.653688
0.028096 0.453837 0.719059
0.027894 0.453636 0.784029
0.027694 0.453435 0.848635
0.027495 0.453236 0.912908
0.027296 0.453038 0.976873
0.027142 0.452883 1.000000
0.027142 0.452883 1.000000
0.028177 0.521020 0.028177
0.027941 0.520784 0.104131
0.027716 0.520559 0.176668
0.027497 0.520340 0.247323
0.027282 0.520125 0.316677
0.027070 0.519913 0.385039
0.026861 0.519704 0.452602
0.026653 0.519496 0.519496
0.026448 0.519290 0.585816
0.026243 0.519086 0.651633
0.026041 0.518884 0.717004
0.025839 0.518682 0.781974
0.025639 0.518482 0.846580
0.025440 0.518282 0.910853
0.025241 0.518084 0.974818
0.025087 0.517930 1.000000
0.025087 0.517930 1.000000
0.026140 0.585508 0.026140
0.025904 0.585272 0.102093
0.025679 0.585047 0.174630
0.025460 0.584828 0.245285
0.025245 0.584613 0.314640
0.025033 0.584401 0.383002
0.024823 0.584192 0.450565
0.024616 0.583984 0.517459
0.024410 0.583778 0.583778
0.024206 0.583574 0.649596
0.024003 0.583372 0.714967
0.023802 0.583170 0.779937
0.023601 0.582970 0.844543
0.023402 0.582770 0.908815
0.023204 0.582572 0.972781
0.023049 0.582418 1.000000
0.023049 0.582418 1.000000
0.024118 0.649507 0.024118
0.023882 0.649272 0.100071
0.023657 0.649047 0.172608
0.023438 0.648828 0.243264
0.023223 0.648613 0.312618
0.023011 0.648401 0.380980
0.022801 0.648191 0.448543
0.022594 0.647984 0.515437
0.022388 0.647778 0.581757
0.022184 0.647574 0.647574
0.021981 0.647371 0.712945
0.021780 0.647170 0.777915
0.021580 0.646969 0.842521
0.021380 0.646770 0.906793
0.021182 0.646572 0.970759
0.021027 0.646417 1.000000
0.021027 0.646417 1.000000
0.022109 0.713073 0.022109
0.021874 0.712837 0.098063
0.021649 0.712612 0.170600
0.021430 0.712393 0.241255
0.021215 0.712178 0.310609
0.021003 0.711966 0.378972
0.020793 0.711757 0.446535
0.020586 0.711549 0.513428
0.020380 0.711344 0.579748
0.020176 0.711139 0.645566
0.019973 0.710937 0.710937
0.019772 0.710735 0.775907
0.019571 0.710535 0.840512
0.019372 0.710336 0.904785
0.019174 0.710137 0.968751
0.019019 0.709983 1.000000
0.019019 0.709983 1.000000
0.020113 0.776248 0.020113
0.019878 0.776013 0.096067
0.019653 0.775788 0.168604
0.019434 0.775569 0.239259
0.019219 0.775354 0.308613
0.019007 0.775142 0.376976
0.018797 0.774932 0.444539
0.018590 0.774725 0.511433
0.018384 0.774519 0.577752
0.018180 0.774315 0.643570
0.017977 0.774112 0.708941
0.017776 0.773911 0.773911
0.017575 0.773710 0.838516
0.017376 0.773511 0.902789
0.017178 0.773313 0.966755
0.017023 0.773158 1.000000
0.017023 0.773158 1.000000
0.018129 0.839070 0.018129
0.017893 0.838834 0.094082
0.017668 0.838609 0.166620
0.017449 0.838390 0.237275
0.017234 0.838175 0.306629
0.017022 0.837963 0.374991
0.016812 0.837754 0.442554
0.016605 0.837546 0.509448
0.016399 0.837340 0.575768
0.016195 0.837136 0.641585
0.015992 0.836934 0.706956
0.015791 0.836732 0.771926
0.015591 0.836532 0.836532
0.015391 0.836332 0.900804
0.015193 0.836134 0.964770
0.015039 0.835980 1.000000
0.015039 0.835980 1.000000
0.016154 0.901567 0.016154
0.015919 0.901332 0.092108
0.015694 0.901107 0.164645
0.015475 0.900888 0.235300
0.015260 0.900673 0.304654
0.015048 0.900461 0.373017
0.014838 0.900251 0.440579
0.014631 0.900044 0.507473
0.014425 0.899838 0.573793
0.014221 0.899634 0.639610
0.014018 0.899431 0.704982
0.013817 0.899230 0.769951
0.013616 0.899029 0.834557
0.013417 0.898830 0.898830
0.013218 0.898631 0.962795
0.013064 0.898477 1.000000
0.013064 0.898477 1.000000
0.014189 0.963766 0.014189
0.013954 0.963531 0.090143
0.013729 0.963306 0.162680
0.013510 0.963087 0.233335
0.013294 0.962871 0.302689
0.013082 0.962659 0.371052
0.012873 0.962450 0.438614
0.012665 0.962242 0.505508
0.012460 0.962037 0.571828
0.012256 0.961833 0.637645
0.012053 0.961630 0.703016
0.011851 0.961428 0.767986
0.011651 0.961228 0.832592
0.011452 0.961029 0.896865
0.011253 0.960830 0.960830
0.011099 0.960676 1.000000
0.011099 0.960676 1.000000
0.012659 1.000000 0.012659
0.012424 1.000000 0.088613
0.012199 1.000000 0.161150
0.011980 1.000000 0.231805
0.011765 1.000000 0.301159
0.011553 1.000000 0.369522
0.011343 1.000000 0.437085
0.011136 1.000000 0.503978
0.010930 1.000000 0.570298
0.010726 1.000000 0.636116
0.010523 1.000000 0.701487
0.010322 1.000000 0.766457
0.010121 1.000000 0.831062
0.009922 1.000000 0.895335
0.009724 1.000000 0.959301
0.009569 1.000000 1.000000
0.009569 1.000000 1.000000
0.012659 1.000000 0.012659
0.012424 1.000000 0.088613
0.012199 1.000000 0.161150
0.011980 1.000000 0.231805
0.011765 1.000000 0.301159
0.011553 1.000000 0.369522
0.011343 1.000000 0.437085
0.011136 1.000000 0.503978
0.010930 1.000000 0.570298
0.010726 1.000000 0.636116
0.010523 1.000000 0.701487
0.010322 1.000000 0.766457
0.010121 1.000000 0.831062
0.009922 1.000000 0.895335
0.009724 1.000000 0.959301
0.009569 1.000000 1.000000
0.009569 1.000000 1.000000
0.118766 0.042577 0.042577
0.118531 0.042341 0.118531
0.118306 0.042117 0.191068
0.118087 0.041897 0.261723
0.117872 0.041682 0.331077
0.117660 0.041470 0.399439
0.117450 0.041261 0.467002
0.117243 0.041053 0.533896
0.117037 0.040848 0.600216
0.116833 0.040644 0.666033
0.116630 0.040441 0.731404
0.116429 0.040239 0.796374
0.116228 0.040039 0.860980
0.116029 0.039840 0.925253
0.115831 0.039641 0.989218
0.115676 0.039487 1.000000
0.115676 0.039487 1.000000
0.116433 0.116433 0.040244
0.116197 0.116197 0.116197
0.115972 0.115972 0.188734
0.115753 0.115753 0.259390
0.115538 0.115538 0.328744
0.115326 0.115326 0.397106
0.115117 0.115117 0.464669
0.114909 0.114909 0.531563
0.114704 0.114704 0.597883
0.114499 0.114499 0.663700
0.114297 0.114297 0.729071
0.114095 0.114095 0.794041
0.113895 0.113895 0.858647
0.113696 0.113696 0.922919
0.113497 0.113497 0.986885
0.113343 0.113343 1.000000
0.113343 0.113343 1.000000
0.114205 0.186967 0.038015
0.113969 0.186731 0.113969
0.113744 0.186506 0.186506
0.113525 0.186287 0.257161
0.113310 0.186072 0.326515
0.113098 0.185860 0.394878
0.112888 0.185650 0.462440
0.112681 0.185443 0.529334
0.112475 0.185237 0.595654
0.112271 0.185033 0.661472
0.112068 0.184830 0.726843
0.111867 0.184629 0.791813
0.111666 0.184429 0.856418
0.111467 0.184229 0.920691
0.111269 0.184031 0.984656
0.111114 0.183876 1.000000
0.111114 0.183876 1.000000
0.112034 0.255670 0.035845
0.111798 0.255435 0.111798
0.111574 0.255210 0.184336
0.111354 0.254991 0.254991
0.111139 0.254775 0.324345
0.110927 0.254563 0.392707
0.110718 0.254354 0.460270
0.110510 0.254146 0.527164
0.110305 0.253941 0.593484
0.110101 0.253737 0.659301
0.109898 0.253534 0.724672
0.109696 0.253332 0.789642
0.109496 0.253132 0.854248
0.109297 0.252933 0.918520
0.109098 0.252734 0.982486
0.108944 0.252580 1.000000
0.108944 0.252580 1.000000
0.109903 0.323109 0.033714
0.109668 0.322873 0.109668
0.109443 0.322648 0.182205
0.109224 0.322429 0.252860
0.109009 0.322214 0.322214
0.108797 0.322002 0.390577
0.108587 0.321793 0.458139
0.108380 0.321585 0.525033
0.108174 0.321379 0.591353
0.107970 0.321175 0.657170
0.107767 0.320973 0.722541
0.107566 0.320771 0.787511
0.107365 0.320571 0.852117
0.107166 0.320371 0.916390
0.106968 0.320173 0.980355
0.106813 0.320019 1.000000
0.106813 0.320019 1.000000
0.107803 0.389583 0.031614
0.107568 0.389348 0.107568
0.107343 0.389123 0.180105
0.107124 0.388903 0.250760
0.106909 0.388688 0.320114
0.106697 0.388476 0.388476
0.106487 0.388267 0.456039
0.106280 0.388059 0.522933
0.106074 0.387854 0.589253
0.105870 0.387650 0.655070
0.105667 0.387447 0.720441
0.105466 0.387245 0.785411
0.105265 0.387045 0.850017
0.105066 0.386846 0.914290
0.104867 0.386647 0.978255
0.104713 0.386493 1.000000
0.104713 0.386493 1.000000
0.105728 0.455280 0.029538
0.105492 0.455044 0.105492
0.105267 0.454819 0.178029
0.105048 0.454600 0.248684
0.104833 0.454385 0.318038
0.104621 0.454173 0.386401
0.104411 0.453964 0.453964
0.104204 0.453756 0.520857
0.103998 0.453550 0.587177
0.103794 0.453346 0.652995
0.103591 0.453144 0.718366
0.103390 0.452942 0.783336
0.103190 0.452742 0.847941
0.102990 0.452542 0.912214
0.102792 0.452344 0.976180
0.102637 0.452190 1.000000
0.102637 0.452190 1.000000
0.103673 0.520326 0.027483
0.103437 0.520091 0.103437
0.103212 0.519866 0.175974
0.102993 0.519647 0.246629
0.102778 0.519431 0.315983
0.102566 0.519219 0.384346
0.102356 0.519010 0.451909
0.102149 0.518802 0.518802
0.101943 0.518597 0.585122
0.101739 0.518393 0.650940
0.101536 0.518190 0.716311
0.101335 0.517988 0.781281
0.101135 0.517788 0.845886
0.100935 0.517589 0.910159
0.100737 0.517390 0.974125
0.100582 0.517236 1.000000
0.100582 0.517236 1.000000
0.101635 0.584814 0.025446
0.101400 0.584579 0.101400
0.101175 0.584354 0.173937
0.100956 0.584135 0.244592
0.100741 0.583920 0.313946
0.100529 0.583708 0.382308
0.100319 0.583498 0.449871
0.100112 0.583291 0.516765
0.099906 0.583085 0.583085
0.099702 0.582881 0.648902
0.099499 0.582678 0.714273
0.099298 0.582477 0.779243
0.099097 0.582276 0.843849
0.098898 0.582077 0.908122
0.098699 0.581878 0.972087
0.098545 0.581724 1.000000
0.098545 0.581724 1.000000
0.099613 0.648814 0.023424
0.099378 0.648578 0.099378
0.099153 0.648353 0.171915
0.098934 0.648134 0.242570
0.098719 0.647919 0.311924
0.098507 0.647707 0.380286
0.098297 0.647498 0.447849
0.098090 0.647290 0.514743
0.097884 0.647084 0.581063
0.097680 0.646880 0.646880
0.097477 0.646678 0.712251
0.097276 0.646476 0.777221
0.097075 0.646276 0.841827
0.096876 0.646076 0.906100
0.096678 0.645878 0.970065
0.096523 0.645724 1.000000
0.096523 0.645724 1.000000
0.097605 0.712379 0.021416
0.097370 0.712144 0.097370
0.097145 0.711919 0.169907
0.096925 0.711700 0.240562
0.096710 0.711485 0.309916
0.096498 0.711273 0.378278
0.096289 0.711063 0.445841
0.096081 0.710856 0.512735
0.095876 0.710650 0.579055
0.095672 0.710446 0.644872
0.095469 0.710243 0.710243
0.095267 0.710042 0.775213
0.095067 0.709841 0.839819
0.094868 0.709642 0.904091
0.094669 0.709444 0.968057
0.094515 0.709289 1.000000
0.094515 0.709289 1.000000
0.095609 0.775555 0.019420
0.095374 0.775319 0.095374
0.095149 0.775094 0.167911
0.094930 0.774875 0.238566
0.094714 0.774660 0.307920
0.094502 0.774448 0.376282
0.094293 0.774239 0.443845
0.094085 0.774031 0.510739
0.093880 0.773825 0.577059
0.093676 0.773621 0.642876
0.093473 0.773419 0.708247
0.093271 0.773217 0.773217
0.093071 0.773017 0.837823
0.092872 0.772817 0.902095
0.092673 0.772619 0.966061
0.092519 0.772465 1.000000
0.092519 0.772465 1.000000
0.093624 0.838376 0.017435
0.093389 0.838141 0.093389
0.093164 0.837916 0.165926
0.092945 0.837697 0.236581
0.092730 0.837482 0.305935
0.092518 0.837270 0.374298
0.092308 0.837060 0.441860
0.092101 0.836853 0.508754
0.091895 0.836647 0.575074
0.091691 0.836443 0.640891
0.091488 0.836240 0.706262
0.091287 0.836039 0.771232
0.091086 0.835838 0.835838
0.090887 0.835639 0.900111
0.090689 0.835440 0.964076
0.090534 0.835286 1.000000
0.090534 0.835286 1.000000
0.091650 0.900874 0.015461
0.091414 0.900638 0.091414
0.091189 0.900413 0.163951
0.090970 0.900194 0.234606
0.090755 0.899979 0.303961
0.090543 0.899767 0.372323
0.090334 0.899557 0.439886
0.090126 0.899350 0.506780
0.089921 0.899144 0.573100
0.089716 0.898940 0.638917
0.089514 0.898737 0.704288
0.089312 0.898536 0.769258
0.089112 0.898336 0.833864
0.088913 0.898136 0.898136
0.088714 0.897938 0.962102
0.088560 0.897783 1.000000
0.088560 0.897783 1.000000
0.089685 0.963073 0.013496
0.089449 0.962837 0.089449
0.089224 0.962612 0.161986
0.089005 0.962393 0.232641
0.088790 0.962178 0.301996
0.088578 0.961966 0.370358
0.088369 0.961756 0.437921
0.088161 0.961549 0.504815
0.087955 0.961343 0.571134
0.087751 0.961139 0.636952
0.087549 0.960936 0.702323
0.087347 0.960735 0.767293
0.087147 0.960534 0.831899
0.086947 0.960335 0.896171
0.086749 0.960137 0.960137
0.086595 0.959982 1.000000
0.086595 0.959982 1.000000
0.088155 1.000000 0.011966
0.087919 1.000000 0.087919
0.087695 1.000000 0.160457
0.087475 1.000000 0.231112
0.087260 1.000000 0.300466
0.087048 1.000000 0.368828
0.086839 1.000000 0.436391
0.086631 1.000000 0.503285
0.086426 1.000000 0.569605
0.086222 1.000000 0.635422
0.086019 1.000000 0.700793
0.085817 1.000000 0.765763
0.085617 1.000000 0.830369
0.085418 1.000000 0.894641
0.085219 1.000000 0.958607
0.085065 1.000000 1.000000
0.085065 1.000000 1.000000
0.088155 1.000000 0.011966
0.087919 1.000000 0.087919
0.087695 1.000000 0.160457
0.087475 1.000000 0.231112
0.087260 1.000000 0.300466
0.087048 1.000000 0.368828
0.086839 1.000000 0.436391
0.086631 1.000000 0.503285
0.086426 1.000000 0.569605
0.086222 1.000000 0.635422
0.086019 1.000000 0.700793
0.085817 1.000000 0.765763
0.085617 1.000000 0.830369
0.085418 1.000000 0.894641
0.085219 1.000000 0.958607
0.085065 1.000000 1.000000
0.085065 1.000000 1.000000
0.190866 0.041915 0.041915
0.190630 0.041679 0.117868
0.190405 0.041454 0.190405
0.190186 0.041235 0.261060
0.189971 0.041020 0.330415
0.189759 0.040808 0.398777
0.189550 0.040598 0.466340
0.189342 0.040391 0.533234
0.189137 0.040185 0.599553
0.188932 0.039981 0.665371
0.188730 0.039778 0.730742
0.188528 0.039577 0.795712
0.188328 0.039377 0.860318
0.188129 0.039177 0.924590
0.187930 0.038979 0.988556
0.187776 0.038824 1.000000
0.187776 0.038824 1.000000
0.188533 0.115771 0.039581
0.188297 0.115535 0.115535
0.188072 0.115310 0.188072
0.187853 0.115091 0.258727
0.187638 0.114876 0.328081
0.187426 0.114664 0.396444
0.187216 0.114454 0.464006
0.187009 0.114247 0.530900
0.186803 0.114041 0.597220
0.186599 0.113837 0.663037
0.186396 0.113634 0.728409
0.186195 0.113433 0.793378
0.185995 0.113232 0.857984
0.185795 0.113033 0.922257
0.185597 0.112835 0.986222
0.185442 0.112680 1.000000
0.185442 0.112680 1.000000
0.186304 0.186304 0.037353
0.186069 0.186069 0.113307
0.185844 0.185844 0.185844
0.185625 0.185625 0.256499
0.185409 0.185409 0.325853
0.185197 0.185197 0.394215
0.184988 0.184988 0.461778
0.184780 0.184780 0.528672
0.184575 0.184575 0.594992
0.184371 0.184371 0.660809
0.184168 0.184168 0.726180
0.183966 0.183966 0.791150
0.183766 0.183766 0.855756
0.183567 0.183567 0.920028
0.183368 0.183368 0.983994
0.183214 0.183214 1.000000
0.183214 0.183214 1.000000
0.184134 0.255008 0.035182
0.183898 0.254772 0.111136
0.183673 0.254547 0.183673
0.183454 0.254328 0.254328
0.183239 0.254113 0.323682
0.183027 0.253901 0.392045
0.182817 0.253692 0.459607
0.182610 0.253484 0.526501
0.182404 0.253278 0.592821
0.182200 0.253074 0.658639
0.181997 0.252872 0.724010
0.181796 0.252670 0.788980
0.181596 0.252470 0.853585
0.181396 0.252270 0.917858
0.181198 0.252072 0.981823
0.181043 0.251918 1.000000
0.181043 0.251918 1.000000
0.182003 0.322446 0.033052
0.181767 0.322211 0.109005
0.181543 0.321986 0.181543
0.181323 0.321767 0.252198
0.181108 0.321552 0.321552
0.180896 0.321340 0.389914
0.180687 0.321130 0.457477
0.180479 0.320923 0.524371
0.180274 0.320717 0.590691
0.180070 0.320513 0.656508
0.179867 0.320310 0.721879
0.179665 0.320109 0.786849
0.179465 0.319908 0.851455
0.179266 0.319709 0.915727
0.179067 0.319511 0.979693
0.178913 0.319356 1.000000
0.178913 0.319356 1.000000
0.179903 0.388921 0.030952
0.179667 0.388685 0.106905
0.179442 0.388460 0.179442
0.179223 0.388241 0.250097
0.179008 0.388026 0.319452
0.178796 0.387814 0.387814
0.178587 0.387604 0.455377
0.178379 0.387397 0.522271
0.178174 0.387191 0.588590
0.177969 0.386987 0.654408
0.177767 0.386784 0.719779
0.177565 0.386583 0.784749
0.177365 0.386383 0.849355
0.177165 0.386183 0.913627
0.176967 0.385985 0.977593
0.176813 0.385830 1.000000
0.176813 0.385830 1.000000
0.177827 0.454617 0.028876
0.177592 0.454382 0.104830
0.177367 0.454157 0.177367
0.177148 0.453938 0.248022
0.176933 0.453723 0.317376
0.176721 0.453511 0.385738
0.176511 0.453301 0.453301
0.176304 0.453094 0.520195
0.176098 0.452888 0.586515
0.175894 0.452684 0.652332
0.175691 0.452481 0.717703
0.175490 0.452280 0.782673
0.175289 0.452079 0.847279
0.175090 0.451880 0.911552
0.174892 0.451682 0.975517
0.174737 0.451527 1.000000
0.174737 0.451527 1.000000
0.175772 0.519664 0.026821
0.175537 0.519428 0.102775
0.175312 0.519203 0.175312
0.175093 0.518984 0.245967
0.174878 0.518769 0.315321
0.174666 0.518557 0.383683
0.174456 0.518348 0.451246
0.174249 0.518140 0.518140
0.174043 0.517934 0.584460
0.173839 0.517730 0.650277
0.173636 0.517528 0.715648
0.173435 0.517326 0.780618
0.173234 0.517126 0.845224
0.173035 0.516926 0.909497
0.172836 0.516728 0.973462
0.172682 0.516574 1.000000
0.172682 0.516574 1.000000
0.173735 0.584152 0.024784
0.173499 0.583916 0.100737
0.173274 0.583691 0.173274
0.173055 0.583472 0.243929
0.172840 0.583257 0.313284
0.172628 0.583045 0.381646
0.172419 0.582836 0.449209
0.172211 0.582628 0.516103
0.172006 0.582422 0.582422
0.171801 0.582218 0.648240
0.171599 0.582016 0.713611
0.171397 0.581814 0.778581
0.171197 0.581614 0.843187
0.170997 0.581414 0.907459
0.170799 0.581216 0.971425
0.170645 0.581062 1.000000
0.170645 0.581062 1.000000
0.171713 0.648151 0.022762
0.171477 0.647916 0.098715
0.171252 0.647691 0.171252
0.171033 0.647472 0.241907
0.170818 0.647257 0.311262
0.170606 0.647045 0.379624
0.170397 0.646835 0.447187
0.170189 0.646628 0.514081
0.169984 0.646422 0.580400
0.169779 0.646218 0.646218
0.169577 0.646015 0.711589
0.169375 0.645814 0.776559
0.169175 0.645613 0.841165
0.168976 0.645414 0.905437
0.168777 0.645216 0.969403
0.168623 0.645061 1.000000
0.168623 0.645061 1.000000
0.169705 0.711717 0.020753
0.169469 0.711481 0.096707
0.169244 0.711256 0.169244
0.169025 0.711037 0.239899
0.168810 0.710822 0.309253
0.168598 0.710610 0.377616
0.168388 0.710401 0.445179
0.168181 0.710193 0.512072
0.167975 0.709988 0.578392
0.167771 0.709783 0.644210
0.167568 0.709581 0.709581
0.167367 0.709379 0.774551
0.167167 0.709179 0.839156
0.166967 0.708980 0.903429
0.166769 0.708781 0.967395
0.166614 0.708627 1.000000
0.166614 0.708627 1.000000
0.167709 0.774892 0.018757
0.167473 0.774657 0.094711
0.167248 0.774432 0.167248
0.167029 0.774213 0.237903
0.166814 0.773998 0.307257
0.166602 0.773786 0.375620
0.166393 0.773576 0.443183
0.166185 0.773369 0.510077
0.165979 0.773163 0.576396
0.165775 0.772959 0.642214
0.165573 0.772756 0.707585
0.165371 0.772555 0.772555
0.165171 0.772354 0.837160
0.164971 0.772155 0.901433
0.164773 0.771957 0.965399
0.164619 0.771802 1.000000
0.164619 0.771802 1.000000
0.165724 0.837714 0.016773
0.165489 0.837478 0.092726
0.165264 0.837253 0.165264
0.165044 0.837034 0.235919
0.164829 0.836819 0.305273
0.164617 0.836607 0.373635
0.164408 0.836398 0.441198
0.164200 0.836190 0.508092
0.163995 0.835984 0.574412
0.163791 0.835780 0.640229
0.163588 0.835578 0.705600
0.163386 0.835376 0.770570
0.163186 0.835176 0.835176
0.162987 0.834976 0.899448
0.162788 0.834778 0.963414
0.162634 0.834624 1.000000
0.162634 0.834624 1.000000
0.163750 0.900211 0.014798
0.163514 0.899976 0.090752
0.163289 0.899751 0.163289
0.163070 0.899532 0.233944
0.162855 0.899317 0.303298
0.162643 0.899105 0.371661
0.162433 0.898895 0.439223
0.162226 0.898688 0.506117
0.162020 0.898482 0.572437
0.161816 0.898278 0.638254
0.161613 0.898075 0.703626
0.161412 0.897874 0.768595
0.161211 0.897673 0.833201
0.161012 0.897474 0.897474
0.160814 0.897275 0.961439
0.160659 0.897121 1.000000
0.160659 0.897121 1.000000
0.161784 0.962410 0.012833
0.161549 0.962175 0.088787
0.161324 0.961950 0.161324
0.161105 0.961731 0.231979
0.160890 0.961515 0.301333
0.160678 0.961303 0.369696
0.160468 0.961094 0.437258
0.160261 0.960886 0.504152
0.160055 0.960681 0.570472
0.159851 0.960477 0.636289
0.159648 0.960274 0.701660
0.159447 0.960072 0.766630
0.159246 0.959872 0.831236
0.159047 0.959673 0.895509
0.158849 0.959474 0.959474
0.158694 0.959320 1.000000
0.158694 0.959320 1.000000
0.160255 1.000000 0.011303
0.160019 1.000000 0.087257
0.159794 1.000000 0.159794
0.159575 1.000000 0.230449
0.159360 1.000000 0.299803
0.159148 1.000000 0.368166
0.158938 1.000000 0.435728
0.158731 1.000000 0.502622
0.158525 1.000000 0.568942
0.158321 1.000000 0.634760
0.158118 1.000000 0.700131
0.157917 1.000000 0.765101
0.157717 1.000000 0.829706
0.157517 1.000000 0.893979
0.157319 1.000000 0.957944
0.157164 1.000000 1.000000
0.157164 1.000000 1.000000
0.160255 1.000000 0.011303
0.160019 1.000000 0.087257
0.159794 1.000000 0.159794
0.159575 1.000000 0.230449
0.159360 1.000000 0.299803
0.159148 1.000000 0.368166
0.158938 1.000000 0.435728
0.158731 1.000000 0.502622
0.158525 1.000000 0.568942
0.158321 1.000000 0.634760
0.158118 1.000000 0.700131
0.157917 1.000000 0.765101
0.157717 1.000000 0.829706
0.157517 1.000000 0.893979
0.157319 1.000000 0.957944
0.157164 1.000000 1.000000
0.157164 1.000000 1.000000
0.261095 0.041269 0.041269
0.260859 0.041034 0.117223
0.260634 0.040809 0.189760
0.260415 0.040590 0.260415
0.260200 0.040375 0.329769
0.259988 0.040163 0.398132
0.259779 0.039953 0.465695
0.259571 0.039746 0.532588
0.259365 0.039540 0.598908
0.259161 0.039336 0.664726
0.258959 0.039133 0.730097
0.258757 0.038932 0.795067
0.258557 0.038731 0.859672
0.258357 0.038532 0.923945
0.258159 0.038334 0.987911
0.258005 0.038179 1.000000
0.258005 0.038179 1.000000
0.258762 0.115125 0.038936
