skills/editops-orchestrator/assets/grade/luts/clean_bright_v12.cube
TITLE "clean_bright_v12"
LUT_3D_SIZE 9
DOMAIN_MIN 0.0 0.0 0.0
DOMAIN_MAX 1.0 1.0 1.0
0.030632 0.030632 0.030632
0.030342 0.030342 0.172713
0.030067 0.030067 0.308131
0.029798 0.029798 0.440455
0.029532 0.029532 0.570735
0.029270 0.029270 0.699490
0.029011 0.029011 0.827030
0.028753 0.028753 0.953564
0.028606 0.028606 1.000000
0.027767 0.170137 0.027767
0.027478 0.169848 0.169848
0.027202 0.169572 0.305267
0.026933 0.169303 0.437590
0.026668 0.169038 0.567870
0.026406 0.168776 0.696625
0.026146 0.168516 0.824166
0.025889 0.168259 0.950699
0.025741 0.168111 1.000000
0.025037 0.303101 0.025037
0.024748 0.302812 0.167118
0.024472 0.302536 0.302536
0.024203 0.302267 0.434860
0.023938 0.302002 0.565140
0.023675 0.301740 0.693895
0.023416 0.301480 0.821436
0.023158 0.301223 0.947969
0.023011 0.301075 1.000000
0.022369 0.433026 0.022369
0.022080 0.432737 0.164450
0.021804 0.432461 0.299868
0.021535 0.432192 0.432192
0.021270 0.431927 0.562472
0.021008 0.431665 0.691227
0.020748 0.431405 0.818768
0.020490 0.431148 0.945301
0.020343 0.431000 1.000000
0.019742 0.560944 0.019742
0.019453 0.560655 0.161823
0.019177 0.560380 0.297242
0.018908 0.560110 0.429565
0.018643 0.559845 0.559845
0.018381 0.559583 0.688600
0.018121 0.559324 0.816141
0.017864 0.559066 0.942674
0.017716 0.558918 1.000000
0.017146 0.687366 0.017146
0.016857 0.687076 0.159227
0.016582 0.686801 0.294646
0.016312 0.686531 0.426969
0.016047 0.686266 0.557249
0.015785 0.686004 0.686004
0.015525 0.685745 0.813545
0.015268 0.685487 0.940078
0.015120 0.685340 1.000000
0.014575 0.812595 0.014575
0.014286 0.812305 0.156656
0.014010 0.812030 0.292074
0.013741 0.811760 0.424398
0.013476 0.811495 0.554678
0.013214 0.811233 0.683433
0.012954 0.810974 0.810974
0.012696 0.810716 0.937507
0.012549 0.810569 1.000000
0.012024 0.936834 0.012024
0.011735 0.936545 0.154105
0.011459 0.936269 0.289523
0.011190 0.936000 0.421847
0.010925 0.935735 0.552127
0.010662 0.935473 0.680882
0.010403 0.935213 0.808423
0.010145 0.934956 0.934956
0.009998 0.934808 1.000000
0.010563 1.000000 0.010563
0.010273 1.000000 0.152644
0.009998 1.000000 0.288062
0.009729 1.000000 0.420386
0.009463 1.000000 0.550666
0.009201 1.000000 0.679421
0.008942 1.000000 0.806961
0.008684 1.000000 0.933495
0.008537 1.000000 1.000000
0.172150 0.029780 0.029780
0.171861 0.029491 0.171861
0.171586 0.029215 0.307280
0.171316 0.028946 0.439603
0.171051 0.028681 0.569883
0.170789 0.028419 0.698638
0.170529 0.028159 0.826179
0.170272 0.027902 0.952712
0.170124 0.027754 1.000000
0.169286 0.169286 0.026916
0.168997 0.168997 0.168997
0.168721 0.168721 0.304415
0.168452 0.168452 0.436739
0.168186 0.168186 0.567018
0.167924 0.167924 0.695773
0.167665 0.167665 0.823314
0.167407 0.167407 0.949848
0.167260 0.167260 1.000000
0.166555 0.302250 0.024185
0.166266 0.301960 0.166266
0.165991 0.301685 0.301685
0.165721 0.301415 0.434008
0.165456 0.301150 0.564288
0.165194 0.300888 0.693043
0.164935 0.300629 0.820584
0.164677 0.300371 0.947117
0.164529 0.300224 1.000000
0.163888 0.432175 0.021517
0.163598 0.431885 0.163598
0.163323 0.431610 0.299017
0.163053 0.431341 0.431341
0.162788 0.431075 0.561620
0.162526 0.430813 0.690375
0.162267 0.430554 0.817916
0.162009 0.430296 0.944449
0.161862 0.430149 1.000000
0.161261 0.560093 0.018891
0.160972 0.559804 0.160972
0.160696 0.559528 0.296390
0.160427 0.559259 0.428714
0.160162 0.558994 0.558994
0.159900 0.558732 0.687749
0.159640 0.558472 0.815289
0.159382 0.558214 0.941823
0.159235 0.558067 1.000000
0.158665 0.686514 0.016295
0.158376 0.686225 0.158376
0.158100 0.685949 0.293794
0.157831 0.685680 0.426118
0.157566 0.685415 0.556398
0.157304 0.685153 0.685153
0.157044 0.684893 0.812694
0.156787 0.684636 0.939227
0.156639 0.684488 1.000000
0.156094 0.811743 0.013723
0.155804 0.811454 0.155804
0.155529 0.811178 0.291223
0.155259 0.810909 0.423547
0.154994 0.810644 0.553826
0.154732 0.810382 0.682581
0.154473 0.810122 0.810122
0.154215 0.809865 0.936655
0.154068 0.809717 1.000000
0.153542 0.935983 0.011172
0.153253 0.935694 0.153253
0.152978 0.935418 0.288672
0.152708 0.935149 0.420995
0.152443 0.934883 0.551275
0.152181 0.934621 0.680030
0.151922 0.934362 0.807571
0.151664 0.934104 0.934104
0.151516 0.933957 1.000000
0.152081 1.000000 0.009711
0.151792 1.000000 0.151792
0.151517 1.000000 0.287211
0.151247 1.000000 0.419534
0.150982 1.000000 0.549814
0.150720 1.000000 0.678569
0.150460 1.000000 0.806110
0.150203 1.000000 0.932643
0.150055 1.000000 1.000000
0.307033 0.028969 0.028969
0.306744 0.028679 0.171050
0.306468 0.028404 0.306468
0.306199 0.028134 0.438792
0.305934 0.027869 0.569071
0.305671 0.027607 0.697826
0.305412 0.027348 0.825367
0.305154 0.027090 0.951901
0.305007 0.026943 1.000000
0.304168 0.168474 0.026104
0.303879 0.168185 0.168185
0.303603 0.167909 0.303603
0.303334 0.167640 0.435927
0.303069 0.167375 0.566207
0.302807 0.167113 0.694962
0.302547 0.166853 0.822503
0.302290 0.166596 0.949036
0.302142 0.166448 1.000000
0.301438 0.301438 0.023374
0.301149 0.301149 0.165455
0.300873 0.300873 0.300873
0.300604 0.300604 0.433197
0.300339 0.300339 0.563477
0.300077 0.300077 0.692232
0.299817 0.299817 0.819772
0.299560 0.299560 0.946306
0.299412 0.299412 1.000000
0.298770 0.431363 0.020706
0.298481 0.431074 0.162787
0.298205 0.430798 0.298205
0.297936 0.430529 0.430529
0.297671 0.430264 0.560809
0.297409 0.430002 0.689564
0.297149 0.429742 0.817105
0.296892 0.429485 0.943638
0.296744 0.429337 1.000000
0.296143 0.559281 0.018079
0.295854 0.558992 0.160160
0.295579 0.558717 0.295579
0.295309 0.558447 0.427902
0.295044 0.558182 0.558182
0.294782 0.557920 0.686937
0.294523 0.557660 0.814478
0.294265 0.557403 0.941011
0.294117 0.557255 1.000000
0.293548 0.685702 0.015483
0.293258 0.685413 0.157564
0.292983 0.685138 0.292983
0.292713 0.684868 0.425306
0.292448 0.684603 0.555586
0.292186 0.684341 0.684341
0.291927 0.684082 0.811882
0.291669 0.683824 0.938415
0.291522 0.683677 1.000000
0.290976 0.810931 0.012912
0.290687 0.810642 0.154993
0.290411 0.810367 0.290411
0.290142 0.810097 0.422735
0.289877 0.809832 0.553015
0.289615 0.809570 0.681770
0.289355 0.809311 0.809311
0.289098 0.809053 0.935844
0.288950 0.808906 1.000000
0.288425 0.935171 0.010361
0.288136 0.934882 0.152442
0.287860 0.934606 0.287860
0.287591 0.934337 0.420184
0.287326 0.934072 0.550464
0.287064 0.933810 0.679219
0.286804 0.933550 0.806759
0.286547 0.933293 0.933293
0.286399 0.933145 1.000000
0.286964 1.000000 0.008900
0.286675 1.000000 0.150981
0.286399 1.000000 0.286399
0.286130 1.000000 0.418723
0.285865 1.000000 0.549002
0.285602 1.000000 0.677757
0.285343 1.000000 0.805298
0.285085 1.000000 0.931832
0.284938 1.000000 1.000000
0.438833 0.028175 0.028175
0.438544 0.027886 0.170256
0.438268 0.027611 0.305675
0.437999 0.027341 0.437999
0.437733 0.027076 0.568278
0.437471 0.026814 0.697033
0.437212 0.026555 0.824574
0.436954 0.026297 0.951107
0.436807 0.026149 1.000000
0.435968 0.167681 0.025311
0.435679 0.167392 0.167392
0.435403 0.167116 0.302810
0.435134 0.166847 0.435134
0.434869 0.166582 0.565414
0.434607 0.166320 0.694169
0.434347 0.166060 0.821710
0.434090 0.165803 0.948243
0.433942 0.165655 1.000000
0.433238 0.300645 0.022581
0.432949 0.300356 0.164662
0.432673 0.300080 0.300080
0.432404 0.299811 0.432404
0.432139 0.299546 0.562684
0.431877 0.299284 0.691439
0.431617 0.299024 0.818979
0.431359 0.298766 0.945513
0.431212 0.298619 1.000000
0.430570 0.430570 0.019913
0.430281 0.430281 0.161994
0.430005 0.430005 0.297412
0.429736 0.429736 0.429736
0.429471 0.429471 0.560016
0.429209 0.429209 0.688771
0.428949 0.428949 0.816312
0.428692 0.428692 0.942845
0.428544 0.428544 1.000000
0.427943 0.558488 0.017286
0.427654 0.558199 0.159367
0.427379 0.557923 0.294786
0.427109 0.557654 0.427109
0.426844 0.557389 0.557389
0.426582 0.557127 0.686144
0.426322 0.556867 0.813685
0.426065 0.556610 0.940218
0.425917 0.556462 1.000000
0.425347 0.684909 0.014690
0.425058 0.684620 0.156771
0.424783 0.684345 0.292190
0.424513 0.684075 0.424513
0.424248 0.683810 0.554793
0.423986 0.683548 0.683548
0.423727 0.683289 0.811089
0.423469 0.683031 0.937622
0.423321 0.682883 1.000000
0.422776 0.810138 0.012119
0.422487 0.809849 0.154200
0.422211 0.809574 0.289618
0.421942 0.809304 0.421942
0.421677 0.809039 0.552222
0.421415 0.808777 0.680977
0.421155 0.808517 0.808517
0.420898 0.808260 0.935051
0.420750 0.808112 1.000000
0.420225 0.934378 0.009568
0.419936 0.934089 0.151649
0.419660 0.933813 0.287067
0.419391 0.933544 0.419391
0.419126 0.933279 0.549671
0.418864 0.933017 0.678426
0.418604 0.932757 0.805966
0.418346 0.932500 0.932500
0.418199 0.932352 1.000000
0.418764 1.000000 0.008106
0.418475 1.000000 0.150187
0.418199 1.000000 0.285606
0.417930 1.000000 0.417930
0.417664 1.000000 0.548209
0.417402 1.000000 0.676964
0.417143 1.000000 0.804505
0.416885 1.000000 0.931038
0.416738 1.000000 1.000000
0.568597 0.027395 0.027395
0.568308 0.027105 0.169476
0.568032 0.026830 0.304894
0.567763 0.026561 0.437218
0.567498 0.026295 0.567498
0.567235 0.026033 0.696253
0.566976 0.025774 0.823793
0.566718 0.025516 0.950327
0.566571 0.025369 1.000000
0.565732 0.166900 0.024530
0.565443 0.166611 0.166611
0.565167 0.166335 0.302030
0.564898 0.166066 0.434353
0.564633 0.165801 0.564633
0.564371 0.165539 0.693388
0.564111 0.165279 0.820929
0.563854 0.165022 0.947462
0.563706 0.164874 1.000000
0.563002 0.299864 0.021800
0.562713 0.299575 0.163881
0.562437 0.299299 0.299299
0.562168 0.299030 0.431623
0.561903 0.298765 0.561903
0.561641 0.298503 0.690658
0.561381 0.298243 0.818199
0.561124 0.297986 0.944732
0.560976 0.297838 1.000000
0.560334 0.429789 0.019132
0.560045 0.429500 0.161213
0.559769 0.429224 0.296631
0.559500 0.428955 0.428955
0.559235 0.428690 0.559235
0.558973 0.428428 0.687990
0.558713 0.428168 0.815531
0.558456 0.427911 0.942064
0.558308 0.427763 1.000000
0.557707 0.557707 0.016505
0.557418 0.557418 0.158586
0.557143 0.557143 0.294005
0.556873 0.556873 0.426328
0.556608 0.556608 0.556608
0.556346 0.556346 0.685363
0.556087 0.556087 0.812904
0.555829 0.555829 0.939437
0.555681 0.555681 1.000000
0.555112 0.684129 0.013909
0.554822 0.683839 0.155990
0.554547 0.683564 0.291409
0.554277 0.683295 0.423733
0.554012 0.683029 0.554012
0.553750 0.682767 0.682767
0.553491 0.682508 0.810308
0.553233 0.682250 0.936841
0.553086 0.682103 1.000000
0.552540 0.809358 0.011338
0.552251 0.809068 0.153419
0.551975 0.808793 0.288837
0.551706 0.808524 0.421161
0.551441 0.808258 0.551441
0.551179 0.807996 0.680196
0.550919 0.807737 0.807737
0.550662 0.807479 0.934270
0.550514 0.807332 1.000000
0.549989 0.933597 0.008787
0.549700 0.933308 0.150868
0.549424 0.933033 0.286286
0.549155 0.932763 0.418610
0.548890 0.932498 0.548890
0.548628 0.932236 0.677645
0.548368 0.931976 0.805186
0.548111 0.931719 0.931719
0.547963 0.931571 1.000000
0.548528 1.000000 0.007326
0.548239 1.000000 0.149407
0.547963 1.000000 0.284825
0.547694 1.000000 0.417149
0.547429 1.000000 0.547429
0.547167 1.000000 0.676184
0.546907 1.000000 0.803724
0.546649 1.000000 0.930258
0.546502 1.000000 1.000000
0.696842 0.026623 0.026623
0.696553 0.026334 0.168704
0.696277 0.026058 0.304123
0.696008 0.025789 0.436446
0.695743 0.025524 0.566726
0.695481 0.025262 0.695481
0.695221 0.025002 0.823022
0.694964 0.024745 0.949555
0.694816 0.024597 1.000000
0.693978 0.166129 0.023758
0.693689 0.165839 0.165839
0.693413 0.165564 0.301258
0.693144 0.165294 0.433582
0.692878 0.165029 0.563861
0.692616 0.164767 0.692616
0.692357 0.164508 0.820157
0.692099 0.164250 0.946690
0.691952 0.164103 1.000000
0.691247 0.299092 0.021028
0.690958 0.298803 0.163109
0.690683 0.298528 0.298528
0.690413 0.298258 0.430851
0.690148 0.297993 0.561131
0.689886 0.297731 0.689886
0.689626 0.297472 0.817427
0.689369 0.297214 0.943960
0.689221 0.297066 1.000000
0.688580 0.429018 0.018360
0.688290 0.428728 0.160441
0.688015 0.428453 0.295860
0.687745 0.428183 0.428183
0.687480 0.427918 0.558463
0.687218 0.427656 0.687218
0.686959 0.427397 0.814759
0.686701 0.427139 0.941292
0.686554 0.426992 1.000000
0.685953 0.556936 0.015734
0.685664 0.556647 0.157815
0.685388 0.556371 0.293233
0.685119 0.556102 0.425557
0.684854 0.555837 0.555837
0.684592 0.555574 0.684592
0.684332 0.555315 0.812132
0.684074 0.555057 0.938666
0.683927 0.554910 1.000000
0.683357 0.683357 0.013138
0.683068 0.683068 0.155219
0.682792 0.682792 0.290637
0.682523 0.682523 0.422961
0.682258 0.682258 0.553241
0.681996 0.681996 0.681996
0.681736 0.681736 0.809536
0.681479 0.681479 0.936070
0.681331 0.681331 1.000000
0.680786 0.808586 0.010566
0.680496 0.808297 0.152647
0.680221 0.808021 0.288066
0.679951 0.807752 0.420389
0.679686 0.807487 0.550669
0.679424 0.807225 0.679424
0.679165 0.806965 0.806965
0.678907 0.806708 0.933498
0.678760 0.806560 1.000000
0.678234 0.932826 0.008015
0.677945 0.932536 0.150096
0.677670 0.932261 0.285515
0.677400 0.931992 0.417838
0.677135 0.931726 0.548118
0.676873 0.931464 0.676873
0.676613 0.931205 0.804414
0.676356 0.930947 0.930947
0.676208 0.930800 1.000000
0.676773 1.000000 0.006554
0.676484 1.000000 0.148635
0.676208 1.000000 0.284054
0.675939 1.000000 0.416377
0.675674 1.000000 0.546657
0.675412 1.000000 0.675412
0.675152 1.000000 0.802953
0.674895 1.000000 0.929486
0.674747 1.000000 1.000000
0.823878 0.025859 0.025859
0.823589 0.025569 0.167940
0.823314 0.025294 0.303358
0.823044 0.025025 0.435682
0.822779 0.024759 0.565962
0.822517 0.024497 0.694717
0.822257 0.024238 0.822257
0.822000 0.023980 0.948791
0.821852 0.023833 1.000000
0.821014 0.165364 0.022994
0.820725 0.165075 0.165075
0.820449 0.164799 0.300494
0.820180 0.164530 0.432817
0.819914 0.164265 0.563097
0.819652 0.164003 0.691852
0.819393 0.163743 0.819393
0.819135 0.163486 0.945926
0.818988 0.163338 1.000000
0.818283 0.298328 0.020264
0.817994 0.298039 0.162345
0.817719 0.297763 0.297763
0.817449 0.297494 0.430087
0.817184 0.297229 0.560367
0.816922 0.296967 0.689122
0.816663 0.296707 0.816663
0.816405 0.296450 0.943196
0.816257 0.296302 1.000000
0.815616 0.428253 0.017596
0.815326 0.427964 0.159677
0.815051 0.427688 0.295095
0.814781 0.427419 0.427419
0.814516 0.427154 0.557699
0.814254 0.426892 0.686454
0.813995 0.426632 0.813995
0.813737 0.426375 0.940528
0.813590 0.426227 1.000000
0.812989 0.556171 0.014969
0.812700 0.555882 0.157050
0.812424 0.555607 0.292469
0.812155 0.555337 0.424792
0.811890 0.555072 0.555072
0.811628 0.554810 0.683827
0.811368 0.554550 0.811368
0.811110 0.554293 0.937901
0.810963 0.554145 1.000000
0.810393 0.682593 0.012373
0.810104 0.682303 0.154454
0.809828 0.682028 0.289873
0.809559 0.681758 0.422196
0.809294 0.681493 0.552476
0.809032 0.681231 0.681231
0.808772 0.680972 0.808772
0.808515 0.680714 0.935305
0.808367 0.680567 1.000000
0.807822 0.807822 0.009802
0.807532 0.807532 0.151883
0.807257 0.807257 0.287301
0.806987 0.806987 0.419625
0.806722 0.806722 0.549905
0.806460 0.806460 0.678660
0.806201 0.806201 0.806201
0.805943 0.805943 0.932734
0.805796 0.805796 1.000000
0.805270 0.932061 0.007251
0.804981 0.931772 0.149332
0.804706 0.931496 0.284750
0.804436 0.931227 0.417074
0.804171 0.930962 0.547354
0.803909 0.930700 0.676109
0.803650 0.930440 0.803650
0.803392 0.930183 0.930183
0.803244 0.930035 1.000000
0.803809 1.000000 0.005790
0.803520 1.000000 0.147871
0.803245 1.000000 0.283289
0.802975 1.000000 0.415613
0.802710 1.000000 0.545893
0.802448 1.000000 0.674648
0.802188 1.000000 0.802188
0.801931 1.000000 0.928722
0.801783 1.000000 1.000000
0.949911 0.025100 0.025100
0.949622 0.024811 0.167181
0.949346 0.024535 0.302600
0.949077 0.024266 0.434923
0.948811 0.024001 0.565203
0.948549 0.023739 0.693958
0.948290 0.023479 0.821499
0.948032 0.023222 0.948032
0.947885 0.023074 1.000000
0.947046 0.164606 0.022236
0.946757 0.164317 0.164317
0.946481 0.164041 0.299735
0.946212 0.163772 0.432059
0.945947 0.163507 0.562339
0.945685 0.163245 0.691094
0.945425 0.162985 0.818634
0.945168 0.162727 0.945168
0.945020 0.162580 1.000000
0.944316 0.297570 0.019505
0.944027 0.297281 0.161586
0.943751 0.297005 0.297005
0.943482 0.296736 0.429329
0.943217 0.296470 0.559608
0.942955 0.296208 0.688363
0.942695 0.295949 0.815904
0.942437 0.295691 0.942437
0.942290 0.295544 1.000000
0.941648 0.427495 0.016838
0.941359 0.427206 0.158919
0.941083 0.426930 0.294337
0.940814 0.426661 0.426661
0.940549 0.426396 0.556940
0.940287 0.426133 0.685695
0.940027 0.425874 0.813236
0.939770 0.425616 0.939770
0.939622 0.425469 1.000000
0.939021 0.555413 0.014211
0.938732 0.555124 0.156292
0.938457 0.554848 0.291710
0.938187 0.554579 0.424034
0.937922 0.554314 0.554314
0.937660 0.554052 0.683069
0.937400 0.553792 0.810610
0.937143 0.553535 0.937143
0.936995 0.553387 1.000000
0.936425 0.681834 0.011615
0.936136 0.681545 0.153696
0.935861 0.681269 0.289114
0.935591 0.681000 0.421438
0.935326 0.680735 0.551718
0.935064 0.680473 0.680473
0.934805 0.680213 0.808014
0.934547 0.679956 0.934547
0.934400 0.679808 1.000000
0.933854 0.807063 0.009044
0.933565 0.806774 0.151125
0.933289 0.806498 0.286543
0.933020 0.806229 0.418867
0.932755 0.805964 0.549146
0.932493 0.805702 0.677901
0.932233 0.805442 0.805442
0.931976 0.805185 0.931976
0.931828 0.805037 1.000000
0.931303 0.931303 0.006492
0.931014 0.931014 0.148573
0.930738 0.930738 0.283992
0.930469 0.930469 0.416316
0.930204 0.930204 0.546595
0.929942 0.929942 0.675350
0.929682 0.929682 0.802891
0.929424 0.929424 0.929424
0.929277 0.929277 1.000000
0.929842 1.000000 0.005031
0.929553 1.000000 0.147112
0.929277 1.000000 0.282531
0.929008 1.000000 0.414854
0.928742 1.000000 0.545134
0.928480 1.000000 0.673889
0.928221 1.000000 0.801430
0.927963 1.000000 0.927963
0.927816 1.000000 1.000000
1.000000 0.024666 0.024666
1.000000 0.024377 0.166747
1.000000 0.024101 0.302165
1.000000 0.023832 0.434489
1.000000 0.023567 0.564769
1.000000 0.023305 0.693524
1.000000 0.023045 0.821065
1.000000 0.022787 0.947598
1.000000 0.022640 1.000000
1.000000 0.164172 0.021801
1.000000 0.163882 0.163882
1.000000 0.163607 0.299301
1.000000 0.163337 0.431624
1.000000 0.163072 0.561904
1.000000 0.162810 0.690659
1.000000 0.162551 0.818200
1.000000 0.162293 0.944733
1.000000 0.162146 1.000000
1.000000 0.297135 0.019071
1.000000 0.296846 0.161152
1.000000 0.296571 0.296571
1.000000 0.296301 0.428894
1.000000 0.296036 0.559174
1.000000 0.295774 0.687929
1.000000 0.295514 0.815470
1.000000 0.295257 0.942003
1.000000 0.295109 1.000000
1.000000 0.427060 0.016403
1.000000 0.426771 0.158484
1.000000 0.426496 0.293903
1.000000 0.426226 0.426226
1.000000 0.425961 0.556506
1.000000 0.425699 0.685261
1.000000 0.425440 0.812802
1.000000 0.425182 0.939335
1.000000 0.425035 1.000000
1.000000 0.554979 0.013777
1.000000 0.554690 0.155858
1.000000 0.554414 0.291276
1.000000 0.554145 0.423600
1.000000 0.553879 0.553879
1.000000 0.553617 0.682634
1.000000 0.553358 0.810175
1.000000 0.553100 0.936709
1.000000 0.552953 1.000000
1.000000 0.681400 0.011181
1.000000 0.681111 0.153262
1.000000 0.680835 0.288680
1.000000 0.680566 0.421004
1.000000 0.680301 0.551284
1.000000 0.680039 0.680039
1.000000 0.679779 0.807579
1.000000 0.679521 0.934113
1.000000 0.679374 1.000000
1.000000 0.806629 0.008609
1.000000 0.806340 0.150690
1.000000 0.806064 0.286109
1.000000 0.805795 0.418432
1.000000 0.805530 0.548712
1.000000 0.805268 0.677467
1.000000 0.805008 0.805008
1.000000 0.804750 0.931541
1.000000 0.804603 1.000000
1.000000 0.930869 0.006058
1.000000 0.930579 0.148139
1.000000 0.930304 0.283558
1.000000 0.930034 0.415881
1.000000 0.929769 0.546161
1.000000 0.929507 0.674916
1.000000 0.929248 0.802457
1.000000 0.928990 0.928990
1.000000 0.928843 1.000000
1.000000 1.000000 0.004597
1.000000 1.000000 0.146678
1.000000 1.000000 0.282096
1.000000 1.000000 0.414420
1.000000 1.000000 0.544700
1.000000 1.000000 0.673455
1.000000 1.000000 0.800996
1.000000 1.000000 0.927529
1.000000 1.000000 1.000000
