skills/editops-orchestrator/assets/grade/luts/clean_bright_v17.cube
TITLE "clean_bright_v17"
LUT_3D_SIZE 17
DOMAIN_MIN 0.0 0.0 0.0
DOMAIN_MAX 1.0 1.0 1.0
0.041073 0.041073 0.041073
0.040852 0.040852 0.116451
0.040641 0.040641 0.188516
0.040436 0.040436 0.258769
0.040234 0.040234 0.327773
0.040035 0.040035 0.395825
0.039838 0.039838 0.463110
0.039643 0.039643 0.529753
0.039450 0.039450 0.595846
0.039258 0.039258 0.661457
0.039067 0.039067 0.726641
0.038877 0.038877 0.791439
0.038689 0.038689 0.855889
0.038501 0.038501 0.920019
0.038314 0.038314 0.983855
0.038158 0.038158 1.000000
0.038158 0.038158 1.000000
0.038888 0.114487 0.038888
0.038668 0.114267 0.114267
0.038457 0.114056 0.186332
0.038251 0.113850 0.256585
0.038049 0.113649 0.325588
0.037850 0.113449 0.393640
0.037653 0.113253 0.460925
0.037458 0.113058 0.527568
0.037265 0.112864 0.593661
0.037073 0.112672 0.659273
0.036882 0.112482 0.724456
0.036693 0.112292 0.789255
0.036504 0.112103 0.853704
0.036317 0.111916 0.917834
0.036130 0.111729 0.981670
0.035973 0.111572 1.000000
0.035973 0.111572 1.000000
0.036800 0.184674 0.036800
0.036579 0.184454 0.112178
0.036368 0.184243 0.184243
0.036163 0.184038 0.254496
0.035961 0.183836 0.323500
0.035762 0.183637 0.391552
0.035565 0.183440 0.458836
0.035370 0.183245 0.525480
0.035177 0.183051 0.591573
0.034985 0.182859 0.657184
0.034794 0.182669 0.722367
0.034604 0.182479 0.787166
0.034416 0.182291 0.851616
0.034228 0.182103 0.915746
0.034041 0.181916 0.979582
0.033884 0.181759 1.000000
0.033884 0.181759 1.000000
0.034764 0.253097 0.034764
0.034543 0.252877 0.110142
0.034332 0.252666 0.182207
0.034127 0.252460 0.252460
0.033925 0.252258 0.321464
0.033726 0.252059 0.389516
0.033529 0.251862 0.456800
0.033334 0.251667 0.523444
0.033140 0.251474 0.589537
0.032949 0.251282 0.655148
0.032758 0.251091 0.720331
0.032568 0.250902 0.785130
0.032380 0.250713 0.849580
0.032192 0.250526 0.913710
0.032005 0.250339 0.977546
0.031848 0.250182 1.000000
0.031848 0.250182 1.000000
0.032764 0.320303 0.032764
0.032543 0.320082 0.108142
0.032332 0.319871 0.180207
0.032127 0.319666 0.250460
0.031925 0.319464 0.319464
0.031726 0.319265 0.387516
0.031529 0.319068 0.454801
0.031334 0.318873 0.521444
0.031141 0.318680 0.587537
0.030949 0.318488 0.653148
0.030758 0.318297 0.718332
0.030568 0.318107 0.783130
0.030380 0.317919 0.847580
0.030192 0.317731 0.911710
0.030005 0.317544 0.975546
0.029849 0.317388 1.000000
0.029849 0.317388 1.000000
0.030791 0.386581 0.030791
0.030571 0.386361 0.106170
0.030360 0.386150 0.178235
0.030155 0.385944 0.248488
0.029953 0.385743 0.317492
0.029754 0.385543 0.385543
0.029557 0.385347 0.452828
0.029362 0.385152 0.519472
0.029168 0.384958 0.585565
0.028976 0.384766 0.651176
0.028786 0.384576 0.716359
0.028596 0.384386 0.781158
0.028408 0.384197 0.845608
0.028220 0.384010 0.909738
0.028033 0.383823 0.973573
0.027876 0.383666 1.000000
0.027876 0.383666 1.000000
0.028841 0.452113 0.028841
0.028621 0.451893 0.104220
0.028410 0.451682 0.176285
0.028205 0.451476 0.246538
0.028003 0.451274 0.315542
0.027804 0.451075 0.383593
0.027607 0.450878 0.450878
0.027412 0.450683 0.517522
0.027218 0.450490 0.583615
0.027026 0.450298 0.649226
0.026836 0.450107 0.714409
0.026646 0.449918 0.779208
0.026458 0.449729 0.843658
0.026270 0.449541 0.907788
0.026083 0.449355 0.971623
0.025926 0.449198 1.000000
0.025926 0.449198 1.000000
0.026910 0.517020 0.026910
0.026690 0.516799 0.102289
0.026479 0.516589 0.174353
0.026273 0.516383 0.244607
0.026071 0.516181 0.313610
0.025872 0.515982 0.381662
0.025675 0.515785 0.448947
0.025480 0.515590 0.515590
0.025287 0.515397 0.581683
0.025095 0.515205 0.647294
0.024904 0.515014 0.712478
0.024715 0.514825 0.777277
0.024526 0.514636 0.841726
0.024339 0.514448 0.905856
0.024152 0.514262 0.969692
0.023995 0.514105 1.000000
0.023995 0.514105 1.000000
0.024995 0.581391 0.024995
0.024774 0.581170 0.100373
0.024563 0.580959 0.172438
0.024358 0.580754 0.242691
0.024156 0.580552 0.311695
0.023957 0.580353 0.379747
0.023760 0.580156 0.447031
0.023565 0.579961 0.513675
0.023371 0.579768 0.579768
0.023180 0.579576 0.645379
0.022989 0.579385 0.710562
0.022799 0.579196 0.775361
0.022611 0.579007 0.839811
0.022423 0.578819 0.903941
0.022236 0.578633 0.967777
0.022079 0.578476 1.000000
0.022079 0.578476 1.000000
0.023093 0.645293 0.023093
0.022873 0.645072 0.098472
0.022662 0.644861 0.170537
0.022456 0.644656 0.240790
0.022254 0.644454 0.309793
0.022055 0.644255 0.377845
0.021858 0.644058 0.445130
0.021663 0.643863 0.511773
0.021470 0.643669 0.577866
0.021278 0.643477 0.643477
0.021087 0.643287 0.708661
0.020898 0.643097 0.773460
0.020709 0.642909 0.837909
0.020522 0.642721 0.902039
0.020335 0.642534 0.965875
0.020178 0.642377 1.000000
0.020178 0.642377 1.000000
0.021204 0.708778 0.021204
0.020983 0.708557 0.096583
0.020773 0.708346 0.168647
0.020567 0.708141 0.238901
0.020365 0.707939 0.307904
0.020166 0.707740 0.375956
0.019969 0.707543 0.443241
0.019774 0.707348 0.509884
0.019581 0.707154 0.575977
0.019389 0.706962 0.641588
0.019198 0.706772 0.706772
0.019009 0.706582 0.771570
0.018820 0.706394 0.836020
0.018632 0.706206 0.900150
0.018446 0.706019 0.963986
0.018289 0.705862 1.000000
0.018289 0.705862 1.000000
0.019326 0.771888 0.019326
0.019105 0.771667 0.094705
0.018895 0.771456 0.166769
0.018689 0.771251 0.237023
0.018487 0.771049 0.306026
0.018288 0.770850 0.374078
0.018091 0.770653 0.441363
0.017896 0.770458 0.508006
0.017703 0.770265 0.574099
0.017511 0.770073 0.639710
0.017320 0.769882 0.704894
0.017131 0.769693 0.769693
0.016942 0.769504 0.834142
0.016754 0.769316 0.898272
0.016568 0.769130 0.962108
0.016411 0.768973 1.000000
0.016411 0.768973 1.000000
0.017458 0.834658 0.017458
0.017238 0.834438 0.092837
0.017027 0.834227 0.164902
0.016821 0.834021 0.235155
0.016619 0.833819 0.304158
0.016420 0.833620 0.372210
0.016223 0.833423 0.439495
0.016028 0.833228 0.506138
0.015835 0.833035 0.572231
0.015643 0.832843 0.637843
0.015452 0.832652 0.703026
0.015263 0.832463 0.767825
0.015074 0.832274 0.832274
0.014887 0.832087 0.896404
0.014700 0.831900 0.960240
0.014543 0.831743 1.000000
0.014543 0.831743 1.000000
0.015600 0.897117 0.015600
0.015379 0.896897 0.090978
0.015168 0.896686 0.163043
0.014963 0.896480 0.233296
0.014761 0.896279 0.302300
0.014562 0.896079 0.370352
0.014365 0.895883 0.437636
0.014170 0.895688 0.504280
0.013976 0.895494 0.570373
0.013784 0.895302 0.635984
0.013594 0.895112 0.701167
0.013404 0.894922 0.765966
0.013216 0.894733 0.830416
0.013028 0.894546 0.894546
0.012841 0.894359 0.958382
0.012684 0.894202 1.000000
0.012684 0.894202 1.000000
0.013749 0.959290 0.013749
0.013529 0.959069 0.089128
0.013318 0.958858 0.161193
0.013113 0.958653 0.231446
0.012911 0.958451 0.300450
0.012712 0.958252 0.368501
0.012515 0.958055 0.435786
0.012320 0.957860 0.502430
0.012126 0.957667 0.568523
0.011934 0.957475 0.634134
0.011744 0.957284 0.699317
0.011554 0.957094 0.764116
0.011366 0.956906 0.828566
0.011178 0.956718 0.892696
0.010991 0.956531 0.956531
0.010834 0.956375 1.000000
0.010834 0.956375 1.000000
0.012196 1.000000 0.012196
0.011975 1.000000 0.087575
0.011765 1.000000 0.159639
0.011559 1.000000 0.229892
0.011357 1.000000 0.298896
0.011158 1.000000 0.366948
0.010961 1.000000 0.434233
0.010766 1.000000 0.500876
0.010573 1.000000 0.566969
0.010381 1.000000 0.632580
0.010190 1.000000 0.697764
0.010001 1.000000 0.762562
0.009812 1.000000 0.827012
0.009624 1.000000 0.891142
0.009438 1.000000 0.954978
0.009281 1.000000 1.000000
0.009281 1.000000 1.000000
0.012196 1.000000 0.012196
0.011975 1.000000 0.087575
0.011765 1.000000 0.159639
0.011559 1.000000 0.229892
0.011357 1.000000 0.298896
0.011158 1.000000 0.366948
0.010961 1.000000 0.434233
0.010766 1.000000 0.500876
0.010573 1.000000 0.566969
0.010381 1.000000 0.632580
0.010190 1.000000 0.697764
0.010001 1.000000 0.762562
0.009812 1.000000 0.827012
0.009624 1.000000 0.891142
0.009438 1.000000 0.954978
0.009281 1.000000 1.000000
0.009281 1.000000 1.000000
0.116023 0.040423 0.040423
0.115802 0.040203 0.115802
0.115591 0.039992 0.187867
0.115386 0.039786 0.258120
0.115184 0.039585 0.327123
0.114985 0.039385 0.395175
0.114788 0.039189 0.462460
0.114593 0.038994 0.529104
0.114399 0.038800 0.595197
0.114207 0.038608 0.660808
0.114017 0.038418 0.725991
0.113827 0.038228 0.790790
0.113639 0.038039 0.855239
0.113451 0.037852 0.919370
0.113264 0.037665 0.983205
0.113107 0.037508 1.000000
0.113107 0.037508 1.000000
0.113838 0.113838 0.038239
0.113617 0.113617 0.113617
0.113407 0.113407 0.185682
0.113201 0.113201 0.255935
0.112999 0.112999 0.324939
0.112800 0.112800 0.392991
0.112603 0.112603 0.460276
0.112408 0.112408 0.526919
0.112215 0.112215 0.593012
0.112023 0.112023 0.658623
0.111832 0.111832 0.723807
0.111643 0.111643 0.788605
0.111454 0.111454 0.853055
0.111266 0.111266 0.917185
0.111080 0.111080 0.981021
0.110923 0.110923 1.000000
0.110923 0.110923 1.000000
0.111749 0.184025 0.036150
0.111529 0.183805 0.111529
0.111318 0.183594 0.183594
0.111112 0.183388 0.253847
0.110911 0.183186 0.322850
0.110711 0.182987 0.390902
0.110515 0.182790 0.458187
0.110320 0.182595 0.524830
0.110126 0.182402 0.590923
0.109934 0.182210 0.656535
0.109744 0.182019 0.721718
0.109554 0.181830 0.786517
0.109365 0.181641 0.850966
0.109178 0.181454 0.915096
0.108991 0.181267 0.978932
0.108834 0.181110 1.000000
0.108834 0.181110 1.000000
0.109713 0.252448 0.034114
0.109493 0.252227 0.109493
0.109282 0.252016 0.181558
0.109076 0.251811 0.251811
0.108875 0.251609 0.320814
0.108675 0.251410 0.388866
0.108479 0.251213 0.456151
0.108284 0.251018 0.522794
0.108090 0.250825 0.588887
0.107898 0.250633 0.654499
0.107708 0.250442 0.719682
0.107518 0.250252 0.784481
0.107329 0.250064 0.848930
0.107142 0.249876 0.913060
0.106955 0.249689 0.976896
0.106798 0.249533 1.000000
0.106798 0.249533 1.000000
0.107714 0.319653 0.032114
0.107493 0.319433 0.107493
0.107282 0.319222 0.179558
0.107077 0.319016 0.249811
0.106875 0.318814 0.318814
0.106676 0.318615 0.386866
0.106479 0.318419 0.454151
0.106284 0.318224 0.520795
0.106090 0.318030 0.586888
0.105898 0.317838 0.652499
0.105708 0.317647 0.717682
0.105518 0.317458 0.782481
0.105330 0.317269 0.846930
0.105142 0.317082 0.911061
0.104955 0.316895 0.974896
0.104798 0.316738 1.000000
0.104798 0.316738 1.000000
0.105741 0.385932 0.030142
0.105521 0.385711 0.105521
0.105310 0.385501 0.177586
0.105104 0.385295 0.247839
0.104902 0.385093 0.316842
0.104703 0.384894 0.384894
0.104507 0.384697 0.452179
0.104312 0.384502 0.518822
0.104118 0.384309 0.584915
0.103926 0.384117 0.650527
0.103735 0.383926 0.715710
0.103546 0.383737 0.780509
0.103357 0.383548 0.844958
0.103170 0.383360 0.909088
0.102983 0.383174 0.972924
0.102826 0.383017 1.000000
0.102826 0.383017 1.000000
0.103791 0.451464 0.028192
0.103571 0.451243 0.103571
0.103360 0.451032 0.175636
0.103154 0.450827 0.245889
0.102952 0.450625 0.314892
0.102753 0.450426 0.382944
0.102556 0.450229 0.450229
0.102362 0.450034 0.516872
0.102168 0.449841 0.582965
0.101976 0.449649 0.648577
0.101785 0.449458 0.713760
0.101596 0.449268 0.778559
0.101407 0.449080 0.843008
0.101220 0.448892 0.907138
0.101033 0.448705 0.970974
0.100876 0.448549 1.000000
0.100876 0.448549 1.000000
0.101860 0.516371 0.026261
0.101639 0.516150 0.101639
0.101428 0.515939 0.173704
0.101223 0.515734 0.243957
0.101021 0.515532 0.312961
0.100822 0.515333 0.381013
0.100625 0.515136 0.448297
0.100430 0.514941 0.514941
0.100237 0.514748 0.581034
0.100045 0.514556 0.646645
0.099854 0.514365 0.711828
0.099664 0.514175 0.776627
0.099476 0.513987 0.841077
0.099288 0.513799 0.905207
0.099102 0.513612 0.969043
0.098945 0.513455 1.000000
0.098945 0.513455 1.000000
0.099944 0.580741 0.024345
0.099724 0.580521 0.099724
0.099513 0.580310 0.171789
0.099307 0.580105 0.242042
0.099106 0.579903 0.311045
0.098906 0.579704 0.379097
0.098710 0.579507 0.446382
0.098515 0.579312 0.513025
0.098321 0.579118 0.579118
0.098129 0.578926 0.644730
0.097939 0.578736 0.709913
0.097749 0.578546 0.774712
0.097560 0.578358 0.839161
0.097373 0.578170 0.903291
0.097186 0.577983 0.967127
0.097029 0.577826 1.000000
0.097029 0.577826 1.000000
0.098043 0.644643 0.022444
0.097822 0.644423 0.097822
0.097611 0.644212 0.169887
0.097406 0.644006 0.240140
0.097204 0.643804 0.309144
0.097005 0.643605 0.377196
0.096808 0.643408 0.444480
0.096613 0.643213 0.511124
0.096420 0.643020 0.577217
0.096228 0.642828 0.642828
0.096037 0.642637 0.708011
0.095847 0.642448 0.772810
0.095659 0.642259 0.837260
0.095471 0.642072 0.901390
0.095285 0.641885 0.965226
0.095128 0.641728 1.000000
0.095128 0.641728 1.000000
0.096154 0.708128 0.020555
0.095933 0.707908 0.095933
0.095722 0.707697 0.167998
0.095517 0.707491 0.238251
0.095315 0.707289 0.307255
0.095116 0.707090 0.375307
0.094919 0.706893 0.442591
0.094724 0.706698 0.509235
0.094531 0.706505 0.575328
0.094339 0.706313 0.640939
0.094148 0.706122 0.706122
0.093958 0.705933 0.770921
0.093770 0.705744 0.835371
0.093582 0.705557 0.899501
0.093395 0.705370 0.963337
0.093239 0.705213 1.000000
0.093239 0.705213 1.000000
0.094276 0.771238 0.018677
0.094055 0.771018 0.094055
0.093844 0.770807 0.166120
0.093639 0.770602 0.236373
0.093437 0.770400 0.305377
0.093238 0.770201 0.373429
0.093041 0.770004 0.440713
0.092846 0.769809 0.507357
0.092653 0.769615 0.573450
0.092461 0.769423 0.639061
0.092270 0.769233 0.704244
0.092080 0.769043 0.769043
0.091892 0.768855 0.833493
0.091704 0.768667 0.897623
0.091517 0.768480 0.961459
0.091361 0.768323 1.000000
0.091361 0.768323 1.000000
0.092408 0.834009 0.016809
0.092187 0.833788 0.092187
0.091977 0.833577 0.164252
0.091771 0.833372 0.234505
0.091569 0.833170 0.303509
0.091370 0.832971 0.371561
0.091173 0.832774 0.438846
0.090978 0.832579 0.505489
0.090785 0.832386 0.571582
0.090593 0.832194 0.637193
0.090402 0.832003 0.702377
0.090213 0.831813 0.767175
0.090024 0.831625 0.831625
0.089836 0.831437 0.895755
0.089650 0.831250 0.959591
0.089493 0.831094 1.000000
0.089493 0.831094 1.000000
0.090549 0.896468 0.014950
0.090329 0.896247 0.090329
0.090118 0.896037 0.162394
0.089912 0.895831 0.232647
0.089711 0.895629 0.301650
0.089511 0.895430 0.369702
0.089315 0.895233 0.436987
0.089120 0.895038 0.503630
0.088926 0.894845 0.569723
0.088734 0.894653 0.635335
0.088544 0.894462 0.700518
0.088354 0.894273 0.765317
0.088165 0.894084 0.829766
0.087978 0.893896 0.893896
0.087791 0.893710 0.957732
0.087634 0.893553 1.000000
0.087634 0.893553 1.000000
0.088699 0.958640 0.013100
0.088479 0.958420 0.088479
0.088268 0.958209 0.160544
0.088062 0.958003 0.230797
0.087860 0.957802 0.299800
0.087661 0.957602 0.367852
0.087465 0.957406 0.435137
0.087270 0.957211 0.501780
0.087076 0.957017 0.567873
0.086884 0.956825 0.633485
0.086693 0.956635 0.698668
0.086504 0.956445 0.763467
0.086315 0.956256 0.827916
0.086128 0.956069 0.892046
0.085941 0.955882 0.955882
0.085784 0.955725 1.000000
0.085784 0.955725 1.000000
0.087146 1.000000 0.011547
0.086925 1.000000 0.086925
0.086714 1.000000 0.158990
0.086509 1.000000 0.229243
0.086307 1.000000 0.298247
0.086108 1.000000 0.366298
0.085911 1.000000 0.433583
0.085716 1.000000 0.500227
0.085523 1.000000 0.566320
0.085331 1.000000 0.631931
0.085140 1.000000 0.697114
0.084950 1.000000 0.761913
0.084762 1.000000 0.826363
0.084574 1.000000 0.890493
0.084387 1.000000 0.954328
0.084231 1.000000 1.000000
0.084231 1.000000 1.000000
0.087146 1.000000 0.011547
0.086925 1.000000 0.086925
0.086714 1.000000 0.158990
0.086509 1.000000 0.229243
0.086307 1.000000 0.298247
0.086108 1.000000 0.366298
0.085911 1.000000 0.433583
0.085716 1.000000 0.500227
0.085523 1.000000 0.566320
0.085331 1.000000 0.631931
0.085140 1.000000 0.697114
0.084950 1.000000 0.761913
0.084762 1.000000 0.826363
0.084574 1.000000 0.890493
0.084387 1.000000 0.954328
0.084231 1.000000 1.000000
0.084231 1.000000 1.000000
0.187677 0.039803 0.039803
0.187457 0.039582 0.115181
0.187246 0.039371 0.187246
0.187040 0.039166 0.257499
0.186839 0.038964 0.326503
0.186639 0.038765 0.394554
0.186443 0.038568 0.461839
0.186248 0.038373 0.528483
0.186054 0.038179 0.594576
0.185862 0.037987 0.660187
0.185672 0.037797 0.725370
0.185482 0.037607 0.790169
0.185293 0.037419 0.854619
0.185106 0.037231 0.918749
0.184919 0.037044 0.982584
0.184762 0.036887 1.000000
0.184762 0.036887 1.000000
0.185493 0.113217 0.037618
0.185272 0.112997 0.112997
0.185061 0.112786 0.185061
0.184856 0.112580 0.255314
0.184654 0.112378 0.324318
0.184455 0.112179 0.392370
0.184258 0.111982 0.459655
0.184063 0.111787 0.526298
0.183870 0.111594 0.592391
0.183678 0.111402 0.658002
0.183487 0.111211 0.723186
0.183297 0.111022 0.787984
0.183109 0.110833 0.852434
0.182921 0.110646 0.916564
0.182734 0.110459 0.980400
0.182578 0.110302 1.000000
0.182578 0.110302 1.000000
0.183404 0.183404 0.035529
0.183184 0.183184 0.110908
0.182973 0.182973 0.182973
0.182767 0.182767 0.253226
0.182565 0.182565 0.322229
0.182366 0.182366 0.390281
0.182169 0.182169 0.457566
0.181974 0.181974 0.524210
0.181781 0.181781 0.590303
0.181589 0.181589 0.655914
0.181398 0.181398 0.721097
0.181209 0.181209 0.785896
0.181020 0.181020 0.850346
0.180833 0.180833 0.914476
0.180646 0.180646 0.978311
0.180489 0.180489 1.000000
0.180489 0.180489 1.000000
0.181368 0.251827 0.033493
0.181148 0.251606 0.108872
0.180937 0.251395 0.180937
0.180731 0.251190 0.251190
0.180529 0.250988 0.320193
0.180330 0.250789 0.388245
0.180133 0.250592 0.455530
0.179938 0.250397 0.522174
0.179745 0.250204 0.588267
0.179553 0.250012 0.653878
0.179362 0.249821 0.719061
0.179173 0.249631 0.783860
0.178984 0.249443 0.848309
0.178797 0.249255 0.912440
0.178610 0.249069 0.976275
0.178453 0.248912 1.000000
0.178453 0.248912 1.000000
0.179368 0.319032 0.031494
0.179148 0.318812 0.106872
0.178937 0.318601 0.178937
0.178731 0.318396 0.249190
0.178530 0.318194 0.318194
0.178330 0.317995 0.386245
0.178134 0.317798 0.453530
0.177939 0.317603 0.520174
0.177745 0.317409 0.586267
0.177553 0.317217 0.651878
0.177363 0.317027 0.717061
0.177173 0.316837 0.781860
0.176984 0.316649 0.846310
0.176797 0.316461 0.910440
0.176610 0.316274 0.974275
0.176453 0.316117 1.000000
0.176453 0.316117 1.000000
0.177396 0.385311 0.029521
0.177176 0.385091 0.104900
0.176965 0.384880 0.176965
0.176759 0.384674 0.247218
0.176557 0.384472 0.316221
0.176358 0.384273 0.384273
0.176161 0.384076 0.451558
0.175966 0.383881 0.518202
0.175773 0.383688 0.584294
0.175581 0.383496 0.649906
0.175390 0.383305 0.715089
0.175201 0.383116 0.779888
0.175012 0.382927 0.844337
0.174825 0.382740 0.908468
0.174638 0.382553 0.972303
0.174481 0.382396 1.000000
0.174481 0.382396 1.000000
0.175446 0.450843 0.027571
0.175226 0.450622 0.102950
0.175015 0.450411 0.175015
0.174809 0.450206 0.245268
0.174607 0.450004 0.314271
0.174408 0.449805 0.382323
0.174211 0.449608 0.449608
0.174016 0.449413 0.516251
0.173823 0.449220 0.582344
0.173631 0.449028 0.647956
0.173440 0.448837 0.713139
0.173251 0.448647 0.777938
0.173062 0.448459 0.842387
0.172875 0.448271 0.906517
0.172688 0.448085 0.970353
0.172531 0.447928 1.000000
0.172531 0.447928 1.000000
0.173515 0.515750 0.025640
0.173294 0.515529 0.101018
0.173083 0.515318 0.173083
0.172878 0.515113 0.243336
0.172676 0.514911 0.312340
0.172477 0.514712 0.380392
0.172280 0.514515 0.447677
0.172085 0.514320 0.514320
0.171892 0.514127 0.580413
0.171700 0.513935 0.646024
0.171509 0.513744 0.711208
0.171319 0.513554 0.776006
0.171131 0.513366 0.840456
0.170943 0.513178 0.904586
0.170756 0.512991 0.968422
0.170600 0.512835 1.000000
0.170600 0.512835 1.000000
0.171599 0.580121 0.023724
0.171379 0.579900 0.099103
0.171168 0.579689 0.171168
0.170962 0.579484 0.241421
0.170760 0.579282 0.310424
0.170561 0.579083 0.378476
0.170364 0.578886 0.445761
0.170169 0.578691 0.512405
0.169976 0.578498 0.578498
0.169784 0.578306 0.644109
0.169593 0.578115 0.709292
0.169404 0.577925 0.774091
0.169215 0.577737 0.838540
0.169028 0.577549 0.902671
0.168841 0.577362 0.966506
0.168684 0.577205 1.000000
0.168684 0.577205 1.000000
0.169698 0.644022 0.021823
0.169477 0.643802 0.097201
0.169266 0.643591 0.169266
0.169061 0.643385 0.239519
0.168859 0.643184 0.308523
0.168660 0.642984 0.376575
0.168463 0.642788 0.443860
0.168268 0.642593 0.510503
0.168075 0.642399 0.576596
0.167883 0.642207 0.642207
0.167692 0.642017 0.707391
0.167502 0.641827 0.772189
0.167314 0.641638 0.836639
0.167126 0.641451 0.900769
0.166939 0.641264 0.964605
0.166783 0.641107 1.000000
0.166783 0.641107 1.000000
0.167809 0.707507 0.019934
0.167588 0.707287 0.095312
0.167377 0.707076 0.167377
0.167172 0.706870 0.237630
0.166970 0.706668 0.306634
0.166771 0.706469 0.374686
0.166574 0.706273 0.441971
0.166379 0.706078 0.508614
0.166185 0.705884 0.574707
0.165993 0.705692 0.640318
0.165803 0.705502 0.705502
0.165613 0.705312 0.770300
0.165425 0.705123 0.834750
0.165237 0.704936 0.898880
0.165050 0.704749 0.962716
0.164893 0.704592 1.000000
0.164893 0.704592 1.000000
0.165931 0.770618 0.018056
0.165710 0.770397 0.093434
0.165499 0.770186 0.165499
0.165294 0.769981 0.235752
0.165092 0.769779 0.304756
0.164893 0.769580 0.372808
0.164696 0.769383 0.440093
0.164501 0.769188 0.506736
0.164307 0.768995 0.572829
0.164116 0.768803 0.638440
0.163925 0.768612 0.703624
0.163735 0.768422 0.768422
0.163547 0.768234 0.832872
0.163359 0.768046 0.897002
0.163172 0.767859 0.960838
0.163015 0.767703 1.000000
0.163015 0.767703 1.000000
0.164063 0.833388 0.016188
0.163842 0.833167 0.091567
0.163631 0.832957 0.163631
0.163426 0.832751 0.233884
0.163224 0.832549 0.302888
0.163025 0.832350 0.370940
0.162828 0.832153 0.438225
0.162633 0.831958 0.504868
0.162440 0.831765 0.570961
0.162248 0.831573 0.636572
0.162057 0.831382 0.701756
0.161867 0.831193 0.766554
0.161679 0.831004 0.831004
0.161491 0.830816 0.895134
0.161304 0.830630 0.958970
0.161148 0.830473 1.000000
0.161148 0.830473 1.000000
0.162204 0.895847 0.014329
0.161984 0.895627 0.089708
0.161773 0.895416 0.161773
0.161567 0.895210 0.232026
0.161365 0.895008 0.301029
0.161166 0.894809 0.369081
0.160969 0.894612 0.436366
0.160774 0.894417 0.503010
0.160581 0.894224 0.569103
0.160389 0.894032 0.634714
0.160198 0.893841 0.699897
0.160009 0.893652 0.764696
0.159820 0.893463 0.829145
0.159633 0.893276 0.893276
0.159446 0.893089 0.957111
0.159289 0.892932 1.000000
0.159289 0.892932 1.000000
0.160354 0.958020 0.012479
0.160134 0.957799 0.087858
0.159923 0.957588 0.159923
0.159717 0.957383 0.230176
0.159515 0.957181 0.299179
0.159316 0.956982 0.367231
0.159119 0.956785 0.434516
0.158924 0.956590 0.501160
0.158731 0.956396 0.567252
0.158539 0.956204 0.632864
0.158348 0.956014 0.698047
0.158159 0.955824 0.762846
0.157970 0.955636 0.827295
0.157783 0.955448 0.891426
0.157596 0.955261 0.955261
0.157439 0.955104 1.000000
0.157439 0.955104 1.000000
0.158801 1.000000 0.010926
0.158580 1.000000 0.086304
0.158369 1.000000 0.158369
0.158164 1.000000 0.228622
0.157962 1.000000 0.297626
0.157763 1.000000 0.365678
0.157566 1.000000 0.432962
0.157371 1.000000 0.499606
0.157177 1.000000 0.565699
0.156985 1.000000 0.631310
0.156795 1.000000 0.696493
0.156605 1.000000 0.761292
0.156417 1.000000 0.825742
0.156229 1.000000 0.889872
0.156042 1.000000 0.953708
0.155885 1.000000 1.000000
0.155885 1.000000 1.000000
0.158801 1.000000 0.010926
0.158580 1.000000 0.086304
0.158369 1.000000 0.158369
0.158164 1.000000 0.228622
0.157962 1.000000 0.297626
0.157763 1.000000 0.365678
0.157566 1.000000 0.432962
0.157371 1.000000 0.499606
0.157177 1.000000 0.565699
0.156985 1.000000 0.631310
0.156795 1.000000 0.696493
0.156605 1.000000 0.761292
0.156417 1.000000 0.825742
0.156229 1.000000 0.889872
0.156042 1.000000 0.953708
0.155885 1.000000 1.000000
0.155885 1.000000 1.000000
0.257531 0.039197 0.039197
0.257310 0.038977 0.114576
0.257099 0.038766 0.186641
0.256894 0.038560 0.256894
0.256692 0.038358 0.325897
0.256493 0.038159 0.393949
0.256296 0.037963 0.461234
0.256101 0.037768 0.527878
0.255908 0.037574 0.593970
0.255716 0.037382 0.659582
0.255525 0.037192 0.724765
0.255335 0.037002 0.789564
0.255147 0.036813 0.854013
0.254959 0.036626 0.918144
0.254772 0.036439 0.981979
0.254616 0.036282 1.000000
0.254616 0.036282 1.000000
0.255346 0.112612 0.037013
