skills/editops-orchestrator/assets/grade/luts/clean_bright_v03.cube
TITLE "clean_bright_v03"
LUT_3D_SIZE 5
DOMAIN_MIN 0.0 0.0 0.0
DOMAIN_MAX 1.0 1.0 1.0
0.014194 0.014194 0.014194
0.014096 0.014096 0.274326
0.014000 0.014000 0.526537
0.013906 0.013906 0.775523
0.013819 0.013819 1.000000
0.013220 0.273450 0.013220
0.013121 0.273351 0.273351
0.013026 0.273256 0.525562
0.012932 0.273162 0.774548
0.012845 0.273075 1.000000
0.012275 0.524811 0.012275
0.012176 0.524713 0.272406
0.012081 0.524617 0.524617
0.011987 0.524523 0.773603
0.011900 0.524437 1.000000
0.011342 0.772959 0.011342
0.011244 0.772860 0.271474
0.011148 0.772765 0.523685
0.011054 0.772671 0.772671
0.010968 0.772584 1.000000
0.010483 1.000000 0.010483
0.010385 1.000000 0.270615
0.010289 1.000000 0.522826
0.010195 1.000000 0.771812
0.010109 1.000000 1.000000
0.274134 0.013904 0.013904
0.274036 0.013806 0.274036
0.273941 0.013711 0.526247
0.273846 0.013616 0.775233
0.273760 0.013530 1.000000
0.273160 0.273160 0.012930
0.273061 0.273061 0.273061
0.272966 0.272966 0.525272
0.272872 0.272872 0.774259
0.272785 0.272785 1.000000
0.272215 0.524521 0.011985
0.272117 0.524423 0.272117
0.272021 0.524328 0.524328
0.271927 0.524234 0.773314
0.271840 0.524147 1.000000
0.271282 0.772669 0.011052
0.271184 0.772571 0.271184
0.271089 0.772475 0.523395
0.270995 0.772381 0.772381
0.270908 0.772294 1.000000
0.270424 1.000000 0.010194
0.270325 1.000000 0.270325
0.270230 1.000000 0.522536
0.270136 1.000000 0.771522
0.270049 1.000000 1.000000
0.526160 0.013623 0.013623
0.526061 0.013525 0.273755
0.525966 0.013430 0.525966
0.525872 0.013336 0.774952
0.525785 0.013249 1.000000
0.525185 0.272879 0.012649
0.525087 0.272781 0.272781
0.524992 0.272685 0.524992
0.524897 0.272591 0.773978
0.524811 0.272504 1.000000
0.524241 0.524241 0.011704
0.524142 0.524142 0.271836
0.524047 0.524047 0.524047
0.523953 0.523953 0.773033
0.523866 0.523866 1.000000
0.523308 0.772388 0.010772
0.523210 0.772290 0.270903
0.523114 0.772194 0.523114
0.523020 0.772100 0.772100
0.522933 0.772014 1.000000
0.522449 1.000000 0.009913
0.522351 1.000000 0.270044
0.522255 1.000000 0.522255
0.522161 1.000000 0.771241
0.522074 1.000000 1.000000
0.774963 0.013346 0.013346
0.774864 0.013248 0.273478
0.774769 0.013152 0.525689
0.774675 0.013058 0.774675
0.774588 0.012972 1.000000
0.773988 0.272602 0.012372
0.773890 0.272503 0.272503
0.773795 0.272408 0.524714
0.773700 0.272314 0.773700
0.773614 0.272227 1.000000
0.773044 0.523963 0.011427
0.772945 0.523865 0.271559
0.772850 0.523770 0.523770
0.772756 0.523675 0.772756
0.772669 0.523589 1.000000
0.772111 0.772111 0.010494
0.772013 0.772013 0.270626
0.771917 0.771917 0.522837
0.771823 0.771823 0.771823
0.771736 0.771736 1.000000
0.771252 1.000000 0.009635
0.771154 1.000000 0.269767
0.771058 1.000000 0.521978
0.770964 1.000000 0.770964
0.770877 1.000000 1.000000
1.000000 0.013091 0.013091
1.000000 0.012993 0.273223
1.000000 0.012897 0.525434
1.000000 0.012803 0.774420
1.000000 0.012716 1.000000
1.000000 0.272346 0.012116
1.000000 0.272248 0.272248
1.000000 0.272153 0.524459
1.000000 0.272059 0.773445
1.000000 0.271972 1.000000
1.000000 0.523708 0.011172
1.000000 0.523610 0.271303
1.000000 0.523514 0.523514
1.000000 0.523420 0.772500
1.000000 0.523333 1.000000
1.000000 0.771856 0.010239
1.000000 0.771757 0.270371
1.000000 0.771662 0.522582
1.000000 0.771568 0.771568
1.000000 0.771481 1.000000
1.000000 1.000000 0.009380
1.000000 1.000000 0.269512
1.000000 1.000000 0.521723
1.000000 1.000000 0.770709
1.000000 1.000000 1.000000
