skills/editops-orchestrator/assets/grade/luts/cool_tech_v19.cube
TITLE "cool_tech_v19"
LUT_3D_SIZE 9
DOMAIN_MIN 0.0 0.0 0.0
DOMAIN_MAX 1.0 1.0 1.0
0.000196 0.000196 0.032756
0.000873 0.000873 0.146111
0.001573 0.001573 0.263276
0.002285 0.002285 0.382471
0.003005 0.003005 0.503080
0.003732 0.003732 0.624778
0.004465 0.004465 0.747365
0.005202 0.005202 0.870704
0.005548 0.005548 0.928706
0.005722 0.098546 0.038282
0.006399 0.099223 0.151637
0.007099 0.099923 0.268802
0.007811 0.100635 0.387997
0.008531 0.101356 0.508606
0.009258 0.102083 0.630304
0.009991 0.102815 0.752891
0.010728 0.103552 0.876230
0.011074 0.103898 0.934232
0.012575 0.220518 0.045135
0.013252 0.221195 0.158490
0.013952 0.221895 0.275655
0.014664 0.222607 0.394851
0.015385 0.223328 0.515459
0.016112 0.224055 0.637157
0.016844 0.224787 0.759745
0.017581 0.225524 0.883083
0.017927 0.225870 0.941085
0.019580 0.345187 0.052140
0.020257 0.345865 0.165495
0.020957 0.346565 0.282660
0.021669 0.347277 0.401855
0.022389 0.347997 0.522464
0.023116 0.348724 0.644162
0.023849 0.349456 0.766749
0.024586 0.350193 0.890088
0.024932 0.350540 0.948090
0.026682 0.471584 0.059242
0.027359 0.472261 0.172597
0.028059 0.472961 0.289762
0.028771 0.473673 0.408957
0.029491 0.474394 0.529566
0.030218 0.475121 0.651264
0.030951 0.475853 0.773851
0.031687 0.476590 0.897190
0.032034 0.476936 0.955192
0.033855 0.599262 0.066416
0.034533 0.599939 0.179770
0.035233 0.600639 0.296936
0.035945 0.601351 0.416131
0.036665 0.602072 0.536740
0.037392 0.602799 0.658438
0.038124 0.603531 0.781025
0.038861 0.604268 0.904364
0.039208 0.604614 0.962366
0.041087 0.727963 0.073647
0.041764 0.728640 0.187002
0.042464 0.729340 0.304167
0.043176 0.730052 0.423363
0.043896 0.730772 0.543971
0.044623 0.731499 0.665669
0.045356 0.732232 0.788256
0.046093 0.732968 0.911595
0.046439 0.733315 0.969597
0.048366 0.857515 0.080926
0.049043 0.858192 0.194281
0.049743 0.858892 0.311446
0.050455 0.859604 0.430642
0.051176 0.860325 0.551250
0.051903 0.861052 0.672948
0.052635 0.861784 0.795536
0.053372 0.862521 0.918874
0.053718 0.862867 0.976876
0.055153 0.978311 0.087713
0.055830 0.978988 0.201068
0.056530 0.979688 0.318233
0.057242 0.980400 0.437429
0.057963 0.981121 0.558037
0.058690 0.981848 0.679736
0.059422 0.982580 0.802323
0.060159 0.983317 0.925662
0.060505 0.983663 0.983663
0.042473 0.000931 0.033491
0.043151 0.001608 0.146846
0.043851 0.002308 0.264011
0.044563 0.003020 0.383207
0.045283 0.003741 0.503815
0.046010 0.004468 0.625513
0.046742 0.005200 0.748100
0.047479 0.005937 0.871439
0.047826 0.006283 0.929441
0.048000 0.099281 0.039017
0.048677 0.099958 0.152372
0.049377 0.100658 0.269537
0.050089 0.101370 0.388733
0.050809 0.102091 0.509341
0.051536 0.102818 0.631039
0.052269 0.103550 0.753626
0.053005 0.104287 0.876965
0.053352 0.104634 0.934967
0.054853 0.221253 0.045870
0.055530 0.221930 0.159225
0.056230 0.222630 0.276390
0.056942 0.223342 0.395586
0.057662 0.224063 0.516194
0.058389 0.224790 0.637893
0.059122 0.225522 0.760480
0.059859 0.226259 0.883819
0.060205 0.226606 0.941820
0.061858 0.345923 0.052875
0.062535 0.346600 0.166230
0.063235 0.347300 0.283395
0.063947 0.348012 0.402591
0.064667 0.348732 0.523199
0.065394 0.349459 0.644897
0.066127 0.350192 0.767485
0.066863 0.350928 0.890823
0.067210 0.351275 0.948825
0.068959 0.472319 0.059977
0.069637 0.472996 0.173332
0.070337 0.473696 0.290497
0.071049 0.474408 0.409692
0.071769 0.475129 0.530301
0.072496 0.475856 0.651999
0.073228 0.476588 0.774586
0.073965 0.477325 0.897925
0.074312 0.477671 0.955927
0.076133 0.599997 0.067151
0.076810 0.600674 0.180506
0.077510 0.601374 0.297671
0.078222 0.602086 0.416866
0.078943 0.602807 0.537475
0.079670 0.603534 0.659173
0.080402 0.604266 0.781760
0.081139 0.605003 0.905099
0.081486 0.605350 0.963101
0.083365 0.728698 0.074382
0.084042 0.729375 0.187737
0.084742 0.730075 0.304902
0.085454 0.730787 0.424098
0.086174 0.731507 0.544706
0.086901 0.732234 0.666404
0.087634 0.732967 0.788992
0.088370 0.733704 0.912330
0.088717 0.734050 0.970332
0.090644 0.858250 0.081661
0.091321 0.858927 0.195016
0.092021 0.859627 0.312181
0.092733 0.860339 0.431377
0.093453 0.861060 0.551985
0.094180 0.861787 0.673684
0.094913 0.862519 0.796271
0.095650 0.863256 0.919610
0.095996 0.863602 0.977611
0.097431 0.979046 0.088449
0.098108 0.979723 0.201803
0.098808 0.980423 0.318968
0.099520 0.981135 0.438164
0.100241 0.981856 0.558773
0.100968 0.982583 0.680471
0.101700 0.983315 0.803058
0.102437 0.984052 0.926397
0.102783 0.984399 0.984399
0.157631 0.002933 0.035494
0.158308 0.003610 0.148848
0.159008 0.004310 0.266013
0.159720 0.005022 0.385209
0.160441 0.005743 0.505818
0.161168 0.006470 0.627516
0.161900 0.007202 0.750103
0.162637 0.007939 0.873442
0.162983 0.008286 0.931443
0.163157 0.101284 0.041020
0.163834 0.101961 0.154374
0.164534 0.102661 0.271539
0.165246 0.103373 0.390735
0.165967 0.104093 0.511344
0.166694 0.104820 0.633042
0.167426 0.105553 0.755629
0.168163 0.106290 0.878968
0.168509 0.106636 0.936970
0.170010 0.223256 0.047873
0.170688 0.223933 0.161227
0.171388 0.224633 0.278393
0.172100 0.225345 0.397588
0.172820 0.226065 0.518197
0.173547 0.226792 0.639895
0.174279 0.227525 0.762482
0.175016 0.228261 0.885821
0.175363 0.228608 0.943823
0.177015 0.347925 0.054878
0.177692 0.348602 0.168232
0.178392 0.349302 0.285398
0.179104 0.350014 0.404593
0.179825 0.350735 0.525202
0.180552 0.351462 0.646900
0.181284 0.352194 0.769487
0.182021 0.352931 0.892826
0.182368 0.353277 0.950828
0.184117 0.474322 0.061979
0.184794 0.474999 0.175334
0.185494 0.475699 0.292499
0.186206 0.476411 0.411695
0.186927 0.477131 0.532304
0.187654 0.477858 0.654002
0.188386 0.478591 0.776589
0.189123 0.479327 0.899928
0.189469 0.479674 0.957929
0.191291 0.602000 0.069153
0.191968 0.602677 0.182508
0.192668 0.603377 0.299673
0.193380 0.604089 0.418869
0.194101 0.604809 0.539477
0.194828 0.605536 0.661176
0.195560 0.606269 0.783763
0.196297 0.607006 0.907102
0.196643 0.607352 0.965103
0.198522 0.730700 0.076385
0.199199 0.731377 0.189739
0.199899 0.732077 0.306905
0.200611 0.732789 0.426100
0.201332 0.733510 0.546709
0.202059 0.734237 0.668407
0.202791 0.734969 0.790994
0.203528 0.735706 0.914333
0.203875 0.736052 0.972335
0.205801 0.860253 0.083664
0.206479 0.860930 0.197018
0.207179 0.861630 0.314184
0.207891 0.862342 0.433379
0.208611 0.863062 0.553988
0.209338 0.863789 0.675686
0.210070 0.864522 0.798273
0.210807 0.865258 0.921612
0.211154 0.865605 0.979614
0.212589 0.981049 0.090451
0.213266 0.981726 0.203806
0.213966 0.982426 0.320971
0.214678 0.983138 0.440166
0.215398 0.983858 0.560775
0.216125 0.984585 0.682473
0.216858 0.985318 0.805060
0.217594 0.986054 0.928399
0.217941 0.986401 0.986401
0.276365 0.004998 0.037558
0.277042 0.005675 0.150913
0.277742 0.006375 0.268078
0.278454 0.007087 0.387274
0.279174 0.007808 0.507882
0.279901 0.008535 0.629580
0.280634 0.009267 0.752168
0.281370 0.010004 0.875506
0.281717 0.010350 0.933508
0.281891 0.103348 0.043084
0.282568 0.104026 0.156439
0.283268 0.104726 0.273604
0.283980 0.105438 0.392800
0.284700 0.106158 0.513408
0.285427 0.106885 0.635106
0.286160 0.107617 0.757694
0.286896 0.108354 0.881032
0.287243 0.108701 0.939034
0.288744 0.225320 0.049937
0.289421 0.225997 0.163292
0.290121 0.226697 0.280457
0.290833 0.227409 0.399653
0.291554 0.228130 0.520262
0.292281 0.228857 0.641960
0.293013 0.229589 0.764547
0.293750 0.230326 0.887886
0.294096 0.230673 0.945887
0.295749 0.349990 0.056942
0.296426 0.350667 0.170297
0.297126 0.351367 0.287462
0.297838 0.352079 0.406658
0.298558 0.352799 0.527266
0.299285 0.353526 0.648965
0.300018 0.354259 0.771552
0.300754 0.354995 0.894890
0.301101 0.355342 0.952892
0.302851 0.476386 0.064044
0.303528 0.477063 0.177399
0.304228 0.477763 0.294564
0.304940 0.478475 0.413760
0.305660 0.479196 0.534368
0.306387 0.479923 0.656066
0.307120 0.480655 0.778653
0.307856 0.481392 0.901992
0.308203 0.481739 0.959994
0.310024 0.604064 0.071218
0.310702 0.604741 0.184573
0.311401 0.605441 0.301738
0.312114 0.606153 0.420933
0.312834 0.606874 0.541542
0.313561 0.607601 0.663240
0.314293 0.608333 0.785827
0.315030 0.609070 0.909166
0.315377 0.609417 0.967168
0.317256 0.732765 0.078449
0.317933 0.733442 0.191804
0.318633 0.734142 0.308969
0.319345 0.734854 0.428165
0.320065 0.735574 0.548773
0.320792 0.736301 0.670472
0.321525 0.737034 0.793059
0.322262 0.737771 0.916397
0.322608 0.738117 0.974399
0.324535 0.862317 0.085728
0.325212 0.862994 0.199083
0.325912 0.863694 0.316248
0.326624 0.864406 0.435444
0.327345 0.865127 0.556053
0.328072 0.865854 0.677751
0.328804 0.866586 0.800338
0.329541 0.867323 0.923677
0.329887 0.867669 0.981678
0.331322 0.983113 0.092516
0.331999 0.983790 0.205870
0.332699 0.984490 0.323036
0.333411 0.985202 0.442231
0.334132 0.985923 0.562840
0.334859 0.986650 0.684538
0.335591 0.987382 0.807125
0.336328 0.988119 0.930464
0.336674 0.988466 0.988466
0.397080 0.007097 0.039657
0.397757 0.007774 0.153012
0.398457 0.008474 0.270177
0.399169 0.009186 0.389373
0.399889 0.009907 0.509981
0.400616 0.010634 0.631680
0.401349 0.011366 0.754267
0.402085 0.012103 0.877605
0.402432 0.012449 0.935607
0.402606 0.105447 0.045183
0.403283 0.106125 0.158538
0.403983 0.106825 0.275703
0.404695 0.107537 0.394899
0.405415 0.108257 0.515507
0.406142 0.108984 0.637206
0.406875 0.109716 0.759793
0.407611 0.110453 0.883131
0.407958 0.110800 0.941133
0.409459 0.227419 0.052037
0.410136 0.228097 0.165391
0.410836 0.228796 0.282556
0.411548 0.229509 0.401752
0.412269 0.230229 0.522361
0.412996 0.230956 0.644059
0.413728 0.231688 0.766646
0.414465 0.232425 0.889985
0.414811 0.232772 0.947986
0.416464 0.352089 0.059041
0.417141 0.352766 0.172396
0.417841 0.353466 0.289561
0.418553 0.354178 0.408757
0.419273 0.354898 0.529365
0.420000 0.355625 0.651064
0.420733 0.356358 0.773651
0.421470 0.357095 0.896990
0.421816 0.357441 0.954991
0.423566 0.478485 0.066143
0.424243 0.479162 0.179498
0.424943 0.479862 0.296663
0.425655 0.480574 0.415859
0.426375 0.481295 0.536467
0.427102 0.482022 0.658165
0.427835 0.482754 0.780753
0.428571 0.483491 0.904091
0.428918 0.483838 0.962093
0.430739 0.606163 0.073317
0.431417 0.606841 0.186672
0.432117 0.607540 0.303837
0.432829 0.608253 0.423033
0.433549 0.608973 0.543641
0.434276 0.609700 0.665339
0.435008 0.610432 0.787926
0.435745 0.611169 0.911265
0.436092 0.611516 0.969267
0.437971 0.734864 0.080548
0.438648 0.735541 0.193903
0.439348 0.736241 0.311068
0.440060 0.736953 0.430264
0.440780 0.737674 0.550872
0.441507 0.738401 0.672571
0.442240 0.739133 0.795158
0.442977 0.739870 0.918497
0.443323 0.740216 0.976498
0.445250 0.864416 0.087828
0.445927 0.865093 0.201182
0.446627 0.865793 0.318347
0.447339 0.866505 0.437543
0.448060 0.867226 0.558152
0.448787 0.867953 0.679850
0.449519 0.868685 0.802437
0.450256 0.869422 0.925776
0.450602 0.869769 0.983777
0.452037 0.985212 0.094615
0.452714 0.985890 0.207969
0.453414 0.986589 0.325135
0.454126 0.987302 0.444330
0.454847 0.988022 0.564939
0.455574 0.988749 0.686637
0.456306 0.989481 0.809224
0.457043 0.990218 0.932563
0.457389 0.990565 0.990565
0.519190 0.009220 0.041781
0.519867 0.009898 0.155135
0.520567 0.010597 0.272301
0.521279 0.011310 0.391496
0.522000 0.012030 0.512105
0.522727 0.012757 0.633803
0.523459 0.013489 0.756390
0.524196 0.014226 0.879729
0.524542 0.014573 0.937731
0.524716 0.107571 0.047307
0.525393 0.108248 0.160661
0.526093 0.108948 0.277827
0.526805 0.109660 0.397022
0.527526 0.110381 0.517631
0.528253 0.111108 0.639329
0.528985 0.111840 0.761916
0.529722 0.112577 0.885255
0.530068 0.112923 0.943257
0.531569 0.229543 0.054160
0.532246 0.230220 0.167515
0.532946 0.230920 0.284680
0.533658 0.231632 0.403875
0.534379 0.232352 0.524484
0.535106 0.233079 0.646182
0.535838 0.233812 0.768769
0.536575 0.234549 0.892108
0.536921 0.234895 0.950110
0.538574 0.354212 0.061165
0.539251 0.354889 0.174519
0.539951 0.355589 0.291685
0.540663 0.356301 0.410880
0.541384 0.357022 0.531489
0.542111 0.357749 0.653187
0.542843 0.358481 0.775774
0.543580 0.359218 0.899113
0.543926 0.359564 0.957115
0.545676 0.480609 0.068267
0.546353 0.481286 0.181621
0.547053 0.481986 0.298786
0.547765 0.482698 0.417982
0.548485 0.483418 0.538591
0.549212 0.484145 0.660289
0.549945 0.484878 0.782876
0.550682 0.485614 0.906215
0.551028 0.485961 0.964216
0.552850 0.608287 0.075440
0.553527 0.608964 0.188795
0.554227 0.609664 0.305960
0.554939 0.610376 0.425156
0.555659 0.611096 0.545764
0.556386 0.611823 0.667463
0.557119 0.612556 0.790050
0.557855 0.613293 0.913389
0.558202 0.613639 0.971390
0.560081 0.736987 0.082672
0.560758 0.737664 0.196026
0.561458 0.738364 0.313192
0.562170 0.739076 0.432387
0.562891 0.739797 0.552996
0.563618 0.740524 0.674694
0.564350 0.741256 0.797281
0.565087 0.741993 0.920620
0.565433 0.742340 0.978622
0.567360 0.866540 0.089951
0.568037 0.867217 0.203306
0.568737 0.867917 0.320471
0.569449 0.868629 0.439666
0.570170 0.869349 0.560275
0.570897 0.870076 0.681973
0.571629 0.870809 0.804560
0.572366 0.871545 0.927899
0.572712 0.871892 0.985901
0.574147 0.987336 0.096738
0.574824 0.988013 0.210093
0.575524 0.988713 0.327258
0.576236 0.989425 0.446454
0.576957 0.990145 0.567062
0.577684 0.990872 0.688760
0.578416 0.991605 0.811347
0.579153 0.992342 0.934686
0.579500 0.992688 0.992688
0.642382 0.011362 0.043923
0.643059 0.012040 0.157277
0.643759 0.012740 0.274443
0.644471 0.013452 0.393638
0.645192 0.014172 0.514247
0.645919 0.014899 0.635945
0.646651 0.015632 0.758532
0.647388 0.016368 0.881871
0.647734 0.016715 0.939873
0.647908 0.109713 0.049449
0.648585 0.110390 0.162803
0.649285 0.111090 0.279969
0.649997 0.111802 0.399164
0.650718 0.112523 0.519773
0.651445 0.113250 0.641471
0.652177 0.113982 0.764058
0.652914 0.114719 0.887397
0.653260 0.115065 0.945399
0.654761 0.231685 0.056302
0.655439 0.232362 0.169657
0.656139 0.233062 0.286822
0.656851 0.233774 0.406017
0.657571 0.234495 0.526626
0.658298 0.235222 0.648324
0.659030 0.235954 0.770911
0.659767 0.236691 0.894250
0.660114 0.237037 0.952252
0.661766 0.356354 0.063307
0.662443 0.357031 0.176661
0.663143 0.357731 0.293827
0.663855 0.358443 0.413022
0.664576 0.359164 0.533631
0.665303 0.359891 0.655329
0.666035 0.360623 0.777916
0.666772 0.361360 0.901255
0.667119 0.361707 0.959257
0.668868 0.482751 0.070409
0.669545 0.483428 0.183763
0.670245 0.484128 0.300929
0.670957 0.484840 0.420124
0.671678 0.485560 0.540733
0.672405 0.486287 0.662431
0.673137 0.487020 0.785018
0.673874 0.487757 0.908357
0.674220 0.488103 0.966359
0.676042 0.610429 0.077583
0.676719 0.611106 0.190937
0.677419 0.611806 0.308102
0.678131 0.612518 0.427298
0.678852 0.613239 0.547907
0.679579 0.613966 0.669605
0.680311 0.614698 0.792192
0.681048 0.615435 0.915531
0.681394 0.615781 0.973533
0.683273 0.739129 0.084814
0.683950 0.739807 0.198169
0.684650 0.740506 0.315334
0.685362 0.741219 0.434529
0.686083 0.741939 0.555138
0.686810 0.742666 0.676836
0.687542 0.743398 0.799423
0.688279 0.744135 0.922762
0.688626 0.744482 0.980764
0.690552 0.868682 0.092093
0.691230 0.869359 0.205448
0.691930 0.870059 0.322613
0.692642 0.870771 0.441809
0.693362 0.871491 0.562417
0.694089 0.872218 0.684115
0.694821 0.872951 0.806702
0.695558 0.873688 0.930041
0.695905 0.874034 0.988043
0.697340 0.989478 0.098880
0.698017 0.990155 0.212235
0.698717 0.990855 0.329400
0.699429 0.991567 0.448596
0.700149 0.992288 0.569204
0.700876 0.993015 0.690902
0.701609 0.993747 0.813490
0.702345 0.994484 0.936828
0.702692 0.994830 0.994830
0.766460 0.013520 0.046080
0.767137 0.014197 0.159435
0.767837 0.014897 0.276600
0.768549 0.015609 0.395796
0.769270 0.016330 0.516404
0.769997 0.017057 0.638103
0.770729 0.017789 0.760690
0.771466 0.018526 0.884028
0.771813 0.018872 0.942030
0.771986 0.111871 0.051606
0.772664 0.112548 0.164961
0.773363 0.113248 0.282126
0.774076 0.113960 0.401322
0.774796 0.114680 0.521930
0.775523 0.115407 0.643629
0.776255 0.116140 0.766216
0.776992 0.116876 0.889555
0.777339 0.117223 0.947556
0.778840 0.233842 0.058460
0.779517 0.234520 0.171814
0.780217 0.235220 0.288980
0.780929 0.235932 0.408175
0.781649 0.236652 0.528784
0.782376 0.237379 0.650482
0.783109 0.238111 0.773069
0.783845 0.238848 0.896408
0.784192 0.239195 0.954410
0.785844 0.358512 0.065464
0.786522 0.359189 0.178819
0.787221 0.359889 0.295984
0.787934 0.360601 0.415180
0.788654 0.361321 0.535788
0.789381 0.362048 0.657487
0.790113 0.362781 0.780074
0.790850 0.363518 0.903413
0.791197 0.363864 0.961414
0.792946 0.484908 0.072566
0.793623 0.485586 0.185921
0.794323 0.486285 0.303086
0.795035 0.486998 0.422282
0.795756 0.487718 0.542890
0.796483 0.488445 0.664589
0.797215 0.489177 0.787176
0.797952 0.489914 0.910514
0.798299 0.490261 0.968516
0.800120 0.612586 0.079740
0.800797 0.613264 0.193095
0.801497 0.613964 0.310260
0.802209 0.614676 0.429456
0.802930 0.615396 0.550064
0.803657 0.616123 0.671762
0.804389 0.616855 0.794349
0.805126 0.617592 0.917688
0.805472 0.617939 0.975690
0.807351 0.741287 0.086971
0.808029 0.741964 0.200326
0.808729 0.742664 0.317491
0.809441 0.743376 0.436687
0.810161 0.744097 0.557296
0.810888 0.744824 0.678994
0.811620 0.745556 0.801581
0.812357 0.746293 0.924920
0.812704 0.746639 0.982921
0.814631 0.870839 0.094251
0.815308 0.871516 0.207605
0.816008 0.872216 0.324771
0.816720 0.872928 0.443966
0.817440 0.873649 0.564575
0.818167 0.874376 0.686273
0.818900 0.875108 0.808860
0.819636 0.875845 0.932199
0.819983 0.876192 0.990201
0.821418 0.991635 0.101038
0.822095 0.992313 0.214392
0.822795 0.993013 0.331558
0.823507 0.993725 0.450753
0.824227 0.994445 0.571362
0.824954 0.995172 0.693060
0.825687 0.995904 0.815647
0.826424 0.996641 0.938986
0.826770 0.996988 0.996988
0.891289 0.015691 0.048251
0.891967 0.016368 0.161606
0.892667 0.017068 0.278771
0.893379 0.017780 0.397966
0.894099 0.018500 0.518575
0.894826 0.019227 0.640273
0.895559 0.019960 0.762860
0.896295 0.020697 0.886199
0.896642 0.021043 0.944201
0.896816 0.114041 0.053777
0.897493 0.114718 0.167132
0.898193 0.115418 0.284297
0.898905 0.116130 0.403492
0.899625 0.116851 0.524101
0.900352 0.117578 0.645799
0.901085 0.118310 0.768386
0.901821 0.119047 0.891725
0.902168 0.119393 0.949727
0.903669 0.236013 0.060630
0.904346 0.236690 0.173985
0.905046 0.237390 0.291150
0.905758 0.238102 0.410346
0.906478 0.238823 0.530954
0.907205 0.239550 0.652652
0.907938 0.240282 0.775240
0.908675 0.241019 0.898578
0.909021 0.241365 0.956580
0.910674 0.360682 0.067635
0.911351 0.361360 0.180990
0.912051 0.362060 0.298155
0.912763 0.362772 0.417350
0.913483 0.363492 0.537959
0.914210 0.364219 0.659657
0.914943 0.364951 0.782244
0.915679 0.365688 0.905583
0.916026 0.366035 0.963585
0.917775 0.487079 0.074737
0.918453 0.487756 0.188092
0.919153 0.488456 0.305257
0.919865 0.489168 0.424452
0.920585 0.489889 0.545061
0.921312 0.490616 0.666759
0.922044 0.491348 0.789346
0.922781 0.492085 0.912685
0.923128 0.492431 0.970687
0.924949 0.614757 0.081911
0.925626 0.615434 0.195265
0.926326 0.616134 0.312431
0.927038 0.616846 0.431626
0.927759 0.617567 0.552235
0.928486 0.618294 0.673933
0.929218 0.619026 0.796520
0.929955 0.619763 0.919859
0.930302 0.620109 0.977861
0.932181 0.743458 0.089142
0.932858 0.744135 0.202497
0.933558 0.744835 0.319662
0.934270 0.745547 0.438858
0.934990 0.746267 0.559466
0.935717 0.746994 0.681164
0.936450 0.747727 0.803751
0.937186 0.748463 0.927090
0.937533 0.748810 0.985092
0.939460 0.873010 0.096421
0.940137 0.873687 0.209776
0.940837 0.874387 0.326941
0.941549 0.875099 0.446137
0.942269 0.875820 0.566745
0.942996 0.876547 0.688443
0.943729 0.877279 0.811031
0.944466 0.878016 0.934369
0.944812 0.878362 0.992371
0.946247 0.993806 0.103208
0.946924 0.994483 0.216563
0.947624 0.995183 0.333728
0.948336 0.995895 0.452924
0.949057 0.996616 0.573532
0.949784 0.997343 0.695231
0.950516 0.998075 0.817818
0.951253 0.998812 0.941157
0.951599 0.999158 0.999158
