skills/editops-orchestrator/assets/grade/luts/cool_tech_v06.cube
TITLE "cool_tech_v06"
LUT_3D_SIZE 17
DOMAIN_MIN 0.0 0.0 0.0
DOMAIN_MAX 1.0 1.0 1.0
0.000043 0.000043 0.016257
0.000200 0.000200 0.074923
0.000360 0.000360 0.134525
0.000520 0.000520 0.194610
0.000682 0.000682 0.255029
0.000844 0.000844 0.315703
0.001007 0.001007 0.376583
0.001170 0.001170 0.437638
0.001333 0.001333 0.498844
0.001497 0.001497 0.560182
0.001661 0.001661 0.621639
0.001826 0.001826 0.683203
0.001991 0.001991 0.744865
0.002156 0.002156 0.806617
0.002321 0.002321 0.868452
0.002487 0.002487 0.930364
0.002584 0.002584 0.966795
0.001447 0.054332 0.017661
0.001604 0.054489 0.076327
0.001763 0.054648 0.135928
0.001924 0.054809 0.196014
0.002086 0.054970 0.256433
0.002248 0.055133 0.317107
0.002410 0.055295 0.377987
0.002574 0.055458 0.439042
0.002737 0.055622 0.500248
0.002901 0.055786 0.561586
0.003065 0.055950 0.623043
0.003230 0.056115 0.684607
0.003395 0.056280 0.746269
0.003560 0.056445 0.808020
0.003725 0.056610 0.869856
0.003891 0.056775 0.931768
0.003988 0.056873 0.968198
0.003019 0.115090 0.019232
0.003175 0.115247 0.077899
0.003335 0.115406 0.137500
0.003495 0.115567 0.197585
0.003657 0.115728 0.258004
0.003819 0.115890 0.318678
0.003982 0.116053 0.379559
0.004145 0.116216 0.440614
0.004308 0.116380 0.501819
0.004472 0.116544 0.563157
0.004637 0.116708 0.624614
0.004801 0.116873 0.686178
0.004966 0.117037 0.747840
0.005131 0.117203 0.809592
0.005296 0.117368 0.871427
0.005462 0.117533 0.933339
0.005559 0.117631 0.969770
0.004605 0.176447 0.020819
0.004762 0.176604 0.079485
0.004921 0.176763 0.139086
0.005082 0.176924 0.199172
0.005243 0.177085 0.259591
0.005406 0.177247 0.320264
0.005568 0.177410 0.381145
0.005732 0.177573 0.442200
0.005895 0.177737 0.503406
0.006059 0.177901 0.564744
0.006223 0.178065 0.626201
0.006388 0.178230 0.687765
0.006553 0.178394 0.749427
0.006718 0.178559 0.811178
0.006883 0.178725 0.873013
0.007048 0.178890 0.934926
0.007146 0.178988 0.971356
0.006202 0.238189 0.022415
0.006359 0.238346 0.081082
0.006518 0.238505 0.140683
0.006679 0.238666 0.200769
0.006840 0.238827 0.261187
0.007002 0.238990 0.321861
0.007165 0.239152 0.382742
0.007328 0.239316 0.443797
0.007492 0.239479 0.505003
0.007656 0.239643 0.566341
0.007820 0.239807 0.627798
0.007985 0.239972 0.689362
0.008149 0.240137 0.751023
0.008314 0.240302 0.812775
0.008480 0.240467 0.874610
0.008645 0.240632 0.936523
0.008743 0.240730 0.972953
0.007806 0.300217 0.024019
0.007963 0.300374 0.082686
0.008122 0.300534 0.142287
0.008283 0.300694 0.202373
0.008444 0.300856 0.262791
0.008606 0.301018 0.323465
0.008769 0.301181 0.384346
0.008932 0.301344 0.445401
0.009096 0.301507 0.506607
0.009260 0.301671 0.567945
0.009424 0.301836 0.629402
0.009589 0.302000 0.690966
0.009753 0.302165 0.752627
0.009918 0.302330 0.814379
0.010084 0.302495 0.876214
0.010249 0.302661 0.938127
0.010347 0.302758 0.974557
0.009416 0.362473 0.025629
0.009573 0.362630 0.084296
0.009732 0.362790 0.143897
0.009893 0.362950 0.203983
0.010054 0.363112 0.264401
0.010216 0.363274 0.325075
0.010379 0.363437 0.385956
0.010542 0.363600 0.447011
0.010706 0.363763 0.508217
0.010870 0.363927 0.569555
0.011034 0.364091 0.631012
0.011199 0.364256 0.692576
0.011363 0.364421 0.754237
0.011528 0.364586 0.815989
0.011694 0.364751 0.877824
0.011859 0.364917 0.939737
0.011957 0.365014 0.976167
0.011031 0.424919 0.027244
0.011188 0.425076 0.085911
0.011347 0.425235 0.145512
0.011508 0.425396 0.205597
0.011669 0.425557 0.266016
0.011831 0.425719 0.326690
0.011994 0.425882 0.387571
0.012157 0.426045 0.448626
0.012321 0.426209 0.509831
0.012485 0.426373 0.571170
0.012649 0.426537 0.632626
0.012813 0.426701 0.694190
0.012978 0.426866 0.755852
0.013143 0.427031 0.817604
0.013309 0.427197 0.879439
0.013474 0.427362 0.941352
0.013571 0.427459 0.977782
0.012650 0.487527 0.028863
0.012807 0.487683 0.087530
0.012966 0.487843 0.147131
0.013127 0.488003 0.207216
0.013288 0.488165 0.267635
0.013450 0.488327 0.328309
0.013613 0.488490 0.389190
0.013776 0.488653 0.450245
0.013940 0.488817 0.511450
0.014104 0.488980 0.572789
0.014268 0.489145 0.634246
0.014432 0.489309 0.695809
0.014597 0.489474 0.757471
0.014762 0.489639 0.819223
0.014928 0.489804 0.881058
0.015093 0.489970 0.942971
0.015190 0.490067 0.979401
0.014273 0.550277 0.030486
0.014429 0.550433 0.089153
0.014589 0.550593 0.148754
0.014749 0.550753 0.208839
0.014911 0.550915 0.269258
0.015073 0.551077 0.329932
0.015236 0.551240 0.390813
0.015399 0.551403 0.451868
0.015562 0.551566 0.513073
0.015726 0.551730 0.574411
0.015891 0.551895 0.635868
0.016055 0.552059 0.697432
0.016220 0.552224 0.759094
0.016385 0.552389 0.820846
0.016550 0.552554 0.882681
0.016716 0.552720 0.944593
0.016813 0.552817 0.981024
0.015899 0.613153 0.032112
0.016055 0.613309 0.090779
0.016215 0.613469 0.150380
0.016375 0.613629 0.210465
0.016537 0.613791 0.270884
0.016699 0.613953 0.331558
0.016862 0.614116 0.392439
0.017025 0.614279 0.453494
0.017188 0.614443 0.514699
0.017352 0.614606 0.576037
0.017517 0.614771 0.637494
0.017681 0.614935 0.699058
0.017846 0.615100 0.760720
0.018011 0.615265 0.822472
0.018176 0.615430 0.884307
0.018342 0.615596 0.946219
0.018439 0.615693 0.982650
0.017528 0.676143 0.033741
0.017684 0.676299 0.092407
0.017844 0.676459 0.152009
0.018004 0.676619 0.212094
0.018166 0.676781 0.272513
0.018328 0.676943 0.333187
0.018491 0.677106 0.394067
0.018654 0.677269 0.455122
0.018817 0.677432 0.516328
0.018981 0.677596 0.577666
0.019146 0.677761 0.639123
0.019310 0.677925 0.700687
0.019475 0.678090 0.762349
0.019640 0.678255 0.824101
0.019805 0.678420 0.885936
0.019971 0.678586 0.947848
0.020068 0.678683 0.984279
0.019159 0.739236 0.035372
0.019316 0.739393 0.094039
0.019475 0.739552 0.153640
0.019636 0.739713 0.213726
0.019797 0.739874 0.274144
0.019959 0.740036 0.334818
0.020122 0.740199 0.395699
0.020285 0.740362 0.456754
0.020449 0.740526 0.517960
0.020613 0.740690 0.579298
0.020777 0.740854 0.640755
0.020942 0.741019 0.702319
0.021107 0.741183 0.763981
0.021272 0.741348 0.825732
0.021437 0.741514 0.887567
0.021602 0.741679 0.949480
0.021700 0.741777 0.985910
0.020793 0.802424 0.037006
0.020950 0.802581 0.095673
0.021109 0.802740 0.155274
0.021270 0.802901 0.215360
0.021431 0.803063 0.275779
0.021594 0.803225 0.336452
0.021756 0.803387 0.397333
0.021919 0.803551 0.458388
0.022083 0.803714 0.519594
0.022247 0.803878 0.580932
0.022411 0.804042 0.642389
0.022576 0.804207 0.703953
0.022741 0.804372 0.765615
0.022906 0.804537 0.827366
0.023071 0.804702 0.889201
0.023236 0.804868 0.951114
0.023334 0.804965 0.987544
0.022430 0.865700 0.038643
0.022586 0.865857 0.097309
0.022746 0.866017 0.156911
0.022906 0.866177 0.216996
0.023068 0.866339 0.277415
0.023230 0.866501 0.338089
0.023393 0.866663 0.398969
0.023556 0.866827 0.460024
0.023719 0.866990 0.521230
0.023883 0.867154 0.582568
0.024048 0.867318 0.644025
0.024212 0.867483 0.705589
0.024377 0.867648 0.767251
0.024542 0.867813 0.829003
0.024707 0.867978 0.890838
0.024873 0.868144 0.952750
0.024970 0.868241 0.989181
0.024068 0.929058 0.040281
0.024225 0.929215 0.098948
0.024384 0.929374 0.158549
0.024545 0.929535 0.218635
0.024706 0.929696 0.279053
0.024868 0.929858 0.339727
0.025031 0.930021 0.400608
0.025194 0.930184 0.461663
0.025358 0.930348 0.522869
0.025522 0.930512 0.584207
0.025686 0.930676 0.645664
0.025851 0.930841 0.707228
0.026015 0.931005 0.768889
0.026180 0.931170 0.830641
0.026346 0.931336 0.892476
0.026511 0.931501 0.954389
0.026609 0.931598 0.990819
0.025640 0.989851 0.041853
0.025797 0.990007 0.100520
0.025956 0.990167 0.160121
0.026117 0.990327 0.220207
0.026278 0.990489 0.280625
0.026440 0.990651 0.341299
0.026603 0.990814 0.402180
0.026766 0.990977 0.463235
0.026930 0.991140 0.524441
0.027094 0.991304 0.585779
0.027258 0.991469 0.647236
0.027423 0.991633 0.708800
0.027587 0.991798 0.770461
0.027753 0.991963 0.832213
0.027918 0.992128 0.894048
0.028083 0.992294 0.955961
0.028181 0.992391 0.992391
0.031498 0.000290 0.016503
0.031655 0.000447 0.075170
0.031814 0.000606 0.134771
0.031975 0.000766 0.194856
0.032137 0.000928 0.255275
0.032299 0.001090 0.315949
0.032461 0.001253 0.376830
0.032625 0.001416 0.437885
0.032788 0.001580 0.499090
0.032952 0.001744 0.560429
0.033116 0.001908 0.621885
0.033281 0.002072 0.683449
0.033446 0.002237 0.745111
0.033611 0.002402 0.806863
0.033776 0.002567 0.868698
0.033942 0.002733 0.930610
0.034039 0.002830 0.967041
0.032902 0.054579 0.017907
0.033059 0.054735 0.076574
0.033218 0.054895 0.136175
0.033379 0.055055 0.196260
0.033540 0.055217 0.256679
0.033703 0.055379 0.317353
0.033865 0.055542 0.378234
0.034029 0.055705 0.439289
0.034192 0.055868 0.500494
0.034356 0.056032 0.561832
0.034520 0.056197 0.623289
0.034685 0.056361 0.684853
0.034850 0.056526 0.746515
0.035015 0.056691 0.808267
0.035180 0.056856 0.870102
0.035345 0.057022 0.932014
0.035443 0.057119 0.968445
0.034473 0.115336 0.019478
0.034630 0.115493 0.078145
0.034790 0.115652 0.137746
0.034950 0.115813 0.197831
0.035112 0.115975 0.258250
0.035274 0.116137 0.318924
0.035437 0.116299 0.379805
0.035600 0.116463 0.440860
0.035763 0.116626 0.502065
0.035927 0.116790 0.563404
0.036092 0.116954 0.624860
0.036256 0.117119 0.686424
0.036421 0.117284 0.748086
0.036586 0.117449 0.809838
0.036751 0.117614 0.871673
0.036917 0.117780 0.933586
0.037014 0.117877 0.970016
0.036060 0.176693 0.021065
0.036217 0.176850 0.079731
0.036376 0.177009 0.139333
0.036537 0.177170 0.199418
0.036698 0.177331 0.259837
0.036861 0.177494 0.320511
0.037023 0.177656 0.381391
0.037186 0.177820 0.442447
0.037350 0.177983 0.503652
0.037514 0.178147 0.564990
0.037678 0.178311 0.626447
0.037843 0.178476 0.688011
0.038008 0.178641 0.749673
0.038173 0.178806 0.811425
0.038338 0.178971 0.873260
0.038503 0.179136 0.935172
0.038601 0.179234 0.971603
0.037657 0.238436 0.022661
0.037814 0.238592 0.081328
0.037973 0.238752 0.140929
0.038134 0.238912 0.201015
0.038295 0.239074 0.261434
0.038457 0.239236 0.322107
0.038620 0.239399 0.382988
0.038783 0.239562 0.444043
0.038947 0.239725 0.505249
0.039111 0.239889 0.566587
0.039275 0.240054 0.628044
0.039439 0.240218 0.689608
0.039604 0.240383 0.751270
0.039769 0.240548 0.813021
0.039935 0.240713 0.874856
0.040100 0.240879 0.936769
0.040197 0.240976 0.973199
0.039261 0.300464 0.024266
0.039418 0.300621 0.082932
0.039577 0.300780 0.142533
0.039738 0.300940 0.202619
0.039899 0.301102 0.263038
0.040061 0.301264 0.323711
0.040224 0.301427 0.384592
0.040387 0.301590 0.445647
0.040551 0.301754 0.506853
0.040715 0.301918 0.568191
0.040879 0.302082 0.629648
0.041043 0.302246 0.691212
0.041208 0.302411 0.752874
0.041373 0.302576 0.814625
0.041539 0.302741 0.876460
0.041704 0.302907 0.938373
0.041801 0.303004 0.974803
0.040871 0.362720 0.025875
0.041028 0.362877 0.084542
0.041187 0.363036 0.144143
0.041348 0.363196 0.204229
0.041509 0.363358 0.264648
0.041671 0.363520 0.325321
0.041834 0.363683 0.386202
0.041997 0.363846 0.447257
0.042161 0.364010 0.508463
0.042325 0.364173 0.569801
0.042489 0.364338 0.631258
0.042653 0.364502 0.692822
0.042818 0.364667 0.754484
0.042983 0.364832 0.816235
0.043149 0.364997 0.878070
0.043314 0.365163 0.939983
0.043411 0.365260 0.976413
0.042486 0.425165 0.027490
0.042643 0.425322 0.086157
0.042802 0.425481 0.145758
0.042962 0.425642 0.205844
0.043124 0.425803 0.266262
0.043286 0.425966 0.326936
0.043449 0.426128 0.387817
0.043612 0.426291 0.448872
0.043776 0.426455 0.510078
0.043939 0.426619 0.571416
0.044104 0.426783 0.632873
0.044268 0.426948 0.694437
0.044433 0.427113 0.756098
0.044598 0.427278 0.817850
0.044763 0.427443 0.879685
0.044929 0.427608 0.941598
0.045026 0.427706 0.978028
0.044105 0.487773 0.029109
0.044262 0.487930 0.087776
0.044421 0.488089 0.147377
0.044581 0.488250 0.207463
0.044743 0.488411 0.267882
0.044905 0.488573 0.328555
0.045068 0.488736 0.389436
0.045231 0.488899 0.450491
0.045395 0.489063 0.511697
0.045559 0.489227 0.573035
0.045723 0.489391 0.634492
0.045887 0.489556 0.696056
0.046052 0.489720 0.757718
0.046217 0.489885 0.819469
0.046382 0.490051 0.881304
0.046548 0.490216 0.943217
0.046645 0.490313 0.979647
0.045727 0.550523 0.030732
0.045884 0.550680 0.089399
0.046044 0.550839 0.149000
0.046204 0.550999 0.209085
0.046366 0.551161 0.269504
0.046528 0.551323 0.330178
0.046691 0.551486 0.391059
0.046854 0.551649 0.452114
0.047017 0.551813 0.513319
0.047181 0.551977 0.574658
0.047346 0.552141 0.636115
0.047510 0.552305 0.697678
0.047675 0.552470 0.759340
0.047840 0.552635 0.821092
0.048005 0.552800 0.882927
0.048171 0.552966 0.944840
0.048268 0.553063 0.981270
0.047353 0.613399 0.032358
0.047510 0.613556 0.091025
0.047670 0.613715 0.150626
0.047830 0.613876 0.210711
0.047992 0.614037 0.271130
0.048154 0.614199 0.331804
0.048317 0.614362 0.392685
0.048480 0.614525 0.453740
0.048643 0.614689 0.514945
0.048807 0.614853 0.576284
0.048972 0.615017 0.637741
0.049136 0.615182 0.699304
0.049301 0.615346 0.760966
0.049466 0.615511 0.822718
0.049631 0.615677 0.884553
0.049797 0.615842 0.946466
0.049894 0.615940 0.982896
0.048982 0.676389 0.033987
0.049139 0.676546 0.092654
0.049299 0.676705 0.152255
0.049459 0.676866 0.212340
0.049621 0.677027 0.272759
0.049783 0.677189 0.333433
0.049945 0.677352 0.394314
0.050109 0.677515 0.455369
0.050272 0.677679 0.516574
0.050436 0.677843 0.577913
0.050600 0.678007 0.639369
0.050765 0.678171 0.700933
0.050930 0.678336 0.762595
0.051095 0.678501 0.824347
0.051260 0.678667 0.886182
0.051426 0.678832 0.948095
0.051523 0.678929 0.984525
0.050614 0.739482 0.035619
0.050771 0.739639 0.094285
0.050930 0.739798 0.153887
0.051091 0.739959 0.213972
0.051252 0.740120 0.274391
0.051414 0.740283 0.335065
0.051577 0.740445 0.395945
0.051740 0.740609 0.457000
0.051904 0.740772 0.518206
0.052068 0.740936 0.579544
0.052232 0.741100 0.641001
0.052397 0.741265 0.702565
0.052561 0.741430 0.764227
0.052726 0.741595 0.825979
0.052892 0.741760 0.887814
0.053057 0.741925 0.949726
0.053155 0.742023 0.986156
0.052248 0.802671 0.037253
0.052405 0.802827 0.095919
0.052564 0.802987 0.155521
0.052725 0.803147 0.215606
0.052886 0.803309 0.276025
0.053048 0.803471 0.336699
0.053211 0.803634 0.397579
0.053374 0.803797 0.458634
0.053538 0.803960 0.519840
0.053702 0.804124 0.581178
0.053866 0.804289 0.642635
0.054031 0.804453 0.704199
0.054195 0.804618 0.765861
0.054361 0.804783 0.827613
0.054526 0.804948 0.889448
0.054691 0.805114 0.951360
0.054789 0.805211 0.987791
0.053884 0.865947 0.038889
0.054041 0.866103 0.097556
0.054201 0.866263 0.157157
0.054361 0.866423 0.217242
0.054523 0.866585 0.277661
0.054685 0.866747 0.338335
0.054847 0.866910 0.399216
0.055011 0.867073 0.460271
0.055174 0.867237 0.521476
0.055338 0.867400 0.582815
0.055502 0.867565 0.644271
0.055667 0.867729 0.705835
0.055832 0.867894 0.767497
0.055997 0.868059 0.829249
0.056162 0.868224 0.891084
0.056328 0.868390 0.952997
0.056425 0.868487 0.989427
0.055523 0.929304 0.040527
0.055680 0.929461 0.099194
0.055839 0.929620 0.158795
0.056000 0.929781 0.218881
0.056161 0.929942 0.279300
0.056323 0.930105 0.339973
0.056486 0.930267 0.400854
0.056649 0.930430 0.461909
0.056813 0.930594 0.523115
0.056977 0.930758 0.584453
0.057141 0.930922 0.645910
0.057305 0.931087 0.707474
0.057470 0.931252 0.769136
0.057635 0.931417 0.830887
0.057801 0.931582 0.892722
0.057966 0.931747 0.954635
0.058063 0.931845 0.991065
0.057095 0.990097 0.042100
0.057252 0.990254 0.100766
0.057411 0.990413 0.160367
0.057572 0.990574 0.220453
0.057733 0.990735 0.280872
0.057895 0.990897 0.341546
0.058058 0.991060 0.402426
0.058221 0.991223 0.463481
0.058385 0.991387 0.524687
0.058549 0.991551 0.586025
0.058713 0.991715 0.647482
0.058878 0.991879 0.709046
0.059042 0.992044 0.770708
0.059207 0.992209 0.832459
0.059373 0.992375 0.894295
0.059538 0.992540 0.956207
0.059636 0.992637 0.992637
0.090809 0.000754 0.016967
0.090966 0.000911 0.075634
0.091125 0.001070 0.135235
0.091286 0.001231 0.195321
0.091447 0.001392 0.255739
0.091609 0.001554 0.316413
0.091772 0.001717 0.377294
0.091935 0.001880 0.438349
0.092099 0.002044 0.499555
0.092263 0.002208 0.560893
0.092427 0.002372 0.622350
0.092591 0.002537 0.683914
0.092756 0.002701 0.745575
0.092921 0.002867 0.807327
0.093087 0.003032 0.869162
0.093252 0.003197 0.931075
0.093349 0.003295 0.967505
0.092213 0.055043 0.018371
0.092370 0.055200 0.077038
0.092529 0.055359 0.136639
0.092690 0.055520 0.196725
0.092851 0.055681 0.257143
0.093013 0.055843 0.317817
0.093176 0.056006 0.378698
0.093339 0.056169 0.439753
0.093503 0.056333 0.500959
0.093667 0.056497 0.562297
0.093831 0.056661 0.623754
0.093995 0.056825 0.685318
0.094160 0.056990 0.746979
0.094325 0.057155 0.808731
0.094491 0.057321 0.870566
0.094656 0.057486 0.932479
0.094753 0.057583 0.968909
0.093784 0.115801 0.019942
0.093941 0.115958 0.078609
0.094100 0.116117 0.138210
0.094261 0.116277 0.198296
0.094422 0.116439 0.258715
0.094584 0.116601 0.319388
0.094747 0.116764 0.380269
0.094910 0.116927 0.441324
0.095074 0.117091 0.502530
0.095238 0.117255 0.563868
0.095402 0.117419 0.625325
0.095567 0.117583 0.686889
0.095731 0.117748 0.748551
0.095896 0.117913 0.810302
0.096062 0.118078 0.872137
0.096227 0.118244 0.934050
0.096325 0.118341 0.970480
0.095371 0.177158 0.021529
0.095528 0.177314 0.080196
0.095687 0.177474 0.139797
0.095847 0.177634 0.199883
0.096009 0.177796 0.260301
0.096171 0.177958 0.320975
0.096334 0.178121 0.381856
0.096497 0.178284 0.442911
0.096661 0.178447 0.504117
0.096825 0.178611 0.565455
0.096989 0.178776 0.626912
0.097153 0.178940 0.688476
0.097318 0.179105 0.750137
0.097483 0.179270 0.811889
0.097648 0.179435 0.873724
0.097814 0.179601 0.935637
0.097911 0.179698 0.972067
0.096967 0.238900 0.023126
0.097124 0.239057 0.081793
0.097284 0.239216 0.141394
0.097444 0.239377 0.201479
0.097606 0.239538 0.261898
0.097768 0.239700 0.322572
0.097930 0.239863 0.383453
0.098094 0.240026 0.444508
0.098257 0.240190 0.505713
0.098421 0.240354 0.567051
0.098585 0.240518 0.628508
0.098750 0.240683 0.690072
0.098915 0.240847 0.751734
0.099080 0.241012 0.813486
0.099245 0.241178 0.875321
0.099411 0.241343 0.937233
0.099508 0.241440 0.973664
0.098571 0.300928 0.024730
0.098728 0.301085 0.083397
0.098888 0.301244 0.142998
0.099048 0.301405 0.203083
0.099210 0.301566 0.263502
0.099372 0.301728 0.324176
0.099535 0.301891 0.385057
0.099698 0.302054 0.446112
0.099861 0.302218 0.507317
0.100025 0.302382 0.568656
0.100189 0.302546 0.630112
0.100354 0.302711 0.691676
0.100519 0.302876 0.753338
0.100684 0.303041 0.815090
0.100849 0.303206 0.876925
0.101015 0.303371 0.938837
0.101112 0.303469 0.975268
0.100181 0.363184 0.026340
0.100338 0.363341 0.085007
0.100498 0.363500 0.144608
0.100658 0.363661 0.204693
0.100820 0.363822 0.265112
0.100982 0.363984 0.325786
0.101144 0.364147 0.386667
0.101308 0.364310 0.447722
0.101471 0.364474 0.508927
0.101635 0.364638 0.570265
0.101799 0.364802 0.631722
0.101964 0.364967 0.693286
0.102129 0.365131 0.754948
0.102294 0.365297 0.816700
0.102459 0.365462 0.878535
0.102625 0.365627 0.940447
0.102722 0.365725 0.976878
0.101796 0.425630 0.027955
0.101953 0.425786 0.086621
0.102112 0.425946 0.146223
0.102273 0.426106 0.206308
0.102434 0.426268 0.266727
0.102597 0.426430 0.327401
0.102759 0.426593 0.388281
0.102923 0.426756 0.449336
0.103086 0.426919 0.510542
0.103250 0.427083 0.571880
0.103414 0.427248 0.633337
0.103579 0.427412 0.694901
0.103744 0.427577 0.756563
0.103909 0.427742 0.818315
0.104074 0.427907 0.880150
0.104239 0.428073 0.942062
0.104337 0.428170 0.978493
0.103415 0.488237 0.029574
0.103572 0.488394 0.088240
0.103731 0.488553 0.147842
0.103892 0.488714 0.207927
0.104053 0.488875 0.268346
0.104216 0.489038 0.329020
0.104378 0.489200 0.389900
0.104542 0.489364 0.450955
0.104705 0.489527 0.512161
0.104869 0.489691 0.573499
0.105033 0.489855 0.634956
0.105198 0.490020 0.696520
0.105363 0.490185 0.758182
0.105528 0.490350 0.819934
0.105693 0.490515 0.881769
0.105859 0.490680 0.943681
0.105956 0.490778 0.980112
0.105038 0.550987 0.031196
0.105195 0.551144 0.089863
0.105354 0.551303 0.149464
0.105515 0.551464 0.209550
0.105676 0.551625 0.269969
0.105838 0.551788 0.330642
0.106001 0.551950 0.391523
0.106164 0.552113 0.452578
0.106328 0.552277 0.513784
0.106492 0.552441 0.575122
0.106656 0.552605 0.636579
0.106821 0.552770 0.698143
0.106985 0.552935 0.759805
0.107150 0.553100 0.821556
0.107316 0.553265 0.883391
0.107481 0.553430 0.945304
0.107579 0.553528 0.981734
0.106664 0.613863 0.032822
0.106821 0.614020 0.091489
0.106980 0.614179 0.151090
0.107141 0.614340 0.211176
0.107302 0.614502 0.271595
0.107464 0.614664 0.332268
0.107627 0.614826 0.393149
0.107790 0.614990 0.454204
0.107954 0.615153 0.515410
0.108118 0.615317 0.576748
0.108282 0.615481 0.638205
0.108447 0.615646 0.699769
0.108611 0.615811 0.761431
0.108776 0.615976 0.823182
0.108942 0.616141 0.885017
0.109107 0.616307 0.946930
0.109205 0.616404 0.983360
0.108293 0.676853 0.034451
0.108450 0.677010 0.093118
0.108609 0.677169 0.152719
0.108770 0.677330 0.212805
0.108931 0.677491 0.273224
0.109093 0.677654 0.333897
0.109256 0.677816 0.394778
0.109419 0.677980 0.455833
0.109583 0.678143 0.517039
0.109747 0.678307 0.578377
0.109911 0.678471 0.639834
0.110076 0.678636 0.701398
0.110240 0.678801 0.763060
0.110405 0.678966 0.824811
0.110571 0.679131 0.886646
0.110736 0.679296 0.948559
0.110834 0.679394 0.984989
0.109925 0.739947 0.036083
0.110081 0.740103 0.094750
0.110241 0.740263 0.154351
0.110401 0.740423 0.214436
0.110563 0.740585 0.274855
0.110725 0.740747 0.335529
0.110888 0.740910 0.396410
0.111051 0.741073 0.457465
0.111214 0.741237 0.518670
0.111378 0.741400 0.580009
0.111543 0.741565 0.641465
0.111707 0.741729 0.703029
0.111872 0.741894 0.764691
0.112037 0.742059 0.826443
0.112202 0.742224 0.888278
0.112368 0.742390 0.950191
0.112465 0.742487 0.986621
0.111559 0.803135 0.037717
0.111715 0.803292 0.096384
0.111875 0.803451 0.155985
0.112035 0.803612 0.216070
0.112197 0.803773 0.276489
0.112359 0.803935 0.337163
0.112522 0.804098 0.398044
0.112685 0.804261 0.459099
0.112848 0.804425 0.520304
0.113012 0.804589 0.581643
0.113177 0.804753 0.643099
0.113341 0.804918 0.704663
0.113506 0.805082 0.766325
0.113671 0.805247 0.828077
0.113836 0.805413 0.889912
0.114002 0.805578 0.951825
0.114099 0.805676 0.988255
0.113195 0.866411 0.039353
0.113352 0.866568 0.098020
0.113511 0.866727 0.157621
0.113672 0.866888 0.217707
0.113833 0.867049 0.278126
0.113995 0.867211 0.338799
0.114158 0.867374 0.399680
0.114321 0.867537 0.460735
0.114485 0.867701 0.521941
0.114649 0.867865 0.583279
0.114813 0.868029 0.644736
0.114978 0.868194 0.706300
0.115142 0.868358 0.767962
0.115307 0.868523 0.829713
0.115473 0.868689 0.891548
0.115638 0.868854 0.953461
0.115736 0.868952 0.989891
0.114833 0.929769 0.040992
0.114990 0.929925 0.099659
0.115150 0.930085 0.159260
0.115310 0.930245 0.219345
0.115472 0.930407 0.279764
0.115634 0.930569 0.340438
0.115796 0.930732 0.401319
0.115960 0.930895 0.462374
0.116123 0.931058 0.523579
0.116287 0.931222 0.584917
0.116451 0.931387 0.646374
0.116616 0.931551 0.707938
0.116781 0.931716 0.769600
0.116946 0.931881 0.831352
0.117111 0.932046 0.893187
0.117277 0.932212 0.955099
0.117374 0.932309 0.991530
0.116406 0.990561 0.042564
0.116562 0.990718 0.101231
0.116722 0.990877 0.160832
0.116882 0.991038 0.220917
0.117044 0.991199 0.281336
0.117206 0.991362 0.342010
0.117369 0.991524 0.402891
0.117532 0.991688 0.463946
0.117695 0.991851 0.525151
0.117859 0.992015 0.586490
0.118024 0.992179 0.647946
0.118188 0.992344 0.709510
0.118353 0.992509 0.771172
0.118518 0.992674 0.832924
0.118683 0.992839 0.894759
0.118849 0.993004 0.956672
0.118946 0.993102 0.993102
0.150869 0.001224 0.017438
0.151025 0.001381 0.076104
0.151185 0.001540 0.135705
0.151345 0.001701 0.195791
0.151507 0.001863 0.256210
0.151669 0.002025 0.316884
0.151832 0.002187 0.377764
0.151995 0.002351 0.438819
0.152158 0.002514 0.500025
0.152322 0.002678 0.561363
0.152487 0.002842 0.622820
0.152651 0.003007 0.684384
0.152816 0.003172 0.746046
0.152981 0.003337 0.807797
0.153146 0.003502 0.869632
0.153312 0.003668 0.931545
0.153409 0.003765 0.967975
0.152272 0.055513 0.018841
