skills/editops-orchestrator/assets/grade/luts/cool_tech_v10.cube
TITLE "cool_tech_v10"
LUT_3D_SIZE 5
DOMAIN_MIN 0.0 0.0 0.0
DOMAIN_MAX 1.0 1.0 1.0
0.000079 0.000079 0.021529
0.000943 0.000943 0.257606
0.001831 0.001831 0.500165
0.002729 0.002729 0.745658
0.003496 0.003496 0.955075
0.008247 0.232679 0.029697
0.009111 0.233543 0.265773
0.009999 0.234431 0.508333
0.010897 0.235330 0.753825
0.011664 0.236096 0.963243
0.017022 0.482592 0.038472
0.017886 0.483456 0.274549
0.018774 0.484344 0.517108
0.019673 0.485243 0.762601
0.020439 0.486009 0.972018
0.025912 0.735756 0.047362
0.026776 0.736621 0.283439
0.027664 0.737508 0.525998
0.028563 0.738407 0.771491
0.029329 0.739174 0.980908
0.034710 0.986288 0.056160
0.035574 0.987153 0.292236
0.036462 0.988041 0.534796
0.037360 0.988939 0.780288
0.038127 0.989706 0.989706
0.194471 0.002159 0.023609
0.195335 0.003023 0.259686
0.196223 0.003911 0.502245
0.197122 0.004810 0.747738
0.197888 0.005576 0.957155
0.202639 0.234759 0.031777
0.203503 0.235624 0.267854
0.204391 0.236511 0.510413
0.205289 0.237410 0.755906
0.206056 0.238177 0.965323
0.211414 0.484672 0.040553
0.212278 0.485536 0.276629
0.213166 0.486424 0.519189
0.214065 0.487323 0.764681
0.214832 0.488090 0.974099
0.220304 0.737837 0.049443
0.221168 0.738701 0.285519
0.222056 0.739589 0.528079
0.222955 0.740488 0.773571
0.223721 0.741254 0.982989
0.229102 0.988369 0.058240
0.229966 0.989233 0.294317
0.230854 0.990121 0.536876
0.231752 0.991020 0.782369
0.232519 0.991786 0.991786
0.437621 0.004762 0.026212
0.438485 0.005626 0.262288
0.439373 0.006514 0.504848
0.440272 0.007412 0.750340
0.441038 0.008179 0.959758
0.445789 0.237362 0.034379
0.446653 0.238226 0.270456
0.447541 0.239114 0.513015
0.448440 0.240012 0.758508
0.449206 0.240779 0.967925
0.454565 0.487275 0.043155
0.455429 0.488139 0.279232
0.456317 0.489027 0.521791
0.457215 0.489925 0.767284
0.457982 0.490692 0.976701
0.463455 0.740439 0.052045
0.464319 0.741303 0.288122
0.465207 0.742191 0.530681
0.466105 0.743090 0.776174
0.466872 0.743856 0.985591
0.472252 0.990971 0.060842
0.473116 0.991835 0.296919
0.474004 0.992723 0.539478
0.474903 0.993622 0.784971
0.475669 0.994388 0.994388
0.684197 0.007400 0.028850
0.685062 0.008265 0.264927
0.685949 0.009153 0.507487
0.686848 0.010051 0.752979
0.687615 0.010818 0.962397
0.692365 0.240001 0.037018
0.693229 0.240865 0.273095
0.694117 0.241753 0.515654
0.695016 0.242651 0.761147
0.695782 0.243418 0.970564
0.701141 0.489914 0.045794
0.702005 0.490778 0.281871
0.702893 0.491666 0.524430
0.703791 0.492564 0.769923
0.704558 0.493331 0.979340
0.710031 0.743078 0.054684
0.710895 0.743942 0.290761
0.711783 0.744830 0.533320
0.712681 0.745729 0.778813
0.713448 0.746495 0.988230
0.718828 0.993610 0.063481
0.719692 0.994474 0.299558
0.720580 0.995362 0.542117
0.721479 0.996261 0.787610
0.722245 0.997027 0.997027
0.932940 0.010063 0.031513
0.933804 0.010927 0.267589
0.934692 0.011815 0.510149
0.935591 0.012713 0.755641
0.936357 0.013480 0.965059
0.941108 0.242663 0.039680
0.941972 0.243527 0.275757
0.942860 0.244415 0.518316
0.943758 0.245313 0.763809
0.944525 0.246080 0.973227
0.949883 0.492576 0.048456
0.950748 0.493440 0.284533
0.951635 0.494328 0.527092
0.952534 0.495226 0.772585
0.953301 0.495993 0.982002
0.958773 0.745740 0.057346
0.959637 0.746604 0.293423
0.960525 0.747492 0.535982
0.961424 0.748391 0.781475
0.962190 0.749157 0.990892
0.967571 0.996272 0.066143
0.968435 0.997136 0.302220
0.969323 0.998024 0.544779
0.970221 0.998923 0.790272
0.970988 0.999690 0.999690
