skills/editops-orchestrator/assets/grade/luts/cool_tech_v06.cube
TITLE "cool_tech_v06"
LUT_3D_SIZE 5
DOMAIN_MIN 0.0 0.0 0.0
DOMAIN_MAX 1.0 1.0 1.0
0.000043 0.000043 0.016257
0.000682 0.000682 0.255029
0.001333 0.001333 0.498844
0.001991 0.001991 0.744865
0.002584 0.002584 0.966795
0.006202 0.238189 0.022415
0.006840 0.238827 0.261187
0.007492 0.239479 0.505003
0.008149 0.240137 0.751023
0.008743 0.240730 0.972953
0.012650 0.487527 0.028863
0.013288 0.488165 0.267635
0.013940 0.488817 0.511450
0.014597 0.489474 0.757471
0.015190 0.490067 0.979401
0.019159 0.739236 0.035372
0.019797 0.739874 0.274144
0.020449 0.740526 0.517960
0.021107 0.741183 0.763981
0.021700 0.741777 0.985910
0.025640 0.989851 0.041853
0.026278 0.990489 0.280625
0.026930 0.991140 0.524441
0.027587 0.991798 0.770461
0.028181 0.992391 0.992391
0.211363 0.001698 0.017911
0.212002 0.002336 0.256683
0.212653 0.002988 0.500499
0.213311 0.003645 0.746519
0.213904 0.004239 0.968449
0.217522 0.239844 0.024070
0.218160 0.240482 0.262842
0.218812 0.241134 0.506657
0.219469 0.241791 0.752678
0.220062 0.242384 0.974608
0.223970 0.489181 0.030518
0.224608 0.489819 0.269290
0.225260 0.490471 0.513105
0.225917 0.491129 0.759126
0.226510 0.491722 0.981055
0.230479 0.740891 0.037027
0.231117 0.741529 0.275799
0.231769 0.742180 0.519614
0.232426 0.742838 0.765635
0.233020 0.743431 0.987565
0.236960 0.991505 0.043508
0.237598 0.992143 0.282280
0.238250 0.992795 0.526095
0.238907 0.993453 0.772116
0.239501 0.994046 0.994046
0.455874 0.003612 0.019826
0.456512 0.004251 0.258598
0.457164 0.004902 0.502413
0.457822 0.005560 0.748434
0.458415 0.006153 0.970363
0.462033 0.241758 0.025984
0.462671 0.242396 0.264756
0.463322 0.243048 0.508571
0.463980 0.243706 0.754592
0.464573 0.244299 0.976522
0.468481 0.491096 0.032432
0.469119 0.491734 0.271204
0.469770 0.492385 0.515019
0.470428 0.493043 0.761040
0.471021 0.493636 0.982970
0.474990 0.742805 0.038941
0.475628 0.743443 0.277713
0.476280 0.744095 0.521529
0.476937 0.744752 0.767549
0.477530 0.745345 0.989479
0.481471 0.993420 0.045422
0.482109 0.994058 0.284194
0.482761 0.994709 0.528010
0.483418 0.995367 0.774030
0.484011 0.995960 0.995960
0.702838 0.005546 0.021759
0.703477 0.006184 0.260531
0.704128 0.006836 0.504347
0.704786 0.007493 0.750367
0.705379 0.008087 0.972297
0.708997 0.243692 0.027918
0.709635 0.244330 0.266690
0.710287 0.244982 0.510505
0.710944 0.245639 0.756526
0.711538 0.246232 0.978456
0.715445 0.493029 0.034366
0.716083 0.493667 0.273138
0.716735 0.494319 0.516953
0.717392 0.494977 0.762974
0.717985 0.495570 0.984903
0.721954 0.744739 0.040875
0.722592 0.745377 0.279647
0.723244 0.746028 0.523462
0.723902 0.746686 0.769483
0.724495 0.747279 0.991413
0.728435 0.995353 0.047356
0.729073 0.995991 0.286128
0.729725 0.996643 0.529943
0.730382 0.997301 0.775964
0.730976 0.997894 0.997894
0.951371 0.007492 0.023705
0.952009 0.008130 0.262477
0.952661 0.008782 0.506292
0.953318 0.009439 0.752313
0.953911 0.010032 0.974243
0.957529 0.245638 0.029864
0.958167 0.246276 0.268636
0.958819 0.246928 0.512451
0.959477 0.247585 0.758472
0.960070 0.248178 0.980401
0.963977 0.494975 0.036312
0.964615 0.495613 0.275084
0.965267 0.496265 0.518899
0.965924 0.496922 0.764920
0.966518 0.497516 0.986849
0.970486 0.746684 0.042821
0.971125 0.747323 0.281593
0.971776 0.747974 0.525408
0.972434 0.748632 0.771429
0.973027 0.749225 0.993359
0.976967 0.997299 0.049302
0.977605 0.997937 0.288074
0.978257 0.998589 0.531889
0.978915 0.999246 0.777910
0.979508 0.999840 0.999840
