skills/editops-orchestrator/assets/grade/luts/cool_tech_v07.cube
TITLE "cool_tech_v07"
LUT_3D_SIZE 9
DOMAIN_MIN 0.0 0.0 0.0
DOMAIN_MAX 1.0 1.0 1.0
0.000051 0.000051 0.017593
0.000395 0.000395 0.135442
0.000746 0.000746 0.255676
0.001100 0.001100 0.377044
0.001456 0.001456 0.499175
0.001814 0.001814 0.621886
0.002174 0.002174 0.745065
0.002534 0.002534 0.868635
0.002812 0.002812 0.963865
0.003255 0.113779 0.020796
0.003599 0.114122 0.138646
0.003949 0.114473 0.258880
0.004303 0.114827 0.380247
0.004660 0.115183 0.502379
0.005018 0.115541 0.625090
0.005377 0.115901 0.748268
0.005738 0.116261 0.871838
0.006015 0.116539 0.967068
0.006720 0.236806 0.024262
0.007064 0.237149 0.142111
0.007415 0.237500 0.262345
0.007769 0.237854 0.383713
0.008125 0.238211 0.505844
0.008483 0.238569 0.628555
0.008842 0.238928 0.751733
0.009203 0.239289 0.875304
0.009481 0.239566 0.970533
0.010222 0.361128 0.027764
0.010566 0.361472 0.145613
0.010917 0.361823 0.265847
0.011271 0.362177 0.387214
0.011627 0.362533 0.509346
0.011985 0.362891 0.632057
0.012344 0.363251 0.755235
0.012705 0.363611 0.878805
0.012983 0.363889 0.974035
0.013748 0.486291 0.031289
0.014091 0.486634 0.149138
0.014442 0.486985 0.269372
0.014796 0.487339 0.390740
0.015152 0.487696 0.512872
0.015510 0.488054 0.635583
0.015870 0.488413 0.758761
0.016230 0.488773 0.882331
0.016508 0.489051 0.977561
0.017291 0.612078 0.034832
0.017634 0.612422 0.152681
0.017985 0.612773 0.272915
0.018339 0.613127 0.394283
0.018696 0.613483 0.516415
0.019054 0.613841 0.639126
0.019413 0.614201 0.762304
0.019774 0.614561 0.885874
0.020051 0.614839 0.981104
0.020848 0.738365 0.038389
0.021192 0.738709 0.156239
0.021542 0.739060 0.276473
0.021897 0.739414 0.397840
0.022253 0.739770 0.519972
0.022611 0.740128 0.642683
0.022970 0.740488 0.765861
0.023331 0.740848 0.889431
0.023609 0.741126 0.984661
0.024417 0.865068 0.041958
0.024761 0.865412 0.159808
0.025111 0.865763 0.280042
0.025465 0.866117 0.401409
0.025822 0.866473 0.523541
0.026180 0.866831 0.646252
0.026539 0.867190 0.769430
0.026900 0.867551 0.893000
0.027177 0.867829 0.988230
0.027906 0.988959 0.045448
0.028250 0.989303 0.163297
0.028601 0.989654 0.283531
0.028955 0.990008 0.404899
0.029311 0.990364 0.527031
0.029669 0.990722 0.649742
0.030029 0.991081 0.772920
0.030389 0.991442 0.896490
0.030667 0.991720 0.991720
0.086898 0.000793 0.018335
0.087242 0.001137 0.136184
0.087593 0.001488 0.256418
0.087947 0.001842 0.377786
0.088303 0.002198 0.499917
0.088661 0.002556 0.622628
0.089020 0.002916 0.745806
0.089381 0.003276 0.869377
0.089659 0.003554 0.964606
0.090102 0.114520 0.021538
0.090445 0.114864 0.139387
0.090796 0.115215 0.259621
0.091150 0.115569 0.380989
0.091506 0.115925 0.503121
0.091864 0.116283 0.625832
0.092224 0.116643 0.749010
0.092584 0.117003 0.872580
0.092862 0.117281 0.967810
0.093567 0.237548 0.025004
0.093911 0.237891 0.142853
0.094261 0.238242 0.263087
0.094616 0.238596 0.384454
0.094972 0.238953 0.506586
0.095330 0.239311 0.629297
0.095689 0.239670 0.752475
0.096050 0.240030 0.876045
0.096328 0.240308 0.971275
0.097069 0.361870 0.028505
0.097413 0.362214 0.146355
0.097763 0.362565 0.266589
0.098117 0.362919 0.387956
0.098474 0.363275 0.510088
0.098832 0.363633 0.632799
0.099191 0.363992 0.755977
0.099552 0.364353 0.879547
0.099829 0.364631 0.974777
0.100594 0.487032 0.032031
0.100938 0.487376 0.149880
0.101289 0.487727 0.270114
0.101643 0.488081 0.391482
0.101999 0.488437 0.513613
0.102357 0.488795 0.636324
0.102717 0.489155 0.759503
0.103077 0.489515 0.883073
0.103355 0.489793 0.978303
0.104137 0.612820 0.035574
0.104481 0.613164 0.153423
0.104832 0.613515 0.273657
0.105186 0.613869 0.395025
0.105542 0.614225 0.517157
0.105900 0.614583 0.639868
0.106260 0.614942 0.763046
0.106620 0.615303 0.886616
0.106898 0.615581 0.981846
0.107695 0.739107 0.039131
0.108038 0.739451 0.156981
0.108389 0.739802 0.277215
0.108743 0.740156 0.398582
0.109100 0.740512 0.520714
0.109458 0.740870 0.643425
0.109817 0.741229 0.766603
0.110177 0.741590 0.890173
0.110455 0.741868 0.985403
0.111264 0.865810 0.042700
0.111607 0.866154 0.160549
0.111958 0.866505 0.280783
0.112312 0.866859 0.402151
0.112669 0.867215 0.524283
0.113027 0.867573 0.646994
0.113386 0.867932 0.770172
0.113746 0.868293 0.893742
0.114024 0.868571 0.988972
0.114753 0.989701 0.046190
0.115097 0.990045 0.164039
0.115448 0.990396 0.284273
0.115802 0.990750 0.405641
0.116158 0.991106 0.527772
0.116516 0.991464 0.650483
0.116876 0.991823 0.773662
0.117236 0.992184 0.897232
0.117514 0.992462 0.992462
0.207112 0.001820 0.019362
0.207456 0.002164 0.137211
0.207807 0.002515 0.257445
0.208161 0.002869 0.378812
0.208517 0.003225 0.500944
0.208875 0.003583 0.623655
0.209235 0.003942 0.746833
0.209595 0.004303 0.870404
0.209873 0.004581 0.965633
0.210316 0.115547 0.022565
0.210659 0.115891 0.140414
0.211010 0.116242 0.260648
0.211364 0.116596 0.382016
0.211721 0.116952 0.504148
0.212079 0.117310 0.626859
0.212438 0.117670 0.750037
0.212798 0.118030 0.873607
0.213076 0.118308 0.968837
0.213781 0.238574 0.026030
0.214125 0.238918 0.143880
0.214476 0.239269 0.264114
0.214830 0.239623 0.385481
0.215186 0.239979 0.507613
0.215544 0.240337 0.630324
0.215903 0.240697 0.753502
0.216264 0.241057 0.877072
0.216542 0.241335 0.972302
0.217283 0.362897 0.029532
0.217627 0.363241 0.147382
0.217977 0.363592 0.267616
0.218331 0.363946 0.388983
0.218688 0.364302 0.511115
0.219046 0.364660 0.633826
0.219405 0.365019 0.757004
0.219766 0.365380 0.880574
0.220044 0.365658 0.975804
0.220808 0.488059 0.033058
0.221152 0.488403 0.150907
0.221503 0.488754 0.271141
0.221857 0.489108 0.392509
0.222213 0.489464 0.514640
0.222571 0.489822 0.637351
0.222931 0.490182 0.760530
0.223291 0.490542 0.884100
0.223569 0.490820 0.979330
0.224351 0.613847 0.036601
0.224695 0.614191 0.154450
0.225046 0.614542 0.274684
0.225400 0.614896 0.396052
0.225756 0.615252 0.518184
0.226114 0.615610 0.640894
0.226474 0.615969 0.764073
0.226834 0.616330 0.887643
0.227112 0.616608 0.982873
0.227909 0.740134 0.040158
0.228253 0.740478 0.158007
0.228603 0.740829 0.278241
0.228957 0.741183 0.399609
0.229314 0.741539 0.521741
0.229672 0.741897 0.644452
0.230031 0.742256 0.767630
0.230392 0.742617 0.891200
0.230669 0.742895 0.986430
0.231478 0.866837 0.043727
0.231821 0.867181 0.161576
0.232172 0.867531 0.281810
0.232526 0.867886 0.403178
0.232883 0.868242 0.525310
0.233241 0.868600 0.648021
0.233600 0.868959 0.771199
0.233960 0.869320 0.894769
0.234238 0.869598 0.989999
0.234967 0.990728 0.047217
0.235311 0.991072 0.165066
0.235662 0.991422 0.285300
0.236016 0.991777 0.406668
0.236372 0.992133 0.528799
0.236730 0.992491 0.651510
0.237090 0.992850 0.774688
0.237450 0.993211 0.898259
0.237728 0.993489 0.993489
0.328762 0.002859 0.020401
0.329106 0.003203 0.138250
0.329457 0.003554 0.258484
0.329811 0.003908 0.379852
0.330167 0.004264 0.501983
0.330525 0.004622 0.624694
0.330884 0.004982 0.747872
0.331245 0.005342 0.871443
0.331523 0.005620 0.966673
0.331965 0.116586 0.023604
0.332309 0.116930 0.141453
0.332660 0.117281 0.261687
0.333014 0.117635 0.383055
0.333370 0.117991 0.505187
0.333728 0.118349 0.627898
0.334088 0.118709 0.751076
0.334448 0.119069 0.874646
0.334726 0.119347 0.969876
0.335431 0.239614 0.027070
0.335775 0.239957 0.144919
0.336125 0.240308 0.265153
0.336479 0.240662 0.386520
0.336836 0.241019 0.508652
0.337194 0.241377 0.631363
0.337553 0.241736 0.754541
0.337914 0.242096 0.878111
0.338191 0.242374 0.973341
0.338933 0.363936 0.030571
0.339276 0.364280 0.148421
0.339627 0.364631 0.268655
0.339981 0.364985 0.390022
0.340338 0.365341 0.512154
0.340696 0.365699 0.634865
0.341055 0.366058 0.758043
0.341415 0.366419 0.881613
0.341693 0.366697 0.976843
0.342458 0.489098 0.034097
0.342802 0.489442 0.151946
0.343153 0.489793 0.272180
0.343507 0.490147 0.393548
0.343863 0.490503 0.515680
0.344221 0.490861 0.638390
0.344580 0.491221 0.761569
0.344941 0.491581 0.885139
0.345219 0.491859 0.980369
0.346001 0.614886 0.037640
0.346345 0.615230 0.155489
0.346696 0.615581 0.275723
0.347050 0.615935 0.397091
0.347406 0.616291 0.519223
0.347764 0.616649 0.641934
0.348124 0.617008 0.765112
0.348484 0.617369 0.888682
0.348762 0.617647 0.983912
0.349558 0.741173 0.041197
0.349902 0.741517 0.159047
0.350253 0.741868 0.279281
0.350607 0.742222 0.400648
0.350963 0.742578 0.522780
0.351321 0.742936 0.645491
0.351681 0.743295 0.768669
0.352041 0.743656 0.892239
0.352319 0.743934 0.987469
0.353127 0.867876 0.044766
0.353471 0.868220 0.162615
0.353822 0.868571 0.282850
0.354176 0.868925 0.404217
0.354532 0.869281 0.526349
0.354890 0.869639 0.649060
0.355250 0.869998 0.772238
0.355610 0.870359 0.895808
0.355888 0.870637 0.991038
0.356617 0.991767 0.048256
0.356961 0.992111 0.166105
0.357312 0.992462 0.286339
0.357666 0.992816 0.407707
0.358022 0.993172 0.529838
0.358380 0.993530 0.652549
0.358739 0.993889 0.775728
0.359100 0.994250 0.899298
0.359378 0.994528 0.994528
0.451298 0.003906 0.021448
0.451642 0.004250 0.139297
0.451993 0.004601 0.259531
0.452347 0.004955 0.380898
0.452703 0.005311 0.503030
0.453061 0.005669 0.625741
0.453421 0.006028 0.748919
0.453781 0.006389 0.872489
0.454059 0.006667 0.967719
0.454502 0.117633 0.024651
0.454846 0.117977 0.142500
0.455196 0.118328 0.262734
0.455551 0.118682 0.384102
0.455907 0.119038 0.506233
0.456265 0.119396 0.628944
0.456624 0.119755 0.752123
0.456985 0.120116 0.875693
0.457263 0.120394 0.970923
0.457967 0.240660 0.028116
0.458311 0.241004 0.145966
0.458662 0.241355 0.266200
0.459016 0.241709 0.387567
0.459372 0.242065 0.509699
0.459730 0.242423 0.632410
0.460090 0.242783 0.755588
0.460450 0.243143 0.879158
0.460728 0.243421 0.974388
0.461469 0.364983 0.031618
0.461813 0.365327 0.149467
0.462164 0.365677 0.269701
0.462518 0.366031 0.391069
0.462874 0.366388 0.513201
0.463232 0.366746 0.635912
0.463591 0.367105 0.759090
0.463952 0.367466 0.882660
0.464230 0.367743 0.977890
0.464995 0.490145 0.035144
0.465338 0.490489 0.152993
0.465689 0.490840 0.273227
0.466043 0.491194 0.394595
0.466400 0.491550 0.516726
0.466758 0.491908 0.639437
0.467117 0.492268 0.762615
0.467478 0.492628 0.886186
0.467755 0.492906 0.981415
0.468538 0.615933 0.038687
0.468882 0.616277 0.156536
0.469232 0.616627 0.276770
0.469586 0.616982 0.398138
0.469943 0.617338 0.520269
0.470301 0.617696 0.642980
0.470660 0.618055 0.766159
0.471021 0.618416 0.889729
0.471298 0.618694 0.984959
0.472095 0.742220 0.042244
0.472439 0.742564 0.160093
0.472790 0.742914 0.280327
0.473144 0.743269 0.401695
0.473500 0.743625 0.523827
0.473858 0.743983 0.646538
0.474217 0.744342 0.769716
0.474578 0.744703 0.893286
0.474856 0.744981 0.988516
0.475664 0.868923 0.045813
0.476008 0.869267 0.163662
0.476359 0.869617 0.283896
0.476713 0.869971 0.405264
0.477069 0.870328 0.527396
0.477427 0.870686 0.650106
0.477786 0.871045 0.773285
0.478147 0.871406 0.896855
0.478425 0.871683 0.992085
0.479154 0.992814 0.049303
0.479497 0.993158 0.167152
0.479848 0.993508 0.287386
0.480202 0.993862 0.408754
0.480559 0.994219 0.530885
0.480917 0.994577 0.653596
0.481276 0.994936 0.776774
0.481636 0.995297 0.900345
0.481914 0.995574 0.995574
0.574482 0.004958 0.022500
0.574826 0.005302 0.140349
0.575176 0.005653 0.260583
0.575531 0.006007 0.381951
0.575887 0.006363 0.504082
0.576245 0.006721 0.626793
0.576604 0.007081 0.749971
0.576965 0.007441 0.873542
0.577243 0.007719 0.968772
0.577685 0.118685 0.025703
0.578029 0.119029 0.143552
0.578380 0.119380 0.263786
0.578734 0.119734 0.385154
0.579090 0.120090 0.507286
0.579448 0.120448 0.629997
0.579808 0.120808 0.753175
0.580168 0.121168 0.876745
0.580446 0.121446 0.971975
0.581151 0.241713 0.029169
0.581494 0.242056 0.147018
0.581845 0.242407 0.267252
0.582199 0.242761 0.388619
0.582556 0.243118 0.510751
0.582914 0.243476 0.633462
0.583273 0.243835 0.756640
0.583633 0.244195 0.880210
0.583911 0.244473 0.975440
0.584653 0.366035 0.032670
0.584996 0.366379 0.150520
0.585347 0.366730 0.270754
0.585701 0.367084 0.392121
0.586057 0.367440 0.514253
0.586415 0.367798 0.636964
0.586775 0.368157 0.760142
0.587135 0.368518 0.883712
0.587413 0.368796 0.978942
0.588178 0.491197 0.036196
0.588522 0.491541 0.154045
0.588873 0.491892 0.274279
0.589227 0.492246 0.395647
0.589583 0.492602 0.517779
0.589941 0.492960 0.640489
0.590300 0.493320 0.763668
0.590661 0.493680 0.887238
0.590939 0.493958 0.982468
0.591721 0.616985 0.039739
0.592065 0.617329 0.157588
0.592416 0.617680 0.277822
0.592770 0.618034 0.399190
0.593126 0.618390 0.521322
0.593484 0.618748 0.644033
0.593844 0.619107 0.767211
0.594204 0.619468 0.890781
0.594482 0.619746 0.986011
0.595278 0.743272 0.043296
0.595622 0.743616 0.161146
0.595973 0.743967 0.281380
0.596327 0.744321 0.402747
0.596683 0.744677 0.524879
0.597041 0.745035 0.647590
0.597401 0.745394 0.770768
0.597761 0.745755 0.894338
0.598039 0.746033 0.989568
0.598847 0.869975 0.046865
0.599191 0.870319 0.164714
0.599542 0.870670 0.284948
0.599896 0.871024 0.406316
0.600252 0.871380 0.528448
0.600610 0.871738 0.651159
0.600970 0.872097 0.774337
0.601330 0.872458 0.897907
0.601608 0.872736 0.993137
0.602337 0.993866 0.050355
0.602681 0.994210 0.168204
0.603032 0.994561 0.288438
0.603386 0.994915 0.409806
0.603742 0.995271 0.531937
0.604100 0.995629 0.654648
0.604459 0.995988 0.777827
0.604820 0.996349 0.901397
0.605098 0.996627 0.996627
0.698176 0.006015 0.023556
0.698520 0.006359 0.141406
0.698870 0.006709 0.261640
0.699224 0.007063 0.383007
0.699581 0.007420 0.505139
0.699939 0.007778 0.627850
0.700298 0.008137 0.751028
0.700659 0.008498 0.874598
0.700936 0.008776 0.969828
0.701379 0.119742 0.026760
0.701723 0.120086 0.144609
0.702074 0.120437 0.264843
0.702428 0.120791 0.386211
0.702784 0.121147 0.508342
0.703142 0.121505 0.631053
0.703502 0.121864 0.754231
0.703862 0.122225 0.877802
0.704140 0.122503 0.973032
0.704845 0.242769 0.030225
0.705188 0.243113 0.148074
0.705539 0.243464 0.268308
0.705893 0.243818 0.389676
0.706250 0.244174 0.511808
0.706608 0.244532 0.634519
0.706967 0.244892 0.757697
0.707327 0.245252 0.881267
0.707605 0.245530 0.976497
0.708346 0.367092 0.033727
0.708690 0.367435 0.151576
0.709041 0.367786 0.271810
0.709395 0.368140 0.393178
0.709751 0.368497 0.515310
0.710109 0.368855 0.638021
0.710469 0.369214 0.761199
0.710829 0.369575 0.884769
0.711107 0.369852 0.979999
0.711872 0.492254 0.037253
0.712216 0.492598 0.155102
0.712567 0.492949 0.275336
0.712921 0.493303 0.396703
0.713277 0.493659 0.518835
0.713635 0.494017 0.641546
0.713994 0.494376 0.764724
0.714355 0.494737 0.888294
0.714633 0.495015 0.983524
0.715415 0.618042 0.040796
0.715759 0.618386 0.158645
0.716110 0.618736 0.278879
0.716464 0.619090 0.400247
0.716820 0.619447 0.522378
0.717178 0.619805 0.645089
0.717537 0.620164 0.768267
0.717898 0.620525 0.891838
0.718176 0.620802 0.987067
0.718972 0.744329 0.044353
0.719316 0.744673 0.162202
0.719667 0.745023 0.282436
0.720021 0.745377 0.403804
0.720377 0.745734 0.525935
0.720735 0.746092 0.648646
0.721095 0.746451 0.771825
0.721455 0.746812 0.895395
0.721733 0.747089 0.990625
0.722541 0.871032 0.047922
0.722885 0.871375 0.165771
0.723236 0.871726 0.286005
0.723590 0.872080 0.407373
0.723946 0.872437 0.529504
0.724304 0.872795 0.652215
0.724664 0.873154 0.775394
0.725024 0.873514 0.898964
0.725302 0.873792 0.994194
0.726031 0.994923 0.051412
0.726375 0.995266 0.169261
0.726725 0.995617 0.289495
0.727080 0.995971 0.410862
0.727436 0.996328 0.532994
0.727794 0.996686 0.655705
0.728153 0.997045 0.778883
0.728514 0.997405 0.902453
0.728792 0.997683 0.997683
0.822292 0.007075 0.024617
0.822636 0.007419 0.142466
0.822986 0.007770 0.262700
0.823341 0.008124 0.384067
0.823697 0.008480 0.506199
0.824055 0.008838 0.628910
0.824414 0.009197 0.752088
0.824775 0.009558 0.875658
0.825053 0.009836 0.970888
0.825495 0.120802 0.027820
0.825839 0.121146 0.145669
0.826190 0.121497 0.265903
0.826544 0.121851 0.387271
0.826900 0.122207 0.509403
0.827258 0.122565 0.632114
0.827618 0.122925 0.755292
0.827978 0.123285 0.878862
0.828256 0.123563 0.974092
0.828961 0.243829 0.031285
0.829305 0.244173 0.149135
0.829655 0.244524 0.269369
0.830009 0.244878 0.390736
0.830366 0.245234 0.512868
0.830724 0.245592 0.635579
0.831083 0.245952 0.758757
0.831444 0.246312 0.882327
0.831721 0.246590 0.977557
0.832463 0.368152 0.034787
0.832806 0.368496 0.152637
0.833157 0.368846 0.272871
0.833511 0.369201 0.394238
0.833868 0.369557 0.516370
0.834226 0.369915 0.639081
0.834585 0.370274 0.762259
0.834945 0.370635 0.885829
0.835223 0.370913 0.981059
0.835988 0.493314 0.038313
0.836332 0.493658 0.156162
0.836683 0.494009 0.276396
0.837037 0.494363 0.397764
0.837393 0.494719 0.519895
0.837751 0.495077 0.642606
0.838110 0.495437 0.765784
0.838471 0.495797 0.889355
0.838749 0.496075 0.984585
0.839531 0.619102 0.041856
0.839875 0.619446 0.159705
0.840226 0.619797 0.279939
0.840580 0.620151 0.401307
0.840936 0.620507 0.523438
0.841294 0.620865 0.646149
0.841654 0.621224 0.769328
0.842014 0.621585 0.892898
0.842292 0.621863 0.988128
0.843088 0.745389 0.045413
0.843432 0.745733 0.163262
0.843783 0.746084 0.283496
0.844137 0.746438 0.404864
0.844493 0.746794 0.526996
0.844851 0.747152 0.649707
0.845211 0.747511 0.772885
0.845571 0.747872 0.896455
0.845849 0.748150 0.991685
0.846657 0.872092 0.048982
0.847001 0.872436 0.166831
0.847352 0.872786 0.287065
0.847706 0.873141 0.408433
0.848062 0.873497 0.530565
0.848420 0.873855 0.653276
0.848780 0.874214 0.776454
0.849140 0.874575 0.900024
0.849418 0.874853 0.995254
0.850147 0.995983 0.052472
0.850491 0.996327 0.170321
0.850842 0.996677 0.290555
0.851196 0.997032 0.411923
0.851552 0.997388 0.534054
0.851910 0.997746 0.656765
0.852269 0.998105 0.779943
0.852630 0.998466 0.903514
0.852908 0.998744 0.998744
0.946768 0.008138 0.025680
0.947112 0.008482 0.143529
0.947463 0.008833 0.263763
0.947817 0.009187 0.385131
0.948173 0.009543 0.507262
0.948531 0.009901 0.629973
0.948891 0.010261 0.753152
0.949251 0.010621 0.876722
0.949529 0.010899 0.971952
0.949972 0.121866 0.028883
0.950316 0.122209 0.146733
0.950666 0.122560 0.266967
0.951020 0.122914 0.388334
0.951377 0.123271 0.510466
0.951735 0.123629 0.633177
0.952094 0.123988 0.756355
0.952455 0.124348 0.879925
0.952732 0.124626 0.975155
0.953437 0.244893 0.032349
0.953781 0.245237 0.150198
0.954132 0.245587 0.270432
0.954486 0.245941 0.391800
0.954842 0.246298 0.513931
0.955200 0.246656 0.636642
0.955559 0.247015 0.759820
0.955920 0.247376 0.883391
0.956198 0.247653 0.978620
0.956939 0.369215 0.035851
0.957283 0.369559 0.153700
0.957634 0.369910 0.273934
0.957988 0.370264 0.395301
0.958344 0.370620 0.517433
0.958702 0.370978 0.640144
0.959061 0.371338 0.763322
0.959422 0.371698 0.886892
0.959700 0.371976 0.982122
0.960464 0.494378 0.039376
0.960808 0.494721 0.157225
0.961159 0.495072 0.277459
0.961513 0.495426 0.398827
0.961869 0.495783 0.520959
0.962227 0.496141 0.643670
0.962587 0.496500 0.766848
0.962947 0.496860 0.890418
0.963225 0.497138 0.985648
0.964008 0.620165 0.042919
0.964351 0.620509 0.160768
0.964702 0.620860 0.281003
0.965056 0.621214 0.402370
0.965413 0.621570 0.524502
0.965771 0.621928 0.647213
0.966130 0.622288 0.770391
0.966490 0.622648 0.893961
0.966768 0.622926 0.989191
0.967565 0.746452 0.046476
0.967909 0.746796 0.164326
0.968259 0.747147 0.284560
0.968613 0.747501 0.405927
0.968970 0.747857 0.528059
0.969328 0.748215 0.650770
0.969687 0.748575 0.773948
0.970048 0.748935 0.897518
0.970325 0.749213 0.992748
0.971134 0.873155 0.050045
0.971478 0.873499 0.167895
0.971828 0.873850 0.288129
0.972182 0.874204 0.409496
0.972539 0.874560 0.531628
0.972897 0.874918 0.654339
0.973256 0.875277 0.777517
0.973617 0.875638 0.901087
0.973894 0.875916 0.996317
0.974623 0.997046 0.053535
0.974967 0.997390 0.171384
0.975318 0.997741 0.291618
0.975672 0.998095 0.412986
0.976028 0.998451 0.535118
0.976386 0.998809 0.657829
0.976746 0.999168 0.781007
0.977106 0.999529 0.904577
0.977384 0.999807 0.999807
