skills/editops-orchestrator/assets/grade/luts/cool_tech_v18.cube
TITLE "cool_tech_v18"
LUT_3D_SIZE 17
DOMAIN_MIN 0.0 0.0 0.0
DOMAIN_MAX 1.0 1.0 1.0
0.000180 0.000180 0.031548
0.000501 0.000501 0.087689
0.000829 0.000829 0.145245
0.001163 0.001163 0.203645
0.001500 0.001500 0.262655
0.001840 0.001840 0.322143
0.002182 0.002182 0.382027
0.002525 0.002525 0.442247
0.002871 0.002871 0.502761
0.003218 0.003218 0.563535
0.003566 0.003566 0.624544
0.003916 0.003916 0.685765
0.004267 0.004267 0.747182
0.004618 0.004618 0.808778
0.004971 0.004971 0.870542
0.005320 0.005320 0.931636
0.005320 0.005320 0.931636
0.002352 0.040533 0.033720
0.002673 0.040853 0.089861
0.003002 0.041182 0.147417
0.003335 0.041515 0.205817
0.003672 0.041852 0.264827
0.004012 0.042192 0.324315
0.004354 0.042534 0.384199
0.004698 0.042878 0.444419
0.005043 0.043224 0.504933
0.005390 0.043571 0.565707
0.005739 0.043919 0.626716
0.006088 0.044269 0.687937
0.006439 0.044619 0.749354
0.006791 0.044971 0.810950
0.007143 0.045324 0.872714
0.007492 0.045673 0.933808
0.007492 0.045673 0.933808
0.005541 0.099779 0.036909
0.005862 0.100100 0.093051
0.006191 0.100429 0.150606
0.006524 0.100762 0.209007
0.006861 0.101099 0.268016
0.007201 0.101439 0.327504
0.007543 0.101781 0.387388
0.007887 0.102125 0.447608
0.008232 0.102470 0.508122
0.008579 0.102817 0.568896
0.008928 0.103166 0.629905
0.009277 0.103515 0.691127
0.009628 0.103866 0.752543
0.009980 0.104218 0.814140
0.010332 0.104570 0.875904
0.010681 0.104919 0.936997
0.010681 0.104919 0.936997
0.008804 0.160393 0.040172
0.009125 0.160714 0.096313
0.009453 0.161042 0.153869
0.009787 0.161376 0.212269
0.010124 0.161713 0.271279
0.010464 0.162052 0.330767
0.010806 0.162394 0.390651
0.011149 0.162738 0.450871
0.011495 0.163084 0.511385
0.011842 0.163431 0.572159
0.012190 0.163779 0.633168
0.012540 0.164129 0.694389
0.012891 0.164480 0.755806
0.013242 0.164831 0.817402
0.013595 0.165184 0.879166
0.013944 0.165533 0.940260
0.013944 0.165533 0.940260
0.012112 0.221853 0.043480
0.012433 0.222173 0.099622
0.012762 0.222502 0.157177
0.013095 0.222836 0.215578
0.013432 0.223173 0.274587
0.013772 0.223512 0.334076
0.014114 0.223854 0.393959
0.014458 0.224198 0.454179
0.014803 0.224544 0.514693
0.015150 0.224891 0.575467
0.015499 0.225239 0.636476
0.015848 0.225589 0.697698
0.016199 0.225939 0.759114
0.016551 0.226291 0.820711
0.016903 0.226644 0.882475
0.017252 0.226993 0.943568
0.017252 0.226993 0.943568
0.015454 0.283932 0.046822
0.015775 0.284253 0.102963
0.016103 0.284581 0.160519
0.016437 0.284915 0.218919
0.016774 0.285252 0.277929
0.017114 0.285592 0.337417
0.017455 0.285933 0.397301
0.017799 0.286277 0.457521
0.018145 0.286623 0.518035
0.018492 0.286970 0.578809
0.018840 0.287318 0.639818
0.019190 0.287668 0.701039
0.019541 0.288019 0.762456
0.019892 0.288370 0.824052
0.020245 0.288723 0.885816
0.020594 0.289072 0.946910
0.020594 0.289072 0.946910
0.018822 0.346501 0.050190
0.019143 0.346822 0.106331
0.019471 0.347151 0.163887
0.019805 0.347484 0.222287
0.020142 0.347821 0.281297
0.020482 0.348161 0.340785
0.020823 0.348503 0.400669
0.021167 0.348847 0.460889
0.021513 0.349192 0.521403
0.021860 0.349539 0.582177
0.022208 0.349888 0.643186
0.022558 0.350237 0.704407
0.022909 0.350588 0.765824
0.023260 0.350940 0.827420
0.023613 0.351292 0.889184
0.023962 0.351641 0.950278
0.023962 0.351641 0.950278
0.022212 0.409477 0.053580
0.022533 0.409798 0.109721
0.022861 0.410126 0.167277
0.023195 0.410460 0.225677
0.023532 0.410797 0.284687
0.023871 0.411137 0.344175
0.024213 0.411479 0.404059
0.024557 0.411822 0.464279
0.024903 0.412168 0.524793
0.025250 0.412515 0.585567
0.025598 0.412863 0.646576
0.025948 0.413213 0.707797
0.026299 0.413564 0.769214
0.026650 0.413916 0.830810
0.027003 0.414268 0.892574
0.027352 0.414617 0.953668
0.027352 0.414617 0.953668
0.025621 0.472801 0.056988
0.025941 0.473121 0.113130
0.026270 0.473450 0.170686
0.026603 0.473783 0.229086
0.026940 0.474120 0.288095
0.027280 0.474460 0.347584
0.027622 0.474802 0.407467
0.027966 0.475146 0.467687
0.028311 0.475491 0.528201
0.028658 0.475838 0.588976
0.029007 0.476187 0.649984
0.029356 0.476536 0.711206
0.029707 0.476887 0.772622
0.030059 0.477239 0.834219
0.030412 0.477591 0.895983
0.030760 0.477940 0.957076
0.030760 0.477940 0.957076
0.029046 0.536428 0.060413
0.029366 0.536748 0.116555
0.029695 0.537077 0.174111
0.030028 0.537410 0.232511
0.030365 0.537747 0.291520
0.030705 0.538087 0.351009
0.031047 0.538429 0.410892
0.031391 0.538773 0.471112
0.031736 0.539118 0.531626
0.032083 0.539465 0.592401
0.032432 0.539814 0.653409
0.032781 0.540163 0.714631
0.033132 0.540514 0.776047
0.033484 0.540866 0.837644
0.033837 0.541219 0.899408
0.034185 0.541567 0.960501
0.034185 0.541567 0.960501
0.032485 0.600325 0.063853
0.032806 0.600645 0.119994
0.033134 0.600974 0.177550
0.033468 0.601307 0.235950
0.033805 0.601644 0.294960
0.034144 0.601984 0.354448
0.034486 0.602326 0.414332
0.034830 0.602670 0.474552
0.035176 0.603015 0.535066
0.035523 0.603363 0.595840
0.035871 0.603711 0.656849
0.036221 0.604061 0.718070
0.036572 0.604411 0.779487
0.036923 0.604763 0.841083
0.037276 0.605116 0.902847
0.037625 0.605465 0.963941
0.037625 0.605465 0.963941
0.035938 0.664465 0.067305
0.036258 0.664785 0.123447
0.036587 0.665114 0.181003
0.036920 0.665448 0.239403
0.037257 0.665785 0.298412
0.037597 0.666124 0.357901
0.037939 0.666466 0.417784
0.038283 0.666810 0.478004
0.038628 0.667156 0.538518
0.038975 0.667503 0.599293
0.039324 0.667851 0.660301
0.039673 0.668201 0.721523
0.040024 0.668551 0.782939
0.040376 0.668903 0.844536
0.040729 0.669256 0.906300
0.041077 0.669605 0.967393
0.041077 0.669605 0.967393
0.039402 0.728826 0.070770
0.039723 0.729147 0.126911
0.040051 0.729475 0.184467
0.040385 0.729809 0.242867
0.040722 0.730146 0.301877
0.041062 0.730486 0.361365
0.041403 0.730828 0.421249
0.041747 0.731171 0.481469
0.042093 0.731517 0.541983
0.042440 0.731864 0.602757
0.042788 0.732212 0.663766
0.043138 0.732562 0.724987
0.043489 0.732913 0.786404
0.043840 0.733264 0.848000
0.044193 0.733617 0.909764
0.044542 0.733966 0.970858
0.044542 0.733966 0.970858
0.042878 0.793390 0.074245
0.043198 0.793711 0.130387
0.043527 0.794040 0.187942
0.043860 0.794373 0.246343
0.044197 0.794710 0.305352
0.044537 0.795050 0.364841
0.044879 0.795392 0.424724
0.045223 0.795736 0.484944
0.045568 0.796081 0.545458
0.045915 0.796428 0.606233
0.046264 0.796777 0.667241
0.046613 0.797126 0.728463
0.046964 0.797477 0.789879
0.047316 0.797829 0.851476
0.047668 0.798181 0.913240
0.048017 0.798530 0.974333
0.048017 0.798530 0.974333
0.046363 0.858142 0.077730
0.046684 0.858463 0.133872
0.047012 0.858791 0.191428
0.047346 0.859125 0.249828
0.047683 0.859462 0.308838
0.048022 0.859801 0.368326
0.048364 0.860143 0.428210
0.048708 0.860487 0.488430
0.049054 0.860833 0.548944
0.049401 0.861180 0.609718
0.049749 0.861528 0.670727
0.050099 0.861878 0.731948
0.050450 0.862229 0.793365
0.050801 0.862580 0.854961
0.051154 0.862933 0.916725
0.051503 0.863282 0.977819
0.051503 0.863282 0.977819
0.049858 0.923068 0.081225
0.050178 0.923389 0.137367
0.050507 0.923717 0.194923
0.050841 0.924051 0.253323
0.051178 0.924388 0.312333
0.051517 0.924727 0.371821
0.051859 0.925069 0.431704
0.052203 0.925413 0.491925
0.052549 0.925759 0.552438
0.052896 0.926106 0.613213
0.053244 0.926454 0.674222
0.053594 0.926804 0.735443
0.053944 0.927155 0.796859
0.054296 0.927506 0.858456
0.054649 0.927859 0.920220
0.054998 0.928208 0.981314
0.054998 0.928208 0.981314
0.052879 0.979195 0.084247
0.053200 0.979515 0.140388
0.053528 0.979844 0.197944
0.053862 0.980178 0.256344
0.054199 0.980515 0.315354
0.054539 0.980854 0.374842
0.054880 0.981196 0.434726
0.055224 0.981540 0.494946
0.055570 0.981886 0.555460
0.055917 0.982233 0.616234
0.056265 0.982581 0.677243
0.056615 0.982931 0.738464
0.056966 0.983281 0.799881
0.057317 0.983633 0.861477
0.057670 0.983986 0.923241
0.058019 0.984335 0.984335
0.058019 0.984335 0.984335
0.000180 0.000180 0.031548
0.000501 0.000501 0.087689
0.000829 0.000829 0.145245
0.001163 0.001163 0.203645
0.001500 0.001500 0.262655
0.001840 0.001840 0.322143
0.002182 0.002182 0.382027
0.002525 0.002525 0.442247
0.002871 0.002871 0.502761
0.003218 0.003218 0.563535
0.003566 0.003566 0.624544
0.003916 0.003916 0.685765
0.004267 0.004267 0.747182
0.004618 0.004618 0.808778
0.004971 0.004971 0.870542
0.005320 0.005320 0.931636
0.005320 0.005320 0.931636
0.002352 0.040533 0.033720
0.002673 0.040853 0.089861
0.003002 0.041182 0.147417
0.003335 0.041515 0.205817
0.003672 0.041852 0.264827
0.004012 0.042192 0.324315
0.004354 0.042534 0.384199
0.004698 0.042878 0.444419
0.005043 0.043224 0.504933
0.005390 0.043571 0.565707
0.005739 0.043919 0.626716
0.006088 0.044269 0.687937
0.006439 0.044619 0.749354
0.006791 0.044971 0.810950
0.007143 0.045324 0.872714
0.007492 0.045673 0.933808
0.007492 0.045673 0.933808
0.005541 0.099779 0.036909
0.005862 0.100100 0.093051
0.006191 0.100429 0.150606
0.006524 0.100762 0.209007
0.006861 0.101099 0.268016
0.007201 0.101439 0.327504
0.007543 0.101781 0.387388
0.007887 0.102125 0.447608
0.008232 0.102470 0.508122
0.008579 0.102817 0.568896
0.008928 0.103166 0.629905
0.009277 0.103515 0.691127
0.009628 0.103866 0.752543
0.009980 0.104218 0.814140
0.010332 0.104570 0.875904
0.010681 0.104919 0.936997
0.010681 0.104919 0.936997
0.008804 0.160393 0.040172
0.009125 0.160714 0.096313
0.009453 0.161042 0.153869
0.009787 0.161376 0.212269
0.010124 0.161713 0.271279
0.010464 0.162052 0.330767
0.010806 0.162394 0.390651
0.011149 0.162738 0.450871
0.011495 0.163084 0.511385
0.011842 0.163431 0.572159
0.012190 0.163779 0.633168
0.012540 0.164129 0.694389
0.012891 0.164480 0.755806
0.013242 0.164831 0.817402
0.013595 0.165184 0.879166
0.013944 0.165533 0.940260
0.013944 0.165533 0.940260
0.012112 0.221853 0.043480
0.012433 0.222173 0.099622
0.012762 0.222502 0.157177
0.013095 0.222836 0.215578
0.013432 0.223173 0.274587
0.013772 0.223512 0.334076
0.014114 0.223854 0.393959
0.014458 0.224198 0.454179
0.014803 0.224544 0.514693
0.015150 0.224891 0.575467
0.015499 0.225239 0.636476
0.015848 0.225589 0.697698
0.016199 0.225939 0.759114
0.016551 0.226291 0.820711
0.016903 0.226644 0.882475
0.017252 0.226993 0.943568
0.017252 0.226993 0.943568
0.015454 0.283932 0.046822
0.015775 0.284253 0.102963
0.016103 0.284581 0.160519
0.016437 0.284915 0.218919
0.016774 0.285252 0.277929
0.017114 0.285592 0.337417
0.017455 0.285933 0.397301
0.017799 0.286277 0.457521
0.018145 0.286623 0.518035
0.018492 0.286970 0.578809
0.018840 0.287318 0.639818
0.019190 0.287668 0.701039
0.019541 0.288019 0.762456
0.019892 0.288370 0.824052
0.020245 0.288723 0.885816
0.020594 0.289072 0.946910
0.020594 0.289072 0.946910
0.018822 0.346501 0.050190
0.019143 0.346822 0.106331
0.019471 0.347151 0.163887
0.019805 0.347484 0.222287
0.020142 0.347821 0.281297
0.020482 0.348161 0.340785
0.020823 0.348503 0.400669
0.021167 0.348847 0.460889
0.021513 0.349192 0.521403
0.021860 0.349539 0.582177
0.022208 0.349888 0.643186
0.022558 0.350237 0.704407
0.022909 0.350588 0.765824
0.023260 0.350940 0.827420
0.023613 0.351292 0.889184
0.023962 0.351641 0.950278
0.023962 0.351641 0.950278
0.022212 0.409477 0.053580
0.022533 0.409798 0.109721
0.022861 0.410126 0.167277
0.023195 0.410460 0.225677
0.023532 0.410797 0.284687
0.023871 0.411137 0.344175
0.024213 0.411479 0.404059
0.024557 0.411822 0.464279
0.024903 0.412168 0.524793
0.025250 0.412515 0.585567
0.025598 0.412863 0.646576
0.025948 0.413213 0.707797
0.026299 0.413564 0.769214
0.026650 0.413916 0.830810
0.027003 0.414268 0.892574
0.027352 0.414617 0.953668
0.027352 0.414617 0.953668
0.025621 0.472801 0.056988
0.025941 0.473121 0.113130
0.026270 0.473450 0.170686
0.026603 0.473783 0.229086
0.026940 0.474120 0.288095
0.027280 0.474460 0.347584
0.027622 0.474802 0.407467
0.027966 0.475146 0.467687
0.028311 0.475491 0.528201
0.028658 0.475838 0.588976
0.029007 0.476187 0.649984
0.029356 0.476536 0.711206
0.029707 0.476887 0.772622
0.030059 0.477239 0.834219
0.030412 0.477591 0.895983
0.030760 0.477940 0.957076
0.030760 0.477940 0.957076
0.029046 0.536428 0.060413
0.029366 0.536748 0.116555
0.029695 0.537077 0.174111
0.030028 0.537410 0.232511
0.030365 0.537747 0.291520
0.030705 0.538087 0.351009
0.031047 0.538429 0.410892
0.031391 0.538773 0.471112
0.031736 0.539118 0.531626
0.032083 0.539465 0.592401
0.032432 0.539814 0.653409
0.032781 0.540163 0.714631
0.033132 0.540514 0.776047
0.033484 0.540866 0.837644
0.033837 0.541219 0.899408
0.034185 0.541567 0.960501
0.034185 0.541567 0.960501
0.032485 0.600325 0.063853
0.032806 0.600645 0.119994
0.033134 0.600974 0.177550
0.033468 0.601307 0.235950
0.033805 0.601644 0.294960
0.034144 0.601984 0.354448
0.034486 0.602326 0.414332
0.034830 0.602670 0.474552
0.035176 0.603015 0.535066
0.035523 0.603363 0.595840
0.035871 0.603711 0.656849
0.036221 0.604061 0.718070
0.036572 0.604411 0.779487
0.036923 0.604763 0.841083
0.037276 0.605116 0.902847
0.037625 0.605465 0.963941
0.037625 0.605465 0.963941
0.035938 0.664465 0.067305
0.036258 0.664785 0.123447
0.036587 0.665114 0.181003
0.036920 0.665448 0.239403
0.037257 0.665785 0.298412
0.037597 0.666124 0.357901
0.037939 0.666466 0.417784
0.038283 0.666810 0.478004
0.038628 0.667156 0.538518
0.038975 0.667503 0.599293
0.039324 0.667851 0.660301
0.039673 0.668201 0.721523
0.040024 0.668551 0.782939
0.040376 0.668903 0.844536
0.040729 0.669256 0.906300
0.041077 0.669605 0.967393
0.041077 0.669605 0.967393
0.039402 0.728826 0.070770
0.039723 0.729147 0.126911
0.040051 0.729475 0.184467
0.040385 0.729809 0.242867
0.040722 0.730146 0.301877
0.041062 0.730486 0.361365
0.041403 0.730828 0.421249
0.041747 0.731171 0.481469
0.042093 0.731517 0.541983
0.042440 0.731864 0.602757
0.042788 0.732212 0.663766
0.043138 0.732562 0.724987
0.043489 0.732913 0.786404
0.043840 0.733264 0.848000
0.044193 0.733617 0.909764
0.044542 0.733966 0.970858
0.044542 0.733966 0.970858
0.042878 0.793390 0.074245
0.043198 0.793711 0.130387
0.043527 0.794040 0.187942
0.043860 0.794373 0.246343
0.044197 0.794710 0.305352
0.044537 0.795050 0.364841
0.044879 0.795392 0.424724
0.045223 0.795736 0.484944
0.045568 0.796081 0.545458
0.045915 0.796428 0.606233
0.046264 0.796777 0.667241
0.046613 0.797126 0.728463
0.046964 0.797477 0.789879
0.047316 0.797829 0.851476
0.047668 0.798181 0.913240
0.048017 0.798530 0.974333
0.048017 0.798530 0.974333
0.046363 0.858142 0.077730
0.046684 0.858463 0.133872
0.047012 0.858791 0.191428
0.047346 0.859125 0.249828
0.047683 0.859462 0.308838
0.048022 0.859801 0.368326
0.048364 0.860143 0.428210
0.048708 0.860487 0.488430
0.049054 0.860833 0.548944
0.049401 0.861180 0.609718
0.049749 0.861528 0.670727
0.050099 0.861878 0.731948
0.050450 0.862229 0.793365
0.050801 0.862580 0.854961
0.051154 0.862933 0.916725
0.051503 0.863282 0.977819
0.051503 0.863282 0.977819
0.049858 0.923068 0.081225
0.050178 0.923389 0.137367
0.050507 0.923717 0.194923
0.050841 0.924051 0.253323
0.051178 0.924388 0.312333
0.051517 0.924727 0.371821
0.051859 0.925069 0.431704
0.052203 0.925413 0.491925
0.052549 0.925759 0.552438
0.052896 0.926106 0.613213
0.053244 0.926454 0.674222
0.053594 0.926804 0.735443
0.053944 0.927155 0.796859
0.054296 0.927506 0.858456
0.054649 0.927859 0.920220
0.054998 0.928208 0.981314
0.054998 0.928208 0.981314
0.052879 0.979195 0.084247
0.053200 0.979515 0.140388
0.053528 0.979844 0.197944
0.053862 0.980178 0.256344
0.054199 0.980515 0.315354
0.054539 0.980854 0.374842
0.054880 0.981196 0.434726
0.055224 0.981540 0.494946
0.055570 0.981886 0.555460
0.055917 0.982233 0.616234
0.056265 0.982581 0.677243
0.056615 0.982931 0.738464
0.056966 0.983281 0.799881
0.057317 0.983633 0.861477
0.057670 0.983986 0.923241
0.058019 0.984335 0.984335
0.058019 0.984335 0.984335
0.045979 0.000942 0.032309
0.046299 0.001262 0.088451
0.046628 0.001591 0.146007
0.046962 0.001925 0.204407
0.047299 0.002261 0.263416
0.047638 0.002601 0.322905
0.047980 0.002943 0.382788
0.048324 0.003287 0.443009
0.048670 0.003633 0.503522
0.049017 0.003980 0.564297
0.049365 0.004328 0.625305
0.049715 0.004678 0.686527
0.050065 0.005028 0.747943
0.050417 0.005380 0.809540
0.050770 0.005733 0.871304
0.051119 0.006082 0.932397
0.051119 0.006082 0.932397
0.048151 0.041294 0.034481
0.048472 0.041615 0.090623
0.048800 0.041944 0.148179
0.049134 0.042277 0.206579
0.049471 0.042614 0.265589
0.049810 0.042954 0.325077
0.050152 0.043296 0.384960
0.050496 0.043640 0.445181
0.050842 0.043985 0.505695
0.051189 0.044332 0.566469
0.051537 0.044681 0.627478
0.051887 0.045030 0.688699
0.052238 0.045381 0.750116
0.052589 0.045733 0.811712
0.052942 0.046085 0.873476
0.053291 0.046434 0.934570
0.053291 0.046434 0.934570
0.051340 0.100541 0.037671
0.051661 0.100862 0.093812
0.051989 0.101190 0.151368
0.052323 0.101524 0.209768
0.052660 0.101861 0.268778
0.053000 0.102201 0.328266
0.053342 0.102542 0.388150
0.053685 0.102886 0.448370
0.054031 0.103232 0.508884
0.054378 0.103579 0.569658
0.054726 0.103927 0.630667
0.055076 0.104277 0.691888
0.055427 0.104628 0.753305
0.055778 0.104979 0.814901
0.056131 0.105332 0.876665
0.056480 0.105681 0.937759
0.056480 0.105681 0.937759
0.054603 0.161155 0.040933
0.054924 0.161475 0.097075
0.055252 0.161804 0.154631
0.055586 0.162137 0.213031
0.055923 0.162474 0.272040
0.056262 0.162814 0.331529
0.056604 0.163156 0.391412
0.056948 0.163500 0.451633
0.057294 0.163845 0.512146
0.057641 0.164193 0.572921
0.057989 0.164541 0.633929
0.058339 0.164891 0.695151
0.058689 0.165241 0.756567
0.059041 0.165593 0.818164
0.059394 0.165946 0.879928
0.059743 0.166295 0.941021
0.059743 0.166295 0.941021
0.057911 0.222615 0.044242
0.058232 0.222935 0.100383
0.058560 0.223264 0.157939
0.058894 0.223597 0.216339
0.059231 0.223934 0.275349
0.059571 0.224274 0.334837
0.059913 0.224616 0.394721
0.060256 0.224960 0.454941
0.060602 0.225305 0.515455
0.060949 0.225652 0.576229
0.061297 0.226001 0.637238
0.061647 0.226350 0.698459
0.061998 0.226701 0.759876
0.062350 0.227053 0.821472
0.062702 0.227406 0.883236
0.063051 0.227754 0.944330
0.063051 0.227754 0.944330
0.061253 0.284694 0.047583
0.061573 0.285014 0.103725
0.061902 0.285343 0.161281
0.062236 0.285676 0.219681
0.062573 0.286013 0.278690
0.062912 0.286353 0.338179
0.063254 0.286695 0.398062
0.063598 0.287039 0.458282
0.063944 0.287385 0.518796
0.064291 0.287732 0.579571
0.064639 0.288080 0.640579
0.064989 0.288430 0.701801
0.065339 0.288780 0.763217
0.065691 0.289132 0.824814
0.066044 0.289485 0.886578
0.066393 0.289834 0.947671
0.066393 0.289834 0.947671
0.064621 0.347263 0.050951
0.064941 0.347584 0.107093
0.065270 0.347912 0.164649
0.065604 0.348246 0.223049
0.065941 0.348583 0.282058
0.066280 0.348923 0.341547
0.066622 0.349264 0.401430
0.066966 0.349608 0.461651
0.067312 0.349954 0.522164
0.067659 0.350301 0.582939
0.068007 0.350649 0.643947
0.068357 0.350999 0.705169
0.068707 0.351350 0.766585
0.069059 0.351701 0.828182
0.069412 0.352054 0.889946
0.069761 0.352403 0.951039
0.069761 0.352403 0.951039
0.068011 0.410239 0.054341
0.068331 0.410559 0.110483
0.068660 0.410888 0.168039
0.068994 0.411222 0.226439
0.069330 0.411559 0.285448
0.069670 0.411898 0.344937
0.070012 0.412240 0.404820
0.070356 0.412584 0.465040
0.070702 0.412930 0.525554
0.071049 0.413277 0.586329
0.071397 0.413625 0.647337
0.071747 0.413975 0.708559
0.072097 0.414325 0.769975
0.072449 0.414677 0.831572
0.072802 0.415030 0.893336
0.073151 0.415379 0.954429
0.073151 0.415379 0.954429
0.071419 0.473562 0.057750
0.071740 0.473883 0.113891
0.072069 0.474211 0.171447
0.072402 0.474545 0.229847
0.072739 0.474882 0.288857
0.073079 0.475222 0.348345
0.073421 0.475564 0.408229
0.073765 0.475907 0.468449
0.074110 0.476253 0.528963
0.074457 0.476600 0.589737
0.074806 0.476948 0.650746
0.075155 0.477298 0.711967
0.075506 0.477649 0.773384
0.075858 0.478000 0.834980
0.076210 0.478353 0.896744
0.076559 0.478702 0.957838
0.076559 0.478702 0.957838
0.074844 0.537189 0.061175
0.075165 0.537510 0.117316
0.075494 0.537838 0.174872
0.075827 0.538172 0.233272
0.076164 0.538509 0.292282
0.076504 0.538849 0.351770
0.076846 0.539191 0.411654
0.077190 0.539534 0.471874
0.077535 0.539880 0.532388
0.077882 0.540227 0.593162
0.078231 0.540575 0.654171
0.078580 0.540925 0.715392
0.078931 0.541276 0.776809
0.079283 0.541628 0.838405
0.079635 0.541980 0.900169
0.079984 0.542329 0.961263
0.079984 0.542329 0.961263
0.078284 0.601086 0.064614
0.078604 0.601407 0.120756
0.078933 0.601736 0.178312
0.079267 0.602069 0.236712
0.079604 0.602406 0.295721
0.079943 0.602746 0.355210
0.080285 0.603088 0.415093
0.080629 0.603432 0.475313
0.080975 0.603777 0.535827
0.081322 0.604124 0.596602
0.081670 0.604473 0.657610
0.082020 0.604822 0.718832
0.082370 0.605173 0.780248
0.082722 0.605525 0.841845
0.083075 0.605877 0.903609
0.083424 0.606226 0.964702
0.083424 0.606226 0.964702
0.081736 0.665226 0.068067
0.082057 0.665547 0.124208
0.082386 0.665876 0.181764
0.082719 0.666209 0.240164
0.083056 0.666546 0.299174
0.083396 0.666886 0.358662
0.083738 0.667228 0.418546
0.084082 0.667572 0.478766
0.084427 0.667917 0.539280
0.084774 0.668264 0.600054
0.085123 0.668613 0.661063
0.085472 0.668962 0.722284
0.085823 0.669313 0.783701
0.086175 0.669665 0.845297
0.086527 0.670017 0.907061
0.086876 0.670366 0.968155
0.086876 0.670366 0.968155
0.085201 0.729588 0.071531
0.085521 0.729908 0.127673
0.085850 0.730237 0.185229
0.086184 0.730571 0.243629
0.086521 0.730907 0.302638
0.086860 0.731247 0.362127
0.087202 0.731589 0.422010
0.087546 0.731933 0.482230
0.087892 0.732279 0.542744
0.088239 0.732626 0.603519
0.088587 0.732974 0.664527
0.088937 0.733324 0.725749
0.089287 0.733674 0.787165
0.089639 0.734026 0.848762
0.089992 0.734379 0.910526
0.090341 0.734728 0.971619
0.090341 0.734728 0.971619
0.088676 0.794152 0.075007
0.088997 0.794473 0.131148
0.089326 0.794801 0.188704
0.089659 0.795135 0.247104
0.089996 0.795472 0.306114
0.090336 0.795811 0.365602
0.090678 0.796153 0.425486
0.091022 0.796497 0.485706
0.091367 0.796843 0.546220
0.091714 0.797190 0.606994
0.092062 0.797538 0.668003
0.092412 0.797888 0.729224
0.092763 0.798239 0.790641
0.093115 0.798590 0.852237
0.093467 0.798943 0.914001
0.093816 0.799292 0.975095
0.093816 0.799292 0.975095
0.092162 0.858904 0.078492
0.092482 0.859224 0.134634
0.092811 0.859553 0.192190
0.093144 0.859886 0.250590
0.093481 0.860223 0.309599
0.093821 0.860563 0.369088
0.094163 0.860905 0.428971
0.094507 0.861249 0.489191
0.094853 0.861594 0.549705
0.095200 0.861942 0.610480
0.095548 0.862290 0.671488
0.095898 0.862640 0.732710
0.096248 0.862990 0.794126
0.096600 0.863342 0.855723
0.096953 0.863695 0.917487
0.097302 0.864044 0.978580
0.097302 0.864044 0.978580
0.095657 0.923830 0.081987
0.095977 0.924150 0.138129
0.096306 0.924479 0.195684
0.096639 0.924812 0.254085
0.096976 0.925149 0.313094
0.097316 0.925489 0.372583
0.097658 0.925831 0.432466
0.098002 0.926175 0.492686
0.098347 0.926520 0.553200
0.098694 0.926867 0.613975
0.099043 0.927216 0.674983
0.099392 0.927565 0.736205
0.099743 0.927916 0.797621
0.100095 0.928268 0.859218
0.100448 0.928621 0.920982
0.100796 0.928969 0.982075
0.100796 0.928969 0.982075
0.098678 0.979957 0.085008
0.098998 0.980277 0.141150
0.099327 0.980606 0.198706
0.099661 0.980939 0.257106
0.099998 0.981276 0.316115
0.100337 0.981616 0.375604
0.100679 0.981958 0.435487
0.101023 0.982302 0.495707
0.101369 0.982647 0.556221
0.101716 0.982994 0.616996
0.102064 0.983343 0.678004
0.102414 0.983692 0.739226
0.102764 0.984043 0.800642
0.103116 0.984395 0.862239
0.103469 0.984748 0.924003
0.103818 0.985096 0.985096
0.103818 0.985096 0.985096
0.103200 0.001893 0.033261
0.103520 0.002214 0.089403
0.103849 0.002543 0.146958
0.104182 0.002876 0.205358
0.104519 0.003213 0.264368
0.104859 0.003553 0.323856
0.105201 0.003895 0.383740
0.105545 0.004239 0.443960
0.105890 0.004584 0.504474
0.106237 0.004931 0.565248
0.106586 0.005280 0.626257
0.106935 0.005629 0.687478
0.107286 0.005980 0.748895
0.107638 0.006332 0.810492
0.107991 0.006684 0.872256
0.108339 0.007033 0.933349
0.108339 0.007033 0.933349
0.105372 0.042246 0.035433
