skills/editops-orchestrator/assets/grade/luts/cool_tech_v05.cube
TITLE "cool_tech_v05"
LUT_3D_SIZE 17
DOMAIN_MIN 0.0 0.0 0.0
DOMAIN_MAX 1.0 1.0 1.0
0.000036 0.000036 0.014908
0.000179 0.000179 0.073816
0.000325 0.000325 0.133602
0.000471 0.000471 0.193837
0.000618 0.000618 0.254379
0.000766 0.000766 0.315156
0.000914 0.000914 0.376122
0.001062 0.001062 0.437248
0.001211 0.001211 0.498512
0.001360 0.001360 0.559897
0.001510 0.001510 0.621391
0.001659 0.001659 0.682983
0.001809 0.001809 0.744664
0.001959 0.001959 0.806428
0.002110 0.002110 0.868267
0.002260 0.002260 0.930178
0.002356 0.002356 0.969724
0.001344 0.055540 0.016215
0.001487 0.055683 0.075123
0.001632 0.055829 0.134910
0.001778 0.055975 0.195145
0.001926 0.056122 0.255687
0.002073 0.056270 0.316463
0.002221 0.056418 0.377429
0.002370 0.056566 0.438556
0.002519 0.056715 0.499819
0.002668 0.056864 0.561205
0.002817 0.057014 0.622699
0.002967 0.057163 0.684290
0.003117 0.057313 0.745972
0.003267 0.057463 0.807735
0.003417 0.057613 0.869575
0.003567 0.057764 0.931485
0.003664 0.057860 0.971032
0.002778 0.116408 0.017649
0.002921 0.116551 0.076557
0.003066 0.116696 0.136344
0.003212 0.116843 0.196579
0.003359 0.116990 0.257121
0.003507 0.117138 0.317897
0.003655 0.117286 0.378863
0.003804 0.117434 0.439989
0.003953 0.117583 0.501253
0.004102 0.117732 0.562639
0.004251 0.117882 0.624132
0.004401 0.118031 0.685724
0.004551 0.118181 0.747406
0.004701 0.118331 0.809169
0.004851 0.118481 0.871009
0.005001 0.118632 0.932919
0.005097 0.118728 0.972466
0.004224 0.177818 0.019096
0.004367 0.177961 0.078004
0.004513 0.178106 0.137790
0.004659 0.178252 0.198025
0.004806 0.178400 0.258567
0.004954 0.178547 0.319344
0.005102 0.178695 0.380310
0.005250 0.178844 0.441436
0.005399 0.178993 0.502700
0.005548 0.179142 0.564085
0.005698 0.179291 0.625579
0.005847 0.179441 0.687171
0.005997 0.179591 0.748852
0.006147 0.179741 0.810616
0.006298 0.179891 0.872455
0.006448 0.180041 0.934366
0.006544 0.180138 0.973912
0.005679 0.239577 0.020550
0.005822 0.239720 0.079459
0.005967 0.239865 0.139245
0.006114 0.240012 0.199480
0.006261 0.240159 0.260022
0.006409 0.240306 0.320799
0.006557 0.240455 0.381765
0.006705 0.240603 0.442891
0.006854 0.240752 0.504155
0.007003 0.240901 0.565540
0.007153 0.241050 0.627034
0.007302 0.241200 0.688626
0.007452 0.241350 0.750307
0.007602 0.241500 0.812070
0.007752 0.241650 0.873910
0.007903 0.241801 0.935820
0.007999 0.241897 0.975367
0.007140 0.301596 0.022011
0.007283 0.301739 0.080920
0.007428 0.301884 0.140706
0.007575 0.302030 0.200941
0.007722 0.302177 0.261483
0.007870 0.302325 0.322260
0.008018 0.302473 0.383226
0.008166 0.302622 0.444352
0.008315 0.302771 0.505616
0.008464 0.302920 0.567001
0.008614 0.303069 0.628495
0.008763 0.303219 0.690087
0.008913 0.303369 0.751768
0.009063 0.303519 0.813531
0.009213 0.303669 0.875371
0.009364 0.303819 0.937281
0.009460 0.303915 0.976828
0.008606 0.363821 0.023477
0.008749 0.363964 0.082385
0.008894 0.364110 0.142172
0.009041 0.364256 0.202407
0.009188 0.364403 0.262949
0.009335 0.364551 0.323725
0.009484 0.364699 0.384692
0.009632 0.364847 0.445818
0.009781 0.364996 0.507082
0.009930 0.365145 0.568467
0.010079 0.365295 0.629961
0.010229 0.365444 0.691553
0.010379 0.365594 0.753234
0.010529 0.365744 0.814997
0.010679 0.365895 0.876837
0.010830 0.366045 0.938747
0.010926 0.366141 0.978294
0.010076 0.426219 0.024947
0.010219 0.426362 0.083855
0.010364 0.426507 0.143642
0.010511 0.426654 0.203877
0.010658 0.426801 0.264419
0.010805 0.426949 0.325195
0.010953 0.427097 0.386162
0.011102 0.427245 0.447288
0.011251 0.427394 0.508552
0.011400 0.427543 0.569937
0.011549 0.427693 0.631431
0.011699 0.427842 0.693023
0.011849 0.427992 0.754704
0.011999 0.428142 0.816467
0.012149 0.428292 0.878307
0.012300 0.428443 0.940217
0.012396 0.428539 0.979764
0.011549 0.488764 0.026421
0.011692 0.488908 0.085329
0.011838 0.489053 0.145115
0.011984 0.489199 0.205350
0.012131 0.489346 0.265892
0.012279 0.489494 0.326669
0.012427 0.489642 0.387635
0.012575 0.489791 0.448761
0.012724 0.489939 0.510025
0.012873 0.490089 0.571410
0.013023 0.490238 0.632904
0.013172 0.490388 0.694496
0.013322 0.490537 0.756177
0.013472 0.490687 0.817941
0.013622 0.490838 0.879780
0.013773 0.490988 0.941691
0.013869 0.491084 0.981237
0.013026 0.551439 0.027897
0.013169 0.551582 0.086805
0.013314 0.551727 0.146592
0.013460 0.551874 0.206827
0.013607 0.552021 0.267369
0.013755 0.552168 0.328145
0.013903 0.552316 0.389111
0.014052 0.552465 0.450237
0.014201 0.552614 0.511501
0.014350 0.552763 0.572887
0.014499 0.552912 0.634381
0.014649 0.553062 0.695972
0.014799 0.553212 0.757654
0.014949 0.553362 0.819417
0.015099 0.553512 0.881257
0.015249 0.553663 0.943167
0.015345 0.553759 0.982714
0.014505 0.614228 0.029376
0.014648 0.614371 0.088284
0.014793 0.614516 0.148071
0.014939 0.614663 0.208306
0.015087 0.614810 0.268848
0.015234 0.614958 0.329624
0.015382 0.615106 0.390591
0.015531 0.615254 0.451717
0.015680 0.615403 0.512980
0.015829 0.615552 0.574366
0.015978 0.615702 0.635860
0.016128 0.615851 0.697451
0.016278 0.616001 0.759133
0.016428 0.616151 0.820896
0.016578 0.616301 0.882736
0.016728 0.616452 0.944646
0.016825 0.616548 0.984193
0.015986 0.677121 0.030858
0.016129 0.677264 0.089766
0.016275 0.677409 0.149553
0.016421 0.677555 0.209788
0.016568 0.677703 0.270329
0.016716 0.677850 0.331106
0.016864 0.677998 0.392072
0.017012 0.678147 0.453198
0.017161 0.678296 0.514462
0.017310 0.678445 0.575847
0.017460 0.678594 0.637341
0.017609 0.678744 0.698933
0.017759 0.678894 0.760614
0.017909 0.679044 0.822378
0.018060 0.679194 0.884217
0.018210 0.679344 0.946128
0.018306 0.679441 0.985675
0.017470 0.740107 0.032342
0.017613 0.740251 0.091250
0.017758 0.740396 0.151036
0.017905 0.740542 0.211271
0.018052 0.740689 0.271813
0.018200 0.740837 0.332590
0.018348 0.740985 0.393556
0.018496 0.741134 0.454682
0.018645 0.741282 0.515946
0.018794 0.741432 0.577331
0.018944 0.741581 0.638825
0.019093 0.741731 0.700417
0.019243 0.741880 0.762098
0.019393 0.742031 0.823861
0.019543 0.742181 0.885701
0.019694 0.742331 0.947611
0.019790 0.742427 0.987158
0.018956 0.803180 0.033827
0.019099 0.803324 0.092735
0.019244 0.803469 0.152522
0.019391 0.803615 0.212757
0.019538 0.803762 0.273299
0.019685 0.803910 0.334075
0.019834 0.804058 0.395042
0.019982 0.804207 0.456168
0.020131 0.804355 0.517432
0.020280 0.804505 0.578817
0.020429 0.804654 0.640311
0.020579 0.804804 0.701903
0.020729 0.804953 0.763584
0.020879 0.805104 0.825347
0.021029 0.805254 0.887187
0.021180 0.805404 0.949097
0.021276 0.805500 0.988644
0.020444 0.866333 0.035315
0.020587 0.866476 0.094223
0.020732 0.866622 0.154010
0.020878 0.866768 0.214245
0.021025 0.866915 0.274787
0.021173 0.867063 0.335563
0.021321 0.867211 0.396529
0.021470 0.867359 0.457655
0.021619 0.867508 0.518919
0.021768 0.867657 0.580305
0.021917 0.867807 0.641798
0.022067 0.867956 0.703390
0.022217 0.868106 0.765072
0.022367 0.868256 0.826835
0.022517 0.868406 0.888675
0.022667 0.868557 0.950585
0.022763 0.868653 0.990132
0.021933 0.929560 0.036804
0.022076 0.929703 0.095713
0.022221 0.929848 0.155499
0.022368 0.929995 0.215734
0.022515 0.930142 0.276276
0.022663 0.930289 0.337053
0.022811 0.930437 0.398019
0.022959 0.930586 0.459145
0.023108 0.930735 0.520409
0.023257 0.930884 0.581794
0.023407 0.931033 0.643288
0.023556 0.931183 0.704880
0.023706 0.931333 0.766561
0.023856 0.931483 0.828324
0.024006 0.931633 0.890164
0.024157 0.931784 0.952074
0.024253 0.931880 0.991621
0.023374 0.990743 0.038246
0.023517 0.990886 0.097154
0.023663 0.991031 0.156941
0.023809 0.991177 0.217176
0.023956 0.991325 0.277717
0.024104 0.991472 0.338494
0.024252 0.991620 0.399460
0.024400 0.991769 0.460586
0.024549 0.991918 0.521850
0.024698 0.992067 0.583235
0.024848 0.992216 0.644729
0.024997 0.992366 0.706321
0.025147 0.992516 0.768002
0.025297 0.992666 0.829766
0.025448 0.992816 0.891605
0.025598 0.992966 0.953516
0.025694 0.993063 0.993063
0.035156 0.000286 0.015158
0.035300 0.000429 0.074066
0.035445 0.000575 0.133853
0.035591 0.000721 0.194088
0.035738 0.000868 0.254629
0.035886 0.001016 0.315406
0.036034 0.001164 0.376372
0.036183 0.001312 0.437498
0.036331 0.001461 0.498762
0.036481 0.001610 0.560147
0.036630 0.001760 0.621641
0.036780 0.001909 0.683233
0.036929 0.002059 0.744914
0.037080 0.002209 0.806678
0.037230 0.002360 0.868517
0.037380 0.002510 0.930428
0.037476 0.002606 0.969974
0.036464 0.055790 0.016465
0.036607 0.055933 0.075373
0.036752 0.056079 0.135160
0.036899 0.056225 0.195395
0.037046 0.056372 0.255937
0.037193 0.056520 0.316713
0.037342 0.056668 0.377680
0.037490 0.056816 0.438806
0.037639 0.056965 0.500070
0.037788 0.057114 0.561455
0.037937 0.057264 0.622949
0.038087 0.057413 0.684540
0.038237 0.057563 0.746222
0.038387 0.057713 0.807985
0.038537 0.057864 0.869825
0.038688 0.058014 0.931735
0.038784 0.058110 0.971282
0.037898 0.116658 0.017899
0.038041 0.116801 0.076807
0.038186 0.116947 0.136594
0.038333 0.117093 0.196829
0.038480 0.117240 0.257371
0.038627 0.117388 0.318147
0.038775 0.117536 0.379113
0.038924 0.117684 0.440239
0.039073 0.117833 0.501503
0.039222 0.117982 0.562889
0.039371 0.118132 0.624383
0.039521 0.118281 0.685974
0.039671 0.118431 0.747656
0.039821 0.118581 0.809419
0.039971 0.118731 0.871259
0.040122 0.118882 0.933169
0.040218 0.118978 0.972716
0.039344 0.178068 0.019346
0.039488 0.178211 0.078254
0.039633 0.178356 0.138041
0.039779 0.178503 0.198276
0.039926 0.178650 0.258817
0.040074 0.178797 0.319594
0.040222 0.178945 0.380560
0.040371 0.179094 0.441686
0.040519 0.179243 0.502950
0.040669 0.179392 0.564335
0.040818 0.179541 0.625829
0.040968 0.179691 0.687421
0.041117 0.179841 0.749102
0.041268 0.179991 0.810866
0.041418 0.180141 0.872705
0.041568 0.180292 0.934616
0.041664 0.180388 0.974162
0.040799 0.239827 0.020801
0.040942 0.239970 0.079709
0.041088 0.240115 0.139495
0.041234 0.240262 0.199730
0.041381 0.240409 0.260272
0.041529 0.240556 0.321049
0.041677 0.240705 0.382015
0.041825 0.240853 0.443141
0.041974 0.241002 0.504405
0.042123 0.241151 0.565790
0.042273 0.241300 0.627284
0.042422 0.241450 0.688876
0.042572 0.241600 0.750557
0.042722 0.241750 0.812321
0.042873 0.241900 0.874160
0.043023 0.242051 0.936070
0.043119 0.242147 0.975617
0.042260 0.301846 0.022262
0.042403 0.301989 0.081170
0.042549 0.302134 0.140956
0.042695 0.302280 0.201191
0.042842 0.302428 0.261733
0.042990 0.302575 0.322510
0.043138 0.302723 0.383476
0.043286 0.302872 0.444602
0.043435 0.303021 0.505866
0.043584 0.303170 0.567251
0.043734 0.303319 0.628745
0.043883 0.303469 0.690337
0.044033 0.303619 0.752018
0.044183 0.303769 0.813782
0.044334 0.303919 0.875621
0.044484 0.304069 0.937531
0.044580 0.304166 0.977078
0.043726 0.364071 0.023727
0.043869 0.364214 0.082635
0.044015 0.364360 0.142422
0.044161 0.364506 0.202657
0.044308 0.364653 0.263199
0.044456 0.364801 0.323975
0.044604 0.364949 0.384942
0.044752 0.365097 0.446068
0.044901 0.365246 0.507332
0.045050 0.365395 0.568717
0.045200 0.365545 0.630211
0.045349 0.365694 0.691803
0.045499 0.365844 0.753484
0.045649 0.365994 0.815247
0.045799 0.366145 0.877087
0.045950 0.366295 0.938997
0.046046 0.366391 0.978544
0.045196 0.426469 0.025197
0.045339 0.426612 0.084105
0.045484 0.426758 0.143892
0.045631 0.426904 0.204127
0.045778 0.427051 0.264669
0.045926 0.427199 0.325445
0.046074 0.427347 0.386412
0.046222 0.427495 0.447538
0.046371 0.427644 0.508802
0.046520 0.427793 0.570187
0.046670 0.427943 0.631681
0.046819 0.428092 0.693273
0.046969 0.428242 0.754954
0.047119 0.428392 0.816717
0.047269 0.428542 0.878557
0.047420 0.428693 0.940467
0.047516 0.428789 0.980014
0.046669 0.489014 0.026671
0.046813 0.489158 0.085579
0.046958 0.489303 0.145366
0.047104 0.489449 0.205600
0.047251 0.489596 0.266142
0.047399 0.489744 0.326919
0.047547 0.489892 0.387885
0.047696 0.490041 0.449011
0.047844 0.490189 0.510275
0.047994 0.490339 0.571660
0.048143 0.490488 0.633154
0.048293 0.490638 0.694746
0.048442 0.490787 0.756427
0.048593 0.490938 0.818191
0.048743 0.491088 0.880030
0.048893 0.491238 0.941941
0.048989 0.491334 0.981487
0.048146 0.551689 0.028147
0.048289 0.551832 0.087055
0.048434 0.551977 0.146842
0.048581 0.552124 0.207077
0.048728 0.552271 0.267619
0.048875 0.552418 0.328395
0.049023 0.552567 0.389361
0.049172 0.552715 0.450487
0.049321 0.552864 0.511751
0.049470 0.553013 0.573137
0.049619 0.553162 0.634631
0.049769 0.553312 0.696222
0.049919 0.553462 0.757904
0.050069 0.553612 0.819667
0.050219 0.553762 0.881507
0.050370 0.553913 0.943417
0.050466 0.554009 0.982964
0.049625 0.614478 0.029626
0.049768 0.614621 0.088534
0.049913 0.614767 0.148321
0.050060 0.614913 0.208556
0.050207 0.615060 0.269098
0.050354 0.615208 0.329874
0.050503 0.615356 0.390841
0.050651 0.615504 0.451967
0.050800 0.615653 0.513231
0.050949 0.615802 0.574616
0.051099 0.615952 0.636110
0.051248 0.616101 0.697702
0.051398 0.616251 0.759383
0.051548 0.616401 0.821146
0.051698 0.616551 0.882986
0.051849 0.616702 0.944896
0.051945 0.616798 0.984443
0.051107 0.677371 0.031108
0.051250 0.677514 0.090016
0.051395 0.677659 0.149803
0.051541 0.677806 0.210038
0.051688 0.677953 0.270580
0.051836 0.678100 0.331356
0.051984 0.678248 0.392322
0.052133 0.678397 0.453448
0.052282 0.678546 0.514712
0.052431 0.678695 0.576097
0.052580 0.678844 0.637591
0.052730 0.678994 0.699183
0.052880 0.679144 0.760864
0.053030 0.679294 0.822628
0.053180 0.679444 0.884467
0.053330 0.679595 0.946378
0.053426 0.679691 0.985925
0.052590 0.740358 0.032592
0.052733 0.740501 0.091500
0.052879 0.740646 0.151286
0.053025 0.740792 0.211521
0.053172 0.740939 0.272063
0.053320 0.741087 0.332840
0.053468 0.741235 0.393806
0.053616 0.741384 0.454932
0.053765 0.741532 0.516196
0.053914 0.741682 0.577581
0.054064 0.741831 0.639075
0.054213 0.741981 0.700667
0.054363 0.742131 0.762348
0.054513 0.742281 0.824112
0.054664 0.742431 0.885951
0.054814 0.742581 0.947862
0.054910 0.742677 0.987408
0.054076 0.803431 0.034077
0.054219 0.803574 0.092985
0.054365 0.803719 0.152772
0.054511 0.803865 0.213007
0.054658 0.804012 0.273549
0.054806 0.804160 0.334325
0.054954 0.804308 0.395292
0.055102 0.804457 0.456418
0.055251 0.804605 0.517682
0.055400 0.804755 0.579067
0.055550 0.804904 0.640561
0.055699 0.805054 0.702153
0.055849 0.805204 0.763834
0.055999 0.805354 0.825597
0.056149 0.805504 0.887437
0.056300 0.805654 0.949347
0.056396 0.805750 0.988894
0.055564 0.866583 0.035565
0.055707 0.866726 0.094473
0.055852 0.866872 0.154260
0.055999 0.867018 0.214495
0.056146 0.867165 0.275037
0.056293 0.867313 0.335813
0.056441 0.867461 0.396779
0.056590 0.867609 0.457905
0.056739 0.867758 0.519169
0.056888 0.867907 0.580555
0.057037 0.868057 0.642049
0.057187 0.868206 0.703640
0.057337 0.868356 0.765322
0.057487 0.868506 0.827085
0.057637 0.868657 0.888925
0.057788 0.868807 0.950835
0.057884 0.868903 0.990382
0.057053 0.929810 0.037055
0.057196 0.929953 0.095963
0.057342 0.930098 0.155749
0.057488 0.930245 0.215984
0.057635 0.930392 0.276526
0.057783 0.930539 0.337303
0.057931 0.930688 0.398269
0.058079 0.930836 0.459395
0.058228 0.930985 0.520659
0.058377 0.931134 0.582044
0.058527 0.931283 0.643538
0.058676 0.931433 0.705130
0.058826 0.931583 0.766811
0.058976 0.931733 0.828574
0.059127 0.931883 0.890414
0.059277 0.932034 0.952324
0.059373 0.932130 0.991871
0.058495 0.990993 0.038496
0.058638 0.991136 0.097404
0.058783 0.991281 0.157191
0.058929 0.991428 0.217426
0.059076 0.991575 0.277968
0.059224 0.991722 0.338744
0.059372 0.991870 0.399710
0.059521 0.992019 0.460836
0.059670 0.992168 0.522100
0.059819 0.992317 0.583485
0.059968 0.992466 0.644979
0.060118 0.992616 0.706571
0.060268 0.992766 0.768252
0.060418 0.992916 0.830016
0.060568 0.993066 0.891855
0.060718 0.993217 0.953766
0.060814 0.993313 0.993313
0.094748 0.000711 0.015582
0.094891 0.000854 0.074490
0.095037 0.000999 0.134277
0.095183 0.001145 0.194512
0.095330 0.001292 0.255054
0.095478 0.001440 0.315830
0.095626 0.001588 0.376796
0.095774 0.001737 0.437922
0.095923 0.001886 0.499186
0.096072 0.002035 0.560572
0.096222 0.002184 0.622065
0.096371 0.002334 0.683657
0.096521 0.002484 0.745339
0.096671 0.002634 0.807102
0.096822 0.002784 0.868942
0.096972 0.002934 0.930852
0.097068 0.003030 0.970399
0.096056 0.056215 0.016890
0.096199 0.056358 0.075798
0.096344 0.056503 0.135584
0.096491 0.056649 0.195819
0.096638 0.056796 0.256361
0.096785 0.056944 0.317138
0.096933 0.057092 0.378104
0.097082 0.057241 0.439230
0.097231 0.057389 0.500494
0.097380 0.057539 0.561879
0.097529 0.057688 0.623373
0.097679 0.057838 0.684965
0.097829 0.057988 0.746646
0.097979 0.058138 0.808409
0.098129 0.058288 0.870249
0.098280 0.058438 0.932159
0.098376 0.058534 0.971706
0.097490 0.117082 0.018323
0.097633 0.117226 0.077231
0.097778 0.117371 0.137018
0.097924 0.117517 0.197253
0.098072 0.117664 0.257795
0.098219 0.117812 0.318571
0.098367 0.117960 0.379538
0.098516 0.118109 0.440664
0.098665 0.118257 0.501928
0.098814 0.118407 0.563313
0.098963 0.118556 0.624807
0.099113 0.118706 0.686399
0.099263 0.118855 0.748080
0.099413 0.119006 0.809843
0.099563 0.119156 0.871683
0.099713 0.119306 0.933593
0.099810 0.119402 0.973140
0.098936 0.178492 0.019770
0.099079 0.178635 0.078678
0.099225 0.178781 0.138465
0.099371 0.178927 0.198700
0.099518 0.179074 0.259242
0.099666 0.179222 0.320018
0.099814 0.179370 0.380984
0.099962 0.179518 0.442110
0.100111 0.179667 0.503374
0.100260 0.179816 0.564760
0.100410 0.179966 0.626253
0.100559 0.180115 0.687845
0.100709 0.180265 0.749527
0.100859 0.180415 0.811290
0.101010 0.180565 0.873130
0.101160 0.180716 0.935040
0.101256 0.180812 0.974587
0.100391 0.240251 0.021225
0.100534 0.240394 0.080133
0.100680 0.240540 0.139920
0.100826 0.240686 0.200155
0.100973 0.240833 0.260697
0.101121 0.240981 0.321473
0.101269 0.241129 0.382439
0.101417 0.241277 0.443565
0.101566 0.241426 0.504829
0.101715 0.241575 0.566215
0.101865 0.241725 0.627708
0.102014 0.241874 0.689300
0.102164 0.242024 0.750981
0.102314 0.242174 0.812745
0.102465 0.242325 0.874584
0.102615 0.242475 0.936495
0.102711 0.242571 0.976042
0.101852 0.302270 0.022686
0.101995 0.302413 0.081594
0.102141 0.302558 0.141381
0.102287 0.302705 0.201616
0.102434 0.302852 0.262158
0.102582 0.303000 0.322934
0.102730 0.303148 0.383900
0.102878 0.303296 0.445026
0.103027 0.303445 0.506290
0.103176 0.303594 0.567676
0.103326 0.303744 0.629169
0.103475 0.303893 0.690761
0.103625 0.304043 0.752442
0.103775 0.304193 0.814206
0.103925 0.304343 0.876045
0.104076 0.304494 0.937956
0.104172 0.304590 0.977503
0.103318 0.364496 0.024152
0.103461 0.364639 0.083060
0.103606 0.364784 0.142847
0.103753 0.364930 0.203082
0.103900 0.365078 0.263623
0.104048 0.365225 0.324400
0.104196 0.365373 0.385366
0.104344 0.365522 0.446492
0.104493 0.365671 0.507756
0.104642 0.365820 0.569141
0.104792 0.365969 0.630635
0.104941 0.366119 0.692227
0.105091 0.366269 0.753908
0.105241 0.366419 0.815672
0.105391 0.366569 0.877511
0.105542 0.366719 0.939422
0.105638 0.366815 0.978969
0.104788 0.426893 0.025622
0.104931 0.427037 0.084530
0.105076 0.427182 0.144316
0.105223 0.427328 0.204551
0.105370 0.427475 0.265093
0.105517 0.427623 0.325870
0.105666 0.427771 0.386836
0.105814 0.427920 0.447962
0.105963 0.428068 0.509226
0.106112 0.428218 0.570611
0.106261 0.428367 0.632105
0.106411 0.428517 0.693697
0.106561 0.428666 0.755378
0.106711 0.428817 0.817142
0.106861 0.428967 0.878981
0.107012 0.429117 0.940892
0.107108 0.429213 0.980438
0.106261 0.489439 0.027095
0.106404 0.489582 0.086003
0.106550 0.489727 0.145790
0.106696 0.489874 0.206025
0.106843 0.490021 0.266567
0.106991 0.490168 0.327343
0.107139 0.490316 0.388309
0.107287 0.490465 0.449435
0.107436 0.490614 0.510699
0.107585 0.490763 0.572085
0.107735 0.490912 0.633578
0.107884 0.491062 0.695170
0.108034 0.491212 0.756852
0.108184 0.491362 0.818615
0.108335 0.491512 0.880455
0.108485 0.491663 0.942365
0.108581 0.491759 0.981912
0.107738 0.552113 0.028571
0.107881 0.552256 0.087480
0.108026 0.552402 0.147266
0.108172 0.552548 0.207501
0.108320 0.552695 0.268043
0.108467 0.552843 0.328820
0.108615 0.552991 0.389786
0.108764 0.553139 0.450912
0.108913 0.553288 0.512176
0.109062 0.553437 0.573561
0.109211 0.553587 0.635055
0.109361 0.553736 0.696647
0.109511 0.553886 0.758328
0.109661 0.554036 0.820091
0.109811 0.554187 0.881931
0.109961 0.554337 0.943841
0.110058 0.554433 0.983388
0.109217 0.614903 0.030051
0.109360 0.615046 0.088959
0.109505 0.615191 0.148745
0.109652 0.615337 0.208980
0.109799 0.615484 0.269522
0.109946 0.615632 0.330299
0.110094 0.615780 0.391265
0.110243 0.615929 0.452391
0.110392 0.616077 0.513655
0.110541 0.616227 0.575040
0.110690 0.616376 0.636534
0.110840 0.616526 0.698126
0.110990 0.616675 0.759807
0.111140 0.616826 0.821571
0.111290 0.616976 0.883410
0.111441 0.617126 0.945320
0.111537 0.617222 0.984867
0.110698 0.677795 0.031532
0.110842 0.677938 0.090440
0.110987 0.678084 0.150227
0.111133 0.678230 0.210462
0.111280 0.678377 0.271004
0.111428 0.678525 0.331780
0.111576 0.678673 0.392746
0.111725 0.678821 0.453872
0.111873 0.678970 0.515136
0.112023 0.679119 0.576522
0.112172 0.679269 0.638016
0.112322 0.679418 0.699607
0.112471 0.679568 0.761289
0.112622 0.679718 0.823052
0.112772 0.679868 0.884892
0.112922 0.680019 0.946802
0.113018 0.680115 0.986349
0.112182 0.740782 0.033016
0.112325 0.740925 0.091924
0.112471 0.741070 0.151711
0.112617 0.741217 0.211946
0.112764 0.741364 0.272488
0.112912 0.741511 0.333264
0.113060 0.741659 0.394230
0.113208 0.741808 0.455356
0.113357 0.741957 0.516620
0.113506 0.742106 0.578006
0.113656 0.742255 0.639499
0.113805 0.742405 0.701091
0.113955 0.742555 0.762772
0.114105 0.742705 0.824536
0.114256 0.742855 0.886375
0.114406 0.743006 0.948286
0.114502 0.743102 0.987833
0.113668 0.803855 0.034502
0.113811 0.803998 0.093410
0.113956 0.804143 0.153197
0.114103 0.804290 0.213432
0.114250 0.804437 0.273973
0.114398 0.804584 0.334750
0.114546 0.804732 0.395716
0.114694 0.804881 0.456842
0.114843 0.805030 0.518106
0.114992 0.805179 0.579491
0.115142 0.805328 0.640985
0.115291 0.805478 0.702577
0.115441 0.805628 0.764258
0.115591 0.805778 0.826022
0.115741 0.805928 0.887861
0.115892 0.806079 0.949772
0.115988 0.806175 0.989319
0.115156 0.867008 0.035989
0.115299 0.867151 0.094897
0.115444 0.867296 0.154684
0.115590 0.867442 0.214919
0.115738 0.867589 0.275461
0.115885 0.867737 0.336238
0.116033 0.867885 0.397204
0.116182 0.868034 0.458330
0.116331 0.868182 0.519594
0.116480 0.868332 0.580979
0.116629 0.868481 0.642473
0.116779 0.868631 0.704065
0.116929 0.868781 0.765746
0.117079 0.868931 0.827509
0.117229 0.869081 0.889349
0.117379 0.869231 0.951259
0.117476 0.869327 0.990806
0.116645 0.930234 0.037479
0.116788 0.930377 0.096387
0.116934 0.930523 0.156174
0.117080 0.930669 0.216409
0.117227 0.930816 0.276951
0.117375 0.930964 0.337727
0.117523 0.931112 0.398693
0.117671 0.931260 0.459819
0.117820 0.931409 0.521083
0.117969 0.931558 0.582469
0.118119 0.931708 0.643962
0.118268 0.931857 0.705554
0.118418 0.932007 0.767235
0.118568 0.932157 0.828999
0.118718 0.932308 0.890838
0.118869 0.932458 0.952749
0.118965 0.932554 0.992296
0.118086 0.991417 0.038920
0.118230 0.991560 0.097828
0.118375 0.991706 0.157615
0.118521 0.991852 0.217850
0.118668 0.991999 0.278392
0.118816 0.992147 0.339168
0.118964 0.992295 0.400134
0.119113 0.992443 0.461260
0.119261 0.992592 0.522524
0.119411 0.992741 0.583910
0.119560 0.992891 0.645404
0.119710 0.993040 0.706995
0.119859 0.993190 0.768677
0.120010 0.993340 0.830440
0.120160 0.993490 0.892280
0.120310 0.993641 0.954190
0.120406 0.993737 0.993737
0.154996 0.001140 0.016011
0.155139 0.001283 0.074919
0.155285 0.001428 0.134706
0.155431 0.001574 0.194941
0.155578 0.001721 0.255483
0.155726 0.001869 0.316259
0.155874 0.002017 0.377225
0.156022 0.002166 0.438351
0.156171 0.002315 0.499615
0.156320 0.002464 0.561001
0.156470 0.002613 0.622494
0.156619 0.002763 0.684086
0.156769 0.002913 0.745768
0.156919 0.003063 0.807531
0.157070 0.003213 0.869371
0.157220 0.003363 0.931281
0.157316 0.003459 0.970828
0.156304 0.056644 0.017319
