skills/editops-orchestrator/assets/grade/luts/cool_tech_v01.cube
TITLE "cool_tech_v01"
LUT_3D_SIZE 9
DOMAIN_MIN 0.0 0.0 0.0
DOMAIN_MAX 1.0 1.0 1.0
0.000014 0.000014 0.009373
0.000191 0.000191 0.129868
0.000370 0.000370 0.251761
0.000551 0.000551 0.374266
0.000731 0.000731 0.497177
0.000913 0.000913 0.620393
0.001094 0.001094 0.743853
0.001276 0.001276 0.867517
0.001444 0.001444 0.981444
0.001765 0.121744 0.011124
0.001942 0.121921 0.131619
0.002122 0.122101 0.253512
0.002302 0.122281 0.376018
0.002483 0.122462 0.498929
0.002664 0.122643 0.622144
0.002846 0.122825 0.745604
0.003028 0.123007 0.869269
0.003195 0.123174 0.983195
0.003541 0.245168 0.012899
0.003718 0.245345 0.133395
0.003897 0.245524 0.255288
0.004077 0.245704 0.377793
0.004258 0.245885 0.500704
0.004440 0.246067 0.623920
0.004621 0.246248 0.747380
0.004803 0.246430 0.871044
0.004971 0.246598 0.984971
0.005325 0.369239 0.014684
0.005503 0.369416 0.135180
0.005682 0.369595 0.257073
0.005862 0.369775 0.379578
0.006043 0.369956 0.502489
0.006224 0.370138 0.625705
0.006406 0.370319 0.749165
0.006588 0.370501 0.872829
0.006756 0.370669 0.986756
0.007116 0.493732 0.016475
0.007294 0.493909 0.136971
0.007473 0.494088 0.258864
0.007653 0.494269 0.381369
0.007834 0.494449 0.504280
0.008015 0.494631 0.627496
0.008197 0.494812 0.750956
0.008379 0.494994 0.874620
0.008547 0.495162 0.988547
0.008912 0.618540 0.018271
0.009089 0.618717 0.138766
0.009268 0.618896 0.260659
0.009449 0.619077 0.383164
0.009630 0.619258 0.506076
0.009811 0.619439 0.629291
0.009993 0.619620 0.752751
0.010174 0.619802 0.876416
0.010342 0.619970 0.990342
0.010711 0.743600 0.020070
0.010888 0.743777 0.140565
0.011068 0.743956 0.262458
0.011248 0.744136 0.384964
0.011429 0.744317 0.507875
0.011610 0.744499 0.631090
0.011792 0.744680 0.754550
0.011974 0.744862 0.878215
0.012141 0.745030 0.992141
0.012513 0.868869 0.021872
0.012690 0.869046 0.142367
0.012870 0.869225 0.264260
0.013050 0.869406 0.386766
0.013231 0.869587 0.509677
0.013412 0.869768 0.632892
0.013594 0.869949 0.756353
0.013776 0.870131 0.880017
0.013943 0.870299 0.993943
0.014318 0.994318 0.023677
0.014495 0.994495 0.144172
0.014674 0.994674 0.266065
0.014855 0.994855 0.388570
0.015035 0.995035 0.511481
0.015217 0.995217 0.634697
0.015398 0.995398 0.758157
0.015580 0.995580 0.881821
0.015748 0.995748 0.995748
0.110781 0.000492 0.009851
0.110958 0.000670 0.130347
0.111138 0.000849 0.252240
0.111318 0.001029 0.374745
0.111499 0.001210 0.497656
0.111680 0.001391 0.620872
0.111862 0.001573 0.744332
0.112044 0.001755 0.867996
0.112211 0.001923 0.981923
0.112532 0.122222 0.011602
0.112709 0.122400 0.132098
0.112889 0.122579 0.253991
0.113069 0.122759 0.376496
0.113250 0.122940 0.499407
0.113431 0.123121 0.622623
0.113613 0.123303 0.746083
0.113795 0.123485 0.869747
0.113962 0.123653 0.983674
0.114308 0.245646 0.013378
0.114485 0.245823 0.133873
0.114664 0.246003 0.255766
0.114845 0.246183 0.378272
0.115025 0.246364 0.501183
0.115207 0.246545 0.624398
0.115388 0.246727 0.747859
0.115570 0.246909 0.871523
0.115738 0.247076 0.985449
0.116093 0.369717 0.015163
0.116270 0.369894 0.135658
0.116449 0.370074 0.257551
0.116629 0.370254 0.380057
0.116810 0.370435 0.502968
0.116992 0.370616 0.626183
0.117173 0.370798 0.749643
0.117355 0.370980 0.873308
0.117523 0.371147 0.987234
0.117884 0.494210 0.016954
0.118061 0.494388 0.137449
0.118240 0.494567 0.259342
0.118420 0.494747 0.381848
0.118601 0.494928 0.504759
0.118783 0.495109 0.627974
0.118964 0.495291 0.751434
0.119146 0.495473 0.875099
0.119314 0.495640 0.989025
0.119679 0.619018 0.018749
0.119856 0.619196 0.139245
0.120036 0.619375 0.261138
0.120216 0.619555 0.383643
0.120397 0.619736 0.506554
0.120578 0.619917 0.629770
0.120760 0.620099 0.753230
0.120942 0.620281 0.876894
0.121109 0.620449 0.990821
0.121478 0.744078 0.020548
0.121655 0.744255 0.141044
0.121835 0.744435 0.262937
0.122015 0.744615 0.385442
0.122196 0.744796 0.508353
0.122377 0.744977 0.631569
0.122559 0.745159 0.755029
0.122741 0.745341 0.878693
0.122908 0.745508 0.992620
0.123280 0.869347 0.022351
0.123458 0.869525 0.142846
0.123637 0.869704 0.264739
0.123817 0.869884 0.387244
0.123998 0.870065 0.510155
0.124179 0.870246 0.633371
0.124361 0.870428 0.756831
0.124543 0.870610 0.880495
0.124710 0.870778 0.994422
0.125085 0.994796 0.024155
0.125262 0.994974 0.144651
0.125442 0.995153 0.266544
0.125622 0.995333 0.389049
0.125803 0.995514 0.511960
0.125984 0.995695 0.635176
0.126166 0.995877 0.758636
0.126348 0.996059 0.882300
0.126515 0.996227 0.996227
0.232887 0.001020 0.010379
0.233064 0.001197 0.130874
0.233244 0.001376 0.252767
0.233424 0.001557 0.375272
0.233605 0.001738 0.498183
0.233786 0.001919 0.621399
0.233968 0.002100 0.744859
0.234150 0.002282 0.868523
0.234317 0.002450 0.982450
0.234638 0.122750 0.012130
0.234816 0.122927 0.132625
0.234995 0.123107 0.254518
0.235175 0.123287 0.377024
0.235356 0.123468 0.499935
0.235537 0.123649 0.623150
0.235719 0.123831 0.746610
0.235901 0.124013 0.870275
0.236068 0.124180 0.984201
0.236414 0.246174 0.013906
0.236591 0.246351 0.134401
0.236770 0.246530 0.256294
0.236951 0.246710 0.378799
0.237132 0.246891 0.501710
0.237313 0.247073 0.624926
0.237494 0.247254 0.748386
0.237676 0.247436 0.872050
0.237844 0.247604 0.985977
0.238199 0.370245 0.015690
0.238376 0.370422 0.136186
0.238555 0.370601 0.258079
0.238736 0.370781 0.380584
0.238916 0.370962 0.503495
0.239098 0.371144 0.626711
0.239279 0.371325 0.750171
0.239461 0.371507 0.873835
0.239629 0.371675 0.987762
0.239990 0.494738 0.017481
0.240167 0.494915 0.137977
0.240346 0.495094 0.259870
0.240527 0.495275 0.382375
0.240707 0.495455 0.505286
0.240889 0.495637 0.628502
0.241070 0.495818 0.751962
0.241252 0.496000 0.875626
0.241420 0.496168 0.989553
0.241785 0.619546 0.019277
0.241962 0.619723 0.139772
0.242142 0.619902 0.261665
0.242322 0.620083 0.384171
0.242503 0.620264 0.507082
0.242684 0.620445 0.630297
0.242866 0.620627 0.753757
0.243048 0.620808 0.877422
0.243215 0.620976 0.991348
0.243584 0.744606 0.021076
0.243762 0.744783 0.141571
0.243941 0.744962 0.263464
0.244121 0.745142 0.385970
0.244302 0.745323 0.508881
0.244483 0.745505 0.632096
0.244665 0.745686 0.755556
0.244847 0.745868 0.879221
0.245014 0.746036 0.993147
0.245386 0.869875 0.022878
0.245564 0.870052 0.143373
0.245743 0.870231 0.265266
0.245923 0.870412 0.387772
0.246104 0.870593 0.510683
0.246285 0.870774 0.633898
0.246467 0.870955 0.757359
0.246649 0.871137 0.881023
0.246817 0.871305 0.994949
0.247191 0.995324 0.024683
0.247368 0.995501 0.145178
0.247548 0.995680 0.267071
0.247728 0.995861 0.389576
0.247909 0.996042 0.512487
0.248090 0.996223 0.635703
0.248272 0.996404 0.759163
0.248454 0.996586 0.882827
0.248621 0.996754 0.996754
0.355663 0.001550 0.010909
0.355840 0.001727 0.131405
0.356020 0.001907 0.253298
0.356200 0.002087 0.375803
0.356381 0.002268 0.498714
0.356562 0.002449 0.621930
0.356744 0.002631 0.745390
0.356926 0.002813 0.869054
0.357093 0.002980 0.982980
0.357414 0.123280 0.012660
0.357592 0.123458 0.133156
0.357771 0.123637 0.255049
0.357951 0.123817 0.377554
0.358132 0.123998 0.500465
0.358313 0.124179 0.623681
0.358495 0.124361 0.747141
0.358677 0.124543 0.870805
0.358845 0.124711 0.984732
0.359190 0.246704 0.014436
0.359367 0.246881 0.134931
0.359547 0.247061 0.256824
0.359727 0.247241 0.379330
0.359908 0.247422 0.502241
0.360089 0.247603 0.625456
0.360271 0.247785 0.748916
0.360453 0.247967 0.872581
0.360620 0.248134 0.986507
0.360975 0.370775 0.016221
0.361152 0.370952 0.136716
0.361331 0.371132 0.258609
0.361512 0.371312 0.381114
0.361693 0.371493 0.504025
0.361874 0.371674 0.627241
0.362055 0.371856 0.750701
0.362237 0.372038 0.874366
0.362405 0.372205 0.988292
0.362766 0.495268 0.018012
0.362943 0.495445 0.138507
0.363122 0.495625 0.260400
0.363303 0.495805 0.382905
0.363484 0.495986 0.505816
0.363665 0.496167 0.629032
0.363846 0.496349 0.752492
0.364028 0.496531 0.876156
0.364196 0.496698 0.990083
0.364561 0.620076 0.019807
0.364739 0.620254 0.140303
0.364918 0.620433 0.262196
0.365098 0.620613 0.384701
0.365279 0.620794 0.507612
0.365460 0.620975 0.630828
0.365642 0.621157 0.754288
0.365824 0.621339 0.877952
0.365991 0.621506 0.991878
0.366360 0.745136 0.021606
0.366538 0.745313 0.142102
0.366717 0.745493 0.263995
0.366897 0.745673 0.386500
0.367078 0.745854 0.509411
0.367259 0.746035 0.632627
0.367441 0.746217 0.756087
0.367623 0.746399 0.879751
0.367791 0.746566 0.993678
0.368163 0.870405 0.023408
0.368340 0.870583 0.143904
0.368519 0.870762 0.265797
0.368699 0.870942 0.388302
0.368880 0.871123 0.511213
0.369061 0.871304 0.634429
0.369243 0.871486 0.757889
0.369425 0.871668 0.881553
0.369593 0.871835 0.995480
0.369967 0.995854 0.025213
0.370144 0.996031 0.145709
0.370324 0.996211 0.267602
0.370504 0.996391 0.390107
0.370685 0.996572 0.513018
0.370866 0.996753 0.636234
0.371048 0.996935 0.759694
0.371230 0.997117 0.883358
0.371397 0.997284 0.997284
0.478869 0.002082 0.011441
0.479046 0.002260 0.131937
0.479226 0.002439 0.253830
0.479406 0.002619 0.376335
0.479587 0.002800 0.499246
0.479768 0.002981 0.622462
0.479950 0.003163 0.745922
0.480132 0.003345 0.869586
0.480299 0.003513 0.983513
0.480620 0.123813 0.013193
0.480798 0.123990 0.133688
0.480977 0.124169 0.255581
0.481157 0.124350 0.378086
0.481338 0.124530 0.500997
0.481519 0.124712 0.624213
0.481701 0.124893 0.747673
0.481883 0.125075 0.871337
0.482051 0.125243 0.985264
0.482396 0.247236 0.014968
0.482573 0.247414 0.135464
0.482753 0.247593 0.257357
0.482933 0.247773 0.379862
0.483114 0.247954 0.502773
0.483295 0.248135 0.625989
0.483477 0.248317 0.749449
0.483659 0.248499 0.873113
0.483826 0.248666 0.987039
0.484181 0.371307 0.016753
0.484358 0.371484 0.137248
0.484537 0.371664 0.259141
0.484718 0.371844 0.381647
0.484898 0.372025 0.504558
0.485080 0.372206 0.627773
0.485261 0.372388 0.751234
0.485443 0.372570 0.874898
0.485611 0.372737 0.988824
0.485972 0.495800 0.018544
0.486149 0.495978 0.139039
0.486328 0.496157 0.260932
0.486509 0.496337 0.383438
0.486689 0.496518 0.506349
0.486871 0.496699 0.629564
0.487052 0.496881 0.753024
0.487234 0.497063 0.876689
0.487402 0.497231 0.990615
0.487767 0.620609 0.020339
0.487945 0.620786 0.140835
0.488124 0.620965 0.262728
0.488304 0.621145 0.385233
0.488485 0.621326 0.508144
0.488666 0.621508 0.631360
0.488848 0.621689 0.754820
0.489030 0.621871 0.878484
0.489197 0.622039 0.992411
0.489566 0.745668 0.022139
0.489744 0.745846 0.142634
0.489923 0.746025 0.264527
0.490103 0.746205 0.387032
0.490284 0.746386 0.509943
0.490465 0.746567 0.633159
0.490647 0.746749 0.756619
0.490829 0.746931 0.880283
0.490997 0.747098 0.994210
0.491368 0.870937 0.023941
0.491546 0.871115 0.144436
0.491725 0.871294 0.266329
0.491905 0.871474 0.388834
0.492086 0.871655 0.511745
0.492267 0.871836 0.634961
0.492449 0.872018 0.758421
0.492631 0.872200 0.882085
0.492799 0.872368 0.996012
0.493173 0.996386 0.025745
0.493350 0.996564 0.146241
0.493530 0.996743 0.268134
0.493710 0.996923 0.390639
0.493891 0.997104 0.513550
0.494072 0.997285 0.636766
0.494254 0.997467 0.760226
0.494436 0.997649 0.883890
0.494603 0.997817 0.997817
0.602393 0.002616 0.011975
0.602571 0.002793 0.132470
0.602750 0.002973 0.254363
0.602930 0.003153 0.376869
0.603111 0.003334 0.499780
0.603292 0.003515 0.622995
0.603474 0.003697 0.746456
0.603656 0.003879 0.870120
0.603823 0.004046 0.984046
0.604144 0.124346 0.013726
0.604322 0.124524 0.134222
0.604501 0.124703 0.256115
0.604681 0.124883 0.378620
0.604862 0.125064 0.501531
0.605043 0.125245 0.624747
0.605225 0.125427 0.748207
0.605407 0.125609 0.871871
0.605575 0.125776 0.985798
0.605920 0.247770 0.015502
0.606097 0.247947 0.135997
0.606277 0.248126 0.257890
0.606457 0.248307 0.380395
0.606638 0.248488 0.503306
0.606819 0.248669 0.626522
0.607001 0.248851 0.749982
0.607183 0.249032 0.873647
0.607350 0.249200 0.987573
0.607705 0.371841 0.017287
0.607882 0.372018 0.137782
0.608062 0.372197 0.259675
0.608242 0.372378 0.382180
0.608423 0.372559 0.505091
0.608604 0.372740 0.628307
0.608786 0.372921 0.751767
0.608968 0.373103 0.875431
0.609135 0.373271 0.989358
0.609496 0.496334 0.019078
0.609673 0.496511 0.139573
0.609852 0.496691 0.261466
0.610033 0.496871 0.383971
0.610214 0.497052 0.506882
0.610395 0.497233 0.630098
0.610577 0.497415 0.753558
0.610758 0.497597 0.877222
0.610926 0.497764 0.991149
0.611291 0.621142 0.020873
0.611469 0.621319 0.141369
0.611648 0.621499 0.263261
0.611828 0.621679 0.385767
0.612009 0.621860 0.508678
0.612190 0.622041 0.631894
0.612372 0.622223 0.755354
0.612554 0.622405 0.879018
0.612722 0.622572 0.992944
0.613090 0.746202 0.022672
0.613268 0.746379 0.143168
0.613447 0.746558 0.265061
0.613627 0.746739 0.387566
0.613808 0.746920 0.510477
0.613989 0.747101 0.633693
0.614171 0.747282 0.757153
0.614353 0.747464 0.880817
0.614521 0.747632 0.994743
0.614893 0.871471 0.024474
0.615070 0.871648 0.144970
0.615249 0.871828 0.266863
0.615429 0.872008 0.389368
0.615610 0.872189 0.512279
0.615792 0.872370 0.635495
0.615973 0.872552 0.758955
0.616155 0.872734 0.882619
0.616323 0.872901 0.996546
0.616697 0.996920 0.026279
0.616875 0.997097 0.146774
0.617054 0.997277 0.268667
0.617234 0.997457 0.391173
0.617415 0.997638 0.514084
0.617596 0.997819 0.637299
0.617778 0.998001 0.760760
0.617960 0.998183 0.884424
0.618127 0.998350 0.998350
0.726170 0.003151 0.012510
0.726348 0.003328 0.133005
0.726527 0.003507 0.254898
0.726707 0.003688 0.377403
0.726888 0.003869 0.500314
0.727069 0.004050 0.623530
0.727251 0.004231 0.746990
0.727433 0.004413 0.870654
0.727601 0.004581 0.984581
0.727922 0.124881 0.014261
0.728099 0.125058 0.134756
0.728278 0.125238 0.256649
0.728459 0.125418 0.379155
0.728639 0.125599 0.502066
0.728821 0.125780 0.625281
0.729002 0.125962 0.748741
0.729184 0.126144 0.872406
0.729352 0.126311 0.986332
0.729697 0.248305 0.016037
0.729875 0.248482 0.136532
0.730054 0.248661 0.258425
0.730234 0.248841 0.380930
0.730415 0.249022 0.503841
0.730596 0.249204 0.627057
0.730778 0.249385 0.750517
0.730960 0.249567 0.874181
0.731127 0.249735 0.988108
0.731482 0.372376 0.017821
0.731659 0.372553 0.138317
0.731839 0.372732 0.260210
0.732019 0.372912 0.382715
0.732200 0.373093 0.505626
0.732381 0.373275 0.628842
0.732563 0.373456 0.752302
0.732745 0.373638 0.875966
0.732912 0.373806 0.989893
0.733273 0.496869 0.019612
0.733450 0.497046 0.140108
0.733630 0.497225 0.262001
0.733810 0.497406 0.384506
0.733991 0.497586 0.507417
0.734172 0.497768 0.630633
0.734354 0.497949 0.754093
0.734536 0.498131 0.877757
0.734703 0.498299 0.991684
0.735069 0.621677 0.021408
0.735246 0.621854 0.141903
0.735425 0.622033 0.263796
0.735605 0.622214 0.386302
0.735786 0.622395 0.509213
0.735968 0.622576 0.632428
0.736149 0.622758 0.755888
0.736331 0.622939 0.879553
0.736499 0.623107 0.993479
0.736868 0.746737 0.023207
0.737045 0.746914 0.143702
0.737224 0.747093 0.265595
0.737405 0.747273 0.388101
0.737585 0.747454 0.511012
0.737767 0.747636 0.634227
0.737948 0.747817 0.757687
0.738130 0.747999 0.881352
0.738298 0.748167 0.995278
0.738670 0.872006 0.025009
0.738847 0.872183 0.145504
0.739026 0.872362 0.267397
0.739207 0.872543 0.389903
0.739387 0.872724 0.512814
0.739569 0.872905 0.636029
0.739750 0.873086 0.759490
0.739932 0.873268 0.883154
0.740100 0.873436 0.997080
0.740474 0.997455 0.026814
0.740652 0.997632 0.147309
0.740831 0.997811 0.269202
0.741011 0.997992 0.391707
0.741192 0.998173 0.514618
0.741373 0.998354 0.637834
0.741555 0.998535 0.761294
0.741737 0.998717 0.884958
0.741905 0.998885 0.998885
0.850158 0.003686 0.013045
0.850335 0.003864 0.133541
0.850515 0.004043 0.255434
0.850695 0.004223 0.377939
0.850876 0.004404 0.500850
0.851057 0.004585 0.624066
0.851239 0.004767 0.747526
0.851421 0.004949 0.871190
0.851588 0.005117 0.985117
0.851909 0.125417 0.014797
0.852086 0.125594 0.135292
0.852266 0.125773 0.257185
0.852446 0.125953 0.379690
0.852627 0.126134 0.502601
0.852808 0.126316 0.625817
0.852990 0.126497 0.749277
0.853172 0.126679 0.872941
0.853339 0.126847 0.986868
0.853685 0.248840 0.016572
0.853862 0.249018 0.137068
0.854041 0.249197 0.258961
0.854222 0.249377 0.381466
0.854402 0.249558 0.504377
0.854584 0.249739 0.627593
0.854765 0.249921 0.751053
0.854947 0.250103 0.874717
0.855115 0.250270 0.988643
0.855470 0.372911 0.018357
0.855647 0.373088 0.138852
0.855826 0.373268 0.260745
0.856006 0.373448 0.383251
0.856187 0.373629 0.506162
0.856369 0.373810 0.629377
0.856550 0.373992 0.752838
0.856732 0.374174 0.876502
0.856900 0.374341 0.990428
0.857261 0.497404 0.020148
0.857438 0.497582 0.140643
0.857617 0.497761 0.262536
0.857797 0.497941 0.385042
0.857978 0.498122 0.507953
0.858160 0.498303 0.631168
0.858341 0.498485 0.754628
0.858523 0.498667 0.878293
0.858691 0.498835 0.992219
0.859056 0.622213 0.021943
0.859233 0.622390 0.142439
0.859413 0.622569 0.264332
0.859593 0.622749 0.386837
0.859774 0.622930 0.509748
0.859955 0.623111 0.632964
0.860137 0.623293 0.756424
0.860319 0.623475 0.880088
0.860486 0.623643 0.994015
0.860855 0.747272 0.023743
0.861032 0.747449 0.144238
0.861212 0.747629 0.266131
0.861392 0.747809 0.388636
0.861573 0.747990 0.511547
0.861754 0.748171 0.634763
0.861936 0.748353 0.758223
0.862118 0.748535 0.881887
0.862285 0.748702 0.995814
0.862657 0.872541 0.025545
0.862835 0.872719 0.146040
0.863014 0.872898 0.267933
0.863194 0.873078 0.390438
0.863375 0.873259 0.513349
0.863556 0.873440 0.636565
0.863738 0.873622 0.760025
0.863920 0.873804 0.883689
0.864087 0.873972 0.997616
0.864462 0.997990 0.027349
0.864639 0.998168 0.147845
0.864819 0.998347 0.269738
0.864999 0.998527 0.392243
0.865180 0.998708 0.515154
0.865361 0.998889 0.638370
0.865543 0.999071 0.761830
0.865725 0.999253 0.885494
0.865892 0.999421 0.999421
0.974325 0.004223 0.013582
0.974503 0.004400 0.134077
0.974682 0.004579 0.255970
0.974862 0.004760 0.378475
0.975043 0.004941 0.501386
0.975224 0.005122 0.624602
0.975406 0.005303 0.748062
0.975588 0.005485 0.871727
0.975756 0.005653 0.985653
0.976077 0.125953 0.015333
0.976254 0.126130 0.135828
0.976433 0.126310 0.257721
0.976613 0.126490 0.380227
0.976794 0.126671 0.503138
0.976976 0.126852 0.626353
0.977157 0.127034 0.749813
0.977339 0.127216 0.873478
0.977507 0.127383 0.987404
0.977852 0.249377 0.017109
0.978029 0.249554 0.137604
0.978209 0.249733 0.259497
0.978389 0.249913 0.382002
0.978570 0.250094 0.504913
0.978751 0.250276 0.628129
0.978933 0.250457 0.751589
0.979115 0.250639 0.875253
0.979282 0.250807 0.989180
0.979637 0.373448 0.018893
0.979814 0.373625 0.139389
0.979994 0.373804 0.261282
0.980174 0.373984 0.383787
0.980355 0.374165 0.506698
0.980536 0.374347 0.629914
0.980718 0.374528 0.753374
0.980900 0.374710 0.877038
0.981067 0.374878 0.990965
0.981428 0.497941 0.020684
0.981605 0.498118 0.141180
0.981785 0.498297 0.263073
0.981965 0.498478 0.385578
0.982146 0.498658 0.508489
0.982327 0.498840 0.631705
0.982509 0.499021 0.755165
0.982691 0.499203 0.878829
0.982858 0.499371 0.992756
0.983223 0.622749 0.022480
0.983401 0.622926 0.142975
0.983580 0.623106 0.264868
0.983760 0.623286 0.387374
0.983941 0.623467 0.510285
0.984122 0.623648 0.633500
0.984304 0.623830 0.756960
0.984486 0.624011 0.880625
0.984654 0.624179 0.994551
0.985023 0.747809 0.024279
0.985200 0.747986 0.144774
0.985379 0.748165 0.266667
0.985559 0.748345 0.389173
0.985740 0.748526 0.512084
0.985922 0.748708 0.635299
0.986103 0.748889 0.758759
0.986285 0.749071 0.882424
0.986453 0.749239 0.996350
0.986825 0.873078 0.026081
0.987002 0.873255 0.146576
0.987181 0.873435 0.268469
0.987362 0.873615 0.390975
0.987542 0.873796 0.513886
0.987724 0.873977 0.637101
0.987905 0.874159 0.760562
0.988087 0.874340 0.884226
0.988255 0.874508 0.998152
0.988629 0.998527 0.027886
0.988807 0.998704 0.148381
0.988986 0.998883 0.270274
0.989166 0.999064 0.392779
0.989347 0.999245 0.515690
0.989528 0.999426 0.638906
0.989710 0.999607 0.762366
0.989892 0.999789 0.886031
0.990060 0.999957 0.999957
