skills/editops-orchestrator/assets/grade/luts/cool_tech_v15.cube
TITLE "cool_tech_v15"
LUT_3D_SIZE 17
DOMAIN_MIN 0.0 0.0 0.0
DOMAIN_MAX 1.0 1.0 1.0
0.000137 0.000137 0.027866
0.000417 0.000417 0.084585
0.000703 0.000703 0.142623
0.000993 0.000993 0.201427
0.001286 0.001286 0.260778
0.001580 0.001580 0.320555
0.001877 0.001877 0.380684
0.002175 0.002175 0.441110
0.002474 0.002474 0.501796
0.002774 0.002774 0.562711
0.003075 0.003075 0.623832
0.003378 0.003378 0.685141
0.003681 0.003681 0.746621
0.003984 0.003984 0.808259
0.004289 0.004289 0.870044
0.004594 0.004594 0.931966
0.004636 0.004636 0.940425
0.002183 0.043860 0.029912
0.002462 0.044140 0.086630
0.002748 0.044426 0.144669
0.003038 0.044716 0.203473
0.003331 0.045008 0.262823
0.003626 0.045303 0.322601
0.003922 0.045599 0.382729
0.004220 0.045897 0.443155
0.004519 0.046196 0.503841
0.004819 0.046497 0.564756
0.005121 0.046798 0.625878
0.005423 0.047100 0.687186
0.005726 0.047403 0.748666
0.006030 0.047707 0.810305
0.006334 0.048012 0.872089
0.006640 0.048317 0.934011
0.006681 0.048359 0.942471
0.004973 0.103519 0.032702
0.005253 0.103799 0.089421
0.005539 0.104085 0.147459
0.005829 0.104375 0.206263
0.006122 0.104667 0.265614
0.006416 0.104962 0.325392
0.006713 0.105258 0.385520
0.007011 0.105556 0.445946
0.007310 0.105855 0.506632
0.007610 0.106156 0.567547
0.007911 0.106457 0.628669
0.008214 0.106759 0.689977
0.008517 0.107062 0.751457
0.008821 0.107366 0.813095
0.009125 0.107671 0.874880
0.009430 0.107976 0.936802
0.009472 0.108018 0.945262
0.007818 0.164338 0.035547
0.008098 0.164617 0.092266
0.008384 0.164903 0.150304
0.008674 0.165193 0.209108
0.008967 0.165486 0.268459
0.009261 0.165781 0.328237
0.009558 0.166077 0.388365
0.009856 0.166375 0.448791
0.010155 0.166674 0.509477
0.010455 0.166974 0.570392
0.010756 0.167276 0.631514
0.011059 0.167578 0.692822
0.011362 0.167881 0.754302
0.011666 0.168185 0.815940
0.011970 0.168489 0.877725
0.012275 0.168795 0.939647
0.012317 0.168836 0.948107
0.010697 0.225882 0.038426
0.010977 0.226162 0.095145
0.011263 0.226448 0.153183
0.011553 0.226738 0.211987
0.011846 0.227030 0.271338
0.012140 0.227325 0.331116
0.012437 0.227621 0.391244
0.012735 0.227919 0.451670
0.013034 0.228218 0.512356
0.013334 0.228519 0.573271
0.013635 0.228820 0.634393
0.013938 0.229122 0.695701
0.014241 0.229425 0.757181
0.014545 0.229729 0.818819
0.014849 0.230034 0.880604
0.015154 0.230339 0.942526
0.015196 0.230381 0.950986
0.013601 0.287959 0.041330
0.013881 0.288239 0.098049
0.014167 0.288525 0.156087
0.014457 0.288815 0.214891
0.014750 0.289108 0.274242
0.015044 0.289402 0.334019
0.015341 0.289699 0.394148
0.015639 0.289997 0.454574
0.015938 0.290296 0.515260
0.016238 0.290596 0.576175
0.016539 0.290897 0.637296
0.016842 0.291200 0.698605
0.017145 0.291503 0.760085
0.017448 0.291807 0.821723
0.017753 0.292111 0.883508
0.018058 0.292416 0.945430
0.018100 0.292458 0.953889
0.016525 0.350459 0.044254
0.016805 0.350739 0.100973
0.017091 0.351025 0.159011
0.017381 0.351315 0.217815
0.017673 0.351607 0.277166
0.017968 0.351902 0.336943
0.018264 0.352199 0.397071
0.018562 0.352496 0.457498
0.018861 0.352796 0.518183
0.019162 0.353096 0.579099
0.019463 0.353397 0.640220
0.019765 0.353699 0.701529
0.020068 0.354003 0.763009
0.020372 0.354306 0.824647
0.020677 0.354611 0.886432
0.020982 0.354916 0.948353
0.021024 0.354958 0.956813
0.019465 0.413310 0.047194
0.019745 0.413589 0.103913
0.020031 0.413875 0.161951
0.020321 0.414165 0.220755
0.020613 0.414458 0.280106
0.020908 0.414753 0.339883
0.021204 0.415049 0.400011
0.021502 0.415347 0.460438
0.021801 0.415646 0.521123
0.022102 0.415946 0.582039
0.022403 0.416248 0.643160
0.022705 0.416550 0.704469
0.023008 0.416853 0.765949
0.023312 0.417157 0.827587
0.023617 0.417461 0.889372
0.023922 0.417767 0.951293
0.023964 0.417808 0.959753
0.022419 0.476460 0.050148
0.022699 0.476740 0.106867
0.022985 0.477026 0.164905
0.023275 0.477316 0.223709
0.023567 0.477608 0.283060
0.023862 0.477903 0.342837
0.024158 0.478199 0.402965
0.024456 0.478497 0.463392
0.024756 0.478796 0.524077
0.025056 0.479097 0.584993
0.025357 0.479398 0.646114
0.025659 0.479700 0.707423
0.025962 0.480003 0.768903
0.026266 0.480307 0.830541
0.026571 0.480612 0.892326
0.026876 0.480917 0.954248
0.026918 0.480959 0.962707
0.025386 0.539873 0.053114
0.025665 0.540152 0.109833
0.025951 0.540438 0.167872
0.026241 0.540728 0.226676
0.026534 0.541021 0.286026
0.026828 0.541315 0.345804
0.027125 0.541612 0.405932
0.027423 0.541910 0.466358
0.027722 0.542209 0.527044
0.028022 0.542509 0.587959
0.028323 0.542811 0.649081
0.028626 0.543113 0.710389
0.028929 0.543416 0.771869
0.029233 0.543720 0.833507
0.029537 0.544024 0.895292
0.029842 0.544330 0.957214
0.029884 0.544371 0.965674
0.028363 0.603518 0.056092
0.028642 0.603798 0.112810
0.028929 0.604084 0.170849
0.029218 0.604374 0.229653
0.029511 0.604667 0.289003
0.029806 0.604961 0.348781
0.030102 0.605258 0.408909
0.030400 0.605556 0.469335
0.030699 0.605855 0.530021
0.030999 0.606155 0.590936
0.031301 0.606456 0.652058
0.031603 0.606759 0.713367
0.031906 0.607062 0.774847
0.032210 0.607365 0.836485
0.032514 0.607670 0.898270
0.032820 0.607975 0.960191
0.032861 0.608017 0.968651
0.031350 0.667374 0.059079
0.031630 0.667654 0.115797
0.031916 0.667940 0.173836
0.032206 0.668230 0.232640
0.032498 0.668522 0.291991
0.032793 0.668817 0.351768
0.033089 0.669113 0.411896
0.033387 0.669411 0.472322
0.033686 0.669710 0.533008
0.033987 0.670011 0.593923
0.034288 0.670312 0.655045
0.034590 0.670614 0.716354
0.034893 0.670917 0.777834
0.035197 0.671221 0.839472
0.035502 0.671526 0.901257
0.035807 0.671831 0.963178
0.035849 0.671873 0.971638
0.034346 0.731421 0.062075
0.034626 0.731700 0.118793
0.034912 0.731986 0.176832
0.035202 0.732276 0.235636
0.035494 0.732569 0.294987
0.035789 0.732863 0.354764
0.036085 0.733160 0.414892
0.036383 0.733458 0.475318
0.036682 0.733757 0.536004
0.036983 0.734057 0.596919
0.037284 0.734358 0.658041
0.037586 0.734661 0.719350
0.037889 0.734964 0.780830
0.038193 0.735268 0.842468
0.038498 0.735572 0.904253
0.038803 0.735877 0.966174
0.038845 0.735919 0.974634
0.037350 0.795642 0.065079
0.037630 0.795922 0.121798
0.037916 0.796208 0.179836
0.038206 0.796498 0.238640
0.038498 0.796790 0.297991
0.038793 0.797085 0.357768
0.039089 0.797382 0.417896
0.039387 0.797679 0.478323
0.039686 0.797979 0.539008
0.039987 0.798279 0.599924
0.040288 0.798580 0.661045
0.040590 0.798882 0.722354
0.040893 0.799186 0.783834
0.041197 0.799489 0.845472
0.041502 0.799794 0.907257
0.041807 0.800099 0.969179
0.041849 0.800141 0.977638
0.040362 0.860026 0.068091
0.040642 0.860305 0.124809
0.040928 0.860592 0.182848
0.041218 0.860881 0.241652
0.041510 0.861174 0.301003
0.041805 0.861469 0.360780
0.042101 0.861765 0.420908
0.042399 0.862063 0.481334
0.042698 0.862362 0.542020
0.042999 0.862662 0.602935
0.043300 0.862964 0.664057
0.043602 0.863266 0.725366
0.043905 0.863569 0.786846
0.044209 0.863873 0.848484
0.044514 0.864178 0.910269
0.044819 0.864483 0.972190
0.044861 0.864524 0.980650
0.043381 0.924560 0.071110
0.043660 0.924839 0.127828
0.043946 0.925126 0.185867
0.044236 0.925415 0.244671
0.044529 0.925708 0.304021
0.044824 0.926003 0.363799
0.045120 0.926299 0.423927
0.045418 0.926597 0.484353
0.045717 0.926896 0.545039
0.046017 0.927197 0.605954
0.046319 0.927498 0.667076
0.046621 0.927800 0.728385
0.046924 0.928103 0.789865
0.047228 0.928407 0.851503
0.047532 0.928712 0.913287
0.047838 0.929017 0.975209
0.047879 0.929059 0.983669
0.046061 0.981850 0.073790
0.046340 0.982130 0.130508
0.046626 0.982416 0.188547
0.046916 0.982706 0.247351
0.047209 0.982998 0.306701
0.047504 0.983293 0.366479
0.047800 0.983589 0.426607
0.048098 0.983887 0.487033
0.048397 0.984187 0.547719
0.048697 0.984487 0.608634
0.048999 0.984788 0.669756
0.049301 0.985090 0.731065
0.049604 0.985393 0.792545
0.049908 0.985697 0.854183
0.050212 0.986002 0.915967
0.050518 0.986307 0.977889
0.050559 0.986349 0.986349
0.001044 0.000150 0.027879
0.001324 0.000430 0.084598
0.001610 0.000716 0.142636
0.001900 0.001006 0.201440
0.002192 0.001299 0.260791
0.002487 0.001593 0.320569
0.002783 0.001890 0.380697
0.003081 0.002188 0.441123
0.003381 0.002487 0.501809
0.003681 0.002787 0.562724
0.003982 0.003088 0.623845
0.004284 0.003391 0.685154
0.004587 0.003694 0.746634
0.004891 0.003998 0.808272
0.005196 0.004302 0.870057
0.005501 0.004607 0.931979
0.005543 0.004649 0.940439
0.003089 0.043873 0.029925
0.003369 0.044153 0.086643
0.003655 0.044439 0.144682
0.003945 0.044729 0.203486
0.004238 0.045021 0.262836
0.004532 0.045316 0.322614
0.004829 0.045612 0.382742
0.005127 0.045910 0.443168
0.005426 0.046209 0.503854
0.005726 0.046510 0.564769
0.006027 0.046811 0.625891
0.006330 0.047113 0.687199
0.006633 0.047416 0.748680
0.006937 0.047720 0.810318
0.007241 0.048025 0.872102
0.007546 0.048330 0.934024
0.007588 0.048372 0.942484
0.005880 0.103532 0.032715
0.006160 0.103812 0.089434
0.006446 0.104098 0.147472
0.006736 0.104388 0.206276
0.007028 0.104680 0.265627
0.007323 0.104975 0.325405
0.007620 0.105271 0.385533
0.007917 0.105569 0.445959
0.008217 0.105868 0.506645
0.008517 0.106169 0.567560
0.008818 0.106470 0.628682
0.009120 0.106772 0.689990
0.009423 0.107075 0.751470
0.009727 0.107379 0.813108
0.010032 0.107684 0.874893
0.010337 0.107989 0.936815
0.010379 0.108031 0.945275
0.008725 0.164351 0.035560
0.009005 0.164630 0.092279
0.009291 0.164916 0.150317
0.009581 0.165206 0.209122
0.009873 0.165499 0.268472
0.010168 0.165794 0.328250
0.010465 0.166090 0.388378
0.010762 0.166388 0.448804
0.011062 0.166687 0.509490
0.011362 0.166987 0.570405
0.011663 0.167289 0.631527
0.011965 0.167591 0.692835
0.012269 0.167894 0.754315
0.012572 0.168198 0.815953
0.012877 0.168502 0.877738
0.013182 0.168808 0.939660
0.013224 0.168849 0.948120
0.011604 0.225895 0.038439
0.011884 0.226175 0.095158
0.012170 0.226461 0.153196
0.012460 0.226751 0.212000
0.012752 0.227043 0.271351
0.013047 0.227338 0.331129
0.013344 0.227634 0.391257
0.013641 0.227932 0.451683
0.013941 0.228231 0.512369
0.014241 0.228532 0.573284
0.014542 0.228833 0.634406
0.014844 0.229135 0.695714
0.015147 0.229438 0.757194
0.015451 0.229742 0.818832
0.015756 0.230047 0.880617
0.016061 0.230352 0.942539
0.016103 0.230394 0.950999
0.014508 0.287972 0.041343
0.014788 0.288252 0.098062
0.015074 0.288538 0.156100
0.015364 0.288828 0.214904
0.015656 0.289121 0.274255
0.015951 0.289415 0.334032
0.016247 0.289712 0.394161
0.016545 0.290010 0.454587
0.016844 0.290309 0.515273
0.017145 0.290609 0.576188
0.017446 0.290910 0.637309
0.017748 0.291213 0.698618
0.018051 0.291516 0.760098
0.018355 0.291820 0.821736
0.018660 0.292124 0.883521
0.018965 0.292429 0.945443
0.019007 0.292471 0.953902
0.017432 0.350472 0.044267
0.017711 0.350752 0.100986
0.017998 0.351038 0.159024
0.018287 0.351328 0.217828
0.018580 0.351620 0.277179
0.018875 0.351915 0.336956
0.019171 0.352212 0.397084
0.019469 0.352509 0.457511
0.019768 0.352809 0.518196
0.020068 0.353109 0.579112
0.020370 0.353410 0.640233
0.020672 0.353712 0.701542
0.020975 0.354016 0.763022
0.021279 0.354319 0.824660
0.021583 0.354624 0.886445
0.021889 0.354929 0.948366
0.021930 0.354971 0.956826
0.020372 0.413323 0.047207
0.020651 0.413602 0.103926
0.020938 0.413888 0.161964
0.021227 0.414178 0.220768
0.021520 0.414471 0.280119
0.021815 0.414766 0.339896
0.022111 0.415062 0.400024
0.022409 0.415360 0.460451
0.022708 0.415659 0.521136
0.023009 0.415959 0.582052
0.023310 0.416261 0.643173
0.023612 0.416563 0.704482
0.023915 0.416866 0.765962
0.024219 0.417170 0.827600
0.024524 0.417474 0.889385
0.024829 0.417780 0.951306
0.024871 0.417821 0.959766
0.023326 0.476473 0.050161
0.023606 0.476753 0.106880
0.023892 0.477039 0.164918
0.024182 0.477329 0.223722
0.024474 0.477621 0.283073
0.024769 0.477916 0.342850
0.025065 0.478212 0.402979
0.025363 0.478510 0.463405
0.025662 0.478809 0.524090
0.025963 0.479110 0.585006
0.026264 0.479411 0.646127
0.026566 0.479713 0.707436
0.026869 0.480016 0.768916
0.027173 0.480320 0.830554
0.027478 0.480625 0.892339
0.027783 0.480930 0.954261
0.027825 0.480972 0.962720
0.026292 0.539886 0.053128
0.026572 0.540165 0.109846
0.026858 0.540451 0.167885
0.027148 0.540741 0.226689
0.027441 0.541034 0.286039
0.027735 0.541329 0.345817
0.028032 0.541625 0.405945
0.028330 0.541923 0.466371
0.028629 0.542222 0.527057
0.028929 0.542522 0.587972
0.029230 0.542824 0.649094
0.029533 0.543126 0.710402
0.029836 0.543429 0.771882
0.030139 0.543733 0.833520
0.030444 0.544037 0.895305
0.030749 0.544343 0.957227
0.030791 0.544384 0.965687
0.029270 0.603531 0.056105
0.029549 0.603811 0.112823
0.029835 0.604097 0.170862
0.030125 0.604387 0.229666
0.030418 0.604680 0.289017
0.030712 0.604974 0.348794
0.031009 0.605271 0.408922
0.031307 0.605569 0.469348
0.031606 0.605868 0.530034
0.031906 0.606168 0.590949
0.032208 0.606469 0.652071
0.032510 0.606772 0.713380
0.032813 0.607075 0.774860
0.033117 0.607378 0.836498
0.033421 0.607683 0.898283
0.033727 0.607988 0.960204
0.033768 0.608030 0.968664
0.032257 0.667387 0.059092
0.032536 0.667667 0.115810
0.032822 0.667953 0.173849
0.033112 0.668243 0.232653
0.033405 0.668535 0.292004
0.033700 0.668830 0.351781
0.033996 0.669126 0.411909
0.034294 0.669424 0.472336
0.034593 0.669723 0.533021
0.034893 0.670024 0.593936
0.035195 0.670325 0.655058
0.035497 0.670627 0.716367
0.035800 0.670930 0.777847
0.036104 0.671234 0.839485
0.036408 0.671539 0.901270
0.036714 0.671844 0.963191
0.036755 0.671886 0.971651
0.035253 0.731434 0.062088
0.035532 0.731713 0.118806
0.035818 0.731999 0.176845
0.036108 0.732289 0.235649
0.036401 0.732582 0.295000
0.036696 0.732876 0.354777
0.036992 0.733173 0.414905
0.037290 0.733471 0.475332
0.037589 0.733770 0.536017
0.037889 0.734070 0.596933
0.038191 0.734371 0.658054
0.038493 0.734674 0.719363
0.038796 0.734977 0.780843
0.039100 0.735281 0.842481
0.039404 0.735585 0.904266
0.039710 0.735890 0.966187
0.039751 0.735932 0.974647
0.038257 0.795655 0.065092
0.038537 0.795935 0.121811
0.038823 0.796221 0.179849
0.039113 0.796511 0.238653
0.039405 0.796803 0.298004
0.039700 0.797098 0.357781
0.039996 0.797395 0.417909
0.040294 0.797692 0.478336
0.040593 0.797992 0.539021
0.040894 0.798292 0.599937
0.041195 0.798593 0.661058
0.041497 0.798895 0.722367
0.041800 0.799199 0.783847
0.042104 0.799502 0.845485
0.042409 0.799807 0.907270
0.042714 0.800112 0.969192
0.042756 0.800154 0.977651
0.041269 0.860039 0.068104
0.041548 0.860319 0.124822
0.041834 0.860605 0.182861
0.042124 0.860894 0.241665
0.042417 0.861187 0.301016
0.042712 0.861482 0.360793
0.043008 0.861778 0.420921
0.043306 0.862076 0.481348
0.043605 0.862375 0.542033
0.043905 0.862676 0.602949
0.044207 0.862977 0.664070
0.044509 0.863279 0.725379
0.044812 0.863582 0.786859
0.045116 0.863886 0.848497
0.045420 0.864191 0.910282
0.045726 0.864496 0.972203
0.045767 0.864538 0.980663
0.044288 0.924573 0.071123
0.044567 0.924853 0.127841
0.044853 0.925139 0.185880
0.045143 0.925429 0.244684
0.045436 0.925721 0.304034
0.045730 0.926016 0.363812
0.046027 0.926312 0.423940
0.046325 0.926610 0.484366
0.046624 0.926909 0.545052
0.046924 0.927210 0.605967
0.047225 0.927511 0.667089
0.047528 0.927813 0.728398
0.047831 0.928116 0.789878
0.048135 0.928420 0.851516
0.048439 0.928725 0.913300
0.048744 0.929030 0.975222
0.048786 0.929072 0.983682
0.046968 0.981863 0.073803
0.047247 0.982143 0.130521
0.047533 0.982429 0.188560
0.047823 0.982719 0.247364
0.048116 0.983011 0.306714
0.048410 0.983306 0.366492
0.048707 0.983603 0.426620
0.049005 0.983900 0.487046
0.049304 0.984200 0.547732
0.049604 0.984500 0.608647
0.049905 0.984801 0.669769
0.050208 0.985103 0.731078
0.050511 0.985406 0.792558
0.050815 0.985710 0.854196
0.051119 0.986015 0.915980
0.051424 0.986320 0.977902
0.051466 0.986362 0.986362
0.056727 0.000951 0.028680
0.057006 0.001231 0.085399
0.057292 0.001517 0.143437
0.057582 0.001807 0.202241
0.057875 0.002099 0.261592
0.058169 0.002394 0.321369
0.058466 0.002690 0.381497
0.058764 0.002988 0.441924
0.059063 0.003287 0.502609
0.059363 0.003588 0.563525
0.059664 0.003889 0.624646
0.059967 0.004191 0.685955
0.060270 0.004494 0.747435
0.060574 0.004798 0.809073
0.060878 0.005103 0.870858
0.061183 0.005408 0.932779
0.061225 0.005450 0.941239
0.058772 0.044674 0.030725
0.059051 0.044953 0.087444
0.059338 0.045239 0.145482
0.059627 0.045529 0.204286
0.059920 0.045822 0.263637
0.060215 0.046117 0.323414
0.060511 0.046413 0.383543
0.060809 0.046711 0.443969
0.061108 0.047010 0.504655
0.061408 0.047310 0.565570
0.061710 0.047612 0.626691
0.062012 0.047914 0.688000
0.062315 0.048217 0.749480
0.062619 0.048521 0.811118
0.062924 0.048825 0.872903
0.063229 0.049131 0.934825
0.063270 0.049172 0.943284
0.061563 0.104333 0.033516
0.061842 0.104612 0.090235
0.062128 0.104898 0.148273
0.062418 0.105188 0.207077
0.062711 0.105481 0.266428
0.063005 0.105775 0.326205
0.063302 0.106072 0.386333
0.063600 0.106370 0.446760
0.063899 0.106669 0.507445
0.064199 0.106969 0.568361
0.064501 0.107270 0.629482
0.064803 0.107573 0.690791
0.065106 0.107876 0.752271
0.065410 0.108180 0.813909
0.065714 0.108484 0.875694
0.066020 0.108789 0.937615
0.066061 0.108831 0.946075
0.064408 0.165151 0.036361
0.064687 0.165431 0.093080
0.064973 0.165717 0.151118
0.065263 0.166007 0.209922
0.065556 0.166300 0.269273
0.065851 0.166594 0.329050
0.066147 0.166891 0.389178
0.066445 0.167189 0.449605
0.066744 0.167488 0.510290
0.067044 0.167788 0.571206
0.067346 0.168089 0.632327
0.067648 0.168392 0.693636
0.067951 0.168695 0.755116
0.068255 0.168998 0.816754
0.068559 0.169303 0.878539
0.068865 0.169608 0.940460
0.068906 0.169650 0.948920
0.067287 0.226696 0.039240
0.067566 0.226975 0.095959
0.067852 0.227261 0.153997
0.068142 0.227551 0.212801
0.068435 0.227844 0.272152
0.068729 0.228139 0.331929
0.069026 0.228435 0.392057
0.069324 0.228733 0.452484
0.069623 0.229032 0.513169
0.069923 0.229332 0.574085
0.070225 0.229634 0.635206
0.070527 0.229936 0.696515
0.070830 0.230239 0.757995
0.071134 0.230543 0.819633
0.071438 0.230847 0.881418
0.071744 0.231153 0.943339
0.071785 0.231194 0.951799
0.070191 0.288773 0.042144
0.070470 0.289053 0.098863
0.070756 0.289339 0.156901
0.071046 0.289629 0.215705
0.071339 0.289921 0.275056
0.071633 0.290216 0.334833
0.071930 0.290512 0.394961
0.072228 0.290810 0.455388
0.072527 0.291109 0.516073
0.072827 0.291410 0.576989
0.073128 0.291711 0.638110
0.073431 0.292013 0.699419
0.073734 0.292316 0.760899
0.074038 0.292620 0.822537
0.074342 0.292925 0.884322
0.074647 0.293230 0.946243
0.074689 0.293272 0.954703
0.073114 0.351273 0.045068
0.073394 0.351553 0.101786
0.073680 0.351839 0.159825
0.073970 0.352129 0.218629
0.074262 0.352421 0.277979
0.074557 0.352716 0.337757
0.074853 0.353012 0.397885
0.075151 0.353310 0.458311
0.075451 0.353609 0.518997
0.075751 0.353910 0.579912
0.076052 0.354211 0.641034
0.076354 0.354513 0.702342
0.076657 0.354816 0.763822
0.076961 0.355120 0.825461
0.077266 0.355425 0.887245
0.077571 0.355730 0.949167
0.077613 0.355772 0.957627
0.076054 0.414123 0.048008
0.076334 0.414403 0.104726
0.076620 0.414689 0.162765
0.076910 0.414979 0.221569
0.077202 0.415272 0.280919
0.077497 0.415566 0.340697
0.077794 0.415863 0.400825
0.078091 0.416160 0.461251
0.078391 0.416460 0.521937
0.078691 0.416760 0.582852
0.078992 0.417061 0.643974
0.079294 0.417363 0.705282
0.079597 0.417667 0.766763
0.079901 0.417970 0.828401
0.080206 0.418275 0.890185
0.080511 0.418580 0.952107
0.080553 0.418622 0.960567
0.079008 0.477274 0.050962
0.079288 0.477553 0.107680
0.079574 0.477839 0.165719
0.079864 0.478129 0.224523
0.080157 0.478422 0.283873
0.080451 0.478717 0.343651
0.080748 0.479013 0.403779
0.081046 0.479311 0.464205
0.081345 0.479610 0.524891
0.081645 0.479910 0.585806
0.081946 0.480212 0.646928
0.082249 0.480514 0.708237
0.082552 0.480817 0.769717
0.082855 0.481121 0.831355
0.083160 0.481425 0.893140
0.083465 0.481731 0.955061
0.083507 0.481772 0.963521
0.081975 0.540686 0.053928
0.082254 0.540966 0.110647
0.082540 0.541252 0.168685
0.082830 0.541542 0.227489
0.083123 0.541834 0.286840
0.083418 0.542129 0.346617
0.083714 0.542426 0.406745
0.084012 0.542723 0.467172
0.084311 0.543023 0.527857
0.084611 0.543323 0.588773
0.084913 0.543624 0.649894
0.085215 0.543926 0.711203
0.085518 0.544230 0.772683
0.085822 0.544533 0.834321
0.086126 0.544838 0.896106
0.086432 0.545143 0.958028
0.086473 0.545185 0.966487
0.084952 0.604332 0.056905
0.085232 0.604612 0.113624
0.085518 0.604898 0.171662
0.085808 0.605188 0.230466
0.086100 0.605480 0.289817
0.086395 0.605775 0.349595
0.086691 0.606071 0.409723
0.086989 0.606369 0.470149
0.087288 0.606668 0.530835
0.087589 0.606969 0.591750
0.087890 0.607270 0.652872
0.088192 0.607572 0.714180
0.088495 0.607875 0.775660
0.088799 0.608179 0.837298
0.089104 0.608484 0.899083
0.089409 0.608789 0.961005
0.089451 0.608831 0.969465
0.087939 0.668188 0.059892
0.088219 0.668467 0.116611
0.088505 0.668753 0.174650
0.088795 0.669043 0.233454
0.089087 0.669336 0.292804
0.089382 0.669630 0.352582
0.089678 0.669927 0.412710
0.089976 0.670225 0.473136
0.090275 0.670524 0.533822
0.090576 0.670824 0.594737
0.090877 0.671126 0.655859
0.091179 0.671428 0.717167
0.091482 0.671731 0.778647
0.091786 0.672035 0.840285
0.092091 0.672339 0.902070
0.092396 0.672645 0.963992
0.092438 0.672686 0.972452
0.090935 0.732234 0.062889
0.091215 0.732514 0.119607
0.091501 0.732800 0.177646
0.091791 0.733090 0.236450
0.092083 0.733382 0.295800
0.092378 0.733677 0.355578
0.092674 0.733973 0.415706
0.092972 0.734271 0.476132
0.093271 0.734570 0.536818
0.093572 0.734871 0.597733
0.093873 0.735172 0.658855
0.094175 0.735474 0.720163
0.094478 0.735777 0.781643
0.094782 0.736081 0.843281
0.095087 0.736386 0.905066
0.095392 0.736691 0.966988
0.095434 0.736733 0.975448
0.093939 0.796456 0.065893
0.094219 0.796736 0.122611
0.094505 0.797022 0.180650
0.094795 0.797312 0.239454
0.095088 0.797604 0.298804
0.095382 0.797899 0.358582
0.095679 0.798195 0.418710
0.095976 0.798493 0.479136
0.096276 0.798792 0.539822
0.096576 0.799093 0.600737
0.096877 0.799394 0.661859
0.097179 0.799696 0.723168
0.097483 0.799999 0.784648
0.097786 0.800303 0.846286
0.098091 0.800608 0.908070
0.098396 0.800913 0.969992
0.098438 0.800955 0.978452
0.096951 0.860840 0.068905
0.097231 0.861119 0.125623
0.097517 0.861405 0.183662
0.097807 0.861695 0.242466
0.098099 0.861988 0.301816
0.098394 0.862282 0.361594
0.098690 0.862579 0.421722
0.098988 0.862877 0.482148
0.099287 0.863176 0.542834
0.099588 0.863476 0.603749
0.099889 0.863777 0.664871
0.100191 0.864080 0.726179
0.100494 0.864383 0.787659
0.100798 0.864687 0.849297
0.101103 0.864991 0.911082
0.101408 0.865296 0.973004
0.101450 0.865338 0.981464
0.099970 0.925374 0.071923
0.100250 0.925653 0.128642
0.100536 0.925939 0.186680
0.100826 0.926229 0.245484
0.101118 0.926522 0.304835
0.101413 0.926816 0.364613
0.101709 0.927113 0.424741
0.102007 0.927411 0.485167
0.102306 0.927710 0.545853
0.102607 0.928010 0.606768
0.102908 0.928311 0.667889
0.103210 0.928614 0.729198
0.103513 0.928917 0.790678
0.103817 0.929221 0.852316
0.104122 0.929525 0.914101
0.104427 0.929830 0.976023
0.104469 0.929872 0.984483
0.102650 0.982664 0.074603
0.102930 0.982943 0.131322
0.103216 0.983230 0.189360
0.103506 0.983519 0.248164
0.103798 0.983812 0.307515
0.104093 0.984107 0.367292
0.104389 0.984403 0.427421
0.104687 0.984701 0.487847
0.104986 0.985000 0.548533
0.105287 0.985300 0.609448
0.105588 0.985602 0.670569
0.105890 0.985904 0.731878
0.106193 0.986207 0.793358
0.106497 0.986511 0.854996
0.106802 0.986816 0.916781
0.107107 0.987121 0.978703
0.107149 0.987162 0.987162
0.114774 0.001786 0.029515
0.115054 0.002065 0.086233
0.115340 0.002351 0.144272
0.115630 0.002641 0.203076
0.115923 0.002934 0.262426
0.116217 0.003229 0.322204
0.116514 0.003525 0.382332
0.116812 0.003823 0.442758
0.117111 0.004122 0.503444
0.117411 0.004422 0.564359
0.117712 0.004724 0.625481
0.118015 0.005026 0.686789
0.118318 0.005329 0.748269
0.118622 0.005633 0.809908
0.118926 0.005937 0.871692
0.119231 0.006243 0.933614
0.119273 0.006284 0.942074
0.116820 0.045508 0.031560
