skills/editops-orchestrator/assets/grade/luts/cool_tech_v01.cube
TITLE "cool_tech_v01"
LUT_3D_SIZE 17
DOMAIN_MIN 0.0 0.0 0.0
DOMAIN_MAX 1.0 1.0 1.0
0.000014 0.000014 0.009373
0.000102 0.000102 0.069312
0.000191 0.000191 0.129868
0.000281 0.000281 0.190717
0.000370 0.000370 0.251761
0.000460 0.000460 0.312954
0.000551 0.000551 0.374266
0.000641 0.000641 0.435679
0.000731 0.000731 0.497177
0.000822 0.000822 0.558752
0.000913 0.000913 0.620393
0.001004 0.001004 0.682095
0.001094 0.001094 0.743853
0.001185 0.001185 0.805662
0.001276 0.001276 0.867517
0.001367 0.001367 0.929417
0.001444 0.001444 0.981444
0.000883 0.060458 0.010242
0.000972 0.060547 0.070181
0.001061 0.060636 0.130738
0.001150 0.060725 0.191586
0.001240 0.060815 0.252631
0.001330 0.060905 0.313824
0.001420 0.060995 0.375136
0.001511 0.061086 0.436548
0.001601 0.061176 0.498047
0.001692 0.061267 0.559621
0.001782 0.061357 0.621263
0.001873 0.061448 0.682965
0.001964 0.061539 0.744723
0.002055 0.061630 0.806531
0.002146 0.061721 0.868387
0.002237 0.061812 0.930286
0.002314 0.061889 0.982314
0.001765 0.121744 0.011124
0.001853 0.121832 0.071063
0.001942 0.121921 0.131619
0.002032 0.122011 0.192468
0.002122 0.122101 0.253512
0.002212 0.122191 0.314705
0.002302 0.122281 0.376018
0.002392 0.122371 0.437430
0.002483 0.122462 0.498929
0.002573 0.122552 0.560503
0.002664 0.122643 0.622144
0.002755 0.122734 0.683847
0.002846 0.122825 0.745604
0.002937 0.122916 0.807413
0.003028 0.123007 0.869269
0.003119 0.123098 0.931168
0.003195 0.123174 0.983195
0.002651 0.183351 0.012010
0.002739 0.183439 0.071949
0.002829 0.183528 0.132506
0.002918 0.183618 0.193354
0.003008 0.183708 0.254399
0.003098 0.183798 0.315592
0.003188 0.183888 0.376904
0.003278 0.183978 0.438316
0.003369 0.184069 0.499815
0.003460 0.184159 0.561389
0.003550 0.184250 0.623031
0.003641 0.184341 0.684733
0.003732 0.184432 0.746491
0.003823 0.184523 0.808299
0.003914 0.184614 0.870155
0.004005 0.184705 0.932054
0.004081 0.184781 0.984081
0.003541 0.245168 0.012899
0.003629 0.245256 0.072839
0.003718 0.245345 0.133395
0.003807 0.245434 0.194243
0.003897 0.245524 0.255288
0.003987 0.245614 0.316481
0.004077 0.245704 0.377793
0.004168 0.245795 0.439206
0.004258 0.245885 0.500704
0.004349 0.245976 0.562278
0.004440 0.246067 0.623920
0.004530 0.246157 0.685622
0.004621 0.246248 0.747380
0.004712 0.246339 0.809189
0.004803 0.246430 0.871044
0.004894 0.246521 0.932944
0.004971 0.246598 0.984971
0.004432 0.307141 0.013791
0.004520 0.307229 0.073730
0.004609 0.307318 0.134286
0.004699 0.307407 0.195135
0.004789 0.307497 0.256179
0.004879 0.307587 0.317372
0.004969 0.307677 0.378685
0.005059 0.307768 0.440097
0.005150 0.307858 0.501596
0.005240 0.307949 0.563170
0.005331 0.308040 0.624811
0.005422 0.308130 0.686514
0.005513 0.308221 0.748272
0.005604 0.308312 0.810080
0.005695 0.308403 0.871936
0.005786 0.308494 0.933835
0.005862 0.308571 0.985862
0.005325 0.369239 0.014684
0.005414 0.369327 0.074623
0.005503 0.369416 0.135180
0.005592 0.369505 0.196028
0.005682 0.369595 0.257073
0.005772 0.369685 0.318266
0.005862 0.369775 0.379578
0.005953 0.369866 0.440991
0.006043 0.369956 0.502489
0.006134 0.370047 0.564063
0.006224 0.370138 0.625705
0.006315 0.370228 0.687407
0.006406 0.370319 0.749165
0.006497 0.370410 0.810973
0.006588 0.370501 0.872829
0.006679 0.370592 0.934728
0.006756 0.370669 0.986756
0.006220 0.431440 0.015579
0.006308 0.431529 0.075518
0.006398 0.431618 0.136075
0.006487 0.431707 0.196923
0.006577 0.431797 0.257968
0.006667 0.431887 0.319161
0.006757 0.431977 0.380473
0.006847 0.432068 0.441885
0.006938 0.432158 0.503384
0.007029 0.432249 0.564958
0.007119 0.432339 0.626600
0.007210 0.432430 0.688302
0.007301 0.432521 0.750060
0.007392 0.432612 0.811868
0.007483 0.432703 0.873724
0.007574 0.432794 0.935623
0.007650 0.432871 0.987650
0.007116 0.493732 0.016475
0.007205 0.493820 0.076414
0.007294 0.493909 0.136971
0.007383 0.493999 0.197819
0.007473 0.494088 0.258864
0.007563 0.494178 0.320057
0.007653 0.494269 0.381369
0.007744 0.494359 0.442781
0.007834 0.494449 0.504280
0.007925 0.494540 0.565854
0.008015 0.494631 0.627496
0.008106 0.494721 0.689198
0.008197 0.494812 0.750956
0.008288 0.494903 0.812764
0.008379 0.494994 0.874620
0.008470 0.495085 0.936519
0.008547 0.495162 0.988547
0.008014 0.556101 0.017373
0.008102 0.556189 0.077312
0.008191 0.556278 0.137868
0.008280 0.556368 0.198716
0.008370 0.556458 0.259761
0.008460 0.556548 0.320954
0.008550 0.556638 0.382266
0.008641 0.556728 0.443679
0.008731 0.556819 0.505177
0.008822 0.556909 0.566751
0.008913 0.557000 0.628393
0.009003 0.557091 0.690095
0.009094 0.557182 0.751853
0.009185 0.557273 0.813662
0.009276 0.557364 0.875517
0.009367 0.557455 0.937417
0.009444 0.557531 0.989444
0.008912 0.618540 0.018271
0.009000 0.618628 0.078210
0.009089 0.618717 0.138766
0.009179 0.618807 0.199615
0.009268 0.618896 0.260659
0.009359 0.618987 0.321852
0.009449 0.619077 0.383164
0.009539 0.619167 0.444577
0.009630 0.619258 0.506076
0.009720 0.619348 0.567650
0.009811 0.619439 0.629291
0.009902 0.619530 0.690994
0.009993 0.619620 0.752751
0.010083 0.619711 0.814560
0.010174 0.619802 0.876416
0.010266 0.619894 0.938315
0.010342 0.619970 0.990342
0.009811 0.681041 0.019170
0.009899 0.681129 0.079109
0.009988 0.681219 0.139665
0.010078 0.681308 0.200514
0.010168 0.681398 0.261558
0.010258 0.681488 0.322751
0.010348 0.681578 0.384064
0.010438 0.681668 0.445476
0.010529 0.681759 0.506975
0.010619 0.681850 0.568549
0.010710 0.681940 0.630190
0.010801 0.682031 0.691893
0.010892 0.682122 0.753650
0.010983 0.682213 0.815459
0.011074 0.682304 0.877315
0.011165 0.682395 0.939214
0.011241 0.682471 0.991241
0.010711 0.743600 0.020070
0.010799 0.743688 0.080009
0.010888 0.743777 0.140565
0.010978 0.743866 0.201414
0.011068 0.743956 0.262458
0.011158 0.744046 0.323651
0.011248 0.744136 0.384964
0.011338 0.744227 0.446376
0.011429 0.744317 0.507875
0.011519 0.744408 0.569449
0.011610 0.744499 0.631090
0.011701 0.744589 0.692793
0.011792 0.744680 0.754550
0.011883 0.744771 0.816359
0.011974 0.744862 0.878215
0.012065 0.744953 0.940114
0.012141 0.745030 0.992141
0.011612 0.806210 0.020971
0.011700 0.806298 0.080910
0.011789 0.806387 0.141466
0.011878 0.806477 0.202314
0.011968 0.806567 0.263359
0.012058 0.806657 0.324552
0.012149 0.806747 0.385864
0.012239 0.806837 0.447277
0.012329 0.806928 0.508775
0.012420 0.807018 0.570349
0.012511 0.807109 0.631991
0.012601 0.807200 0.693693
0.012692 0.807291 0.755451
0.012783 0.807382 0.817260
0.012874 0.807473 0.879115
0.012965 0.807564 0.941015
0.013042 0.807640 0.993042
0.012513 0.868869 0.021872
0.012601 0.868957 0.081811
0.012690 0.869046 0.142367
0.012780 0.869136 0.203216
0.012870 0.869225 0.264260
0.012960 0.869315 0.325453
0.013050 0.869406 0.386766
0.013140 0.869496 0.448178
0.013231 0.869587 0.509677
0.013321 0.869677 0.571251
0.013412 0.869768 0.632892
0.013503 0.869859 0.694595
0.013594 0.869949 0.756353
0.013685 0.870040 0.818161
0.013776 0.870131 0.880017
0.013867 0.870222 0.941916
0.013943 0.870299 0.993943
0.013415 0.931572 0.022774
0.013503 0.931661 0.082713
0.013592 0.931750 0.143269
0.013682 0.931839 0.204118
0.013772 0.931929 0.265162
0.013862 0.932019 0.326355
0.013952 0.932109 0.387668
0.014042 0.932200 0.449080
0.014133 0.932290 0.510579
0.014223 0.932381 0.572153
0.014314 0.932471 0.633794
0.014405 0.932562 0.695497
0.014496 0.932653 0.757255
0.014587 0.932744 0.819063
0.014678 0.932835 0.880919
0.014769 0.932926 0.942818
0.014845 0.933003 0.994845
0.014318 0.994318 0.023677
0.014406 0.994406 0.083616
0.014495 0.994495 0.144172
0.014585 0.994585 0.205021
0.014674 0.994674 0.266065
0.014764 0.994764 0.327258
0.014855 0.994855 0.388570
0.014945 0.994945 0.449983
0.015035 0.995035 0.511481
0.015126 0.995126 0.573056
0.015217 0.995217 0.634697
0.015308 0.995308 0.696399
0.015398 0.995398 0.758157
0.015489 0.995489 0.819966
0.015580 0.995580 0.881821
0.015671 0.995671 0.943721
0.015748 0.995748 0.995748
0.050186 0.000231 0.009589
0.050275 0.000319 0.069529
0.050364 0.000408 0.130085
0.050453 0.000497 0.190933
0.050543 0.000587 0.251978
0.050633 0.000677 0.313171
0.050723 0.000767 0.374483
0.050814 0.000858 0.435896
0.050904 0.000948 0.497394
0.050995 0.001039 0.558968
0.051085 0.001130 0.620610
0.051176 0.001220 0.682312
0.051267 0.001311 0.744070
0.051358 0.001402 0.805879
0.051449 0.001493 0.867734
0.051540 0.001584 0.929634
0.051617 0.001661 0.981661
0.051056 0.060675 0.010459
0.051144 0.060763 0.070398
0.051233 0.060852 0.130954
0.051323 0.060942 0.191803
0.051413 0.061032 0.252847
0.051503 0.061122 0.314040
0.051593 0.061212 0.375353
0.051683 0.061302 0.436765
0.051774 0.061393 0.498264
0.051864 0.061484 0.559838
0.051955 0.061574 0.621479
0.052046 0.061665 0.683182
0.052137 0.061756 0.744940
0.052228 0.061847 0.806748
0.052319 0.061938 0.868604
0.052410 0.062029 0.930503
0.052486 0.062105 0.982530
0.051938 0.121961 0.011341
0.052026 0.122049 0.071280
0.052115 0.122138 0.131836
0.052204 0.122228 0.192684
0.052294 0.122317 0.253729
0.052384 0.122407 0.314922
0.052475 0.122498 0.376234
0.052565 0.122588 0.437647
0.052655 0.122678 0.499145
0.052746 0.122769 0.560720
0.052837 0.122860 0.622361
0.052927 0.122951 0.684063
0.053018 0.123041 0.745821
0.053109 0.123132 0.807630
0.053200 0.123223 0.869485
0.053291 0.123314 0.931385
0.053368 0.123391 0.983412
0.052824 0.183568 0.012227
0.052912 0.183656 0.072166
0.053001 0.183745 0.132722
0.053091 0.183834 0.193571
0.053181 0.183924 0.254615
0.053271 0.184014 0.315808
0.053361 0.184105 0.377121
0.053451 0.184195 0.438533
0.053542 0.184285 0.500032
0.053632 0.184376 0.561606
0.053723 0.184467 0.623247
0.053814 0.184557 0.684950
0.053905 0.184648 0.746707
0.053996 0.184739 0.808516
0.054087 0.184830 0.870372
0.054178 0.184921 0.932271
0.054254 0.184998 0.984298
0.053713 0.245384 0.013116
0.053801 0.245473 0.073055
0.053891 0.245562 0.133612
0.053980 0.245651 0.194460
0.054070 0.245741 0.255505
0.054160 0.245831 0.316698
0.054250 0.245921 0.378010
0.054340 0.246012 0.439422
0.054431 0.246102 0.500921
0.054522 0.246193 0.562495
0.054612 0.246283 0.624137
0.054703 0.246374 0.685839
0.054794 0.246465 0.747597
0.054885 0.246556 0.809405
0.054976 0.246647 0.871261
0.055067 0.246738 0.933160
0.055143 0.246815 0.985188
0.054605 0.307357 0.014008
0.054693 0.307446 0.073947
0.054782 0.307535 0.134503
0.054872 0.307624 0.195352
0.054961 0.307714 0.256396
0.055051 0.307804 0.317589
0.055142 0.307894 0.378901
0.055232 0.307985 0.440314
0.055322 0.308075 0.501812
0.055413 0.308166 0.563387
0.055504 0.308256 0.625028
0.055595 0.308347 0.686731
0.055685 0.308438 0.748488
0.055776 0.308529 0.810297
0.055867 0.308620 0.872153
0.055958 0.308711 0.934052
0.056035 0.308788 0.986079
0.055498 0.369455 0.014901
0.055586 0.369543 0.074840
0.055675 0.369633 0.135397
0.055765 0.369722 0.196245
0.055855 0.369812 0.257289
0.055945 0.369902 0.318482
0.056035 0.369992 0.379795
0.056125 0.370082 0.441207
0.056216 0.370173 0.502706
0.056306 0.370264 0.564280
0.056397 0.370354 0.625922
0.056488 0.370445 0.687624
0.056579 0.370536 0.749382
0.056670 0.370627 0.811190
0.056761 0.370718 0.873046
0.056852 0.370809 0.934945
0.056928 0.370885 0.986972
0.056393 0.431657 0.015796
0.056481 0.431745 0.075735
0.056570 0.431835 0.136291
0.056660 0.431924 0.197140
0.056750 0.432014 0.258184
0.056840 0.432104 0.319377
0.056930 0.432194 0.380690
0.057020 0.432284 0.442102
0.057111 0.432375 0.503601
0.057201 0.432466 0.565175
0.057292 0.432556 0.626816
0.057383 0.432647 0.688519
0.057474 0.432738 0.750276
0.057565 0.432829 0.812085
0.057656 0.432920 0.873941
0.057747 0.433011 0.935840
0.057823 0.433087 0.987867
0.057289 0.493948 0.016692
0.057377 0.494037 0.076631
0.057466 0.494126 0.137187
0.057556 0.494215 0.198036
0.057646 0.494305 0.259080
0.057736 0.494395 0.320273
0.057826 0.494485 0.381586
0.057916 0.494576 0.442998
0.058007 0.494666 0.504497
0.058097 0.494757 0.566071
0.058188 0.494847 0.627712
0.058279 0.494938 0.689415
0.058370 0.495029 0.751173
0.058461 0.495120 0.812981
0.058552 0.495211 0.874837
0.058643 0.495302 0.936736
0.058719 0.495379 0.988763
0.058186 0.556318 0.017589
0.058274 0.556406 0.077528
0.058364 0.556495 0.138085
0.058453 0.556585 0.198933
0.058543 0.556674 0.259978
0.058633 0.556764 0.321171
0.058723 0.556855 0.382483
0.058814 0.556945 0.443895
0.058904 0.557035 0.505394
0.058995 0.557126 0.566968
0.059085 0.557217 0.628610
0.059176 0.557308 0.690312
0.059267 0.557398 0.752070
0.059358 0.557489 0.813878
0.059449 0.557580 0.875734
0.059540 0.557671 0.937633
0.059617 0.557748 0.989661
0.059085 0.618757 0.018488
0.059173 0.618845 0.078427
0.059262 0.618934 0.138983
0.059351 0.619023 0.199831
0.059441 0.619113 0.260876
0.059531 0.619203 0.322069
0.059621 0.619293 0.383381
0.059712 0.619384 0.444794
0.059802 0.619474 0.506292
0.059893 0.619565 0.567866
0.059984 0.619656 0.629508
0.060074 0.619746 0.691210
0.060165 0.619837 0.752968
0.060256 0.619928 0.814777
0.060347 0.620019 0.876632
0.060438 0.620110 0.938532
0.060515 0.620187 0.990559
0.059984 0.681258 0.019387
0.060072 0.681346 0.079326
0.060161 0.681435 0.139882
0.060250 0.681525 0.200730
0.060340 0.681615 0.261775
0.060430 0.681705 0.322968
0.060521 0.681795 0.384280
0.060611 0.681885 0.445693
0.060701 0.681976 0.507191
0.060792 0.682066 0.568766
0.060883 0.682157 0.630407
0.060973 0.682248 0.692109
0.061064 0.682339 0.753867
0.061155 0.682430 0.815676
0.061246 0.682521 0.877531
0.061337 0.682612 0.939431
0.061414 0.682688 0.991458
0.060884 0.743816 0.020287
0.060972 0.743904 0.080226
0.061061 0.743994 0.140782
0.061150 0.744083 0.201630
0.061240 0.744173 0.262675
0.061330 0.744263 0.323868
0.061421 0.744353 0.385180
0.061511 0.744444 0.446593
0.061601 0.744534 0.508091
0.061692 0.744625 0.569666
0.061783 0.744715 0.631307
0.061873 0.744806 0.693009
0.061964 0.744897 0.754767
0.062055 0.744988 0.816576
0.062146 0.745079 0.878431
0.062237 0.745170 0.940331
0.062314 0.745247 0.992358
0.061784 0.806427 0.021187
0.061873 0.806515 0.081126
0.061962 0.806604 0.141683
0.062051 0.806694 0.202531
0.062141 0.806783 0.263576
0.062231 0.806873 0.324769
0.062321 0.806964 0.386081
0.062412 0.807054 0.447494
0.062502 0.807145 0.508992
0.062593 0.807235 0.570566
0.062683 0.807326 0.632208
0.062774 0.807417 0.693910
0.062865 0.807507 0.755668
0.062956 0.807598 0.817476
0.063047 0.807689 0.879332
0.063138 0.807780 0.941231
0.063215 0.807857 0.993259
0.062686 0.869086 0.022089
0.062774 0.869174 0.082028
0.062863 0.869263 0.142584
0.062953 0.869352 0.203433
0.063042 0.869442 0.264477
0.063132 0.869532 0.325670
0.063223 0.869622 0.386982
0.063313 0.869713 0.448395
0.063403 0.869803 0.509893
0.063494 0.869894 0.571468
0.063585 0.869985 0.633109
0.063676 0.870075 0.694812
0.063766 0.870166 0.756569
0.063857 0.870257 0.818378
0.063948 0.870348 0.880234
0.064039 0.870439 0.942133
0.064116 0.870516 0.994160
0.063588 0.931789 0.022991
0.063676 0.931877 0.082930
0.063765 0.931966 0.143486
0.063855 0.932056 0.204335
0.063944 0.932146 0.265379
0.064034 0.932236 0.326572
0.064125 0.932326 0.387885
0.064215 0.932416 0.449297
0.064306 0.932507 0.510796
0.064396 0.932597 0.572370
0.064487 0.932688 0.634011
0.064578 0.932779 0.695714
0.064668 0.932870 0.757471
0.064759 0.932961 0.819280
0.064850 0.933052 0.881136
0.064941 0.933143 0.943035
0.065018 0.933219 0.995062
0.064490 0.994535 0.023893
0.064579 0.994623 0.083833
0.064668 0.994712 0.144389
0.064757 0.994801 0.205237
0.064847 0.994891 0.266282
0.064937 0.994981 0.327475
0.065027 0.995071 0.388787
0.065118 0.995162 0.450200
0.065208 0.995252 0.511698
0.065299 0.995343 0.573272
0.065389 0.995434 0.634914
0.065480 0.995524 0.696616
0.065571 0.995615 0.758374
0.065662 0.995706 0.820183
0.065753 0.995797 0.882038
0.065844 0.995888 0.943938
0.065921 0.995965 0.995965
0.110781 0.000492 0.009851
0.110869 0.000580 0.069790
0.110958 0.000670 0.130347
0.111048 0.000759 0.191195
0.111138 0.000849 0.252240
0.111228 0.000939 0.313433
0.111318 0.001029 0.374745
0.111408 0.001120 0.436157
0.111499 0.001210 0.497656
0.111589 0.001301 0.559230
0.111680 0.001391 0.620872
0.111771 0.001482 0.682574
0.111862 0.001573 0.744332
0.111953 0.001664 0.806140
0.112044 0.001755 0.867996
0.112135 0.001846 0.929895
0.112211 0.001923 0.981923
0.111651 0.060937 0.010721
0.111739 0.061025 0.070660
0.111828 0.061114 0.131216
0.111917 0.061204 0.192065
0.112007 0.061294 0.253109
0.112097 0.061384 0.314302
0.112187 0.061474 0.375614
0.112278 0.061564 0.437027
0.112368 0.061655 0.498525
0.112459 0.061745 0.560100
0.112550 0.061836 0.621741
0.112640 0.061927 0.683444
0.112731 0.062018 0.745201
0.112822 0.062109 0.807010
0.112913 0.062200 0.868866
0.113004 0.062291 0.930765
0.113081 0.062367 0.982792
0.112532 0.122222 0.011602
0.112620 0.122311 0.071541
0.112709 0.122400 0.132098
0.112799 0.122489 0.192946
0.112889 0.122579 0.253991
0.112979 0.122669 0.315184
0.113069 0.122759 0.376496
0.113159 0.122850 0.437909
0.113250 0.122940 0.499407
0.113340 0.123031 0.560981
0.113431 0.123121 0.622623
0.113522 0.123212 0.684325
0.113613 0.123303 0.746083
0.113704 0.123394 0.807892
0.113795 0.123485 0.869747
0.113886 0.123576 0.931647
0.113962 0.123653 0.983674
0.113418 0.183829 0.012489
0.113507 0.183918 0.072428
0.113596 0.184007 0.132984
0.113685 0.184096 0.193833
0.113775 0.184186 0.254877
0.113865 0.184276 0.316070
0.113955 0.184366 0.377382
0.114046 0.184457 0.438795
0.114136 0.184547 0.500293
0.114227 0.184638 0.561868
0.114317 0.184728 0.623509
0.114408 0.184819 0.685211
0.114499 0.184910 0.746969
0.114590 0.185001 0.808778
0.114681 0.185092 0.870633
0.114772 0.185183 0.932533
0.114849 0.185260 0.984560
0.114308 0.245646 0.013378
0.114396 0.245734 0.073317
0.114485 0.245823 0.133873
0.114575 0.245913 0.194722
0.114664 0.246003 0.255766
0.114754 0.246093 0.316959
0.114845 0.246183 0.378272
0.114935 0.246273 0.439684
0.115025 0.246364 0.501183
0.115116 0.246454 0.562757
0.115207 0.246545 0.624398
0.115298 0.246636 0.686101
0.115388 0.246727 0.747859
0.115479 0.246818 0.809667
0.115570 0.246909 0.871523
0.115661 0.247000 0.933422
0.115738 0.247076 0.985449
0.115199 0.307619 0.014270
0.115287 0.307707 0.074209
0.115377 0.307796 0.134765
0.115466 0.307886 0.195613
0.115556 0.307976 0.256658
0.115646 0.308066 0.317851
0.115736 0.308156 0.379163
0.115827 0.308246 0.440576
0.115917 0.308337 0.502074
0.116008 0.308427 0.563648
0.116098 0.308518 0.625290
0.116189 0.308609 0.686992
0.116280 0.308700 0.748750
0.116371 0.308791 0.810559
0.116462 0.308882 0.872414
0.116553 0.308973 0.934314
0.116629 0.309049 0.986341
0.116093 0.369717 0.015163
0.116181 0.369805 0.075102
0.116270 0.369894 0.135658
0.116359 0.369984 0.196507
0.116449 0.370074 0.257551
0.116539 0.370164 0.318744
0.116629 0.370254 0.380057
0.116720 0.370344 0.441469
0.116810 0.370435 0.502968
0.116901 0.370525 0.564542
0.116992 0.370616 0.626183
0.117082 0.370707 0.687886
0.117173 0.370798 0.749643
0.117264 0.370889 0.811452
0.117355 0.370980 0.873308
0.117446 0.371071 0.935207
0.117523 0.371147 0.987234
0.116987 0.431919 0.016058
0.117076 0.432007 0.075997
0.117165 0.432096 0.136553
0.117254 0.432186 0.197402
0.117344 0.432276 0.258446
0.117434 0.432366 0.319639
0.117524 0.432456 0.380951
0.117615 0.432546 0.442364
0.117705 0.432637 0.503862
0.117796 0.432727 0.565437
0.117886 0.432818 0.627078
0.117977 0.432909 0.688780
0.118068 0.433000 0.750538
0.118159 0.433091 0.812347
0.118250 0.433182 0.874202
0.118341 0.433273 0.936102
0.118418 0.433349 0.988129
0.117884 0.494210 0.016954
0.117972 0.494298 0.076893
0.118061 0.494388 0.137449
0.118150 0.494477 0.198298
0.118240 0.494567 0.259342
0.118330 0.494657 0.320535
0.118420 0.494747 0.381848
0.118511 0.494837 0.443260
0.118601 0.494928 0.504759
0.118692 0.495019 0.566333
0.118783 0.495109 0.627974
0.118873 0.495200 0.689677
0.118964 0.495291 0.751434
0.119055 0.495382 0.813243
0.119146 0.495473 0.875099
0.119237 0.495564 0.936998
0.119314 0.495640 0.989025
0.118781 0.556580 0.017851
0.118869 0.556668 0.077790
0.118958 0.556757 0.138346
0.119048 0.556846 0.199195
0.119137 0.556936 0.260239
0.119227 0.557026 0.321432
0.119318 0.557116 0.382745
0.119408 0.557207 0.444157
0.119499 0.557297 0.505656
0.119589 0.557388 0.567230
0.119680 0.557479 0.628871
0.119771 0.557569 0.690574
0.119861 0.557660 0.752332
0.119952 0.557751 0.814140
0.120043 0.557842 0.875996
0.120134 0.557933 0.937895
0.120211 0.558010 0.989922
0.119679 0.619018 0.018749
0.119767 0.619107 0.078688
0.119856 0.619196 0.139245
0.119946 0.619285 0.200093
0.120036 0.619375 0.261138
0.120126 0.619465 0.322331
0.120216 0.619555 0.383643
0.120306 0.619646 0.445055
0.120397 0.619736 0.506554
0.120487 0.619827 0.568128
0.120578 0.619917 0.629770
0.120669 0.620008 0.691472
0.120760 0.620099 0.753230
0.120851 0.620190 0.815038
0.120942 0.620281 0.876894
0.121033 0.620372 0.938793
0.121109 0.620449 0.990821
0.120578 0.681520 0.019648
0.120666 0.681608 0.079587
0.120755 0.681697 0.140144
0.120845 0.681787 0.200992
0.120935 0.681876 0.262037
0.121025 0.681966 0.323230
0.121115 0.682057 0.384542
0.121205 0.682147 0.445955
0.121296 0.682237 0.507453
0.121387 0.682328 0.569027
0.121477 0.682419 0.630669
0.121568 0.682510 0.692371
0.121659 0.682600 0.754129
0.121750 0.682691 0.815938
0.121841 0.682782 0.877793
0.121932 0.682873 0.939693
0.122008 0.682950 0.991720
0.121478 0.744078 0.020548
0.121566 0.744166 0.080487
0.121655 0.744255 0.141044
0.121745 0.744345 0.201892
0.121835 0.744435 0.262937
0.121925 0.744525 0.324130
0.122015 0.744615 0.385442
0.122105 0.744705 0.446855
0.122196 0.744796 0.508353
0.122286 0.744886 0.569927
0.122377 0.744977 0.631569
0.122468 0.745068 0.693271
0.122559 0.745159 0.755029
0.122650 0.745250 0.816838
0.122741 0.745341 0.878693
0.122832 0.745432 0.940593
0.122908 0.745508 0.992620
0.122379 0.806689 0.021449
0.122467 0.806777 0.081388
0.122556 0.806866 0.141945
0.122646 0.806955 0.202793
0.122735 0.807045 0.263837
0.122826 0.807135 0.325030
0.122916 0.807225 0.386343
0.123006 0.807316 0.447755
0.123097 0.807406 0.509254
0.123187 0.807497 0.570828
0.123278 0.807588 0.632470
0.123369 0.807678 0.694172
0.123460 0.807769 0.755930
0.123550 0.807860 0.817738
0.123641 0.807951 0.879594
0.123733 0.808042 0.941493
0.123809 0.808119 0.993520
0.123280 0.869347 0.022351
0.123368 0.869436 0.082290
0.123458 0.869525 0.142846
0.123547 0.869614 0.203694
0.123637 0.869704 0.264739
0.123727 0.869794 0.325932
0.123817 0.869884 0.387244
0.123907 0.869975 0.448657
0.123998 0.870065 0.510155
0.124089 0.870156 0.571729
0.124179 0.870246 0.633371
0.124270 0.870337 0.695073
0.124361 0.870428 0.756831
0.124452 0.870519 0.818640
0.124543 0.870610 0.880495
0.124634 0.870701 0.942395
0.124710 0.870778 0.994422
0.124182 0.932051 0.023253
0.124271 0.932139 0.083192
0.124360 0.932228 0.143748
0.124449 0.932318 0.204596
0.124539 0.932408 0.265641
0.124629 0.932498 0.326834
0.124719 0.932588 0.388146
0.124810 0.932678 0.449559
0.124900 0.932769 0.511057
0.124991 0.932859 0.572631
0.125081 0.932950 0.634273
0.125172 0.933041 0.695975
0.125263 0.933132 0.757733
0.125354 0.933222 0.819542
0.125445 0.933313 0.881397
0.125536 0.933405 0.943297
0.125613 0.933481 0.995324
0.125085 0.994796 0.024155
0.125173 0.994884 0.084094
0.125262 0.994974 0.144651
0.125352 0.995063 0.205499
0.125442 0.995153 0.266544
0.125532 0.995243 0.327737
0.125622 0.995333 0.389049
0.125712 0.995424 0.450461
0.125803 0.995514 0.511960
0.125893 0.995605 0.573534
0.125984 0.995695 0.635176
0.126075 0.995786 0.696878
0.126166 0.995877 0.758636
0.126257 0.995968 0.820444
0.126348 0.996059 0.882300
0.126439 0.996150 0.944199
0.126515 0.996227 0.996227
0.171724 0.000756 0.010115
0.171812 0.000844 0.070054
0.171901 0.000933 0.130610
0.171991 0.001022 0.191458
0.172081 0.001112 0.252503
0.172171 0.001202 0.313696
0.172261 0.001292 0.375008
0.172351 0.001383 0.436421
0.172442 0.001473 0.497919
0.172533 0.001564 0.559493
0.172623 0.001655 0.621135
0.172714 0.001745 0.682837
0.172805 0.001836 0.744595
0.172896 0.001927 0.806404
0.172987 0.002018 0.868259
0.173078 0.002109 0.930159
0.173154 0.002186 0.982186
0.172594 0.061200 0.010984
