skills/editops-orchestrator/assets/grade/luts/cool_tech_v10.cube
TITLE "cool_tech_v10"
LUT_3D_SIZE 9
DOMAIN_MIN 0.0 0.0 0.0
DOMAIN_MAX 1.0 1.0 1.0
0.000079 0.000079 0.021529
0.000506 0.000506 0.138168
0.000943 0.000943 0.257606
0.001385 0.001385 0.378418
0.001831 0.001831 0.500165
0.002279 0.002279 0.622623
0.002729 0.002729 0.745658
0.003182 0.003182 0.869176
0.003496 0.003496 0.955075
0.003935 0.109882 0.025385
0.004362 0.110309 0.142024
0.004799 0.110747 0.261461
0.005241 0.111189 0.382274
0.005687 0.111634 0.504021
0.006135 0.112083 0.626479
0.006585 0.112533 0.749513
0.007037 0.112985 0.873031
0.007352 0.113300 0.958931
0.008247 0.232679 0.029697
0.008674 0.233106 0.146336
0.009111 0.233543 0.265773
0.009553 0.233985 0.386586
0.009999 0.234431 0.508333
0.010447 0.234879 0.630791
0.010897 0.235330 0.753825
0.011349 0.235782 0.877343
0.011664 0.236096 0.963243
0.012616 0.357108 0.034066
0.013043 0.357535 0.150705
0.013480 0.357972 0.270143
0.013922 0.358414 0.390955
0.014368 0.358860 0.512702
0.014816 0.359308 0.635160
0.015267 0.359758 0.758195
0.015719 0.360211 0.881713
0.016033 0.360525 0.967612
0.017022 0.482592 0.038472
0.017449 0.483019 0.155111
0.017886 0.483456 0.274549
0.018329 0.483898 0.395361
0.018774 0.484344 0.517108
0.019223 0.484792 0.639567
0.019673 0.485243 0.762601
0.020125 0.485695 0.886119
0.020439 0.486009 0.972018
0.021456 0.608861 0.042906
0.021883 0.609288 0.159545
0.022320 0.609725 0.278983
0.022763 0.610167 0.399795
0.023208 0.610613 0.521542
0.023656 0.611061 0.644001
0.024107 0.611512 0.767035
0.024559 0.611964 0.890553
0.024873 0.612278 0.976452
0.025912 0.735756 0.047362
0.026339 0.736183 0.164001
0.026776 0.736621 0.283439
0.027218 0.737063 0.404251
0.027664 0.737508 0.525998
0.028112 0.737957 0.648457
0.028563 0.738407 0.771491
0.029015 0.738859 0.895009
0.029329 0.739174 0.980908
0.030386 0.863174 0.051836
0.030813 0.863601 0.168476
0.031251 0.864038 0.287913
0.031693 0.864480 0.408726
0.032138 0.864926 0.530472
0.032587 0.865374 0.652931
0.033037 0.865825 0.775965
0.033489 0.866277 0.899483
0.033804 0.866591 0.985383
0.034710 0.986288 0.056160
0.035136 0.986715 0.172799
0.035574 0.987153 0.292236
0.036016 0.987595 0.413049
0.036462 0.988041 0.534796
0.036910 0.988489 0.657254
0.037360 0.988939 0.780288
0.037812 0.989391 0.903806
0.038127 0.989706 0.989706
0.075344 0.000884 0.022334
0.075771 0.001311 0.138973
0.076208 0.001748 0.258411
0.076650 0.002191 0.379223
0.077096 0.002636 0.500970
0.077544 0.003085 0.623429
0.077995 0.003535 0.746463
0.078447 0.003987 0.869981
0.078761 0.004302 0.955880
0.079200 0.110688 0.026190
0.079627 0.111115 0.142829
0.080064 0.111552 0.262267
0.080506 0.111994 0.383079
0.080952 0.112440 0.504826
0.081400 0.112888 0.627285
0.081850 0.113339 0.750319
0.082303 0.113791 0.873837
0.082617 0.114105 0.959736
0.083512 0.233484 0.030502
0.083939 0.233911 0.147141
0.084376 0.234349 0.266579
0.084818 0.234791 0.387391
0.085264 0.235237 0.509138
0.085712 0.235685 0.631597
0.086162 0.236135 0.754631
0.086615 0.236587 0.878149
0.086929 0.236902 0.964048
0.087881 0.357913 0.034871
0.088308 0.358340 0.151511
0.088745 0.358778 0.270948
0.089187 0.359220 0.391761
0.089633 0.359665 0.513507
0.090081 0.360114 0.635966
0.090532 0.360564 0.759000
0.090984 0.361016 0.882518
0.091298 0.361331 0.968418
0.092287 0.483397 0.039278
0.092714 0.483824 0.155917
0.093152 0.484262 0.275355
0.093594 0.484704 0.396167
0.094040 0.485149 0.517914
0.094488 0.485598 0.640372
0.094938 0.486048 0.763407
0.095390 0.486500 0.886925
0.095705 0.486815 0.972824
0.096721 0.609666 0.043712
0.097148 0.610093 0.160351
0.097586 0.610531 0.279788
0.098028 0.610973 0.400601
0.098473 0.611418 0.522348
0.098922 0.611867 0.644806
0.099372 0.612317 0.767840
0.099824 0.612769 0.891358
0.100139 0.613084 0.977258
0.101177 0.736562 0.048168
0.101604 0.736989 0.164807
0.102042 0.737426 0.284244
0.102484 0.737868 0.405057
0.102929 0.738314 0.526804
0.103378 0.738762 0.649262
0.103828 0.739213 0.772296
0.104280 0.739665 0.895814
0.104595 0.739979 0.981714
0.105652 0.863980 0.052642
0.106079 0.864406 0.169281
0.106516 0.864844 0.288719
0.106958 0.865286 0.409531
0.107404 0.865732 0.531278
0.107852 0.866180 0.653736
0.108302 0.866630 0.776771
0.108754 0.867082 0.900289
0.109069 0.867397 0.986188
0.109975 0.987094 0.056965
0.110402 0.987521 0.173604
0.110839 0.987958 0.293042
0.111281 0.988400 0.413854
0.111727 0.988846 0.535601
0.112175 0.989294 0.658060
0.112625 0.989745 0.781094
0.113078 0.990197 0.904612
0.113392 0.990511 0.990511
0.194471 0.002159 0.023609
0.194898 0.002586 0.140248
0.195335 0.003023 0.259686
0.195777 0.003466 0.380498
0.196223 0.003911 0.502245
0.196671 0.004360 0.624704
0.197122 0.004810 0.747738
0.197574 0.005262 0.871256
0.197888 0.005576 0.957155
0.198327 0.111963 0.027465
0.198754 0.112390 0.144104
0.199191 0.112827 0.263542
0.199633 0.113269 0.384354
0.200079 0.113715 0.506101
0.200527 0.114163 0.628560
0.200977 0.114614 0.751594
0.201429 0.115066 0.875112
0.201744 0.115380 0.961011
0.202639 0.234759 0.031777
0.203066 0.235186 0.148416
0.203503 0.235624 0.267854
0.203945 0.236066 0.388666
0.204391 0.236511 0.510413
0.204839 0.236960 0.632872
0.205289 0.237410 0.755906
0.205741 0.237862 0.879424
0.206056 0.238177 0.965323
0.207008 0.359188 0.036146
0.207435 0.359615 0.152785
0.207872 0.360052 0.272223
0.208314 0.360495 0.393035
0.208760 0.360940 0.514782
0.209208 0.361389 0.637241
0.209659 0.361839 0.760275
0.210111 0.362291 0.883793
0.210425 0.362606 0.969692
0.211414 0.484672 0.040553
0.211841 0.485099 0.157192
0.212278 0.485536 0.276629
0.212721 0.485979 0.397442
0.213166 0.486424 0.519189
0.213615 0.486873 0.641647
0.214065 0.487323 0.764681
0.214517 0.487775 0.888199
0.214832 0.488090 0.974099
0.215848 0.610941 0.044987
0.216275 0.611368 0.161626
0.216712 0.611805 0.281063
0.217155 0.612248 0.401876
0.217600 0.612693 0.523623
0.218049 0.613142 0.646081
0.218499 0.613592 0.769115
0.218951 0.614044 0.892633
0.219265 0.614359 0.978533
0.220304 0.737837 0.049443
0.220731 0.738264 0.166082
0.221168 0.738701 0.285519
0.221611 0.739143 0.406332
0.222056 0.739589 0.528079
0.222504 0.740037 0.650537
0.222955 0.740488 0.773571
0.223407 0.740940 0.897089
0.223721 0.741254 0.982989
0.224778 0.865254 0.053917
0.225205 0.865681 0.170556
0.225643 0.866119 0.289994
0.226085 0.866561 0.410806
0.226530 0.867006 0.532553
0.226979 0.867455 0.655011
0.227429 0.867905 0.778046
0.227881 0.868357 0.901564
0.228196 0.868672 0.987463
0.229102 0.988369 0.058240
0.229529 0.988796 0.174879
0.229966 0.989233 0.294317
0.230408 0.989675 0.415129
0.230854 0.990121 0.536876
0.231302 0.990569 0.659335
0.231752 0.991020 0.782369
0.232204 0.991472 0.905887
0.232519 0.991786 0.991786
0.315478 0.003454 0.024904
0.315905 0.003881 0.141543
0.316342 0.004318 0.260981
0.316784 0.004761 0.381793
0.317230 0.005206 0.503540
0.317678 0.005655 0.625999
0.318129 0.006105 0.749033
0.318581 0.006557 0.872551
0.318895 0.006872 0.958450
0.319334 0.113258 0.028760
0.319761 0.113685 0.145399
0.320198 0.114122 0.264837
0.320640 0.114564 0.385649
0.321086 0.115010 0.507396
0.321534 0.115458 0.629855
0.321985 0.115909 0.752889
0.322437 0.116361 0.876407
0.322751 0.116675 0.962306
0.323646 0.236054 0.033072
0.324073 0.236481 0.149711
0.324510 0.236919 0.269149
0.324952 0.237361 0.389961
0.325398 0.237807 0.511708
0.325846 0.238255 0.634167
0.326297 0.238705 0.757201
0.326749 0.239157 0.880719
0.327063 0.239472 0.966618
0.328015 0.360483 0.037441
0.328442 0.360910 0.154081
0.328879 0.361348 0.273518
0.329322 0.361790 0.394331
0.329767 0.362235 0.516078
0.330215 0.362684 0.638536
0.330666 0.363134 0.761570
0.331118 0.363586 0.885088
0.331432 0.363901 0.970988
0.332422 0.485967 0.041848
0.332849 0.486394 0.158487
0.333286 0.486832 0.277925
0.333728 0.487274 0.398737
0.334174 0.487719 0.520484
0.334622 0.488168 0.642942
0.335072 0.488618 0.765977
0.335524 0.489070 0.889495
0.335839 0.489385 0.975394
0.336855 0.612236 0.046282
0.337282 0.612663 0.162921
0.337720 0.613101 0.282358
0.338162 0.613543 0.403171
0.338608 0.613988 0.524918
0.339056 0.614437 0.647376
0.339506 0.614887 0.770410
0.339958 0.615339 0.893928
0.340273 0.615654 0.979828
0.341311 0.739132 0.050738
0.341738 0.739559 0.167377
0.342176 0.739996 0.286814
0.342618 0.740438 0.407627
0.343063 0.740884 0.529374
0.343512 0.741332 0.651832
0.343962 0.741783 0.774866
0.344414 0.742235 0.898384
0.344729 0.742549 0.984284
0.345786 0.866550 0.055212
0.346213 0.866976 0.171851
0.346650 0.867414 0.291289
0.347092 0.867856 0.412101
0.347538 0.868302 0.533848
0.347986 0.868750 0.656307
0.348436 0.869200 0.779341
0.348888 0.869652 0.902859
0.349203 0.869967 0.988758
0.350109 0.989664 0.059535
0.350536 0.990091 0.176174
0.350973 0.990528 0.295612
0.351415 0.990970 0.416424
0.351861 0.991416 0.538171
0.352309 0.991864 0.660630
0.352759 0.992315 0.783664
0.353212 0.992767 0.907182
0.353526 0.993081 0.993081
0.437621 0.004762 0.026212
0.438048 0.005188 0.142851
0.438485 0.005626 0.262288
0.438928 0.006068 0.383101
0.439373 0.006514 0.504848
0.439821 0.006962 0.627306
0.440272 0.007412 0.750340
0.440724 0.007864 0.873858
0.441038 0.008179 0.959758
0.441477 0.114565 0.030067
0.441904 0.114992 0.146706
0.442341 0.115429 0.266144
0.442783 0.115872 0.386956
0.443229 0.116317 0.508703
0.443677 0.116765 0.631162
0.444128 0.117216 0.754196
0.444580 0.117668 0.877714
0.444894 0.117982 0.963613
0.445789 0.237362 0.034379
0.446216 0.237789 0.151018
0.446653 0.238226 0.270456
0.447095 0.238668 0.391268
0.447541 0.239114 0.513015
0.447989 0.239562 0.635474
0.448440 0.240012 0.758508
0.448892 0.240464 0.882026
0.449206 0.240779 0.967925
0.450158 0.361791 0.038749
0.450585 0.362218 0.155388
0.451022 0.362655 0.274825
0.451465 0.363097 0.395638
0.451910 0.363543 0.517385
0.452359 0.363991 0.639843
0.452809 0.364441 0.762877
0.453261 0.364893 0.886395
0.453575 0.365208 0.972295
0.454565 0.487275 0.043155
0.454992 0.487702 0.159794
0.455429 0.488139 0.279232
0.455871 0.488581 0.400044
0.456317 0.489027 0.521791
0.456765 0.489475 0.644250
0.457215 0.489925 0.767284
0.457667 0.490377 0.890802
0.457982 0.490692 0.976701
0.458999 0.613544 0.047589
0.459426 0.613971 0.164228
0.459863 0.614408 0.283666
0.460305 0.614850 0.404478
0.460751 0.615296 0.526225
0.461199 0.615744 0.648684
0.461649 0.616194 0.771718
0.462101 0.616646 0.895236
0.462416 0.616961 0.981135
0.463455 0.740439 0.052045
0.463881 0.740866 0.168684
0.464319 0.741303 0.288122
0.464761 0.741746 0.408934
0.465207 0.742191 0.530681
0.465655 0.742639 0.653139
0.466105 0.743090 0.776174
0.466557 0.743542 0.899692
0.466872 0.743856 0.985591
0.467929 0.867857 0.056519
0.468356 0.868284 0.173158
0.468793 0.868721 0.292596
0.469235 0.869163 0.413408
0.469681 0.869609 0.535155
0.470129 0.870057 0.657614
0.470579 0.870507 0.780648
0.471032 0.870960 0.904166
0.471346 0.871274 0.990065
0.472252 0.990971 0.060842
0.472679 0.991398 0.177481
0.473116 0.991835 0.296919
0.473558 0.992278 0.417731
0.474004 0.992723 0.539478
0.474452 0.993172 0.661937
0.474903 0.993622 0.784971
0.475355 0.994074 0.908489
0.475669 0.994388 0.994388
0.560586 0.006078 0.027528
0.561013 0.006505 0.144167
0.561450 0.006942 0.263604
0.561893 0.007384 0.384417
0.562338 0.007830 0.506164
0.562787 0.008278 0.628622
0.563237 0.008728 0.751656
0.563689 0.009180 0.875174
0.564003 0.009495 0.961074
0.564442 0.115881 0.031383
0.564869 0.116308 0.148022
0.565306 0.116745 0.267460
0.565748 0.117188 0.388272
0.566194 0.117633 0.510019
0.566642 0.118081 0.632478
0.567093 0.118532 0.755512
0.567545 0.118984 0.879030
0.567859 0.119298 0.964929
0.568754 0.238678 0.035695
0.569181 0.239105 0.152334
0.569618 0.239542 0.271772
0.570060 0.239984 0.392584
0.570506 0.240430 0.514331
0.570954 0.240878 0.636790
0.571405 0.241328 0.759824
0.571857 0.241780 0.883342
0.572171 0.242095 0.969241
0.573123 0.363107 0.040065
0.573550 0.363534 0.156704
0.573987 0.363971 0.276141
0.574430 0.364413 0.396954
0.574875 0.364859 0.518701
0.575324 0.365307 0.641159
0.575774 0.365757 0.764193
0.576226 0.366209 0.887711
0.576541 0.366524 0.973611
0.577530 0.488591 0.044471
0.577957 0.489018 0.161110
0.578394 0.489455 0.280548
0.578836 0.489897 0.401360
0.579282 0.490343 0.523107
0.579730 0.490791 0.645566
0.580180 0.491241 0.768600
0.580632 0.491693 0.892118
0.580947 0.492008 0.978017
0.581964 0.614860 0.048905
0.582391 0.615287 0.165544
0.582828 0.615724 0.284982
0.583270 0.616166 0.405794
0.583716 0.616612 0.527541
0.584164 0.617060 0.650000
0.584614 0.617510 0.773034
0.585066 0.617962 0.896552
0.585381 0.618277 0.982451
0.586420 0.741755 0.053361
0.586847 0.742182 0.170000
0.587284 0.742619 0.289438
0.587726 0.743062 0.410250
0.588172 0.743507 0.531997
0.588620 0.743955 0.654455
0.589070 0.744406 0.777490
0.589522 0.744858 0.901008
0.589837 0.745172 0.986907
0.590894 0.869173 0.057835
0.591321 0.869600 0.174474
0.591758 0.870037 0.293912
0.592200 0.870479 0.414724
0.592646 0.870925 0.536471
0.593094 0.871373 0.658930
0.593544 0.871823 0.781964
0.593997 0.872276 0.905482
0.594311 0.872590 0.991381
0.595217 0.992287 0.062158
0.595644 0.992714 0.178797
0.596081 0.993151 0.298235
0.596523 0.993594 0.419047
0.596969 0.994039 0.540794
0.597417 0.994488 0.663253
0.597868 0.994938 0.786287
0.598320 0.995390 0.909805
0.598634 0.995704 0.995704
0.684197 0.007400 0.028850
0.684624 0.007827 0.145490
0.685062 0.008265 0.264927
0.685504 0.008707 0.385740
0.685949 0.009153 0.507487
0.686398 0.009601 0.629945
0.686848 0.010051 0.752979
0.687300 0.010503 0.876497
0.687615 0.010818 0.962397
0.688053 0.117204 0.032706
0.688480 0.117631 0.149345
0.688917 0.118068 0.268783
0.689360 0.118511 0.389595
0.689805 0.118956 0.511342
0.690253 0.119404 0.633801
0.690704 0.119855 0.756835
0.691156 0.120307 0.880353
0.691470 0.120621 0.966252
0.692365 0.240001 0.037018
0.692792 0.240428 0.153657
0.693229 0.240865 0.273095
0.693672 0.241307 0.393907
0.694117 0.241753 0.515654
0.694565 0.242201 0.638113
0.695016 0.242651 0.761147
0.695468 0.243103 0.884665
0.695782 0.243418 0.970564
0.696734 0.364430 0.041388
0.697161 0.364856 0.158027
0.697599 0.365294 0.277464
0.698041 0.365736 0.398277
0.698487 0.366182 0.520024
0.698935 0.366630 0.642482
0.699385 0.367080 0.765516
0.699837 0.367532 0.889034
0.700152 0.367847 0.974934
0.701141 0.489914 0.045794
0.701568 0.490341 0.162433
0.702005 0.490778 0.281871
0.702447 0.491220 0.402683
0.702893 0.491666 0.524430
0.703341 0.492114 0.646889
0.703791 0.492564 0.769923
0.704244 0.493016 0.893441
0.704558 0.493331 0.979340
0.705575 0.616183 0.050228
0.706002 0.616610 0.166867
0.706439 0.617047 0.286305
0.706881 0.617489 0.407117
0.707327 0.617935 0.528864
0.707775 0.618383 0.651322
0.708225 0.618833 0.774357
0.708678 0.619285 0.897875
0.708992 0.619600 0.983774
0.710031 0.743078 0.054684
0.710458 0.743505 0.171323
0.710895 0.743942 0.290761
0.711337 0.744384 0.411573
0.711783 0.744830 0.533320
0.712231 0.745278 0.655778
0.712681 0.745729 0.778813
0.713133 0.746181 0.902331
0.713448 0.746495 0.988230
0.714505 0.870496 0.059158
0.714932 0.870923 0.175797
0.715369 0.871360 0.295235
0.715811 0.871802 0.416047
0.716257 0.872248 0.537794
0.716705 0.872696 0.660253
0.717156 0.873146 0.783287
0.717608 0.873598 0.906805
0.717922 0.873913 0.992704
0.718828 0.993610 0.063481
0.719255 0.994037 0.180120
0.719692 0.994474 0.299558
0.720135 0.994917 0.420370
0.720580 0.995362 0.542117
0.721028 0.995810 0.664576
0.721479 0.996261 0.787610
0.721931 0.996713 0.911128
0.722245 0.997027 0.997027
0.808342 0.008729 0.030179
0.808769 0.009156 0.146818
0.809206 0.009593 0.266256
0.809648 0.010035 0.387068
0.810094 0.010481 0.508815
0.810542 0.010929 0.631274
0.810992 0.011380 0.754308
0.811444 0.011832 0.877826
0.811759 0.012146 0.963725
0.812197 0.118533 0.034035
0.812624 0.118960 0.150674
0.813062 0.119397 0.270112
0.813504 0.119839 0.390924
0.813949 0.120285 0.512671
0.814398 0.120733 0.635129
0.814848 0.121183 0.758164
0.815300 0.121636 0.881682
0.815615 0.121950 0.967581
0.816509 0.241329 0.038347
0.816936 0.241756 0.154986
0.817374 0.242193 0.274424
0.817816 0.242636 0.395236
0.818261 0.243081 0.516983
0.818710 0.243530 0.639441
0.819160 0.243980 0.762476
0.819612 0.244432 0.885994
0.819927 0.244746 0.971893
0.820879 0.365758 0.042716
0.821306 0.366185 0.159355
0.821743 0.366622 0.278793
0.822185 0.367065 0.399605
0.822631 0.367510 0.521352
0.823079 0.367958 0.643811
0.823529 0.368409 0.766845
0.823981 0.368861 0.890363
0.824296 0.369175 0.976262
0.825285 0.491242 0.047123
0.825712 0.491669 0.163762
0.826149 0.492106 0.283199
0.826591 0.492549 0.404012
0.827037 0.492994 0.525759
0.827485 0.493442 0.648217
0.827936 0.493893 0.771251
0.828388 0.494345 0.894769
0.828702 0.494659 0.980669
0.829719 0.617511 0.051556
0.830146 0.617938 0.168196
0.830583 0.618375 0.287633
0.831025 0.618818 0.408446
0.831471 0.619263 0.530193
0.831919 0.619711 0.652651
0.832370 0.620162 0.775685
0.832822 0.620614 0.899203
0.833136 0.620928 0.985103
0.834175 0.744407 0.056012
0.834602 0.744834 0.172652
0.835039 0.745271 0.292089
0.835481 0.745713 0.412902
0.835927 0.746159 0.534649
0.836375 0.746607 0.657107
0.836826 0.747057 0.780141
0.837278 0.747510 0.903659
0.837592 0.747824 0.989559
0.838649 0.871824 0.060487
0.839076 0.872251 0.177126
0.839513 0.872688 0.296563
0.839956 0.873131 0.417376
0.840401 0.873576 0.539123
0.840849 0.874025 0.661581
0.841300 0.874475 0.784615
0.841752 0.874927 0.908133
0.842066 0.875242 0.994033
0.842972 0.994939 0.064810
0.843399 0.995366 0.181449
0.843837 0.995803 0.300887
0.844279 0.996245 0.421699
0.844724 0.996691 0.543446
0.845173 0.997139 0.665904
0.845623 0.997589 0.788939
0.846075 0.998042 0.912457
0.846390 0.998356 0.998356
0.932940 0.010063 0.031513
0.933367 0.010490 0.148152
0.933804 0.010927 0.267589
0.934246 0.011369 0.388402
0.934692 0.011815 0.510149
0.935140 0.012263 0.632607
0.935591 0.012713 0.755641
0.936043 0.013165 0.879159
0.936357 0.013480 0.965059
0.936796 0.119866 0.035368
0.937223 0.120293 0.152008
0.937660 0.120730 0.271445
0.938102 0.121173 0.392258
0.938548 0.121618 0.514004
0.938996 0.122067 0.636463
0.939446 0.122517 0.759497
0.939899 0.122969 0.883015
0.940213 0.123283 0.968915
0.941108 0.242663 0.039680
0.941535 0.243090 0.156320
0.941972 0.243527 0.275757
0.942414 0.243969 0.396570
0.942860 0.244415 0.518316
0.943308 0.244863 0.640775
0.943758 0.245313 0.763809
0.944211 0.245766 0.887327
0.944525 0.246080 0.973227
0.945477 0.367092 0.044050
0.945904 0.367519 0.160689
0.946341 0.367956 0.280126
0.946783 0.368398 0.400939
0.947229 0.368844 0.522686
0.947677 0.369292 0.645144
0.948128 0.369742 0.768178
0.948580 0.370194 0.891696
0.948894 0.370509 0.977596
0.949883 0.492576 0.048456
0.950310 0.493003 0.165095
0.950748 0.493440 0.284533
0.951190 0.493882 0.405345
0.951635 0.494328 0.527092
0.952084 0.494776 0.649551
0.952534 0.495226 0.772585
0.952986 0.495678 0.896103
0.953301 0.495993 0.982002
0.954317 0.618845 0.052890
0.954744 0.619272 0.169529
0.955182 0.619709 0.288967
0.955624 0.620151 0.409779
0.956069 0.620597 0.531526
0.956518 0.621045 0.653985
0.956968 0.621495 0.777019
0.957420 0.621947 0.900537
0.957735 0.622262 0.986436
0.958773 0.745740 0.057346
0.959200 0.746167 0.173985
0.959637 0.746604 0.293423
0.960080 0.747047 0.414235
0.960525 0.747492 0.535982
0.960974 0.747941 0.658441
0.961424 0.748391 0.781475
0.961876 0.748843 0.904993
0.962190 0.749157 0.990892
0.963248 0.873158 0.061820
0.963675 0.873585 0.178459
0.964112 0.874022 0.297897
0.964554 0.874464 0.418709
0.965000 0.874910 0.540456
0.965448 0.875358 0.662915
0.965898 0.875808 0.785949
0.966350 0.876261 0.909467
0.966665 0.876575 0.995366
0.967571 0.996272 0.066143
0.967998 0.996699 0.182783
0.968435 0.997136 0.302220
0.968877 0.997579 0.423032
0.969323 0.998024 0.544779
0.969771 0.998473 0.667238
0.970221 0.998923 0.790272
0.970673 0.999375 0.913790
0.970988 0.999690 0.999690
