skills/editops-orchestrator/assets/grade/luts/cool_tech_v02.cube
TITLE "cool_tech_v02"
LUT_3D_SIZE 9
DOMAIN_MIN 0.0 0.0 0.0
DOMAIN_MAX 1.0 1.0 1.0
0.000018 0.000018 0.010778
0.000224 0.000224 0.130809
0.000431 0.000431 0.252419
0.000640 0.000640 0.374732
0.000850 0.000850 0.497512
0.001061 0.001061 0.620643
0.001271 0.001271 0.744057
0.001483 0.001483 0.867707
0.001672 0.001672 0.978514
0.002025 0.120400 0.012786
0.002231 0.120606 0.132816
0.002438 0.120813 0.254426
0.002647 0.121022 0.376739
0.002857 0.121232 0.499519
0.003068 0.121443 0.622650
0.003278 0.121653 0.746064
0.003490 0.121865 0.869714
0.003679 0.122054 0.980521
0.004082 0.243764 0.014842
0.004287 0.243969 0.134873
0.004495 0.244177 0.256483
0.004704 0.244386 0.378796
0.004914 0.244596 0.501576
0.005124 0.244806 0.624707
0.005335 0.245017 0.748121
0.005547 0.245228 0.871770
0.005736 0.245417 0.982578
0.006152 0.367880 0.016912
0.006357 0.368085 0.136942
0.006564 0.368293 0.258552
0.006773 0.368502 0.380865
0.006983 0.368712 0.503645
0.007194 0.368922 0.626777
0.007405 0.369133 0.750190
0.007616 0.369345 0.873840
0.007805 0.369534 0.984647
0.008229 0.492487 0.018989
0.008434 0.492693 0.139019
0.008642 0.492900 0.260629
0.008851 0.493109 0.382942
0.009061 0.493319 0.505723
0.009271 0.493530 0.628854
0.009482 0.493740 0.752268
0.009693 0.493952 0.875917
0.009883 0.494141 0.986725
0.010313 0.617460 0.021073
0.010518 0.617666 0.141103
0.010726 0.617873 0.262713
0.010935 0.618082 0.385026
0.011144 0.618292 0.507806
0.011355 0.618502 0.630938
0.011566 0.618713 0.754351
0.011777 0.618925 0.878001
0.011966 0.619114 0.988808
0.012401 0.742726 0.023161
0.012606 0.742931 0.143191
0.012814 0.743138 0.264801
0.013023 0.743347 0.387115
0.013233 0.743557 0.509895
0.013443 0.743768 0.633026
0.013654 0.743979 0.756440
0.013865 0.744190 0.880089
0.014055 0.744379 0.990897
0.014494 0.868234 0.025254
0.014699 0.868439 0.145284
0.014907 0.868647 0.266894
0.015116 0.868856 0.389207
0.015325 0.869066 0.511987
0.015536 0.869276 0.635119
0.015747 0.869487 0.758532
0.015958 0.869698 0.882182
0.016147 0.869888 0.992989
0.016581 0.993423 0.027341
0.016786 0.993628 0.147371
0.016994 0.993836 0.268981
0.017203 0.994045 0.391294
0.017413 0.994255 0.514074
0.017623 0.994465 0.637206
0.017834 0.994676 0.760620
0.018045 0.994887 0.884269
0.018235 0.995077 0.995077
0.106733 0.000554 0.011314
0.106938 0.000759 0.131344
0.107146 0.000966 0.252954
0.107355 0.001175 0.375267
0.107564 0.001385 0.498047
0.107775 0.001596 0.621179
0.107986 0.001807 0.744592
0.108197 0.002018 0.868242
0.108386 0.002207 0.979049
0.108740 0.120936 0.013321
0.108945 0.121141 0.133351
0.109153 0.121348 0.254961
0.109362 0.121557 0.377274
0.109571 0.121767 0.500054
0.109782 0.121978 0.623186
0.109993 0.122189 0.746599
0.110204 0.122400 0.870249
0.110393 0.122589 0.981056
0.110797 0.244299 0.015377
0.111002 0.244504 0.135408
0.111209 0.244712 0.257018
0.111418 0.244921 0.379331
0.111628 0.245131 0.502111
0.111839 0.245341 0.625242
0.112050 0.245552 0.748656
0.112261 0.245763 0.872306
0.112450 0.245953 0.983113
0.112866 0.368415 0.017447
0.113071 0.368621 0.137477
0.113279 0.368828 0.259087
0.113488 0.369037 0.381400
0.113698 0.369247 0.504180
0.113908 0.369458 0.627312
0.114119 0.369668 0.750725
0.114330 0.369880 0.874375
0.114519 0.370069 0.985182
0.114943 0.493023 0.019524
0.115149 0.493228 0.139555
0.115356 0.493435 0.261165
0.115565 0.493644 0.383478
0.115775 0.493854 0.506258
0.115986 0.494065 0.629389
0.116196 0.494276 0.752803
0.116408 0.494487 0.876452
0.116597 0.494676 0.987260
0.117027 0.617996 0.021608
0.117232 0.618201 0.141638
0.117440 0.618408 0.263248
0.117649 0.618617 0.385561
0.117859 0.618827 0.508341
0.118069 0.619038 0.631473
0.118280 0.619249 0.754887
0.118491 0.619460 0.878536
0.118681 0.619649 0.989344
0.119116 0.743261 0.023696
0.119321 0.743466 0.143727
0.119528 0.743674 0.265337
0.119737 0.743883 0.387650
0.119947 0.744092 0.510430
0.120158 0.744303 0.633561
0.120368 0.744514 0.756975
0.120580 0.744725 0.880624
0.120769 0.744914 0.991432
0.121208 0.868769 0.025789
0.121413 0.868974 0.145819
0.121621 0.869182 0.267429
0.121830 0.869391 0.389742
0.122040 0.869601 0.512522
0.122250 0.869811 0.635654
0.122461 0.870022 0.759068
0.122672 0.870234 0.882717
0.122862 0.870423 0.993525
0.123295 0.993958 0.027876
0.123500 0.994163 0.147906
0.123708 0.994371 0.269516
0.123917 0.994580 0.391829
0.124127 0.994790 0.514610
0.124337 0.995000 0.637741
0.124548 0.995211 0.761155
0.124760 0.995422 0.884804
0.124949 0.995612 0.995612
0.228548 0.001164 0.011924
0.228753 0.001370 0.131955
0.228960 0.001577 0.253565
0.229169 0.001786 0.375878
0.229379 0.001996 0.498658
0.229590 0.002207 0.621789
0.229801 0.002417 0.745203
0.230012 0.002629 0.868853
0.230201 0.002818 0.979660
0.230555 0.121546 0.013932
0.230760 0.121752 0.133962
0.230968 0.121959 0.255572
0.231177 0.122168 0.377885
0.231386 0.122378 0.500665
0.231597 0.122589 0.623797
0.231808 0.122799 0.747210
0.232019 0.123011 0.870860
0.232208 0.123200 0.981667
0.232611 0.244910 0.015988
0.232817 0.245115 0.136019
0.233024 0.245323 0.257629
0.233233 0.245532 0.379942
0.233443 0.245742 0.502722
0.233654 0.245952 0.625853
0.233864 0.246163 0.749267
0.234076 0.246374 0.872916
0.234265 0.246564 0.983724
0.234681 0.369026 0.018058
0.234886 0.369231 0.138088
0.235094 0.369439 0.259698
0.235303 0.369648 0.382011
0.235512 0.369858 0.504791
0.235723 0.370068 0.627923
0.235934 0.370279 0.751336
0.236145 0.370491 0.874986
0.236334 0.370680 0.985793
0.236758 0.493633 0.020135
0.236963 0.493839 0.140165
0.237171 0.494046 0.261775
0.237380 0.494255 0.384088
0.237590 0.494465 0.506869
0.237800 0.494676 0.630000
0.238011 0.494886 0.753414
0.238223 0.495098 0.877063
0.238412 0.495287 0.987871
0.238842 0.618606 0.022219
0.239047 0.618812 0.142249
0.239255 0.619019 0.263859
0.239464 0.619228 0.386172
0.239674 0.619438 0.508952
0.239884 0.619649 0.632084
0.240095 0.619859 0.755497
0.240306 0.620071 0.879147
0.240495 0.620260 0.989954
0.240930 0.743872 0.024307
0.241135 0.744077 0.144338
0.241343 0.744284 0.265948
0.241552 0.744493 0.388261
0.241762 0.744703 0.511041
0.241972 0.744914 0.634172
0.242183 0.745125 0.757586
0.242395 0.745336 0.881235
0.242584 0.745525 0.992043
0.243023 0.869380 0.026400
0.243228 0.869585 0.146430
0.243436 0.869793 0.268040
0.243645 0.870002 0.390353
0.243855 0.870212 0.513133
0.244065 0.870422 0.636265
0.244276 0.870633 0.759678
0.244487 0.870844 0.883328
0.244676 0.871034 0.994135
0.245110 0.994569 0.028487
0.245315 0.994774 0.148517
0.245523 0.994982 0.270127
0.245732 0.995191 0.392440
0.245942 0.995401 0.515220
0.246152 0.995611 0.638352
0.246363 0.995822 0.761766
0.246574 0.996033 0.885415
0.246764 0.996223 0.996223
0.351150 0.001779 0.012539
0.351355 0.001984 0.132570
0.351563 0.002192 0.254180
0.351772 0.002401 0.376493
0.351982 0.002611 0.499273
0.352192 0.002821 0.622404
0.352403 0.003032 0.745818
0.352614 0.003244 0.869467
0.352804 0.003433 0.980275
0.353157 0.122161 0.014546
0.353362 0.122366 0.134577
0.353570 0.122574 0.256187
0.353779 0.122783 0.378500
0.353989 0.122993 0.501280
0.354199 0.123203 0.624411
0.354410 0.123414 0.747825
0.354621 0.123626 0.871474
0.354811 0.123815 0.982282
0.355214 0.245525 0.016603
0.355419 0.245730 0.136633
0.355627 0.245938 0.258243
0.355836 0.246147 0.380556
0.356046 0.246356 0.503337
0.356256 0.246567 0.626468
0.356467 0.246778 0.749882
0.356678 0.246989 0.873531
0.356868 0.247178 0.984339
0.357283 0.369641 0.018672
0.357488 0.369846 0.138703
0.357696 0.370054 0.260313
0.357905 0.370263 0.382626
0.358115 0.370473 0.505406
0.358325 0.370683 0.628537
0.358536 0.370894 0.751951
0.358748 0.371105 0.875601
0.358937 0.371295 0.986408
0.359361 0.494248 0.020750
0.359566 0.494453 0.140780
0.359774 0.494661 0.262390
0.359983 0.494870 0.384703
0.360193 0.495080 0.507483
0.360403 0.495290 0.630615
0.360614 0.495501 0.754029
0.360825 0.495713 0.877678
0.361014 0.495902 0.988486
0.361444 0.619221 0.022834
0.361650 0.619426 0.142864
0.361857 0.619634 0.264474
0.362066 0.619843 0.386787
0.362276 0.620053 0.509567
0.362487 0.620263 0.632699
0.362697 0.620474 0.756112
0.362909 0.620686 0.879762
0.363098 0.620875 0.990569
0.363533 0.744486 0.024922
0.363738 0.744692 0.144952
0.363946 0.744899 0.266562
0.364155 0.745108 0.388875
0.364365 0.745318 0.511656
0.364575 0.745529 0.634787
0.364786 0.745739 0.758201
0.364997 0.745951 0.881850
0.365187 0.746140 0.992658
0.365626 0.869995 0.027015
0.365831 0.870200 0.147045
0.366038 0.870408 0.268655
0.366247 0.870617 0.390968
0.366457 0.870827 0.513748
0.366668 0.871037 0.636880
0.366878 0.871248 0.760293
0.367090 0.871459 0.883943
0.367279 0.871649 0.994750
0.367713 0.995184 0.029102
0.367918 0.995389 0.149132
0.368126 0.995597 0.270742
0.368335 0.995806 0.393055
0.368544 0.996016 0.515835
0.368755 0.996226 0.638967
0.368966 0.996437 0.762380
0.369177 0.996648 0.886030
0.369366 0.996837 0.996837
0.474255 0.002397 0.013157
0.474460 0.002602 0.133187
0.474668 0.002810 0.254797
0.474877 0.003019 0.377110
0.475087 0.003228 0.499890
0.475297 0.003439 0.623022
0.475508 0.003650 0.746435
0.475719 0.003861 0.870085
0.475909 0.004050 0.980892
0.476262 0.122779 0.015164
0.476467 0.122984 0.135194
0.476675 0.123192 0.256804
0.476884 0.123401 0.379117
0.477094 0.123610 0.501897
0.477304 0.123821 0.625029
0.477515 0.124032 0.748442
0.477726 0.124243 0.872092
0.477916 0.124432 0.982899
0.478319 0.246142 0.017220
0.478524 0.246347 0.137251
0.478732 0.246555 0.258861
0.478941 0.246764 0.381174
0.479151 0.246974 0.503954
0.479361 0.247184 0.627085
0.479572 0.247395 0.750499
0.479783 0.247606 0.874149
0.479973 0.247796 0.984956
0.480388 0.370259 0.019290
0.480593 0.370464 0.139320
0.480801 0.370671 0.260930
0.481010 0.370880 0.383243
0.481220 0.371090 0.506023
0.481430 0.371301 0.629155
0.481641 0.371512 0.752568
0.481853 0.371723 0.876218
0.482042 0.371912 0.987025
0.482466 0.494866 0.021367
0.482671 0.495071 0.141398
0.482879 0.495279 0.263008
0.483088 0.495488 0.385321
0.483298 0.495697 0.508101
0.483508 0.495908 0.631232
0.483719 0.496119 0.754646
0.483930 0.496330 0.878295
0.484119 0.496519 0.989103
0.484549 0.619839 0.023451
0.484755 0.620044 0.143481
0.484962 0.620252 0.265091
0.485171 0.620461 0.387404
0.485381 0.620670 0.510184
0.485592 0.620881 0.633316
0.485802 0.621092 0.756730
0.486014 0.621303 0.880379
0.486203 0.621492 0.991187
0.486638 0.745104 0.025539
0.486843 0.745309 0.145570
0.487051 0.745517 0.267180
0.487260 0.745726 0.389493
0.487470 0.745935 0.512273
0.487680 0.746146 0.635404
0.487891 0.746357 0.758818
0.488102 0.746568 0.882468
0.488292 0.746757 0.993275
0.488730 0.870612 0.027632
0.488936 0.870817 0.147662
0.489143 0.871025 0.269272
0.489352 0.871234 0.391585
0.489562 0.871444 0.514365
0.489773 0.871654 0.637497
0.489983 0.871865 0.760911
0.490195 0.872077 0.884560
0.490384 0.872266 0.995368
0.490818 0.995801 0.029719
0.491023 0.996006 0.149749
0.491231 0.996214 0.271359
0.491440 0.996423 0.393672
0.491649 0.996633 0.516453
0.491860 0.996843 0.639584
0.492071 0.997054 0.762998
0.492282 0.997266 0.886647
0.492471 0.997455 0.997455
0.597731 0.003016 0.013776
0.597936 0.003221 0.133806
0.598144 0.003429 0.255416
0.598353 0.003638 0.377729
0.598563 0.003848 0.500509
0.598773 0.004058 0.623641
0.598984 0.004269 0.747054
0.599195 0.004480 0.870704
0.599385 0.004669 0.981512
0.599738 0.123398 0.015783
0.599943 0.123603 0.135813
0.600151 0.123811 0.257423
0.600360 0.124020 0.379736
0.600570 0.124230 0.502516
0.600780 0.124440 0.625648
0.600991 0.124651 0.749062
0.601203 0.124862 0.872711
0.601392 0.125051 0.983519
0.601795 0.246761 0.017840
0.602000 0.246966 0.137870
0.602208 0.247174 0.259480
0.602417 0.247383 0.381793
0.602627 0.247593 0.504573
0.602837 0.247803 0.627705
0.603048 0.248014 0.751118
0.603259 0.248226 0.874768
0.603449 0.248415 0.985575
0.603864 0.370878 0.019909
0.604069 0.371083 0.139939
0.604277 0.371291 0.261549
0.604486 0.371500 0.383862
0.604696 0.371709 0.506642
0.604906 0.371920 0.629774
0.605117 0.372131 0.753188
0.605329 0.372342 0.876837
0.605518 0.372531 0.987645
0.605942 0.495485 0.021987
0.606147 0.495690 0.142017
0.606355 0.495898 0.263627
0.606564 0.496107 0.385940
0.606774 0.496317 0.508720
0.606984 0.496527 0.631852
0.607195 0.496738 0.755265
0.607406 0.496949 0.878915
0.607595 0.497138 0.989722
0.608026 0.620458 0.024070
0.608231 0.620663 0.144100
0.608438 0.620871 0.265710
0.608647 0.621080 0.388023
0.608857 0.621290 0.510804
0.609068 0.621500 0.633935
0.609278 0.621711 0.757349
0.609490 0.621922 0.880998
0.609679 0.622111 0.991806
0.610114 0.745723 0.026159
0.610319 0.745928 0.146189
0.610527 0.746136 0.267799
0.610736 0.746345 0.390112
0.610946 0.746555 0.512892
0.611156 0.746765 0.636024
0.611367 0.746976 0.759437
0.611578 0.747187 0.883087
0.611768 0.747377 0.993894
0.612207 0.871232 0.028251
0.612412 0.871437 0.148281
0.612619 0.871644 0.269891
0.612828 0.871853 0.392204
0.613038 0.872063 0.514985
0.613249 0.872274 0.638116
0.613460 0.872485 0.761530
0.613671 0.872696 0.885179
0.613860 0.872885 0.995987
0.614294 0.996420 0.030338
0.614499 0.996626 0.150369
0.614707 0.996833 0.271979
0.614916 0.997042 0.394292
0.615125 0.997252 0.517072
0.615336 0.997463 0.640203
0.615547 0.997673 0.763617
0.615758 0.997885 0.887266
0.615947 0.998074 0.998074
0.721502 0.003637 0.014397
0.721707 0.003842 0.134427
0.721915 0.004049 0.256037
0.722124 0.004258 0.378350
0.722334 0.004468 0.501130
0.722544 0.004679 0.624262
0.722755 0.004889 0.747675
0.722966 0.005101 0.871325
0.723156 0.005290 0.982132
0.723509 0.124019 0.016404
0.723714 0.124224 0.136434
0.723922 0.124431 0.258044
0.724131 0.124640 0.380357
0.724341 0.124850 0.503137
0.724551 0.125061 0.626269
0.724762 0.125272 0.749682
0.724973 0.125483 0.873332
0.725163 0.125672 0.984139
0.725566 0.247382 0.018460
0.725771 0.247587 0.138491
0.725979 0.247795 0.260101
0.726188 0.248004 0.382414
0.726398 0.248214 0.505194
0.726608 0.248424 0.628325
0.726819 0.248635 0.751739
0.727030 0.248846 0.875388
0.727219 0.249036 0.986196
0.727635 0.371498 0.020530
0.727840 0.371704 0.140560
0.728048 0.371911 0.262170
0.728257 0.372120 0.384483
0.728467 0.372330 0.507263
0.728677 0.372541 0.630395
0.728888 0.372751 0.753808
0.729099 0.372963 0.877458
0.729289 0.373152 0.988265
0.729713 0.496106 0.022607
0.729918 0.496311 0.142637
0.730126 0.496518 0.264247
0.730335 0.496727 0.386561
0.730544 0.496937 0.509341
0.730755 0.497148 0.632472
0.730966 0.497359 0.755886
0.731177 0.497570 0.879535
0.731366 0.497759 0.990343
0.731796 0.621079 0.024691
0.732001 0.621284 0.144721
0.732209 0.621491 0.266331
0.732418 0.621700 0.388644
0.732628 0.621910 0.511424
0.732838 0.622121 0.634556
0.733049 0.622331 0.757969
0.733261 0.622543 0.881619
0.733450 0.622732 0.992427
0.733885 0.746344 0.026779
0.734090 0.746549 0.146810
0.734298 0.746757 0.268420
0.734507 0.746966 0.390733
0.734716 0.747175 0.513513
0.734927 0.747386 0.636644
0.735138 0.747597 0.760058
0.735349 0.747808 0.883707
0.735538 0.747997 0.994515
0.735977 0.871852 0.028872
0.736182 0.872057 0.148902
0.736390 0.872265 0.270512
0.736599 0.872474 0.392825
0.736809 0.872684 0.515605
0.737019 0.872894 0.638737
0.737230 0.873105 0.762150
0.737442 0.873317 0.885800
0.737631 0.873506 0.996608
0.738065 0.997041 0.030959
0.738270 0.997246 0.150989
0.738477 0.997454 0.272599
0.738686 0.997663 0.394912
0.738896 0.997873 0.517693
0.739107 0.998083 0.640824
0.739318 0.998294 0.764238
0.739529 0.998505 0.887887
0.739718 0.998695 0.998695
0.845518 0.004258 0.015018
0.845723 0.004464 0.135049
0.845930 0.004671 0.256659
0.846139 0.004880 0.378972
0.846349 0.005090 0.501752
0.846560 0.005301 0.624883
0.846771 0.005511 0.748297
0.846982 0.005723 0.871947
0.847171 0.005912 0.982754
0.847525 0.124640 0.017026
0.847730 0.124846 0.137056
0.847938 0.125053 0.258666
0.848147 0.125262 0.380979
0.848356 0.125472 0.503759
0.848567 0.125683 0.626891
0.848778 0.125893 0.750304
0.848989 0.126105 0.873954
0.849178 0.126294 0.984761
0.849581 0.248004 0.019082
0.849786 0.248209 0.139113
0.849994 0.248417 0.260723
0.850203 0.248626 0.383036
0.850413 0.248836 0.505816
0.850623 0.249046 0.628947
0.850834 0.249257 0.752361
0.851046 0.249468 0.876010
0.851235 0.249658 0.986818
0.851651 0.372120 0.021152
0.851856 0.372325 0.141182
0.852064 0.372533 0.262792
0.852273 0.372742 0.385105
0.852482 0.372952 0.507885
0.852693 0.373162 0.631017
0.852904 0.373373 0.754430
0.853115 0.373585 0.878080
0.853304 0.373774 0.988887
0.853728 0.496727 0.023229
0.853933 0.496933 0.143259
0.854141 0.497140 0.264869
0.854350 0.497349 0.387182
0.854560 0.497559 0.509963
0.854770 0.497770 0.633094
0.854981 0.497980 0.756508
0.855192 0.498192 0.880157
0.855382 0.498381 0.990965
0.855812 0.621700 0.025313
0.856017 0.621906 0.145343
0.856225 0.622113 0.266953
0.856434 0.622322 0.389266
0.856644 0.622532 0.512046
0.856854 0.622743 0.635178
0.857065 0.622953 0.758591
0.857276 0.623165 0.882241
0.857465 0.623354 0.993048
0.857900 0.746966 0.027401
0.858105 0.747171 0.147431
0.858313 0.747378 0.269042
0.858522 0.747587 0.391355
0.858732 0.747797 0.514135
0.858942 0.748008 0.637266
0.859153 0.748219 0.760680
0.859365 0.748430 0.884329
0.859554 0.748619 0.995137
0.859993 0.872474 0.029494
0.860198 0.872679 0.149524
0.860406 0.872887 0.271134
0.860615 0.873096 0.393447
0.860825 0.873306 0.516227
0.861035 0.873516 0.639359
0.861246 0.873727 0.762772
0.861457 0.873938 0.886422
0.861646 0.874128 0.997229
0.862080 0.997663 0.031581
0.862285 0.997868 0.151611
0.862493 0.998076 0.273221
0.862702 0.998285 0.395534
0.862912 0.998495 0.518314
0.863122 0.998705 0.641446
0.863333 0.998916 0.764860
0.863544 0.999127 0.888509
0.863734 0.999317 0.999317
0.969742 0.004881 0.015641
0.969947 0.005086 0.135672
0.970155 0.005294 0.257282
0.970364 0.005503 0.379595
0.970574 0.005713 0.502375
0.970784 0.005923 0.625506
0.970995 0.006134 0.748920
0.971207 0.006346 0.872570
0.971396 0.006535 0.983377
0.971749 0.125263 0.017648
0.971955 0.125469 0.137679
0.972162 0.125676 0.259289
0.972371 0.125885 0.381602
0.972581 0.126095 0.504382
0.972792 0.126306 0.627513
0.973002 0.126516 0.750927
0.973214 0.126728 0.874577
0.973403 0.126917 0.985384
0.973806 0.248627 0.019705
0.974011 0.248832 0.139736
0.974219 0.249040 0.261346
0.974428 0.249249 0.383659
0.974638 0.249459 0.506439
0.974848 0.249669 0.629570
0.975059 0.249880 0.752984
0.975270 0.250091 0.876633
0.975460 0.250280 0.987441
0.975876 0.372743 0.021775
0.976081 0.372948 0.141805
0.976288 0.373156 0.263415
0.976497 0.373365 0.385728
0.976707 0.373575 0.508508
0.976918 0.373785 0.631640
0.977129 0.373996 0.755053
0.977340 0.374208 0.878703
0.977529 0.374397 0.989510
0.977953 0.497350 0.023852
0.978158 0.497556 0.143882
0.978366 0.497763 0.265492
0.978575 0.497972 0.387805
0.978785 0.498182 0.510586
0.978995 0.498393 0.633717
0.979206 0.498603 0.757131
0.979417 0.498815 0.880780
0.979607 0.499004 0.991588
0.980037 0.622323 0.025936
0.980242 0.622528 0.145966
0.980450 0.622736 0.267576
0.980659 0.622945 0.389889
0.980868 0.623155 0.512669
0.981079 0.623365 0.635801
0.981290 0.623576 0.759214
0.981501 0.623788 0.882864
0.981690 0.623977 0.993671
0.982125 0.747589 0.028024
0.982330 0.747794 0.148054
0.982538 0.748001 0.269664
0.982747 0.748210 0.391977
0.982957 0.748420 0.514758
0.983167 0.748631 0.637889
0.983378 0.748842 0.761303
0.983589 0.749053 0.884952
0.983779 0.749242 0.995760
0.984218 0.873097 0.030117
0.984423 0.873302 0.150147
0.984631 0.873510 0.271757
0.984840 0.873719 0.394070
0.985049 0.873929 0.516850
0.985260 0.874139 0.639982
0.985471 0.874350 0.763395
0.985682 0.874561 0.887045
0.985871 0.874751 0.997852
0.986305 0.998286 0.032204
0.986510 0.998491 0.152234
0.986718 0.998699 0.273844
0.986927 0.998908 0.396157
0.987137 0.999118 0.518937
0.987347 0.999328 0.642069
0.987558 0.999539 0.765483
0.987769 0.999750 0.889132
0.987958 0.999940 0.999940
