skills/editops-orchestrator/assets/grade/luts/cool_tech_v18.cube
TITLE "cool_tech_v18"
LUT_3D_SIZE 9
DOMAIN_MIN 0.0 0.0 0.0
DOMAIN_MAX 1.0 1.0 1.0
0.000180 0.000180 0.031548
0.000829 0.000829 0.145245
0.001500 0.001500 0.262655
0.002182 0.002182 0.382027
0.002871 0.002871 0.502761
0.003566 0.003566 0.624544
0.004267 0.004267 0.747182
0.004971 0.004971 0.870542
0.005320 0.005320 0.931636
0.005541 0.099779 0.036909
0.006191 0.100429 0.150606
0.006861 0.101099 0.268016
0.007543 0.101781 0.387388
0.008232 0.102470 0.508122
0.008928 0.103166 0.629905
0.009628 0.103866 0.752543
0.010332 0.104570 0.875904
0.010681 0.104919 0.936997
0.012112 0.221853 0.043480
0.012762 0.222502 0.157177
0.013432 0.223173 0.274587
0.014114 0.223854 0.393959
0.014803 0.224544 0.514693
0.015499 0.225239 0.636476
0.016199 0.225939 0.759114
0.016903 0.226644 0.882475
0.017252 0.226993 0.943568
0.018822 0.346501 0.050190
0.019471 0.347151 0.163887
0.020142 0.347821 0.281297
0.020823 0.348503 0.400669
0.021513 0.349192 0.521403
0.022208 0.349888 0.643186
0.022909 0.350588 0.765824
0.023613 0.351292 0.889184
0.023962 0.351641 0.950278
0.025621 0.472801 0.056988
0.026270 0.473450 0.170686
0.026940 0.474120 0.288095
0.027622 0.474802 0.407467
0.028311 0.475491 0.528201
0.029007 0.476187 0.649984
0.029707 0.476887 0.772622
0.030412 0.477591 0.895983
0.030760 0.477940 0.957076
0.032485 0.600325 0.063853
0.033134 0.600974 0.177550
0.033805 0.601644 0.294960
0.034486 0.602326 0.414332
0.035176 0.603015 0.535066
0.035871 0.603711 0.656849
0.036572 0.604411 0.779487
0.037276 0.605116 0.902847
0.037625 0.605465 0.963941
0.039402 0.728826 0.070770
0.040051 0.729475 0.184467
0.040722 0.730146 0.301877
0.041403 0.730828 0.421249
0.042093 0.731517 0.541983
0.042788 0.732212 0.663766
0.043489 0.732913 0.786404
0.044193 0.733617 0.909764
0.044542 0.733966 0.970858
0.046363 0.858142 0.077730
0.047012 0.858791 0.191428
0.047683 0.859462 0.308838
0.048364 0.860143 0.428210
0.049054 0.860833 0.548944
0.049749 0.861528 0.670727
0.050450 0.862229 0.793365
0.051154 0.862933 0.916725
0.051503 0.863282 0.977819
0.052879 0.979195 0.084247
0.053528 0.979844 0.197944
0.054199 0.980515 0.315354
0.054880 0.981196 0.434726
0.055570 0.981886 0.555460
0.056265 0.982581 0.677243
0.056966 0.983281 0.799881
0.057670 0.983986 0.923241
0.058019 0.984335 0.984335
0.045979 0.000942 0.032309
0.046628 0.001591 0.146007
0.047299 0.002261 0.263416
0.047980 0.002943 0.382788
0.048670 0.003633 0.503522
0.049365 0.004328 0.625305
0.050065 0.005028 0.747943
0.050770 0.005733 0.871304
0.051119 0.006082 0.932397
0.051340 0.100541 0.037671
0.051989 0.101190 0.151368
0.052660 0.101861 0.268778
0.053342 0.102542 0.388150
0.054031 0.103232 0.508884
0.054726 0.103927 0.630667
0.055427 0.104628 0.753305
0.056131 0.105332 0.876665
0.056480 0.105681 0.937759
0.057911 0.222615 0.044242
0.058560 0.223264 0.157939
0.059231 0.223934 0.275349
0.059913 0.224616 0.394721
0.060602 0.225305 0.515455
0.061297 0.226001 0.637238
0.061998 0.226701 0.759876
0.062702 0.227406 0.883236
0.063051 0.227754 0.944330
0.064621 0.347263 0.050951
0.065270 0.347912 0.164649
0.065941 0.348583 0.282058
0.066622 0.349264 0.401430
0.067312 0.349954 0.522164
0.068007 0.350649 0.643947
0.068707 0.351350 0.766585
0.069412 0.352054 0.889946
0.069761 0.352403 0.951039
0.071419 0.473562 0.057750
0.072069 0.474211 0.171447
0.072739 0.474882 0.288857
0.073421 0.475564 0.408229
0.074110 0.476253 0.528963
0.074806 0.476948 0.650746
0.075506 0.477649 0.773384
0.076210 0.478353 0.896744
0.076559 0.478702 0.957838
0.078284 0.601086 0.064614
0.078933 0.601736 0.178312
0.079604 0.602406 0.295721
0.080285 0.603088 0.415093
0.080975 0.603777 0.535827
0.081670 0.604473 0.657610
0.082370 0.605173 0.780248
0.083075 0.605877 0.903609
0.083424 0.606226 0.964702
0.085201 0.729588 0.071531
0.085850 0.730237 0.185229
0.086521 0.730907 0.302638
0.087202 0.731589 0.422010
0.087892 0.732279 0.542744
0.088587 0.732974 0.664527
0.089287 0.733674 0.787165
0.089992 0.734379 0.910526
0.090341 0.734728 0.971619
0.092162 0.858904 0.078492
0.092811 0.859553 0.192190
0.093481 0.860223 0.309599
0.094163 0.860905 0.428971
0.094853 0.861594 0.549705
0.095548 0.862290 0.671488
0.096248 0.862990 0.794126
0.096953 0.863695 0.917487
0.097302 0.864044 0.978580
0.098678 0.979957 0.085008
0.099327 0.980606 0.198706
0.099998 0.981276 0.316115
0.100679 0.981958 0.435487
0.101369 0.982647 0.556221
0.102064 0.983343 0.678004
0.102764 0.984043 0.800642
0.103469 0.984748 0.924003
0.103818 0.985096 0.985096
0.161639 0.002865 0.034233
0.162289 0.003514 0.147930
0.162959 0.004185 0.265340
0.163641 0.004867 0.384712
0.164330 0.005556 0.505446
0.165026 0.006251 0.627229
0.165726 0.006952 0.749867
0.166430 0.007656 0.873227
0.166779 0.008005 0.934321
0.167001 0.102465 0.039594
0.167650 0.103114 0.153291
0.168320 0.103784 0.270701
0.169002 0.104466 0.390073
0.169691 0.105155 0.510807
0.170387 0.105851 0.632590
0.171087 0.106551 0.755228
0.171792 0.107256 0.878589
0.172140 0.107604 0.939682
0.173572 0.224538 0.046165
0.174221 0.225187 0.159863
0.174891 0.225858 0.277272
0.175573 0.226539 0.396644
0.176262 0.227229 0.517378
0.176958 0.227924 0.639161
0.177658 0.228625 0.761799
0.178363 0.229329 0.885160
0.178712 0.229678 0.946253
0.180281 0.349187 0.052875
0.180931 0.349836 0.166572
0.181601 0.350506 0.283982
0.182283 0.351188 0.403354
0.182972 0.351877 0.524088
0.183668 0.352573 0.645871
0.184368 0.353273 0.768509
0.185072 0.353978 0.891869
0.185421 0.354326 0.952963
0.187080 0.475486 0.059673
0.187729 0.476135 0.173371
0.188400 0.476805 0.290780
0.189081 0.477487 0.410152
0.189771 0.478176 0.530886
0.190466 0.478872 0.652669
0.191166 0.479572 0.775307
0.191871 0.480277 0.898668
0.192220 0.480625 0.959761
0.193944 0.603010 0.066538
0.194594 0.603659 0.180235
0.195264 0.604329 0.297645
0.195946 0.605011 0.417017
0.196635 0.605701 0.537751
0.197330 0.606396 0.659534
0.198031 0.607096 0.782172
0.198735 0.607801 0.905532
0.199084 0.608150 0.966626
0.200861 0.731511 0.073455
0.201511 0.732160 0.187152
0.202181 0.732831 0.304562
0.202863 0.733513 0.423934
0.203552 0.734202 0.544668
0.204248 0.734897 0.666451
0.204948 0.735598 0.789089
0.205652 0.736302 0.912449
0.206001 0.736651 0.973543
0.207822 0.860827 0.080416
0.208471 0.861476 0.194113
0.209142 0.862147 0.311523
0.209824 0.862828 0.430895
0.210513 0.863518 0.551629
0.211208 0.864213 0.673412
0.211909 0.864914 0.796050
0.212613 0.865618 0.919410
0.212962 0.865967 0.980504
0.214338 0.981880 0.086932
0.214988 0.982529 0.200629
0.215658 0.983200 0.318039
0.216340 0.983881 0.437411
0.217029 0.984571 0.558145
0.217725 0.985266 0.679928
0.218425 0.985967 0.802566
0.219129 0.986671 0.925926
0.219478 0.987020 0.987020
0.280653 0.004844 0.036212
0.281302 0.005494 0.149909
0.281972 0.006164 0.267319
0.282654 0.006846 0.386691
0.283343 0.007535 0.507425
0.284039 0.008231 0.629208
0.284739 0.008931 0.751846
0.285444 0.009635 0.875207
0.285792 0.009984 0.936300
0.286014 0.104444 0.041573
0.286663 0.105093 0.155271
0.287334 0.105763 0.272680
0.288015 0.106445 0.392052
0.288705 0.107135 0.512786
0.289400 0.107830 0.634569
0.290100 0.108530 0.757207
0.290805 0.109235 0.880568
0.291154 0.109584 0.941661
0.292585 0.226517 0.048144
0.293234 0.227166 0.161842
0.293905 0.227837 0.279251
0.294586 0.228519 0.398623
0.295276 0.229208 0.519357
0.295971 0.229903 0.641140
0.296671 0.230604 0.763778
0.297376 0.231308 0.887139
0.297725 0.231657 0.948232
0.299295 0.351166 0.054854
0.299944 0.351815 0.168551
0.300614 0.352485 0.285961
0.301296 0.353167 0.405333
0.301985 0.353857 0.526067
0.302681 0.354552 0.647850
0.303381 0.355252 0.770488
0.304086 0.355957 0.893849
0.304434 0.356306 0.954942
0.306093 0.477465 0.061652
0.306742 0.478114 0.175350
0.307413 0.478785 0.292760
0.308094 0.479466 0.412131
0.308784 0.480156 0.532866
0.309479 0.480851 0.654649
0.310180 0.481551 0.777287
0.310884 0.482256 0.900647
0.311233 0.482605 0.961741
0.312957 0.604989 0.068517
0.313607 0.605638 0.182214
0.314277 0.606309 0.299624
0.314959 0.606990 0.418996
0.315648 0.607680 0.539730
0.316344 0.608375 0.661513
0.317044 0.609076 0.784151
0.317748 0.609780 0.907511
0.318097 0.610129 0.968605
0.319875 0.733490 0.075434
0.320524 0.734140 0.189131
0.321194 0.734810 0.306541
0.321876 0.735492 0.425913
0.322565 0.736181 0.546647
0.323261 0.736877 0.668430
0.323961 0.737577 0.791068
0.324665 0.738281 0.914429
0.325014 0.738630 0.975522
0.326835 0.862806 0.082395
0.327485 0.863456 0.196092
0.328155 0.864126 0.313502
0.328837 0.864808 0.432874
0.329526 0.865497 0.553608
0.330222 0.866193 0.675391
0.330922 0.866893 0.798029
0.331626 0.867597 0.921389
0.331975 0.867946 0.982483
0.333351 0.983859 0.088911
0.334001 0.984508 0.202608
0.334671 0.985179 0.320018
0.335353 0.985861 0.439390
0.336042 0.986550 0.560124
0.336738 0.987245 0.681907
0.337438 0.987946 0.804545
0.338142 0.988650 0.927906
0.338491 0.988999 0.988999
0.401545 0.006855 0.038222
0.402194 0.007504 0.151920
0.402865 0.008175 0.269330
0.403547 0.008856 0.388701
0.404236 0.009546 0.509436
0.404931 0.010241 0.631219
0.405632 0.010941 0.753856
0.406336 0.011646 0.877217
0.406685 0.011995 0.938311
0.406907 0.106454 0.043584
0.407556 0.107103 0.157281
0.408226 0.107774 0.274691
0.408908 0.108456 0.394063
0.409597 0.109145 0.514797
0.410293 0.109840 0.636580
0.410993 0.110541 0.759218
0.411697 0.111245 0.882578
0.412046 0.111594 0.943672
0.413478 0.228528 0.050155
0.414127 0.229177 0.163852
0.414797 0.229847 0.281262
0.415479 0.230529 0.400634
0.416168 0.231218 0.521368
0.416864 0.231914 0.643151
0.417564 0.232614 0.765789
0.418269 0.233319 0.889149
0.418617 0.233668 0.950243
0.420187 0.353176 0.056864
0.420836 0.353825 0.170562
0.421507 0.354496 0.287972
0.422189 0.355178 0.407343
0.422878 0.355867 0.528077
0.423573 0.356562 0.649861
0.424274 0.357263 0.772498
0.424978 0.357967 0.895859
0.425327 0.358316 0.956953
0.426986 0.479475 0.063663
0.427635 0.480125 0.177360
0.428305 0.480795 0.294770
0.428987 0.481477 0.414142
0.429676 0.482166 0.534876
0.430372 0.482862 0.656659
0.431072 0.483562 0.779297
0.431777 0.484266 0.902657
0.432126 0.484615 0.963751
0.433850 0.606999 0.070527
0.434499 0.607649 0.184225
0.435170 0.608319 0.301634
0.435851 0.609001 0.421006
0.436541 0.609690 0.541740
0.437236 0.610386 0.663523
0.437937 0.611086 0.786161
0.438641 0.611790 0.909522
0.438990 0.612139 0.970615
0.440767 0.735501 0.077444
0.441416 0.736150 0.191142
0.442087 0.736821 0.308552
0.442769 0.737502 0.427923
0.443458 0.738192 0.548657
0.444153 0.738887 0.670440
0.444854 0.739587 0.793078
0.445558 0.740292 0.916439
0.445907 0.740641 0.977533
0.447728 0.864817 0.084405
0.448377 0.865466 0.198103
0.449048 0.866136 0.315512
0.449729 0.866818 0.434884
0.450419 0.867508 0.555618
0.451114 0.868203 0.677401
0.451815 0.868903 0.800039
0.452519 0.869608 0.923400
0.452868 0.869957 0.984493
0.454244 0.985870 0.090921
0.454893 0.986519 0.204619
0.455564 0.987189 0.322029
0.456246 0.987871 0.441400
0.456935 0.988560 0.562134
0.457630 0.989256 0.683917
0.458331 0.989956 0.806555
0.459035 0.990661 0.929916
0.459384 0.991009 0.991009
0.523766 0.008887 0.040255
0.524415 0.009537 0.153952
0.525085 0.010207 0.271362
0.525767 0.010889 0.390734
0.526456 0.011578 0.511468
0.527152 0.012274 0.633251
0.527852 0.012974 0.755889
0.528557 0.013678 0.879250
0.528905 0.014027 0.940343
0.529127 0.108487 0.045616
0.529776 0.109136 0.159314
0.530447 0.109806 0.276723
0.531128 0.110488 0.396095
0.531818 0.111178 0.516829
0.532513 0.111873 0.638612
0.533213 0.112573 0.761250
0.533918 0.113278 0.884611
0.534267 0.113627 0.945704
0.535698 0.230560 0.052187
0.536347 0.231209 0.165885
0.537018 0.231880 0.283294
0.537699 0.232562 0.402666
0.538389 0.233251 0.523400
0.539084 0.233946 0.645183
0.539784 0.234647 0.767821
0.540489 0.235351 0.891182
0.540838 0.235700 0.952275
0.542408 0.355209 0.058897
0.543057 0.355858 0.172594
0.543727 0.356528 0.290004
0.544409 0.357210 0.409376
0.545098 0.357900 0.530110
0.545794 0.358595 0.651893
0.546494 0.359295 0.774531
0.547199 0.360000 0.897892
0.547547 0.360349 0.958985
0.549206 0.481508 0.065695
0.549855 0.482157 0.179393
0.550526 0.482828 0.296803
0.551207 0.483509 0.416174
0.551897 0.484199 0.536909
0.552592 0.484894 0.658692
0.553293 0.485594 0.781330
0.553997 0.486299 0.904690
0.554346 0.486648 0.965784
0.556071 0.609032 0.072560
0.556720 0.609681 0.186257
0.557390 0.610352 0.303667
0.558072 0.611033 0.423039
0.558761 0.611723 0.543773
0.559457 0.612418 0.665556
0.560157 0.613119 0.788194
0.560862 0.613823 0.911554
0.561210 0.614172 0.972648
0.562988 0.737533 0.079477
0.563637 0.738183 0.193174
0.564307 0.738853 0.310584
0.564989 0.739535 0.429956
0.565678 0.740224 0.550690
0.566374 0.740920 0.672473
0.567074 0.741620 0.795111
0.567779 0.742324 0.918472
0.568127 0.742673 0.979565
0.569948 0.866849 0.086438
0.570598 0.867499 0.200135
0.571268 0.868169 0.317545
0.571950 0.868851 0.436917
0.572639 0.869540 0.557651
0.573335 0.870236 0.679434
0.574035 0.870936 0.802072
0.574739 0.871640 0.925432
0.575088 0.871989 0.986526
0.576465 0.987902 0.092954
0.577114 0.988551 0.206651
0.577784 0.989222 0.324061
0.578466 0.989904 0.443433
0.579155 0.990593 0.564167
0.579851 0.991288 0.685950
0.580551 0.991989 0.808588
0.581256 0.992693 0.931949
0.581604 0.993042 0.993042
0.647017 0.010937 0.042305
0.647667 0.011586 0.156002
0.648337 0.012257 0.273412
0.649019 0.012939 0.392784
0.649708 0.013628 0.513518
0.650404 0.014323 0.635301
0.651104 0.015024 0.757939
0.651808 0.015728 0.881299
0.652157 0.016077 0.942393
0.652379 0.110536 0.047666
0.653028 0.111186 0.161363
0.653698 0.111856 0.278773
0.654380 0.112538 0.398145
0.655069 0.113227 0.518879
0.655765 0.113923 0.640662
0.656465 0.114623 0.763300
0.657170 0.115327 0.886661
0.657519 0.115676 0.947754
0.658950 0.232610 0.054237
0.659599 0.233259 0.167934
0.660269 0.233930 0.285344
0.660951 0.234611 0.404716
0.661640 0.235301 0.525450
0.662336 0.235996 0.647233
0.663036 0.236696 0.769871
0.663741 0.237401 0.893232
0.664090 0.237750 0.954325
0.665659 0.357258 0.060947
0.666309 0.357908 0.174644
0.666979 0.358578 0.292054
0.667661 0.359260 0.411426
0.668350 0.359949 0.532160
0.669046 0.360645 0.653943
0.669746 0.361345 0.776581
0.670450 0.362049 0.899941
0.670799 0.362398 0.961035
0.672458 0.483558 0.067745
0.673107 0.484207 0.181443
0.673778 0.484877 0.298852
0.674459 0.485559 0.418224
0.675149 0.486248 0.538958
0.675844 0.486944 0.660741
0.676544 0.487644 0.783379
0.677249 0.488348 0.906740
0.677598 0.488697 0.967833
0.679322 0.611082 0.074610
0.679972 0.611731 0.188307
0.680642 0.612401 0.305717
0.681324 0.613083 0.425089
0.682013 0.613772 0.545823
0.682709 0.614468 0.667606
0.683409 0.615168 0.790244
0.684113 0.615873 0.913604
0.684462 0.616222 0.974698
0.686239 0.739583 0.081527
0.686889 0.740232 0.195224
0.687559 0.740903 0.312634
0.688241 0.741585 0.432006
0.688930 0.742274 0.552740
0.689626 0.742969 0.674523
0.690326 0.743670 0.797161
0.691030 0.744374 0.920521
0.691379 0.744723 0.981615
0.693200 0.868899 0.088487
0.693849 0.869548 0.202185
0.694520 0.870219 0.319595
0.695202 0.870900 0.438967
0.695891 0.871590 0.559701
0.696586 0.872285 0.681484
0.697287 0.872986 0.804122
0.697991 0.873690 0.927482
0.698340 0.874039 0.988576
0.699716 0.989952 0.095004
0.700366 0.990601 0.208701
0.701036 0.991272 0.326111
0.701718 0.991953 0.445483
0.702407 0.992643 0.566217
0.703103 0.993338 0.688000
0.703803 0.994038 0.810638
0.704507 0.994743 0.933998
0.704856 0.995092 0.995092
0.771114 0.013001 0.044368
0.771764 0.013650 0.158066
0.772434 0.014321 0.275476
0.773116 0.015002 0.394847
0.773805 0.015692 0.515581
0.774500 0.016387 0.637365
0.775201 0.017087 0.760002
0.775905 0.017792 0.883363
0.776254 0.018141 0.944457
0.776476 0.112600 0.049730
0.777125 0.113249 0.163427
0.777795 0.113920 0.280837
0.778477 0.114602 0.400209
0.779166 0.115291 0.520943
0.779862 0.115986 0.642726
0.780562 0.116687 0.765364
0.781267 0.117391 0.888724
0.781615 0.117740 0.949818
0.783047 0.234674 0.056301
0.783696 0.235323 0.169998
0.784366 0.235993 0.287408
0.785048 0.236675 0.406780
0.785737 0.237364 0.527514
0.786433 0.238060 0.649297
0.787133 0.238760 0.771935
0.787838 0.239465 0.895295
0.788186 0.239813 0.956389
0.789756 0.359322 0.063010
0.790405 0.359971 0.176708
0.791076 0.360642 0.294118
0.791758 0.361324 0.413489
0.792447 0.362013 0.534223
0.793142 0.362708 0.656006
0.793843 0.363409 0.778644
0.794547 0.364113 0.902005
0.794896 0.364462 0.963098
0.796555 0.485621 0.069809
0.797204 0.486271 0.183506
0.797874 0.486941 0.300916
0.798556 0.487623 0.420288
0.799246 0.488312 0.541022
0.799941 0.489007 0.662805
0.800641 0.489708 0.785443
0.801346 0.490412 0.908803
0.801695 0.490761 0.969897
0.803419 0.613145 0.076673
0.804068 0.613795 0.190371
0.804739 0.614465 0.307780
0.805421 0.615147 0.427152
0.806110 0.615836 0.547886
0.806805 0.616532 0.669669
0.807506 0.617232 0.792307
0.808210 0.617936 0.915668
0.808559 0.618285 0.976761
0.810336 0.741647 0.083590
0.810985 0.742296 0.197288
0.811656 0.742967 0.314698
0.812338 0.743648 0.434069
0.813027 0.744338 0.554803
0.813722 0.745033 0.676586
0.814423 0.745733 0.799224
0.815127 0.746438 0.922585
0.815476 0.746787 0.983678
0.817297 0.870963 0.090551
0.817946 0.871612 0.204249
0.818617 0.872282 0.321658
0.819298 0.872964 0.441030
0.819988 0.873654 0.561764
0.820683 0.874349 0.683547
0.821384 0.875049 0.806185
0.822088 0.875754 0.929546
0.822437 0.876103 0.990639
0.823813 0.992016 0.097067
0.824462 0.992665 0.210765
0.825133 0.993335 0.328175
0.825815 0.994017 0.447546
0.826504 0.994706 0.568280
0.827199 0.995402 0.690063
0.827900 0.996102 0.812701
0.828604 0.996807 0.936062
0.828953 0.997155 0.997155
0.895928 0.015077 0.046444
0.896577 0.015726 0.160142
0.897248 0.016396 0.277551
0.897929 0.017078 0.396923
0.898619 0.017767 0.517657
0.899314 0.018463 0.639440
0.900015 0.019163 0.762078
0.900719 0.019868 0.885439
0.901068 0.020216 0.946532
0.901289 0.114676 0.051805
0.901939 0.115325 0.165503
0.902609 0.115996 0.282913
0.903291 0.116677 0.402284
0.903980 0.117367 0.523018
0.904676 0.118062 0.644801
0.905376 0.118762 0.767439
0.906080 0.119467 0.890800
0.906429 0.119816 0.951893
0.907860 0.236749 0.058376
0.908510 0.237399 0.172074
0.909180 0.238069 0.289484
0.909862 0.238751 0.408855
0.910551 0.239440 0.529589
0.911247 0.240136 0.651373
0.911947 0.240836 0.774010
0.912651 0.241540 0.897371
0.913000 0.241889 0.958465
0.914570 0.361398 0.065086
0.915219 0.362047 0.178783
0.915890 0.362718 0.296193
0.916571 0.363399 0.415565
0.917261 0.364089 0.536299
0.917956 0.364784 0.658082
0.918657 0.365484 0.780720
0.919361 0.366189 0.904081
0.919710 0.366538 0.965174
0.921368 0.487697 0.071885
0.922018 0.488346 0.185582
0.922688 0.489017 0.302992
0.923370 0.489698 0.422364
0.924059 0.490388 0.543098
0.924755 0.491083 0.664881
0.925455 0.491783 0.787519
0.926159 0.492488 0.910879
0.926508 0.492837 0.971973
0.928233 0.615221 0.078749
0.928882 0.615870 0.192446
0.929553 0.616541 0.309856
0.930234 0.617222 0.429228
0.930924 0.617912 0.549962
0.931619 0.618607 0.671745
0.932319 0.619308 0.794383
0.933024 0.620012 0.917744
0.933373 0.620361 0.978837
0.935150 0.743723 0.085666
0.935799 0.744372 0.199363
0.936470 0.745042 0.316773
0.937151 0.745724 0.436145
0.937841 0.746413 0.556879
0.938536 0.747109 0.678662
0.939237 0.747809 0.801300
0.939941 0.748514 0.924661
0.940290 0.748862 0.985754
0.942111 0.873038 0.092627
0.942760 0.873688 0.206324
0.943431 0.874358 0.323734
0.944112 0.875040 0.443106
0.944802 0.875729 0.563840
0.945497 0.876425 0.685623
0.946197 0.877125 0.808261
0.946902 0.877829 0.931622
0.947251 0.878178 0.992715
0.948627 0.994091 0.099143
0.949276 0.994741 0.212840
0.949947 0.995411 0.330250
0.950628 0.996093 0.449622
0.951318 0.996782 0.570356
0.952013 0.997478 0.692139
0.952714 0.998178 0.814777
0.953418 0.998882 0.938138
0.953767 0.999231 0.999231
