skills/editops-orchestrator/assets/grade/luts/cool_tech_v05.cube
TITLE "cool_tech_v05"
LUT_3D_SIZE 9
DOMAIN_MIN 0.0 0.0 0.0
DOMAIN_MAX 1.0 1.0 1.0
0.000036 0.000036 0.014908
0.000325 0.000325 0.133602
0.000618 0.000618 0.254379
0.000914 0.000914 0.376122
0.001211 0.001211 0.498512
0.001510 0.001510 0.621391
0.001809 0.001809 0.744664
0.002110 0.002110 0.868267
0.002356 0.002356 0.969724
0.002778 0.116408 0.017649
0.003066 0.116696 0.136344
0.003359 0.116990 0.257121
0.003655 0.117286 0.378863
0.003953 0.117583 0.501253
0.004251 0.117882 0.624132
0.004551 0.118181 0.747406
0.004851 0.118481 0.871009
0.005097 0.118728 0.972466
0.005679 0.239577 0.020550
0.005967 0.239865 0.139245
0.006261 0.240159 0.260022
0.006557 0.240455 0.381765
0.006854 0.240752 0.504155
0.007153 0.241050 0.627034
0.007452 0.241350 0.750307
0.007752 0.241650 0.873910
0.007999 0.241897 0.975367
0.008606 0.363821 0.023477
0.008894 0.364110 0.142172
0.009188 0.364403 0.262949
0.009484 0.364699 0.384692
0.009781 0.364996 0.507082
0.010079 0.365295 0.629961
0.010379 0.365594 0.753234
0.010679 0.365895 0.876837
0.010926 0.366141 0.978294
0.011549 0.488764 0.026421
0.011838 0.489053 0.145115
0.012131 0.489346 0.265892
0.012427 0.489642 0.387635
0.012724 0.489939 0.510025
0.013023 0.490238 0.632904
0.013322 0.490537 0.756177
0.013622 0.490838 0.879780
0.013869 0.491084 0.981237
0.014505 0.614228 0.029376
0.014793 0.614516 0.148071
0.015087 0.614810 0.268848
0.015382 0.615106 0.390591
0.015680 0.615403 0.512980
0.015978 0.615702 0.635860
0.016278 0.616001 0.759133
0.016578 0.616301 0.882736
0.016825 0.616548 0.984193
0.017470 0.740107 0.032342
0.017758 0.740396 0.151036
0.018052 0.740689 0.271813
0.018348 0.740985 0.393556
0.018645 0.741282 0.515946
0.018944 0.741581 0.638825
0.019243 0.741880 0.762098
0.019543 0.742181 0.885701
0.019790 0.742427 0.987158
0.020444 0.866333 0.035315
0.020732 0.866622 0.154010
0.021025 0.866915 0.274787
0.021321 0.867211 0.396529
0.021619 0.867508 0.518919
0.021917 0.867807 0.641798
0.022217 0.868106 0.765072
0.022517 0.868406 0.888675
0.022763 0.868653 0.990132
0.023374 0.990743 0.038246
0.023663 0.991031 0.156941
0.023956 0.991325 0.277717
0.024252 0.991620 0.399460
0.024549 0.991918 0.521850
0.024848 0.992216 0.644729
0.025147 0.992516 0.768002
0.025448 0.992816 0.891605
0.025694 0.993063 0.993063
0.094748 0.000711 0.015582
0.095037 0.000999 0.134277
0.095330 0.001292 0.255054
0.095626 0.001588 0.376796
0.095923 0.001886 0.499186
0.096222 0.002184 0.622065
0.096521 0.002484 0.745339
0.096822 0.002784 0.868942
0.097068 0.003030 0.970399
0.097490 0.117082 0.018323
0.097778 0.117371 0.137018
0.098072 0.117664 0.257795
0.098367 0.117960 0.379538
0.098665 0.118257 0.501928
0.098963 0.118556 0.624807
0.099263 0.118855 0.748080
0.099563 0.119156 0.871683
0.099810 0.119402 0.973140
0.100391 0.240251 0.021225
0.100680 0.240540 0.139920
0.100973 0.240833 0.260697
0.101269 0.241129 0.382439
0.101566 0.241426 0.504829
0.101865 0.241725 0.627708
0.102164 0.242024 0.750981
0.102465 0.242325 0.874584
0.102711 0.242571 0.976042
0.103318 0.364496 0.024152
0.103606 0.364784 0.142847
0.103900 0.365078 0.263623
0.104196 0.365373 0.385366
0.104493 0.365671 0.507756
0.104792 0.365969 0.630635
0.105091 0.366269 0.753908
0.105391 0.366569 0.877511
0.105638 0.366815 0.978969
0.106261 0.489439 0.027095
0.106550 0.489727 0.145790
0.106843 0.490021 0.266567
0.107139 0.490316 0.388309
0.107436 0.490614 0.510699
0.107735 0.490912 0.633578
0.108034 0.491212 0.756852
0.108335 0.491512 0.880455
0.108581 0.491759 0.981912
0.109217 0.614903 0.030051
0.109505 0.615191 0.148745
0.109799 0.615484 0.269522
0.110094 0.615780 0.391265
0.110392 0.616077 0.513655
0.110690 0.616376 0.636534
0.110990 0.616675 0.759807
0.111290 0.616976 0.883410
0.111537 0.617222 0.984867
0.112182 0.740782 0.033016
0.112471 0.741070 0.151711
0.112764 0.741364 0.272488
0.113060 0.741659 0.394230
0.113357 0.741957 0.516620
0.113656 0.742255 0.639499
0.113955 0.742555 0.762772
0.114256 0.742855 0.886375
0.114502 0.743102 0.987833
0.115156 0.867008 0.035989
0.115444 0.867296 0.154684
0.115738 0.867589 0.275461
0.116033 0.867885 0.397204
0.116331 0.868182 0.519594
0.116629 0.868481 0.642473
0.116929 0.868781 0.765746
0.117229 0.869081 0.889349
0.117476 0.869327 0.990806
0.118086 0.991417 0.038920
0.118375 0.991706 0.157615
0.118668 0.991999 0.278392
0.118964 0.992295 0.400134
0.119261 0.992592 0.522524
0.119560 0.992891 0.645404
0.119859 0.993190 0.768677
0.120160 0.993490 0.892280
0.120406 0.993737 0.993737
0.215633 0.001571 0.016443
0.215921 0.001860 0.135138
0.216215 0.002153 0.255915
0.216510 0.002449 0.377657
0.216808 0.002746 0.500047
0.217106 0.003045 0.622926
0.217406 0.003344 0.746199
0.217706 0.003645 0.869802
0.217953 0.003891 0.971260
0.218374 0.117943 0.019184
0.218663 0.118232 0.137879
0.218956 0.118525 0.258656
0.219252 0.118821 0.380399
0.219549 0.119118 0.502788
0.219848 0.119417 0.625668
0.220147 0.119716 0.748941
0.220447 0.120017 0.872544
0.220694 0.120263 0.974001
0.221276 0.241112 0.022086
0.221564 0.241400 0.140780
0.221857 0.241694 0.261557
0.222153 0.241990 0.383300
0.222451 0.242287 0.505690
0.222749 0.242586 0.628569
0.223049 0.242885 0.751842
0.223349 0.243185 0.875445
0.223595 0.243432 0.976902
0.224202 0.365356 0.025012
0.224491 0.365645 0.143707
0.224784 0.365938 0.264484
0.225080 0.366234 0.386227
0.225377 0.366531 0.508617
0.225676 0.366830 0.631496
0.225975 0.367129 0.754769
0.226276 0.367430 0.878372
0.226522 0.367676 0.979829
0.227146 0.490300 0.027956
0.227434 0.490588 0.146651
0.227728 0.490881 0.267427
0.228023 0.491177 0.389170
0.228321 0.491475 0.511560
0.228619 0.491773 0.634439
0.228919 0.492073 0.757712
0.229219 0.492373 0.881315
0.229466 0.492619 0.982773
0.230101 0.615763 0.030911
0.230390 0.616052 0.149606
0.230683 0.616345 0.270383
0.230979 0.616641 0.392126
0.231276 0.616938 0.514516
0.231575 0.617237 0.637395
0.231874 0.617536 0.760668
0.232175 0.617837 0.884271
0.232421 0.618083 0.985728
0.233067 0.741643 0.033877
0.233355 0.741931 0.152571
0.233648 0.742224 0.273348
0.233944 0.742520 0.395091
0.234242 0.742818 0.517481
0.234540 0.743116 0.640360
0.234840 0.743416 0.763633
0.235140 0.743716 0.887236
0.235386 0.743962 0.988693
0.236040 0.867868 0.036850
0.236329 0.868157 0.155545
0.236622 0.868450 0.276322
0.236918 0.868746 0.398065
0.237215 0.869043 0.520454
0.237514 0.869342 0.643334
0.237813 0.869641 0.766607
0.238113 0.869942 0.890210
0.238360 0.870188 0.991667
0.238971 0.992278 0.039781
0.239259 0.992566 0.158476
0.239553 0.992860 0.279253
0.239848 0.993155 0.400995
0.240146 0.993453 0.523385
0.240444 0.993751 0.646264
0.240744 0.994051 0.769537
0.241044 0.994351 0.893140
0.241291 0.994598 0.994598
0.337681 0.002440 0.017312
0.337969 0.002729 0.136007
0.338263 0.003022 0.256784
0.338559 0.003318 0.378526
0.338856 0.003615 0.500916
0.339155 0.003914 0.623795
0.339454 0.004213 0.747068
0.339754 0.004514 0.870671
0.340001 0.004760 0.972129
0.340422 0.118812 0.020053
0.340711 0.119101 0.138748
0.341004 0.119394 0.259525
0.341300 0.119690 0.381268
0.341597 0.119987 0.503657
0.341896 0.120286 0.626537
0.342195 0.120585 0.749810
0.342496 0.120886 0.873413
0.342742 0.121132 0.974870
0.343324 0.241981 0.022955
0.343612 0.242269 0.141650
0.343906 0.242563 0.262426
0.344202 0.242859 0.384169
0.344499 0.243156 0.506559
0.344797 0.243455 0.629438
0.345097 0.243754 0.752711
0.345397 0.244054 0.876314
0.345644 0.244301 0.977771
0.346251 0.366225 0.025881
0.346539 0.366514 0.144576
0.346833 0.366807 0.265353
0.347128 0.367103 0.387096
0.347426 0.367400 0.509486
0.347724 0.367699 0.632365
0.348024 0.367998 0.755638
0.348324 0.368299 0.879241
0.348571 0.368545 0.980698
0.349194 0.491169 0.028825
0.349482 0.491457 0.147520
0.349776 0.491750 0.268297
0.350072 0.492046 0.390039
0.350369 0.492344 0.512429
0.350668 0.492642 0.635308
0.350967 0.492942 0.758581
0.351267 0.493242 0.882184
0.351514 0.493488 0.983642
0.352150 0.616632 0.031780
0.352438 0.616921 0.150475
0.352731 0.617214 0.271252
0.353027 0.617510 0.392995
0.353325 0.617807 0.515385
0.353623 0.618106 0.638264
0.353923 0.618405 0.761537
0.354223 0.618706 0.885140
0.354469 0.618952 0.986597
0.355115 0.742512 0.034746
0.355403 0.742800 0.153441
0.355697 0.743093 0.274217
0.355993 0.743389 0.395960
0.356290 0.743687 0.518350
0.356588 0.743985 0.641229
0.356888 0.744285 0.764502
0.357188 0.744585 0.888105
0.357435 0.744831 0.989562
0.358088 0.868737 0.037719
0.358377 0.869026 0.156414
0.358670 0.869319 0.277191
0.358966 0.869615 0.398934
0.359263 0.869912 0.521324
0.359562 0.870211 0.644203
0.359861 0.870510 0.767476
0.360162 0.870811 0.891079
0.360408 0.871057 0.992536
0.361019 0.993147 0.040650
0.361308 0.993435 0.159345
0.361601 0.993729 0.280122
0.361897 0.994025 0.401864
0.362194 0.994322 0.524254
0.362493 0.994620 0.647133
0.362792 0.994920 0.770406
0.363092 0.995220 0.894009
0.363339 0.995467 0.995467
0.460458 0.003315 0.018186
0.460746 0.003603 0.136881
0.461040 0.003896 0.257658
0.461335 0.004192 0.379400
0.461633 0.004490 0.501790
0.461931 0.004788 0.624670
0.462231 0.005088 0.747943
0.462531 0.005388 0.871546
0.462778 0.005634 0.973003
0.463199 0.119686 0.020927
0.463488 0.119975 0.139622
0.463781 0.120268 0.260399
0.464077 0.120564 0.382142
0.464374 0.120861 0.504532
0.464673 0.121160 0.627411
0.464972 0.121459 0.750684
0.465273 0.121760 0.874287
0.465519 0.122006 0.975744
0.466101 0.242855 0.023829
0.466389 0.243144 0.142524
0.466683 0.243437 0.263301
0.466978 0.243733 0.385043
0.467276 0.244030 0.507433
0.467574 0.244329 0.630312
0.467874 0.244628 0.753585
0.468174 0.244929 0.877188
0.468420 0.245175 0.978646
0.469028 0.367100 0.026756
0.469316 0.367388 0.145451
0.469609 0.367682 0.266227
0.469905 0.367977 0.387970
0.470202 0.368275 0.510360
0.470501 0.368573 0.633239
0.470801 0.368873 0.756512
0.471101 0.369173 0.880115
0.471347 0.369419 0.981573
0.471971 0.492043 0.029699
0.472259 0.492331 0.148394
0.472553 0.492625 0.269171
0.472848 0.492920 0.390913
0.473146 0.493218 0.513303
0.473444 0.493516 0.636182
0.473744 0.493816 0.759456
0.474044 0.494116 0.883059
0.474291 0.494363 0.984516
0.474926 0.617507 0.032655
0.475215 0.617795 0.151349
0.475508 0.618088 0.272126
0.475804 0.618384 0.393869
0.476101 0.618681 0.516259
0.476400 0.618980 0.639138
0.476699 0.619279 0.762411
0.477000 0.619580 0.886014
0.477246 0.619826 0.987471
0.477892 0.743386 0.035620
0.478180 0.743674 0.154315
0.478474 0.743968 0.275092
0.478769 0.744263 0.396834
0.479067 0.744561 0.519224
0.479365 0.744859 0.642103
0.479665 0.745159 0.765376
0.479965 0.745459 0.888979
0.480212 0.745706 0.990437
0.480865 0.869612 0.038593
0.481154 0.869900 0.157288
0.481447 0.870193 0.278065
0.481743 0.870489 0.399808
0.482040 0.870786 0.522198
0.482339 0.871085 0.645077
0.482638 0.871385 0.768350
0.482939 0.871685 0.891953
0.483185 0.871931 0.993410
0.483796 0.994021 0.041524
0.484084 0.994310 0.160219
0.484378 0.994603 0.280996
0.484674 0.994899 0.402738
0.484971 0.995196 0.525128
0.485269 0.995495 0.648008
0.485569 0.995794 0.771281
0.485869 0.996094 0.894884
0.486116 0.996341 0.996341
0.583769 0.004193 0.019064
0.584057 0.004481 0.137759
0.584351 0.004774 0.258536
0.584646 0.005070 0.380278
0.584944 0.005368 0.502668
0.585242 0.005666 0.625548
0.585542 0.005966 0.748821
0.585842 0.006266 0.872424
0.586089 0.006512 0.973881
0.586510 0.120565 0.021805
0.586799 0.120853 0.140500
0.587092 0.121146 0.261277
0.587388 0.121442 0.383020
0.587685 0.121739 0.505410
0.587984 0.122038 0.628289
0.588283 0.122337 0.751562
0.588583 0.122638 0.875165
0.588830 0.122884 0.976622
0.589412 0.243733 0.024707
0.589700 0.244022 0.143402
0.589994 0.244315 0.264179
0.590289 0.244611 0.385921
0.590587 0.244908 0.508311
0.590885 0.245207 0.631190
0.591185 0.245506 0.754463
0.591485 0.245807 0.878066
0.591731 0.246053 0.979524
0.592339 0.367978 0.027634
0.592627 0.368266 0.146329
0.592920 0.368560 0.267105
0.593216 0.368855 0.388848
0.593513 0.369153 0.511238
0.593812 0.369451 0.634117
0.594112 0.369751 0.757390
0.594412 0.370051 0.880993
0.594658 0.370298 0.982451
0.595282 0.492921 0.030577
0.595570 0.493209 0.149272
0.595864 0.493503 0.270049
0.596159 0.493798 0.391791
0.596457 0.494096 0.514181
0.596755 0.494394 0.637061
0.597055 0.494694 0.760334
0.597355 0.494994 0.883937
0.597602 0.495241 0.985394
0.598237 0.618385 0.033533
0.598526 0.618673 0.152227
0.598819 0.618966 0.273004
0.599115 0.619262 0.394747
0.599412 0.619559 0.517137
0.599711 0.619858 0.640016
0.600010 0.620158 0.763289
0.600311 0.620458 0.886892
0.600557 0.620704 0.988349
0.601203 0.744264 0.036498
0.601491 0.744552 0.155193
0.601785 0.744846 0.275970
0.602080 0.745141 0.397712
0.602378 0.745439 0.520102
0.602676 0.745737 0.642981
0.602976 0.746037 0.766254
0.603276 0.746337 0.889857
0.603522 0.746584 0.991315
0.604176 0.870490 0.039471
0.604465 0.870778 0.158166
0.604758 0.871071 0.278943
0.605054 0.871367 0.400686
0.605351 0.871665 0.523076
0.605650 0.871963 0.645955
0.605949 0.872263 0.769228
0.606250 0.872563 0.892831
0.606496 0.872809 0.994288
0.607107 0.994899 0.042402
0.607395 0.995188 0.161097
0.607689 0.995481 0.281874
0.607985 0.995777 0.403617
0.608282 0.996074 0.526006
0.608580 0.996373 0.648886
0.608880 0.996672 0.772159
0.609180 0.996972 0.895762
0.609427 0.997219 0.997219
0.707503 0.005074 0.019945
0.707791 0.005362 0.138640
0.708084 0.005655 0.259417
0.708380 0.005951 0.381159
0.708678 0.006249 0.503549
0.708976 0.006547 0.626429
0.709276 0.006847 0.749702
0.709576 0.007147 0.873305
0.709822 0.007393 0.974762
0.710244 0.121446 0.022686
0.710532 0.121734 0.141381
0.710826 0.122027 0.262158
0.711122 0.122323 0.383901
0.711419 0.122620 0.506291
0.711717 0.122919 0.629170
0.712017 0.123219 0.752443
0.712317 0.123519 0.876046
0.712564 0.123765 0.977503
0.713145 0.244614 0.025588
0.713434 0.244903 0.144283
0.713727 0.245196 0.265060
0.714023 0.245492 0.386802
0.714320 0.245789 0.509192
0.714619 0.246088 0.632071
0.714918 0.246387 0.755344
0.715219 0.246688 0.878947
0.715465 0.246934 0.980405
0.716072 0.368859 0.028515
0.716361 0.369147 0.147210
0.716654 0.369441 0.267987
0.716950 0.369736 0.389729
0.717247 0.370034 0.512119
0.717546 0.370332 0.634998
0.717845 0.370632 0.758271
0.718146 0.370932 0.881874
0.718392 0.371179 0.983332
0.719016 0.493802 0.031458
0.719304 0.494090 0.150153
0.719597 0.494384 0.270930
0.719893 0.494679 0.392672
0.720190 0.494977 0.515062
0.720489 0.495275 0.637942
0.720789 0.495575 0.761215
0.721089 0.495875 0.884818
0.721335 0.496122 0.986275
0.721971 0.619266 0.034414
0.722259 0.619554 0.153108
0.722553 0.619847 0.273885
0.722849 0.620143 0.395628
0.723146 0.620441 0.518018
0.723445 0.620739 0.640897
0.723744 0.621039 0.764170
0.724044 0.621339 0.887773
0.724291 0.621585 0.989230
0.724936 0.745145 0.037379
0.725225 0.745433 0.156074
0.725518 0.745727 0.276851
0.725814 0.746023 0.398593
0.726111 0.746320 0.520983
0.726410 0.746618 0.643862
0.726709 0.746918 0.767135
0.727010 0.747218 0.890738
0.727256 0.747465 0.992196
0.727910 0.871371 0.040352
0.728198 0.871659 0.159047
0.728492 0.871952 0.279824
0.728788 0.872248 0.401567
0.729085 0.872546 0.523957
0.729383 0.872844 0.646836
0.729683 0.873144 0.770109
0.729983 0.873444 0.893712
0.730230 0.873690 0.995169
0.730841 0.995780 0.043283
0.731129 0.996069 0.161978
0.731422 0.996362 0.282755
0.731718 0.996658 0.404498
0.732016 0.996955 0.526888
0.732314 0.997254 0.649767
0.732614 0.997553 0.773040
0.732914 0.997853 0.896643
0.733160 0.998100 0.998100
0.831586 0.005957 0.020829
0.831875 0.006246 0.139523
0.832168 0.006539 0.260300
0.832464 0.006835 0.382043
0.832761 0.007132 0.504433
0.833060 0.007431 0.627312
0.833359 0.007730 0.750585
0.833660 0.008030 0.874188
0.833906 0.008277 0.975645
0.834328 0.122329 0.023570
0.834616 0.122617 0.142265
0.834910 0.122911 0.263042
0.835205 0.123207 0.384784
0.835503 0.123504 0.507174
0.835801 0.123803 0.630053
0.836101 0.124102 0.753327
0.836401 0.124402 0.876930
0.836648 0.124649 0.978387
0.837229 0.245498 0.026471
0.837518 0.245786 0.145166
0.837811 0.246080 0.265943
0.838107 0.246376 0.387686
0.838404 0.246673 0.510076
0.838703 0.246971 0.632955
0.839002 0.247271 0.756228
0.839303 0.247571 0.879831
0.839549 0.247818 0.981288
0.840156 0.369742 0.029398
0.840445 0.370031 0.148093
0.840738 0.370324 0.268870
0.841034 0.370620 0.390613
0.841331 0.370917 0.513003
0.841630 0.371216 0.635882
0.841929 0.371515 0.759155
0.842229 0.371816 0.882758
0.842476 0.372062 0.984215
0.843099 0.494685 0.032342
0.843388 0.494974 0.151036
0.843681 0.495267 0.271813
0.843977 0.495563 0.393556
0.844274 0.495860 0.515946
0.844573 0.496159 0.638825
0.844872 0.496458 0.762098
0.845173 0.496759 0.885701
0.845419 0.497005 0.987158
0.846055 0.620149 0.035297
0.846343 0.620437 0.153992
0.846637 0.620731 0.274769
0.846933 0.621027 0.396512
0.847230 0.621324 0.518901
0.847528 0.621623 0.641781
0.847828 0.621922 0.765054
0.848128 0.622222 0.888657
0.848375 0.622469 0.990114
0.849020 0.746028 0.038262
0.849309 0.746317 0.156957
0.849602 0.746610 0.277734
0.849898 0.746906 0.399477
0.850195 0.747203 0.521867
0.850494 0.747502 0.644746
0.850793 0.747801 0.768019
0.851094 0.748102 0.891622
0.851340 0.748348 0.993079
0.851994 0.872254 0.041236
0.852282 0.872543 0.159931
0.852576 0.872836 0.280708
0.852871 0.873132 0.402450
0.853169 0.873429 0.524840
0.853467 0.873728 0.647719
0.853767 0.874027 0.770993
0.854067 0.874327 0.894596
0.854314 0.874574 0.996053
0.854925 0.996664 0.044167
0.855213 0.996952 0.162862
0.855506 0.997246 0.283638
0.855802 0.997541 0.405381
0.856099 0.997839 0.527771
0.856398 0.998137 0.650650
0.856698 0.998437 0.773923
0.856998 0.998737 0.897526
0.857244 0.998984 0.998984
0.955969 0.006843 0.021714
0.956258 0.007131 0.140409
0.956551 0.007425 0.261186
0.956847 0.007720 0.382929
0.957144 0.008018 0.505319
0.957443 0.008316 0.628198
0.957742 0.008616 0.751471
0.958043 0.008916 0.875074
0.958289 0.009163 0.976531
0.958711 0.123215 0.024456
0.958999 0.123503 0.143151
0.959293 0.123797 0.263927
0.959588 0.124092 0.385670
0.959886 0.124390 0.508060
0.960184 0.124688 0.630939
0.960484 0.124988 0.754212
0.960784 0.125288 0.877815
0.961031 0.125535 0.979272
0.961612 0.246384 0.027357
0.961901 0.246672 0.146052
0.962194 0.246965 0.266829
0.962490 0.247261 0.388572
0.962787 0.247559 0.510961
0.963086 0.247857 0.633841
0.963385 0.248157 0.757114
0.963686 0.248457 0.880717
0.963932 0.248703 0.982174
0.964539 0.370628 0.030284
0.964827 0.370916 0.148979
0.965121 0.371210 0.269756
0.965417 0.371506 0.391498
0.965714 0.371803 0.513888
0.966013 0.372101 0.636767
0.966312 0.372401 0.760040
0.966612 0.372701 0.883644
0.966859 0.372948 0.985101
0.967482 0.495571 0.033227
0.967771 0.495859 0.151922
0.968064 0.496153 0.272699
0.968360 0.496449 0.394442
0.968657 0.496746 0.516832
0.968956 0.497045 0.639711
0.969255 0.497344 0.762984
0.969556 0.497644 0.886587
0.969802 0.497891 0.988044
0.970438 0.621035 0.036183
0.970726 0.621323 0.154878
0.971020 0.621617 0.275655
0.971316 0.621912 0.397397
0.971613 0.622210 0.519787
0.971911 0.622508 0.642666
0.972211 0.622808 0.765939
0.972511 0.623108 0.889542
0.972758 0.623355 0.991000
0.973403 0.746914 0.039148
0.973692 0.747203 0.157843
0.973985 0.747496 0.278620
0.974281 0.747792 0.400363
0.974578 0.748089 0.522752
0.974877 0.748388 0.645632
0.975176 0.748687 0.768905
0.975477 0.748987 0.892508
0.975723 0.749234 0.993965
0.976377 0.873140 0.042122
0.976665 0.873428 0.160817
0.976959 0.873722 0.281593
0.977254 0.874017 0.403336
0.977552 0.874315 0.525726
0.977850 0.874613 0.648605
0.978150 0.874913 0.771878
0.978450 0.875213 0.895481
0.978697 0.875460 0.996938
0.979307 0.997549 0.045052
0.979596 0.997838 0.163747
0.979889 0.998131 0.284524
0.980185 0.998427 0.406267
0.980482 0.998724 0.528657
0.980781 0.999023 0.651536
0.981080 0.999322 0.774809
0.981381 0.999623 0.898412
0.981627 0.999869 0.999869
