skills/editops-orchestrator/assets/grade/luts/cool_tech_v13.cube
TITLE "cool_tech_v13"
LUT_3D_SIZE 5
DOMAIN_MIN 0.0 0.0 0.0
DOMAIN_MAX 1.0 1.0 1.0
0.000112 0.000112 0.025363
0.001146 0.001146 0.259516
0.002214 0.002214 0.501146
0.003296 0.003296 0.746240
0.004180 0.004180 0.946285
0.009731 0.228589 0.034982
0.010765 0.229623 0.269135
0.011833 0.230690 0.510765
0.012915 0.231773 0.755859
0.013799 0.232657 0.955904
0.020270 0.478908 0.045520
0.021304 0.479942 0.279673
0.022371 0.481010 0.521304
0.023454 0.482092 0.766397
0.024338 0.482976 0.966443
0.030973 0.733153 0.056224
0.032008 0.734187 0.290377
0.033075 0.735255 0.532008
0.034158 0.736337 0.777101
0.035041 0.737221 0.977147
0.041518 0.983624 0.066769
0.042553 0.984658 0.300922
0.043620 0.985725 0.542553
0.044703 0.986808 0.787646
0.045586 0.987692 0.987692
0.182005 0.002458 0.027709
0.183039 0.003492 0.261861
0.184106 0.004559 0.503492
0.185189 0.005642 0.748586
0.186072 0.006526 0.948631
0.191624 0.230934 0.037328
0.192658 0.231969 0.271480
0.193725 0.233036 0.513111
0.194808 0.234119 0.758205
0.195691 0.235002 0.958250
0.202162 0.481254 0.047866
0.203196 0.482288 0.282019
0.204264 0.483355 0.523650
0.205346 0.484438 0.768743
0.206230 0.485322 0.968789
0.212866 0.735499 0.058570
0.213900 0.736533 0.292723
0.214968 0.737600 0.534353
0.216050 0.738683 0.779447
0.216934 0.739567 0.979492
0.223411 0.985969 0.069115
0.224445 0.987004 0.303268
0.225513 0.988071 0.544898
0.226595 0.989154 0.789992
0.227479 0.990037 0.990037
0.424022 0.005579 0.030830
0.425057 0.006613 0.264983
0.426124 0.007681 0.506613
0.427207 0.008763 0.751707
0.428090 0.009647 0.951752
0.433641 0.234056 0.040449
0.434676 0.235090 0.274601
0.435743 0.236157 0.516232
0.436826 0.237240 0.761326
0.437709 0.238124 0.961371
0.444180 0.484375 0.050987
0.445214 0.485409 0.285140
0.446282 0.486476 0.526771
0.447364 0.487559 0.771864
0.448248 0.488443 0.971910
0.454884 0.738620 0.061691
0.455918 0.739654 0.295844
0.456985 0.740722 0.537475
0.458068 0.741804 0.782568
0.458952 0.742688 0.982614
0.465429 0.989090 0.072236
0.466463 0.990125 0.306389
0.467530 0.991192 0.548020
0.468613 0.992275 0.793113
0.469497 0.993158 0.993158
0.670237 0.008754 0.034005
0.671271 0.009788 0.268158
0.672338 0.010856 0.509788
0.673421 0.011938 0.754882
0.674305 0.012822 0.954927
0.679856 0.237231 0.043624
0.680890 0.238265 0.277777
0.681957 0.239332 0.519407
0.683040 0.240415 0.764501
0.683923 0.241299 0.964546
0.690394 0.487550 0.054163
0.691428 0.488584 0.288315
0.692496 0.489652 0.529946
0.693578 0.490734 0.775039
0.694462 0.491618 0.975085
0.701098 0.741795 0.064866
0.702132 0.742830 0.299019
0.703200 0.743897 0.540650
0.704282 0.744980 0.785743
0.705166 0.745863 0.985789
0.711643 0.992266 0.075411
0.712677 0.993300 0.309564
0.713745 0.994367 0.551195
0.714827 0.995450 0.796288
0.715711 0.996334 0.996334
0.919082 0.011963 0.037214
0.920116 0.012998 0.271367
0.921184 0.014065 0.512998
0.922266 0.015148 0.758091
0.923150 0.016031 0.958137
0.928701 0.240440 0.046833
0.929735 0.241474 0.280986
0.930803 0.242542 0.522617
0.931885 0.243624 0.767710
0.932769 0.244508 0.967756
0.939240 0.490759 0.057372
0.940274 0.491794 0.291524
0.941341 0.492861 0.533155
0.942424 0.493944 0.778249
0.943308 0.494827 0.978294
0.949944 0.745004 0.068076
0.950978 0.746039 0.302228
0.952045 0.747106 0.543859
0.953128 0.748189 0.788953
0.954012 0.749072 0.988998
0.960488 0.995475 0.078620
0.961523 0.996509 0.312773
0.962590 0.997577 0.554404
0.963673 0.998659 0.799497
0.964556 0.999543 0.999543
