skills/editops-orchestrator/assets/grade/luts/cool_tech_v01.cube
TITLE "cool_tech_v01"
LUT_3D_SIZE 5
DOMAIN_MIN 0.0 0.0 0.0
DOMAIN_MAX 1.0 1.0 1.0
0.000014 0.000014 0.009373
0.000370 0.000370 0.251761
0.000731 0.000731 0.497177
0.001094 0.001094 0.743853
0.001444 0.001444 0.981444
0.003541 0.245168 0.012899
0.003897 0.245524 0.255288
0.004258 0.245885 0.500704
0.004621 0.246248 0.747380
0.004971 0.246598 0.984971
0.007116 0.493732 0.016475
0.007473 0.494088 0.258864
0.007834 0.494449 0.504280
0.008197 0.494812 0.750956
0.008547 0.495162 0.988547
0.010711 0.743600 0.020070
0.011068 0.743956 0.262458
0.011429 0.744317 0.507875
0.011792 0.744680 0.754550
0.012141 0.745030 0.992141
0.014318 0.994318 0.023677
0.014674 0.994674 0.266065
0.015035 0.995035 0.511481
0.015398 0.995398 0.758157
0.015748 0.995748 0.995748
0.232887 0.001020 0.010379
0.233244 0.001376 0.252767
0.233605 0.001738 0.498183
0.233968 0.002100 0.744859
0.234317 0.002450 0.982450
0.236414 0.246174 0.013906
0.236770 0.246530 0.256294
0.237132 0.246891 0.501710
0.237494 0.247254 0.748386
0.237844 0.247604 0.985977
0.239990 0.494738 0.017481
0.240346 0.495094 0.259870
0.240707 0.495455 0.505286
0.241070 0.495818 0.751962
0.241420 0.496168 0.989553
0.243584 0.744606 0.021076
0.243941 0.744962 0.263464
0.244302 0.745323 0.508881
0.244665 0.745686 0.755556
0.245014 0.746036 0.993147
0.247191 0.995324 0.024683
0.247548 0.995680 0.267071
0.247909 0.996042 0.512487
0.248272 0.996404 0.759163
0.248621 0.996754 0.996754
0.478869 0.002082 0.011441
0.479226 0.002439 0.253830
0.479587 0.002800 0.499246
0.479950 0.003163 0.745922
0.480299 0.003513 0.983513
0.482396 0.247236 0.014968
0.482753 0.247593 0.257357
0.483114 0.247954 0.502773
0.483477 0.248317 0.749449
0.483826 0.248666 0.987039
0.485972 0.495800 0.018544
0.486328 0.496157 0.260932
0.486689 0.496518 0.506349
0.487052 0.496881 0.753024
0.487402 0.497231 0.990615
0.489566 0.745668 0.022139
0.489923 0.746025 0.264527
0.490284 0.746386 0.509943
0.490647 0.746749 0.756619
0.490997 0.747098 0.994210
0.493173 0.996386 0.025745
0.493530 0.996743 0.268134
0.493891 0.997104 0.513550
0.494254 0.997467 0.760226
0.494603 0.997817 0.997817
0.726170 0.003151 0.012510
0.726527 0.003507 0.254898
0.726888 0.003869 0.500314
0.727251 0.004231 0.746990
0.727601 0.004581 0.984581
0.729697 0.248305 0.016037
0.730054 0.248661 0.258425
0.730415 0.249022 0.503841
0.730778 0.249385 0.750517
0.731127 0.249735 0.988108
0.733273 0.496869 0.019612
0.733630 0.497225 0.262001
0.733991 0.497586 0.507417
0.734354 0.497949 0.754093
0.734703 0.498299 0.991684
0.736868 0.746737 0.023207
0.737224 0.747093 0.265595
0.737585 0.747454 0.511012
0.737948 0.747817 0.757687
0.738298 0.748167 0.995278
0.740474 0.997455 0.026814
0.740831 0.997811 0.269202
0.741192 0.998173 0.514618
0.741555 0.998535 0.761294
0.741905 0.998885 0.998885
0.974325 0.004223 0.013582
0.974682 0.004579 0.255970
0.975043 0.004941 0.501386
0.975406 0.005303 0.748062
0.975756 0.005653 0.985653
0.977852 0.249377 0.017109
0.978209 0.249733 0.259497
0.978570 0.250094 0.504913
0.978933 0.250457 0.751589
0.979282 0.250807 0.989180
0.981428 0.497941 0.020684
0.981785 0.498297 0.263073
0.982146 0.498658 0.508489
0.982509 0.499021 0.755165
0.982858 0.499371 0.992756
0.985023 0.747809 0.024279
0.985379 0.748165 0.266667
0.985740 0.748526 0.512084
0.986103 0.748889 0.758759
0.986453 0.749239 0.996350
0.988629 0.998527 0.027886
0.988986 0.998883 0.270274
0.989347 0.999245 0.515690
0.989710 0.999607 0.762366
0.990060 0.999957 0.999957
