skills/editops-orchestrator/assets/grade/luts/cool_tech_v15.cube
TITLE "cool_tech_v15"
LUT_3D_SIZE 9
DOMAIN_MIN 0.0 0.0 0.0
DOMAIN_MAX 1.0 1.0 1.0
0.000137 0.000137 0.027866
0.000703 0.000703 0.142623
0.001286 0.001286 0.260778
0.001877 0.001877 0.380684
0.002474 0.002474 0.501796
0.003075 0.003075 0.623832
0.003681 0.003681 0.746621
0.004289 0.004289 0.870044
0.004636 0.004636 0.940425
0.004973 0.103519 0.032702
0.005539 0.104085 0.147459
0.006122 0.104667 0.265614
0.006713 0.105258 0.385520
0.007310 0.105855 0.506632
0.007911 0.106457 0.628669
0.008517 0.107062 0.751457
0.009125 0.107671 0.874880
0.009472 0.108018 0.945262
0.010697 0.225882 0.038426
0.011263 0.226448 0.153183
0.011846 0.227030 0.271338
0.012437 0.227621 0.391244
0.013034 0.228218 0.512356
0.013635 0.228820 0.634393
0.014241 0.229425 0.757181
0.014849 0.230034 0.880604
0.015196 0.230381 0.950986
0.016525 0.350459 0.044254
0.017091 0.351025 0.159011
0.017673 0.351607 0.277166
0.018264 0.352199 0.397071
0.018861 0.352796 0.518183
0.019463 0.353397 0.640220
0.020068 0.354003 0.763009
0.020677 0.354611 0.886432
0.021024 0.354958 0.956813
0.022419 0.476460 0.050148
0.022985 0.477026 0.164905
0.023567 0.477608 0.283060
0.024158 0.478199 0.402965
0.024756 0.478796 0.524077
0.025357 0.479398 0.646114
0.025962 0.480003 0.768903
0.026571 0.480612 0.892326
0.026918 0.480959 0.962707
0.028363 0.603518 0.056092
0.028929 0.604084 0.170849
0.029511 0.604667 0.289003
0.030102 0.605258 0.408909
0.030699 0.605855 0.530021
0.031301 0.606456 0.652058
0.031906 0.607062 0.774847
0.032514 0.607670 0.898270
0.032861 0.608017 0.968651
0.034346 0.731421 0.062075
0.034912 0.731986 0.176832
0.035494 0.732569 0.294987
0.036085 0.733160 0.414892
0.036682 0.733757 0.536004
0.037284 0.734358 0.658041
0.037889 0.734964 0.780830
0.038498 0.735572 0.904253
0.038845 0.735919 0.974634
0.040362 0.860026 0.068091
0.040928 0.860592 0.182848
0.041510 0.861174 0.301003
0.042101 0.861765 0.420908
0.042698 0.862362 0.542020
0.043300 0.862964 0.664057
0.043905 0.863569 0.786846
0.044514 0.864178 0.910269
0.044861 0.864524 0.980650
0.046061 0.981850 0.073790
0.046626 0.982416 0.188547
0.047209 0.982998 0.306701
0.047800 0.983589 0.426607
0.048397 0.984187 0.547719
0.048999 0.984788 0.669756
0.049604 0.985393 0.792545
0.050212 0.986002 0.915967
0.050559 0.986349 0.986349
0.056727 0.000951 0.028680
0.057292 0.001517 0.143437
0.057875 0.002099 0.261592
0.058466 0.002690 0.381497
0.059063 0.003287 0.502609
0.059664 0.003889 0.624646
0.060270 0.004494 0.747435
0.060878 0.005103 0.870858
0.061225 0.005450 0.941239
0.061563 0.104333 0.033516
0.062128 0.104898 0.148273
0.062711 0.105481 0.266428
0.063302 0.106072 0.386333
0.063899 0.106669 0.507445
0.064501 0.107270 0.629482
0.065106 0.107876 0.752271
0.065714 0.108484 0.875694
0.066061 0.108831 0.946075
0.067287 0.226696 0.039240
0.067852 0.227261 0.153997
0.068435 0.227844 0.272152
0.069026 0.228435 0.392057
0.069623 0.229032 0.513169
0.070225 0.229634 0.635206
0.070830 0.230239 0.757995
0.071438 0.230847 0.881418
0.071785 0.231194 0.951799
0.073114 0.351273 0.045068
0.073680 0.351839 0.159825
0.074262 0.352421 0.277979
0.074853 0.353012 0.397885
0.075451 0.353609 0.518997
0.076052 0.354211 0.641034
0.076657 0.354816 0.763822
0.077266 0.355425 0.887245
0.077613 0.355772 0.957627
0.079008 0.477274 0.050962
0.079574 0.477839 0.165719
0.080157 0.478422 0.283873
0.080748 0.479013 0.403779
0.081345 0.479610 0.524891
0.081946 0.480212 0.646928
0.082552 0.480817 0.769717
0.083160 0.481425 0.893140
0.083507 0.481772 0.963521
0.084952 0.604332 0.056905
0.085518 0.604898 0.171662
0.086100 0.605480 0.289817
0.086691 0.606071 0.409723
0.087288 0.606668 0.530835
0.087890 0.607270 0.652872
0.088495 0.607875 0.775660
0.089104 0.608484 0.899083
0.089451 0.608831 0.969465
0.090935 0.732234 0.062889
0.091501 0.732800 0.177646
0.092083 0.733382 0.295800
0.092674 0.733973 0.415706
0.093271 0.734570 0.536818
0.093873 0.735172 0.658855
0.094478 0.735777 0.781643
0.095087 0.736386 0.905066
0.095434 0.736733 0.975448
0.096951 0.860840 0.068905
0.097517 0.861405 0.183662
0.098099 0.861988 0.301816
0.098690 0.862579 0.421722
0.099287 0.863176 0.542834
0.099889 0.863777 0.664871
0.100494 0.864383 0.787659
0.101103 0.864991 0.911082
0.101450 0.865338 0.981464
0.102650 0.982664 0.074603
0.103216 0.983230 0.189360
0.103798 0.983812 0.307515
0.104389 0.984403 0.427421
0.104986 0.985000 0.548533
0.105588 0.985602 0.670569
0.106193 0.986207 0.793358
0.106802 0.986816 0.916781
0.107149 0.987162 0.987162
0.173795 0.002634 0.030363
0.174361 0.003200 0.145120
0.174943 0.003782 0.263275
0.175534 0.004374 0.383181
0.176131 0.004971 0.504292
0.176733 0.005572 0.626329
0.177338 0.006177 0.749118
0.177947 0.006786 0.872541
0.178294 0.007133 0.942922
0.178631 0.106016 0.035199
0.179197 0.106582 0.149956
0.179779 0.107164 0.268111
0.180370 0.107755 0.388017
0.180967 0.108352 0.509129
0.181569 0.108954 0.631165
0.182174 0.109559 0.753954
0.182783 0.110167 0.877377
0.183130 0.110514 0.947758
0.184355 0.228379 0.040923
0.184921 0.228945 0.155680
0.185503 0.229527 0.273835
0.186094 0.230118 0.393741
0.186691 0.230715 0.514853
0.187293 0.231317 0.636889
0.187898 0.231922 0.759678
0.188507 0.232531 0.883101
0.188854 0.232878 0.953482
0.190183 0.352956 0.046751
0.190748 0.353522 0.161508
0.191331 0.354104 0.279663
0.191922 0.354695 0.399568
0.192519 0.355292 0.520680
0.193121 0.355894 0.642717
0.193726 0.356499 0.765506
0.194334 0.357108 0.888929
0.194681 0.357455 0.959310
0.196077 0.478957 0.052645
0.196643 0.479523 0.167402
0.197225 0.480105 0.285557
0.197816 0.480696 0.405462
0.198413 0.481293 0.526574
0.199015 0.481895 0.648611
0.199620 0.482500 0.771400
0.200228 0.483109 0.894823
0.200575 0.483456 0.965204
0.202020 0.606015 0.058589
0.202586 0.606581 0.173346
0.203169 0.607163 0.291500
0.203760 0.607755 0.411406
0.204357 0.608352 0.532518
0.204958 0.608953 0.654555
0.205564 0.609558 0.777343
0.206172 0.610167 0.900766
0.206519 0.610514 0.971148
0.208004 0.733917 0.064572
0.208569 0.734483 0.179329
0.209152 0.735066 0.297483
0.209743 0.735657 0.417389
0.210340 0.736254 0.538501
0.210941 0.736855 0.660538
0.211547 0.737461 0.783327
0.212155 0.738069 0.906749
0.212502 0.738416 0.977131
0.214020 0.862523 0.070588
0.214585 0.863088 0.185345
0.215168 0.863671 0.303499
0.215759 0.864262 0.423405
0.216356 0.864859 0.544517
0.216957 0.865461 0.666554
0.217563 0.866066 0.789343
0.218171 0.866674 0.912765
0.218518 0.867021 0.983147
0.219718 0.984347 0.076287
0.220284 0.984913 0.191044
0.220867 0.985495 0.309198
0.221458 0.986086 0.429104
0.222055 0.986683 0.550216
0.222656 0.987285 0.672253
0.223262 0.987890 0.795041
0.223870 0.988499 0.918464
0.224217 0.988846 0.988846
0.293606 0.004357 0.032086
0.294171 0.004923 0.146843
0.294754 0.005505 0.264998
0.295345 0.006096 0.384903
0.295942 0.006693 0.506015
0.296544 0.007295 0.628052
0.297149 0.007900 0.750841
0.297757 0.008509 0.874264
0.298104 0.008856 0.944645
0.298442 0.107738 0.036922
0.299007 0.108304 0.151679
0.299590 0.108887 0.269834
0.300181 0.109478 0.389739
0.300778 0.110075 0.510851
0.301380 0.110676 0.632888
0.301985 0.111282 0.755677
0.302593 0.111890 0.879100
0.302940 0.112237 0.949481
0.304166 0.230102 0.042646
0.304731 0.230667 0.157403
0.305314 0.231250 0.275558
0.305905 0.231841 0.395463
0.306502 0.232438 0.516575
0.307104 0.233040 0.638612
0.307709 0.233645 0.761401
0.308317 0.234253 0.884824
0.308664 0.234600 0.955205
0.309993 0.354679 0.048473
0.310559 0.355245 0.163230
0.311142 0.355827 0.281385
0.311733 0.356418 0.401291
0.312330 0.357015 0.522403
0.312931 0.357617 0.644440
0.313537 0.358222 0.767228
0.314145 0.358830 0.890651
0.314492 0.359177 0.961033
0.315888 0.480680 0.054368
0.316453 0.481245 0.169125
0.317036 0.481828 0.287279
0.317627 0.482419 0.407185
0.318224 0.483016 0.528297
0.318825 0.483617 0.650334
0.319431 0.484223 0.773123
0.320039 0.484831 0.896545
0.320386 0.485178 0.966927
0.321831 0.607738 0.060311
0.322397 0.608304 0.175068
0.322979 0.608886 0.293223
0.323570 0.609477 0.413129
0.324167 0.610074 0.534241
0.324769 0.610676 0.656277
0.325374 0.611281 0.779066
0.325983 0.611890 0.902489
0.326330 0.612237 0.972870
0.327814 0.735640 0.066294
0.328380 0.736206 0.181051
0.328962 0.736788 0.299206
0.329554 0.737379 0.419112
0.330151 0.737976 0.540224
0.330752 0.738578 0.662261
0.331358 0.739183 0.785049
0.331966 0.739792 0.908472
0.332313 0.740139 0.978854
0.333830 0.864245 0.072310
0.334396 0.864811 0.187067
0.334978 0.865394 0.305222
0.335570 0.865985 0.425128
0.336167 0.866582 0.546240
0.336768 0.867183 0.668277
0.337374 0.867789 0.791065
0.337982 0.868397 0.914488
0.338329 0.868744 0.984870
0.339529 0.986070 0.078009
0.340095 0.986635 0.192766
0.340677 0.987218 0.310921
0.341268 0.987809 0.430827
0.341865 0.988406 0.551938
0.342467 0.989008 0.673975
0.343072 0.989613 0.796764
0.343681 0.990221 0.920187
0.344028 0.990568 0.990568
0.415002 0.006102 0.033831
0.415568 0.006668 0.148588
0.416151 0.007251 0.266743
0.416742 0.007842 0.386649
0.417339 0.008439 0.507761
0.417940 0.009040 0.629797
0.418546 0.009646 0.752586
0.419154 0.010254 0.876009
0.419501 0.010601 0.946390
0.419838 0.109484 0.038667
0.420404 0.110050 0.153424
0.420987 0.110632 0.271579
0.421578 0.111223 0.391485
0.422175 0.111820 0.512597
0.422776 0.112422 0.634633
0.423382 0.113027 0.757422
0.423990 0.113636 0.880845
0.424337 0.113983 0.951227
0.425562 0.231847 0.044391
0.426128 0.232413 0.159148
0.426711 0.232995 0.277303
0.427302 0.233586 0.397209
0.427899 0.234183 0.518321
0.428500 0.234785 0.640357
0.429106 0.235390 0.763146
0.429714 0.235999 0.886569
0.430061 0.236346 0.956951
0.431390 0.356424 0.050219
0.431956 0.356990 0.164976
0.432538 0.357572 0.283131
0.433129 0.358164 0.403036
0.433726 0.358761 0.524148
0.434328 0.359362 0.646185
0.434933 0.359967 0.768974
0.435542 0.360576 0.892397
0.435889 0.360923 0.962778
0.437284 0.482425 0.056113
0.437850 0.482991 0.170870
0.438432 0.483573 0.289025
0.439024 0.484164 0.408930
0.439621 0.484761 0.530042
0.440222 0.485363 0.652079
0.440827 0.485968 0.774868
0.441436 0.486577 0.898291
0.441783 0.486924 0.968672
0.443228 0.609483 0.062057
0.443794 0.610049 0.176814
0.444376 0.610632 0.294968
0.444967 0.611223 0.414874
0.445564 0.611820 0.535986
0.446166 0.612421 0.658023
0.446771 0.613027 0.780812
0.447380 0.613635 0.904234
0.447727 0.613982 0.974616
0.449211 0.737386 0.068040
0.449777 0.737951 0.182797
0.450359 0.738534 0.300952
0.450950 0.739125 0.420857
0.451547 0.739722 0.541969
0.452149 0.740323 0.664006
0.452754 0.740929 0.786795
0.453363 0.741537 0.910218
0.453710 0.741884 0.980599
0.455227 0.865991 0.074056
0.455793 0.866557 0.188813
0.456375 0.867139 0.306968
0.456966 0.867730 0.426873
0.457563 0.868327 0.547985
0.458165 0.868929 0.670022
0.458770 0.869534 0.792811
0.459379 0.870143 0.916234
0.459726 0.870489 0.986615
0.460926 0.987815 0.079755
0.461492 0.988381 0.194512
0.462074 0.988963 0.312666
0.462665 0.989554 0.432572
0.463262 0.990152 0.553684
0.463864 0.990753 0.675721
0.464469 0.991358 0.798510
0.465077 0.991967 0.921932
0.465424 0.992314 0.992314
0.537530 0.007864 0.035593
0.538096 0.008430 0.150350
0.538678 0.009012 0.268505
0.539270 0.009603 0.388410
0.539867 0.010200 0.509522
0.540468 0.010802 0.631559
0.541074 0.011407 0.754348
0.541682 0.012016 0.877771
0.542029 0.012363 0.948152
0.542366 0.111246 0.040429
0.542932 0.111811 0.155186
0.543515 0.112394 0.273341
0.544106 0.112985 0.393246
0.544703 0.113582 0.514358
0.545304 0.114184 0.636395
0.545910 0.114789 0.759184
0.546518 0.115397 0.882607
0.546865 0.115744 0.952988
0.548090 0.233609 0.046153
0.548656 0.234175 0.160910
0.549239 0.234757 0.279065
0.549830 0.235348 0.398970
0.550427 0.235945 0.520082
0.551028 0.236547 0.642119
0.551634 0.237152 0.764908
0.552242 0.237760 0.888331
0.552589 0.238107 0.958712
0.553918 0.358186 0.051981
0.554484 0.358752 0.166738
0.555066 0.359334 0.284892
0.555657 0.359925 0.404798
0.556254 0.360522 0.525910
0.556856 0.361124 0.647947
0.557461 0.361729 0.770736
0.558070 0.362338 0.894158
0.558417 0.362685 0.964540
0.559812 0.484187 0.057875
0.560378 0.484752 0.172632
0.560960 0.485335 0.290787
0.561551 0.485926 0.410692
0.562148 0.486523 0.531804
0.562750 0.487125 0.653841
0.563355 0.487730 0.776630
0.563964 0.488338 0.900053
0.564311 0.488685 0.970434
0.565756 0.611245 0.063818
0.566321 0.611811 0.178575
0.566904 0.612393 0.296730
0.567495 0.612984 0.416636
0.568092 0.613581 0.537748
0.568694 0.614183 0.659785
0.569299 0.614788 0.782573
0.569907 0.615397 0.905996
0.570254 0.615744 0.976378
0.571739 0.739147 0.069802
0.572305 0.739713 0.184559
0.572887 0.740295 0.302713
0.573478 0.740887 0.422619
0.574075 0.741484 0.543731
0.574677 0.742085 0.665768
0.575282 0.742690 0.788556
0.575891 0.743299 0.911979
0.576237 0.743646 0.982361
0.577755 0.867753 0.075818
0.578321 0.868318 0.190575
0.578903 0.868901 0.308729
0.579494 0.869492 0.428635
0.580091 0.870089 0.549747
0.580693 0.870690 0.671784
0.581298 0.871296 0.794572
0.581907 0.871904 0.917995
0.582253 0.872251 0.988377
0.583454 0.989577 0.081516
0.584019 0.990143 0.196273
0.584602 0.990725 0.314428
0.585193 0.991316 0.434334
0.585790 0.991913 0.555446
0.586392 0.992515 0.677483
0.586997 0.993120 0.800271
0.587605 0.993729 0.923694
0.587952 0.994076 0.994076
0.660941 0.009638 0.037367
0.661507 0.010204 0.152124
0.662089 0.010787 0.270279
0.662680 0.011378 0.390185
0.663277 0.011975 0.511297
0.663879 0.012576 0.633334
0.664484 0.013182 0.756122
0.665093 0.013790 0.879545
0.665439 0.014137 0.949927
0.665777 0.113020 0.042203
0.666343 0.113586 0.156961
0.666925 0.114168 0.275115
0.667516 0.114759 0.395021
0.668113 0.115356 0.516133
0.668715 0.115958 0.638170
0.669320 0.116563 0.760958
0.669929 0.117172 0.884381
0.670276 0.117519 0.954763
0.671501 0.235383 0.047927
0.672067 0.235949 0.162685
0.672649 0.236531 0.280839
0.673240 0.237122 0.400745
0.673837 0.237720 0.521857
0.674439 0.238321 0.643894
0.675044 0.238926 0.766682
0.675653 0.239535 0.890105
0.676000 0.239882 0.960487
0.677328 0.359960 0.053755
0.677894 0.360526 0.168512
0.678477 0.361109 0.286667
0.679068 0.361700 0.406572
0.679665 0.362297 0.527684
0.680266 0.362898 0.649721
0.680872 0.363504 0.772510
0.681480 0.364112 0.895933
0.681827 0.364459 0.966314
0.683223 0.485961 0.059649
0.683788 0.486527 0.174406
0.684371 0.487109 0.292561
0.684962 0.487700 0.412467
0.685559 0.488297 0.533578
0.686161 0.488899 0.655615
0.686766 0.489504 0.778404
0.687374 0.490113 0.901827
0.687721 0.490460 0.972208
0.689166 0.613019 0.065593
0.689732 0.613585 0.180350
0.690314 0.614168 0.298505
0.690906 0.614759 0.418410
0.691503 0.615356 0.539522
0.692104 0.615957 0.661559
0.692710 0.616563 0.784348
0.693318 0.617171 0.907771
0.693665 0.617518 0.978152
0.695149 0.740922 0.071576
0.695715 0.741487 0.186333
0.696298 0.742070 0.304488
0.696889 0.742661 0.424393
0.697486 0.743258 0.545505
0.698087 0.743860 0.667542
0.698693 0.744465 0.790331
0.699301 0.745073 0.913754
0.699648 0.745420 0.984135
0.701165 0.869527 0.077592
0.701731 0.870093 0.192349
0.702314 0.870675 0.310504
0.702905 0.871266 0.430409
0.703502 0.871863 0.551521
0.704103 0.872465 0.673558
0.704709 0.873070 0.796347
0.705317 0.873679 0.919770
0.705664 0.874026 0.990151
0.706864 0.991351 0.083291
0.707430 0.991917 0.198048
0.708012 0.992499 0.316203
0.708603 0.993091 0.436108
0.709201 0.993688 0.557220
0.709802 0.994289 0.679257
0.710407 0.994895 0.802046
0.711016 0.995503 0.925469
0.711363 0.995850 0.995850
0.785077 0.011423 0.039152
0.785642 0.011989 0.153909
0.786225 0.012571 0.272064
0.786816 0.013163 0.391970
0.787413 0.013760 0.513082
0.788015 0.014361 0.635118
0.788620 0.014967 0.757907
0.789228 0.015575 0.881330
0.789575 0.015922 0.951711
0.789913 0.114805 0.043988
0.790478 0.115371 0.158745
0.791061 0.115953 0.276900
0.791652 0.116544 0.396806
0.792249 0.117141 0.517918
0.792851 0.117743 0.639954
0.793456 0.118348 0.762743
0.794064 0.118957 0.886166
0.794411 0.119303 0.956547
0.795637 0.237168 0.049712
0.796202 0.237734 0.164469
0.796785 0.238316 0.282624
0.797376 0.238907 0.402530
0.797973 0.239504 0.523642
0.798575 0.240106 0.645678
0.799180 0.240711 0.768467
0.799788 0.241320 0.891890
0.800135 0.241667 0.962271
0.801464 0.361745 0.055540
0.802030 0.362311 0.170297
0.802612 0.362893 0.288452
0.803204 0.363484 0.408357
0.803801 0.364082 0.529469
0.804402 0.364683 0.651506
0.805008 0.365288 0.774295
0.805616 0.365897 0.897718
0.805963 0.366244 0.968099
0.807358 0.487746 0.061434
0.807924 0.488312 0.176191
0.808507 0.488894 0.294346
0.809098 0.489485 0.414251
0.809695 0.490082 0.535363
0.810296 0.490684 0.657400
0.810902 0.491289 0.780189
0.811510 0.491898 0.903612
0.811857 0.492245 0.973993
0.813302 0.614804 0.067378
0.813868 0.615370 0.182135
0.814450 0.615952 0.300289
0.815041 0.616544 0.420195
0.815638 0.617141 0.541307
0.816240 0.617742 0.663344
0.816845 0.618348 0.786133
0.817454 0.618956 0.909555
0.817801 0.619303 0.979937
0.819285 0.742706 0.073361
0.819851 0.743272 0.188118
0.820433 0.743855 0.306273
0.821024 0.744446 0.426178
0.821622 0.745043 0.547290
0.822223 0.745644 0.669327
0.822828 0.746250 0.792116
0.823437 0.746858 0.915539
0.823784 0.747205 0.985920
0.825301 0.871312 0.079377
0.825867 0.871878 0.194134
0.826449 0.872460 0.312289
0.827040 0.873051 0.432194
0.827638 0.873648 0.553306
0.828239 0.874250 0.675343
0.828844 0.874855 0.798132
0.829453 0.875463 0.921555
0.829800 0.875810 0.991936
0.831000 0.993136 0.085076
0.831566 0.993702 0.199833
0.832148 0.994284 0.317987
0.832739 0.994875 0.437893
0.833336 0.995472 0.559005
0.833938 0.996074 0.681042
0.834543 0.996679 0.803830
0.835152 0.997288 0.927253
0.835499 0.997635 0.997635
0.909829 0.013217 0.040946
0.910394 0.013783 0.155703
0.910977 0.014365 0.273858
0.911568 0.014956 0.393763
0.912165 0.015553 0.514875
0.912767 0.016155 0.636912
0.913372 0.016760 0.759701
0.913980 0.017369 0.883124
0.914327 0.017716 0.953505
0.914665 0.116599 0.045782
0.915230 0.117164 0.160539
0.915813 0.117747 0.278694
0.916404 0.118338 0.398599
0.917001 0.118935 0.519711
0.917603 0.119536 0.641748
0.918208 0.120142 0.764537
0.918816 0.120750 0.887960
0.919163 0.121097 0.958341
0.920389 0.238962 0.051506
0.920954 0.239527 0.166263
0.921537 0.240110 0.284418
0.922128 0.240701 0.404323
0.922725 0.241298 0.525435
0.923327 0.241900 0.647472
0.923932 0.242505 0.770261
0.924540 0.243113 0.893684
0.924887 0.243460 0.964065
0.926216 0.363539 0.057334
0.926782 0.364105 0.172091
0.927364 0.364687 0.290245
0.927956 0.365278 0.410151
0.928553 0.365875 0.531263
0.929154 0.366477 0.653300
0.929760 0.367082 0.776088
0.930368 0.367691 0.899511
0.930715 0.368038 0.969893
0.932110 0.489540 0.063228
0.932676 0.490105 0.177985
0.933259 0.490688 0.296139
0.933850 0.491279 0.416045
0.934447 0.491876 0.537157
0.935048 0.492478 0.659194
0.935654 0.493083 0.781983
0.936262 0.493691 0.905406
0.936609 0.494038 0.975787
0.938054 0.616598 0.069171
0.938620 0.617164 0.183928
0.939202 0.617746 0.302083
0.939793 0.618337 0.421989
0.940390 0.618934 0.543101
0.940992 0.619536 0.665138
0.941597 0.620141 0.787926
0.942206 0.620750 0.911349
0.942553 0.621097 0.981731
0.944037 0.744500 0.075154
0.944603 0.745066 0.189912
0.945185 0.745648 0.308066
0.945776 0.746239 0.427972
0.946374 0.746836 0.549084
0.946975 0.747438 0.671121
0.947580 0.748043 0.793909
0.948189 0.748652 0.917332
0.948536 0.748999 0.987714
0.950053 0.873105 0.081171
0.950619 0.873671 0.195928
0.951201 0.874254 0.314082
0.951792 0.874845 0.433988
0.952390 0.875442 0.555100
0.952991 0.876043 0.677137
0.953596 0.876649 0.799925
0.954205 0.877257 0.923348
0.954552 0.877604 0.993730
0.955752 0.994930 0.086869
0.956318 0.995496 0.201626
0.956900 0.996078 0.319781
0.957491 0.996669 0.439687
0.958088 0.997266 0.560799
0.958690 0.997868 0.682835
0.959295 0.998473 0.805624
0.959904 0.999082 0.929047
0.960251 0.999428 0.999428
