skills/editops-orchestrator/assets/grade/luts/cool_tech_v05.cube
TITLE "cool_tech_v05"
LUT_3D_SIZE 5
DOMAIN_MIN 0.0 0.0 0.0
DOMAIN_MAX 1.0 1.0 1.0
0.000036 0.000036 0.014908
0.000618 0.000618 0.254379
0.001211 0.001211 0.498512
0.001809 0.001809 0.744664
0.002356 0.002356 0.969724
0.005679 0.239577 0.020550
0.006261 0.240159 0.260022
0.006854 0.240752 0.504155
0.007452 0.241350 0.750307
0.007999 0.241897 0.975367
0.011549 0.488764 0.026421
0.012131 0.489346 0.265892
0.012724 0.489939 0.510025
0.013322 0.490537 0.756177
0.013869 0.491084 0.981237
0.017470 0.740107 0.032342
0.018052 0.740689 0.271813
0.018645 0.741282 0.515946
0.019243 0.741880 0.762098
0.019790 0.742427 0.987158
0.023374 0.990743 0.038246
0.023956 0.991325 0.277717
0.024549 0.991918 0.521850
0.025147 0.992516 0.768002
0.025694 0.993063 0.993063
0.215633 0.001571 0.016443
0.216215 0.002153 0.255915
0.216808 0.002746 0.500047
0.217406 0.003344 0.746199
0.217953 0.003891 0.971260
0.221276 0.241112 0.022086
0.221857 0.241694 0.261557
0.222451 0.242287 0.505690
0.223049 0.242885 0.751842
0.223595 0.243432 0.976902
0.227146 0.490300 0.027956
0.227728 0.490881 0.267427
0.228321 0.491475 0.511560
0.228919 0.492073 0.757712
0.229466 0.492619 0.982773
0.233067 0.741643 0.033877
0.233648 0.742224 0.273348
0.234242 0.742818 0.517481
0.234840 0.743416 0.763633
0.235386 0.743962 0.988693
0.238971 0.992278 0.039781
0.239553 0.992860 0.279253
0.240146 0.993453 0.523385
0.240744 0.994051 0.769537
0.241291 0.994598 0.994598
0.460458 0.003315 0.018186
0.461040 0.003896 0.257658
0.461633 0.004490 0.501790
0.462231 0.005088 0.747943
0.462778 0.005634 0.973003
0.466101 0.242855 0.023829
0.466683 0.243437 0.263301
0.467276 0.244030 0.507433
0.467874 0.244628 0.753585
0.468420 0.245175 0.978646
0.471971 0.492043 0.029699
0.472553 0.492625 0.269171
0.473146 0.493218 0.513303
0.473744 0.493816 0.759456
0.474291 0.494363 0.984516
0.477892 0.743386 0.035620
0.478474 0.743968 0.275092
0.479067 0.744561 0.519224
0.479665 0.745159 0.765376
0.480212 0.745706 0.990437
0.483796 0.994021 0.041524
0.484378 0.994603 0.280996
0.484971 0.995196 0.525128
0.485569 0.995794 0.771281
0.486116 0.996341 0.996341
0.707503 0.005074 0.019945
0.708084 0.005655 0.259417
0.708678 0.006249 0.503549
0.709276 0.006847 0.749702
0.709822 0.007393 0.974762
0.713145 0.244614 0.025588
0.713727 0.245196 0.265060
0.714320 0.245789 0.509192
0.714918 0.246387 0.755344
0.715465 0.246934 0.980405
0.719016 0.493802 0.031458
0.719597 0.494384 0.270930
0.720190 0.494977 0.515062
0.720789 0.495575 0.761215
0.721335 0.496122 0.986275
0.724936 0.745145 0.037379
0.725518 0.745727 0.276851
0.726111 0.746320 0.520983
0.726709 0.746918 0.767135
0.727256 0.747465 0.992196
0.730841 0.995780 0.043283
0.731422 0.996362 0.282755
0.732016 0.996955 0.526888
0.732614 0.997553 0.773040
0.733160 0.998100 0.998100
0.955969 0.006843 0.021714
0.956551 0.007425 0.261186
0.957144 0.008018 0.505319
0.957742 0.008616 0.751471
0.958289 0.009163 0.976531
0.961612 0.246384 0.027357
0.962194 0.246965 0.266829
0.962787 0.247559 0.510961
0.963385 0.248157 0.757114
0.963932 0.248703 0.982174
0.967482 0.495571 0.033227
0.968064 0.496153 0.272699
0.968657 0.496746 0.516832
0.969255 0.497344 0.762984
0.969802 0.497891 0.988044
0.973403 0.746914 0.039148
0.973985 0.747496 0.278620
0.974578 0.748089 0.522752
0.975176 0.748687 0.768905
0.975723 0.749234 0.993965
0.979307 0.997549 0.045052
0.979889 0.998131 0.284524
0.980482 0.998724 0.528657
0.981080 0.999322 0.774809
0.981627 0.999869 0.999869
