skills/editops-orchestrator/assets/grade/luts/cool_tech_v18.cube
TITLE "cool_tech_v18"
LUT_3D_SIZE 5
DOMAIN_MIN 0.0 0.0 0.0
DOMAIN_MAX 1.0 1.0 1.0
0.000180 0.000180 0.031548
0.001500 0.001500 0.262655
0.002871 0.002871 0.502761
0.004267 0.004267 0.747182
0.005320 0.005320 0.931636
0.012112 0.221853 0.043480
0.013432 0.223173 0.274587
0.014803 0.224544 0.514693
0.016199 0.225939 0.759114
0.017252 0.226993 0.943568
0.025621 0.472801 0.056988
0.026940 0.474120 0.288095
0.028311 0.475491 0.528201
0.029707 0.476887 0.772622
0.030760 0.477940 0.957076
0.039402 0.728826 0.070770
0.040722 0.730146 0.301877
0.042093 0.731517 0.541983
0.043489 0.732913 0.786404
0.044542 0.733966 0.970858
0.052879 0.979195 0.084247
0.054199 0.980515 0.315354
0.055570 0.981886 0.555460
0.056966 0.983281 0.799881
0.058019 0.984335 0.984335
0.161639 0.002865 0.034233
0.162959 0.004185 0.265340
0.164330 0.005556 0.505446
0.165726 0.006952 0.749867
0.166779 0.008005 0.934321
0.173572 0.224538 0.046165
0.174891 0.225858 0.277272
0.176262 0.227229 0.517378
0.177658 0.228625 0.761799
0.178712 0.229678 0.946253
0.187080 0.475486 0.059673
0.188400 0.476805 0.290780
0.189771 0.478176 0.530886
0.191166 0.479572 0.775307
0.192220 0.480625 0.959761
0.200861 0.731511 0.073455
0.202181 0.732831 0.304562
0.203552 0.734202 0.544668
0.204948 0.735598 0.789089
0.206001 0.736651 0.973543
0.214338 0.981880 0.086932
0.215658 0.983200 0.318039
0.217029 0.984571 0.558145
0.218425 0.985967 0.802566
0.219478 0.987020 0.987020
0.401545 0.006855 0.038222
0.402865 0.008175 0.269330
0.404236 0.009546 0.509436
0.405632 0.010941 0.753856
0.406685 0.011995 0.938311
0.413478 0.228528 0.050155
0.414797 0.229847 0.281262
0.416168 0.231218 0.521368
0.417564 0.232614 0.765789
0.418617 0.233668 0.950243
0.426986 0.479475 0.063663
0.428305 0.480795 0.294770
0.429676 0.482166 0.534876
0.431072 0.483562 0.779297
0.432126 0.484615 0.963751
0.440767 0.735501 0.077444
0.442087 0.736821 0.308552
0.443458 0.738192 0.548657
0.444854 0.739587 0.793078
0.445907 0.740641 0.977533
0.454244 0.985870 0.090921
0.455564 0.987189 0.322029
0.456935 0.988560 0.562134
0.458331 0.989956 0.806555
0.459384 0.991009 0.991009
0.647017 0.010937 0.042305
0.648337 0.012257 0.273412
0.649708 0.013628 0.513518
0.651104 0.015024 0.757939
0.652157 0.016077 0.942393
0.658950 0.232610 0.054237
0.660269 0.233930 0.285344
0.661640 0.235301 0.525450
0.663036 0.236696 0.769871
0.664090 0.237750 0.954325
0.672458 0.483558 0.067745
0.673778 0.484877 0.298852
0.675149 0.486248 0.538958
0.676544 0.487644 0.783379
0.677598 0.488697 0.967833
0.686239 0.739583 0.081527
0.687559 0.740903 0.312634
0.688930 0.742274 0.552740
0.690326 0.743670 0.797161
0.691379 0.744723 0.981615
0.699716 0.989952 0.095004
0.701036 0.991272 0.326111
0.702407 0.992643 0.566217
0.703803 0.994038 0.810638
0.704856 0.995092 0.995092
0.895928 0.015077 0.046444
0.897248 0.016396 0.277551
0.898619 0.017767 0.517657
0.900015 0.019163 0.762078
0.901068 0.020216 0.946532
0.907860 0.236749 0.058376
0.909180 0.238069 0.289484
0.910551 0.239440 0.529589
0.911947 0.240836 0.774010
0.913000 0.241889 0.958465
0.921368 0.487697 0.071885
0.922688 0.489017 0.302992
0.924059 0.490388 0.543098
0.925455 0.491783 0.787519
0.926508 0.492837 0.971973
0.935150 0.743723 0.085666
0.936470 0.745042 0.316773
0.937841 0.746413 0.556879
0.939237 0.747809 0.801300
0.940290 0.748862 0.985754
0.948627 0.994091 0.099143
0.949947 0.995411 0.330250
0.951318 0.996782 0.570356
0.952714 0.998178 0.814777
0.953767 0.999231 0.999231
