skills/editops-orchestrator/assets/grade/luts/cool_tech_v02.cube
TITLE "cool_tech_v02"
LUT_3D_SIZE 5
DOMAIN_MIN 0.0 0.0 0.0
DOMAIN_MAX 1.0 1.0 1.0
0.000018 0.000018 0.010778
0.000431 0.000431 0.252419
0.000850 0.000850 0.497512
0.001271 0.001271 0.744057
0.001672 0.001672 0.978514
0.004082 0.243764 0.014842
0.004495 0.244177 0.256483
0.004914 0.244596 0.501576
0.005335 0.245017 0.748121
0.005736 0.245417 0.982578
0.008229 0.492487 0.018989
0.008642 0.492900 0.260629
0.009061 0.493319 0.505723
0.009482 0.493740 0.752268
0.009883 0.494141 0.986725
0.012401 0.742726 0.023161
0.012814 0.743138 0.264801
0.013233 0.743557 0.509895
0.013654 0.743979 0.756440
0.014055 0.744379 0.990897
0.016581 0.993423 0.027341
0.016994 0.993836 0.268981
0.017413 0.994255 0.514074
0.017834 0.994676 0.760620
0.018235 0.995077 0.995077
0.228548 0.001164 0.011924
0.228960 0.001577 0.253565
0.229379 0.001996 0.498658
0.229801 0.002417 0.745203
0.230201 0.002818 0.979660
0.232611 0.244910 0.015988
0.233024 0.245323 0.257629
0.233443 0.245742 0.502722
0.233864 0.246163 0.749267
0.234265 0.246564 0.983724
0.236758 0.493633 0.020135
0.237171 0.494046 0.261775
0.237590 0.494465 0.506869
0.238011 0.494886 0.753414
0.238412 0.495287 0.987871
0.240930 0.743872 0.024307
0.241343 0.744284 0.265948
0.241762 0.744703 0.511041
0.242183 0.745125 0.757586
0.242584 0.745525 0.992043
0.245110 0.994569 0.028487
0.245523 0.994982 0.270127
0.245942 0.995401 0.515220
0.246363 0.995822 0.761766
0.246764 0.996223 0.996223
0.474255 0.002397 0.013157
0.474668 0.002810 0.254797
0.475087 0.003228 0.499890
0.475508 0.003650 0.746435
0.475909 0.004050 0.980892
0.478319 0.246142 0.017220
0.478732 0.246555 0.258861
0.479151 0.246974 0.503954
0.479572 0.247395 0.750499
0.479973 0.247796 0.984956
0.482466 0.494866 0.021367
0.482879 0.495279 0.263008
0.483298 0.495697 0.508101
0.483719 0.496119 0.754646
0.484119 0.496519 0.989103
0.486638 0.745104 0.025539
0.487051 0.745517 0.267180
0.487470 0.745935 0.512273
0.487891 0.746357 0.758818
0.488292 0.746757 0.993275
0.490818 0.995801 0.029719
0.491231 0.996214 0.271359
0.491649 0.996633 0.516453
0.492071 0.997054 0.762998
0.492471 0.997455 0.997455
0.721502 0.003637 0.014397
0.721915 0.004049 0.256037
0.722334 0.004468 0.501130
0.722755 0.004889 0.747675
0.723156 0.005290 0.982132
0.725566 0.247382 0.018460
0.725979 0.247795 0.260101
0.726398 0.248214 0.505194
0.726819 0.248635 0.751739
0.727219 0.249036 0.986196
0.729713 0.496106 0.022607
0.730126 0.496518 0.264247
0.730544 0.496937 0.509341
0.730966 0.497359 0.755886
0.731366 0.497759 0.990343
0.733885 0.746344 0.026779
0.734298 0.746757 0.268420
0.734716 0.747175 0.513513
0.735138 0.747597 0.760058
0.735538 0.747997 0.994515
0.738065 0.997041 0.030959
0.738477 0.997454 0.272599
0.738896 0.997873 0.517693
0.739318 0.998294 0.764238
0.739718 0.998695 0.998695
0.969742 0.004881 0.015641
0.970155 0.005294 0.257282
0.970574 0.005713 0.502375
0.970995 0.006134 0.748920
0.971396 0.006535 0.983377
0.973806 0.248627 0.019705
0.974219 0.249040 0.261346
0.974638 0.249459 0.506439
0.975059 0.249880 0.752984
0.975460 0.250280 0.987441
0.977953 0.497350 0.023852
0.978366 0.497763 0.265492
0.978785 0.498182 0.510586
0.979206 0.498603 0.757131
0.979607 0.499004 0.991588
0.982125 0.747589 0.028024
0.982538 0.748001 0.269664
0.982957 0.748420 0.514758
0.983378 0.748842 0.761303
0.983779 0.749242 0.995760
0.986305 0.998286 0.032204
0.986718 0.998699 0.273844
0.987137 0.999118 0.518937
0.987558 0.999539 0.765483
0.987958 0.999940 0.999940
