skills/editops-orchestrator/assets/grade/luts/cool_tech_v11.cube
TITLE "cool_tech_v11"
LUT_3D_SIZE 5
DOMAIN_MIN 0.0 0.0 0.0
DOMAIN_MAX 1.0 1.0 1.0
0.000089 0.000089 0.022818
0.001010 0.001010 0.258244
0.001958 0.001958 0.500493
0.002917 0.002917 0.745853
0.003724 0.003724 0.952145
0.008746 0.231311 0.031474
0.009667 0.232232 0.266901
0.010614 0.233180 0.509150
0.011574 0.234139 0.754510
0.012381 0.234946 0.960802
0.018108 0.481362 0.040836
0.019029 0.482283 0.276263
0.019976 0.483231 0.518512
0.020936 0.484190 0.763871
0.021742 0.484997 0.970164
0.027600 0.734888 0.050328
0.028520 0.735809 0.285755
0.029468 0.736756 0.528003
0.030427 0.737716 0.773363
0.031234 0.738523 0.979655
0.036979 0.985400 0.059707
0.037899 0.986320 0.295134
0.038847 0.987268 0.537382
0.039806 0.988227 0.782742
0.040613 0.989034 0.989034
0.190296 0.002263 0.024992
0.191216 0.003184 0.260418
0.192164 0.004132 0.502667
0.193124 0.005091 0.748027
0.193930 0.005898 0.954319
0.198952 0.233486 0.033649
0.199873 0.234406 0.269075
0.200821 0.235354 0.511324
0.201780 0.236313 0.756684
0.202587 0.237120 0.962976
0.208314 0.483536 0.043010
0.209235 0.484457 0.278437
0.210182 0.485405 0.520686
0.211142 0.486364 0.766045
0.211949 0.487171 0.972338
0.217806 0.737062 0.052502
0.218727 0.737983 0.287929
0.219674 0.738930 0.530177
0.220634 0.739890 0.775537
0.221441 0.740697 0.981829
0.227185 0.987574 0.061881
0.228106 0.988494 0.297308
0.229053 0.989442 0.539556
0.230013 0.990402 0.784916
0.230820 0.991208 0.991208
0.433079 0.005038 0.027767
0.434000 0.005959 0.263193
0.434948 0.006907 0.505442
0.435907 0.007866 0.750802
0.436714 0.008673 0.957094
0.441736 0.236261 0.036423
0.442657 0.237181 0.271850
0.443604 0.238129 0.514099
0.444564 0.239088 0.759459
0.445371 0.239895 0.965751
0.451098 0.486311 0.045785
0.452019 0.487232 0.281212
0.452966 0.488180 0.523461
0.453926 0.489139 0.768820
0.454733 0.489946 0.975113
0.460590 0.739837 0.055277
0.461510 0.740758 0.290704
0.462458 0.741705 0.532952
0.463418 0.742665 0.778312
0.464224 0.743472 0.984604
0.469969 0.990349 0.064656
0.470889 0.991269 0.300083
0.471837 0.992217 0.542331
0.472796 0.993177 0.787691
0.473603 0.993983 0.993983
0.679542 0.007855 0.030584
0.680462 0.008776 0.266010
0.681410 0.009724 0.508259
0.682370 0.010683 0.753619
0.683176 0.011490 0.959911
0.688198 0.239078 0.039241
0.689119 0.239998 0.274667
0.690067 0.240946 0.516916
0.691026 0.241905 0.762276
0.691833 0.242712 0.968568
0.697560 0.489128 0.048602
0.698481 0.490049 0.284029
0.699428 0.490997 0.526278
0.700388 0.491956 0.771637
0.701195 0.492763 0.977930
0.707052 0.742654 0.058094
0.707973 0.743575 0.293521
0.708920 0.744522 0.535769
0.709880 0.745482 0.781129
0.710687 0.746289 0.987421
0.716431 0.993166 0.067473
0.717352 0.994086 0.302900
0.718299 0.995034 0.545148
0.719259 0.995994 0.790508
0.720066 0.996800 0.996800
0.928324 0.010699 0.033427
0.929245 0.011620 0.268854
0.930192 0.012567 0.511103
0.931152 0.013527 0.756463
0.931959 0.014334 0.962755
0.936981 0.241921 0.042084
0.937901 0.242842 0.277511
0.938849 0.243789 0.519759
0.939809 0.244749 0.765119
0.940615 0.245556 0.971411
0.946342 0.491972 0.051446
0.947263 0.492893 0.286873
0.948211 0.493840 0.529121
0.949170 0.494800 0.774481
0.949977 0.495607 0.980773
0.955834 0.745498 0.060938
0.956755 0.746418 0.296364
0.957702 0.747366 0.538613
0.958662 0.748326 0.783973
0.959469 0.749132 0.990265
0.965213 0.996009 0.070317
0.966134 0.996930 0.305743
0.967081 0.997877 0.547992
0.968041 0.998837 0.793352
0.968848 0.999644 0.999644
