skills/editops-orchestrator/assets/grade/luts/cool_tech_v02.cube
TITLE "cool_tech_v02"
LUT_3D_SIZE 17
DOMAIN_MIN 0.0 0.0 0.0
DOMAIN_MAX 1.0 1.0 1.0
0.000018 0.000018 0.010778
0.000120 0.000120 0.070449
0.000224 0.000224 0.130809
0.000327 0.000327 0.191501
0.000431 0.000431 0.252419
0.000536 0.000536 0.313507
0.000640 0.000640 0.374732
0.000745 0.000745 0.436072
0.000850 0.000850 0.497512
0.000955 0.000955 0.559039
0.001061 0.001061 0.620643
0.001166 0.001166 0.682318
0.001271 0.001271 0.744057
0.001377 0.001377 0.805855
0.001483 0.001483 0.867707
0.001588 0.001588 0.929609
0.001672 0.001672 0.978514
0.001005 0.059216 0.011765
0.001107 0.059318 0.071436
0.001210 0.059421 0.131796
0.001314 0.059525 0.192488
0.001418 0.059629 0.253406
0.001523 0.059733 0.314493
0.001627 0.059838 0.375719
0.001732 0.059943 0.437059
0.001837 0.060048 0.498499
0.001942 0.060153 0.560026
0.002047 0.060258 0.621630
0.002153 0.060363 0.683305
0.002258 0.060469 0.745044
0.002364 0.060575 0.806842
0.002470 0.060680 0.868693
0.002575 0.060786 0.930596
0.002659 0.060870 0.979501
0.002025 0.120400 0.012786
0.002127 0.120502 0.072456
0.002231 0.120606 0.132816
0.002334 0.120709 0.193508
0.002438 0.120813 0.254426
0.002543 0.120918 0.315514
0.002647 0.121022 0.376739
0.002752 0.121127 0.438079
0.002857 0.121232 0.499519
0.002962 0.121337 0.561046
0.003068 0.121443 0.622650
0.003173 0.121548 0.684325
0.003278 0.121653 0.746064
0.003384 0.121759 0.807862
0.003490 0.121865 0.869714
0.003596 0.121970 0.931616
0.003679 0.122054 0.980521
0.003052 0.181960 0.013812
0.003154 0.182062 0.073482
0.003257 0.182165 0.133842
0.003361 0.182269 0.194535
0.003465 0.182373 0.255452
0.003569 0.182477 0.316540
0.003674 0.182582 0.377765
0.003779 0.182687 0.439106
0.003884 0.182792 0.500545
0.003989 0.182897 0.562072
0.004094 0.183002 0.623677
0.004199 0.183108 0.685352
0.004305 0.183213 0.747090
0.004410 0.183319 0.808888
0.004516 0.183424 0.870740
0.004622 0.183530 0.932642
0.004705 0.183614 0.981548
0.004082 0.243764 0.014842
0.004184 0.243866 0.074513
0.004287 0.243969 0.134873
0.004391 0.244073 0.195565
0.004495 0.244177 0.256483
0.004600 0.244281 0.317570
0.004704 0.244386 0.378796
0.004809 0.244491 0.440136
0.004914 0.244596 0.501576
0.005019 0.244701 0.563103
0.005124 0.244806 0.624707
0.005230 0.244911 0.686382
0.005335 0.245017 0.748121
0.005441 0.245122 0.809918
0.005547 0.245228 0.871770
0.005652 0.245334 0.933673
0.005736 0.245417 0.982578
0.005116 0.305750 0.015876
0.005218 0.305851 0.075546
0.005321 0.305955 0.135906
0.005425 0.306058 0.196599
0.005529 0.306162 0.257516
0.005633 0.306267 0.318604
0.005738 0.306371 0.379829
0.005842 0.306476 0.441169
0.005947 0.306581 0.502609
0.006053 0.306686 0.564136
0.006158 0.306792 0.625741
0.006263 0.306897 0.687416
0.006369 0.307003 0.749154
0.006474 0.307108 0.810952
0.006580 0.307214 0.872804
0.006686 0.307320 0.934706
0.006769 0.307403 0.983611
0.006152 0.367880 0.016912
0.006254 0.367982 0.076582
0.006357 0.368085 0.136942
0.006460 0.368189 0.197634
0.006564 0.368293 0.258552
0.006669 0.368398 0.319640
0.006773 0.368502 0.380865
0.006878 0.368607 0.442205
0.006983 0.368712 0.503645
0.007088 0.368817 0.565172
0.007194 0.368922 0.626777
0.007299 0.369028 0.688451
0.007405 0.369133 0.750190
0.007510 0.369239 0.811988
0.007616 0.369345 0.873840
0.007722 0.369450 0.935742
0.007805 0.369534 0.984647
0.007189 0.430132 0.017950
0.007291 0.430234 0.077620
0.007395 0.430337 0.137980
0.007498 0.430441 0.198672
0.007602 0.430545 0.259590
0.007707 0.430649 0.320678
0.007811 0.430754 0.381903
0.007916 0.430859 0.443243
0.008021 0.430964 0.504683
0.008126 0.431069 0.566210
0.008232 0.431174 0.627814
0.008337 0.431280 0.689489
0.008442 0.431385 0.751228
0.008548 0.431491 0.813026
0.008654 0.431596 0.874878
0.008759 0.431702 0.936780
0.008843 0.431786 0.985685
0.008229 0.492487 0.018989
0.008331 0.492589 0.078660
0.008434 0.492693 0.139019
0.008538 0.492796 0.199712
0.008642 0.492900 0.260629
0.008746 0.493005 0.321717
0.008851 0.493109 0.382942
0.008956 0.493214 0.444283
0.009061 0.493319 0.505723
0.009166 0.493424 0.567249
0.009271 0.493530 0.628854
0.009377 0.493635 0.690529
0.009482 0.493740 0.752268
0.009588 0.493846 0.814065
0.009693 0.493952 0.875917
0.009799 0.494057 0.937820
0.009883 0.494141 0.986725
0.009270 0.554934 0.020030
0.009372 0.555036 0.079701
0.009475 0.555139 0.140061
0.009579 0.555242 0.200753
0.009683 0.555346 0.261671
0.009788 0.555451 0.322758
0.009892 0.555555 0.383984
0.009997 0.555660 0.445324
0.010102 0.555765 0.506764
0.010207 0.555870 0.568291
0.010312 0.555976 0.629895
0.010418 0.556081 0.691570
0.010523 0.556187 0.753309
0.010629 0.556292 0.815106
0.010734 0.556398 0.876958
0.010840 0.556504 0.938861
0.010924 0.556587 0.987766
0.010313 0.617460 0.021073
0.010415 0.617562 0.080743
0.010518 0.617666 0.141103
0.010622 0.617769 0.201796
0.010726 0.617873 0.262713
0.010830 0.617978 0.323801
0.010935 0.618082 0.385026
0.011039 0.618187 0.446366
0.011144 0.618292 0.507806
0.011250 0.618397 0.569333
0.011355 0.618502 0.630938
0.011460 0.618608 0.692613
0.011566 0.618713 0.754351
0.011671 0.618819 0.816149
0.011777 0.618925 0.878001
0.011883 0.619030 0.939903
0.011966 0.619114 0.988808
0.011356 0.680060 0.022116
0.011458 0.680162 0.081787
0.011561 0.680265 0.142147
0.011665 0.680369 0.202839
0.011769 0.680473 0.263757
0.011874 0.680577 0.324844
0.011978 0.680682 0.386070
0.012083 0.680787 0.447410
0.012188 0.680892 0.508850
0.012293 0.680997 0.570377
0.012398 0.681102 0.631981
0.012504 0.681207 0.693656
0.012609 0.681313 0.755395
0.012715 0.681418 0.817193
0.012821 0.681524 0.879045
0.012926 0.681630 0.940947
0.013010 0.681714 0.989852
0.012401 0.742726 0.023161
0.012503 0.742828 0.082832
0.012606 0.742931 0.143191
0.012710 0.743034 0.203884
0.012814 0.743138 0.264801
0.012918 0.743243 0.325889
0.013023 0.743347 0.387115
0.013128 0.743452 0.448455
0.013233 0.743557 0.509895
0.013338 0.743662 0.571422
0.013443 0.743768 0.633026
0.013549 0.743873 0.694701
0.013654 0.743979 0.756440
0.013760 0.744084 0.818237
0.013865 0.744190 0.880089
0.013971 0.744296 0.941992
0.014055 0.744379 0.990897
0.013447 0.805452 0.024207
0.013549 0.805554 0.083878
0.013652 0.805657 0.144237
0.013756 0.805761 0.204930
0.013860 0.805865 0.265847
0.013964 0.805969 0.326935
0.014069 0.806074 0.388160
0.014174 0.806179 0.449501
0.014279 0.806284 0.510940
0.014384 0.806389 0.572467
0.014489 0.806494 0.634072
0.014594 0.806599 0.695747
0.014700 0.806705 0.757486
0.014806 0.806810 0.819283
0.014911 0.806916 0.881135
0.015017 0.807022 0.943038
0.015101 0.807105 0.991943
0.014494 0.868234 0.025254
0.014596 0.868336 0.084924
0.014699 0.868439 0.145284
0.014803 0.868543 0.205977
0.014907 0.868647 0.266894
0.015011 0.868751 0.327982
0.015116 0.868856 0.389207
0.015220 0.868961 0.450548
0.015325 0.869066 0.511987
0.015431 0.869171 0.573514
0.015536 0.869276 0.635119
0.015641 0.869382 0.696794
0.015747 0.869487 0.758532
0.015852 0.869593 0.820330
0.015958 0.869698 0.882182
0.016064 0.869804 0.944084
0.016147 0.869888 0.992989
0.015541 0.931069 0.026301
0.015643 0.931171 0.085972
0.015746 0.931274 0.146332
0.015850 0.931377 0.207024
0.015954 0.931481 0.267942
0.016059 0.931586 0.329029
0.016163 0.931690 0.390255
0.016268 0.931795 0.451595
0.016373 0.931900 0.513035
0.016478 0.932005 0.574562
0.016583 0.932111 0.636166
0.016689 0.932216 0.697841
0.016794 0.932322 0.759580
0.016900 0.932427 0.821378
0.017006 0.932533 0.883229
0.017111 0.932639 0.945132
0.017195 0.932722 0.994037
0.016581 0.993423 0.027341
0.016683 0.993525 0.087011
0.016786 0.993628 0.147371
0.016890 0.993732 0.208064
0.016994 0.993836 0.268981
0.017098 0.993940 0.330069
0.017203 0.994045 0.391294
0.017308 0.994150 0.452635
0.017413 0.994255 0.514074
0.017518 0.994360 0.575601
0.017623 0.994465 0.637206
0.017728 0.994571 0.698881
0.017834 0.994676 0.760620
0.017940 0.994782 0.822417
0.018045 0.994887 0.884269
0.018151 0.994993 0.946172
0.018235 0.995077 0.995077
0.046372 0.000251 0.011011
0.046474 0.000353 0.070681
0.046578 0.000456 0.131041
0.046681 0.000560 0.191734
0.046785 0.000664 0.252651
0.046890 0.000768 0.313739
0.046994 0.000873 0.374964
0.047099 0.000978 0.436305
0.047204 0.001083 0.497744
0.047309 0.001188 0.559271
0.047415 0.001293 0.620876
0.047520 0.001398 0.682551
0.047625 0.001504 0.744290
0.047731 0.001609 0.806087
0.047837 0.001715 0.867939
0.047942 0.001821 0.929841
0.048026 0.001904 0.978747
0.047359 0.059448 0.011998
0.047461 0.059550 0.071668
0.047564 0.059654 0.132028
0.047668 0.059757 0.192721
0.047772 0.059861 0.253638
0.047877 0.059966 0.314726
0.047981 0.060070 0.375951
0.048086 0.060175 0.437292
0.048191 0.060280 0.498731
0.048296 0.060385 0.560258
0.048401 0.060490 0.621863
0.048507 0.060596 0.683538
0.048612 0.060701 0.745276
0.048718 0.060807 0.807074
0.048824 0.060913 0.868926
0.048929 0.061018 0.930828
0.049013 0.061102 0.979734
0.048379 0.120633 0.013018
0.048481 0.120735 0.072688
0.048585 0.120838 0.133048
0.048688 0.120942 0.193741
0.048792 0.121046 0.254658
0.048897 0.121150 0.315746
0.049001 0.121255 0.376971
0.049106 0.121360 0.438312
0.049211 0.121465 0.499751
0.049316 0.121570 0.561278
0.049422 0.121675 0.622883
0.049527 0.121780 0.684558
0.049632 0.121886 0.746297
0.049738 0.121991 0.808094
0.049844 0.122097 0.869946
0.049950 0.122203 0.931849
0.050033 0.122286 0.980754
0.049406 0.182193 0.014044
0.049508 0.182295 0.073715
0.049611 0.182398 0.134075
0.049715 0.182501 0.194767
0.049819 0.182605 0.255685
0.049923 0.182710 0.316772
0.050028 0.182814 0.377998
0.050133 0.182919 0.439338
0.050238 0.183024 0.500778
0.050343 0.183129 0.562305
0.050448 0.183235 0.623909
0.050553 0.183340 0.685584
0.050659 0.183446 0.747323
0.050764 0.183551 0.809121
0.050870 0.183657 0.870972
0.050976 0.183763 0.932875
0.051059 0.183846 0.981780
0.050436 0.243996 0.015075
0.050538 0.244098 0.074745
0.050641 0.244201 0.135105
0.050745 0.244305 0.195798
0.050849 0.244409 0.256715
0.050954 0.244514 0.317803
0.051058 0.244618 0.379028
0.051163 0.244723 0.440368
0.051268 0.244828 0.501808
0.051373 0.244933 0.563335
0.051478 0.245038 0.624940
0.051584 0.245144 0.686615
0.051689 0.245249 0.748353
0.051795 0.245355 0.810151
0.051901 0.245461 0.872003
0.052006 0.245566 0.933905
0.052090 0.245650 0.982810
0.051470 0.305982 0.016108
0.051572 0.306084 0.075779
0.051675 0.306187 0.136138
0.051779 0.306291 0.196831
0.051883 0.306395 0.257748
0.051987 0.306499 0.318836
0.052092 0.306604 0.380061
0.052196 0.306709 0.441402
0.052301 0.306814 0.502842
0.052407 0.306919 0.564369
0.052512 0.307024 0.625973
0.052617 0.307129 0.687648
0.052723 0.307235 0.749387
0.052828 0.307341 0.811184
0.052934 0.307446 0.873036
0.053040 0.307552 0.934939
0.053123 0.307636 0.983844
0.052506 0.368113 0.017144
0.052608 0.368215 0.076815
0.052711 0.368318 0.137174
0.052814 0.368422 0.197867
0.052918 0.368526 0.258784
0.053023 0.368630 0.319872
0.053127 0.368735 0.381097
0.053232 0.368840 0.442438
0.053337 0.368944 0.503878
0.053442 0.369050 0.565404
0.053548 0.369155 0.627009
0.053653 0.369260 0.688684
0.053759 0.369366 0.750423
0.053864 0.369471 0.812220
0.053970 0.369577 0.874072
0.054076 0.369683 0.935975
0.054159 0.369766 0.984880
0.053543 0.430365 0.018182
0.053645 0.430466 0.077852
0.053749 0.430570 0.138212
0.053852 0.430673 0.198905
0.053956 0.430777 0.259822
0.054061 0.430882 0.320910
0.054165 0.430986 0.382135
0.054270 0.431091 0.443476
0.054375 0.431196 0.504915
0.054480 0.431301 0.566442
0.054586 0.431407 0.628047
0.054691 0.431512 0.689722
0.054796 0.431617 0.751461
0.054902 0.431723 0.813258
0.055008 0.431829 0.875110
0.055114 0.431935 0.937013
0.055197 0.432018 0.985918
0.054583 0.492720 0.019222
0.054685 0.492822 0.078892
0.054788 0.492925 0.139252
0.054892 0.493029 0.199944
0.054996 0.493133 0.260862
0.055100 0.493237 0.321950
0.055205 0.493342 0.383175
0.055310 0.493447 0.444515
0.055415 0.493552 0.505955
0.055520 0.493657 0.567482
0.055625 0.493762 0.629087
0.055731 0.493867 0.690761
0.055836 0.493973 0.752500
0.055942 0.494078 0.814298
0.056047 0.494184 0.876150
0.056153 0.494290 0.938052
0.056237 0.494373 0.986957
0.055624 0.555166 0.020263
0.055726 0.555268 0.079933
0.055829 0.555371 0.140293
0.055933 0.555475 0.200986
0.056037 0.555579 0.261903
0.056142 0.555683 0.322991
0.056246 0.555788 0.384216
0.056351 0.555893 0.445556
0.056456 0.555998 0.506996
0.056561 0.556103 0.568523
0.056666 0.556208 0.630128
0.056772 0.556314 0.691803
0.056877 0.556419 0.753541
0.056983 0.556525 0.815339
0.057088 0.556630 0.877191
0.057194 0.556736 0.939093
0.057278 0.556820 0.987998
0.056667 0.617693 0.021305
0.056769 0.617795 0.080976
0.056872 0.617898 0.141335
0.056976 0.618002 0.202028
0.057080 0.618106 0.262945
0.057184 0.618210 0.324033
0.057289 0.618315 0.385258
0.057393 0.618420 0.446599
0.057498 0.618525 0.508039
0.057604 0.618630 0.569566
0.057709 0.618735 0.631170
0.057814 0.618840 0.692845
0.057920 0.618946 0.754584
0.058025 0.619051 0.816381
0.058131 0.619157 0.878233
0.058237 0.619263 0.940136
0.058320 0.619346 0.989041
0.057710 0.680292 0.022349
0.057812 0.680394 0.082019
0.057916 0.680497 0.142379
0.058019 0.680601 0.203072
0.058123 0.680705 0.263989
0.058228 0.680810 0.325077
0.058332 0.680914 0.386302
0.058437 0.681019 0.447643
0.058542 0.681124 0.509082
0.058647 0.681229 0.570609
0.058752 0.681334 0.632214
0.058858 0.681440 0.693889
0.058963 0.681545 0.755628
0.059069 0.681651 0.817425
0.059175 0.681757 0.879277
0.059280 0.681862 0.941179
0.059364 0.681946 0.990085
0.058755 0.742958 0.023394
0.058857 0.743060 0.083064
0.058960 0.743163 0.143424
0.059064 0.743267 0.204117
0.059168 0.743371 0.265034
0.059272 0.743475 0.326122
0.059377 0.743580 0.387347
0.059482 0.743685 0.448687
0.059587 0.743790 0.510127
0.059692 0.743895 0.571654
0.059797 0.744000 0.633259
0.059903 0.744105 0.694933
0.060008 0.744211 0.756672
0.060114 0.744317 0.818470
0.060219 0.744422 0.880322
0.060325 0.744528 0.942224
0.060409 0.744612 0.991129
0.059801 0.805684 0.024439
0.059903 0.805786 0.084110
0.060006 0.805889 0.144470
0.060110 0.805993 0.205162
0.060214 0.806097 0.266080
0.060318 0.806202 0.327168
0.060423 0.806306 0.388393
0.060528 0.806411 0.449733
0.060633 0.806516 0.511173
0.060738 0.806621 0.572700
0.060843 0.806726 0.634304
0.060948 0.806832 0.695979
0.061054 0.806937 0.757718
0.061160 0.807043 0.819516
0.061265 0.807149 0.881368
0.061371 0.807254 0.943270
0.061455 0.807338 0.992175
0.060848 0.868467 0.025486
0.060950 0.868569 0.085157
0.061053 0.868672 0.145516
0.061157 0.868775 0.206209
0.061261 0.868880 0.267126
0.061365 0.868984 0.328214
0.061470 0.869089 0.389440
0.061574 0.869193 0.450780
0.061679 0.869298 0.512220
0.061785 0.869403 0.573747
0.061890 0.869509 0.635351
0.061995 0.869614 0.697026
0.062101 0.869720 0.758765
0.062206 0.869825 0.820562
0.062312 0.869931 0.882414
0.062418 0.870037 0.944317
0.062501 0.870120 0.993222
0.061895 0.931301 0.026534
0.061997 0.931403 0.086204
0.062100 0.931506 0.146564
0.062204 0.931610 0.207257
0.062308 0.931714 0.268174
0.062413 0.931818 0.329262
0.062517 0.931923 0.390487
0.062622 0.932028 0.451828
0.062727 0.932133 0.513267
0.062832 0.932238 0.574794
0.062937 0.932343 0.636399
0.063043 0.932448 0.698074
0.063148 0.932554 0.759812
0.063254 0.932660 0.821610
0.063360 0.932765 0.883462
0.063465 0.932871 0.945364
0.063549 0.932955 0.994269
0.062935 0.993656 0.027573
0.063037 0.993757 0.087244
0.063140 0.993861 0.147604
0.063244 0.993964 0.208296
0.063348 0.994068 0.269214
0.063452 0.994173 0.330301
0.063557 0.994277 0.391527
0.063662 0.994382 0.452867
0.063767 0.994487 0.514307
0.063872 0.994592 0.575834
0.063977 0.994698 0.637438
0.064082 0.994803 0.699113
0.064188 0.994908 0.760852
0.064294 0.995014 0.822650
0.064399 0.995120 0.884502
0.064505 0.995226 0.946404
0.064589 0.995309 0.995309
0.106733 0.000554 0.011314
0.106835 0.000656 0.070984
0.106938 0.000759 0.131344
0.107042 0.000862 0.192036
0.107146 0.000966 0.252954
0.107250 0.001071 0.314042
0.107355 0.001175 0.375267
0.107459 0.001280 0.436607
0.107564 0.001385 0.498047
0.107670 0.001490 0.559574
0.107775 0.001596 0.621179
0.107880 0.001701 0.682853
0.107986 0.001807 0.744592
0.108091 0.001912 0.806390
0.108197 0.002018 0.868242
0.108303 0.002124 0.930144
0.108386 0.002207 0.979049
0.107720 0.059751 0.012301
0.107822 0.059853 0.071971
0.107925 0.059956 0.132331
0.108029 0.060060 0.193023
0.108133 0.060164 0.253941
0.108237 0.060268 0.315029
0.108342 0.060373 0.376254
0.108446 0.060478 0.437594
0.108551 0.060583 0.499034
0.108657 0.060688 0.560561
0.108762 0.060793 0.622166
0.108867 0.060899 0.683840
0.108973 0.061004 0.745579
0.109078 0.061110 0.807377
0.109184 0.061215 0.869229
0.109290 0.061321 0.931131
0.109373 0.061405 0.980036
0.108740 0.120936 0.013321
0.108842 0.121038 0.072991
0.108945 0.121141 0.133351
0.109049 0.121244 0.194044
0.109153 0.121348 0.254961
0.109257 0.121453 0.316049
0.109362 0.121557 0.377274
0.109467 0.121662 0.438614
0.109571 0.121767 0.500054
0.109677 0.121872 0.561581
0.109782 0.121978 0.623186
0.109887 0.122083 0.684860
0.109993 0.122189 0.746599
0.110098 0.122294 0.808397
0.110204 0.122400 0.870249
0.110310 0.122506 0.932151
0.110393 0.122589 0.981056
0.109766 0.182495 0.014347
0.109868 0.182597 0.074018
0.109971 0.182700 0.134377
0.110075 0.182804 0.195070
0.110179 0.182908 0.255987
0.110283 0.183013 0.317075
0.110388 0.183117 0.378300
0.110493 0.183222 0.439641
0.110598 0.183327 0.501080
0.110703 0.183432 0.562607
0.110808 0.183537 0.624212
0.110914 0.183643 0.685887
0.111019 0.183748 0.747626
0.111125 0.183854 0.809423
0.111230 0.183960 0.871275
0.111336 0.184065 0.933178
0.111420 0.184149 0.982083
0.110797 0.244299 0.015377
0.110899 0.244401 0.075048
0.111002 0.244504 0.135408
0.111105 0.244608 0.196100
0.111209 0.244712 0.257018
0.111314 0.244816 0.318106
0.111418 0.244921 0.379331
0.111523 0.245026 0.440671
0.111628 0.245131 0.502111
0.111733 0.245236 0.563638
0.111839 0.245341 0.625242
0.111944 0.245447 0.686917
0.112050 0.245552 0.748656
0.112155 0.245658 0.810454
0.112261 0.245763 0.872306
0.112367 0.245869 0.934208
0.112450 0.245953 0.983113
0.111830 0.306285 0.016411
0.111932 0.306387 0.076081
0.112035 0.306490 0.136441
0.112139 0.306593 0.197134
0.112243 0.306698 0.258051
0.112347 0.306802 0.319139
0.112452 0.306907 0.380364
0.112557 0.307011 0.441705
0.112662 0.307116 0.503144
0.112767 0.307222 0.564671
0.112872 0.307327 0.626276
0.112978 0.307432 0.687951
0.113083 0.307538 0.749690
0.113189 0.307643 0.811487
0.113294 0.307749 0.873339
0.113400 0.307855 0.935241
0.113484 0.307938 0.984147
0.112866 0.368415 0.017447
0.112968 0.368517 0.077117
0.113071 0.368621 0.137477
0.113175 0.368724 0.198170
0.113279 0.368828 0.259087
0.113383 0.368933 0.320175
0.113488 0.369037 0.381400
0.113593 0.369142 0.442741
0.113698 0.369247 0.504180
0.113803 0.369352 0.565707
0.113908 0.369458 0.627312
0.114013 0.369563 0.688987
0.114119 0.369668 0.750725
0.114224 0.369774 0.812523
0.114330 0.369880 0.874375
0.114436 0.369986 0.936277
0.114519 0.370069 0.985182
0.113904 0.430667 0.018485
0.114006 0.430769 0.078155
0.114109 0.430872 0.138515
0.114213 0.430976 0.199208
0.114317 0.431080 0.260125
0.114421 0.431184 0.321213
0.114526 0.431289 0.382438
0.114631 0.431394 0.443778
0.114735 0.431499 0.505218
0.114841 0.431604 0.566745
0.114946 0.431709 0.628350
0.115051 0.431815 0.690024
0.115157 0.431920 0.751763
0.115262 0.432026 0.813561
0.115368 0.432131 0.875413
0.115474 0.432237 0.937315
0.115557 0.432321 0.986220
0.114943 0.493023 0.019524
0.115045 0.493125 0.079195
0.115149 0.493228 0.139555
0.115252 0.493331 0.200247
0.115356 0.493435 0.261165
0.115461 0.493540 0.322252
0.115565 0.493644 0.383478
0.115670 0.493749 0.444818
0.115775 0.493854 0.506258
0.115880 0.493959 0.567785
0.115986 0.494065 0.629389
0.116091 0.494170 0.691064
0.116196 0.494276 0.752803
0.116302 0.494381 0.814600
0.116408 0.494487 0.876452
0.116513 0.494593 0.938355
0.116597 0.494676 0.987260
0.115985 0.555469 0.020565
0.116087 0.555571 0.080236
0.116190 0.555674 0.140596
0.116293 0.555778 0.201288
0.116397 0.555882 0.262206
0.116502 0.555986 0.323293
0.116606 0.556091 0.384519
0.116711 0.556195 0.445859
0.116816 0.556300 0.507299
0.116921 0.556406 0.568826
0.117027 0.556511 0.630430
0.117132 0.556616 0.692105
0.117238 0.556722 0.753844
0.117343 0.556827 0.815642
0.117449 0.556933 0.877493
0.117555 0.557039 0.939396
0.117638 0.557122 0.988301
0.117027 0.617996 0.021608
0.117129 0.618098 0.081278
0.117232 0.618201 0.141638
0.117336 0.618304 0.202331
0.117440 0.618408 0.263248
0.117544 0.618513 0.324336
0.117649 0.618617 0.385561
0.117754 0.618722 0.446902
0.117859 0.618827 0.508341
0.117964 0.618932 0.569868
0.118069 0.619038 0.631473
0.118174 0.619143 0.693148
0.118280 0.619249 0.754887
0.118386 0.619354 0.816684
0.118491 0.619460 0.878536
0.118597 0.619566 0.940438
0.118681 0.619649 0.989344
0.118071 0.680595 0.022652
0.118173 0.680697 0.082322
0.118276 0.680800 0.142682
0.118380 0.680904 0.203374
0.118484 0.681008 0.264292
0.118588 0.681112 0.325380
0.118693 0.681217 0.386605
0.118797 0.681322 0.447945
0.118902 0.681427 0.509385
0.119008 0.681532 0.570912
0.119113 0.681637 0.632517
0.119218 0.681743 0.694191
0.119324 0.681848 0.755930
0.119429 0.681954 0.817728
0.119535 0.682059 0.879580
0.119641 0.682165 0.941482
0.119724 0.682249 0.990387
0.119116 0.743261 0.023696
0.119217 0.743363 0.083367
0.119321 0.743466 0.143727
0.119424 0.743570 0.204419
0.119528 0.743674 0.265337
0.119633 0.743778 0.326424
0.119737 0.743883 0.387650
0.119842 0.743987 0.448990
0.119947 0.744092 0.510430
0.120052 0.744198 0.571957
0.120158 0.744303 0.633561
0.120263 0.744408 0.695236
0.120368 0.744514 0.756975
0.120474 0.744619 0.818773
0.120580 0.744725 0.880624
0.120686 0.744831 0.942527
0.120769 0.744914 0.991432
0.120161 0.805987 0.024742
0.120263 0.806089 0.084413
0.120366 0.806192 0.144772
0.120470 0.806296 0.205465
0.120574 0.806400 0.266382
0.120679 0.806504 0.327470
0.120783 0.806609 0.388695
0.120888 0.806714 0.450036
0.120993 0.806819 0.511476
0.121098 0.806924 0.573003
0.121203 0.807029 0.634607
0.121309 0.807134 0.696282
0.121414 0.807240 0.758021
0.121520 0.807346 0.819818
0.121626 0.807451 0.881670
0.121731 0.807557 0.943573
0.121815 0.807641 0.992478
0.121208 0.868769 0.025789
0.121310 0.868871 0.085459
0.121413 0.868974 0.145819
0.121517 0.869078 0.206512
0.121621 0.869182 0.267429
0.121725 0.869287 0.328517
0.121830 0.869391 0.389742
0.121935 0.869496 0.451083
0.122040 0.869601 0.512522
0.122145 0.869706 0.574049
0.122250 0.869811 0.635654
0.122356 0.869917 0.697329
0.122461 0.870022 0.759068
0.122567 0.870128 0.820865
0.122672 0.870234 0.882717
0.122778 0.870339 0.944619
0.122862 0.870423 0.993525
0.122256 0.931604 0.026837
0.122358 0.931706 0.086507
0.122461 0.931809 0.146867
0.122564 0.931913 0.207559
0.122669 0.932017 0.268477
0.122773 0.932121 0.329565
0.122878 0.932226 0.390790
0.122982 0.932330 0.452130
0.123087 0.932435 0.513570
0.123192 0.932541 0.575097
0.123298 0.932646 0.636701
0.123403 0.932751 0.698376
0.123509 0.932857 0.760115
0.123614 0.932962 0.821913
0.123720 0.933068 0.883765
0.123826 0.933174 0.945667
0.123909 0.933257 0.994572
0.123295 0.993958 0.027876
0.123397 0.994060 0.087547
0.123500 0.994163 0.147906
0.123604 0.994267 0.208599
0.123708 0.994371 0.269516
0.123813 0.994475 0.330604
0.123917 0.994580 0.391829
0.124022 0.994685 0.453170
0.124127 0.994790 0.514610
0.124232 0.994895 0.576136
0.124337 0.995000 0.637741
0.124443 0.995106 0.699416
0.124548 0.995211 0.761155
0.124654 0.995317 0.822952
0.124760 0.995422 0.884804
0.124865 0.995528 0.946707
0.124949 0.995612 0.995612
0.167510 0.000858 0.011618
0.167612 0.000960 0.071289
0.167716 0.001063 0.131649
0.167819 0.001167 0.192341
0.167923 0.001271 0.253259
0.168028 0.001376 0.314346
0.168132 0.001480 0.375572
0.168237 0.001585 0.436912
0.168342 0.001690 0.498352
0.168447 0.001795 0.559879
0.168553 0.001900 0.621483
0.168658 0.002006 0.683158
0.168763 0.002111 0.744897
0.168869 0.002217 0.806695
0.168975 0.002323 0.868546
0.169081 0.002428 0.930449
0.169164 0.002512 0.979354
0.168497 0.060056 0.012605
