skills/editops-orchestrator/assets/grade/luts/cool_tech_v08.cube
TITLE "cool_tech_v08"
LUT_3D_SIZE 5
DOMAIN_MIN 0.0 0.0 0.0
DOMAIN_MAX 1.0 1.0 1.0
0.000060 0.000060 0.018917
0.000811 0.000811 0.256321
0.001580 0.001580 0.499506
0.002358 0.002358 0.745263
0.003040 0.003040 0.960935
0.007234 0.235426 0.026091
0.007985 0.236177 0.263495
0.008754 0.236946 0.506680
0.009531 0.237724 0.752437
0.010214 0.238406 0.968109
0.014842 0.485056 0.033699
0.015593 0.485807 0.271104
0.016363 0.486576 0.514288
0.017140 0.487354 0.760046
0.017822 0.488036 0.975717
0.022536 0.737495 0.041393
0.023287 0.738246 0.278798
0.024057 0.739015 0.521982
0.024834 0.739793 0.767740
0.025516 0.740475 0.983411
0.030174 0.988068 0.049030
0.030925 0.988819 0.286435
0.031694 0.989589 0.529620
0.032471 0.990366 0.775377
0.033154 0.991048 0.991048
0.202879 0.001938 0.020795
0.203631 0.002689 0.258199
0.204400 0.003458 0.501384
0.205177 0.004236 0.747141
0.205860 0.004918 0.962813
0.210053 0.237304 0.027968
0.210804 0.238055 0.265373
0.211574 0.238824 0.508558
0.212351 0.239602 0.754315
0.213033 0.240284 0.969986
0.217662 0.486934 0.035577
0.218413 0.487685 0.272982
0.219182 0.488454 0.516166
0.219960 0.489232 0.761923
0.220642 0.489914 0.977595
0.225356 0.739373 0.043271
0.226107 0.740124 0.280676
0.226876 0.740893 0.523860
0.227654 0.741671 0.769618
0.228336 0.742353 0.985289
0.232993 0.989946 0.050908
0.233744 0.990697 0.288313
0.234514 0.991466 0.531498
0.235291 0.992244 0.777255
0.235973 0.992926 0.992926
0.446731 0.004195 0.023052
0.447482 0.004946 0.260457
0.448251 0.005716 0.503642
0.449029 0.006493 0.749399
0.449711 0.007176 0.965070
0.453905 0.239562 0.030226
0.454656 0.240313 0.267631
0.455425 0.241082 0.510815
0.456203 0.241859 0.756573
0.456885 0.242542 0.972244
0.461513 0.489192 0.037835
0.462264 0.489943 0.275239
0.463034 0.490712 0.518424
0.463811 0.491489 0.764181
0.464493 0.492172 0.979853
0.469207 0.741631 0.045529
0.469958 0.742382 0.282933
0.470728 0.743151 0.526118
0.471505 0.743928 0.771875
0.472188 0.744611 0.987547
0.476845 0.992204 0.053166
0.477596 0.992955 0.290571
0.478365 0.993724 0.533755
0.479143 0.994502 0.779513
0.479825 0.995184 0.995184
0.693515 0.006480 0.025337
0.694266 0.007231 0.262742
0.695035 0.008001 0.505926
0.695812 0.008778 0.751684
0.696495 0.009460 0.967355
0.700688 0.241846 0.032511
0.701439 0.242598 0.269916
0.702209 0.243367 0.513100
0.702986 0.244144 0.758857
0.703669 0.244827 0.974529
0.708297 0.491476 0.040119
0.709048 0.492227 0.277524
0.709817 0.492997 0.520709
0.710595 0.493774 0.766466
0.711277 0.494457 0.982137
0.715991 0.743915 0.047814
0.716742 0.744666 0.285218
0.717511 0.745436 0.528403
0.718289 0.746213 0.774160
0.718971 0.746896 0.989832
0.723628 0.994489 0.055451
0.724379 0.995240 0.292855
0.725149 0.996009 0.536040
0.725926 0.996786 0.781797
0.726608 0.997469 0.997469
0.942162 0.008782 0.027639
0.942913 0.009533 0.265044
0.943683 0.010303 0.508229
0.944460 0.011080 0.753986
0.945142 0.011762 0.969657
0.949336 0.244149 0.034813
0.950087 0.244900 0.272218
0.950856 0.245669 0.515402
0.951634 0.246446 0.761160
0.952316 0.247129 0.976831
0.956945 0.493779 0.042422
0.957696 0.494530 0.279826
0.958465 0.495299 0.523011
0.959242 0.496076 0.768768
0.959925 0.496759 0.984440
0.964639 0.746217 0.050116
0.965390 0.746969 0.287520
0.966159 0.747738 0.530705
0.966937 0.748515 0.776462
0.967619 0.749198 0.992134
0.972276 0.996791 0.057753
0.973027 0.997542 0.295158
0.973796 0.998311 0.538342
0.974574 0.999089 0.784099
0.975256 0.999771 0.999771
