skills/editops-orchestrator/assets/grade/luts/cool_tech_v20.cube
TITLE "cool_tech_v20"
LUT_3D_SIZE 17
DOMAIN_MIN 0.0 0.0 0.0
DOMAIN_MAX 1.0 1.0 1.0
0.000212 0.000212 0.033955
0.000560 0.000560 0.089729
0.000917 0.000917 0.146972
0.001280 0.001280 0.205109
0.001646 0.001646 0.263895
0.002016 0.002016 0.323193
0.002389 0.002389 0.382915
0.002764 0.002764 0.442998
0.003141 0.003141 0.503398
0.003519 0.003519 0.564078
0.003900 0.003900 0.625011
0.004281 0.004281 0.686174
0.004664 0.004664 0.747547
0.005048 0.005048 0.809115
0.005433 0.005433 0.870864
0.005776 0.005776 0.925776
0.005776 0.005776 0.925776
0.002445 0.038361 0.036189
0.002793 0.038709 0.091962
0.003151 0.039066 0.149206
0.003513 0.039429 0.207342
0.003880 0.039796 0.266128
0.004250 0.040166 0.325426
0.004623 0.040538 0.385148
0.004998 0.040913 0.445232
0.005374 0.041290 0.505632
0.005753 0.041669 0.566312
0.006133 0.042049 0.627245
0.006515 0.042430 0.688407
0.006898 0.042813 0.749781
0.007282 0.043197 0.811349
0.007667 0.043583 0.873097
0.008010 0.043925 0.928010
0.008010 0.043925 0.928010
0.005898 0.097320 0.039641
0.006245 0.097668 0.095414
0.006603 0.098025 0.152658
0.006965 0.098387 0.210794
0.007332 0.098754 0.269580
0.007702 0.099124 0.328878
0.008075 0.099497 0.388600
0.008450 0.099872 0.448684
0.008826 0.100248 0.509084
0.009205 0.100627 0.569764
0.009585 0.101007 0.630697
0.009967 0.101389 0.691859
0.010350 0.101772 0.753233
0.010734 0.102156 0.814801
0.011119 0.102541 0.876549
0.011462 0.102884 0.931462
0.011462 0.102884 0.931462
0.009438 0.157789 0.043181
0.009786 0.158137 0.098955
0.010143 0.158494 0.156198
0.010506 0.158857 0.214335
0.010873 0.159224 0.273121
0.011243 0.159594 0.332419
0.011615 0.159966 0.392141
0.011990 0.160341 0.452224
0.012367 0.160718 0.512624
0.012745 0.161096 0.573304
0.013126 0.161477 0.634237
0.013507 0.161858 0.695400
0.013890 0.162241 0.756773
0.014274 0.162625 0.818341
0.014660 0.163011 0.880090
0.015002 0.163353 0.935002
0.015002 0.163353 0.935002
0.013033 0.219187 0.046776
0.013381 0.219535 0.102550
0.013738 0.219892 0.159793
0.014101 0.220255 0.217930
0.014467 0.220622 0.276716
0.014837 0.220992 0.336014
0.015210 0.221364 0.395736
0.015585 0.221739 0.455819
0.015962 0.222116 0.516219
0.016340 0.222495 0.576899
0.016721 0.222875 0.637832
0.017102 0.223257 0.698995
0.017485 0.223639 0.760368
0.017869 0.224024 0.821936
0.018254 0.224409 0.883685
0.018597 0.224751 0.938597
0.018597 0.224751 0.938597
0.016667 0.281264 0.050411
0.017015 0.281612 0.106184
0.017373 0.281969 0.163427
0.017735 0.282331 0.221564
0.018102 0.282698 0.280350
0.018472 0.283068 0.339648
0.018845 0.283441 0.399370
0.019219 0.283816 0.459454
0.019596 0.284193 0.519854
0.019975 0.284571 0.580534
0.020355 0.284951 0.641467
0.020737 0.285333 0.702629
0.021120 0.285716 0.764003
0.021504 0.286100 0.825570
0.021889 0.286485 0.887319
0.022232 0.286828 0.942232
0.022232 0.286828 0.942232
0.020333 0.343876 0.054077
0.020681 0.344224 0.109850
0.021039 0.344581 0.167093
0.021401 0.344944 0.225230
0.021768 0.345311 0.284016
0.022138 0.345681 0.343314
0.022511 0.346053 0.403036
0.022885 0.346428 0.463120
0.023262 0.346805 0.523519
0.023641 0.347184 0.584200
0.024021 0.347564 0.645133
0.024403 0.347945 0.706295
0.024786 0.348328 0.767669
0.025170 0.348712 0.829236
0.025555 0.349098 0.890985
0.025898 0.349440 0.945898
0.025898 0.349440 0.945898
0.024025 0.406933 0.057769
0.024373 0.407281 0.113542
0.024730 0.407638 0.170785
0.025093 0.408001 0.228922
0.025460 0.408367 0.287708
0.025830 0.408737 0.347006
0.026203 0.409110 0.406728
0.026577 0.409485 0.466812
0.026954 0.409862 0.527211
0.027333 0.410240 0.587892
0.027713 0.410620 0.648825
0.028095 0.411002 0.709987
0.028478 0.411385 0.771361
0.028862 0.411769 0.832928
0.029247 0.412154 0.894677
0.029590 0.412497 0.949590
0.029590 0.412497 0.949590
0.027740 0.470369 0.061483
0.028088 0.470717 0.117256
0.028445 0.471074 0.174500
0.028807 0.471437 0.232636
0.029174 0.471804 0.291422
0.029544 0.472174 0.350720
0.029917 0.472546 0.410442
0.030292 0.472921 0.470526
0.030668 0.473298 0.530926
0.031047 0.473677 0.591606
0.031427 0.474057 0.652539
0.031809 0.474438 0.713701
0.032192 0.474821 0.775075
0.032576 0.475205 0.836643
0.032961 0.475591 0.898391
0.033304 0.475933 0.953304
0.033304 0.475933 0.953304
0.031473 0.534137 0.065216
0.031821 0.534485 0.120990
0.032178 0.534842 0.178233
0.032541 0.535205 0.236370
0.032908 0.535572 0.295156
0.033278 0.535942 0.354454
0.033650 0.536314 0.414176
0.034025 0.536689 0.474260
0.034402 0.537066 0.534659
0.034781 0.537445 0.595340
0.035161 0.537825 0.656273
0.035542 0.538207 0.717435
0.035925 0.538589 0.778808
0.036309 0.538974 0.840376
0.036695 0.539359 0.902125
0.037037 0.539701 0.957037
0.037037 0.539701 0.957037
0.035224 0.598200 0.068967
0.035572 0.598548 0.124741
0.035929 0.598906 0.181984
0.036292 0.599268 0.240121
0.036659 0.599635 0.298907
0.037029 0.600005 0.358205
0.037401 0.600378 0.417927
0.037776 0.600753 0.478010
0.038153 0.601129 0.538410
0.038532 0.601508 0.599090
0.038912 0.601888 0.660023
0.039293 0.602270 0.721186
0.039676 0.602653 0.782559
0.040060 0.603037 0.844127
0.040446 0.603422 0.905876
0.040788 0.603765 0.960788
0.040788 0.603765 0.960788
0.038991 0.662529 0.072734
0.039339 0.662877 0.128507
0.039696 0.663234 0.185751
0.040058 0.663597 0.243887
0.040425 0.663964 0.302673
0.040795 0.664334 0.361971
0.041168 0.664706 0.421693
0.041543 0.665081 0.481777
0.041919 0.665458 0.542177
0.042298 0.665837 0.602857
0.042678 0.666217 0.663790
0.043060 0.666598 0.724952
0.043443 0.666981 0.786326
0.043827 0.667365 0.847894
0.044212 0.667751 0.909642
0.044555 0.668093 0.964555
0.044555 0.668093 0.964555
0.042771 0.727100 0.076514
0.043119 0.727447 0.132288
0.043476 0.727805 0.189531
0.043839 0.728167 0.247668
0.044206 0.728534 0.306454
0.044576 0.728904 0.365752
0.044948 0.729277 0.425474
0.045323 0.729652 0.485558
0.045700 0.730028 0.545957
0.046079 0.730407 0.606638
0.046459 0.730787 0.667570
0.046840 0.731169 0.728733
0.047223 0.731552 0.790106
0.047607 0.731936 0.851674
0.047993 0.732321 0.913423
0.048335 0.732664 0.968335
0.048335 0.732664 0.968335
0.046565 0.791891 0.080308
0.046913 0.792239 0.136081
0.047270 0.792597 0.193325
0.047633 0.792959 0.251461
0.047999 0.793326 0.310247
0.048369 0.793696 0.369546
0.048742 0.794069 0.429267
0.049117 0.794444 0.489351
0.049494 0.794820 0.549751
0.049872 0.795199 0.610431
0.050252 0.795579 0.671364
0.050634 0.795961 0.732527
0.051017 0.796344 0.793900
0.051401 0.796728 0.855468
0.051786 0.797113 0.917217
0.052129 0.797456 0.972129
0.052129 0.797456 0.972129
0.050370 0.856888 0.084114
0.050718 0.857236 0.139887
0.051075 0.857593 0.197130
0.051438 0.857956 0.255267
0.051805 0.858323 0.314053
0.052175 0.858693 0.373351
0.052547 0.859065 0.433073
0.052922 0.859440 0.493157
0.053299 0.859817 0.553556
0.053678 0.860196 0.614237
0.054058 0.860576 0.675170
0.054440 0.860957 0.736332
0.054822 0.861340 0.797705
0.055207 0.861724 0.859273
0.055592 0.862110 0.921022
0.055934 0.862452 0.975934
0.055934 0.862452 0.975934
0.054187 0.922075 0.087930
0.054535 0.922423 0.143704
0.054892 0.922780 0.200947
0.055255 0.923143 0.259084
0.055622 0.923510 0.317870
0.055992 0.923880 0.377168
0.056364 0.924253 0.436890
0.056739 0.924627 0.496973
0.057116 0.925004 0.557373
0.057494 0.925383 0.618053
0.057875 0.925763 0.678986
0.058256 0.926145 0.740149
0.058639 0.926528 0.801522
0.059023 0.926912 0.863090
0.059409 0.927297 0.924839
0.059751 0.927640 0.979751
0.059751 0.927640 0.979751
0.057428 0.977428 0.091171
0.057776 0.977776 0.146945
0.058133 0.978133 0.204188
0.058496 0.978496 0.262325
0.058862 0.978862 0.321111
0.059232 0.979232 0.380409
0.059605 0.979605 0.440131
0.059980 0.979980 0.500214
0.060357 0.980357 0.560614
0.060735 0.980735 0.621294
0.061116 0.981116 0.682227
0.061497 0.981497 0.743390
0.061880 0.981880 0.804763
0.062264 0.982264 0.866331
0.062649 0.982649 0.928080
0.062992 0.982992 0.982992
0.062992 0.982992 0.982992
0.000212 0.000212 0.033955
0.000560 0.000560 0.089729
0.000917 0.000917 0.146972
0.001280 0.001280 0.205109
0.001646 0.001646 0.263895
0.002016 0.002016 0.323193
0.002389 0.002389 0.382915
0.002764 0.002764 0.442998
0.003141 0.003141 0.503398
0.003519 0.003519 0.564078
0.003900 0.003900 0.625011
0.004281 0.004281 0.686174
0.004664 0.004664 0.747547
0.005048 0.005048 0.809115
0.005433 0.005433 0.870864
0.005776 0.005776 0.925776
0.005776 0.005776 0.925776
0.002445 0.038361 0.036189
0.002793 0.038709 0.091962
0.003151 0.039066 0.149206
0.003513 0.039429 0.207342
0.003880 0.039796 0.266128
0.004250 0.040166 0.325426
0.004623 0.040538 0.385148
0.004998 0.040913 0.445232
0.005374 0.041290 0.505632
0.005753 0.041669 0.566312
0.006133 0.042049 0.627245
0.006515 0.042430 0.688407
0.006898 0.042813 0.749781
0.007282 0.043197 0.811349
0.007667 0.043583 0.873097
0.008010 0.043925 0.928010
0.008010 0.043925 0.928010
0.005898 0.097320 0.039641
0.006245 0.097668 0.095414
0.006603 0.098025 0.152658
0.006965 0.098387 0.210794
0.007332 0.098754 0.269580
0.007702 0.099124 0.328878
0.008075 0.099497 0.388600
0.008450 0.099872 0.448684
0.008826 0.100248 0.509084
0.009205 0.100627 0.569764
0.009585 0.101007 0.630697
0.009967 0.101389 0.691859
0.010350 0.101772 0.753233
0.010734 0.102156 0.814801
0.011119 0.102541 0.876549
0.011462 0.102884 0.931462
0.011462 0.102884 0.931462
0.009438 0.157789 0.043181
0.009786 0.158137 0.098955
0.010143 0.158494 0.156198
0.010506 0.158857 0.214335
0.010873 0.159224 0.273121
0.011243 0.159594 0.332419
0.011615 0.159966 0.392141
0.011990 0.160341 0.452224
0.012367 0.160718 0.512624
0.012745 0.161096 0.573304
0.013126 0.161477 0.634237
0.013507 0.161858 0.695400
0.013890 0.162241 0.756773
0.014274 0.162625 0.818341
0.014660 0.163011 0.880090
0.015002 0.163353 0.935002
0.015002 0.163353 0.935002
0.013033 0.219187 0.046776
0.013381 0.219535 0.102550
0.013738 0.219892 0.159793
0.014101 0.220255 0.217930
0.014467 0.220622 0.276716
0.014837 0.220992 0.336014
0.015210 0.221364 0.395736
0.015585 0.221739 0.455819
0.015962 0.222116 0.516219
0.016340 0.222495 0.576899
0.016721 0.222875 0.637832
0.017102 0.223257 0.698995
0.017485 0.223639 0.760368
0.017869 0.224024 0.821936
0.018254 0.224409 0.883685
0.018597 0.224751 0.938597
0.018597 0.224751 0.938597
0.016667 0.281264 0.050411
0.017015 0.281612 0.106184
0.017373 0.281969 0.163427
0.017735 0.282331 0.221564
0.018102 0.282698 0.280350
0.018472 0.283068 0.339648
0.018845 0.283441 0.399370
0.019219 0.283816 0.459454
0.019596 0.284193 0.519854
0.019975 0.284571 0.580534
0.020355 0.284951 0.641467
0.020737 0.285333 0.702629
0.021120 0.285716 0.764003
0.021504 0.286100 0.825570
0.021889 0.286485 0.887319
0.022232 0.286828 0.942232
0.022232 0.286828 0.942232
0.020333 0.343876 0.054077
0.020681 0.344224 0.109850
0.021039 0.344581 0.167093
0.021401 0.344944 0.225230
0.021768 0.345311 0.284016
0.022138 0.345681 0.343314
0.022511 0.346053 0.403036
0.022885 0.346428 0.463120
0.023262 0.346805 0.523519
0.023641 0.347184 0.584200
0.024021 0.347564 0.645133
0.024403 0.347945 0.706295
0.024786 0.348328 0.767669
0.025170 0.348712 0.829236
0.025555 0.349098 0.890985
0.025898 0.349440 0.945898
0.025898 0.349440 0.945898
0.024025 0.406933 0.057769
0.024373 0.407281 0.113542
0.024730 0.407638 0.170785
0.025093 0.408001 0.228922
0.025460 0.408367 0.287708
0.025830 0.408737 0.347006
0.026203 0.409110 0.406728
0.026577 0.409485 0.466812
0.026954 0.409862 0.527211
0.027333 0.410240 0.587892
0.027713 0.410620 0.648825
0.028095 0.411002 0.709987
0.028478 0.411385 0.771361
0.028862 0.411769 0.832928
0.029247 0.412154 0.894677
0.029590 0.412497 0.949590
0.029590 0.412497 0.949590
0.027740 0.470369 0.061483
0.028088 0.470717 0.117256
0.028445 0.471074 0.174500
0.028807 0.471437 0.232636
0.029174 0.471804 0.291422
0.029544 0.472174 0.350720
0.029917 0.472546 0.410442
0.030292 0.472921 0.470526
0.030668 0.473298 0.530926
0.031047 0.473677 0.591606
0.031427 0.474057 0.652539
0.031809 0.474438 0.713701
0.032192 0.474821 0.775075
0.032576 0.475205 0.836643
0.032961 0.475591 0.898391
0.033304 0.475933 0.953304
0.033304 0.475933 0.953304
0.031473 0.534137 0.065216
0.031821 0.534485 0.120990
0.032178 0.534842 0.178233
0.032541 0.535205 0.236370
0.032908 0.535572 0.295156
0.033278 0.535942 0.354454
0.033650 0.536314 0.414176
0.034025 0.536689 0.474260
0.034402 0.537066 0.534659
0.034781 0.537445 0.595340
0.035161 0.537825 0.656273
0.035542 0.538207 0.717435
0.035925 0.538589 0.778808
0.036309 0.538974 0.840376
0.036695 0.539359 0.902125
0.037037 0.539701 0.957037
0.037037 0.539701 0.957037
0.035224 0.598200 0.068967
0.035572 0.598548 0.124741
0.035929 0.598906 0.181984
0.036292 0.599268 0.240121
0.036659 0.599635 0.298907
0.037029 0.600005 0.358205
0.037401 0.600378 0.417927
0.037776 0.600753 0.478010
0.038153 0.601129 0.538410
0.038532 0.601508 0.599090
0.038912 0.601888 0.660023
0.039293 0.602270 0.721186
0.039676 0.602653 0.782559
0.040060 0.603037 0.844127
0.040446 0.603422 0.905876
0.040788 0.603765 0.960788
0.040788 0.603765 0.960788
0.038991 0.662529 0.072734
0.039339 0.662877 0.128507
0.039696 0.663234 0.185751
0.040058 0.663597 0.243887
0.040425 0.663964 0.302673
0.040795 0.664334 0.361971
0.041168 0.664706 0.421693
0.041543 0.665081 0.481777
0.041919 0.665458 0.542177
0.042298 0.665837 0.602857
0.042678 0.666217 0.663790
0.043060 0.666598 0.724952
0.043443 0.666981 0.786326
0.043827 0.667365 0.847894
0.044212 0.667751 0.909642
0.044555 0.668093 0.964555
0.044555 0.668093 0.964555
0.042771 0.727100 0.076514
0.043119 0.727447 0.132288
0.043476 0.727805 0.189531
0.043839 0.728167 0.247668
0.044206 0.728534 0.306454
0.044576 0.728904 0.365752
0.044948 0.729277 0.425474
0.045323 0.729652 0.485558
0.045700 0.730028 0.545957
0.046079 0.730407 0.606638
0.046459 0.730787 0.667570
0.046840 0.731169 0.728733
0.047223 0.731552 0.790106
0.047607 0.731936 0.851674
0.047993 0.732321 0.913423
0.048335 0.732664 0.968335
0.048335 0.732664 0.968335
0.046565 0.791891 0.080308
0.046913 0.792239 0.136081
0.047270 0.792597 0.193325
0.047633 0.792959 0.251461
0.047999 0.793326 0.310247
0.048369 0.793696 0.369546
0.048742 0.794069 0.429267
0.049117 0.794444 0.489351
0.049494 0.794820 0.549751
0.049872 0.795199 0.610431
0.050252 0.795579 0.671364
0.050634 0.795961 0.732527
0.051017 0.796344 0.793900
0.051401 0.796728 0.855468
0.051786 0.797113 0.917217
0.052129 0.797456 0.972129
0.052129 0.797456 0.972129
0.050370 0.856888 0.084114
0.050718 0.857236 0.139887
0.051075 0.857593 0.197130
0.051438 0.857956 0.255267
0.051805 0.858323 0.314053
0.052175 0.858693 0.373351
0.052547 0.859065 0.433073
0.052922 0.859440 0.493157
0.053299 0.859817 0.553556
0.053678 0.860196 0.614237
0.054058 0.860576 0.675170
0.054440 0.860957 0.736332
0.054822 0.861340 0.797705
0.055207 0.861724 0.859273
0.055592 0.862110 0.921022
0.055934 0.862452 0.975934
0.055934 0.862452 0.975934
0.054187 0.922075 0.087930
0.054535 0.922423 0.143704
0.054892 0.922780 0.200947
0.055255 0.923143 0.259084
0.055622 0.923510 0.317870
0.055992 0.923880 0.377168
0.056364 0.924253 0.436890
0.056739 0.924627 0.496973
0.057116 0.925004 0.557373
0.057494 0.925383 0.618053
0.057875 0.925763 0.678986
0.058256 0.926145 0.740149
0.058639 0.926528 0.801522
0.059023 0.926912 0.863090
0.059409 0.927297 0.924839
0.059751 0.927640 0.979751
0.059751 0.927640 0.979751
0.057428 0.977428 0.091171
0.057776 0.977776 0.146945
0.058133 0.978133 0.204188
0.058496 0.978496 0.262325
0.058862 0.978862 0.321111
0.059232 0.979232 0.380409
0.059605 0.979605 0.440131
0.059980 0.979980 0.500214
0.060357 0.980357 0.560614
0.060735 0.980735 0.621294
0.061116 0.981116 0.682227
0.061497 0.981497 0.743390
0.061880 0.981880 0.804763
0.062264 0.982264 0.866331
0.062649 0.982649 0.928080
0.062992 0.982992 0.982992
0.062992 0.982992 0.982992
0.039009 0.000916 0.034659
0.039357 0.001264 0.090433
0.039714 0.001621 0.147676
0.040077 0.001984 0.205813
0.040444 0.002351 0.264599
0.040814 0.002721 0.323897
0.041186 0.003093 0.383619
0.041561 0.003468 0.443702
0.041938 0.003845 0.504102
0.042316 0.004224 0.564782
0.042697 0.004604 0.625715
0.043078 0.004985 0.686878
0.043461 0.005368 0.748251
0.043845 0.005752 0.809819
0.044230 0.006138 0.871568
0.044573 0.006480 0.926480
0.044573 0.006480 0.926480
0.041243 0.039065 0.036893
0.041591 0.039413 0.092666
0.041948 0.039770 0.149910
0.042310 0.040133 0.208046
0.042677 0.040500 0.266832
0.043047 0.040870 0.326131
0.043420 0.041242 0.385852
0.043795 0.041617 0.445936
0.044171 0.041994 0.506336
0.044550 0.042373 0.567016
0.044930 0.042753 0.627949
0.045312 0.043134 0.689112
0.045695 0.043517 0.750485
0.046079 0.043902 0.812053
0.046464 0.044287 0.873802
0.046807 0.044629 0.928714
0.046807 0.044629 0.928714
0.044695 0.098024 0.040345
0.045043 0.098372 0.096118
0.045400 0.098729 0.153362
0.045762 0.099092 0.211498
0.046129 0.099458 0.270284
0.046499 0.099828 0.329583
0.046872 0.100201 0.389304
0.047247 0.100576 0.449388
0.047623 0.100953 0.509788
0.048002 0.101331 0.570468
0.048382 0.101711 0.631401
0.048764 0.102093 0.692564
0.049147 0.102476 0.753937
0.049531 0.102860 0.815505
0.049916 0.103245 0.877254
0.050259 0.103588 0.932166
0.050259 0.103588 0.932166
0.048235 0.158493 0.043886
0.048583 0.158841 0.099659
0.048940 0.159198 0.156902
0.049303 0.159561 0.215039
0.049670 0.159928 0.273825
0.050040 0.160298 0.333123
0.050412 0.160670 0.392845
0.050787 0.161045 0.452929
0.051164 0.161422 0.513328
0.051543 0.161801 0.574009
0.051923 0.162181 0.634942
0.052304 0.162562 0.696104
0.052687 0.162945 0.757477
0.053071 0.163330 0.819045
0.053457 0.163715 0.880794
0.053799 0.164057 0.935706
0.053799 0.164057 0.935706
0.051830 0.219891 0.047480
0.052178 0.220239 0.103254
0.052535 0.220597 0.160497
0.052898 0.220959 0.218634
0.053265 0.221326 0.277420
0.053635 0.221696 0.336718
0.054007 0.222069 0.396440
0.054382 0.222444 0.456523
0.054759 0.222820 0.516923
0.055137 0.223199 0.577603
0.055518 0.223579 0.638536
0.055899 0.223961 0.699699
0.056282 0.224344 0.761072
0.056666 0.224728 0.822640
0.057051 0.225113 0.884389
0.057394 0.225456 0.939301
0.057394 0.225456 0.939301
0.055465 0.281968 0.051115
0.055812 0.282316 0.106888
0.056170 0.282673 0.164132
0.056532 0.283036 0.222268
0.056899 0.283402 0.281054
0.057269 0.283772 0.340353
0.057642 0.284145 0.400074
0.058017 0.284520 0.460158
0.058393 0.284897 0.520558
0.058772 0.285275 0.581238
0.059152 0.285655 0.642171
0.059534 0.286037 0.703334
0.059917 0.286420 0.764707
0.060301 0.286804 0.826275
0.060686 0.287189 0.888023
0.061029 0.287532 0.942936
0.061029 0.287532 0.942936
0.059130 0.344580 0.054781
0.059478 0.344928 0.110554
0.059836 0.345285 0.167798
0.060198 0.345648 0.225934
0.060565 0.346015 0.284720
0.060935 0.346385 0.344018
0.061308 0.346757 0.403740
0.061683 0.347132 0.463824
0.062059 0.347509 0.524224
0.062438 0.347888 0.584904
0.062818 0.348268 0.645837
0.063200 0.348650 0.707000
0.063583 0.349032 0.768373
0.063967 0.349417 0.829941
0.064352 0.349802 0.891689
0.064695 0.350144 0.946602
0.064695 0.350144 0.946602
0.062822 0.407637 0.058473
0.063170 0.407985 0.114246
0.063528 0.408342 0.171490
0.063890 0.408705 0.229626
0.064257 0.409072 0.288412
0.064627 0.409441 0.347710
0.065000 0.409814 0.407432
0.065374 0.410189 0.467516
0.065751 0.410566 0.527916
0.066130 0.410944 0.588596
0.066510 0.411325 0.649529
0.066892 0.411706 0.710691
0.067275 0.412089 0.772065
0.067659 0.412473 0.833633
0.068044 0.412858 0.895381
0.068387 0.413201 0.950294
0.068387 0.413201 0.950294
0.066537 0.471073 0.062187
0.066885 0.471421 0.117960
0.067242 0.471778 0.175204
0.067604 0.472141 0.233341
0.067971 0.472508 0.292127
0.068341 0.472878 0.351425
0.068714 0.473250 0.411146
0.069089 0.473625 0.471230
0.069466 0.474002 0.531630
0.069844 0.474381 0.592310
0.070224 0.474761 0.653243
0.070606 0.475143 0.714406
0.070989 0.475525 0.775779
0.071373 0.475910 0.837347
0.071758 0.476295 0.899096
0.072101 0.476637 0.954008
0.072101 0.476637 0.954008
0.070270 0.534842 0.065921
0.070618 0.535189 0.121694
0.070975 0.535547 0.178937
0.071338 0.535909 0.237074
0.071705 0.536276 0.295860
0.072075 0.536646 0.355158
0.072447 0.537019 0.414880
0.072822 0.537394 0.474964
0.073199 0.537770 0.535363
0.073578 0.538149 0.596044
0.073958 0.538529 0.656977
0.074340 0.538911 0.718139
0.074722 0.539294 0.779513
0.075107 0.539678 0.841080
0.075492 0.540063 0.902829
0.075834 0.540406 0.957742
0.075834 0.540406 0.957742
0.074021 0.598905 0.069672
0.074369 0.599253 0.125445
0.074726 0.599610 0.182688
0.075089 0.599973 0.240825
0.075456 0.600339 0.299611
0.075826 0.600709 0.358909
0.076198 0.601082 0.418631
0.076573 0.601457 0.478715
0.076950 0.601834 0.539114
0.077329 0.602212 0.599795
0.077709 0.602592 0.660728
0.078090 0.602974 0.721890
0.078473 0.603357 0.783263
0.078857 0.603741 0.844831
0.079243 0.604126 0.906580
0.079585 0.604469 0.961492
0.079585 0.604469 0.961492
0.077788 0.663233 0.073438
0.078136 0.663581 0.129211
0.078493 0.663939 0.186455
0.078855 0.664301 0.244591
0.079222 0.664668 0.303377
0.079592 0.665038 0.362676
0.079965 0.665411 0.422397
0.080340 0.665785 0.482481
0.080717 0.666162 0.542881
0.081095 0.666541 0.603561
0.081475 0.666921 0.664494
0.081857 0.667303 0.725657
0.082240 0.667686 0.787030
0.082624 0.668070 0.848598
0.083009 0.668455 0.910347
0.083352 0.668798 0.965259
0.083352 0.668798 0.965259
0.081568 0.727804 0.077219
0.081916 0.728152 0.132992
0.082273 0.728509 0.190235
0.082636 0.728872 0.248372
0.083003 0.729238 0.307158
0.083373 0.729608 0.366456
0.083745 0.729981 0.426178
0.084120 0.730356 0.486262
0.084497 0.730733 0.546661
0.084876 0.731111 0.607342
0.085256 0.731491 0.668275
0.085637 0.731873 0.729437
0.086020 0.732256 0.790811
0.086404 0.732640 0.852378
0.086790 0.733025 0.914127
0.087132 0.733368 0.969039
0.087132 0.733368 0.969039
0.085362 0.792596 0.081012
0.085710 0.792944 0.136786
0.086067 0.793301 0.194029
0.086430 0.793664 0.252166
0.086796 0.794030 0.310952
0.087166 0.794400 0.370250
0.087539 0.794773 0.429972
0.087914 0.795148 0.490055
0.088291 0.795525 0.550455
0.088669 0.795903 0.611135
0.089049 0.796283 0.672068
0.089431 0.796665 0.733231
0.089814 0.797048 0.794604
0.090198 0.797432 0.856172
0.090583 0.797817 0.917921
0.090926 0.798160 0.972833
0.090926 0.798160 0.972833
0.089167 0.857592 0.084818
0.089515 0.857940 0.140591
0.089872 0.858298 0.197835
0.090235 0.858660 0.255971
0.090602 0.859027 0.314757
0.090972 0.859397 0.374055
0.091345 0.859770 0.433777
0.091719 0.860144 0.493861
0.092096 0.860521 0.554261
0.092475 0.860900 0.614941
0.092855 0.861280 0.675874
0.093237 0.861662 0.737036
0.093619 0.862045 0.798410
0.094004 0.862429 0.859978
0.094389 0.862814 0.921726
0.094731 0.863157 0.976639
0.094731 0.863157 0.976639
0.092984 0.922780 0.088634
0.093332 0.923128 0.144408
0.093689 0.923485 0.201651
0.094052 0.923847 0.259788
0.094419 0.924214 0.318574
0.094789 0.924584 0.377872
0.095161 0.924957 0.437594
0.095536 0.925332 0.497678
0.095913 0.925708 0.558077
0.096292 0.926087 0.618758
0.096672 0.926467 0.679691
0.097053 0.926849 0.740853
0.097436 0.927232 0.802226
0.097820 0.927616 0.863794
0.098206 0.928001 0.925543
0.098548 0.928344 0.980455
0.098548 0.928344 0.980455
0.096225 0.978132 0.091875
0.096573 0.978480 0.147649
0.096930 0.978837 0.204892
0.097293 0.979200 0.263029
0.097660 0.979567 0.321815
0.098030 0.979937 0.381113
0.098402 0.980309 0.440835
0.098777 0.980684 0.500918
0.099154 0.981061 0.561318
0.099532 0.981440 0.621998
0.099913 0.981820 0.682931
0.100294 0.982201 0.744094
0.100677 0.982584 0.805467
0.101061 0.982968 0.867035
0.101446 0.983354 0.928784
0.101789 0.983696 0.983696
0.101789 0.983696 0.983696
0.095621 0.001944 0.035687
0.095969 0.002292 0.091460
0.096326 0.002649 0.148704
0.096689 0.003012 0.206840
0.097056 0.003378 0.265626
0.097426 0.003748 0.324925
0.097798 0.004121 0.384646
0.098173 0.004496 0.444730
0.098550 0.004873 0.505130
0.098929 0.005251 0.565810
0.099309 0.005631 0.626743
0.099690 0.006013 0.687906
0.100073 0.006396 0.749279
0.100457 0.006780 0.810847
0.100843 0.007165 0.872595
0.101185 0.007508 0.927508
0.101185 0.007508 0.927508
0.097855 0.040093 0.037921
