skills/editops-orchestrator/assets/grade/luts/cool_tech_v11.cube
TITLE "cool_tech_v11"
LUT_3D_SIZE 9
DOMAIN_MIN 0.0 0.0 0.0
DOMAIN_MAX 1.0 1.0 1.0
0.000089 0.000089 0.022818
0.000544 0.000544 0.139068
0.001010 0.001010 0.258244
0.001482 0.001482 0.378874
0.001958 0.001958 0.500493
0.002436 0.002436 0.622867
0.002917 0.002917 0.745853
0.003400 0.003400 0.869353
0.003724 0.003724 0.952145
0.004152 0.108597 0.026880
0.004606 0.109051 0.143130
0.005072 0.109518 0.262307
0.005544 0.109989 0.382936
0.006020 0.110465 0.504555
0.006499 0.110944 0.626930
0.006980 0.111425 0.749915
0.007463 0.111908 0.873415
0.007786 0.112231 0.956207
0.008746 0.231311 0.031474
0.009201 0.231766 0.147725
0.009667 0.232232 0.266901
0.010139 0.232704 0.387530
0.010614 0.233180 0.509150
0.011093 0.233658 0.631524
0.011574 0.234139 0.754510
0.012057 0.234622 0.878010
0.012381 0.234946 0.960802
0.013406 0.355773 0.036134
0.013860 0.356228 0.152384
0.014327 0.356694 0.271561
0.014798 0.357166 0.392190
0.015274 0.357641 0.513810
0.015753 0.358120 0.636184
0.016234 0.358601 0.759169
0.016717 0.359084 0.882669
0.017041 0.359408 0.965462
0.018108 0.481362 0.040836
0.018562 0.481817 0.157086
0.019029 0.482283 0.276263
0.019500 0.482755 0.396892
0.019976 0.483231 0.518512
0.020455 0.483709 0.640886
0.020936 0.484190 0.763871
0.021419 0.484673 0.887371
0.021742 0.484997 0.970164
0.022841 0.607790 0.045570
0.023296 0.608245 0.161820
0.023762 0.608711 0.280996
0.024234 0.609183 0.401626
0.024709 0.609659 0.523245
0.025188 0.610137 0.645619
0.025669 0.610618 0.768605
0.026152 0.611101 0.892105
0.026476 0.611425 0.974897
0.027600 0.734888 0.050328
0.028054 0.735343 0.166578
0.028520 0.735809 0.285755
0.028992 0.736281 0.406384
0.029468 0.736756 0.528003
0.029946 0.737235 0.650378
0.030427 0.737716 0.773363
0.030910 0.738199 0.896863
0.031234 0.738523 0.979655
0.032379 0.862544 0.055107
0.032834 0.862998 0.171357
0.033300 0.863464 0.290534
0.033771 0.863936 0.411163
0.034247 0.864412 0.532783
0.034726 0.864890 0.655157
0.035207 0.865371 0.778143
0.035690 0.865854 0.901642
0.036014 0.866178 0.984435
0.036979 0.985400 0.059707
0.037433 0.985854 0.175957
0.037899 0.986320 0.295134
0.038371 0.986792 0.415763
0.038847 0.987268 0.537382
0.039325 0.987746 0.659757
0.039806 0.988227 0.782742
0.040289 0.988711 0.906242
0.040613 0.989034 0.989034
0.071555 0.000906 0.023635
0.072009 0.001361 0.139885
0.072475 0.001827 0.259061
0.072947 0.002299 0.379690
0.073423 0.002774 0.501310
0.073901 0.003253 0.623684
0.074382 0.003734 0.746670
0.074865 0.004217 0.870170
0.075189 0.004541 0.952962
0.075617 0.109414 0.027697
0.076072 0.109868 0.143947
0.076538 0.110334 0.263124
0.077010 0.110806 0.383753
0.077485 0.111282 0.505372
0.077964 0.111760 0.627747
0.078445 0.112241 0.750732
0.078928 0.112725 0.874232
0.079252 0.113048 0.957024
0.080211 0.232128 0.032291
0.080666 0.232583 0.148541
0.081132 0.233049 0.267718
0.081604 0.233521 0.388347
0.082080 0.233997 0.509967
0.082558 0.234475 0.632341
0.083039 0.234956 0.755327
0.083522 0.235439 0.878826
0.083846 0.235763 0.961619
0.084871 0.356590 0.036951
0.085326 0.357044 0.153201
0.085792 0.357511 0.272378
0.086264 0.357982 0.393007
0.086739 0.358458 0.514626
0.087218 0.358937 0.637001
0.087699 0.359418 0.759986
0.088182 0.359901 0.883486
0.088506 0.360225 0.966278
0.089573 0.482179 0.041653
0.090028 0.482634 0.157903
0.090494 0.483100 0.277080
0.090966 0.483572 0.397709
0.091441 0.484047 0.519328
0.091920 0.484526 0.641703
0.092401 0.485007 0.764688
0.092884 0.485490 0.888188
0.093208 0.485814 0.970980
0.094306 0.608607 0.046386
0.094761 0.609062 0.162636
0.095227 0.609528 0.281813
0.095699 0.610000 0.402442
0.096175 0.610476 0.524062
0.096653 0.610954 0.646436
0.097134 0.611435 0.769422
0.097617 0.611918 0.892921
0.097941 0.612242 0.975714
0.099065 0.735705 0.051145
0.099519 0.736160 0.167395
0.099986 0.736626 0.286572
0.100457 0.737097 0.407201
0.100933 0.737573 0.528820
0.101412 0.738052 0.651194
0.101893 0.738533 0.774180
0.102376 0.739016 0.897680
0.102700 0.739340 0.980472
0.103844 0.863360 0.055924
0.104299 0.863815 0.172174
0.104765 0.864281 0.291351
0.105237 0.864753 0.411980
0.105712 0.865229 0.533599
0.106191 0.865707 0.655974
0.106672 0.866188 0.778959
0.107155 0.866671 0.902459
0.107479 0.866995 0.985252
0.108444 0.986216 0.060524
0.108898 0.986671 0.176774
0.109365 0.987137 0.295951
0.109836 0.987609 0.416580
0.110312 0.988085 0.538199
0.110791 0.988563 0.660573
0.111272 0.989044 0.783559
0.111755 0.989527 0.907059
0.112079 0.989851 0.989851
0.190296 0.002263 0.024992
0.190750 0.002718 0.141242
0.191216 0.003184 0.260418
0.191688 0.003656 0.381048
0.192164 0.004132 0.502667
0.192642 0.004610 0.625041
0.193124 0.005091 0.748027
0.193607 0.005574 0.871527
0.193930 0.005898 0.954319
0.194358 0.110771 0.029054
0.194813 0.111225 0.145304
0.195279 0.111692 0.264481
0.195751 0.112163 0.385110
0.196226 0.112639 0.506729
0.196705 0.113118 0.629104
0.197186 0.113599 0.752089
0.197669 0.114082 0.875589
0.197993 0.114406 0.958382
0.198952 0.233486 0.033649
0.199407 0.233940 0.149899
0.199873 0.234406 0.269075
0.200345 0.234878 0.389704
0.200821 0.235354 0.511324
0.201299 0.235832 0.633698
0.201780 0.236313 0.756684
0.202263 0.236796 0.880184
0.202587 0.237120 0.962976
0.203612 0.357947 0.038308
0.204067 0.358402 0.154558
0.204533 0.358868 0.273735
0.205005 0.359340 0.394364
0.205480 0.359815 0.515984
0.205959 0.360294 0.638358
0.206440 0.360775 0.761343
0.206923 0.361258 0.884843
0.207247 0.361582 0.967636
0.208314 0.483536 0.043010
0.208769 0.483991 0.159260
0.209235 0.484457 0.278437
0.209707 0.484929 0.399066
0.210182 0.485405 0.520686
0.210661 0.485883 0.643060
0.211142 0.486364 0.766045
0.211625 0.486847 0.889545
0.211949 0.487171 0.972338
0.213047 0.609964 0.047744
0.213502 0.610419 0.163994
0.213968 0.610885 0.283170
0.214440 0.611357 0.403800
0.214916 0.611833 0.525419
0.215394 0.612311 0.647793
0.215875 0.612792 0.770779
0.216358 0.613275 0.894279
0.216682 0.613599 0.977071
0.217806 0.737062 0.052502
0.218261 0.737517 0.168752
0.218727 0.737983 0.287929
0.219198 0.738455 0.408558
0.219674 0.738930 0.530177
0.220153 0.739409 0.652552
0.220634 0.739890 0.775537
0.221117 0.740373 0.899037
0.221441 0.740697 0.981829
0.222585 0.864718 0.057281
0.223040 0.865172 0.173531
0.223506 0.865638 0.292708
0.223978 0.866110 0.413337
0.224453 0.866586 0.534957
0.224932 0.867064 0.657331
0.225413 0.867545 0.780317
0.225896 0.868028 0.903816
0.226220 0.868352 0.986609
0.227185 0.987574 0.061881
0.227640 0.988028 0.178131
0.228106 0.988494 0.297308
0.228577 0.988966 0.417937
0.229053 0.989442 0.539556
0.229532 0.989920 0.661931
0.230013 0.990402 0.784916
0.230496 0.990885 0.908416
0.230820 0.991208 0.991208
0.311076 0.003644 0.026372
0.311531 0.004098 0.142622
0.311997 0.004565 0.261799
0.312469 0.005036 0.382428
0.312945 0.005512 0.504048
0.313423 0.005991 0.626422
0.313904 0.006472 0.749407
0.314387 0.006955 0.872907
0.314711 0.007279 0.955700
0.315139 0.112151 0.030435
0.315593 0.112606 0.146685
0.316060 0.113072 0.265861
0.316531 0.113544 0.386491
0.317007 0.114020 0.508110
0.317486 0.114498 0.630484
0.317967 0.114979 0.753470
0.318450 0.115462 0.876970
0.318774 0.115786 0.959762
0.319733 0.234866 0.035029
0.320188 0.235321 0.151279
0.320654 0.235787 0.270456
0.321126 0.236259 0.391085
0.321601 0.236734 0.512704
0.322080 0.237213 0.635079
0.322561 0.237694 0.758064
0.323044 0.238177 0.881564
0.323368 0.238501 0.964356
0.324393 0.359327 0.039689
0.324848 0.359782 0.155939
0.325314 0.360248 0.275115
0.325785 0.360720 0.395745
0.326261 0.361196 0.517364
0.326740 0.361674 0.639738
0.327221 0.362155 0.762724
0.327704 0.362638 0.886224
0.328028 0.362962 0.969016
0.329095 0.484917 0.044391
0.329549 0.485371 0.160641
0.330016 0.485838 0.279817
0.330487 0.486309 0.400447
0.330963 0.486785 0.522066
0.331442 0.487264 0.644440
0.331923 0.487745 0.767426
0.332406 0.488228 0.890926
0.332730 0.488552 0.973718
0.333828 0.611345 0.049124
0.334283 0.611800 0.165374
0.334749 0.612266 0.284551
0.335221 0.612738 0.405180
0.335696 0.613213 0.526799
0.336175 0.613692 0.649174
0.336656 0.614173 0.772159
0.337139 0.614656 0.895659
0.337463 0.614980 0.978451
0.338587 0.738443 0.053883
0.339041 0.738897 0.170133
0.339507 0.739363 0.289309
0.339979 0.739835 0.409938
0.340455 0.740311 0.531558
0.340934 0.740789 0.653932
0.341415 0.741270 0.776918
0.341898 0.741754 0.900418
0.342221 0.742077 0.983210
0.343366 0.866098 0.058662
0.343821 0.866553 0.174912
0.344287 0.867019 0.294089
0.344759 0.867491 0.414718
0.345234 0.867966 0.536337
0.345713 0.868445 0.658711
0.346194 0.868926 0.781697
0.346677 0.869409 0.905197
0.347001 0.869733 0.987989
0.347966 0.988954 0.063261
0.348420 0.989409 0.179512
0.348886 0.989875 0.298688
0.349358 0.990347 0.419317
0.349834 0.990822 0.540937
0.350312 0.991301 0.663311
0.350793 0.991782 0.786297
0.351277 0.992265 0.909797
0.351600 0.992589 0.992589
0.433079 0.005038 0.027767
0.433534 0.005493 0.144017
0.434000 0.005959 0.263193
0.434472 0.006431 0.383823
0.434948 0.006907 0.505442
0.435426 0.007385 0.627816
0.435907 0.007866 0.750802
0.436390 0.008349 0.874302
0.436714 0.008673 0.957094
0.437142 0.113546 0.031829
0.437596 0.114000 0.148079
0.438063 0.114467 0.267256
0.438534 0.114938 0.387885
0.439010 0.115414 0.509504
0.439489 0.115893 0.631879
0.439970 0.116374 0.754864
0.440453 0.116857 0.878364
0.440776 0.117181 0.961157
0.441736 0.236261 0.036423
0.442191 0.236715 0.152674
0.442657 0.237181 0.271850
0.443129 0.237653 0.392479
0.443604 0.238129 0.514099
0.444083 0.238607 0.636473
0.444564 0.239088 0.759459
0.445047 0.239571 0.882959
0.445371 0.239895 0.965751
0.446396 0.360722 0.041083
0.446850 0.361177 0.157333
0.447317 0.361643 0.276510
0.447788 0.362115 0.397139
0.448264 0.362590 0.518759
0.448743 0.363069 0.641133
0.449224 0.363550 0.764118
0.449707 0.364033 0.887618
0.450031 0.364357 0.970411
0.451098 0.486311 0.045785
0.451552 0.486766 0.162035
0.452019 0.487232 0.281212
0.452490 0.487704 0.401841
0.452966 0.488180 0.523461
0.453445 0.488658 0.645835
0.453926 0.489139 0.768820
0.454409 0.489622 0.892320
0.454733 0.489946 0.975113
0.455831 0.612739 0.050519
0.456286 0.613194 0.166769
0.456752 0.613660 0.285945
0.457224 0.614132 0.406575
0.457699 0.614608 0.528194
0.458178 0.615086 0.650568
0.458659 0.615567 0.773554
0.459142 0.616050 0.897054
0.459466 0.616374 0.979846
0.460590 0.739837 0.055277
0.461044 0.740292 0.171527
0.461510 0.740758 0.290704
0.461982 0.741230 0.411333
0.462458 0.741705 0.532952
0.462936 0.742184 0.655327
0.463418 0.742665 0.778312
0.463901 0.743148 0.901812
0.464224 0.743472 0.984604
0.465369 0.867493 0.060056
0.465824 0.867947 0.176306
0.466290 0.868413 0.295483
0.466762 0.868885 0.416112
0.467237 0.869361 0.537732
0.467716 0.869839 0.660106
0.468197 0.870320 0.783092
0.468680 0.870803 0.906591
0.469004 0.871127 0.989384
0.469969 0.990349 0.064656
0.470423 0.990803 0.180906
0.470889 0.991269 0.300083
0.471361 0.991741 0.420712
0.471837 0.992217 0.542331
0.472315 0.992695 0.664706
0.472796 0.993177 0.787691
0.473279 0.993660 0.911191
0.473603 0.993983 0.993983
0.555964 0.006443 0.029171
0.556419 0.006898 0.145421
0.556885 0.007364 0.264598
0.557357 0.007835 0.385227
0.557833 0.008311 0.506847
0.558311 0.008790 0.629221
0.558792 0.009271 0.752206
0.559275 0.009754 0.875706
0.559599 0.010078 0.958499
0.560027 0.114950 0.033234
0.560481 0.115405 0.149484
0.560948 0.115871 0.268660
0.561419 0.116343 0.389290
0.561895 0.116819 0.510909
0.562374 0.117297 0.633283
0.562855 0.117778 0.756269
0.563338 0.118261 0.879769
0.563662 0.118585 0.962561
0.564621 0.237665 0.037828
0.565076 0.238120 0.154078
0.565542 0.238586 0.273255
0.566014 0.239058 0.393884
0.566489 0.239533 0.515503
0.566968 0.240012 0.637878
0.567449 0.240493 0.760863
0.567932 0.240976 0.884363
0.568256 0.241300 0.967155
0.569281 0.362127 0.042488
0.569736 0.362581 0.158738
0.570202 0.363047 0.277915
0.570673 0.363519 0.398544
0.571149 0.363995 0.520163
0.571628 0.364473 0.642537
0.572109 0.364954 0.765523
0.572592 0.365437 0.889023
0.572916 0.365761 0.971815
0.573983 0.487716 0.047190
0.574437 0.488171 0.163440
0.574904 0.488637 0.282617
0.575375 0.489108 0.403246
0.575851 0.489584 0.524865
0.576330 0.490063 0.647239
0.576811 0.490544 0.770225
0.577294 0.491027 0.893725
0.577618 0.491351 0.976517
0.578716 0.614144 0.051923
0.579171 0.614599 0.168173
0.579637 0.615065 0.287350
0.580109 0.615537 0.407979
0.580584 0.616012 0.529598
0.581063 0.616491 0.651973
0.581544 0.616972 0.774958
0.582027 0.617455 0.898458
0.582351 0.617779 0.981251
0.583475 0.741242 0.056682
0.583929 0.741696 0.172932
0.584395 0.742162 0.292108
0.584867 0.742634 0.412738
0.585343 0.743110 0.534357
0.585822 0.743589 0.656731
0.586303 0.744070 0.779717
0.586786 0.744553 0.903217
0.587109 0.744876 0.986009
0.588254 0.868897 0.061461
0.588709 0.869352 0.177711
0.589175 0.869818 0.296888
0.589647 0.870290 0.417517
0.590122 0.870765 0.539136
0.590601 0.871244 0.661511
0.591082 0.871725 0.784496
0.591565 0.872208 0.907996
0.591889 0.872532 0.990788
0.592854 0.991753 0.066061
0.593308 0.992208 0.182311
0.593774 0.992674 0.301487
0.594246 0.993146 0.422117
0.594722 0.993621 0.543736
0.595200 0.994100 0.666110
0.595681 0.994581 0.789096
0.596165 0.995064 0.912596
0.596488 0.995388 0.995388
0.679542 0.007855 0.030584
0.679996 0.008310 0.146834
0.680462 0.008776 0.266010
0.680934 0.009248 0.386640
0.681410 0.009724 0.508259
0.681889 0.010202 0.630633
0.682370 0.010683 0.753619
0.682853 0.011166 0.877119
0.683176 0.011490 0.959911
0.683604 0.116363 0.034646
0.684059 0.116817 0.150896
0.684525 0.117284 0.270073
0.684997 0.117755 0.390702
0.685472 0.118231 0.512322
0.685951 0.118710 0.634696
0.686432 0.119191 0.757681
0.686915 0.119674 0.881181
0.687239 0.119998 0.963974
0.688198 0.239078 0.039241
0.688653 0.239532 0.155491
0.689119 0.239998 0.274667
0.689591 0.240470 0.395296
0.690067 0.240946 0.516916
0.690545 0.241424 0.639290
0.691026 0.241905 0.762276
0.691509 0.242388 0.885776
0.691833 0.242712 0.968568
0.692858 0.363539 0.043900
0.693313 0.363994 0.160150
0.693779 0.364460 0.279327
0.694251 0.364932 0.399956
0.694726 0.365407 0.521576
0.695205 0.365886 0.643950
0.695686 0.366367 0.766935
0.696169 0.366850 0.890435
0.696493 0.367174 0.973228
0.697560 0.489128 0.048602
0.698015 0.489583 0.164852
0.698481 0.490049 0.284029
0.698953 0.490521 0.404658
0.699428 0.490997 0.526278
0.699907 0.491475 0.648652
0.700388 0.491956 0.771637
0.700871 0.492439 0.895137
0.701195 0.492763 0.977930
0.702294 0.615556 0.053336
0.702748 0.616011 0.169586
0.703214 0.616477 0.288762
0.703686 0.616949 0.409392
0.704162 0.617425 0.531011
0.704640 0.617903 0.653385
0.705121 0.618384 0.776371
0.705604 0.618867 0.899871
0.705928 0.619191 0.982663
0.707052 0.742654 0.058094
0.707507 0.743109 0.174344
0.707973 0.743575 0.293521
0.708445 0.744047 0.414150
0.708920 0.744522 0.535769
0.709399 0.745001 0.658144
0.709880 0.745482 0.781129
0.710363 0.745965 0.904629
0.710687 0.746289 0.987421
0.711831 0.870310 0.062873
0.712286 0.870764 0.179123
0.712752 0.871230 0.298300
0.713224 0.871702 0.418929
0.713700 0.872178 0.540549
0.714178 0.872656 0.662923
0.714659 0.873137 0.785909
0.715142 0.873621 0.909408
0.715466 0.873944 0.992201
0.716431 0.993166 0.067473
0.716886 0.993620 0.183723
0.717352 0.994086 0.302900
0.717824 0.994558 0.423529
0.718299 0.995034 0.545148
0.718778 0.995513 0.667523
0.719259 0.995994 0.790508
0.719742 0.996477 0.914008
0.720066 0.996800 0.996800
0.803690 0.009274 0.032003
0.804144 0.009729 0.148253
0.804611 0.010195 0.267429
0.805082 0.010667 0.388059
0.805558 0.011143 0.509678
0.806037 0.011621 0.632052
0.806518 0.012102 0.755038
0.807001 0.012585 0.878538
0.807325 0.012909 0.961330
0.807752 0.117782 0.036065
0.808207 0.118236 0.152315
0.808673 0.118703 0.271492
0.809145 0.119174 0.392121
0.809620 0.119650 0.513741
0.810099 0.120129 0.636115
0.810580 0.120610 0.759100
0.811063 0.121093 0.882600
0.811387 0.121417 0.965393
0.812347 0.240497 0.040660
0.812801 0.240951 0.156910
0.813267 0.241417 0.276086
0.813739 0.241889 0.396715
0.814215 0.242365 0.518335
0.814693 0.242843 0.640709
0.815174 0.243324 0.763695
0.815658 0.243807 0.887195
0.815981 0.244131 0.969987
0.817006 0.364958 0.045319
0.817461 0.365413 0.161569
0.817927 0.365879 0.280746
0.818399 0.366351 0.401375
0.818875 0.366826 0.522995
0.819353 0.367305 0.645369
0.819834 0.367786 0.768354
0.820317 0.368269 0.891854
0.820641 0.368593 0.974647
0.821708 0.490547 0.050021
0.822163 0.491002 0.166271
0.822629 0.491468 0.285448
0.823101 0.491940 0.406077
0.823577 0.492416 0.527697
0.824055 0.492894 0.650071
0.824536 0.493375 0.773056
0.825019 0.493858 0.896556
0.825343 0.494182 0.979349
0.826442 0.616975 0.054755
0.826896 0.617430 0.171005
0.827362 0.617896 0.290181
0.827834 0.618368 0.410811
0.828310 0.618844 0.532430
0.828789 0.619322 0.654804
0.829270 0.619803 0.777790
0.829753 0.620286 0.901290
0.830076 0.620610 0.984082
0.831200 0.744073 0.059513
0.831655 0.744528 0.175763
0.832121 0.744994 0.294940
0.832593 0.745466 0.415569
0.833068 0.745941 0.537188
0.833547 0.746420 0.659563
0.834028 0.746901 0.782548
0.834511 0.747384 0.906048
0.834835 0.747708 0.988840
0.835979 0.871729 0.064292
0.836434 0.872183 0.180542
0.836900 0.872649 0.299719
0.837372 0.873121 0.420348
0.837848 0.873597 0.541968
0.838326 0.874075 0.664342
0.838807 0.874556 0.787328
0.839290 0.875040 0.910827
0.839614 0.875363 0.993620
0.840579 0.994585 0.068892
0.841034 0.995039 0.185142
0.841500 0.995505 0.304319
0.841972 0.995977 0.424948
0.842447 0.996453 0.546567
0.842926 0.996932 0.668942
0.843407 0.997413 0.791927
0.843890 0.997896 0.915427
0.844214 0.998219 0.998219
0.928324 0.010699 0.033427
0.928779 0.011154 0.149677
0.929245 0.011620 0.268854
0.929716 0.012091 0.389483
0.930192 0.012567 0.511103
0.930671 0.013046 0.633477
0.931152 0.013527 0.756463
0.931635 0.014010 0.879962
0.931959 0.014334 0.962755
0.932386 0.119206 0.037490
0.932841 0.119661 0.153740
0.933307 0.120127 0.272916
0.933779 0.120599 0.393546
0.934255 0.121075 0.515165
0.934733 0.121553 0.637539
0.935214 0.122034 0.760525
0.935697 0.122517 0.884025
0.936021 0.122841 0.966817
0.936981 0.241921 0.042084
0.937435 0.242376 0.158334
0.937901 0.242842 0.277511
0.938373 0.243314 0.398140
0.938849 0.243789 0.519759
0.939328 0.244268 0.642134
0.939809 0.244749 0.765119
0.940292 0.245232 0.888619
0.940615 0.245556 0.971411
0.941640 0.366383 0.046744
0.942095 0.366837 0.162994
0.942561 0.367303 0.282171
0.943033 0.367775 0.402800
0.943509 0.368251 0.524419
0.943987 0.368729 0.646793
0.944468 0.369210 0.769779
0.944951 0.369693 0.893279
0.945275 0.370017 0.976071
0.946342 0.491972 0.051446
0.946797 0.492427 0.167696
0.947263 0.492893 0.286873
0.947735 0.493364 0.407502
0.948211 0.493840 0.529121
0.948689 0.494319 0.651495
0.949170 0.494800 0.774481
0.949653 0.495283 0.897981
0.949977 0.495607 0.980773
0.951076 0.618400 0.056179
0.951530 0.618855 0.172429
0.951997 0.619321 0.291606
0.952468 0.619793 0.412235
0.952944 0.620268 0.533855
0.953423 0.620747 0.656229
0.953904 0.621228 0.779214
0.954387 0.621711 0.902714
0.954710 0.622035 0.985507
0.955834 0.745498 0.060938
0.956289 0.745952 0.177188
0.956755 0.746418 0.296364
0.957227 0.746890 0.416994
0.957702 0.747366 0.538613
0.958181 0.747845 0.660987
0.958662 0.748326 0.783973
0.959145 0.748809 0.907473
0.959469 0.749132 0.990265
0.960613 0.873153 0.065717
0.961068 0.873608 0.181967
0.961534 0.874074 0.301144
0.962006 0.874546 0.421773
0.962482 0.875021 0.543392
0.962960 0.875500 0.665767
0.963441 0.875981 0.788752
0.963924 0.876464 0.912252
0.964248 0.876788 0.995044
0.965213 0.996009 0.070317
0.965668 0.996464 0.186567
0.966134 0.996930 0.305743
0.966606 0.997402 0.426373
0.967081 0.997877 0.547992
0.967560 0.998356 0.670366
0.968041 0.998837 0.793352
0.968524 0.999320 0.916852
0.968848 0.999644 0.999644
