skills/editops-orchestrator/assets/grade/luts/cool_tech_v19.cube
TITLE "cool_tech_v19"
LUT_3D_SIZE 5
DOMAIN_MIN 0.0 0.0 0.0
DOMAIN_MAX 1.0 1.0 1.0
0.000196 0.000196 0.032756
0.001573 0.001573 0.263276
0.003005 0.003005 0.503080
0.004465 0.004465 0.747365
0.005548 0.005548 0.928706
0.012575 0.220518 0.045135
0.013952 0.221895 0.275655
0.015385 0.223328 0.515459
0.016844 0.224787 0.759745
0.017927 0.225870 0.941085
0.026682 0.471584 0.059242
0.028059 0.472961 0.289762
0.029491 0.474394 0.529566
0.030951 0.475853 0.773851
0.032034 0.476936 0.955192
0.041087 0.727963 0.073647
0.042464 0.729340 0.304167
0.043896 0.730772 0.543971
0.045356 0.732232 0.788256
0.046439 0.733315 0.969597
0.055153 0.978311 0.087713
0.056530 0.979688 0.318233
0.057963 0.981121 0.558037
0.059422 0.982580 0.802323
0.060505 0.983663 0.983663
0.157631 0.002933 0.035494
0.159008 0.004310 0.266013
0.160441 0.005743 0.505818
0.161900 0.007202 0.750103
0.162983 0.008286 0.931443
0.170010 0.223256 0.047873
0.171388 0.224633 0.278393
0.172820 0.226065 0.518197
0.174279 0.227525 0.762482
0.175363 0.228608 0.943823
0.184117 0.474322 0.061979
0.185494 0.475699 0.292499
0.186927 0.477131 0.532304
0.188386 0.478591 0.776589
0.189469 0.479674 0.957929
0.198522 0.730700 0.076385
0.199899 0.732077 0.306905
0.201332 0.733510 0.546709
0.202791 0.734969 0.790994
0.203875 0.736052 0.972335
0.212589 0.981049 0.090451
0.213966 0.982426 0.320971
0.215398 0.983858 0.560775
0.216858 0.985318 0.805060
0.217941 0.986401 0.986401
0.397080 0.007097 0.039657
0.398457 0.008474 0.270177
0.399889 0.009907 0.509981
0.401349 0.011366 0.754267
0.402432 0.012449 0.935607
0.409459 0.227419 0.052037
0.410836 0.228796 0.282556
0.412269 0.230229 0.522361
0.413728 0.231688 0.766646
0.414811 0.232772 0.947986
0.423566 0.478485 0.066143
0.424943 0.479862 0.296663
0.426375 0.481295 0.536467
0.427835 0.482754 0.780753
0.428918 0.483838 0.962093
0.437971 0.734864 0.080548
0.439348 0.736241 0.311068
0.440780 0.737674 0.550872
0.442240 0.739133 0.795158
0.443323 0.740216 0.976498
0.452037 0.985212 0.094615
0.453414 0.986589 0.325135
0.454847 0.988022 0.564939
0.456306 0.989481 0.809224
0.457389 0.990565 0.990565
0.642382 0.011362 0.043923
0.643759 0.012740 0.274443
0.645192 0.014172 0.514247
0.646651 0.015632 0.758532
0.647734 0.016715 0.939873
0.654761 0.231685 0.056302
0.656139 0.233062 0.286822
0.657571 0.234495 0.526626
0.659030 0.235954 0.770911
0.660114 0.237037 0.952252
0.668868 0.482751 0.070409
0.670245 0.484128 0.300929
0.671678 0.485560 0.540733
0.673137 0.487020 0.785018
0.674220 0.488103 0.966359
0.683273 0.739129 0.084814
0.684650 0.740506 0.315334
0.686083 0.741939 0.555138
0.687542 0.743398 0.799423
0.688626 0.744482 0.980764
0.697340 0.989478 0.098880
0.698717 0.990855 0.329400
0.700149 0.992288 0.569204
0.701609 0.993747 0.813490
0.702692 0.994830 0.994830
0.891289 0.015691 0.048251
0.892667 0.017068 0.278771
0.894099 0.018500 0.518575
0.895559 0.019960 0.762860
0.896642 0.021043 0.944201
0.903669 0.236013 0.060630
0.905046 0.237390 0.291150
0.906478 0.238823 0.530954
0.907938 0.240282 0.775240
0.909021 0.241365 0.956580
0.917775 0.487079 0.074737
0.919153 0.488456 0.305257
0.920585 0.489889 0.545061
0.922044 0.491348 0.789346
0.923128 0.492431 0.970687
0.932181 0.743458 0.089142
0.933558 0.744835 0.319662
0.934990 0.746267 0.559466
0.936450 0.747727 0.803751
0.937533 0.748810 0.985092
0.946247 0.993806 0.103208
0.947624 0.995183 0.333728
0.949057 0.996616 0.573532
0.950516 0.998075 0.817818
0.951599 0.999158 0.999158
