skills/editops-orchestrator/assets/grade/luts/cool_tech_v20.cube
TITLE "cool_tech_v20"
LUT_3D_SIZE 9
DOMAIN_MIN 0.0 0.0 0.0
DOMAIN_MAX 1.0 1.0 1.0
0.000212 0.000212 0.033955
0.000917 0.000917 0.146972
0.001646 0.001646 0.263895
0.002389 0.002389 0.382915
0.003141 0.003141 0.503398
0.003900 0.003900 0.625011
0.004664 0.004664 0.747547
0.005433 0.005433 0.870864
0.005776 0.005776 0.925776
0.005898 0.097320 0.039641
0.006603 0.098025 0.152658
0.007332 0.098754 0.269580
0.008075 0.099497 0.388600
0.008826 0.100248 0.509084
0.009585 0.101007 0.630697
0.010350 0.101772 0.753233
0.011119 0.102541 0.876549
0.011462 0.102884 0.931462
0.013033 0.219187 0.046776
0.013738 0.219892 0.159793
0.014467 0.220622 0.276716
0.015210 0.221364 0.395736
0.015962 0.222116 0.516219
0.016721 0.222875 0.637832
0.017485 0.223639 0.760368
0.018254 0.224409 0.883685
0.018597 0.224751 0.938597
0.020333 0.343876 0.054077
0.021039 0.344581 0.167093
0.021768 0.345311 0.284016
0.022511 0.346053 0.403036
0.023262 0.346805 0.523519
0.024021 0.347564 0.645133
0.024786 0.348328 0.767669
0.025555 0.349098 0.890985
0.025898 0.349440 0.945898
0.027740 0.470369 0.061483
0.028445 0.471074 0.174500
0.029174 0.471804 0.291422
0.029917 0.472546 0.410442
0.030668 0.473298 0.530926
0.031427 0.474057 0.652539
0.032192 0.474821 0.775075
0.032961 0.475591 0.898391
0.033304 0.475933 0.953304
0.035224 0.598200 0.068967
0.035929 0.598906 0.181984
0.036659 0.599635 0.298907
0.037401 0.600378 0.417927
0.038153 0.601129 0.538410
0.038912 0.601888 0.660023
0.039676 0.602653 0.782559
0.040446 0.603422 0.905876
0.040788 0.603765 0.960788
0.042771 0.727100 0.076514
0.043476 0.727805 0.189531
0.044206 0.728534 0.306454
0.044948 0.729277 0.425474
0.045700 0.730028 0.545957
0.046459 0.730787 0.667570
0.047223 0.731552 0.790106
0.047993 0.732321 0.913423
0.048335 0.732664 0.968335
0.050370 0.856888 0.084114
0.051075 0.857593 0.197130
0.051805 0.858323 0.314053
0.052547 0.859065 0.433073
0.053299 0.859817 0.553556
0.054058 0.860576 0.675170
0.054822 0.861340 0.797705
0.055592 0.862110 0.921022
0.055934 0.862452 0.975934
0.057428 0.977428 0.091171
0.058133 0.978133 0.204188
0.058862 0.978862 0.321111
0.059605 0.979605 0.440131
0.060357 0.980357 0.560614
0.061116 0.981116 0.682227
0.061880 0.981880 0.804763
0.062649 0.982649 0.928080
0.062992 0.982992 0.982992
0.039009 0.000916 0.034659
0.039714 0.001621 0.147676
0.040444 0.002351 0.264599
0.041186 0.003093 0.383619
0.041938 0.003845 0.504102
0.042697 0.004604 0.625715
0.043461 0.005368 0.748251
0.044230 0.006138 0.871568
0.044573 0.006480 0.926480
0.044695 0.098024 0.040345
0.045400 0.098729 0.153362
0.046129 0.099458 0.270284
0.046872 0.100201 0.389304
0.047623 0.100953 0.509788
0.048382 0.101711 0.631401
0.049147 0.102476 0.753937
0.049916 0.103245 0.877254
0.050259 0.103588 0.932166
0.051830 0.219891 0.047480
0.052535 0.220597 0.160497
0.053265 0.221326 0.277420
0.054007 0.222069 0.396440
0.054759 0.222820 0.516923
0.055518 0.223579 0.638536
0.056282 0.224344 0.761072
0.057051 0.225113 0.884389
0.057394 0.225456 0.939301
0.059130 0.344580 0.054781
0.059836 0.345285 0.167798
0.060565 0.346015 0.284720
0.061308 0.346757 0.403740
0.062059 0.347509 0.524224
0.062818 0.348268 0.645837
0.063583 0.349032 0.768373
0.064352 0.349802 0.891689
0.064695 0.350144 0.946602
0.066537 0.471073 0.062187
0.067242 0.471778 0.175204
0.067971 0.472508 0.292127
0.068714 0.473250 0.411146
0.069466 0.474002 0.531630
0.070224 0.474761 0.653243
0.070989 0.475525 0.775779
0.071758 0.476295 0.899096
0.072101 0.476637 0.954008
0.074021 0.598905 0.069672
0.074726 0.599610 0.182688
0.075456 0.600339 0.299611
0.076198 0.601082 0.418631
0.076950 0.601834 0.539114
0.077709 0.602592 0.660728
0.078473 0.603357 0.783263
0.079243 0.604126 0.906580
0.079585 0.604469 0.961492
0.081568 0.727804 0.077219
0.082273 0.728509 0.190235
0.083003 0.729238 0.307158
0.083745 0.729981 0.426178
0.084497 0.730733 0.546661
0.085256 0.731491 0.668275
0.086020 0.732256 0.790811
0.086790 0.733025 0.914127
0.087132 0.733368 0.969039
0.089167 0.857592 0.084818
0.089872 0.858298 0.197835
0.090602 0.859027 0.314757
0.091345 0.859770 0.433777
0.092096 0.860521 0.554261
0.092855 0.861280 0.675874
0.093619 0.862045 0.798410
0.094389 0.862814 0.921726
0.094731 0.863157 0.976639
0.096225 0.978132 0.091875
0.096930 0.978837 0.204892
0.097660 0.979567 0.321815
0.098402 0.980309 0.440835
0.099154 0.981061 0.561318
0.099913 0.981820 0.682931
0.100677 0.982584 0.805467
0.101446 0.983354 0.928784
0.101789 0.983696 0.983696
0.153645 0.002997 0.036740
0.154350 0.003702 0.149757
0.155080 0.004431 0.266680
0.155823 0.005174 0.385700
0.156574 0.005926 0.506183
0.157333 0.006685 0.627796
0.158098 0.007449 0.750332
0.158867 0.008218 0.873649
0.159209 0.008561 0.928561
0.159331 0.100105 0.042426
0.160036 0.100810 0.155443
0.160766 0.101539 0.272365
0.161508 0.102282 0.391385
0.162260 0.103033 0.511869
0.163019 0.103792 0.633482
0.163783 0.104557 0.756018
0.164553 0.105326 0.879334
0.164895 0.105669 0.934247
0.166466 0.221972 0.049561
0.167171 0.222677 0.162578
0.167901 0.223407 0.279501
0.168644 0.224149 0.398521
0.169395 0.224901 0.519004
0.170154 0.225660 0.640617
0.170919 0.226424 0.763153
0.171688 0.227194 0.886470
0.172031 0.227536 0.941382
0.173767 0.346661 0.056862
0.174472 0.347366 0.169878
0.175201 0.348096 0.286801
0.175944 0.348838 0.405821
0.176696 0.349590 0.526304
0.177455 0.350349 0.647918
0.178219 0.351113 0.770454
0.178988 0.351883 0.893770
0.179331 0.352225 0.948683
0.181173 0.473154 0.064268
0.181878 0.473859 0.177285
0.182608 0.474589 0.294207
0.183350 0.475331 0.413227
0.184102 0.476083 0.533711
0.184861 0.476842 0.655324
0.185625 0.477606 0.777860
0.186395 0.478376 0.901176
0.186737 0.478718 0.956089
0.188658 0.600986 0.071752
0.189363 0.601691 0.184769
0.190092 0.602420 0.301692
0.190835 0.603163 0.420712
0.191586 0.603914 0.541195
0.192345 0.604673 0.662808
0.193110 0.605438 0.785344
0.193879 0.606207 0.908661
0.194222 0.606550 0.963573
0.196205 0.729885 0.079299
0.196910 0.730590 0.192316
0.197639 0.731319 0.309239
0.198382 0.732062 0.428259
0.199134 0.732813 0.548742
0.199892 0.733572 0.670355
0.200657 0.734337 0.792891
0.201426 0.735106 0.916208
0.201769 0.735449 0.971120
0.203804 0.859673 0.086899
0.204509 0.860378 0.199915
0.205238 0.861108 0.316838
0.205981 0.861850 0.435858
0.206733 0.862602 0.556341
0.207491 0.863361 0.677955
0.208256 0.864125 0.800490
0.209025 0.864895 0.923807
0.209368 0.865237 0.978719
0.210861 0.980213 0.093956
0.211566 0.980918 0.206973
0.212296 0.981647 0.323896
0.213039 0.982390 0.442916
0.213790 0.983142 0.563399
0.214549 0.983901 0.685012
0.215314 0.984665 0.807548
0.216083 0.985434 0.930865
0.216425 0.985777 0.985777
0.272092 0.005147 0.038890
0.272797 0.005852 0.151907
0.273527 0.006581 0.268830
0.274269 0.007324 0.387850
0.275021 0.008076 0.508333
0.275780 0.008835 0.629946
0.276544 0.009599 0.752482
0.277313 0.010368 0.875799
0.277656 0.010711 0.930711
0.277778 0.102255 0.044576
0.278483 0.102960 0.157593
0.279212 0.103689 0.274515
0.279955 0.104432 0.393535
0.280706 0.105183 0.514019
0.281465 0.105942 0.635632
0.282230 0.106707 0.758168
0.282999 0.107476 0.881484
0.283342 0.107819 0.936397
0.284913 0.224122 0.051711
0.285618 0.224827 0.164728
0.286348 0.225557 0.281651
0.287090 0.226299 0.400671
0.287842 0.227051 0.521154
0.288601 0.227810 0.642767
0.289365 0.228574 0.765303
0.290134 0.229344 0.888620
0.290477 0.229686 0.943532
0.292213 0.348811 0.059012
0.292919 0.349516 0.172028
0.293648 0.350246 0.288951
0.294391 0.350988 0.407971
0.295142 0.351740 0.528454
0.295901 0.352499 0.650068
0.296666 0.353263 0.772604
0.297435 0.354033 0.895920
0.297778 0.354375 0.950833
0.299620 0.475304 0.066418
0.300325 0.476009 0.179435
0.301054 0.476739 0.296357
0.301797 0.477481 0.415377
0.302548 0.478233 0.535861
0.303307 0.478992 0.657474
0.304072 0.479756 0.780010
0.304841 0.480526 0.903326
0.305184 0.480868 0.958239
0.307104 0.603135 0.073902
0.307809 0.603841 0.186919
0.308539 0.604570 0.303842
0.309281 0.605313 0.422862
0.310033 0.606064 0.543345
0.310792 0.606823 0.664958
0.311556 0.607588 0.787494
0.312326 0.608357 0.910811
0.312668 0.608700 0.965723
0.314651 0.732035 0.081449
0.315356 0.732740 0.194466
0.316086 0.733469 0.311389
0.316828 0.734212 0.430409
0.317580 0.734963 0.550892
0.318339 0.735722 0.672505
0.319103 0.736487 0.795041
0.319873 0.737256 0.918358
0.320215 0.737599 0.973270
0.322250 0.861823 0.089049
0.322955 0.862528 0.202065
0.323685 0.863258 0.318988
0.324427 0.864000 0.438008
0.325179 0.864752 0.558491
0.325938 0.865511 0.680105
0.326702 0.866275 0.802640
0.327472 0.867045 0.925957
0.327814 0.867387 0.980869
0.329308 0.982363 0.096106
0.330013 0.983068 0.209123
0.330743 0.983797 0.326046
0.331485 0.984540 0.445066
0.332237 0.985292 0.565549
0.332996 0.986051 0.687162
0.333760 0.986815 0.809698
0.334529 0.987584 0.933015
0.334872 0.987927 0.987927
0.392624 0.007335 0.041078
0.393329 0.008040 0.154095
0.394059 0.008769 0.271017
0.394802 0.009512 0.390037
0.395553 0.010264 0.510521
0.396312 0.011022 0.632134
0.397077 0.011787 0.754670
0.397846 0.012556 0.877987
0.398189 0.012899 0.932899
0.398310 0.104442 0.046764
0.399015 0.105147 0.159780
0.399745 0.105877 0.276703
0.400487 0.106620 0.395723
0.401239 0.107371 0.516206
0.401998 0.108130 0.637820
0.402762 0.108895 0.760356
0.403532 0.109664 0.883672
0.403874 0.110007 0.938584
0.405445 0.226310 0.053899
0.406151 0.227015 0.166916
0.406880 0.227745 0.283838
0.407623 0.228487 0.402858
0.408374 0.229239 0.523342
0.409133 0.229998 0.644955
0.409898 0.230762 0.767491
0.410667 0.231532 0.890808
0.411010 0.231874 0.945720
0.412746 0.350999 0.061200
0.413451 0.351704 0.174216
0.414181 0.352433 0.291139
0.414923 0.353176 0.410159
0.415675 0.353928 0.530642
0.416434 0.354687 0.652256
0.417198 0.355451 0.774791
0.417967 0.356220 0.898108
0.418310 0.356563 0.953020
0.420152 0.477492 0.068606
0.420857 0.478197 0.181622
0.421587 0.478926 0.298545
0.422329 0.479669 0.417565
0.423081 0.480421 0.538048
0.423840 0.481180 0.659662
0.424604 0.481944 0.782198
0.425374 0.482713 0.905514
0.425716 0.483056 0.960427
0.427637 0.605323 0.076090
0.428342 0.606028 0.189107
0.429071 0.606758 0.306030
0.429814 0.607500 0.425050
0.430566 0.608252 0.545533
0.431324 0.609011 0.667146
0.432089 0.609775 0.789682
0.432858 0.610545 0.912999
0.433201 0.610887 0.967911
0.435184 0.734222 0.083637
0.435889 0.734927 0.196654
0.436618 0.735657 0.313577
0.437361 0.736400 0.432597
0.438113 0.737151 0.553080
0.438871 0.737910 0.674693
0.439636 0.738674 0.797229
0.440405 0.739444 0.920546
0.440748 0.739786 0.975458
0.442783 0.864011 0.091236
0.443488 0.864716 0.204253
0.444217 0.865446 0.321176
0.444960 0.866188 0.440196
0.445712 0.866940 0.560679
0.446470 0.867699 0.682292
0.447235 0.868463 0.804828
0.448004 0.869233 0.928145
0.448347 0.869575 0.983057
0.449840 0.984551 0.098294
0.450545 0.985256 0.211311
0.451275 0.985985 0.328233
0.452018 0.986728 0.447253
0.452769 0.987480 0.567737
0.453528 0.988238 0.689350
0.454293 0.989003 0.811886
0.455062 0.989772 0.935203
0.455405 0.990115 0.990115
0.514621 0.009549 0.043292
0.515326 0.010254 0.156309
0.516055 0.010984 0.273232
0.516798 0.011726 0.392252
0.517549 0.012478 0.512735
0.518308 0.013237 0.634348
0.519073 0.014001 0.756884
0.519842 0.014771 0.880201
0.520185 0.015113 0.935113
0.520306 0.106657 0.048978
0.521011 0.107362 0.161995
0.521741 0.108091 0.278917
0.522483 0.108834 0.397937
0.523235 0.109586 0.518421
0.523994 0.110344 0.640034
0.524758 0.111109 0.762570
0.525528 0.111878 0.885887
0.525870 0.112221 0.940799
0.527442 0.228525 0.056113
0.528147 0.229230 0.169130
0.528876 0.229959 0.286053
0.529619 0.230702 0.405073
0.530370 0.231453 0.525556
0.531129 0.232212 0.647169
0.531894 0.232977 0.769705
0.532663 0.233746 0.893022
0.533006 0.234089 0.947934
0.534742 0.353213 0.063414
0.535447 0.353918 0.176431
0.536177 0.354648 0.293353
0.536919 0.355390 0.412373
0.537671 0.356142 0.532857
0.538430 0.356901 0.654470
0.539194 0.357665 0.777006
0.539964 0.358435 0.900322
0.540306 0.358777 0.955235
0.542148 0.479706 0.070820
0.542853 0.480411 0.183837
0.543583 0.481141 0.300760
0.544325 0.481883 0.419780
0.545077 0.482635 0.540263
0.545836 0.483394 0.661876
0.546600 0.484158 0.784412
0.547370 0.484928 0.907729
0.547712 0.485270 0.962641
0.549633 0.607538 0.078305
0.550338 0.608243 0.191321
0.551067 0.608972 0.308244
0.551810 0.609715 0.427264
0.552562 0.610467 0.547747
0.553320 0.611225 0.669361
0.554085 0.611990 0.791897
0.554854 0.612759 0.915213
0.555197 0.613102 0.970125
0.557180 0.736437 0.085852
0.557885 0.737142 0.198868
0.558614 0.737871 0.315791
0.559357 0.738614 0.434811
0.560109 0.739366 0.555294
0.560867 0.740124 0.676908
0.561632 0.740889 0.799444
0.562401 0.741658 0.922760
0.562744 0.742001 0.977673
0.564779 0.866225 0.093451
0.565484 0.866931 0.206468
0.566214 0.867660 0.323390
0.566956 0.868403 0.442410
0.567708 0.869154 0.562894
0.568467 0.869913 0.684507
0.569231 0.870678 0.807043
0.570000 0.871447 0.930359
0.570343 0.871790 0.985272
0.571837 0.986765 0.100508
0.572542 0.987470 0.213525
0.573271 0.988200 0.330448
0.574014 0.988942 0.449468
0.574765 0.989694 0.569951
0.575524 0.990453 0.691564
0.576289 0.991217 0.814100
0.577058 0.991987 0.937417
0.577401 0.992329 0.992329
0.637750 0.011784 0.045527
0.638455 0.012489 0.158544
0.639185 0.013219 0.275467
0.639927 0.013961 0.394487
0.640679 0.014713 0.514970
0.641438 0.015472 0.636583
0.642202 0.016236 0.759119
0.642972 0.017006 0.882436
0.643314 0.017348 0.937348
0.643436 0.108892 0.051213
0.644141 0.109597 0.164230
0.644870 0.110326 0.281152
0.645613 0.111069 0.400172
0.646365 0.111821 0.520656
0.647123 0.112579 0.642269
0.647888 0.113344 0.764805
0.648657 0.114113 0.888122
0.649000 0.114456 0.943034
0.650571 0.230759 0.058348
0.651276 0.231465 0.171365
0.652006 0.232194 0.288288
0.652748 0.232937 0.407308
0.653500 0.233688 0.527791
0.654259 0.234447 0.649404
0.655023 0.235212 0.771940
0.655793 0.235981 0.895257
0.656135 0.236324 0.950169
0.657872 0.355448 0.065649
0.658577 0.356153 0.178666
0.659306 0.356883 0.295588
0.660049 0.357625 0.414608
0.660801 0.358377 0.535092
0.661559 0.359136 0.656705
0.662324 0.359900 0.779241
0.663093 0.360670 0.902557
0.663436 0.361012 0.957470
0.665278 0.481941 0.073055
0.665983 0.482646 0.186072
0.666712 0.483376 0.302995
0.667455 0.484118 0.422014
0.668207 0.484870 0.542498
0.668965 0.485629 0.664111
0.669730 0.486393 0.786647
0.670499 0.487163 0.909964
0.670842 0.487505 0.964876
0.672762 0.609773 0.080540
0.673467 0.610478 0.193556
0.674197 0.611207 0.310479
0.674940 0.611950 0.429499
0.675691 0.612702 0.549982
0.676450 0.613460 0.671596
0.677214 0.614225 0.794131
0.677984 0.614994 0.917448
0.678326 0.615337 0.972360
0.680309 0.738672 0.088087
0.681014 0.739377 0.201103
0.681744 0.740106 0.318026
0.682487 0.740849 0.437046
0.683238 0.741601 0.557529
0.683997 0.742359 0.679143
0.684762 0.743124 0.801679
0.685531 0.743893 0.924995
0.685874 0.744236 0.979907
0.687908 0.868460 0.095686
0.688614 0.869166 0.208703
0.689343 0.869895 0.325625
0.690086 0.870638 0.444645
0.690837 0.871389 0.565129
0.691596 0.872148 0.686742
0.692361 0.872913 0.809278
0.693130 0.873682 0.932594
0.693473 0.874025 0.987507
0.694966 0.989000 0.102743
0.695671 0.989705 0.215760
0.696401 0.990435 0.332683
0.697143 0.991177 0.451703
0.697895 0.991929 0.572186
0.698654 0.992688 0.693799
0.699418 0.993452 0.816335
0.700188 0.994222 0.939652
0.700530 0.994564 0.994564
0.761807 0.014036 0.047779
0.762512 0.014741 0.160796
0.763241 0.015470 0.277719
0.763984 0.016213 0.396739
0.764736 0.016965 0.517222
0.765494 0.017724 0.638835
0.766259 0.018488 0.761371
0.767028 0.019257 0.884688
0.767371 0.019600 0.939600
0.767492 0.111144 0.053465
0.768197 0.111849 0.166482
0.768927 0.112578 0.283404
0.769669 0.113321 0.402424
0.770421 0.114072 0.522908
0.771180 0.114831 0.644521
0.771944 0.115596 0.767057
0.772714 0.116365 0.890373
0.773056 0.116708 0.945286
0.774628 0.233011 0.060600
0.775333 0.233716 0.173617
0.776062 0.234446 0.290540
0.776805 0.235188 0.409560
0.777557 0.235940 0.530043
0.778315 0.236699 0.651656
0.779080 0.237463 0.774192
0.779849 0.238233 0.897509
0.780192 0.238575 0.952421
0.781928 0.357700 0.067901
0.782633 0.358405 0.180917
0.783363 0.359135 0.297840
0.784105 0.359877 0.416860
0.784857 0.360629 0.537343
0.785616 0.361388 0.658957
0.786380 0.362152 0.781493
0.787150 0.362922 0.904809
0.787492 0.363264 0.959722
0.789334 0.484193 0.075307
0.790039 0.484898 0.188324
0.790769 0.485628 0.305246
0.791512 0.486370 0.424266
0.792263 0.487122 0.544750
0.793022 0.487881 0.666363
0.793787 0.488645 0.788899
0.794556 0.489415 0.912215
0.794899 0.489757 0.967128
0.796819 0.612024 0.082791
0.797524 0.612730 0.195808
0.798254 0.613459 0.312731
0.798996 0.614202 0.431751
0.799748 0.614953 0.552234
0.800507 0.615712 0.673847
0.801271 0.616477 0.796383
0.802040 0.617246 0.919700
0.802383 0.617589 0.974612
0.804366 0.740924 0.090338
0.805071 0.741629 0.203355
0.805801 0.742358 0.320278
0.806543 0.743101 0.439298
0.807295 0.743852 0.559781
0.808054 0.744611 0.681394
0.808818 0.745376 0.803930
0.809587 0.746145 0.927247
0.809930 0.746488 0.982159
0.811965 0.870712 0.097938
0.812670 0.871417 0.210954
0.813400 0.872147 0.327877
0.814142 0.872889 0.446897
0.814894 0.873641 0.567380
0.815653 0.874400 0.688994
0.816417 0.875164 0.811529
0.817187 0.875934 0.934846
0.817529 0.876276 0.989758
0.819023 0.991252 0.104995
0.819728 0.991957 0.218012
0.820457 0.992686 0.334935
0.821200 0.993429 0.453955
0.821952 0.994181 0.574438
0.822710 0.994940 0.696051
0.823475 0.995704 0.818587
0.824244 0.996473 0.941904
0.824587 0.996816 0.996816
0.886649 0.016302 0.050045
0.887354 0.017007 0.163062
0.888083 0.017737 0.279985
0.888826 0.018479 0.399005
0.889578 0.019231 0.519488
0.890336 0.019990 0.641101
0.891101 0.020754 0.763637
0.891870 0.021523 0.886954
0.892213 0.021866 0.941866
0.892334 0.113410 0.055731
0.893039 0.114115 0.168748
0.893769 0.114844 0.285670
0.894512 0.115587 0.404690
0.895263 0.116338 0.525174
0.896022 0.117097 0.646787
0.896786 0.117862 0.769323
0.897556 0.118631 0.892639
0.897898 0.118974 0.947552
0.899470 0.235277 0.062866
0.900175 0.235982 0.175883
0.900904 0.236712 0.292806
0.901647 0.237455 0.411826
0.902399 0.238206 0.532309
0.903157 0.238965 0.653922
0.903922 0.239729 0.776458
0.904691 0.240499 0.899775
0.905034 0.240841 0.954687
0.906770 0.359966 0.070167
0.907475 0.360671 0.183183
0.908205 0.361401 0.300106
0.908947 0.362143 0.419126
0.909699 0.362895 0.539610
0.910458 0.363654 0.661223
0.911222 0.364418 0.783759
0.911992 0.365188 0.907075
0.912334 0.365530 0.961988
0.914176 0.486459 0.077573
0.914882 0.487164 0.190590
0.915611 0.487894 0.307512
0.916354 0.488636 0.426532
0.917105 0.489388 0.547016
0.917864 0.490147 0.668629
0.918629 0.490911 0.791165
0.919398 0.491681 0.914481
0.919741 0.492023 0.969394
0.921661 0.614291 0.085057
0.922366 0.614996 0.198074
0.923096 0.615725 0.314997
0.923838 0.616468 0.434017
0.924590 0.617219 0.554500
0.925349 0.617978 0.676113
0.926113 0.618743 0.798649
0.926882 0.619512 0.921966
0.927225 0.619855 0.976878
0.929208 0.743190 0.092604
0.929913 0.743895 0.205621
0.930643 0.744624 0.322544
0.931385 0.745367 0.441564
0.932137 0.746118 0.562047
0.932896 0.746877 0.683661
0.933660 0.747642 0.806196
0.934429 0.748411 0.929513
0.934772 0.748754 0.984425
0.936807 0.872978 0.100204
0.937512 0.873683 0.213220
0.938242 0.874413 0.330143
0.938984 0.875155 0.449163
0.939736 0.875907 0.569646
0.940495 0.876666 0.691260
0.941259 0.877430 0.813795
0.942029 0.878200 0.937112
0.942371 0.878542 0.992024
0.943865 0.993518 0.107261
0.944570 0.994223 0.220278
0.945299 0.994953 0.337201
0.946042 0.995695 0.456221
0.946794 0.996447 0.576704
0.947552 0.997206 0.698317
0.948317 0.997970 0.820853
0.949086 0.998739 0.944170
0.949429 0.999082 0.999082
