skills/editops-orchestrator/assets/grade/luts/cool_tech_v08.cube
TITLE "cool_tech_v08"
LUT_3D_SIZE 17
DOMAIN_MIN 0.0 0.0 0.0
DOMAIN_MAX 1.0 1.0 1.0
0.000060 0.000060 0.018917
0.000244 0.000244 0.077118
0.000431 0.000431 0.136355
0.000621 0.000621 0.196146
0.000811 0.000811 0.256321
0.001002 0.001002 0.316792
0.001194 0.001194 0.377503
0.001387 0.001387 0.438417
0.001580 0.001580 0.499506
0.001774 0.001774 0.560750
0.001968 0.001968 0.622133
0.002163 0.002163 0.683641
0.002358 0.002358 0.745263
0.002553 0.002553 0.806991
0.002749 0.002749 0.868817
0.002944 0.002944 0.930733
0.003040 0.003040 0.960935
0.001641 0.051943 0.020498
0.001825 0.052127 0.078699
0.002013 0.052314 0.137937
0.002202 0.052503 0.197728
0.002392 0.052694 0.257903
0.002584 0.052885 0.318373
0.002776 0.053077 0.379084
0.002968 0.053270 0.439998
0.003162 0.053463 0.501087
0.003355 0.053657 0.562332
0.003550 0.053851 0.623714
0.003744 0.054046 0.685222
0.003939 0.054241 0.746845
0.004134 0.054436 0.808572
0.004330 0.054631 0.870398
0.004526 0.054827 0.932314
0.004621 0.054923 0.962516
0.003486 0.112473 0.022343
0.003670 0.112658 0.080544
0.003858 0.112845 0.139781
0.004047 0.113034 0.199573
0.004237 0.113224 0.259748
0.004428 0.113416 0.320218
0.004621 0.113608 0.380929
0.004813 0.113801 0.441843
0.005007 0.113994 0.502932
0.005200 0.114188 0.564177
0.005394 0.114382 0.625559
0.005589 0.114576 0.687067
0.005784 0.114771 0.748690
0.005979 0.114967 0.810417
0.006175 0.115162 0.872243
0.006371 0.115358 0.934159
0.006466 0.115454 0.964361
0.005353 0.173721 0.024210
0.005537 0.173905 0.082411
0.005724 0.174092 0.141648
0.005914 0.174281 0.201439
0.006104 0.174472 0.261614
0.006295 0.174663 0.322085
0.006487 0.174855 0.382796
0.006680 0.175048 0.443710
0.006873 0.175241 0.504799
0.007067 0.175435 0.566043
0.007261 0.175629 0.627426
0.007456 0.175824 0.688934
0.007651 0.176018 0.750556
0.007846 0.176214 0.812284
0.008042 0.176409 0.874110
0.008237 0.176605 0.936026
0.008333 0.176701 0.966228
0.007234 0.235426 0.026091
0.007418 0.235610 0.084291
0.007605 0.235798 0.143529
0.007794 0.235987 0.203320
0.007985 0.236177 0.263495
0.008176 0.236368 0.323966
0.008368 0.236560 0.384677
0.008561 0.236753 0.445590
0.008754 0.236946 0.506680
0.008948 0.237140 0.567924
0.009142 0.237334 0.629307
0.009337 0.237529 0.690815
0.009531 0.237724 0.752437
0.009727 0.237919 0.814165
0.009922 0.238115 0.875990
0.010118 0.238311 0.937907
0.010214 0.238406 0.968109
0.009125 0.297471 0.027982
0.009309 0.297655 0.086182
0.009496 0.297842 0.145420
0.009685 0.298031 0.205211
0.009876 0.298222 0.265386
0.010067 0.298413 0.325857
0.010259 0.298605 0.386568
0.010452 0.298798 0.447482
0.010645 0.298991 0.508571
0.010839 0.299185 0.569815
0.011033 0.299379 0.631198
0.011228 0.299574 0.692706
0.011423 0.299769 0.754328
0.011618 0.299964 0.816056
0.011813 0.300160 0.877881
0.012009 0.300355 0.939798
0.012105 0.300451 0.970000
0.011024 0.359785 0.029881
0.011208 0.359970 0.088082
0.011396 0.360157 0.147319
0.011585 0.360346 0.207110
0.011775 0.360537 0.267286
0.011966 0.360728 0.327756
0.012158 0.360920 0.388467
0.012351 0.361113 0.449381
0.012544 0.361306 0.510470
0.012738 0.361500 0.571714
0.012932 0.361694 0.633097
0.013127 0.361888 0.694605
0.013322 0.362083 0.756227
0.013517 0.362279 0.817955
0.013713 0.362474 0.879781
0.013909 0.362670 0.941697
0.014004 0.362766 0.971899
0.012930 0.422325 0.031787
0.013114 0.422509 0.089988
0.013302 0.422696 0.149225
0.013491 0.422885 0.209017
0.013681 0.423076 0.269192
0.013872 0.423267 0.329662
0.014065 0.423459 0.390373
0.014257 0.423652 0.451287
0.014451 0.423845 0.512376
0.014644 0.424039 0.573621
0.014838 0.424233 0.635003
0.015033 0.424428 0.696511
0.015228 0.424622 0.758134
0.015423 0.424818 0.819861
0.015619 0.425013 0.881687
0.015815 0.425209 0.943603
0.015910 0.425305 0.973805
0.014842 0.485056 0.033699
0.015026 0.485240 0.091900
0.015214 0.485428 0.151137
0.015403 0.485617 0.210929
0.015593 0.485807 0.271104
0.015784 0.485998 0.331574
0.015977 0.486190 0.392285
0.016169 0.486383 0.453199
0.016363 0.486576 0.514288
0.016556 0.486770 0.575533
0.016750 0.486964 0.636915
0.016945 0.487159 0.698423
0.017140 0.487354 0.760046
0.017335 0.487549 0.821773
0.017531 0.487745 0.883599
0.017727 0.487941 0.945515
0.017822 0.488036 0.975717
0.016759 0.547956 0.035616
0.016943 0.548140 0.093817
0.017131 0.548327 0.153055
0.017320 0.548516 0.212846
0.017510 0.548707 0.273021
0.017702 0.548898 0.333491
0.017894 0.549090 0.394202
0.018086 0.549283 0.455116
0.018280 0.549476 0.516205
0.018473 0.549670 0.577450
0.018668 0.549864 0.638832
0.018862 0.550059 0.700340
0.019057 0.550253 0.761963
0.019252 0.550449 0.823691
0.019448 0.550644 0.885516
0.019644 0.550840 0.947432
0.019739 0.550936 0.977634
0.018681 0.611005 0.037538
0.018865 0.611189 0.095739
0.019052 0.611376 0.154976
0.019242 0.611565 0.214767
0.019432 0.611756 0.274943
0.019623 0.611947 0.335413
0.019815 0.612139 0.396124
0.020008 0.612332 0.457038
0.020201 0.612525 0.518127
0.020395 0.612719 0.579371
0.020589 0.612913 0.640754
0.020784 0.613108 0.702262
0.020979 0.613303 0.763884
0.021174 0.613498 0.825612
0.021370 0.613694 0.887438
0.021566 0.613889 0.949354
0.021661 0.613985 0.979556
0.020607 0.674189 0.039464
0.020791 0.674373 0.097664
0.020978 0.674560 0.156902
0.021167 0.674749 0.216693
0.021358 0.674940 0.276868
0.021549 0.675131 0.337339
0.021741 0.675323 0.398050
0.021934 0.675516 0.458964
0.022127 0.675709 0.520053
0.022321 0.675903 0.581297
0.022515 0.676097 0.642680
0.022710 0.676292 0.704188
0.022905 0.676486 0.765810
0.023100 0.676682 0.827538
0.023295 0.676877 0.889363
0.023491 0.677073 0.951280
0.023587 0.677169 0.981482
0.022536 0.737495 0.041393
0.022720 0.737679 0.099594
0.022908 0.737867 0.158832
0.023097 0.738056 0.218623
0.023287 0.738246 0.278798
0.023479 0.738437 0.339268
0.023671 0.738629 0.399979
0.023863 0.738822 0.460893
0.024057 0.739015 0.521982
0.024250 0.739209 0.583227
0.024445 0.739403 0.644609
0.024639 0.739598 0.706117
0.024834 0.739793 0.767740
0.025029 0.739988 0.829468
0.025225 0.740184 0.891293
0.025421 0.740380 0.953209
0.025516 0.740475 0.983411
0.024469 0.800914 0.043326
0.024653 0.801098 0.101527
0.024841 0.801285 0.160765
0.025030 0.801474 0.220556
0.025220 0.801665 0.280731
0.025412 0.801856 0.341201
0.025604 0.802048 0.401912
0.025796 0.802241 0.462826
0.025990 0.802434 0.523915
0.026183 0.802628 0.585160
0.026378 0.802822 0.646542
0.026572 0.803017 0.708050
0.026767 0.803212 0.769673
0.026962 0.803407 0.831400
0.027158 0.803602 0.893226
0.027354 0.803798 0.955142
0.027449 0.803894 0.985344
0.026405 0.864436 0.045262
0.026589 0.864620 0.103463
0.026777 0.864808 0.162701
0.026966 0.864997 0.222492
0.027156 0.865187 0.282667
0.027348 0.865379 0.343137
0.027540 0.865571 0.403848
0.027732 0.865763 0.464762
0.027926 0.865957 0.525852
0.028119 0.866150 0.587096
0.028314 0.866345 0.648478
0.028508 0.866539 0.709986
0.028703 0.866734 0.771609
0.028898 0.866929 0.833337
0.029094 0.867125 0.895162
0.029290 0.867321 0.957078
0.029385 0.867416 0.987280
0.028344 0.928055 0.047201
0.028529 0.928239 0.105402
0.028716 0.928427 0.164640
0.028905 0.928616 0.224431
0.029095 0.928806 0.284606
0.029287 0.928998 0.345077
0.029479 0.929190 0.405787
0.029672 0.929382 0.466701
0.029865 0.929576 0.527791
0.030059 0.929769 0.589035
0.030253 0.929964 0.650417
0.030447 0.930158 0.711925
0.030642 0.930353 0.773548
0.030838 0.930549 0.835276
0.031033 0.930744 0.897101
0.031229 0.930940 0.959017
0.031325 0.931036 0.989219
0.030174 0.988068 0.049030
0.030358 0.988252 0.107231
0.030545 0.988440 0.166469
0.030734 0.988629 0.226260
0.030925 0.988819 0.286435
0.031116 0.989011 0.346906
0.031308 0.989203 0.407617
0.031501 0.989395 0.468530
0.031694 0.989589 0.529620
0.031888 0.989782 0.590864
0.032082 0.989977 0.652247
0.032276 0.990171 0.713755
0.032471 0.990366 0.775377
0.032667 0.990561 0.837105
0.032862 0.990757 0.898930
0.033058 0.990953 0.960847
0.033154 0.991048 0.991048
0.024314 0.000284 0.019141
0.024499 0.000469 0.077342
0.024686 0.000656 0.136580
0.024875 0.000845 0.196371
0.025065 0.001035 0.256546
0.025257 0.001227 0.317017
0.025449 0.001419 0.377727
0.025642 0.001612 0.438641
0.025835 0.001805 0.499731
0.026029 0.001999 0.560975
0.026223 0.002193 0.622357
0.026417 0.002387 0.683865
0.026612 0.002582 0.745488
0.026808 0.002778 0.807216
0.027003 0.002973 0.869041
0.027199 0.003169 0.930957
0.027295 0.003265 0.961159
0.025896 0.052167 0.020723
0.026080 0.052351 0.078923
0.026267 0.052539 0.138161
0.026456 0.052728 0.197952
0.026647 0.052918 0.258127
0.026838 0.053110 0.318598
0.027030 0.053302 0.379309
0.027223 0.053494 0.440223
0.027416 0.053688 0.501312
0.027610 0.053881 0.562556
0.027804 0.054076 0.623939
0.027999 0.054270 0.685447
0.028194 0.054465 0.747069
0.028389 0.054660 0.808797
0.028584 0.054856 0.870622
0.028780 0.055052 0.932539
0.028876 0.055147 0.962741
0.027741 0.112698 0.022568
0.027925 0.112882 0.080768
0.028112 0.113069 0.140006
0.028301 0.113259 0.199797
0.028492 0.113449 0.259972
0.028683 0.113640 0.320443
0.028875 0.113832 0.381154
0.029068 0.114025 0.442068
0.029261 0.114218 0.503157
0.029455 0.114412 0.564401
0.029649 0.114606 0.625784
0.029844 0.114801 0.687292
0.030039 0.114996 0.748914
0.030234 0.115191 0.810642
0.030429 0.115387 0.872467
0.030625 0.115583 0.934384
0.030721 0.115678 0.964586
0.029607 0.173945 0.024434
0.029792 0.174129 0.082635
0.029979 0.174317 0.141873
0.030168 0.174506 0.201664
0.030358 0.174696 0.261839
0.030550 0.174888 0.322310
0.030742 0.175080 0.383021
0.030935 0.175272 0.443934
0.031128 0.175466 0.505024
0.031322 0.175659 0.566268
0.031516 0.175853 0.627650
0.031710 0.176048 0.689158
0.031905 0.176243 0.750781
0.032101 0.176438 0.812509
0.032296 0.176634 0.874334
0.032492 0.176830 0.936250
0.032588 0.176925 0.966452
0.031488 0.235651 0.026315
0.031672 0.235835 0.084516
0.031860 0.236022 0.143754
0.032049 0.236211 0.203545
0.032239 0.236402 0.263720
0.032431 0.236593 0.324190
0.032623 0.236785 0.384901
0.032815 0.236978 0.445815
0.033009 0.237171 0.506904
0.033202 0.237365 0.568149
0.033397 0.237559 0.629531
0.033591 0.237754 0.691039
0.033786 0.237948 0.752662
0.033981 0.238144 0.814389
0.034177 0.238339 0.876215
0.034373 0.238535 0.938131
0.034468 0.238631 0.968333
0.033379 0.297695 0.028206
0.033563 0.297879 0.086407
0.033751 0.298067 0.145645
0.033940 0.298256 0.205436
0.034130 0.298446 0.265611
0.034322 0.298638 0.326081
0.034514 0.298830 0.386792
0.034706 0.299022 0.447706
0.034900 0.299216 0.508795
0.035093 0.299409 0.570040
0.035288 0.299604 0.631422
0.035482 0.299798 0.692930
0.035677 0.299993 0.754553
0.035872 0.300188 0.816281
0.036068 0.300384 0.878106
0.036264 0.300580 0.940022
0.036359 0.300676 0.970224
0.035279 0.360010 0.030105
0.035463 0.360194 0.088306
0.035650 0.360382 0.147544
0.035839 0.360571 0.207335
0.036030 0.360761 0.267510
0.036221 0.360952 0.327981
0.036413 0.361144 0.388692
0.036606 0.361337 0.449605
0.036799 0.361530 0.510695
0.036993 0.361724 0.571939
0.037187 0.361918 0.633322
0.037381 0.362113 0.694830
0.037576 0.362308 0.756452
0.037772 0.362503 0.818180
0.037967 0.362699 0.880005
0.038163 0.362895 0.941922
0.038259 0.362990 0.972123
0.037185 0.422549 0.032012
0.037369 0.422733 0.090212
0.037556 0.422921 0.149450
0.037745 0.423110 0.209241
0.037936 0.423300 0.269416
0.038127 0.423492 0.329887
0.038319 0.423684 0.390598
0.038512 0.423876 0.451512
0.038705 0.424070 0.512601
0.038899 0.424263 0.573845
0.039093 0.424458 0.635228
0.039288 0.424652 0.696736
0.039483 0.424847 0.758358
0.039678 0.425042 0.820086
0.039873 0.425238 0.881911
0.040069 0.425434 0.943828
0.040165 0.425529 0.974030
0.039097 0.485281 0.033924
0.039281 0.485465 0.092124
0.039468 0.485652 0.151362
0.039657 0.485841 0.211153
0.039848 0.486032 0.271328
0.040039 0.486223 0.331799
0.040231 0.486415 0.392510
0.040424 0.486608 0.453424
0.040617 0.486801 0.514513
0.040811 0.486995 0.575757
0.041005 0.487189 0.637140
0.041200 0.487383 0.698648
0.041395 0.487578 0.760270
0.041590 0.487774 0.821998
0.041785 0.487969 0.883823
0.041981 0.488165 0.945740
0.042077 0.488261 0.975942
0.041014 0.548180 0.035841
0.041198 0.548364 0.094042
0.041385 0.548552 0.153279
0.041575 0.548741 0.213070
0.041765 0.548931 0.273245
0.041956 0.549123 0.333716
0.042148 0.549315 0.394427
0.042341 0.549507 0.455341
0.042534 0.549701 0.516430
0.042728 0.549894 0.577674
0.042922 0.550089 0.639057
0.043117 0.550283 0.700565
0.043312 0.550478 0.762187
0.043507 0.550673 0.823915
0.043703 0.550869 0.885740
0.043898 0.551065 0.947657
0.043994 0.551160 0.977859
0.042936 0.611229 0.037762
0.043120 0.611413 0.095963
0.043307 0.611601 0.155201
0.043496 0.611790 0.214992
0.043687 0.611980 0.275167
0.043878 0.612172 0.335638
0.044070 0.612364 0.396349
0.044263 0.612556 0.457262
0.044456 0.612750 0.518352
0.044650 0.612943 0.579596
0.044844 0.613138 0.640979
0.045038 0.613332 0.702487
0.045233 0.613527 0.764109
0.045429 0.613722 0.825837
0.045624 0.613918 0.887662
0.045820 0.614114 0.949578
0.045916 0.614210 0.979780
0.044861 0.674413 0.039688
0.045045 0.674597 0.097889
0.045233 0.674785 0.157127
0.045422 0.674974 0.216918
0.045612 0.675164 0.277093
0.045804 0.675356 0.337563
0.045996 0.675548 0.398274
0.046188 0.675740 0.459188
0.046382 0.675934 0.520278
0.046575 0.676127 0.581522
0.046770 0.676322 0.642904
0.046964 0.676516 0.704412
0.047159 0.676711 0.766035
0.047354 0.676906 0.827763
0.047550 0.677102 0.889588
0.047746 0.677298 0.951504
0.047841 0.677393 0.981706
0.046791 0.737720 0.041618
0.046975 0.737904 0.099819
0.047162 0.738091 0.159056
0.047352 0.738280 0.218847
0.047542 0.738471 0.279022
0.047733 0.738662 0.339493
0.047925 0.738854 0.400204
0.048118 0.739047 0.461118
0.048311 0.739240 0.522207
0.048505 0.739434 0.583451
0.048699 0.739628 0.644834
0.048894 0.739822 0.706342
0.049089 0.740017 0.767964
0.049284 0.740213 0.829692
0.049480 0.740408 0.891517
0.049675 0.740604 0.953434
0.049771 0.740700 0.983636
0.048724 0.801138 0.043551
0.048908 0.801322 0.101751
0.049095 0.801510 0.160989
0.049284 0.801699 0.220780
0.049475 0.801889 0.280955
0.049666 0.802081 0.341426
0.049858 0.802273 0.402137
0.050051 0.802465 0.463051
0.050244 0.802659 0.524140
0.050438 0.802852 0.585384
0.050632 0.803047 0.646767
0.050827 0.803241 0.708275
0.051022 0.803436 0.769897
0.051217 0.803631 0.831625
0.051413 0.803827 0.893450
0.051608 0.804023 0.955367
0.051704 0.804118 0.985569
0.050660 0.864661 0.045487
0.050844 0.864845 0.103688
0.051031 0.865032 0.162925
0.051221 0.865222 0.222716
0.051411 0.865412 0.282891
0.051602 0.865603 0.343362
0.051794 0.865795 0.404073
0.051987 0.865988 0.464987
0.052180 0.866181 0.526076
0.052374 0.866375 0.587320
0.052568 0.866569 0.648703
0.052763 0.866764 0.710211
0.052958 0.866959 0.771833
0.053153 0.867154 0.833561
0.053349 0.867350 0.895387
0.053545 0.867545 0.957303
0.053640 0.867641 0.987505
0.052599 0.928280 0.047426
0.052783 0.928464 0.105627
0.052970 0.928651 0.164864
0.053160 0.928841 0.224655
0.053350 0.929031 0.284831
0.053541 0.929222 0.345301
0.053733 0.929414 0.406012
0.053926 0.929607 0.466926
0.054119 0.929800 0.528015
0.054313 0.929994 0.589259
0.054507 0.930188 0.650642
0.054702 0.930383 0.712150
0.054897 0.930578 0.773772
0.055092 0.930773 0.835500
0.055288 0.930969 0.897326
0.055484 0.931165 0.959242
0.055579 0.931260 0.989444
0.054428 0.988293 0.049255
0.054612 0.988477 0.107456
0.054800 0.988664 0.166693
0.054989 0.988854 0.226484
0.055179 0.989044 0.286660
0.055370 0.989235 0.347130
0.055563 0.989427 0.407841
0.055755 0.989620 0.468755
0.055948 0.989813 0.529844
0.056142 0.990007 0.591088
0.056336 0.990201 0.652471
0.056531 0.990396 0.713979
0.056726 0.990591 0.775602
0.056921 0.990786 0.837329
0.057117 0.990982 0.899155
0.057313 0.991177 0.961071
0.057408 0.991273 0.991273
0.083017 0.000828 0.019685
0.083201 0.001012 0.077886
0.083388 0.001199 0.137123
0.083577 0.001389 0.196914
0.083768 0.001579 0.257089
0.083959 0.001770 0.317560
0.084151 0.001962 0.378271
0.084344 0.002155 0.439185
0.084537 0.002348 0.500274
0.084731 0.002542 0.561518
0.084925 0.002736 0.622901
0.085119 0.002931 0.684409
0.085314 0.003126 0.746031
0.085510 0.003321 0.807759
0.085705 0.003517 0.869585
0.085901 0.003713 0.931501
0.085997 0.003808 0.961703
0.084598 0.052711 0.021266
0.084782 0.052895 0.079467
0.084969 0.053082 0.138705
0.085159 0.053271 0.198496
0.085349 0.053462 0.258671
0.085540 0.053653 0.319141
0.085732 0.053845 0.379852
0.085925 0.054038 0.440766
0.086118 0.054231 0.501855
0.086312 0.054425 0.563100
0.086506 0.054619 0.624482
0.086701 0.054814 0.685990
0.086896 0.055009 0.747613
0.087091 0.055204 0.809341
0.087287 0.055400 0.871166
0.087483 0.055595 0.933082
0.087578 0.055691 0.963284
0.086443 0.113241 0.023111
0.086627 0.113426 0.081312
0.086814 0.113613 0.140550
0.087004 0.113802 0.200341
0.087194 0.113992 0.260516
0.087385 0.114184 0.320986
0.087577 0.114376 0.381697
0.087770 0.114569 0.442611
0.087963 0.114762 0.503700
0.088157 0.114956 0.564945
0.088351 0.115150 0.626327
0.088546 0.115344 0.687835
0.088741 0.115539 0.749458
0.088936 0.115735 0.811185
0.089132 0.115930 0.873011
0.089327 0.116126 0.934927
0.089423 0.116222 0.965129
0.088310 0.174489 0.024978
0.088494 0.174673 0.083179
0.088681 0.174860 0.142416
0.088870 0.175049 0.202207
0.089061 0.175240 0.262383
0.089252 0.175431 0.322853
0.089444 0.175623 0.383564
0.089637 0.175816 0.444478
0.089830 0.176009 0.505567
0.090024 0.176203 0.566811
0.090218 0.176397 0.628194
0.090412 0.176592 0.689702
0.090607 0.176787 0.751324
0.090803 0.176982 0.813052
0.090998 0.177177 0.874878
0.091194 0.177373 0.936794
0.091290 0.177469 0.966996
0.090190 0.236194 0.026859
0.090374 0.236378 0.085059
0.090562 0.236566 0.144297
0.090751 0.236755 0.204088
0.090941 0.236945 0.264263
0.091133 0.237136 0.324734
0.091325 0.237329 0.385445
0.091517 0.237521 0.446359
0.091711 0.237715 0.507448
0.091904 0.237908 0.568692
0.092099 0.238102 0.630075
0.092293 0.238297 0.691583
0.092488 0.238492 0.753205
0.092683 0.238687 0.814933
0.092879 0.238883 0.876758
0.093075 0.239079 0.938675
0.093170 0.239174 0.968877
0.092081 0.298239 0.028750
0.092266 0.298423 0.086950
0.092453 0.298610 0.146188
0.092642 0.298800 0.205979
0.092832 0.298990 0.266154
0.093024 0.299181 0.326625
0.093216 0.299373 0.387336
0.093409 0.299566 0.448250
0.093602 0.299759 0.509339
0.093796 0.299953 0.570583
0.093990 0.300147 0.631966
0.094184 0.300342 0.693474
0.094379 0.300537 0.755096
0.094575 0.300732 0.816824
0.094770 0.300928 0.878649
0.094966 0.301123 0.940566
0.095062 0.301219 0.970768
0.093981 0.360554 0.030649
0.094165 0.360738 0.088850
0.094352 0.360925 0.148087
0.094541 0.361114 0.207878
0.094732 0.361305 0.268054
0.094923 0.361496 0.328524
0.095115 0.361688 0.389235
0.095308 0.361881 0.450149
0.095501 0.362074 0.511238
0.095695 0.362268 0.572482
0.095889 0.362462 0.633865
0.096084 0.362656 0.695373
0.096279 0.362851 0.756996
0.096474 0.363047 0.818723
0.096669 0.363242 0.880549
0.096865 0.363438 0.942465
0.096961 0.363534 0.972667
0.095887 0.423093 0.032555
0.096071 0.423277 0.090756
0.096258 0.423464 0.149994
0.096448 0.423653 0.209785
0.096638 0.423844 0.269960
0.096829 0.424035 0.330430
0.097021 0.424227 0.391141
0.097214 0.424420 0.452055
0.097407 0.424613 0.513144
0.097601 0.424807 0.574389
0.097795 0.425001 0.635771
0.097990 0.425196 0.697279
0.098185 0.425391 0.758902
0.098380 0.425586 0.820629
0.098576 0.425781 0.882455
0.098771 0.425977 0.944371
0.098867 0.426073 0.974573
0.097799 0.485824 0.034467
0.097983 0.486008 0.092668
0.098170 0.486196 0.151906
0.098360 0.486385 0.211697
0.098550 0.486575 0.271872
0.098741 0.486766 0.332342
0.098933 0.486959 0.393053
0.099126 0.487151 0.453967
0.099319 0.487344 0.515056
0.099513 0.487538 0.576301
0.099707 0.487732 0.637683
0.099902 0.487927 0.699191
0.100097 0.488122 0.760814
0.100292 0.488317 0.822541
0.100488 0.488513 0.884367
0.100683 0.488709 0.946283
0.100779 0.488804 0.976485
0.099716 0.548724 0.036384
0.099900 0.548908 0.094585
0.100087 0.549095 0.153823
0.100277 0.549284 0.213614
0.100467 0.549475 0.273789
0.100658 0.549666 0.334259
0.100850 0.549858 0.394970
0.101043 0.550051 0.455884
0.101236 0.550244 0.516974
0.101430 0.550438 0.578218
0.101624 0.550632 0.639600
0.101819 0.550827 0.701108
0.102014 0.551022 0.762731
0.102209 0.551217 0.824459
0.102405 0.551412 0.886284
0.102601 0.551608 0.948200
0.102696 0.551704 0.978402
0.101638 0.611773 0.038306
0.101822 0.611957 0.096507
0.102009 0.612144 0.155744
0.102198 0.612334 0.215535
0.102389 0.612524 0.275711
0.102580 0.612715 0.336181
0.102772 0.612907 0.396892
0.102965 0.613100 0.457806
0.103158 0.613293 0.518895
0.103352 0.613487 0.580139
0.103546 0.613681 0.641522
0.103741 0.613876 0.703030
0.103936 0.614071 0.764652
0.104131 0.614266 0.826380
0.104326 0.614462 0.888206
0.104522 0.614657 0.950122
0.104618 0.614753 0.980324
0.103563 0.674957 0.040232
0.103748 0.675141 0.098432
0.103935 0.675328 0.157670
0.104124 0.675517 0.217461
0.104314 0.675708 0.277636
0.104506 0.675899 0.338107
0.104698 0.676091 0.398818
0.104891 0.676284 0.459732
0.105084 0.676477 0.520821
0.105278 0.676671 0.582065
0.105472 0.676865 0.643448
0.105666 0.677060 0.704956
0.105861 0.677255 0.766578
0.106057 0.677450 0.828306
0.106252 0.677645 0.890131
0.106448 0.677841 0.952048
0.106544 0.677937 0.982250
0.105493 0.738263 0.042161
0.105677 0.738447 0.100362
0.105864 0.738635 0.159600
0.106054 0.738824 0.219391
0.106244 0.739014 0.279566
0.106435 0.739205 0.340036
0.106627 0.739397 0.400747
0.106820 0.739590 0.461661
0.107013 0.739783 0.522751
0.107207 0.739977 0.583995
0.107401 0.740171 0.645377
0.107596 0.740366 0.706885
0.107791 0.740561 0.768508
0.107986 0.740756 0.830236
0.108182 0.740952 0.892061
0.108378 0.741148 0.953977
0.108473 0.741243 0.984179
0.107426 0.801682 0.044094
0.107610 0.801866 0.102295
0.107797 0.802053 0.161533
0.107987 0.802242 0.221324
0.108177 0.802433 0.281499
0.108368 0.802624 0.341969
0.108560 0.802816 0.402680
0.108753 0.803009 0.463594
0.108946 0.803202 0.524684
0.109140 0.803396 0.585928
0.109334 0.803590 0.647310
0.109529 0.803785 0.708818
0.109724 0.803980 0.770441
0.109919 0.804175 0.832169
0.110115 0.804371 0.893994
0.110311 0.804566 0.955910
0.110406 0.804662 0.986112
0.109362 0.865204 0.046030
0.109546 0.865388 0.104231
0.109734 0.865576 0.163469
0.109923 0.865765 0.223260
0.110113 0.865955 0.283435
0.110304 0.866147 0.343906
0.110496 0.866339 0.404616
0.110689 0.866531 0.465530
0.110882 0.866725 0.526620
0.111076 0.866919 0.587864
0.111270 0.867113 0.649246
0.111465 0.867307 0.710754
0.111660 0.867502 0.772377
0.111855 0.867698 0.834105
0.112051 0.867893 0.895930
0.112247 0.868089 0.957846
0.112342 0.868185 0.988048
0.111301 0.928823 0.047969
0.111485 0.929008 0.106170
0.111673 0.929195 0.165408
0.111862 0.929384 0.225199
0.112052 0.929574 0.285374
0.112243 0.929766 0.345845
0.112436 0.929958 0.406556
0.112628 0.930151 0.467469
0.112821 0.930344 0.528559
0.113015 0.930538 0.589803
0.113209 0.930732 0.651185
0.113404 0.930926 0.712693
0.113599 0.931121 0.774316
0.113794 0.931317 0.836044
0.113990 0.931512 0.897869
0.114186 0.931708 0.959785
0.114281 0.931804 0.989987
0.113130 0.988836 0.049798
0.113314 0.989020 0.107999
0.113502 0.989208 0.167237
0.113691 0.989397 0.227028
0.113881 0.989587 0.287203
0.114073 0.989779 0.347674
0.114265 0.989971 0.408385
0.114457 0.990163 0.469298
0.114651 0.990357 0.530388
0.114844 0.990550 0.591632
0.115039 0.990745 0.653015
0.115233 0.990939 0.714523
0.115428 0.991134 0.776145
0.115623 0.991329 0.837873
0.115819 0.991525 0.899698
0.116015 0.991721 0.961615
0.116110 0.991816 0.991816
0.142680 0.001380 0.020237
0.142865 0.001564 0.078438
0.143052 0.001752 0.137676
0.143241 0.001941 0.197467
0.143431 0.002131 0.257642
0.143623 0.002323 0.318112
0.143815 0.002515 0.378823
0.144008 0.002707 0.439737
0.144201 0.002901 0.500827
0.144395 0.003094 0.562071
0.144589 0.003289 0.623453
0.144783 0.003483 0.684961
0.144978 0.003678 0.746584
0.145174 0.003873 0.808312
0.145369 0.004069 0.870137
0.145565 0.004265 0.932053
0.145661 0.004360 0.962255
0.144262 0.053263 0.021819
