skills/editops-orchestrator/assets/grade/luts/cool_tech_v11.cube
TITLE "cool_tech_v11"
LUT_3D_SIZE 17
DOMAIN_MIN 0.0 0.0 0.0
DOMAIN_MAX 1.0 1.0 1.0
0.000089 0.000089 0.022818
0.000314 0.000314 0.080357
0.000544 0.000544 0.139068
0.000776 0.000776 0.198428
0.001010 0.001010 0.258244
0.001245 0.001245 0.318415
0.001482 0.001482 0.378874
0.001719 0.001719 0.439577
0.001958 0.001958 0.500493
0.002196 0.002196 0.561596
0.002436 0.002436 0.622867
0.002676 0.002676 0.684291
0.002917 0.002917 0.745853
0.003158 0.003158 0.807543
0.003400 0.003400 0.869353
0.003642 0.003642 0.931273
0.003724 0.003724 0.952145
0.001899 0.048425 0.024627
0.002124 0.048650 0.082167
0.002354 0.048880 0.140877
0.002586 0.049112 0.200237
0.002820 0.049346 0.260054
0.003055 0.049581 0.320224
0.003291 0.049817 0.380683
0.003529 0.050055 0.441387
0.003767 0.050293 0.502303
0.004006 0.050532 0.563406
0.004246 0.050772 0.624677
0.004486 0.051012 0.686100
0.004727 0.051253 0.747663
0.004968 0.051494 0.809353
0.005210 0.051736 0.871162
0.005452 0.051978 0.933083
0.005534 0.052060 0.953955
0.004152 0.108597 0.026880
0.004377 0.108822 0.084420
0.004606 0.109051 0.143130
0.004839 0.109284 0.202490
0.005072 0.109518 0.262307
0.005308 0.109753 0.322477
0.005544 0.109989 0.382936
0.005782 0.110227 0.443640
0.006020 0.110465 0.504555
0.006259 0.110704 0.565659
0.006499 0.110944 0.626930
0.006739 0.111184 0.688353
0.006980 0.111425 0.749915
0.007221 0.111666 0.811606
0.007463 0.111908 0.873415
0.007705 0.112150 0.935335
0.007786 0.112231 0.956207
0.006438 0.169669 0.029167
0.006663 0.169894 0.086706
0.006893 0.170124 0.145417
0.007125 0.170356 0.204777
0.007359 0.170590 0.264593
0.007594 0.170825 0.324764
0.007831 0.171061 0.385223
0.008068 0.171299 0.445926
0.008306 0.171537 0.506842
0.008545 0.171776 0.567945
0.008785 0.172016 0.629216
0.009025 0.172256 0.690639
0.009266 0.172497 0.752202
0.009507 0.172738 0.813892
0.009749 0.172980 0.875702
0.009991 0.173222 0.937622
0.010073 0.173304 0.958494
0.008746 0.231311 0.031474
0.008971 0.231537 0.089014
0.009201 0.231766 0.147725
0.009433 0.231998 0.207085
0.009667 0.232232 0.266901
0.009902 0.232468 0.327071
0.010139 0.232704 0.387530
0.010376 0.232942 0.448234
0.010614 0.233180 0.509150
0.010853 0.233419 0.570253
0.011093 0.233658 0.631524
0.011333 0.233899 0.692947
0.011574 0.234139 0.754510
0.011815 0.234381 0.816200
0.012057 0.234622 0.878010
0.012299 0.234865 0.939930
0.012381 0.234946 0.960802
0.011070 0.293375 0.033798
0.011295 0.293600 0.091338
0.011524 0.293830 0.150048
0.011756 0.294062 0.209408
0.011990 0.294296 0.269225
0.012226 0.294531 0.329395
0.012462 0.294768 0.389854
0.012700 0.295005 0.450558
0.012938 0.295243 0.511473
0.013177 0.295482 0.572577
0.013417 0.295722 0.633848
0.013657 0.295962 0.695271
0.013898 0.296203 0.756833
0.014139 0.296444 0.818524
0.014381 0.296686 0.880333
0.014623 0.296928 0.942253
0.014704 0.297010 0.963125
0.013406 0.355773 0.036134
0.013631 0.355998 0.093674
0.013860 0.356228 0.152384
0.014093 0.356460 0.211744
0.014327 0.356694 0.271561
0.014562 0.356929 0.331731
0.014798 0.357166 0.392190
0.015036 0.357403 0.452894
0.015274 0.357641 0.513810
0.015513 0.357880 0.574913
0.015753 0.358120 0.636184
0.015993 0.358360 0.697607
0.016234 0.358601 0.759169
0.016475 0.358842 0.820860
0.016717 0.359084 0.882669
0.016959 0.359326 0.944589
0.017041 0.359408 0.965462
0.015752 0.418449 0.038481
0.015977 0.418674 0.096020
0.016207 0.418903 0.154731
0.016439 0.419136 0.214091
0.016673 0.419369 0.273907
0.016908 0.419605 0.334078
0.017145 0.419841 0.394537
0.017382 0.420079 0.455240
0.017621 0.420317 0.516156
0.017860 0.420556 0.577259
0.018099 0.420796 0.638530
0.018339 0.421036 0.699954
0.018580 0.421277 0.761516
0.018821 0.421518 0.823206
0.019063 0.421760 0.885016
0.019305 0.422002 0.946936
0.019387 0.422083 0.967808
0.018108 0.481362 0.040836
0.018333 0.481587 0.098376
0.018562 0.481817 0.157086
0.018795 0.482049 0.216446
0.019029 0.482283 0.276263
0.019264 0.482518 0.336433
0.019500 0.482755 0.396892
0.019738 0.482992 0.457596
0.019976 0.483231 0.518512
0.020215 0.483470 0.579615
0.020455 0.483709 0.640886
0.020695 0.483949 0.702309
0.020936 0.484190 0.763871
0.021177 0.484431 0.825562
0.021419 0.484673 0.887371
0.021661 0.484915 0.949291
0.021742 0.484997 0.970164
0.020471 0.544484 0.043199
0.020696 0.544709 0.100739
0.020926 0.544939 0.159449
0.021158 0.545171 0.218809
0.021392 0.545405 0.278626
0.021627 0.545640 0.338796
0.021864 0.545876 0.399255
0.022101 0.546114 0.459959
0.022339 0.546352 0.520875
0.022578 0.546591 0.581978
0.022818 0.546831 0.643249
0.023058 0.547071 0.704672
0.023299 0.547312 0.766235
0.023540 0.547553 0.827925
0.023782 0.547795 0.889734
0.024024 0.548037 0.951655
0.024106 0.548119 0.972527
0.022841 0.607790 0.045570
0.023066 0.608015 0.103109
0.023296 0.608245 0.161820
0.023528 0.608477 0.221180
0.023762 0.608711 0.280996
0.023997 0.608947 0.341166
0.024234 0.609183 0.401626
0.024471 0.609420 0.462329
0.024709 0.609659 0.523245
0.024948 0.609898 0.584348
0.025188 0.610137 0.645619
0.025428 0.610378 0.707042
0.025669 0.610618 0.768605
0.025910 0.610860 0.830295
0.026152 0.611101 0.892105
0.026394 0.611344 0.954025
0.026476 0.611425 0.974897
0.025217 0.671263 0.047946
0.025443 0.671489 0.105486
0.025672 0.671718 0.164196
0.025904 0.671950 0.223556
0.026138 0.672184 0.283373
0.026374 0.672420 0.343543
0.026610 0.672656 0.404002
0.026848 0.672893 0.464706
0.027086 0.673132 0.525621
0.027325 0.673371 0.586724
0.027564 0.673610 0.647996
0.027805 0.673851 0.709419
0.028045 0.674091 0.770981
0.028287 0.674333 0.832672
0.028528 0.674574 0.894481
0.028771 0.674817 0.956401
0.028852 0.674898 0.977273
0.027600 0.734888 0.050328
0.027825 0.735113 0.107868
0.028054 0.735343 0.166578
0.028286 0.735575 0.225938
0.028520 0.735809 0.285755
0.028756 0.736044 0.345925
0.028992 0.736281 0.406384
0.029230 0.736518 0.467088
0.029468 0.736756 0.528003
0.029707 0.736995 0.589107
0.029946 0.737235 0.650378
0.030187 0.737475 0.711801
0.030427 0.737716 0.773363
0.030669 0.737957 0.835054
0.030910 0.738199 0.896863
0.031153 0.738441 0.958783
0.031234 0.738523 0.979655
0.029987 0.798652 0.052715
0.030212 0.798877 0.110255
0.030441 0.799106 0.168965
0.030674 0.799338 0.228325
0.030908 0.799572 0.288142
0.031143 0.799808 0.348312
0.031379 0.800044 0.408771
0.031617 0.800282 0.469475
0.031855 0.800520 0.530391
0.032094 0.800759 0.591494
0.032334 0.800998 0.652765
0.032574 0.801239 0.714188
0.032815 0.801479 0.775750
0.033056 0.801721 0.837441
0.033298 0.801963 0.899250
0.033540 0.802205 0.961170
0.033622 0.802286 0.982043
0.032379 0.862544 0.055107
0.032604 0.862769 0.112647
0.032834 0.862998 0.171357
0.033066 0.863230 0.230717
0.033300 0.863464 0.290534
0.033535 0.863700 0.350704
0.033771 0.863936 0.411163
0.034009 0.864174 0.471867
0.034247 0.864412 0.532783
0.034486 0.864651 0.593886
0.034726 0.864890 0.655157
0.034966 0.865131 0.716580
0.035207 0.865371 0.778143
0.035448 0.865613 0.839833
0.035690 0.865854 0.901642
0.035932 0.866097 0.963562
0.036014 0.866178 0.984435
0.034775 0.926555 0.057504
0.035000 0.926780 0.115043
0.035230 0.927009 0.173754
0.035462 0.927242 0.233114
0.035696 0.927476 0.292931
0.035932 0.927711 0.353101
0.036168 0.927947 0.413560
0.036405 0.928185 0.474263
0.036644 0.928423 0.535179
0.036883 0.928662 0.596282
0.037122 0.928902 0.657553
0.037363 0.929142 0.718977
0.037603 0.929383 0.780539
0.037845 0.929624 0.842230
0.038086 0.929866 0.904039
0.038329 0.930108 0.965959
0.038410 0.930190 0.986831
0.036979 0.985400 0.059707
0.037204 0.985625 0.117247
0.037433 0.985854 0.175957
0.037665 0.986086 0.235317
0.037899 0.986320 0.295134
0.038135 0.986556 0.355304
0.038371 0.986792 0.415763
0.038609 0.987030 0.476467
0.038847 0.987268 0.537382
0.039086 0.987507 0.598485
0.039325 0.987746 0.659757
0.039566 0.987987 0.721180
0.039806 0.988227 0.782742
0.040048 0.988469 0.844433
0.040289 0.988711 0.906242
0.040532 0.988953 0.968162
0.040613 0.989034 0.989034
0.013913 0.000247 0.022976
0.014138 0.000472 0.080515
0.014368 0.000702 0.139226
0.014600 0.000934 0.198586
0.014834 0.001168 0.258402
0.015069 0.001403 0.318573
0.015306 0.001640 0.379032
0.015543 0.001877 0.439735
0.015781 0.002116 0.500651
0.016020 0.002355 0.561754
0.016260 0.002594 0.623025
0.016500 0.002834 0.684449
0.016741 0.003075 0.746011
0.016982 0.003316 0.807701
0.017224 0.003558 0.869511
0.017466 0.003800 0.931431
0.017548 0.003882 0.952303
0.015723 0.048583 0.024785
0.015948 0.048808 0.082325
0.016177 0.049038 0.141035
0.016410 0.049270 0.200395
0.016643 0.049504 0.260212
0.016879 0.049739 0.320382
0.017115 0.049975 0.380841
0.017353 0.050213 0.441545
0.017591 0.050451 0.502461
0.017830 0.050690 0.563564
0.018070 0.050930 0.624835
0.018310 0.051170 0.686258
0.018551 0.051411 0.747821
0.018792 0.051652 0.809511
0.019034 0.051894 0.871320
0.019276 0.052136 0.933241
0.019357 0.052218 0.954113
0.017975 0.108755 0.027038
0.018201 0.108980 0.084578
0.018430 0.109209 0.143288
0.018662 0.109442 0.202648
0.018896 0.109676 0.262465
0.019132 0.109911 0.322635
0.019368 0.110147 0.383094
0.019605 0.110385 0.443798
0.019844 0.110623 0.504713
0.020083 0.110862 0.565817
0.020322 0.111102 0.627088
0.020563 0.111342 0.688511
0.020803 0.111583 0.750073
0.021045 0.111824 0.811764
0.021286 0.112066 0.873573
0.021529 0.112308 0.935493
0.021610 0.112389 0.956365
0.020262 0.169827 0.029325
0.020487 0.170052 0.086864
0.020717 0.170282 0.145575
0.020949 0.170514 0.204935
0.021183 0.170748 0.264751
0.021418 0.170983 0.324922
0.021655 0.171219 0.385381
0.021892 0.171457 0.446084
0.022130 0.171695 0.507000
0.022369 0.171934 0.568103
0.022609 0.172174 0.629374
0.022849 0.172414 0.690797
0.023090 0.172655 0.752360
0.023331 0.172896 0.814050
0.023573 0.173138 0.875860
0.023815 0.173380 0.937780
0.023897 0.173462 0.958652
0.022570 0.231469 0.031632
0.022795 0.231695 0.089172
0.023024 0.231924 0.147883
0.023257 0.232156 0.207243
0.023491 0.232390 0.267059
0.023726 0.232626 0.327229
0.023962 0.232862 0.387688
0.024200 0.233100 0.448392
0.024438 0.233338 0.509308
0.024677 0.233577 0.570411
0.024917 0.233816 0.631682
0.025157 0.234057 0.693105
0.025398 0.234297 0.754668
0.025639 0.234539 0.816358
0.025881 0.234780 0.878168
0.026123 0.235023 0.940088
0.026205 0.235104 0.960960
0.024893 0.293533 0.033956
0.025118 0.293758 0.091496
0.025348 0.293988 0.150206
0.025580 0.294220 0.209566
0.025814 0.294454 0.269383
0.026050 0.294689 0.329553
0.026286 0.294926 0.390012
0.026523 0.295163 0.450716
0.026762 0.295401 0.511631
0.027001 0.295640 0.572735
0.027240 0.295880 0.634006
0.027481 0.296120 0.695429
0.027721 0.296361 0.756991
0.027963 0.296602 0.818682
0.028204 0.296844 0.880491
0.028447 0.297086 0.942411
0.028528 0.297168 0.963283
0.027230 0.355931 0.036292
0.027455 0.356156 0.093832
0.027684 0.356386 0.152542
0.027916 0.356618 0.211902
0.028150 0.356852 0.271719
0.028386 0.357087 0.331889
0.028622 0.357324 0.392348
0.028860 0.357561 0.453052
0.029098 0.357799 0.513968
0.029337 0.358038 0.575071
0.029576 0.358278 0.636342
0.029817 0.358518 0.697765
0.030057 0.358759 0.759327
0.030299 0.359000 0.821018
0.030541 0.359242 0.882827
0.030783 0.359484 0.944747
0.030864 0.359566 0.965620
0.029576 0.418607 0.038639
0.029801 0.418832 0.096178
0.030031 0.419061 0.154889
0.030263 0.419294 0.214249
0.030497 0.419527 0.274065
0.030732 0.419763 0.334236
0.030969 0.419999 0.394695
0.031206 0.420237 0.455398
0.031444 0.420475 0.516314
0.031683 0.420714 0.577417
0.031923 0.420954 0.638688
0.032163 0.421194 0.700112
0.032404 0.421435 0.761674
0.032645 0.421676 0.823364
0.032887 0.421918 0.885174
0.033129 0.422160 0.947094
0.033211 0.422241 0.967966
0.031932 0.481520 0.040994
0.032157 0.481745 0.098534
0.032386 0.481975 0.157244
0.032618 0.482207 0.216604
0.032852 0.482441 0.276421
0.033088 0.482676 0.336591
0.033324 0.482913 0.397050
0.033562 0.483150 0.457754
0.033800 0.483389 0.518670
0.034039 0.483628 0.579773
0.034278 0.483867 0.641044
0.034519 0.484107 0.702467
0.034759 0.484348 0.764029
0.035001 0.484589 0.825720
0.035242 0.484831 0.887529
0.035485 0.485073 0.949449
0.035566 0.485155 0.970322
0.034295 0.544642 0.043357
0.034520 0.544867 0.100897
0.034749 0.545097 0.159607
0.034982 0.545329 0.218967
0.035216 0.545563 0.278784
0.035451 0.545798 0.338954
0.035687 0.546034 0.399413
0.035925 0.546272 0.460117
0.036163 0.546510 0.521033
0.036402 0.546749 0.582136
0.036642 0.546989 0.643407
0.036882 0.547229 0.704830
0.037123 0.547470 0.766393
0.037364 0.547711 0.828083
0.037606 0.547953 0.889892
0.037848 0.548195 0.951813
0.037930 0.548277 0.972685
0.036665 0.607948 0.045728
0.036890 0.608173 0.103267
0.037120 0.608403 0.161978
0.037352 0.608635 0.221338
0.037586 0.608869 0.281154
0.037821 0.609105 0.341324
0.038057 0.609341 0.401784
0.038295 0.609578 0.462487
0.038533 0.609817 0.523403
0.038772 0.610056 0.584506
0.039012 0.610295 0.645777
0.039252 0.610536 0.707200
0.039493 0.610776 0.768763
0.039734 0.611018 0.830453
0.039976 0.611259 0.892263
0.040218 0.611502 0.954183
0.040300 0.611583 0.975055
0.039041 0.671421 0.048104
0.039266 0.671647 0.105644
0.039496 0.671876 0.164354
0.039728 0.672108 0.223714
0.039962 0.672342 0.283531
0.040197 0.672578 0.343701
0.040434 0.672814 0.404160
0.040671 0.673051 0.464864
0.040910 0.673290 0.525779
0.041149 0.673529 0.586882
0.041388 0.673768 0.648154
0.041628 0.674009 0.709577
0.041869 0.674249 0.771139
0.042110 0.674491 0.832830
0.042352 0.674732 0.894639
0.042594 0.674975 0.956559
0.042676 0.675056 0.977431
0.041423 0.735046 0.050486
0.041648 0.735271 0.108026
0.041878 0.735501 0.166736
0.042110 0.735733 0.226096
0.042344 0.735967 0.285913
0.042579 0.736202 0.346083
0.042816 0.736439 0.406542
0.043053 0.736676 0.467246
0.043292 0.736914 0.528161
0.043531 0.737153 0.589265
0.043770 0.737393 0.650536
0.044010 0.737633 0.711959
0.044251 0.737874 0.773521
0.044493 0.738115 0.835212
0.044734 0.738357 0.897021
0.044976 0.738599 0.958941
0.045058 0.738681 0.979813
0.043811 0.798810 0.052873
0.044036 0.799035 0.110413
0.044265 0.799264 0.169123
0.044497 0.799496 0.228483
0.044731 0.799730 0.288300
0.044967 0.799966 0.348470
0.045203 0.800202 0.408929
0.045441 0.800440 0.469633
0.045679 0.800678 0.530549
0.045918 0.800917 0.591652
0.046157 0.801156 0.652923
0.046398 0.801397 0.714346
0.046639 0.801637 0.775908
0.046880 0.801879 0.837599
0.047122 0.802121 0.899408
0.047364 0.802363 0.961328
0.047445 0.802444 0.982201
0.046203 0.862702 0.055265
0.046428 0.862927 0.112805
0.046657 0.863156 0.171515
0.046890 0.863388 0.230875
0.047123 0.863622 0.290692
0.047359 0.863858 0.350862
0.047595 0.864094 0.411321
0.047833 0.864332 0.472025
0.048071 0.864570 0.532941
0.048310 0.864809 0.594044
0.048550 0.865048 0.655315
0.048790 0.865289 0.716738
0.049031 0.865529 0.778301
0.049272 0.865771 0.839991
0.049514 0.866012 0.901800
0.049756 0.866255 0.963720
0.049837 0.866336 0.984593
0.048599 0.926713 0.057662
0.048824 0.926938 0.115202
0.049054 0.927167 0.173912
0.049286 0.927400 0.233272
0.049520 0.927634 0.293089
0.049755 0.927869 0.353259
0.049992 0.928105 0.413718
0.050229 0.928343 0.474421
0.050467 0.928581 0.535337
0.050706 0.928820 0.596440
0.050946 0.929060 0.657711
0.051186 0.929300 0.719135
0.051427 0.929541 0.780697
0.051668 0.929782 0.842388
0.051910 0.930024 0.904197
0.052152 0.930266 0.966117
0.052234 0.930348 0.986989
0.050802 0.985558 0.059865
0.051027 0.985783 0.117405
0.051257 0.986012 0.176115
0.051489 0.986244 0.235475
0.051723 0.986478 0.295292
0.051958 0.986714 0.355462
0.052195 0.986950 0.415921
0.052432 0.987188 0.476625
0.052671 0.987426 0.537540
0.052910 0.987665 0.598643
0.053149 0.987904 0.659915
0.053389 0.988145 0.721338
0.053630 0.988385 0.782900
0.053871 0.988627 0.844591
0.054113 0.988869 0.906400
0.054355 0.989111 0.968320
0.054437 0.989192 0.989192
0.071555 0.000906 0.023635
0.071780 0.001131 0.081174
0.072009 0.001361 0.139885
0.072241 0.001593 0.199245
0.072475 0.001827 0.259061
0.072711 0.002062 0.319231
0.072947 0.002299 0.379690
0.073185 0.002536 0.440394
0.073423 0.002774 0.501310
0.073662 0.003013 0.562413
0.073901 0.003253 0.623684
0.074142 0.003493 0.685107
0.074382 0.003734 0.746670
0.074624 0.003975 0.808360
0.074865 0.004217 0.870170
0.075108 0.004459 0.932090
0.075189 0.004541 0.952962
0.073364 0.049242 0.025444
0.073589 0.049467 0.082984
0.073819 0.049696 0.141694
0.074051 0.049929 0.201054
0.074285 0.050162 0.260871
0.074520 0.050398 0.321041
0.074757 0.050634 0.381500
0.074994 0.050872 0.442204
0.075232 0.051110 0.503120
0.075471 0.051349 0.564223
0.075711 0.051589 0.625494
0.075951 0.051829 0.686917
0.076192 0.052070 0.748479
0.076433 0.052311 0.810170
0.076675 0.052553 0.871979
0.076917 0.052795 0.933899
0.076999 0.052876 0.954772
0.075617 0.109414 0.027697
0.075842 0.109639 0.085237
0.076072 0.109868 0.143947
0.076304 0.110100 0.203307
0.076538 0.110334 0.263124
0.076773 0.110570 0.323294
0.077010 0.110806 0.383753
0.077247 0.111044 0.444457
0.077485 0.111282 0.505372
0.077724 0.111521 0.566475
0.077964 0.111760 0.627747
0.078204 0.112001 0.689170
0.078445 0.112241 0.750732
0.078686 0.112483 0.812423
0.078928 0.112725 0.874232
0.079170 0.112967 0.936152
0.079252 0.113048 0.957024
0.077903 0.170486 0.029983
0.078128 0.170711 0.087523
0.078358 0.170940 0.146233
0.078590 0.171173 0.205594
0.078824 0.171406 0.265410
0.079060 0.171642 0.325580
0.079296 0.171878 0.386039
0.079533 0.172116 0.446743
0.079772 0.172354 0.507659
0.080011 0.172593 0.568762
0.080250 0.172833 0.630033
0.080491 0.173073 0.691456
0.080731 0.173314 0.753019
0.080973 0.173555 0.814709
0.081214 0.173797 0.876519
0.081457 0.174039 0.938439
0.081538 0.174120 0.959311
0.080211 0.232128 0.032291
0.080436 0.232353 0.089831
0.080666 0.232583 0.148541
0.080898 0.232815 0.207901
0.081132 0.233049 0.267718
0.081367 0.233284 0.327888
0.081604 0.233521 0.388347
0.081841 0.233758 0.449051
0.082080 0.233997 0.509967
0.082319 0.234236 0.571070
0.082558 0.234475 0.632341
0.082798 0.234715 0.693764
0.083039 0.234956 0.755327
0.083280 0.235198 0.817017
0.083522 0.235439 0.878826
0.083764 0.235681 0.940746
0.083846 0.235763 0.961619
0.082535 0.294192 0.034615
0.082760 0.294417 0.092155
0.082990 0.294647 0.150865
0.083222 0.294879 0.210225
0.083456 0.295113 0.270042
0.083691 0.295348 0.330212
0.083927 0.295584 0.390671
0.084165 0.295822 0.451374
0.084403 0.296060 0.512290
0.084642 0.296299 0.573393
0.084882 0.296539 0.634665
0.085122 0.296779 0.696088
0.085363 0.297020 0.757650
0.085604 0.297261 0.819341
0.085846 0.297503 0.881150
0.086088 0.297745 0.943070
0.086170 0.297827 0.963942
0.084871 0.356590 0.036951
0.085096 0.356815 0.094491
0.085326 0.357044 0.153201
0.085558 0.357277 0.212561
0.085792 0.357511 0.272378
0.086027 0.357746 0.332548
0.086264 0.357982 0.393007
0.086501 0.358220 0.453711
0.086739 0.358458 0.514626
0.086978 0.358697 0.575730
0.087218 0.358937 0.637001
0.087458 0.359177 0.698424
0.087699 0.359418 0.759986
0.087940 0.359659 0.821677
0.088182 0.359901 0.883486
0.088424 0.360143 0.945406
0.088506 0.360225 0.966278
0.087218 0.419266 0.039298
0.087443 0.419491 0.096837
0.087672 0.419720 0.155548
0.087904 0.419952 0.214908
0.088138 0.420186 0.274724
0.088374 0.420422 0.334894
0.088610 0.420658 0.395354
0.088848 0.420896 0.456057
0.089086 0.421134 0.516973
0.089325 0.421373 0.578076
0.089564 0.421612 0.639347
0.089805 0.421853 0.700770
0.090045 0.422093 0.762333
0.090287 0.422335 0.824023
0.090529 0.422576 0.885833
0.090771 0.422819 0.947753
0.090852 0.422900 0.968625
0.089573 0.482179 0.041653
0.089798 0.482404 0.099193
0.090028 0.482634 0.157903
0.090260 0.482866 0.217263
0.090494 0.483100 0.277080
0.090729 0.483335 0.337250
0.090966 0.483572 0.397709
0.091203 0.483809 0.458413
0.091441 0.484047 0.519328
0.091680 0.484286 0.580432
0.091920 0.484526 0.641703
0.092160 0.484766 0.703126
0.092401 0.485007 0.764688
0.092642 0.485248 0.826379
0.092884 0.485490 0.888188
0.093126 0.485732 0.950108
0.093208 0.485814 0.970980
0.091936 0.545301 0.044016
0.092161 0.545526 0.101556
0.092391 0.545755 0.160266
0.092623 0.545988 0.219626
0.092857 0.546221 0.279443
0.093092 0.546457 0.339613
0.093329 0.546693 0.400072
0.093566 0.546931 0.460776
0.093804 0.547169 0.521692
0.094043 0.547408 0.582795
0.094283 0.547648 0.644066
0.094523 0.547888 0.705489
0.094764 0.548129 0.767051
0.095005 0.548370 0.828742
0.095247 0.548612 0.890551
0.095489 0.548854 0.952471
0.095571 0.548935 0.973344
0.094306 0.608607 0.046386
0.094531 0.608832 0.103926
0.094761 0.609062 0.162636
0.094993 0.609294 0.221996
0.095227 0.609528 0.281813
0.095463 0.609763 0.341983
0.095699 0.610000 0.402442
0.095936 0.610237 0.463146
0.096175 0.610476 0.524062
0.096414 0.610714 0.585165
0.096653 0.610954 0.646436
0.096894 0.611194 0.707859
0.097134 0.611435 0.769422
0.097376 0.611676 0.831112
0.097617 0.611918 0.892921
0.097859 0.612160 0.954842
0.097941 0.612242 0.975714
0.096683 0.672080 0.048763
0.096908 0.672305 0.106302
0.097137 0.672535 0.165013
0.097370 0.672767 0.224373
0.097604 0.673001 0.284190
0.097839 0.673236 0.344360
0.098075 0.673473 0.404819
0.098313 0.673710 0.465522
0.098551 0.673949 0.526438
0.098790 0.674188 0.587541
0.099030 0.674427 0.648812
0.099270 0.674667 0.710236
0.099511 0.674908 0.771798
0.099752 0.675150 0.833489
0.099994 0.675391 0.895298
0.100236 0.675633 0.957218
0.100318 0.675715 0.978090
0.099065 0.735705 0.051145
0.099290 0.735930 0.108684
0.099519 0.736160 0.167395
0.099752 0.736392 0.226755
0.099986 0.736626 0.286572
0.100221 0.736861 0.346742
0.100457 0.737097 0.407201
0.100695 0.737335 0.467904
0.100933 0.737573 0.528820
0.101172 0.737812 0.589923
0.101412 0.738052 0.651194
0.101652 0.738292 0.712618
0.101893 0.738533 0.774180
0.102134 0.738774 0.835871
0.102376 0.739016 0.897680
0.102618 0.739258 0.959600
0.102700 0.739340 0.980472
0.101452 0.799468 0.053532
0.101677 0.799693 0.111072
0.101907 0.799923 0.169782
0.102139 0.800155 0.229142
0.102373 0.800389 0.288959
0.102608 0.800625 0.349129
0.102845 0.800861 0.409588
0.103082 0.801098 0.470292
0.103320 0.801337 0.531207
0.103559 0.801576 0.592311
0.103799 0.801815 0.653582
0.104039 0.802056 0.715005
0.104280 0.802296 0.776567
0.104521 0.802538 0.838258
0.104763 0.802779 0.900067
0.105005 0.803022 0.961987
0.105087 0.803103 0.982859
0.103844 0.863360 0.055924
0.104069 0.863585 0.113464
0.104299 0.863815 0.172174
0.104531 0.864047 0.231534
0.104765 0.864281 0.291351
0.105000 0.864516 0.351521
0.105237 0.864753 0.411980
0.105474 0.864990 0.472684
0.105712 0.865229 0.533599
0.105951 0.865468 0.594703
0.106191 0.865707 0.655974
0.106431 0.865947 0.717397
0.106672 0.866188 0.778959
0.106913 0.866430 0.840650
0.107155 0.866671 0.902459
0.107397 0.866913 0.964379
0.107479 0.866995 0.985252
0.106241 0.927372 0.058321
0.106466 0.927597 0.115860
0.106695 0.927826 0.174571
0.106928 0.928058 0.233931
0.107161 0.928292 0.293747
0.107397 0.928528 0.353918
0.107633 0.928764 0.414377
0.107871 0.929002 0.475080
0.108109 0.929240 0.535996
0.108348 0.929479 0.597099
0.108588 0.929719 0.658370
0.108828 0.929959 0.719794
0.109069 0.930200 0.781356
0.109310 0.930441 0.843046
0.109552 0.930683 0.904856
0.109794 0.930925 0.966776
0.109875 0.931006 0.987648
0.108444 0.986216 0.060524
0.108669 0.986441 0.118063
0.108898 0.986671 0.176774
0.109131 0.986903 0.236134
0.109365 0.987137 0.295951
0.109600 0.987373 0.356121
0.109836 0.987609 0.416580
0.110074 0.987846 0.477283
0.110312 0.988085 0.538199
0.110551 0.988324 0.599302
0.110791 0.988563 0.660573
0.111031 0.988804 0.721997
0.111272 0.989044 0.783559
0.111513 0.989286 0.845250
0.111755 0.989527 0.907059
0.111997 0.989770 0.968979
0.112079 0.989851 0.989851
0.130573 0.001581 0.024309
0.130798 0.001806 0.081849
0.131028 0.002035 0.140559
0.131260 0.002268 0.199919
0.131494 0.002501 0.259736
0.131729 0.002737 0.319906
0.131966 0.002973 0.380365
0.132203 0.003211 0.441069
0.132441 0.003449 0.501984
0.132680 0.003688 0.563088
0.132920 0.003928 0.624359
0.133160 0.004168 0.685782
0.133401 0.004409 0.747344
0.133642 0.004650 0.809035
0.133884 0.004892 0.870844
0.134126 0.005134 0.932764
0.134208 0.005215 0.953636
0.132383 0.049916 0.026119
