skills/editops-orchestrator/assets/grade/luts/cool_tech_v07.cube
TITLE "cool_tech_v07"
LUT_3D_SIZE 5
DOMAIN_MIN 0.0 0.0 0.0
DOMAIN_MAX 1.0 1.0 1.0
0.000051 0.000051 0.017593
0.000746 0.000746 0.255676
0.001456 0.001456 0.499175
0.002174 0.002174 0.745065
0.002812 0.002812 0.963865
0.006720 0.236806 0.024262
0.007415 0.237500 0.262345
0.008125 0.238211 0.505844
0.008842 0.238928 0.751733
0.009481 0.239566 0.970533
0.013748 0.486291 0.031289
0.014442 0.486985 0.269372
0.015152 0.487696 0.512872
0.015870 0.488413 0.758761
0.016508 0.489051 0.977561
0.020848 0.738365 0.038389
0.021542 0.739060 0.276473
0.022253 0.739770 0.519972
0.022970 0.740488 0.765861
0.023609 0.741126 0.984661
0.027906 0.988959 0.045448
0.028601 0.989654 0.283531
0.029311 0.990364 0.527031
0.030029 0.991081 0.772920
0.030667 0.991720 0.991720
0.207112 0.001820 0.019362
0.207807 0.002515 0.257445
0.208517 0.003225 0.500944
0.209235 0.003942 0.746833
0.209873 0.004581 0.965633
0.213781 0.238574 0.026030
0.214476 0.239269 0.264114
0.215186 0.239979 0.507613
0.215903 0.240697 0.753502
0.216542 0.241335 0.972302
0.220808 0.488059 0.033058
0.221503 0.488754 0.271141
0.222213 0.489464 0.514640
0.222931 0.490182 0.760530
0.223569 0.490820 0.979330
0.227909 0.740134 0.040158
0.228603 0.740829 0.278241
0.229314 0.741539 0.521741
0.230031 0.742256 0.767630
0.230669 0.742895 0.986430
0.234967 0.990728 0.047217
0.235662 0.991422 0.285300
0.236372 0.992133 0.528799
0.237090 0.992850 0.774688
0.237728 0.993489 0.993489
0.451298 0.003906 0.021448
0.451993 0.004601 0.259531
0.452703 0.005311 0.503030
0.453421 0.006028 0.748919
0.454059 0.006667 0.967719
0.457967 0.240660 0.028116
0.458662 0.241355 0.266200
0.459372 0.242065 0.509699
0.460090 0.242783 0.755588
0.460728 0.243421 0.974388
0.464995 0.490145 0.035144
0.465689 0.490840 0.273227
0.466400 0.491550 0.516726
0.467117 0.492268 0.762615
0.467755 0.492906 0.981415
0.472095 0.742220 0.042244
0.472790 0.742914 0.280327
0.473500 0.743625 0.523827
0.474217 0.744342 0.769716
0.474856 0.744981 0.988516
0.479154 0.992814 0.049303
0.479848 0.993508 0.287386
0.480559 0.994219 0.530885
0.481276 0.994936 0.776774
0.481914 0.995574 0.995574
0.698176 0.006015 0.023556
0.698870 0.006709 0.261640
0.699581 0.007420 0.505139
0.700298 0.008137 0.751028
0.700936 0.008776 0.969828
0.704845 0.242769 0.030225
0.705539 0.243464 0.268308
0.706250 0.244174 0.511808
0.706967 0.244892 0.757697
0.707605 0.245530 0.976497
0.711872 0.492254 0.037253
0.712567 0.492949 0.275336
0.713277 0.493659 0.518835
0.713994 0.494376 0.764724
0.714633 0.495015 0.983524
0.718972 0.744329 0.044353
0.719667 0.745023 0.282436
0.720377 0.745734 0.525935
0.721095 0.746451 0.771825
0.721733 0.747089 0.990625
0.726031 0.994923 0.051412
0.726725 0.995617 0.289495
0.727436 0.996328 0.532994
0.728153 0.997045 0.778883
0.728792 0.997683 0.997683
0.946768 0.008138 0.025680
0.947463 0.008833 0.263763
0.948173 0.009543 0.507262
0.948891 0.010261 0.753152
0.949529 0.010899 0.971952
0.953437 0.244893 0.032349
0.954132 0.245587 0.270432
0.954842 0.246298 0.513931
0.955559 0.247015 0.759820
0.956198 0.247653 0.978620
0.960464 0.494378 0.039376
0.961159 0.495072 0.277459
0.961869 0.495783 0.520959
0.962587 0.496500 0.766848
0.963225 0.497138 0.985648
0.967565 0.746452 0.046476
0.968259 0.747147 0.284560
0.968970 0.747857 0.528059
0.969687 0.748575 0.773948
0.970325 0.749213 0.992748
0.974623 0.997046 0.053535
0.975318 0.997741 0.291618
0.976028 0.998451 0.535118
0.976746 0.999168 0.781007
0.977384 0.999807 0.999807
