skills/editops-orchestrator/assets/grade/luts/cool_tech_v13.cube
TITLE "cool_tech_v13"
LUT_3D_SIZE 9
DOMAIN_MIN 0.0 0.0 0.0
DOMAIN_MAX 1.0 1.0 1.0
0.000112 0.000112 0.025363
0.000622 0.000622 0.140854
0.001146 0.001146 0.259516
0.001678 0.001678 0.379781
0.002214 0.002214 0.501146
0.002754 0.002754 0.623352
0.003296 0.003296 0.746240
0.003842 0.003842 0.869702
0.004180 0.004180 0.946285
0.004572 0.106045 0.029823
0.005082 0.106555 0.145314
0.005606 0.107079 0.263975
0.006137 0.107610 0.384241
0.006674 0.108146 0.505606
0.007213 0.108686 0.627812
0.007756 0.109229 0.750700
0.008302 0.109774 0.874162
0.008640 0.110113 0.950745
0.009731 0.228589 0.034982
0.010241 0.229099 0.150473
0.010765 0.229623 0.269135
0.011297 0.230154 0.389400
0.011833 0.230690 0.510765
0.012372 0.231230 0.632971
0.012915 0.231773 0.755859
0.013461 0.232318 0.879321
0.013799 0.232657 0.955904
0.014973 0.353111 0.040224
0.015484 0.353621 0.155716
0.016008 0.354145 0.274377
0.016539 0.354676 0.394643
0.017075 0.355213 0.516008
0.017615 0.355752 0.638213
0.018158 0.356295 0.761101
0.018703 0.356841 0.884563
0.019041 0.357179 0.961147
0.020270 0.478908 0.045520
0.020780 0.479418 0.161012
0.021304 0.479942 0.279673
0.021835 0.480473 0.399939
0.022371 0.481010 0.521304
0.022911 0.481549 0.643510
0.023454 0.482092 0.766397
0.023999 0.482638 0.889860
0.024338 0.482976 0.966443
0.025606 0.605652 0.050856
0.026116 0.606163 0.166348
0.026640 0.606687 0.285009
0.027171 0.607218 0.405275
0.027707 0.607754 0.526640
0.028247 0.608294 0.648846
0.028790 0.608837 0.771733
0.029335 0.609382 0.895196
0.029674 0.609720 0.971779
0.030973 0.733153 0.056224
0.031484 0.733663 0.171716
0.032008 0.734187 0.290377
0.032539 0.734719 0.410643
0.033075 0.735255 0.532008
0.033615 0.735795 0.654213
0.034158 0.736337 0.777101
0.034703 0.736883 0.900563
0.035041 0.737221 0.977147
0.036368 0.861284 0.061619
0.036878 0.861794 0.177110
0.037402 0.862318 0.295771
0.037933 0.862849 0.416037
0.038469 0.863385 0.537402
0.039009 0.863925 0.659608
0.039552 0.864468 0.782496
0.040097 0.865014 0.905958
0.040436 0.865352 0.982541
0.041518 0.983624 0.066769
0.042029 0.984134 0.182260
0.042553 0.984658 0.300922
0.043084 0.985189 0.421188
0.043620 0.985725 0.542553
0.044160 0.986265 0.664758
0.044703 0.986808 0.787646
0.045248 0.987353 0.911108
0.045586 0.987692 0.987692
0.064073 0.000937 0.026188
0.064583 0.001447 0.141679
0.065107 0.001971 0.260340
0.065638 0.002502 0.380606
0.066174 0.003039 0.501971
0.066714 0.003578 0.624177
0.067257 0.004121 0.747065
0.067802 0.004667 0.870527
0.068141 0.005005 0.947110
0.068533 0.106870 0.030648
0.069043 0.107380 0.146139
0.069567 0.107904 0.264800
0.070098 0.108435 0.385066
0.070634 0.108971 0.506431
0.071174 0.109511 0.628637
0.071717 0.110054 0.751524
0.072262 0.110599 0.874987
0.072601 0.110938 0.951570
0.073692 0.229414 0.035807
0.074202 0.229924 0.151298
0.074726 0.230448 0.269959
0.075257 0.230979 0.390225
0.075793 0.231515 0.511590
0.076333 0.232055 0.633796
0.076876 0.232598 0.756684
0.077421 0.233143 0.880146
0.077760 0.233481 0.956729
0.078934 0.353936 0.041049
0.079444 0.354446 0.156540
0.079968 0.354970 0.275202
0.080500 0.355501 0.395468
0.081036 0.356037 0.516833
0.081576 0.356577 0.639038
0.082118 0.357120 0.761926
0.082664 0.357665 0.885388
0.083002 0.358004 0.961972
0.084230 0.479733 0.046345
0.084740 0.480243 0.161837
0.085265 0.480767 0.280498
0.085796 0.481298 0.400764
0.086332 0.481834 0.522129
0.086872 0.482374 0.644334
0.087415 0.482917 0.767222
0.087960 0.483462 0.890684
0.088298 0.483801 0.967268
0.089566 0.606477 0.051681
0.090076 0.606987 0.167173
0.090601 0.607512 0.285834
0.091132 0.608043 0.406100
0.091668 0.608579 0.527465
0.092208 0.609119 0.649670
0.092751 0.609662 0.772558
0.093296 0.610207 0.896020
0.093634 0.610545 0.972604
0.094934 0.733978 0.057049
0.095444 0.734488 0.172540
0.095968 0.735012 0.291202
0.096500 0.735544 0.411468
0.097036 0.736080 0.532833
0.097576 0.736619 0.655038
0.098118 0.737162 0.777926
0.098664 0.737708 0.901388
0.099002 0.738046 0.977972
0.100329 0.862109 0.062443
0.100839 0.862619 0.177935
0.101363 0.863143 0.296596
0.101894 0.863674 0.416862
0.102430 0.864210 0.538227
0.102970 0.864750 0.660433
0.103513 0.865293 0.783320
0.104058 0.865838 0.906783
0.104396 0.866177 0.983366
0.105479 0.984448 0.067594
0.105989 0.984959 0.183085
0.106513 0.985483 0.301747
0.107045 0.986014 0.422012
0.107581 0.986550 0.543378
0.108121 0.987090 0.665583
0.108663 0.987633 0.788471
0.109209 0.988178 0.911933
0.109547 0.988516 0.988516
0.182005 0.002458 0.027709
0.182515 0.002968 0.143200
0.183039 0.003492 0.261861
0.183570 0.004023 0.382127
0.184106 0.004559 0.503492
0.184646 0.005099 0.625698
0.185189 0.005642 0.748586
0.185734 0.006187 0.872048
0.186072 0.006526 0.948631
0.186464 0.108391 0.032168
0.186975 0.108901 0.147660
0.187499 0.109425 0.266321
0.188030 0.109956 0.386587
0.188566 0.110492 0.507952
0.189106 0.111032 0.630158
0.189649 0.111575 0.753045
0.190194 0.112120 0.876508
0.190532 0.112458 0.953091
0.191624 0.230934 0.037328
0.192134 0.231445 0.152819
0.192658 0.231969 0.271480
0.193189 0.232500 0.391746
0.193725 0.233036 0.513111
0.194265 0.233576 0.635317
0.194808 0.234119 0.758205
0.195353 0.234664 0.881667
0.195691 0.235002 0.958250
0.196866 0.355457 0.042570
0.197376 0.355967 0.158061
0.197900 0.356491 0.276723
0.198432 0.357022 0.396988
0.198968 0.357558 0.518354
0.199507 0.358098 0.640559
0.200050 0.358641 0.763447
0.200596 0.359186 0.886909
0.200934 0.359525 0.963492
0.202162 0.481254 0.047866
0.202672 0.481764 0.163357
0.203196 0.482288 0.282019
0.203728 0.482819 0.402285
0.204264 0.483355 0.523650
0.204804 0.483895 0.645855
0.205346 0.484438 0.768743
0.205892 0.484983 0.892205
0.206230 0.485322 0.968789
0.207498 0.607998 0.053202
0.208008 0.608508 0.168693
0.208532 0.609032 0.287355
0.209064 0.609564 0.407621
0.209600 0.610100 0.528986
0.210140 0.610640 0.651191
0.210682 0.611182 0.774079
0.211228 0.611728 0.897541
0.211566 0.612066 0.974125
0.212866 0.735499 0.058570
0.213376 0.736009 0.174061
0.213900 0.736533 0.292723
0.214431 0.737064 0.412988
0.214968 0.737600 0.534353
0.215507 0.738140 0.656559
0.216050 0.738683 0.779447
0.216596 0.739229 0.902909
0.216934 0.739567 0.979492
0.218260 0.863630 0.063964
0.218770 0.864140 0.179456
0.219295 0.864664 0.298117
0.219826 0.865195 0.418383
0.220362 0.865731 0.539748
0.220902 0.866271 0.661954
0.221445 0.866814 0.784841
0.221990 0.867359 0.908304
0.222328 0.867698 0.984887
0.223411 0.985969 0.069115
0.223921 0.986480 0.184606
0.224445 0.987004 0.303268
0.224976 0.987535 0.423533
0.225513 0.988071 0.544898
0.226052 0.988611 0.667104
0.226595 0.989154 0.789992
0.227141 0.989699 0.913454
0.227479 0.990037 0.990037
0.302313 0.004009 0.029260
0.302823 0.004519 0.144751
0.303348 0.005044 0.263413
0.303879 0.005575 0.383679
0.304415 0.006111 0.505044
0.304955 0.006651 0.627249
0.305498 0.007194 0.750137
0.306043 0.007739 0.873599
0.306381 0.008077 0.950183
0.306773 0.109942 0.033720
0.307283 0.110452 0.149211
0.307807 0.110976 0.267873
0.308339 0.111508 0.388138
0.308875 0.112044 0.509503
0.309415 0.112584 0.631709
0.309957 0.113126 0.754597
0.310503 0.113672 0.878059
0.310841 0.114010 0.954642
0.311932 0.232486 0.038879
0.312442 0.232996 0.154370
0.312967 0.233520 0.273032
0.313498 0.234052 0.393298
0.314034 0.234588 0.514663
0.314574 0.235127 0.636868
0.315117 0.235670 0.759756
0.315662 0.236216 0.883218
0.316000 0.236554 0.959802
0.317175 0.357008 0.044122
0.317685 0.357518 0.159613
0.318209 0.358042 0.278274
0.318740 0.358574 0.398540
0.319276 0.359110 0.519905
0.319816 0.359650 0.642111
0.320359 0.360192 0.764999
0.320904 0.360738 0.888461
0.321243 0.361076 0.965044
0.322471 0.482805 0.049418
0.322981 0.483315 0.164909
0.323505 0.483839 0.283570
0.324036 0.484371 0.403836
0.324572 0.484907 0.525201
0.325112 0.485447 0.647407
0.325655 0.485989 0.770295
0.326200 0.486535 0.893757
0.326539 0.486873 0.970340
0.327807 0.609550 0.054754
0.328317 0.610060 0.170245
0.328841 0.610584 0.288906
0.329372 0.611115 0.409172
0.329908 0.611651 0.530537
0.330448 0.612191 0.652743
0.330991 0.612734 0.775631
0.331536 0.613279 0.899093
0.331875 0.613618 0.975676
0.333175 0.737050 0.060121
0.333685 0.737561 0.175613
0.334209 0.738085 0.294274
0.334740 0.738616 0.414540
0.335276 0.739152 0.535905
0.335816 0.739692 0.658111
0.336359 0.740235 0.780998
0.336904 0.740780 0.904461
0.337243 0.741118 0.981044
0.338569 0.865181 0.065516
0.339079 0.865691 0.181007
0.339603 0.866215 0.299669
0.340135 0.866747 0.419934
0.340671 0.867283 0.541299
0.341210 0.867823 0.663505
0.341753 0.868365 0.786393
0.342299 0.868911 0.909855
0.342637 0.869249 0.986438
0.343720 0.987521 0.070666
0.344230 0.988031 0.186158
0.344754 0.988555 0.304819
0.345285 0.989086 0.425085
0.345821 0.989623 0.546450
0.346361 0.990162 0.668656
0.346904 0.990705 0.791543
0.347449 0.991251 0.915006
0.347788 0.991589 0.991589
0.424022 0.005579 0.030830
0.424532 0.006089 0.146321
0.425057 0.006613 0.264983
0.425588 0.007144 0.385248
0.426124 0.007681 0.506613
0.426664 0.008220 0.628819
0.427207 0.008763 0.751707
0.427752 0.009309 0.875169
0.428090 0.009647 0.951752
0.428482 0.111512 0.035290
0.428992 0.112022 0.150781
0.429516 0.112546 0.269442
0.430048 0.113077 0.389708
0.430584 0.113613 0.511073
0.431124 0.114153 0.633279
0.431666 0.114696 0.756167
0.432212 0.115241 0.879629
0.432550 0.115580 0.956212
0.433641 0.234056 0.040449
0.434151 0.234566 0.155940
0.434676 0.235090 0.274601
0.435207 0.235621 0.394867
0.435743 0.236157 0.516232
0.436283 0.236697 0.638438
0.436826 0.237240 0.761326
0.437371 0.237785 0.884788
0.437709 0.238124 0.961371
0.438884 0.358578 0.045691
0.439394 0.359088 0.161182
0.439918 0.359612 0.279844
0.440449 0.360143 0.400110
0.440985 0.360679 0.521475
0.441525 0.361219 0.643680
0.442068 0.361762 0.766568
0.442613 0.362307 0.890030
0.442952 0.362646 0.966614
0.444180 0.484375 0.050987
0.444690 0.484885 0.166479
0.445214 0.485409 0.285140
0.445745 0.485940 0.405406
0.446282 0.486476 0.526771
0.446821 0.487016 0.648976
0.447364 0.487559 0.771864
0.447910 0.488104 0.895326
0.448248 0.488443 0.971910
0.449516 0.611119 0.056323
0.450026 0.611629 0.171815
0.450550 0.612154 0.290476
0.451081 0.612685 0.410742
0.451618 0.613221 0.532107
0.452157 0.613761 0.654313
0.452700 0.614304 0.777200
0.453246 0.614849 0.900662
0.453584 0.615187 0.977246
0.454884 0.738620 0.061691
0.455394 0.739130 0.177182
0.455918 0.739654 0.295844
0.456449 0.740186 0.416110
0.456985 0.740722 0.537475
0.457525 0.741261 0.659680
0.458068 0.741804 0.782568
0.458613 0.742350 0.906030
0.458952 0.742688 0.982614
0.460278 0.866751 0.067085
0.460788 0.867261 0.182577
0.461312 0.867785 0.301238
0.461844 0.868316 0.421504
0.462380 0.868852 0.542869
0.462920 0.869392 0.665075
0.463462 0.869935 0.787962
0.464008 0.870480 0.911425
0.464346 0.870819 0.988008
0.465429 0.989090 0.072236
0.465939 0.989601 0.187727
0.466463 0.990125 0.306389
0.466994 0.990656 0.426654
0.467530 0.991192 0.548020
0.468070 0.991732 0.670225
0.468613 0.992275 0.793113
0.469158 0.992820 0.916575
0.469497 0.993158 0.993158
0.546736 0.007161 0.032412
0.547246 0.007672 0.147904
0.547771 0.008196 0.266565
0.548302 0.008727 0.386831
0.548838 0.009263 0.508196
0.549378 0.009803 0.630402
0.549921 0.010346 0.753289
0.550466 0.010891 0.876751
0.550804 0.011229 0.953335
0.551196 0.113094 0.036872
0.551706 0.113604 0.152363
0.552230 0.114129 0.271025
0.552762 0.114660 0.391291
0.553298 0.115196 0.512656
0.553838 0.115736 0.634861
0.554380 0.116279 0.757749
0.554926 0.116824 0.881211
0.555264 0.117162 0.957795
0.556355 0.235638 0.042031
0.556865 0.236148 0.157523
0.557390 0.236672 0.276184
0.557921 0.237204 0.396450
0.558457 0.237740 0.517815
0.558997 0.238280 0.640020
0.559540 0.238822 0.762908
0.560085 0.239368 0.886370
0.560423 0.239706 0.962954
0.561598 0.360160 0.047274
0.562108 0.360670 0.162765
0.562632 0.361195 0.281426
0.563163 0.361726 0.401692
0.563699 0.362262 0.523057
0.564239 0.362802 0.645263
0.564782 0.363345 0.768151
0.565327 0.363890 0.891613
0.565666 0.364228 0.968196
0.566894 0.485957 0.052570
0.567404 0.486467 0.168061
0.567928 0.486992 0.286723
0.568459 0.487523 0.406988
0.568995 0.488059 0.528353
0.569535 0.488599 0.650559
0.570078 0.489142 0.773447
0.570623 0.489687 0.896909
0.570962 0.490025 0.973492
0.572230 0.612702 0.057906
0.572740 0.613212 0.173397
0.573264 0.613736 0.292059
0.573795 0.614267 0.412324
0.574331 0.614804 0.533689
0.574871 0.615343 0.655895
0.575414 0.615886 0.778783
0.575959 0.616432 0.902245
0.576298 0.616770 0.978828
0.577598 0.740203 0.063274
0.578108 0.740713 0.178765
0.578632 0.741237 0.297426
0.579163 0.741768 0.417692
0.579699 0.742304 0.539057
0.580239 0.742844 0.661263
0.580782 0.743387 0.784151
0.581327 0.743932 0.907613
0.581666 0.744270 0.984196
0.582992 0.868333 0.068668
0.583502 0.868843 0.184159
0.584026 0.869368 0.302821
0.584558 0.869899 0.423086
0.585094 0.870435 0.544452
0.585633 0.870975 0.666657
0.586176 0.871518 0.789545
0.586722 0.872063 0.913007
0.587060 0.872401 0.989590
0.588143 0.990673 0.073819
0.588653 0.991183 0.189310
0.589177 0.991707 0.307971
0.589708 0.992239 0.428237
0.590244 0.992775 0.549602
0.590784 0.993315 0.671808
0.591327 0.993857 0.794696
0.591872 0.994403 0.918158
0.592211 0.994741 0.994741
0.670237 0.008754 0.034005
0.670747 0.009264 0.149496
0.671271 0.009788 0.268158
0.671802 0.010320 0.388423
0.672338 0.010856 0.509788
0.672878 0.011396 0.631994
0.673421 0.011938 0.754882
0.673966 0.012484 0.878344
0.674305 0.012822 0.954927
0.674696 0.114687 0.038465
0.675207 0.115197 0.153956
0.675731 0.115721 0.272618
0.676262 0.116252 0.392883
0.676798 0.116789 0.514248
0.677338 0.117328 0.636454
0.677881 0.117871 0.759342
0.678426 0.118417 0.882804
0.678764 0.118755 0.959387
0.679856 0.237231 0.043624
0.680366 0.237741 0.159115
0.680890 0.238265 0.277777
0.681421 0.238796 0.398042
0.681957 0.239332 0.519407
0.682497 0.239872 0.641613
0.683040 0.240415 0.764501
0.683585 0.240960 0.887963
0.683923 0.241299 0.964546
0.685098 0.361753 0.048866
0.685608 0.362263 0.164358
0.686132 0.362787 0.283019
0.686664 0.363319 0.403285
0.687200 0.363855 0.524650
0.687739 0.364395 0.646856
0.688282 0.364937 0.769743
0.688828 0.365483 0.893206
0.689166 0.365821 0.969789
0.690394 0.487550 0.054163
0.690904 0.488060 0.169654
0.691428 0.488584 0.288315
0.691960 0.489116 0.408581
0.692496 0.489652 0.529946
0.693036 0.490192 0.652152
0.693578 0.490734 0.775039
0.694124 0.491280 0.898502
0.694462 0.491618 0.975085
0.695730 0.614295 0.059499
0.696240 0.614805 0.174990
0.696764 0.615329 0.293651
0.697296 0.615860 0.413917
0.697832 0.616396 0.535282
0.698372 0.616936 0.657488
0.698914 0.617479 0.780375
0.699460 0.618024 0.903838
0.699798 0.618363 0.980421
0.701098 0.741795 0.064866
0.701608 0.742305 0.180358
0.702132 0.742830 0.299019
0.702664 0.743361 0.419285
0.703200 0.743897 0.540650
0.703739 0.744437 0.662856
0.704282 0.744980 0.785743
0.704828 0.745525 0.909206
0.705166 0.745863 0.985789
0.706492 0.869926 0.070261
0.707002 0.870436 0.185752
0.707527 0.870960 0.304414
0.708058 0.871492 0.424679
0.708594 0.872028 0.546044
0.709134 0.872567 0.668250
0.709677 0.873110 0.791138
0.710222 0.873656 0.914600
0.710560 0.873994 0.991183
0.711643 0.992266 0.075411
0.712153 0.992776 0.190903
0.712677 0.993300 0.309564
0.713208 0.993831 0.429830
0.713745 0.994367 0.551195
0.714284 0.994907 0.673401
0.714827 0.995450 0.796288
0.715373 0.995995 0.919750
0.715711 0.996334 0.996334
0.794384 0.010355 0.035606
0.794894 0.010865 0.151097
0.795418 0.011390 0.269759
0.795950 0.011921 0.390024
0.796486 0.012457 0.511390
0.797026 0.012997 0.633595
0.797568 0.013540 0.756483
0.798114 0.014085 0.879945
0.798452 0.014423 0.956528
0.798844 0.116288 0.040066
0.799354 0.116798 0.155557
0.799878 0.117322 0.274219
0.800409 0.117854 0.394484
0.800946 0.118390 0.515849
0.801485 0.118929 0.638055
0.802028 0.119472 0.760943
0.802574 0.120018 0.884405
0.802912 0.120356 0.960988
0.804003 0.238832 0.045225
0.804513 0.239342 0.160716
0.805037 0.239866 0.279378
0.805569 0.240397 0.399643
0.806105 0.240934 0.521009
0.806645 0.241473 0.643214
0.807187 0.242016 0.766102
0.807733 0.242562 0.889564
0.808071 0.242900 0.966147
0.809246 0.363354 0.050467
0.809756 0.363864 0.165959
0.810280 0.364388 0.284620
0.810811 0.364920 0.404886
0.811347 0.365456 0.526251
0.811887 0.365996 0.648457
0.812430 0.366538 0.771344
0.812975 0.367084 0.894807
0.813313 0.367422 0.971390
0.814542 0.489151 0.055764
0.815052 0.489661 0.171255
0.815576 0.490185 0.289916
0.816107 0.490717 0.410182
0.816643 0.491253 0.531547
0.817183 0.491793 0.653753
0.817726 0.492335 0.776641
0.818271 0.492881 0.900103
0.818610 0.493219 0.976686
0.819878 0.615896 0.061100
0.820388 0.616406 0.176591
0.820912 0.616930 0.295252
0.821443 0.617461 0.415518
0.821979 0.617997 0.536883
0.822519 0.618537 0.659089
0.823062 0.619080 0.781977
0.823607 0.619625 0.905439
0.823946 0.619964 0.982022
0.825245 0.743396 0.066467
0.825756 0.743906 0.181959
0.826280 0.744431 0.300620
0.826811 0.744962 0.420886
0.827347 0.745498 0.542251
0.827887 0.746038 0.664457
0.828430 0.746581 0.787344
0.828975 0.747126 0.910807
0.829313 0.747464 0.987390
0.830640 0.871527 0.071862
0.831150 0.872037 0.187353
0.831674 0.872561 0.306015
0.832205 0.873093 0.426280
0.832742 0.873629 0.547645
0.833281 0.874168 0.669851
0.833824 0.874711 0.792739
0.834370 0.875257 0.916201
0.834708 0.875595 0.992784
0.835790 0.993867 0.077012
0.836301 0.994377 0.192504
0.836825 0.994901 0.311165
0.837356 0.995432 0.431431
0.837892 0.995968 0.552796
0.838432 0.996508 0.675002
0.838975 0.997051 0.797889
0.839520 0.997596 0.921352
0.839858 0.997935 0.997935
0.919082 0.011963 0.037214
0.919592 0.012474 0.152705
0.920116 0.012998 0.271367
0.920648 0.013529 0.391633
0.921184 0.014065 0.512998
0.921724 0.014605 0.635203
0.922266 0.015148 0.758091
0.922812 0.015693 0.881553
0.923150 0.016031 0.958137
0.923542 0.117896 0.041674
0.924052 0.118406 0.157165
0.924576 0.118930 0.275827
0.925108 0.119462 0.396092
0.925644 0.119998 0.517458
0.926183 0.120538 0.639663
0.926726 0.121080 0.762551
0.927272 0.121626 0.886013
0.927610 0.121964 0.962596
0.928701 0.240440 0.046833
0.929211 0.240950 0.162324
0.929735 0.241474 0.280986
0.930267 0.242006 0.401252
0.930803 0.242542 0.522617
0.931343 0.243081 0.644822
0.931885 0.243624 0.767710
0.932431 0.244170 0.891172
0.932769 0.244508 0.967756
0.933944 0.364962 0.052076
0.934454 0.365472 0.167567
0.934978 0.365997 0.286228
0.935509 0.366528 0.406494
0.936045 0.367064 0.527859
0.936585 0.367604 0.650065
0.937128 0.368147 0.772953
0.937673 0.368692 0.896415
0.938012 0.369030 0.972998
0.939240 0.490759 0.057372
0.939750 0.491269 0.172863
0.940274 0.491794 0.291524
0.940805 0.492325 0.411790
0.941341 0.492861 0.533155
0.941881 0.493401 0.655361
0.942424 0.493944 0.778249
0.942969 0.494489 0.901711
0.943308 0.494827 0.978294
0.944576 0.617504 0.062708
0.945086 0.618014 0.178199
0.945610 0.618538 0.296861
0.946141 0.619069 0.417126
0.946677 0.619605 0.538491
0.947217 0.620145 0.660697
0.947760 0.620688 0.783585
0.948305 0.621233 0.907047
0.948644 0.621572 0.983630
0.949944 0.745004 0.068076
0.950454 0.745515 0.183567
0.950978 0.746039 0.302228
0.951509 0.746570 0.422494
0.952045 0.747106 0.543859
0.952585 0.747646 0.666065
0.953128 0.748189 0.788953
0.953673 0.748734 0.912415
0.954012 0.749072 0.988998
0.955338 0.873135 0.073470
0.955848 0.873645 0.188961
0.956372 0.874169 0.307623
0.956903 0.874701 0.427888
0.957440 0.875237 0.549253
0.957979 0.875777 0.671459
0.958522 0.876319 0.794347
0.959068 0.876865 0.917809
0.959406 0.877203 0.994392
0.960488 0.995475 0.078620
0.960999 0.995985 0.194112
0.961523 0.996509 0.312773
0.962054 0.997041 0.433039
0.962590 0.997577 0.554404
0.963130 0.998116 0.676610
0.963673 0.998659 0.799497
0.964218 0.999205 0.922960
0.964556 0.999543 0.999543
