skills/editops-orchestrator/assets/grade/luts/cool_tech_v07.cube
TITLE "cool_tech_v07"
LUT_3D_SIZE 17
DOMAIN_MIN 0.0 0.0 0.0
DOMAIN_MAX 1.0 1.0 1.0
0.000051 0.000051 0.017593
0.000222 0.000222 0.076024
0.000395 0.000395 0.135442
0.000570 0.000570 0.195380
0.000746 0.000746 0.255676
0.000923 0.000923 0.316248
0.001100 0.001100 0.377044
0.001278 0.001278 0.438028
0.001456 0.001456 0.499175
0.001635 0.001635 0.560467
0.001814 0.001814 0.621886
0.001994 0.001994 0.683422
0.002174 0.002174 0.745065
0.002354 0.002354 0.806804
0.002534 0.002534 0.868635
0.002715 0.002715 0.930549
0.002812 0.002812 0.963865
0.001547 0.053133 0.019088
0.001717 0.053304 0.077519
0.001890 0.053477 0.136937
0.002065 0.053652 0.196875
0.002241 0.053828 0.257171
0.002418 0.054004 0.317743
0.002595 0.054182 0.378539
0.002773 0.054360 0.439523
0.002951 0.054538 0.500671
0.003130 0.054717 0.561962
0.003309 0.054896 0.623382
0.003489 0.055076 0.684918
0.003669 0.055255 0.746560
0.003849 0.055436 0.808300
0.004029 0.055616 0.870130
0.004210 0.055797 0.932045
0.004307 0.055894 0.965360
0.003255 0.113779 0.020796
0.003425 0.113949 0.079227
0.003599 0.114122 0.138646
0.003773 0.114297 0.198583
0.003949 0.114473 0.258880
0.004126 0.114650 0.319451
0.004303 0.114827 0.380247
0.004481 0.115005 0.441231
0.004660 0.115183 0.502379
0.004839 0.115362 0.563670
0.005018 0.115541 0.625090
0.005197 0.115721 0.686626
0.005377 0.115901 0.748268
0.005557 0.116081 0.810008
0.005738 0.116261 0.871838
0.005918 0.116442 0.933753
0.006015 0.116539 0.967068
0.004981 0.175081 0.022523
0.005152 0.175252 0.080954
0.005325 0.175425 0.140372
0.005500 0.175600 0.200310
0.005676 0.175776 0.260606
0.005853 0.175953 0.321178
0.006030 0.176130 0.381974
0.006208 0.176308 0.442958
0.006386 0.176486 0.504106
0.006565 0.176665 0.565397
0.006744 0.176844 0.626817
0.006924 0.177024 0.688353
0.007104 0.177204 0.749995
0.007284 0.177384 0.811735
0.007464 0.177564 0.873565
0.007645 0.177745 0.935480
0.007742 0.177842 0.968795
0.006720 0.236806 0.024262
0.006891 0.236976 0.082693
0.007064 0.237149 0.142111
0.007239 0.237324 0.202048
0.007415 0.237500 0.262345
0.007591 0.237677 0.322917
0.007769 0.237854 0.383713
0.007947 0.238032 0.444697
0.008125 0.238211 0.505844
0.008304 0.238389 0.567135
0.008483 0.238569 0.628555
0.008663 0.238748 0.690091
0.008842 0.238928 0.751733
0.009023 0.239108 0.813473
0.009203 0.239289 0.875304
0.009384 0.239469 0.937218
0.009481 0.239566 0.970533
0.008468 0.298843 0.026009
0.008638 0.299013 0.084440
0.008811 0.299186 0.143858
0.008986 0.299361 0.203796
0.009162 0.299537 0.264092
0.009339 0.299714 0.324664
0.009516 0.299891 0.385460
0.009694 0.300069 0.446444
0.009873 0.300248 0.507592
0.010051 0.300426 0.568883
0.010231 0.300606 0.630303
0.010410 0.300785 0.691839
0.010590 0.300965 0.753481
0.010770 0.301145 0.815221
0.010950 0.301325 0.877051
0.011131 0.301506 0.938966
0.011228 0.301603 0.972281
0.010222 0.361128 0.027764
0.010392 0.361299 0.086195
0.010566 0.361472 0.145613
0.010741 0.361647 0.205550
0.010917 0.361823 0.265847
0.011093 0.361999 0.326419
0.011271 0.362177 0.387214
0.011449 0.362355 0.448199
0.011627 0.362533 0.509346
0.011806 0.362712 0.570637
0.011985 0.362891 0.632057
0.012164 0.363071 0.693593
0.012344 0.363251 0.755235
0.012524 0.363431 0.816975
0.012705 0.363611 0.878805
0.012885 0.363792 0.940720
0.012983 0.363889 0.974035
0.011982 0.423621 0.029524
0.012153 0.423791 0.087955
0.012326 0.423965 0.147373
0.012501 0.424139 0.207311
0.012677 0.424315 0.267607
0.012854 0.424492 0.328179
0.013031 0.424669 0.388975
0.013209 0.424847 0.449959
0.013387 0.425026 0.511106
0.013566 0.425205 0.572398
0.013745 0.425384 0.633817
0.013925 0.425563 0.695353
0.014105 0.425743 0.756996
0.014285 0.425923 0.818735
0.014465 0.426104 0.880566
0.014646 0.426284 0.942480
0.014743 0.426381 0.975796
0.013748 0.486291 0.031289
0.013918 0.486461 0.089720
0.014091 0.486634 0.149138
0.014266 0.486809 0.209076
0.014442 0.486985 0.269372
0.014619 0.487162 0.329944
0.014796 0.487339 0.390740
0.014974 0.487517 0.451724
0.015152 0.487696 0.512872
0.015331 0.487874 0.574163
0.015510 0.488054 0.635583
0.015690 0.488233 0.697119
0.015870 0.488413 0.758761
0.016050 0.488593 0.820501
0.016230 0.488773 0.882331
0.016411 0.488954 0.944246
0.016508 0.489051 0.977561
0.015517 0.549115 0.033059
0.015688 0.549286 0.091490
0.015861 0.549459 0.150908
0.016036 0.549634 0.210845
0.016212 0.549810 0.271142
0.016388 0.549987 0.331714
0.016566 0.550164 0.392510
0.016744 0.550342 0.453494
0.016922 0.550520 0.514641
0.017101 0.550699 0.575932
0.017280 0.550878 0.637352
0.017460 0.551058 0.698888
0.017639 0.551238 0.760530
0.017820 0.551418 0.822270
0.018000 0.551598 0.884101
0.018181 0.551779 0.946015
0.018278 0.551876 0.979330
0.017291 0.612078 0.034832
0.017461 0.612249 0.093263
0.017634 0.612422 0.152681
0.017809 0.612597 0.212619
0.017985 0.612773 0.272915
0.018162 0.612950 0.333487
0.018339 0.613127 0.394283
0.018517 0.613305 0.455267
0.018696 0.613483 0.516415
0.018874 0.613662 0.577706
0.019054 0.613841 0.639126
0.019233 0.614021 0.700662
0.019413 0.614201 0.762304
0.019593 0.614381 0.824044
0.019774 0.614561 0.885874
0.019954 0.614742 0.947789
0.020051 0.614839 0.981104
0.019068 0.675165 0.036609
0.019238 0.675336 0.095040
0.019411 0.675509 0.154458
0.019586 0.675684 0.214396
0.019762 0.675860 0.274693
0.019939 0.676037 0.335264
0.020116 0.676214 0.396060
0.020294 0.676392 0.457044
0.020473 0.676570 0.518192
0.020651 0.676749 0.579483
0.020831 0.676928 0.640903
0.021010 0.677108 0.702439
0.021190 0.677288 0.764081
0.021370 0.677468 0.825821
0.021551 0.677648 0.887651
0.021731 0.677829 0.949566
0.021828 0.677926 0.982881
0.020848 0.738365 0.038389
0.021018 0.738536 0.096820
0.021192 0.738709 0.156239
0.021367 0.738884 0.216176
0.021542 0.739060 0.276473
0.021719 0.739237 0.337045
0.021897 0.739414 0.397840
0.022074 0.739592 0.458825
0.022253 0.739770 0.519972
0.022432 0.739949 0.581263
0.022611 0.740128 0.642683
0.022790 0.740308 0.704219
0.022970 0.740488 0.765861
0.023150 0.740668 0.827601
0.023331 0.740848 0.889431
0.023511 0.741029 0.951346
0.023609 0.741126 0.984661
0.022631 0.801669 0.040173
0.022801 0.801839 0.098604
0.022975 0.802013 0.158022
0.023150 0.802187 0.217959
0.023326 0.802363 0.278256
0.023502 0.802540 0.338828
0.023680 0.802717 0.399623
0.023858 0.802895 0.460608
0.024036 0.803074 0.521755
0.024215 0.803253 0.583046
0.024394 0.803432 0.644466
0.024573 0.803611 0.706002
0.024753 0.803791 0.767644
0.024933 0.803971 0.829384
0.025114 0.804152 0.891214
0.025294 0.804332 0.953129
0.025392 0.804429 0.986444
0.024417 0.865068 0.041958
0.024587 0.865239 0.100389
0.024761 0.865412 0.159808
0.024935 0.865587 0.219745
0.025111 0.865763 0.280042
0.025288 0.865939 0.340613
0.025465 0.866117 0.401409
0.025643 0.866295 0.462393
0.025822 0.866473 0.523541
0.026001 0.866652 0.584832
0.026180 0.866831 0.646252
0.026359 0.867011 0.707788
0.026539 0.867190 0.769430
0.026719 0.867371 0.831170
0.026900 0.867551 0.893000
0.027080 0.867732 0.954915
0.027177 0.867829 0.988230
0.026205 0.928556 0.043747
0.026376 0.928727 0.102178
0.026549 0.928900 0.161596
0.026724 0.929075 0.221533
0.026900 0.929251 0.281830
0.027076 0.929428 0.342402
0.027254 0.929605 0.403197
0.027432 0.929783 0.464182
0.027610 0.929961 0.525329
0.027789 0.930140 0.586620
0.027968 0.930319 0.648040
0.028148 0.930499 0.709576
0.028327 0.930679 0.771218
0.028508 0.930859 0.832958
0.028688 0.931039 0.894789
0.028869 0.931220 0.956703
0.028966 0.931317 0.990018
0.027906 0.988959 0.045448
0.028077 0.989130 0.103879
0.028250 0.989303 0.163297
0.028425 0.989478 0.223235
0.028601 0.989654 0.283531
0.028778 0.989830 0.344103
0.028955 0.990008 0.404899
0.029133 0.990186 0.465883
0.029311 0.990364 0.527031
0.029490 0.990543 0.588322
0.029669 0.990722 0.649742
0.029849 0.990902 0.711278
0.030029 0.991081 0.772920
0.030209 0.991262 0.834660
0.030389 0.991442 0.896490
0.030570 0.991623 0.958404
0.030667 0.991720 0.991720
0.027884 0.000289 0.017831
0.028054 0.000460 0.076262
0.028227 0.000633 0.135680
0.028402 0.000808 0.195617
0.028578 0.000984 0.255914
0.028755 0.001160 0.316486
0.028932 0.001338 0.377281
0.029110 0.001516 0.438266
0.029289 0.001694 0.499413
0.029467 0.001873 0.560704
0.029647 0.002052 0.622124
0.029826 0.002232 0.683660
0.030006 0.002411 0.745302
0.030186 0.002592 0.807042
0.030366 0.002772 0.868873
0.030547 0.002953 0.930787
0.030644 0.003050 0.964102
0.029379 0.053371 0.019326
0.029549 0.053541 0.077757
0.029723 0.053715 0.137175
0.029897 0.053890 0.197113
0.030073 0.054065 0.257409
0.030250 0.054242 0.317981
0.030427 0.054420 0.378777
0.030605 0.054597 0.439761
0.030784 0.054776 0.500908
0.030963 0.054955 0.562200
0.031142 0.055134 0.623619
0.031321 0.055313 0.685155
0.031501 0.055493 0.746798
0.031681 0.055673 0.808537
0.031862 0.055854 0.870368
0.032042 0.056034 0.932282
0.032139 0.056132 0.965598
0.031087 0.114016 0.021034
0.031257 0.114187 0.079465
0.031431 0.114360 0.138883
0.031606 0.114535 0.198821
0.031782 0.114711 0.259117
0.031958 0.114888 0.319689
0.032136 0.115065 0.380485
0.032314 0.115243 0.441469
0.032492 0.115421 0.502617
0.032671 0.115600 0.563908
0.032850 0.115779 0.625328
0.033029 0.115959 0.686864
0.033209 0.116139 0.748506
0.033389 0.116319 0.810246
0.033570 0.116499 0.872076
0.033750 0.116680 0.933991
0.033848 0.116777 0.967306
0.032814 0.175319 0.022761
0.032984 0.175489 0.081192
0.033158 0.175663 0.140610
0.033332 0.175838 0.200548
0.033508 0.176014 0.260844
0.033685 0.176190 0.321416
0.033862 0.176368 0.382212
0.034040 0.176546 0.443196
0.034219 0.176724 0.504343
0.034397 0.176903 0.565635
0.034577 0.177082 0.627054
0.034756 0.177262 0.688590
0.034936 0.177441 0.750232
0.035116 0.177621 0.811972
0.035297 0.177802 0.873803
0.035477 0.177983 0.935717
0.035574 0.178080 0.969033
0.034552 0.237043 0.024499
0.034723 0.237214 0.082931
0.034896 0.237387 0.142349
0.035071 0.237562 0.202286
0.035247 0.237738 0.262583
0.035424 0.237915 0.323155
0.035601 0.238092 0.383950
0.035779 0.238270 0.444935
0.035957 0.238448 0.506082
0.036136 0.238627 0.567373
0.036315 0.238806 0.628793
0.036495 0.238986 0.690329
0.036675 0.239166 0.751971
0.036855 0.239346 0.813711
0.037035 0.239526 0.875541
0.037216 0.239707 0.937456
0.037313 0.239804 0.970771
0.036300 0.299080 0.026247
0.036470 0.299251 0.084678
0.036644 0.299424 0.144096
0.036818 0.299599 0.204034
0.036994 0.299775 0.264330
0.037171 0.299952 0.324902
0.037348 0.300129 0.385698
0.037526 0.300307 0.446682
0.037705 0.300485 0.507829
0.037884 0.300664 0.569121
0.038063 0.300843 0.630540
0.038242 0.301023 0.692076
0.038422 0.301203 0.753719
0.038602 0.301383 0.815458
0.038783 0.301563 0.877289
0.038963 0.301744 0.939203
0.039060 0.301841 0.972519
0.038054 0.361366 0.028001
0.038225 0.361536 0.086432
0.038398 0.361710 0.145851
0.038573 0.361885 0.205788
0.038749 0.362061 0.266085
0.038926 0.362237 0.326656
0.039103 0.362415 0.387452
0.039281 0.362592 0.448436
0.039459 0.362771 0.509584
0.039638 0.362950 0.570875
0.039817 0.363129 0.632295
0.039997 0.363308 0.693831
0.040177 0.363488 0.755473
0.040357 0.363668 0.817213
0.040537 0.363849 0.879043
0.040718 0.364029 0.940958
0.040815 0.364127 0.974273
0.039814 0.423858 0.029762
0.039985 0.424029 0.088193
0.040158 0.424202 0.147611
0.040333 0.424377 0.207548
0.040509 0.424553 0.267845
0.040686 0.424730 0.328417
0.040863 0.424907 0.389212
0.041041 0.425085 0.450197
0.041219 0.425263 0.511344
0.041398 0.425442 0.572635
0.041577 0.425621 0.634055
0.041757 0.425801 0.695591
0.041937 0.425981 0.757233
0.042117 0.426161 0.818973
0.042297 0.426341 0.880803
0.042478 0.426522 0.942718
0.042575 0.426619 0.976033
0.041580 0.486528 0.031527
0.041750 0.486699 0.089958
0.041924 0.486872 0.149376
0.042098 0.487047 0.209314
0.042274 0.487223 0.269610
0.042451 0.487400 0.330182
0.042628 0.487577 0.390978
0.042806 0.487755 0.451962
0.042985 0.487933 0.513109
0.043164 0.488112 0.574401
0.043343 0.488291 0.635820
0.043522 0.488471 0.697356
0.043702 0.488651 0.758999
0.043882 0.488831 0.820738
0.044063 0.489011 0.882569
0.044243 0.489192 0.944483
0.044340 0.489289 0.977799
0.043349 0.549353 0.033296
0.043520 0.549524 0.091728
0.043693 0.549697 0.151146
0.043868 0.549872 0.211083
0.044044 0.550048 0.271380
0.044221 0.550224 0.331952
0.044398 0.550402 0.392747
0.044576 0.550580 0.453732
0.044754 0.550758 0.514879
0.044933 0.550937 0.576170
0.045112 0.551116 0.637590
0.045292 0.551296 0.699126
0.045472 0.551476 0.760768
0.045652 0.551656 0.822508
0.045832 0.551836 0.884338
0.046013 0.552017 0.946253
0.046110 0.552114 0.979568
0.045123 0.612316 0.035070
0.045293 0.612486 0.093501
0.045467 0.612660 0.152919
0.045642 0.612835 0.212857
0.045817 0.613011 0.273153
0.045994 0.613187 0.333725
0.046172 0.613365 0.394521
0.046349 0.613543 0.455505
0.046528 0.613721 0.516653
0.046707 0.613900 0.577944
0.046886 0.614079 0.639363
0.047065 0.614258 0.700899
0.047245 0.614438 0.762542
0.047425 0.614618 0.824282
0.047606 0.614799 0.886112
0.047786 0.614979 0.948026
0.047884 0.615077 0.981342
0.046900 0.675403 0.036847
0.047070 0.675573 0.095278
0.047244 0.675747 0.154696
0.047419 0.675922 0.214634
0.047594 0.676098 0.274930
0.047771 0.676274 0.335502
0.047949 0.676452 0.396298
0.048126 0.676630 0.457282
0.048305 0.676808 0.518430
0.048484 0.676987 0.579721
0.048663 0.677166 0.641140
0.048842 0.677345 0.702676
0.049022 0.677525 0.764319
0.049202 0.677705 0.826059
0.049383 0.677886 0.887889
0.049563 0.678066 0.949803
0.049661 0.678164 0.983119
0.048680 0.738603 0.038627
0.048851 0.738773 0.097058
0.049024 0.738947 0.156476
0.049199 0.739122 0.216414
0.049375 0.739298 0.276710
0.049551 0.739474 0.337282
0.049729 0.739652 0.398078
0.049907 0.739830 0.459062
0.050085 0.740008 0.520210
0.050264 0.740187 0.581501
0.050443 0.740366 0.642921
0.050623 0.740545 0.704457
0.050802 0.740725 0.766099
0.050983 0.740905 0.827839
0.051163 0.741086 0.889669
0.051344 0.741266 0.951584
0.051441 0.741364 0.984899
0.050463 0.801907 0.040410
0.050634 0.802077 0.098841
0.050807 0.802250 0.158260
0.050982 0.802425 0.218197
0.051158 0.802601 0.278494
0.051334 0.802778 0.339065
0.051512 0.802955 0.399861
0.051690 0.803133 0.460845
0.051868 0.803312 0.521993
0.052047 0.803490 0.583284
0.052226 0.803670 0.644704
0.052406 0.803849 0.706240
0.052586 0.804029 0.767882
0.052766 0.804209 0.829622
0.052946 0.804389 0.891452
0.053127 0.804570 0.953367
0.053224 0.804667 0.986682
0.052249 0.865306 0.042196
0.052419 0.865476 0.100627
0.052593 0.865650 0.160045
0.052768 0.865825 0.219983
0.052944 0.866000 0.280279
0.053120 0.866177 0.340851
0.053298 0.866355 0.401647
0.053476 0.866532 0.462631
0.053654 0.866711 0.523779
0.053833 0.866890 0.585070
0.054012 0.867069 0.646490
0.054191 0.867248 0.708026
0.054371 0.867428 0.769668
0.054551 0.867608 0.831408
0.054732 0.867789 0.893238
0.054912 0.867969 0.955153
0.055010 0.868067 0.988468
0.054037 0.928794 0.043984
0.054208 0.928965 0.102415
0.054381 0.929138 0.161834
0.054556 0.929313 0.221771
0.054732 0.929489 0.282068
0.054909 0.929665 0.342640
0.055086 0.929843 0.403435
0.055264 0.930021 0.464420
0.055442 0.930199 0.525567
0.055621 0.930378 0.586858
0.055800 0.930557 0.648278
0.055980 0.930737 0.709814
0.056160 0.930917 0.771456
0.056340 0.931097 0.833196
0.056520 0.931277 0.895026
0.056701 0.931458 0.956941
0.056798 0.931555 0.990256
0.055739 0.989197 0.045686
0.055909 0.989367 0.104117
0.056083 0.989541 0.163535
0.056257 0.989716 0.223473
0.056433 0.989891 0.283769
0.056610 0.990068 0.344341
0.056787 0.990246 0.405137
0.056965 0.990423 0.466121
0.057144 0.990602 0.527268
0.057322 0.990781 0.588560
0.057502 0.990960 0.649979
0.057681 0.991139 0.711515
0.057861 0.991319 0.773157
0.058041 0.991499 0.834897
0.058222 0.991680 0.896728
0.058402 0.991860 0.958642
0.058499 0.991958 0.991958
0.086898 0.000793 0.018335
0.087069 0.000964 0.076766
0.087242 0.001137 0.136184
0.087417 0.001312 0.196122
0.087593 0.001488 0.256418
0.087769 0.001664 0.316990
0.087947 0.001842 0.377786
0.088125 0.002020 0.438770
0.088303 0.002198 0.499917
0.088482 0.002377 0.561208
0.088661 0.002556 0.622628
0.088841 0.002736 0.684164
0.089020 0.002916 0.745806
0.089201 0.003096 0.807546
0.089381 0.003276 0.869377
0.089562 0.003457 0.931291
0.089659 0.003554 0.964606
0.088393 0.053875 0.019830
0.088564 0.054045 0.078261
0.088737 0.054219 0.137679
0.088912 0.054394 0.197617
0.089088 0.054570 0.257913
0.089265 0.054746 0.318485
0.089442 0.054924 0.379281
0.089620 0.055102 0.440265
0.089798 0.055280 0.501412
0.089977 0.055459 0.562704
0.090156 0.055638 0.624123
0.090336 0.055817 0.685659
0.090516 0.055997 0.747302
0.090696 0.056177 0.809041
0.090876 0.056358 0.870872
0.091057 0.056538 0.932786
0.091154 0.056636 0.966102
0.090102 0.114520 0.021538
0.090272 0.114691 0.079969
0.090445 0.114864 0.139387
0.090620 0.115039 0.199325
0.090796 0.115215 0.259621
0.090973 0.115392 0.320193
0.091150 0.115569 0.380989
0.091328 0.115747 0.441973
0.091506 0.115925 0.503121
0.091685 0.116104 0.564412
0.091864 0.116283 0.625832
0.092044 0.116463 0.687368
0.092224 0.116643 0.749010
0.092404 0.116823 0.810750
0.092584 0.117003 0.872580
0.092765 0.117184 0.934495
0.092862 0.117281 0.967810
0.091828 0.175823 0.023265
0.091999 0.175994 0.081696
0.092172 0.176167 0.141114
0.092347 0.176342 0.201052
0.092523 0.176518 0.261348
0.092700 0.176694 0.321920
0.092877 0.176872 0.382716
0.093055 0.177050 0.443700
0.093233 0.177228 0.504847
0.093412 0.177407 0.566139
0.093591 0.177586 0.627558
0.093771 0.177766 0.689094
0.093951 0.177945 0.750737
0.094131 0.178126 0.812476
0.094311 0.178306 0.874307
0.094492 0.178487 0.936221
0.094589 0.178584 0.969537
0.093567 0.237548 0.025004
0.093737 0.237718 0.083435
0.093911 0.237891 0.142853
0.094086 0.238066 0.202790
0.094261 0.238242 0.263087
0.094438 0.238419 0.323659
0.094616 0.238596 0.384454
0.094793 0.238774 0.445439
0.094972 0.238953 0.506586
0.095151 0.239131 0.567877
0.095330 0.239311 0.629297
0.095509 0.239490 0.690833
0.095689 0.239670 0.752475
0.095869 0.239850 0.814215
0.096050 0.240030 0.876045
0.096230 0.240211 0.937960
0.096328 0.240308 0.971275
0.095314 0.299584 0.026751
0.095485 0.299755 0.085182
0.095658 0.299928 0.144600
0.095833 0.300103 0.204538
0.096009 0.300279 0.264834
0.096186 0.300456 0.325406
0.096363 0.300633 0.386202
0.096541 0.300811 0.447186
0.096719 0.300989 0.508334
0.096898 0.301168 0.569625
0.097077 0.301347 0.631044
0.097257 0.301527 0.692580
0.097437 0.301707 0.754223
0.097617 0.301887 0.815963
0.097797 0.302067 0.877793
0.097978 0.302248 0.939707
0.098075 0.302345 0.973023
0.097069 0.361870 0.028505
0.097239 0.362040 0.086936
0.097413 0.362214 0.146355
0.097587 0.362389 0.206292
0.097763 0.362565 0.266589
0.097940 0.362741 0.327161
0.098117 0.362919 0.387956
0.098295 0.363097 0.448941
0.098474 0.363275 0.510088
0.098653 0.363454 0.571379
0.098832 0.363633 0.632799
0.099011 0.363813 0.694335
0.099191 0.363992 0.755977
0.099371 0.364172 0.817717
0.099552 0.364353 0.879547
0.099732 0.364534 0.941462
0.099829 0.364631 0.974777
0.098829 0.424363 0.030266
0.098999 0.424533 0.088697
0.099173 0.424706 0.148115
0.099348 0.424881 0.208052
0.099524 0.425057 0.268349
0.099700 0.425234 0.328921
0.099878 0.425411 0.389717
0.100056 0.425589 0.450701
0.100234 0.425768 0.511848
0.100413 0.425946 0.573139
0.100592 0.426126 0.634559
0.100772 0.426305 0.696095
0.100951 0.426485 0.757737
0.101131 0.426665 0.819477
0.101312 0.426845 0.881308
0.101492 0.427026 0.943222
0.101590 0.427123 0.976537
0.100594 0.487032 0.032031
0.100765 0.487203 0.090462
0.100938 0.487376 0.149880
0.101113 0.487551 0.209818
0.101289 0.487727 0.270114
0.101466 0.487904 0.330686
0.101643 0.488081 0.391482
0.101821 0.488259 0.452466
0.101999 0.488437 0.513613
0.102178 0.488616 0.574905
0.102357 0.488795 0.636324
0.102537 0.488975 0.697860
0.102717 0.489155 0.759503
0.102897 0.489335 0.821242
0.103077 0.489515 0.883073
0.103258 0.489696 0.944987
0.103355 0.489793 0.978303
0.102364 0.549857 0.033801
0.102534 0.550028 0.092232
0.102708 0.550201 0.151650
0.102883 0.550376 0.211587
0.103058 0.550552 0.271884
0.103235 0.550729 0.332456
0.103413 0.550906 0.393251
0.103590 0.551084 0.454236
0.103769 0.551262 0.515383
0.103948 0.551441 0.576674
0.104127 0.551620 0.638094
0.104306 0.551800 0.699630
0.104486 0.551980 0.761272
0.104666 0.552160 0.823012
0.104847 0.552340 0.884842
0.105027 0.552521 0.946757
0.105125 0.552618 0.980072
0.104137 0.612820 0.035574
0.104308 0.612991 0.094005
0.104481 0.613164 0.153423
0.104656 0.613339 0.213361
0.104832 0.613515 0.273657
0.105009 0.613691 0.334229
0.105186 0.613869 0.395025
0.105364 0.614047 0.456009
0.105542 0.614225 0.517157
0.105721 0.614404 0.578448
0.105900 0.614583 0.639868
0.106080 0.614763 0.701404
0.106260 0.614942 0.763046
0.106440 0.615123 0.824786
0.106620 0.615303 0.886616
0.106801 0.615484 0.948531
0.106898 0.615581 0.981846
0.105914 0.675907 0.037351
0.106085 0.676078 0.095782
0.106258 0.676251 0.155200
0.106433 0.676426 0.215138
0.106609 0.676602 0.275434
0.106786 0.676778 0.336006
0.106963 0.676956 0.396802
0.107141 0.677134 0.457786
0.107319 0.677312 0.518934
0.107498 0.677491 0.580225
0.107677 0.677670 0.641645
0.107857 0.677850 0.703181
0.108037 0.678029 0.764823
0.108217 0.678210 0.826563
0.108397 0.678390 0.888393
0.108578 0.678571 0.950308
0.108675 0.678668 0.983623
0.107695 0.739107 0.039131
0.107865 0.739278 0.097562
0.108038 0.739451 0.156981
0.108213 0.739626 0.216918
0.108389 0.739802 0.277215
0.108566 0.739978 0.337786
0.108743 0.740156 0.398582
0.108921 0.740334 0.459566
0.109100 0.740512 0.520714
0.109278 0.740691 0.582005
0.109458 0.740870 0.643425
0.109637 0.741050 0.704961
0.109817 0.741229 0.766603
0.109997 0.741410 0.828343
0.110177 0.741590 0.890173
0.110358 0.741771 0.952088
0.110455 0.741868 0.985403
0.109478 0.802411 0.040914
0.109648 0.802581 0.099345
0.109822 0.802754 0.158764
0.109996 0.802929 0.218701
0.110172 0.803105 0.278998
0.110349 0.803282 0.339570
0.110526 0.803459 0.400365
0.110704 0.803637 0.461350
0.110883 0.803816 0.522497
0.111062 0.803994 0.583788
0.111241 0.804174 0.645208
0.111420 0.804353 0.706744
0.111600 0.804533 0.768386
0.111780 0.804713 0.830126
0.111961 0.804894 0.891956
0.112141 0.805074 0.953871
0.112238 0.805171 0.987186
0.111264 0.865810 0.042700
0.111434 0.865980 0.101131
0.111607 0.866154 0.160549
0.111782 0.866329 0.220487
0.111958 0.866505 0.280783
0.112135 0.866681 0.341355
0.112312 0.866859 0.402151
0.112490 0.867037 0.463135
0.112669 0.867215 0.524283
0.112847 0.867394 0.585574
0.113027 0.867573 0.646994
0.113206 0.867752 0.708530
0.113386 0.867932 0.770172
0.113566 0.868112 0.831912
0.113746 0.868293 0.893742
0.113927 0.868473 0.955657
0.114024 0.868571 0.988972
0.113052 0.929298 0.044489
0.113222 0.929469 0.102920
0.113396 0.929642 0.162338
0.113571 0.929817 0.222275
0.113746 0.929993 0.282572
0.113923 0.930170 0.343144
0.114101 0.930347 0.403939
0.114278 0.930525 0.464924
0.114457 0.930703 0.526071
0.114636 0.930882 0.587362
0.114815 0.931061 0.648782
0.114994 0.931241 0.710318
0.115174 0.931421 0.771960
0.115354 0.931601 0.833700
0.115535 0.931781 0.895530
0.115715 0.931962 0.957445
0.115813 0.932059 0.990760
0.114753 0.989701 0.046190
0.114924 0.989871 0.104621
0.115097 0.990045 0.164039
0.115272 0.990220 0.223977
0.115448 0.990396 0.284273
0.115625 0.990572 0.344845
0.115802 0.990750 0.405641
0.115980 0.990928 0.466625
0.116158 0.991106 0.527772
0.116337 0.991285 0.589064
0.116516 0.991464 0.650483
0.116696 0.991643 0.712019
0.116876 0.991823 0.773662
0.117056 0.992003 0.835401
0.117236 0.992184 0.897232
0.117417 0.992364 0.959146
0.117514 0.992462 0.992462
0.146763 0.001305 0.018846
0.146934 0.001475 0.077277
0.147107 0.001648 0.136695
0.147282 0.001823 0.196633
0.147458 0.001999 0.256929
0.147634 0.002176 0.317501
0.147812 0.002353 0.378297
0.147990 0.002531 0.439281
0.148168 0.002710 0.500429
0.148347 0.002888 0.561720
0.148526 0.003068 0.623140
0.148706 0.003247 0.684676
0.148885 0.003427 0.746318
0.149066 0.003607 0.808058
0.149246 0.003787 0.869888
0.149427 0.003968 0.931803
0.149524 0.004065 0.965118
0.148258 0.054386 0.020341
