skills/editops-orchestrator/assets/grade/luts/cool_tech_v15.cube
TITLE "cool_tech_v15"
LUT_3D_SIZE 5
DOMAIN_MIN 0.0 0.0 0.0
DOMAIN_MAX 1.0 1.0 1.0
0.000137 0.000137 0.027866
0.001286 0.001286 0.260778
0.002474 0.002474 0.501796
0.003681 0.003681 0.746621
0.004636 0.004636 0.940425
0.010697 0.225882 0.038426
0.011846 0.227030 0.271338
0.013034 0.228218 0.512356
0.014241 0.229425 0.757181
0.015196 0.230381 0.950986
0.022419 0.476460 0.050148
0.023567 0.477608 0.283060
0.024756 0.478796 0.524077
0.025962 0.480003 0.768903
0.026918 0.480959 0.962707
0.034346 0.731421 0.062075
0.035494 0.732569 0.294987
0.036682 0.733757 0.536004
0.037889 0.734964 0.780830
0.038845 0.735919 0.974634
0.046061 0.981850 0.073790
0.047209 0.982998 0.306701
0.048397 0.984187 0.547719
0.049604 0.985393 0.792545
0.050559 0.986349 0.986349
0.173795 0.002634 0.030363
0.174943 0.003782 0.263275
0.176131 0.004971 0.504292
0.177338 0.006177 0.749118
0.178294 0.007133 0.942922
0.184355 0.228379 0.040923
0.185503 0.229527 0.273835
0.186691 0.230715 0.514853
0.187898 0.231922 0.759678
0.188854 0.232878 0.953482
0.196077 0.478957 0.052645
0.197225 0.480105 0.285557
0.198413 0.481293 0.526574
0.199620 0.482500 0.771400
0.200575 0.483456 0.965204
0.208004 0.733917 0.064572
0.209152 0.735066 0.297483
0.210340 0.736254 0.538501
0.211547 0.737461 0.783327
0.212502 0.738416 0.977131
0.219718 0.984347 0.076287
0.220867 0.985495 0.309198
0.222055 0.986683 0.550216
0.223262 0.987890 0.795041
0.224217 0.988846 0.988846
0.415002 0.006102 0.033831
0.416151 0.007251 0.266743
0.417339 0.008439 0.507761
0.418546 0.009646 0.752586
0.419501 0.010601 0.946390
0.425562 0.231847 0.044391
0.426711 0.232995 0.277303
0.427899 0.234183 0.518321
0.429106 0.235390 0.763146
0.430061 0.236346 0.956951
0.437284 0.482425 0.056113
0.438432 0.483573 0.289025
0.439621 0.484761 0.530042
0.440827 0.485968 0.774868
0.441783 0.486924 0.968672
0.449211 0.737386 0.068040
0.450359 0.738534 0.300952
0.451547 0.739722 0.541969
0.452754 0.740929 0.786795
0.453710 0.741884 0.980599
0.460926 0.987815 0.079755
0.462074 0.988963 0.312666
0.463262 0.990152 0.553684
0.464469 0.991358 0.798510
0.465424 0.992314 0.992314
0.660941 0.009638 0.037367
0.662089 0.010787 0.270279
0.663277 0.011975 0.511297
0.664484 0.013182 0.756122
0.665439 0.014137 0.949927
0.671501 0.235383 0.047927
0.672649 0.236531 0.280839
0.673837 0.237720 0.521857
0.675044 0.238926 0.766682
0.676000 0.239882 0.960487
0.683223 0.485961 0.059649
0.684371 0.487109 0.292561
0.685559 0.488297 0.533578
0.686766 0.489504 0.778404
0.687721 0.490460 0.972208
0.695149 0.740922 0.071576
0.696298 0.742070 0.304488
0.697486 0.743258 0.545505
0.698693 0.744465 0.790331
0.699648 0.745420 0.984135
0.706864 0.991351 0.083291
0.708012 0.992499 0.316203
0.709201 0.993688 0.557220
0.710407 0.994895 0.802046
0.711363 0.995850 0.995850
0.909829 0.013217 0.040946
0.910977 0.014365 0.273858
0.912165 0.015553 0.514875
0.913372 0.016760 0.759701
0.914327 0.017716 0.953505
0.920389 0.238962 0.051506
0.921537 0.240110 0.284418
0.922725 0.241298 0.525435
0.923932 0.242505 0.770261
0.924887 0.243460 0.964065
0.932110 0.489540 0.063228
0.933259 0.490688 0.296139
0.934447 0.491876 0.537157
0.935654 0.493083 0.781983
0.936609 0.494038 0.975787
0.944037 0.744500 0.075154
0.945185 0.745648 0.308066
0.946374 0.746836 0.549084
0.947580 0.748043 0.793909
0.948536 0.748999 0.987714
0.955752 0.994930 0.086869
0.956900 0.996078 0.319781
0.958088 0.997266 0.560799
0.959295 0.998473 0.805624
0.960251 0.999428 0.999428
