skills/editops-orchestrator/assets/grade/luts/cool_tech_v19.cube
TITLE "cool_tech_v19"
LUT_3D_SIZE 17
DOMAIN_MIN 0.0 0.0 0.0
DOMAIN_MAX 1.0 1.0 1.0
0.000196 0.000196 0.032756
0.000530 0.000530 0.088712
0.000873 0.000873 0.146111
0.001221 0.001221 0.204378
0.001573 0.001573 0.263276
0.001928 0.001928 0.322669
0.002285 0.002285 0.382471
0.002644 0.002644 0.442623
0.003005 0.003005 0.503080
0.003368 0.003368 0.563807
0.003732 0.003732 0.624778
0.004098 0.004098 0.685970
0.004465 0.004465 0.747365
0.004833 0.004833 0.808948
0.005202 0.005202 0.870704
0.005548 0.005548 0.928706
0.005548 0.005548 0.928706
0.002401 0.039442 0.034961
0.002735 0.039776 0.090917
0.003078 0.040119 0.148316
0.003426 0.040467 0.206584
0.003778 0.040819 0.265481
0.004133 0.041174 0.324874
0.004490 0.041531 0.384677
0.004849 0.041891 0.444828
0.005210 0.042252 0.505285
0.005573 0.042615 0.566013
0.005938 0.042979 0.626983
0.006303 0.043344 0.688175
0.006670 0.043711 0.749570
0.007038 0.044079 0.811153
0.007407 0.044448 0.872909
0.007753 0.044794 0.930911
0.007753 0.044794 0.930911
0.005722 0.098546 0.038282
0.006056 0.098880 0.094238
0.006399 0.099223 0.151637
0.006747 0.099571 0.209904
0.007099 0.099923 0.268802
0.007454 0.100278 0.328195
0.007811 0.100635 0.387997
0.008170 0.100995 0.448149
0.008531 0.101356 0.508606
0.008894 0.101719 0.569333
0.009258 0.102083 0.630304
0.009624 0.102448 0.691496
0.009991 0.102815 0.752891
0.010359 0.103183 0.814474
0.010728 0.103552 0.876230
0.011074 0.103898 0.934232
0.011074 0.103898 0.934232
0.009123 0.159088 0.041684
0.009458 0.159423 0.097640
0.009801 0.159766 0.155038
0.010149 0.160114 0.213306
0.010501 0.160466 0.272204
0.010855 0.160820 0.331597
0.011213 0.161178 0.391399
0.011572 0.161537 0.451551
0.011933 0.161898 0.512008
0.012296 0.162261 0.572735
0.012660 0.162625 0.633706
0.013026 0.162991 0.694898
0.013392 0.163357 0.756293
0.013760 0.163725 0.817875
0.014129 0.164094 0.879632
0.014476 0.164441 0.937634
0.014476 0.164441 0.937634
0.012575 0.220518 0.045135
0.012909 0.220852 0.101091
0.013252 0.221195 0.158490
0.013600 0.221543 0.216758
0.013952 0.221895 0.275655
0.014307 0.222250 0.335048
0.014664 0.222607 0.394851
0.015023 0.222967 0.455003
0.015385 0.223328 0.515459
0.015747 0.223690 0.576187
0.016112 0.224055 0.637157
0.016477 0.224420 0.698350
0.016844 0.224787 0.759745
0.017212 0.225155 0.821327
0.017581 0.225524 0.883083
0.017927 0.225870 0.941085
0.017927 0.225870 0.941085
0.016063 0.282596 0.048623
0.016397 0.282930 0.104579
0.016740 0.283273 0.161978
0.017088 0.283621 0.220246
0.017440 0.283973 0.279143
0.017795 0.284328 0.338536
0.018152 0.284685 0.398339
0.018511 0.285045 0.458491
0.018873 0.285406 0.518947
0.019235 0.285769 0.579675
0.019600 0.286133 0.640645
0.019965 0.286498 0.701838
0.020332 0.286865 0.763233
0.020700 0.287233 0.824815
0.021069 0.287602 0.886571
0.021415 0.287949 0.944573
0.021415 0.287949 0.944573
0.019580 0.345187 0.052140
0.019914 0.345522 0.108096
0.020257 0.345865 0.165495
0.020605 0.346213 0.223763
0.020957 0.346565 0.282660
0.021312 0.346919 0.342053
0.021669 0.347277 0.401855
0.022028 0.347636 0.462007
0.022389 0.347997 0.522464
0.022752 0.348360 0.583191
0.023116 0.348724 0.644162
0.023482 0.349090 0.705354
0.023849 0.349456 0.766749
0.024217 0.349824 0.828332
0.024586 0.350193 0.890088
0.024932 0.350540 0.948090
0.024932 0.350540 0.948090
0.023120 0.408204 0.055681
0.023455 0.408538 0.111637
0.023798 0.408881 0.169035
0.024146 0.409229 0.227303
0.024498 0.409581 0.286201
0.024852 0.409936 0.345594
0.025210 0.410293 0.405396
0.025569 0.410652 0.465548
0.025930 0.411014 0.526005
0.026293 0.411376 0.586732
0.026657 0.411741 0.647703
0.027023 0.412106 0.708895
0.027389 0.412473 0.770290
0.027757 0.412841 0.831872
0.028126 0.413210 0.893629
0.028473 0.413556 0.951631
0.028473 0.413556 0.951631
0.026682 0.471584 0.059242
0.027016 0.471918 0.115198
0.027359 0.472261 0.172597
0.027707 0.472609 0.230864
0.028059 0.472961 0.289762
0.028414 0.473316 0.349155
0.028771 0.473673 0.408957
0.029130 0.474032 0.469109
0.029491 0.474394 0.529566
0.029854 0.474756 0.590293
0.030218 0.475121 0.651264
0.030584 0.475486 0.712456
0.030951 0.475853 0.773851
0.031319 0.476221 0.835434
0.031687 0.476590 0.897190
0.032034 0.476936 0.955192
0.032034 0.476936 0.955192
0.030261 0.535282 0.062821
0.030595 0.535616 0.118777
0.030938 0.535959 0.176176
0.031286 0.536307 0.234443
0.031638 0.536659 0.293341
0.031993 0.537014 0.352734
0.032350 0.537371 0.412536
0.032709 0.537730 0.472688
0.033070 0.538091 0.533145
0.033433 0.538454 0.593872
0.033797 0.538818 0.654843
0.034163 0.539184 0.716035
0.034530 0.539551 0.777430
0.034898 0.539919 0.839013
0.035266 0.540288 0.900769
0.035613 0.540634 0.958771
0.035613 0.540634 0.958771
0.033855 0.599262 0.066416
0.034190 0.599596 0.122372
0.034533 0.599939 0.179770
0.034881 0.600287 0.238038
0.035233 0.600639 0.296936
0.035587 0.600994 0.356329
0.035945 0.601351 0.416131
0.036304 0.601711 0.476283
0.036665 0.602072 0.536740
0.037028 0.602435 0.597467
0.037392 0.602799 0.658438
0.037758 0.603164 0.719630
0.038124 0.603531 0.781025
0.038492 0.603899 0.842607
0.038861 0.604268 0.904364
0.039208 0.604614 0.962366
0.039208 0.604614 0.962366
0.037465 0.663497 0.070025
0.037799 0.663831 0.125981
0.038142 0.664174 0.183380
0.038490 0.664522 0.241647
0.038842 0.664874 0.300545
0.039197 0.665229 0.359938
0.039554 0.665586 0.419740
0.039913 0.665945 0.479892
0.040274 0.666306 0.540349
0.040637 0.666669 0.601076
0.041001 0.667033 0.662047
0.041367 0.667399 0.723239
0.041734 0.667766 0.784634
0.042102 0.668134 0.846217
0.042470 0.668502 0.907973
0.042817 0.668849 0.965975
0.042817 0.668849 0.965975
0.041087 0.727963 0.073647
0.041421 0.728297 0.129603
0.041764 0.728640 0.187002
0.042112 0.728988 0.245270
0.042464 0.729340 0.304167
0.042819 0.729694 0.363560
0.043176 0.730052 0.423363
0.043535 0.730411 0.483514
0.043896 0.730772 0.543971
0.044259 0.731135 0.604699
0.044623 0.731499 0.665669
0.044989 0.731865 0.726861
0.045356 0.732232 0.788256
0.045724 0.732599 0.849839
0.046093 0.732968 0.911595
0.046439 0.733315 0.969597
0.046439 0.733315 0.969597
0.044721 0.792641 0.077281
0.045055 0.792975 0.133237
0.045398 0.793318 0.190636
0.045746 0.793666 0.248904
0.046098 0.794018 0.307801
0.046453 0.794373 0.367194
0.046810 0.794730 0.426997
0.047169 0.795089 0.487148
0.047531 0.795450 0.547605
0.047893 0.795813 0.608333
0.048258 0.796177 0.669303
0.048623 0.796543 0.730495
0.048990 0.796910 0.791890
0.049358 0.797278 0.853473
0.049727 0.797646 0.915229
0.050073 0.797993 0.973231
0.050073 0.797993 0.973231
0.048366 0.857515 0.080926
0.048700 0.857849 0.136882
0.049043 0.858192 0.194281
0.049391 0.858540 0.252549
0.049743 0.858892 0.311446
0.050098 0.859247 0.370839
0.050455 0.859604 0.430642
0.050814 0.859963 0.490794
0.051176 0.860325 0.551250
0.051538 0.860687 0.611978
0.051903 0.861052 0.672948
0.052268 0.861417 0.734141
0.052635 0.861784 0.795536
0.053003 0.862152 0.857118
0.053372 0.862521 0.918874
0.053718 0.862867 0.976876
0.053718 0.862867 0.976876
0.052021 0.922571 0.084582
0.052356 0.922906 0.140538
0.052698 0.923249 0.197936
0.053047 0.923597 0.256204
0.053398 0.923949 0.315101
0.053753 0.924303 0.374495
0.054110 0.924661 0.434297
0.054470 0.925020 0.494449
0.054831 0.925381 0.554906
0.055194 0.925744 0.615633
0.055558 0.926108 0.676604
0.055924 0.926474 0.737796
0.056290 0.926840 0.799191
0.056658 0.927208 0.860773
0.057027 0.927577 0.922530
0.057374 0.927924 0.980532
0.057374 0.927924 0.980532
0.055153 0.978311 0.087713
0.055487 0.978645 0.143669
0.055830 0.978988 0.201068
0.056178 0.979336 0.259336
0.056530 0.979688 0.318233
0.056885 0.980043 0.377626
0.057242 0.980400 0.437429
0.057602 0.980760 0.497581
0.057963 0.981121 0.558037
0.058326 0.981483 0.618765
0.058690 0.981848 0.679736
0.059055 0.982213 0.740928
0.059422 0.982580 0.802323
0.059790 0.982948 0.863905
0.060159 0.983317 0.925662
0.060505 0.983663 0.983663
0.060505 0.983663 0.983663
0.000196 0.000196 0.032756
0.000530 0.000530 0.088712
0.000873 0.000873 0.146111
0.001221 0.001221 0.204378
0.001573 0.001573 0.263276
0.001928 0.001928 0.322669
0.002285 0.002285 0.382471
0.002644 0.002644 0.442623
0.003005 0.003005 0.503080
0.003368 0.003368 0.563807
0.003732 0.003732 0.624778
0.004098 0.004098 0.685970
0.004465 0.004465 0.747365
0.004833 0.004833 0.808948
0.005202 0.005202 0.870704
0.005548 0.005548 0.928706
0.005548 0.005548 0.928706
0.002401 0.039442 0.034961
0.002735 0.039776 0.090917
0.003078 0.040119 0.148316
0.003426 0.040467 0.206584
0.003778 0.040819 0.265481
0.004133 0.041174 0.324874
0.004490 0.041531 0.384677
0.004849 0.041891 0.444828
0.005210 0.042252 0.505285
0.005573 0.042615 0.566013
0.005938 0.042979 0.626983
0.006303 0.043344 0.688175
0.006670 0.043711 0.749570
0.007038 0.044079 0.811153
0.007407 0.044448 0.872909
0.007753 0.044794 0.930911
0.007753 0.044794 0.930911
0.005722 0.098546 0.038282
0.006056 0.098880 0.094238
0.006399 0.099223 0.151637
0.006747 0.099571 0.209904
0.007099 0.099923 0.268802
0.007454 0.100278 0.328195
0.007811 0.100635 0.387997
0.008170 0.100995 0.448149
0.008531 0.101356 0.508606
0.008894 0.101719 0.569333
0.009258 0.102083 0.630304
0.009624 0.102448 0.691496
0.009991 0.102815 0.752891
0.010359 0.103183 0.814474
0.010728 0.103552 0.876230
0.011074 0.103898 0.934232
0.011074 0.103898 0.934232
0.009123 0.159088 0.041684
0.009458 0.159423 0.097640
0.009801 0.159766 0.155038
0.010149 0.160114 0.213306
0.010501 0.160466 0.272204
0.010855 0.160820 0.331597
0.011213 0.161178 0.391399
0.011572 0.161537 0.451551
0.011933 0.161898 0.512008
0.012296 0.162261 0.572735
0.012660 0.162625 0.633706
0.013026 0.162991 0.694898
0.013392 0.163357 0.756293
0.013760 0.163725 0.817875
0.014129 0.164094 0.879632
0.014476 0.164441 0.937634
0.014476 0.164441 0.937634
0.012575 0.220518 0.045135
0.012909 0.220852 0.101091
0.013252 0.221195 0.158490
0.013600 0.221543 0.216758
0.013952 0.221895 0.275655
0.014307 0.222250 0.335048
0.014664 0.222607 0.394851
0.015023 0.222967 0.455003
0.015385 0.223328 0.515459
0.015747 0.223690 0.576187
0.016112 0.224055 0.637157
0.016477 0.224420 0.698350
0.016844 0.224787 0.759745
0.017212 0.225155 0.821327
0.017581 0.225524 0.883083
0.017927 0.225870 0.941085
0.017927 0.225870 0.941085
0.016063 0.282596 0.048623
0.016397 0.282930 0.104579
0.016740 0.283273 0.161978
0.017088 0.283621 0.220246
0.017440 0.283973 0.279143
0.017795 0.284328 0.338536
0.018152 0.284685 0.398339
0.018511 0.285045 0.458491
0.018873 0.285406 0.518947
0.019235 0.285769 0.579675
0.019600 0.286133 0.640645
0.019965 0.286498 0.701838
0.020332 0.286865 0.763233
0.020700 0.287233 0.824815
0.021069 0.287602 0.886571
0.021415 0.287949 0.944573
0.021415 0.287949 0.944573
0.019580 0.345187 0.052140
0.019914 0.345522 0.108096
0.020257 0.345865 0.165495
0.020605 0.346213 0.223763
0.020957 0.346565 0.282660
0.021312 0.346919 0.342053
0.021669 0.347277 0.401855
0.022028 0.347636 0.462007
0.022389 0.347997 0.522464
0.022752 0.348360 0.583191
0.023116 0.348724 0.644162
0.023482 0.349090 0.705354
0.023849 0.349456 0.766749
0.024217 0.349824 0.828332
0.024586 0.350193 0.890088
0.024932 0.350540 0.948090
0.024932 0.350540 0.948090
0.023120 0.408204 0.055681
0.023455 0.408538 0.111637
0.023798 0.408881 0.169035
0.024146 0.409229 0.227303
0.024498 0.409581 0.286201
0.024852 0.409936 0.345594
0.025210 0.410293 0.405396
0.025569 0.410652 0.465548
0.025930 0.411014 0.526005
0.026293 0.411376 0.586732
0.026657 0.411741 0.647703
0.027023 0.412106 0.708895
0.027389 0.412473 0.770290
0.027757 0.412841 0.831872
0.028126 0.413210 0.893629
0.028473 0.413556 0.951631
0.028473 0.413556 0.951631
0.026682 0.471584 0.059242
0.027016 0.471918 0.115198
0.027359 0.472261 0.172597
0.027707 0.472609 0.230864
0.028059 0.472961 0.289762
0.028414 0.473316 0.349155
0.028771 0.473673 0.408957
0.029130 0.474032 0.469109
0.029491 0.474394 0.529566
0.029854 0.474756 0.590293
0.030218 0.475121 0.651264
0.030584 0.475486 0.712456
0.030951 0.475853 0.773851
0.031319 0.476221 0.835434
0.031687 0.476590 0.897190
0.032034 0.476936 0.955192
0.032034 0.476936 0.955192
0.030261 0.535282 0.062821
0.030595 0.535616 0.118777
0.030938 0.535959 0.176176
0.031286 0.536307 0.234443
0.031638 0.536659 0.293341
0.031993 0.537014 0.352734
0.032350 0.537371 0.412536
0.032709 0.537730 0.472688
0.033070 0.538091 0.533145
0.033433 0.538454 0.593872
0.033797 0.538818 0.654843
0.034163 0.539184 0.716035
0.034530 0.539551 0.777430
0.034898 0.539919 0.839013
0.035266 0.540288 0.900769
0.035613 0.540634 0.958771
0.035613 0.540634 0.958771
0.033855 0.599262 0.066416
0.034190 0.599596 0.122372
0.034533 0.599939 0.179770
0.034881 0.600287 0.238038
0.035233 0.600639 0.296936
0.035587 0.600994 0.356329
0.035945 0.601351 0.416131
0.036304 0.601711 0.476283
0.036665 0.602072 0.536740
0.037028 0.602435 0.597467
0.037392 0.602799 0.658438
0.037758 0.603164 0.719630
0.038124 0.603531 0.781025
0.038492 0.603899 0.842607
0.038861 0.604268 0.904364
0.039208 0.604614 0.962366
0.039208 0.604614 0.962366
0.037465 0.663497 0.070025
0.037799 0.663831 0.125981
0.038142 0.664174 0.183380
0.038490 0.664522 0.241647
0.038842 0.664874 0.300545
0.039197 0.665229 0.359938
0.039554 0.665586 0.419740
0.039913 0.665945 0.479892
0.040274 0.666306 0.540349
0.040637 0.666669 0.601076
0.041001 0.667033 0.662047
0.041367 0.667399 0.723239
0.041734 0.667766 0.784634
0.042102 0.668134 0.846217
0.042470 0.668502 0.907973
0.042817 0.668849 0.965975
0.042817 0.668849 0.965975
0.041087 0.727963 0.073647
0.041421 0.728297 0.129603
0.041764 0.728640 0.187002
0.042112 0.728988 0.245270
0.042464 0.729340 0.304167
0.042819 0.729694 0.363560
0.043176 0.730052 0.423363
0.043535 0.730411 0.483514
0.043896 0.730772 0.543971
0.044259 0.731135 0.604699
0.044623 0.731499 0.665669
0.044989 0.731865 0.726861
0.045356 0.732232 0.788256
0.045724 0.732599 0.849839
0.046093 0.732968 0.911595
0.046439 0.733315 0.969597
0.046439 0.733315 0.969597
0.044721 0.792641 0.077281
0.045055 0.792975 0.133237
0.045398 0.793318 0.190636
0.045746 0.793666 0.248904
0.046098 0.794018 0.307801
0.046453 0.794373 0.367194
0.046810 0.794730 0.426997
0.047169 0.795089 0.487148
0.047531 0.795450 0.547605
0.047893 0.795813 0.608333
0.048258 0.796177 0.669303
0.048623 0.796543 0.730495
0.048990 0.796910 0.791890
0.049358 0.797278 0.853473
0.049727 0.797646 0.915229
0.050073 0.797993 0.973231
0.050073 0.797993 0.973231
0.048366 0.857515 0.080926
0.048700 0.857849 0.136882
0.049043 0.858192 0.194281
0.049391 0.858540 0.252549
0.049743 0.858892 0.311446
0.050098 0.859247 0.370839
0.050455 0.859604 0.430642
0.050814 0.859963 0.490794
0.051176 0.860325 0.551250
0.051538 0.860687 0.611978
0.051903 0.861052 0.672948
0.052268 0.861417 0.734141
0.052635 0.861784 0.795536
0.053003 0.862152 0.857118
0.053372 0.862521 0.918874
0.053718 0.862867 0.976876
0.053718 0.862867 0.976876
0.052021 0.922571 0.084582
0.052356 0.922906 0.140538
0.052698 0.923249 0.197936
0.053047 0.923597 0.256204
0.053398 0.923949 0.315101
0.053753 0.924303 0.374495
0.054110 0.924661 0.434297
0.054470 0.925020 0.494449
0.054831 0.925381 0.554906
0.055194 0.925744 0.615633
0.055558 0.926108 0.676604
0.055924 0.926474 0.737796
0.056290 0.926840 0.799191
0.056658 0.927208 0.860773
0.057027 0.927577 0.922530
0.057374 0.927924 0.980532
0.057374 0.927924 0.980532
0.055153 0.978311 0.087713
0.055487 0.978645 0.143669
0.055830 0.978988 0.201068
0.056178 0.979336 0.259336
0.056530 0.979688 0.318233
0.056885 0.980043 0.377626
0.057242 0.980400 0.437429
0.057602 0.980760 0.497581
0.057963 0.981121 0.558037
0.058326 0.981483 0.618765
0.058690 0.981848 0.679736
0.059055 0.982213 0.740928
0.059422 0.982580 0.802323
0.059790 0.982948 0.863905
0.060159 0.983317 0.925662
0.060505 0.983663 0.983663
0.060505 0.983663 0.983663
0.042473 0.000931 0.033491
0.042808 0.001265 0.089447
0.043151 0.001608 0.146846
0.043499 0.001956 0.205114
0.043851 0.002308 0.264011
0.044205 0.002663 0.323404
0.044563 0.003020 0.383207
0.044922 0.003379 0.443358
0.045283 0.003741 0.503815
0.045646 0.004103 0.564543
0.046010 0.004468 0.625513
0.046376 0.004833 0.686705
0.046742 0.005200 0.748100
0.047110 0.005568 0.809683
0.047479 0.005937 0.871439
0.047826 0.006283 0.929441
0.047826 0.006283 0.929441
0.044679 0.040177 0.035696
0.045013 0.040512 0.091652
0.045356 0.040855 0.149051
0.045704 0.041203 0.207319
0.046056 0.041554 0.266216
0.046411 0.041909 0.325609
0.046768 0.042266 0.385412
0.047127 0.042626 0.445564
0.047488 0.042987 0.506020
0.047851 0.043350 0.566748
0.048215 0.043714 0.627719
0.048581 0.044080 0.688911
0.048948 0.044446 0.750306
0.049316 0.044814 0.811888
0.049684 0.045183 0.873644
0.050031 0.045530 0.931646
0.050031 0.045530 0.931646
0.048000 0.099281 0.039017
0.048334 0.099616 0.094973
0.048677 0.099958 0.152372
0.049025 0.100307 0.210640
0.049377 0.100658 0.269537
0.049731 0.101013 0.328930
0.050089 0.101370 0.388733
0.050448 0.101730 0.448884
0.050809 0.102091 0.509341
0.051172 0.102454 0.570069
0.051536 0.102818 0.631039
0.051902 0.103184 0.692231
0.052269 0.103550 0.753626
0.052636 0.103918 0.815209
0.053005 0.104287 0.876965
0.053352 0.104634 0.934967
0.053352 0.104634 0.934967
0.051401 0.159824 0.042419
0.051735 0.160158 0.098375
0.052078 0.160501 0.155773
0.052426 0.160849 0.214041
0.052778 0.161201 0.272939
0.053133 0.161556 0.332332
0.053490 0.161913 0.392134
0.053850 0.162272 0.452286
0.054211 0.162633 0.512743
0.054574 0.162996 0.573470
0.054938 0.163360 0.634441
0.055303 0.163726 0.695633
0.055670 0.164093 0.757028
0.056038 0.164460 0.818611
0.056407 0.164829 0.880367
0.056754 0.165176 0.938369
0.056754 0.165176 0.938369
0.054853 0.221253 0.045870
0.055187 0.221587 0.101826
0.055530 0.221930 0.159225
0.055878 0.222278 0.217493
0.056230 0.222630 0.276390
0.056585 0.222985 0.335783
0.056942 0.223342 0.395586
0.057301 0.223702 0.455738
0.057662 0.224063 0.516194
0.058025 0.224426 0.576922
0.058389 0.224790 0.637893
0.058755 0.225155 0.699085
0.059122 0.225522 0.760480
0.059490 0.225890 0.822062
0.059859 0.226259 0.883819
0.060205 0.226606 0.941820
0.060205 0.226606 0.941820
0.058341 0.283331 0.049358
0.058675 0.283666 0.105314
0.059018 0.284009 0.162713
0.059366 0.284357 0.220981
0.059718 0.284708 0.279878
0.060073 0.285063 0.339271
0.060430 0.285421 0.399074
0.060789 0.285780 0.459226
0.061150 0.286141 0.519682
0.061513 0.286504 0.580410
0.061877 0.286868 0.641381
0.062243 0.287234 0.702573
0.062610 0.287600 0.763968
0.062978 0.287968 0.825550
0.063347 0.288337 0.887307
0.063693 0.288684 0.945308
0.063693 0.288684 0.945308
0.061858 0.345923 0.052875
0.062192 0.346257 0.108831
0.062535 0.346600 0.166230
0.062883 0.346948 0.224498
0.063235 0.347300 0.283395
0.063589 0.347655 0.342788
0.063947 0.348012 0.402591
0.064306 0.348371 0.462743
0.064667 0.348732 0.523199
0.065030 0.349095 0.583927
0.065394 0.349459 0.644897
0.065760 0.349825 0.706090
0.066127 0.350192 0.767485
0.066494 0.350559 0.829067
0.066863 0.350928 0.890823
0.067210 0.351275 0.948825
0.067210 0.351275 0.948825
0.065398 0.408939 0.056416
0.065733 0.409273 0.112372
0.066075 0.409616 0.169771
0.066424 0.409964 0.228038
0.066775 0.410316 0.286936
0.067130 0.410671 0.346329
0.067487 0.411028 0.406131
0.067847 0.411388 0.466283
0.068208 0.411749 0.526740
0.068571 0.412112 0.587467
0.068935 0.412476 0.648438
0.069301 0.412841 0.709630
0.069667 0.413208 0.771025
0.070035 0.413576 0.832608
0.070404 0.413945 0.894364
0.070751 0.414291 0.952366
0.070751 0.414291 0.952366
0.068959 0.472319 0.059977
0.069294 0.472653 0.115933
0.069637 0.472996 0.173332
0.069985 0.473344 0.231600
0.070337 0.473696 0.290497
0.070691 0.474051 0.349890
0.071049 0.474408 0.409692
0.071408 0.474768 0.469844
0.071769 0.475129 0.530301
0.072132 0.475492 0.591028
0.072496 0.475856 0.651999
0.072862 0.476221 0.713191
0.073228 0.476588 0.774586
0.073596 0.476956 0.836169
0.073965 0.477325 0.897925
0.074312 0.477671 0.955927
0.074312 0.477671 0.955927
0.072538 0.536017 0.063556
0.072873 0.536351 0.119512
0.073216 0.536694 0.176911
0.073564 0.537042 0.235179
0.073916 0.537394 0.294076
0.074270 0.537749 0.353469
0.074628 0.538106 0.413271
0.074987 0.538465 0.473423
0.075348 0.538827 0.533880
0.075711 0.539189 0.594607
0.076075 0.539554 0.655578
0.076441 0.539919 0.716770
0.076807 0.540286 0.778165
0.077175 0.540654 0.839748
0.077544 0.541023 0.901504
0.077891 0.541369 0.959506
0.077891 0.541369 0.959506
0.076133 0.599997 0.067151
0.076468 0.600332 0.123107
0.076810 0.600674 0.180506
0.077159 0.601022 0.238773
0.077510 0.601374 0.297671
0.077865 0.601729 0.357064
0.078222 0.602086 0.416866
0.078582 0.602446 0.477018
0.078943 0.602807 0.537475
0.079306 0.603170 0.598202
0.079670 0.603534 0.659173
0.080036 0.603899 0.720365
0.080402 0.604266 0.781760
0.080770 0.604634 0.843343
0.081139 0.605003 0.905099
0.081486 0.605350 0.963101
0.081486 0.605350 0.963101
0.079742 0.664232 0.070760
0.080077 0.664566 0.126716
0.080420 0.664909 0.184115
0.080768 0.665257 0.242383
0.081120 0.665609 0.301280
0.081474 0.665964 0.360673
0.081832 0.666321 0.420476
0.082191 0.666680 0.480627
0.082552 0.667041 0.541084
0.082915 0.667404 0.601812
0.083279 0.667768 0.662782
0.083645 0.668134 0.723974
0.084011 0.668501 0.785369
0.084379 0.668869 0.846952
0.084748 0.669238 0.908708
0.085095 0.669584 0.966710
0.085095 0.669584 0.966710
0.083365 0.728698 0.074382
0.083699 0.729032 0.130338
0.084042 0.729375 0.187737
0.084390 0.729723 0.246005
0.084742 0.730075 0.304902
0.085097 0.730430 0.364295
0.085454 0.730787 0.424098
0.085813 0.731146 0.484250
0.086174 0.731507 0.544706
0.086537 0.731870 0.605434
0.086901 0.732234 0.666404
0.087267 0.732600 0.727597
0.087634 0.732967 0.788992
0.088001 0.733335 0.850574
0.088370 0.733704 0.912330
0.088717 0.734050 0.970332
0.088717 0.734050 0.970332
0.086999 0.793376 0.078016
0.087333 0.793710 0.133972
0.087676 0.794053 0.191371
0.088024 0.794401 0.249639
0.088376 0.794753 0.308536
0.088731 0.795108 0.367929
0.089088 0.795465 0.427732
0.089447 0.795824 0.487884
0.089808 0.796185 0.548340
0.090171 0.796548 0.609068
0.090535 0.796913 0.670039
0.090901 0.797278 0.731231
0.091268 0.797645 0.792626
0.091636 0.798013 0.854208
0.092004 0.798382 0.915964
0.092351 0.798728 0.973966
0.092351 0.798728 0.973966
0.090644 0.858250 0.081661
0.090978 0.858584 0.137617
0.091321 0.858927 0.195016
0.091669 0.859275 0.253284
0.092021 0.859627 0.312181
0.092376 0.859982 0.371574
0.092733 0.860339 0.431377
0.093092 0.860699 0.491529
0.093453 0.861060 0.551985
0.093816 0.861423 0.612713
0.094180 0.861787 0.673684
0.094546 0.862152 0.734876
0.094913 0.862519 0.796271
0.095281 0.862887 0.857853
0.095650 0.863256 0.919610
0.095996 0.863602 0.977611
0.095996 0.863602 0.977611
0.094299 0.923307 0.085317
0.094633 0.923641 0.141273
0.094976 0.923984 0.198671
0.095324 0.924332 0.256939
0.095676 0.924684 0.315837
0.096031 0.925039 0.375230
0.096388 0.925396 0.435032
0.096748 0.925755 0.495184
0.097109 0.926116 0.555641
0.097472 0.926479 0.616368
0.097836 0.926843 0.677339
0.098201 0.927209 0.738531
0.098568 0.927576 0.799926
0.098936 0.927944 0.861508
0.099305 0.928312 0.923265
0.099651 0.928659 0.981267
0.099651 0.928659 0.981267
0.097431 0.979046 0.088449
0.097765 0.979380 0.144405
0.098108 0.979723 0.201803
0.098456 0.980071 0.260071
0.098808 0.980423 0.318968
0.099163 0.980778 0.378362
0.099520 0.981135 0.438164
0.099879 0.981495 0.498316
0.100241 0.981856 0.558773
0.100603 0.982219 0.619500
0.100968 0.982583 0.680471
0.101333 0.982948 0.741663
0.101700 0.983315 0.803058
0.102068 0.983683 0.864640
0.102437 0.984052 0.926397
0.102783 0.984399 0.984399
0.102783 0.984399 0.984399
0.099396 0.001921 0.034481
0.099730 0.002255 0.090437
0.100073 0.002598 0.147836
0.100421 0.002946 0.206103
0.100773 0.003298 0.265001
0.101128 0.003653 0.324394
0.101485 0.004010 0.384196
0.101845 0.004369 0.444348
0.102206 0.004730 0.504805
0.102569 0.005093 0.565532
0.102933 0.005457 0.626503
0.103298 0.005823 0.687695
0.103665 0.006190 0.749090
0.104033 0.006558 0.810673
0.104402 0.006926 0.872429
0.104749 0.007273 0.930431
0.104749 0.007273 0.930431
0.101601 0.041167 0.036686
