skills/editops-orchestrator/assets/grade/luts/cool_tech_v08.cube
TITLE "cool_tech_v08"
LUT_3D_SIZE 9
DOMAIN_MIN 0.0 0.0 0.0
DOMAIN_MAX 1.0 1.0 1.0
0.000060 0.000060 0.018917
0.000431 0.000431 0.136355
0.000811 0.000811 0.256321
0.001194 0.001194 0.377503
0.001580 0.001580 0.499506
0.001968 0.001968 0.622133
0.002358 0.002358 0.745263
0.002749 0.002749 0.868817
0.003040 0.003040 0.960935
0.003486 0.112473 0.022343
0.003858 0.112845 0.139781
0.004237 0.113224 0.259748
0.004621 0.113608 0.380929
0.005007 0.113994 0.502932
0.005394 0.114382 0.625559
0.005784 0.114771 0.748690
0.006175 0.115162 0.872243
0.006466 0.115454 0.964361
0.007234 0.235426 0.026091
0.007605 0.235798 0.143529
0.007985 0.236177 0.263495
0.008368 0.236560 0.384677
0.008754 0.236946 0.506680
0.009142 0.237334 0.629307
0.009531 0.237724 0.752437
0.009922 0.238115 0.875990
0.010214 0.238406 0.968109
0.011024 0.359785 0.029881
0.011396 0.360157 0.147319
0.011775 0.360537 0.267286
0.012158 0.360920 0.388467
0.012544 0.361306 0.510470
0.012932 0.361694 0.633097
0.013322 0.362083 0.756227
0.013713 0.362474 0.879781
0.014004 0.362766 0.971899
0.014842 0.485056 0.033699
0.015214 0.485428 0.151137
0.015593 0.485807 0.271104
0.015977 0.486190 0.392285
0.016363 0.486576 0.514288
0.016750 0.486964 0.636915
0.017140 0.487354 0.760046
0.017531 0.487745 0.883599
0.017822 0.488036 0.975717
0.018681 0.611005 0.037538
0.019052 0.611376 0.154976
0.019432 0.611756 0.274943
0.019815 0.612139 0.396124
0.020201 0.612525 0.518127
0.020589 0.612913 0.640754
0.020979 0.613303 0.763884
0.021370 0.613694 0.887438
0.021661 0.613985 0.979556
0.022536 0.737495 0.041393
0.022908 0.737867 0.158832
0.023287 0.738246 0.278798
0.023671 0.738629 0.399979
0.024057 0.739015 0.521982
0.024445 0.739403 0.644609
0.024834 0.739793 0.767740
0.025225 0.740184 0.891293
0.025516 0.740475 0.983411
0.026405 0.864436 0.045262
0.026777 0.864808 0.162701
0.027156 0.865187 0.282667
0.027540 0.865571 0.403848
0.027926 0.865957 0.525852
0.028314 0.866345 0.648478
0.028703 0.866734 0.771609
0.029094 0.867125 0.895162
0.029385 0.867416 0.987280
0.030174 0.988068 0.049030
0.030545 0.988440 0.166469
0.030925 0.988819 0.286435
0.031308 0.989203 0.407617
0.031694 0.989589 0.529620
0.032082 0.989977 0.652247
0.032471 0.990366 0.775377
0.032862 0.990757 0.898930
0.033154 0.991048 0.991048
0.083017 0.000828 0.019685
0.083388 0.001199 0.137123
0.083768 0.001579 0.257089
0.084151 0.001962 0.378271
0.084537 0.002348 0.500274
0.084925 0.002736 0.622901
0.085314 0.003126 0.746031
0.085705 0.003517 0.869585
0.085997 0.003808 0.961703
0.086443 0.113241 0.023111
0.086814 0.113613 0.140550
0.087194 0.113992 0.260516
0.087577 0.114376 0.381697
0.087963 0.114762 0.503700
0.088351 0.115150 0.626327
0.088741 0.115539 0.749458
0.089132 0.115930 0.873011
0.089423 0.116222 0.965129
0.090190 0.236194 0.026859
0.090562 0.236566 0.144297
0.090941 0.236945 0.264263
0.091325 0.237329 0.385445
0.091711 0.237715 0.507448
0.092099 0.238102 0.630075
0.092488 0.238492 0.753205
0.092879 0.238883 0.876758
0.093170 0.239174 0.968877
0.093981 0.360554 0.030649
0.094352 0.360925 0.148087
0.094732 0.361305 0.268054
0.095115 0.361688 0.389235
0.095501 0.362074 0.511238
0.095889 0.362462 0.633865
0.096279 0.362851 0.756996
0.096669 0.363242 0.880549
0.096961 0.363534 0.972667
0.097799 0.485824 0.034467
0.098170 0.486196 0.151906
0.098550 0.486575 0.271872
0.098933 0.486959 0.393053
0.099319 0.487344 0.515056
0.099707 0.487732 0.637683
0.100097 0.488122 0.760814
0.100488 0.488513 0.884367
0.100779 0.488804 0.976485
0.101638 0.611773 0.038306
0.102009 0.612144 0.155744
0.102389 0.612524 0.275711
0.102772 0.612907 0.396892
0.103158 0.613293 0.518895
0.103546 0.613681 0.641522
0.103936 0.614071 0.764652
0.104326 0.614462 0.888206
0.104618 0.614753 0.980324
0.105493 0.738263 0.042161
0.105864 0.738635 0.159600
0.106244 0.739014 0.279566
0.106627 0.739397 0.400747
0.107013 0.739783 0.522751
0.107401 0.740171 0.645377
0.107791 0.740561 0.768508
0.108182 0.740952 0.892061
0.108473 0.741243 0.984179
0.109362 0.865204 0.046030
0.109734 0.865576 0.163469
0.110113 0.865955 0.283435
0.110496 0.866339 0.404616
0.110882 0.866725 0.526620
0.111270 0.867113 0.649246
0.111660 0.867502 0.772377
0.112051 0.867893 0.895930
0.112342 0.868185 0.988048
0.113130 0.988836 0.049798
0.113502 0.989208 0.167237
0.113881 0.989587 0.287203
0.114265 0.989971 0.408385
0.114651 0.990357 0.530388
0.115039 0.990745 0.653015
0.115428 0.991134 0.776145
0.115819 0.991525 0.899698
0.116110 0.991816 0.991816
0.202879 0.001938 0.020795
0.203251 0.002309 0.138233
0.203631 0.002689 0.258199
0.204014 0.003072 0.379381
0.204400 0.003458 0.501384
0.204788 0.003846 0.624011
0.205177 0.004236 0.747141
0.205568 0.004626 0.870694
0.205860 0.004918 0.962813
0.206306 0.114351 0.024221
0.206677 0.114723 0.141659
0.207057 0.115102 0.261626
0.207440 0.115486 0.382807
0.207826 0.115872 0.504810
0.208214 0.116260 0.627437
0.208604 0.116649 0.750567
0.208994 0.117040 0.874121
0.209286 0.117331 0.966239
0.210053 0.237304 0.027968
0.210425 0.237675 0.145407
0.210804 0.238055 0.265373
0.211188 0.238438 0.386555
0.211574 0.238824 0.508558
0.211962 0.239212 0.631184
0.212351 0.239602 0.754315
0.212742 0.239993 0.877868
0.213033 0.240284 0.969986
0.213844 0.361663 0.031759
0.214215 0.362035 0.149197
0.214595 0.362414 0.269163
0.214978 0.362798 0.390345
0.215364 0.363184 0.512348
0.215752 0.363572 0.634975
0.216141 0.363961 0.758105
0.216532 0.364352 0.881658
0.216824 0.364643 0.973777
0.217662 0.486934 0.035577
0.218033 0.487305 0.153015
0.218413 0.487685 0.272982
0.218796 0.488068 0.394163
0.219182 0.488454 0.516166
0.219570 0.488842 0.638793
0.219960 0.489232 0.761923
0.220350 0.489623 0.885477
0.220642 0.489914 0.977595
0.221501 0.612883 0.039416
0.221872 0.613254 0.156854
0.222252 0.613634 0.276820
0.222635 0.614017 0.398002
0.223021 0.614403 0.520005
0.223409 0.614791 0.642632
0.223798 0.615180 0.765762
0.224189 0.615571 0.889315
0.224481 0.615863 0.981434
0.225356 0.739373 0.043271
0.225727 0.739744 0.160709
0.226107 0.740124 0.280676
0.226490 0.740507 0.401857
0.226876 0.740893 0.523860
0.227264 0.741281 0.646487
0.227654 0.741671 0.769618
0.228045 0.742062 0.893171
0.228336 0.742353 0.985289
0.229225 0.866314 0.047140
0.229596 0.866686 0.164578
0.229976 0.867065 0.284545
0.230359 0.867449 0.405726
0.230745 0.867835 0.527729
0.231133 0.868222 0.650356
0.231523 0.868612 0.773487
0.231914 0.869003 0.897040
0.232205 0.869294 0.989158
0.232993 0.989946 0.050908
0.233365 0.990318 0.168347
0.233744 0.990697 0.288313
0.234128 0.991080 0.409494
0.234514 0.991466 0.531498
0.234901 0.991854 0.654124
0.235291 0.992244 0.777255
0.235682 0.992635 0.900808
0.235973 0.992926 0.992926
0.324321 0.003062 0.021919
0.324693 0.003434 0.139357
0.325072 0.003813 0.259324
0.325456 0.004196 0.380505
0.325842 0.004582 0.502508
0.326229 0.004970 0.625135
0.326619 0.005360 0.748266
0.327010 0.005751 0.871819
0.327301 0.006042 0.963937
0.327747 0.115476 0.025345
0.328119 0.115847 0.142784
0.328498 0.116227 0.262750
0.328882 0.116610 0.383931
0.329268 0.116996 0.505935
0.329656 0.117384 0.628561
0.330045 0.117773 0.751692
0.330436 0.118164 0.875245
0.330728 0.118456 0.967363
0.331495 0.238428 0.029093
0.331866 0.238800 0.146531
0.332246 0.239179 0.266497
0.332629 0.239563 0.387679
0.333015 0.239949 0.509682
0.333403 0.240337 0.632309
0.333793 0.240726 0.755439
0.334184 0.241117 0.878992
0.334475 0.241408 0.971111
0.335285 0.362788 0.032883
0.335657 0.363159 0.150322
0.336036 0.363539 0.270288
0.336420 0.363922 0.391469
0.336806 0.364308 0.513472
0.337194 0.364696 0.636099
0.337583 0.365086 0.759230
0.337974 0.365476 0.882783
0.338265 0.365768 0.974901
0.339103 0.488058 0.036701
0.339475 0.488430 0.154140
0.339854 0.488809 0.274106
0.340238 0.489193 0.395287
0.340624 0.489579 0.517291
0.341012 0.489967 0.639917
0.341401 0.490356 0.763048
0.341792 0.490747 0.886601
0.342084 0.491038 0.978719
0.342942 0.614007 0.040540
0.343314 0.614379 0.157978
0.343693 0.614758 0.277945
0.344077 0.615141 0.399126
0.344463 0.615527 0.521129
0.344851 0.615915 0.643756
0.345240 0.616305 0.766887
0.345631 0.616696 0.890440
0.345922 0.616987 0.982558
0.346798 0.740497 0.044395
0.347169 0.740869 0.161834
0.347549 0.741248 0.281800
0.347932 0.741632 0.402982
0.348318 0.742018 0.524985
0.348706 0.742406 0.647611
0.349095 0.742795 0.770742
0.349486 0.743186 0.894295
0.349778 0.743477 0.986413
0.350667 0.867438 0.048264
0.351038 0.867810 0.165703
0.351418 0.868190 0.285669
0.351801 0.868573 0.406851
0.352187 0.868959 0.528854
0.352575 0.869347 0.651481
0.352965 0.869736 0.774611
0.353355 0.870127 0.898164
0.353647 0.870419 0.990282
0.354435 0.991070 0.052033
0.354806 0.991442 0.169471
0.355186 0.991822 0.289437
0.355569 0.992205 0.410619
0.355955 0.992591 0.532622
0.356343 0.992979 0.655249
0.356733 0.993368 0.778379
0.357124 0.993759 0.901932
0.357415 0.994051 0.994051
0.446731 0.004195 0.023052
0.447102 0.004567 0.140491
0.447482 0.004946 0.260457
0.447865 0.005330 0.381638
0.448251 0.005716 0.503642
0.448639 0.006104 0.626268
0.449029 0.006493 0.749399
0.449420 0.006884 0.872952
0.449711 0.007176 0.965070
0.450157 0.116609 0.026479
0.450529 0.116980 0.143917
0.450908 0.117360 0.263883
0.451292 0.117743 0.385065
0.451678 0.118129 0.507068
0.452066 0.118517 0.629695
0.452455 0.118907 0.752825
0.452846 0.119298 0.876378
0.453137 0.119589 0.968497
0.453905 0.239562 0.030226
0.454276 0.239933 0.147664
0.454656 0.240313 0.267631
0.455039 0.240696 0.388812
0.455425 0.241082 0.510815
0.455813 0.241470 0.633442
0.456203 0.241859 0.756573
0.456593 0.242250 0.880126
0.456885 0.242542 0.972244
0.457695 0.363921 0.034016
0.458067 0.364293 0.151455
0.458446 0.364672 0.271421
0.458830 0.365055 0.392603
0.459215 0.365441 0.514606
0.459603 0.365829 0.637233
0.459993 0.366219 0.760363
0.460384 0.366610 0.883916
0.460675 0.366901 0.976034
0.461513 0.489192 0.037835
0.461885 0.489563 0.155273
0.462264 0.489943 0.275239
0.462648 0.490326 0.396421
0.463034 0.490712 0.518424
0.463422 0.491100 0.641051
0.463811 0.491489 0.764181
0.464202 0.491880 0.887734
0.464493 0.492172 0.979853
0.465352 0.615140 0.041673
0.465724 0.615512 0.159112
0.466103 0.615891 0.279078
0.466486 0.616275 0.400260
0.466872 0.616661 0.522263
0.467260 0.617049 0.644890
0.467650 0.617438 0.768020
0.468041 0.617829 0.891573
0.468332 0.618120 0.983691
0.469207 0.741631 0.045529
0.469579 0.742002 0.162967
0.469958 0.742382 0.282933
0.470342 0.742765 0.404115
0.470728 0.743151 0.526118
0.471116 0.743539 0.648745
0.471505 0.743928 0.771875
0.471896 0.744319 0.895428
0.472188 0.744611 0.987547
0.473076 0.868572 0.049398
0.473448 0.868943 0.166836
0.473827 0.869323 0.286802
0.474211 0.869706 0.407984
0.474597 0.870092 0.529987
0.474985 0.870480 0.652614
0.475374 0.870870 0.775744
0.475765 0.871261 0.899298
0.476057 0.871552 0.991416
0.476845 0.992204 0.053166
0.477216 0.992575 0.170604
0.477596 0.992955 0.290571
0.477979 0.993338 0.411752
0.478365 0.993724 0.533755
0.478753 0.994112 0.656382
0.479143 0.994502 0.779513
0.479533 0.994893 0.903066
0.479825 0.995184 0.995184
0.569845 0.005335 0.024192
0.570217 0.005707 0.141631
0.570596 0.006086 0.261597
0.570980 0.006470 0.382778
0.571366 0.006856 0.504781
0.571753 0.007244 0.627408
0.572143 0.007633 0.750539
0.572534 0.008024 0.874092
0.572825 0.008315 0.966210
0.573271 0.117749 0.027618
0.573643 0.118120 0.145057
0.574022 0.118500 0.265023
0.574406 0.118883 0.386205
0.574792 0.119269 0.508208
0.575180 0.119657 0.630835
0.575569 0.120047 0.753965
0.575960 0.120437 0.877518
0.576252 0.120729 0.969636
0.577019 0.240701 0.031366
0.577390 0.241073 0.148804
0.577770 0.241453 0.268771
0.578153 0.241836 0.389952
0.578539 0.242222 0.511955
0.578927 0.242610 0.634582
0.579317 0.242999 0.757712
0.579708 0.243390 0.881266
0.579999 0.243682 0.973384
0.580809 0.365061 0.035156
0.581181 0.365432 0.152595
0.581560 0.365812 0.272561
0.581944 0.366195 0.393742
0.582330 0.366581 0.515746
0.582718 0.366969 0.638372
0.583107 0.367359 0.761503
0.583498 0.367750 0.885056
0.583789 0.368041 0.977174
0.584627 0.490331 0.038974
0.584999 0.490703 0.156413
0.585379 0.491082 0.276379
0.585762 0.491466 0.397561
0.586148 0.491852 0.519564
0.586536 0.492240 0.642191
0.586925 0.492629 0.765321
0.587316 0.493020 0.888874
0.587608 0.493312 0.980992
0.588466 0.616280 0.042813
0.588838 0.616652 0.160252
0.589217 0.617031 0.280218
0.589601 0.617415 0.401399
0.589987 0.617801 0.523403
0.590375 0.618188 0.646029
0.590764 0.618578 0.769160
0.591155 0.618969 0.892713
0.591446 0.619260 0.984831
0.592322 0.742770 0.046669
0.592693 0.743142 0.164107
0.593073 0.743521 0.284073
0.593456 0.743905 0.405255
0.593842 0.744291 0.527258
0.594230 0.744679 0.649885
0.594619 0.745068 0.773015
0.595010 0.745459 0.896568
0.595302 0.745751 0.988687
0.596191 0.869712 0.050538
0.596562 0.870083 0.167976
0.596942 0.870463 0.287942
0.597325 0.870846 0.409124
0.597711 0.871232 0.531127
0.598099 0.871620 0.653754
0.598489 0.872010 0.776884
0.598879 0.872400 0.900437
0.599171 0.872692 0.992556
0.599959 0.993344 0.054306
0.600330 0.993715 0.171744
0.600710 0.994095 0.291710
0.601093 0.994478 0.412892
0.601479 0.994864 0.534895
0.601867 0.995252 0.657522
0.602257 0.995642 0.780652
0.602648 0.996032 0.904206
0.602939 0.996324 0.996324
0.693515 0.006480 0.025337
0.693886 0.006852 0.142776
0.694266 0.007231 0.262742
0.694649 0.007615 0.383923
0.695035 0.008001 0.505926
0.695423 0.008389 0.628553
0.695812 0.008778 0.751684
0.696203 0.009169 0.875237
0.696495 0.009460 0.967355
0.696941 0.118894 0.028763
0.697312 0.119265 0.146202
0.697692 0.119645 0.266168
0.698075 0.120028 0.387350
0.698461 0.120414 0.509353
0.698849 0.120802 0.631980
0.699239 0.121192 0.755110
0.699630 0.121582 0.878663
0.699921 0.121874 0.970781
0.700688 0.241846 0.032511
0.701060 0.242218 0.149949
0.701439 0.242598 0.269916
0.701823 0.242981 0.391097
0.702209 0.243367 0.513100
0.702597 0.243755 0.635727
0.702986 0.244144 0.758857
0.703377 0.244535 0.882411
0.703669 0.244827 0.974529
0.704479 0.366206 0.036301
0.704850 0.366577 0.153740
0.705230 0.366957 0.273706
0.705613 0.367340 0.394887
0.705999 0.367726 0.516891
0.706387 0.368114 0.639517
0.706777 0.368504 0.762648
0.707167 0.368895 0.886201
0.707459 0.369186 0.978319
0.708297 0.491476 0.040119
0.708668 0.491848 0.157558
0.709048 0.492227 0.277524
0.709431 0.492611 0.398706
0.709817 0.492997 0.520709
0.710205 0.493385 0.643336
0.710595 0.493774 0.766466
0.710986 0.494165 0.890019
0.711277 0.494457 0.982137
0.712136 0.617425 0.043958
0.712507 0.617797 0.161397
0.712887 0.618176 0.281363
0.713270 0.618560 0.402544
0.713656 0.618946 0.524548
0.714044 0.619333 0.647174
0.714434 0.619723 0.770305
0.714824 0.620114 0.893858
0.715116 0.620405 0.985976
0.715991 0.743915 0.047814
0.716363 0.744287 0.165252
0.716742 0.744666 0.285218
0.717125 0.745050 0.406400
0.717511 0.745436 0.528403
0.717899 0.745824 0.651030
0.718289 0.746213 0.774160
0.718680 0.746604 0.897713
0.718971 0.746896 0.989832
0.719860 0.870857 0.051683
0.720232 0.871228 0.169121
0.720611 0.871608 0.289087
0.720994 0.871991 0.410269
0.721380 0.872377 0.532272
0.721768 0.872765 0.654899
0.722158 0.873155 0.778029
0.722549 0.873545 0.901582
0.722840 0.873837 0.993701
0.723628 0.994489 0.055451
0.724000 0.994860 0.172889
0.724379 0.995240 0.292855
0.724763 0.995623 0.414037
0.725149 0.996009 0.536040
0.725537 0.996397 0.658667
0.725926 0.996786 0.781797
0.726317 0.997177 0.905351
0.726608 0.997469 0.997469
0.817643 0.007629 0.026486
0.818014 0.008001 0.143925
0.818394 0.008381 0.263891
0.818777 0.008764 0.385073
0.819163 0.009150 0.507076
0.819551 0.009538 0.629703
0.819941 0.009927 0.752833
0.820332 0.010318 0.876386
0.820623 0.010610 0.968504
0.821069 0.120043 0.029913
0.821441 0.120415 0.147351
0.821820 0.120794 0.267317
0.822204 0.121177 0.388499
0.822589 0.121563 0.510502
0.822977 0.121951 0.633129
0.823367 0.122341 0.756259
0.823758 0.122732 0.879812
0.824049 0.123023 0.971931
0.824817 0.242996 0.033660
0.825188 0.243367 0.151099
0.825568 0.243747 0.271065
0.825951 0.244130 0.392246
0.826337 0.244516 0.514249
0.826725 0.244904 0.636876
0.827114 0.245294 0.760007
0.827505 0.245684 0.883560
0.827797 0.245976 0.975678
0.828607 0.367355 0.037451
0.828978 0.367727 0.154889
0.829358 0.368106 0.274855
0.829741 0.368490 0.396037
0.830127 0.368875 0.518040
0.830515 0.369263 0.640667
0.830905 0.369653 0.763797
0.831296 0.370044 0.887350
0.831587 0.370335 0.979468
0.832425 0.492626 0.041269
0.832797 0.492997 0.158707
0.833176 0.493377 0.278673
0.833560 0.493760 0.399855
0.833945 0.494146 0.521858
0.834333 0.494534 0.644485
0.834723 0.494924 0.767615
0.835114 0.495314 0.891168
0.835405 0.495606 0.983287
0.836264 0.618574 0.045107
0.836635 0.618946 0.162546
0.837015 0.619325 0.282512
0.837398 0.619709 0.403694
0.837784 0.620095 0.525697
0.838172 0.620483 0.648324
0.838562 0.620872 0.771454
0.838953 0.621263 0.895007
0.839244 0.621555 0.987125
0.840119 0.745065 0.048963
0.840491 0.745436 0.166401
0.840870 0.745816 0.286367
0.841254 0.746199 0.407549
0.841640 0.746585 0.529552
0.842028 0.746973 0.652179
0.842417 0.747362 0.775309
0.842808 0.747753 0.898863
0.843099 0.748045 0.990981
0.843988 0.872006 0.052832
0.844360 0.872377 0.170270
0.844739 0.872757 0.290237
0.845123 0.873140 0.411418
0.845509 0.873526 0.533421
0.845897 0.873914 0.656048
0.846286 0.874304 0.779178
0.846677 0.874695 0.902732
0.846968 0.874986 0.994850
0.847756 0.995638 0.056600
0.848128 0.996009 0.174038
0.848508 0.996389 0.294005
0.848891 0.996772 0.415186
0.849277 0.997158 0.537189
0.849665 0.997546 0.659816
0.850054 0.997936 0.782947
0.850445 0.998327 0.906500
0.850737 0.998618 0.998618
0.942162 0.008782 0.027639
0.942534 0.009154 0.145078
0.942913 0.009533 0.265044
0.943297 0.009917 0.386225
0.943683 0.010303 0.508229
0.944071 0.010691 0.630855
0.944460 0.011080 0.753986
0.944851 0.011471 0.877539
0.945142 0.011762 0.969657
0.945589 0.121196 0.031066
0.945960 0.121567 0.148504
0.946340 0.121947 0.268470
0.946723 0.122330 0.389652
0.947109 0.122716 0.511655
0.947497 0.123104 0.634282
0.947886 0.123494 0.757412
0.948277 0.123885 0.880965
0.948569 0.124176 0.973083
0.949336 0.244149 0.034813
0.949708 0.244520 0.152251
0.950087 0.244900 0.272218
0.950470 0.245283 0.393399
0.950856 0.245669 0.515402
0.951244 0.246057 0.638029
0.951634 0.246446 0.761160
0.952025 0.246837 0.884713
0.952316 0.247129 0.976831
0.953126 0.368508 0.038603
0.953498 0.368879 0.156042
0.953877 0.369259 0.276008
0.954261 0.369642 0.397190
0.954647 0.370028 0.519193
0.955035 0.370416 0.641820
0.955424 0.370806 0.764950
0.955815 0.371197 0.888503
0.956107 0.371488 0.980621
0.956945 0.493779 0.042422
0.957316 0.494150 0.159860
0.957696 0.494530 0.279826
0.958079 0.494913 0.401008
0.958465 0.495299 0.523011
0.958853 0.495687 0.645638
0.959242 0.496076 0.768768
0.959633 0.496467 0.892321
0.959925 0.496759 0.984440
0.960783 0.619727 0.046260
0.961155 0.620099 0.163699
0.961534 0.620478 0.283665
0.961918 0.620862 0.404847
0.962304 0.621248 0.526850
0.962692 0.621636 0.649476
0.963081 0.622025 0.772607
0.963472 0.622416 0.896160
0.963764 0.622707 0.988278
0.964639 0.746217 0.050116
0.965010 0.746589 0.167554
0.965390 0.746969 0.287520
0.965773 0.747352 0.408702
0.966159 0.747738 0.530705
0.966547 0.748126 0.653332
0.966937 0.748515 0.776462
0.967327 0.748906 0.900015
0.967619 0.749198 0.992134
0.968508 0.873159 0.053985
0.968879 0.873530 0.171423
0.969259 0.873910 0.291389
0.969642 0.874293 0.412571
0.970028 0.874679 0.534574
0.970416 0.875067 0.657201
0.970806 0.875457 0.780331
0.971197 0.875848 0.903884
0.971488 0.876139 0.996003
0.972276 0.996791 0.057753
0.972648 0.997162 0.175191
0.973027 0.997542 0.295158
0.973410 0.997925 0.416339
0.973796 0.998311 0.538342
0.974184 0.998699 0.660969
0.974574 0.999089 0.784099
0.974965 0.999479 0.907653
0.975256 0.999771 0.999771
