skills/editops-orchestrator/assets/grade/luts/cool_tech_v20.cube
TITLE "cool_tech_v20"
LUT_3D_SIZE 5
DOMAIN_MIN 0.0 0.0 0.0
DOMAIN_MAX 1.0 1.0 1.0
0.000212 0.000212 0.033955
0.001646 0.001646 0.263895
0.003141 0.003141 0.503398
0.004664 0.004664 0.747547
0.005776 0.005776 0.925776
0.013033 0.219187 0.046776
0.014467 0.220622 0.276716
0.015962 0.222116 0.516219
0.017485 0.223639 0.760368
0.018597 0.224751 0.938597
0.027740 0.470369 0.061483
0.029174 0.471804 0.291422
0.030668 0.473298 0.530926
0.032192 0.474821 0.775075
0.033304 0.475933 0.953304
0.042771 0.727100 0.076514
0.044206 0.728534 0.306454
0.045700 0.730028 0.545957
0.047223 0.731552 0.790106
0.048335 0.732664 0.968335
0.057428 0.977428 0.091171
0.058862 0.978862 0.321111
0.060357 0.980357 0.560614
0.061880 0.981880 0.804763
0.062992 0.982992 0.982992
0.153645 0.002997 0.036740
0.155080 0.004431 0.266680
0.156574 0.005926 0.506183
0.158098 0.007449 0.750332
0.159209 0.008561 0.928561
0.166466 0.221972 0.049561
0.167901 0.223407 0.279501
0.169395 0.224901 0.519004
0.170919 0.226424 0.763153
0.172031 0.227536 0.941382
0.181173 0.473154 0.064268
0.182608 0.474589 0.294207
0.184102 0.476083 0.533711
0.185625 0.477606 0.777860
0.186737 0.478718 0.956089
0.196205 0.729885 0.079299
0.197639 0.731319 0.309239
0.199134 0.732813 0.548742
0.200657 0.734337 0.792891
0.201769 0.735449 0.971120
0.210861 0.980213 0.093956
0.212296 0.981647 0.323896
0.213790 0.983142 0.563399
0.215314 0.984665 0.807548
0.216425 0.985777 0.985777
0.392624 0.007335 0.041078
0.394059 0.008769 0.271017
0.395553 0.010264 0.510521
0.397077 0.011787 0.754670
0.398189 0.012899 0.932899
0.405445 0.226310 0.053899
0.406880 0.227745 0.283838
0.408374 0.229239 0.523342
0.409898 0.230762 0.767491
0.411010 0.231874 0.945720
0.420152 0.477492 0.068606
0.421587 0.478926 0.298545
0.423081 0.480421 0.538048
0.424604 0.481944 0.782198
0.425716 0.483056 0.960427
0.435184 0.734222 0.083637
0.436618 0.735657 0.313577
0.438113 0.737151 0.553080
0.439636 0.738674 0.797229
0.440748 0.739786 0.975458
0.449840 0.984551 0.098294
0.451275 0.985985 0.328233
0.452769 0.987480 0.567737
0.454293 0.989003 0.811886
0.455405 0.990115 0.990115
0.637750 0.011784 0.045527
0.639185 0.013219 0.275467
0.640679 0.014713 0.514970
0.642202 0.016236 0.759119
0.643314 0.017348 0.937348
0.650571 0.230759 0.058348
0.652006 0.232194 0.288288
0.653500 0.233688 0.527791
0.655023 0.235212 0.771940
0.656135 0.236324 0.950169
0.665278 0.481941 0.073055
0.666712 0.483376 0.302995
0.668207 0.484870 0.542498
0.669730 0.486393 0.786647
0.670842 0.487505 0.964876
0.680309 0.738672 0.088087
0.681744 0.740106 0.318026
0.683238 0.741601 0.557529
0.684762 0.743124 0.801679
0.685874 0.744236 0.979907
0.694966 0.989000 0.102743
0.696401 0.990435 0.332683
0.697895 0.991929 0.572186
0.699418 0.993452 0.816335
0.700530 0.994564 0.994564
0.886649 0.016302 0.050045
0.888083 0.017737 0.279985
0.889578 0.019231 0.519488
0.891101 0.020754 0.763637
0.892213 0.021866 0.941866
0.899470 0.235277 0.062866
0.900904 0.236712 0.292806
0.902399 0.238206 0.532309
0.903922 0.239729 0.776458
0.905034 0.240841 0.954687
0.914176 0.486459 0.077573
0.915611 0.487894 0.307512
0.917105 0.489388 0.547016
0.918629 0.490911 0.791165
0.919741 0.492023 0.969394
0.929208 0.743190 0.092604
0.930643 0.744624 0.322544
0.932137 0.746118 0.562047
0.933660 0.747642 0.806196
0.934772 0.748754 0.984425
0.943865 0.993518 0.107261
0.945299 0.994953 0.337201
0.946794 0.996447 0.576704
0.948317 0.997970 0.820853
0.949429 0.999082 0.999082
