skills/editops-orchestrator/assets/grade/luts/cool_tech_v06.cube
TITLE "cool_tech_v06"
LUT_3D_SIZE 9
DOMAIN_MIN 0.0 0.0 0.0
DOMAIN_MAX 1.0 1.0 1.0
0.000043 0.000043 0.016257
0.000360 0.000360 0.134525
0.000682 0.000682 0.255029
0.001007 0.001007 0.376583
0.001333 0.001333 0.498844
0.001661 0.001661 0.621639
0.001991 0.001991 0.744865
0.002321 0.002321 0.868452
0.002584 0.002584 0.966795
0.003019 0.115090 0.019232
0.003335 0.115406 0.137500
0.003657 0.115728 0.258004
0.003982 0.116053 0.379559
0.004308 0.116380 0.501819
0.004637 0.116708 0.624614
0.004966 0.117037 0.747840
0.005296 0.117368 0.871427
0.005559 0.117631 0.969770
0.006202 0.238189 0.022415
0.006518 0.238505 0.140683
0.006840 0.238827 0.261187
0.007165 0.239152 0.382742
0.007492 0.239479 0.505003
0.007820 0.239807 0.627798
0.008149 0.240137 0.751023
0.008480 0.240467 0.874610
0.008743 0.240730 0.972953
0.009416 0.362473 0.025629
0.009732 0.362790 0.143897
0.010054 0.363112 0.264401
0.010379 0.363437 0.385956
0.010706 0.363763 0.508217
0.011034 0.364091 0.631012
0.011363 0.364421 0.754237
0.011694 0.364751 0.877824
0.011957 0.365014 0.976167
0.012650 0.487527 0.028863
0.012966 0.487843 0.147131
0.013288 0.488165 0.267635
0.013613 0.488490 0.389190
0.013940 0.488817 0.511450
0.014268 0.489145 0.634246
0.014597 0.489474 0.757471
0.014928 0.489804 0.881058
0.015190 0.490067 0.979401
0.015899 0.613153 0.032112
0.016215 0.613469 0.150380
0.016537 0.613791 0.270884
0.016862 0.614116 0.392439
0.017188 0.614443 0.514699
0.017517 0.614771 0.637494
0.017846 0.615100 0.760720
0.018176 0.615430 0.884307
0.018439 0.615693 0.982650
0.019159 0.739236 0.035372
0.019475 0.739552 0.153640
0.019797 0.739874 0.274144
0.020122 0.740199 0.395699
0.020449 0.740526 0.517960
0.020777 0.740854 0.640755
0.021107 0.741183 0.763981
0.021437 0.741514 0.887567
0.021700 0.741777 0.985910
0.022430 0.865700 0.038643
0.022746 0.866017 0.156911
0.023068 0.866339 0.277415
0.023393 0.866663 0.398969
0.023719 0.866990 0.521230
0.024048 0.867318 0.644025
0.024377 0.867648 0.767251
0.024707 0.867978 0.890838
0.024970 0.868241 0.989181
0.025640 0.989851 0.041853
0.025956 0.990167 0.160121
0.026278 0.990489 0.280625
0.026603 0.990814 0.402180
0.026930 0.991140 0.524441
0.027258 0.991469 0.647236
0.027587 0.991798 0.770461
0.027918 0.992128 0.894048
0.028181 0.992391 0.992391
0.090809 0.000754 0.016967
0.091125 0.001070 0.135235
0.091447 0.001392 0.255739
0.091772 0.001717 0.377294
0.092099 0.002044 0.499555
0.092427 0.002372 0.622350
0.092756 0.002701 0.745575
0.093087 0.003032 0.869162
0.093349 0.003295 0.967505
0.093784 0.115801 0.019942
0.094100 0.116117 0.138210
0.094422 0.116439 0.258715
0.094747 0.116764 0.380269
0.095074 0.117091 0.502530
0.095402 0.117419 0.625325
0.095731 0.117748 0.748551
0.096062 0.118078 0.872137
0.096325 0.118341 0.970480
0.096967 0.238900 0.023126
0.097284 0.239216 0.141394
0.097606 0.239538 0.261898
0.097930 0.239863 0.383453
0.098257 0.240190 0.505713
0.098585 0.240518 0.628508
0.098915 0.240847 0.751734
0.099245 0.241178 0.875321
0.099508 0.241440 0.973664
0.100181 0.363184 0.026340
0.100498 0.363500 0.144608
0.100820 0.363822 0.265112
0.101144 0.364147 0.386667
0.101471 0.364474 0.508927
0.101799 0.364802 0.631722
0.102129 0.365131 0.754948
0.102459 0.365462 0.878535
0.102722 0.365725 0.976878
0.103415 0.488237 0.029574
0.103731 0.488553 0.147842
0.104053 0.488875 0.268346
0.104378 0.489200 0.389900
0.104705 0.489527 0.512161
0.105033 0.489855 0.634956
0.105363 0.490185 0.758182
0.105693 0.490515 0.881769
0.105956 0.490778 0.980112
0.106664 0.613863 0.032822
0.106980 0.614179 0.151090
0.107302 0.614502 0.271595
0.107627 0.614826 0.393149
0.107954 0.615153 0.515410
0.108282 0.615481 0.638205
0.108611 0.615811 0.761431
0.108942 0.616141 0.885017
0.109205 0.616404 0.983360
0.109925 0.739947 0.036083
0.110241 0.740263 0.154351
0.110563 0.740585 0.274855
0.110888 0.740910 0.396410
0.111214 0.741237 0.518670
0.111543 0.741565 0.641465
0.111872 0.741894 0.764691
0.112202 0.742224 0.888278
0.112465 0.742487 0.986621
0.113195 0.866411 0.039353
0.113511 0.866727 0.157621
0.113833 0.867049 0.278126
0.114158 0.867374 0.399680
0.114485 0.867701 0.521941
0.114813 0.868029 0.644736
0.115142 0.868358 0.767962
0.115473 0.868689 0.891548
0.115736 0.868952 0.989891
0.116406 0.990561 0.042564
0.116722 0.990877 0.160832
0.117044 0.991199 0.281336
0.117369 0.991524 0.402891
0.117695 0.991851 0.525151
0.118024 0.992179 0.647946
0.118353 0.992509 0.771172
0.118683 0.992839 0.894759
0.118946 0.993102 0.993102
0.211363 0.001698 0.017911
0.211679 0.002014 0.136179
0.212002 0.002336 0.256683
0.212326 0.002661 0.378238
0.212653 0.002988 0.500499
0.212981 0.003316 0.623294
0.213311 0.003645 0.746519
0.213641 0.003976 0.870106
0.213904 0.004239 0.968449
0.214338 0.116745 0.020886
0.214655 0.117061 0.139154
0.214977 0.117383 0.259658
0.215302 0.117708 0.381213
0.215628 0.118034 0.503474
0.215957 0.118363 0.626269
0.216286 0.118692 0.749494
0.216616 0.119022 0.873081
0.216879 0.119285 0.971424
0.217522 0.239844 0.024070
0.217838 0.240160 0.142338
0.218160 0.240482 0.262842
0.218485 0.240807 0.384396
0.218812 0.241134 0.506657
0.219140 0.241462 0.629452
0.219469 0.241791 0.752678
0.219800 0.242122 0.876265
0.220062 0.242384 0.974608
0.220736 0.364128 0.027284
0.221052 0.364444 0.145552
0.221374 0.364766 0.266056
0.221699 0.365091 0.387610
0.222026 0.365418 0.509871
0.222354 0.365746 0.632666
0.222683 0.366075 0.755892
0.223014 0.366406 0.879479
0.223276 0.366669 0.977822
0.223970 0.489181 0.030518
0.224286 0.489497 0.148786
0.224608 0.489819 0.269290
0.224933 0.490144 0.390844
0.225260 0.490471 0.513105
0.225588 0.490799 0.635900
0.225917 0.491129 0.759126
0.226247 0.491459 0.882713
0.226510 0.491722 0.981055
0.227219 0.614807 0.033766
0.227535 0.615123 0.152034
0.227857 0.615445 0.272538
0.228182 0.615770 0.394093
0.228508 0.616097 0.516354
0.228837 0.616425 0.639149
0.229166 0.616755 0.762374
0.229496 0.617085 0.885961
0.229759 0.617348 0.984304
0.230479 0.740891 0.037027
0.230795 0.741207 0.155295
0.231117 0.741529 0.275799
0.231442 0.741854 0.397354
0.231769 0.742180 0.519614
0.232097 0.742509 0.642409
0.232426 0.742838 0.765635
0.232757 0.743168 0.889222
0.233020 0.743431 0.987565
0.233749 0.867355 0.040297
0.234066 0.867671 0.158565
0.234388 0.867993 0.279069
0.234713 0.868318 0.400624
0.235039 0.868645 0.522885
0.235367 0.868973 0.645680
0.235697 0.869302 0.768905
0.236027 0.869633 0.892492
0.236290 0.869895 0.990835
0.236960 0.991505 0.043508
0.237276 0.991821 0.161776
0.237598 0.992143 0.282280
0.237923 0.992468 0.403835
0.238250 0.992795 0.526095
0.238578 0.993123 0.648890
0.238907 0.993453 0.772116
0.239238 0.993783 0.895703
0.239501 0.994046 0.994046
0.333215 0.002652 0.018865
0.333531 0.002968 0.137133
0.333854 0.003290 0.257637
0.334178 0.003615 0.379192
0.334505 0.003942 0.501453
0.334833 0.004270 0.624248
0.335163 0.004599 0.747473
0.335493 0.004930 0.871060
0.335756 0.005193 0.969403
0.336190 0.117699 0.021840
0.336507 0.118015 0.140108
0.336829 0.118337 0.260613
0.337154 0.118662 0.382167
0.337480 0.118988 0.504428
0.337808 0.119317 0.627223
0.338138 0.119646 0.750449
0.338468 0.119976 0.874035
0.338731 0.120239 0.972378
0.339374 0.240798 0.025024
0.339690 0.241114 0.143292
0.340012 0.241436 0.263796
0.340337 0.241761 0.385350
0.340664 0.242088 0.507611
0.340992 0.242416 0.630406
0.341321 0.242745 0.753632
0.341652 0.243076 0.877219
0.341914 0.243338 0.975562
0.342588 0.365082 0.028238
0.342904 0.365398 0.146506
0.343226 0.365720 0.267010
0.343551 0.366045 0.388564
0.343878 0.366372 0.510825
0.344206 0.366700 0.633620
0.344535 0.367029 0.756846
0.344866 0.367360 0.880433
0.345128 0.367623 0.978776
0.345822 0.490135 0.031472
0.346138 0.490451 0.149740
0.346460 0.490773 0.270244
0.346785 0.491098 0.391798
0.347112 0.491425 0.514059
0.347440 0.491753 0.636854
0.347769 0.492083 0.760080
0.348099 0.492413 0.883667
0.348362 0.492676 0.982010
0.349070 0.615761 0.034720
0.349387 0.616077 0.152988
0.349709 0.616399 0.273493
0.350034 0.616724 0.395047
0.350360 0.617051 0.517308
0.350689 0.617379 0.640103
0.351018 0.617709 0.763329
0.351348 0.618039 0.886915
0.351611 0.618302 0.985258
0.352331 0.741845 0.037981
0.352647 0.742161 0.156249
0.352969 0.742483 0.276753
0.353294 0.742808 0.398308
0.353621 0.743134 0.520568
0.353949 0.743463 0.643363
0.354278 0.743792 0.766589
0.354609 0.744122 0.890176
0.354872 0.744385 0.988519
0.355601 0.868309 0.041251
0.355918 0.868625 0.159519
0.356240 0.868947 0.280023
0.356564 0.869272 0.401578
0.356891 0.869599 0.523839
0.357219 0.869927 0.646634
0.357549 0.870256 0.769859
0.357879 0.870587 0.893446
0.358142 0.870850 0.991789
0.358812 0.992459 0.044462
0.359128 0.992775 0.162730
0.359450 0.993097 0.283234
0.359775 0.993422 0.404789
0.360102 0.993749 0.527049
0.360430 0.994077 0.649844
0.360759 0.994407 0.773070
0.361090 0.994737 0.896657
0.361353 0.995000 0.995000
0.455874 0.003612 0.019826
0.456190 0.003928 0.138093
0.456512 0.004251 0.258598
0.456837 0.004575 0.380152
0.457164 0.004902 0.502413
0.457492 0.005230 0.625208
0.457822 0.005560 0.748434
0.458152 0.005890 0.872021
0.458415 0.006153 0.970363
0.458849 0.118659 0.022801
0.459165 0.118975 0.141069
0.459487 0.119297 0.261573
0.459812 0.119622 0.383127
0.460139 0.119949 0.505388
0.460467 0.120277 0.628183
0.460797 0.120606 0.751409
0.461127 0.120937 0.874996
0.461390 0.121200 0.973339
0.462033 0.241758 0.025984
0.462349 0.242074 0.144252
0.462671 0.242396 0.264756
0.462996 0.242721 0.386311
0.463322 0.243048 0.508571
0.463651 0.243376 0.631367
0.463980 0.243706 0.754592
0.464310 0.244036 0.878179
0.464573 0.244299 0.976522
0.465247 0.366042 0.029198
0.465563 0.366358 0.147466
0.465885 0.366681 0.267970
0.466210 0.367005 0.389525
0.466537 0.367332 0.511785
0.466865 0.367660 0.634581
0.467194 0.367990 0.757806
0.467524 0.368320 0.881393
0.467787 0.368583 0.979736
0.468481 0.491096 0.032432
0.468797 0.491412 0.150700
0.469119 0.491734 0.271204
0.469444 0.492059 0.392759
0.469770 0.492385 0.515019
0.470099 0.492714 0.637814
0.470428 0.493043 0.761040
0.470758 0.493373 0.884627
0.471021 0.493636 0.982970
0.471729 0.616722 0.035681
0.472045 0.617038 0.153949
0.472367 0.617360 0.274453
0.472692 0.617685 0.396007
0.473019 0.618011 0.518268
0.473347 0.618340 0.641063
0.473677 0.618669 0.764289
0.474007 0.618999 0.887876
0.474270 0.619262 0.986219
0.474990 0.742805 0.038941
0.475306 0.743121 0.157209
0.475628 0.743443 0.277713
0.475953 0.743768 0.399268
0.476280 0.744095 0.521529
0.476608 0.744423 0.644324
0.476937 0.744752 0.767549
0.477268 0.745083 0.891136
0.477530 0.745345 0.989479
0.478260 0.869269 0.042212
0.478576 0.869585 0.160480
0.478898 0.869908 0.280984
0.479223 0.870232 0.402538
0.479550 0.870559 0.524799
0.479878 0.870887 0.647594
0.480208 0.871217 0.770820
0.480538 0.871547 0.894407
0.480801 0.871810 0.992750
0.481471 0.993420 0.045422
0.481787 0.993736 0.163690
0.482109 0.994058 0.284194
0.482434 0.994383 0.405749
0.482761 0.994709 0.528010
0.483089 0.995038 0.650805
0.483418 0.995367 0.774030
0.483748 0.995697 0.897617
0.484011 0.995960 0.995960
0.579123 0.004577 0.020791
0.579439 0.004893 0.139058
0.579761 0.005216 0.259563
0.580086 0.005540 0.381117
0.580413 0.005867 0.503378
0.580741 0.006195 0.626173
0.581070 0.006525 0.749399
0.581401 0.006855 0.872986
0.581664 0.007118 0.971328
0.582098 0.119624 0.023766
0.582414 0.119940 0.142034
0.582736 0.120262 0.262538
0.583061 0.120587 0.384092
0.583388 0.120914 0.506353
0.583716 0.121242 0.629148
0.584046 0.121571 0.752374
0.584376 0.121902 0.875961
0.584639 0.122165 0.974304
0.585282 0.242723 0.026949
0.585598 0.243039 0.145217
0.585920 0.243361 0.265721
0.586245 0.243686 0.387276
0.586571 0.244013 0.509536
0.586900 0.244341 0.632331
0.587229 0.244671 0.755557
0.587559 0.245001 0.879144
0.587822 0.245264 0.977487
0.588496 0.367007 0.030163
0.588812 0.367323 0.148431
0.589134 0.367646 0.268935
0.589459 0.367970 0.390490
0.589785 0.368297 0.512750
0.590114 0.368625 0.635546
0.590443 0.368955 0.758771
0.590773 0.369285 0.882358
0.591036 0.369548 0.980701
0.591730 0.492061 0.033397
0.592046 0.492377 0.151665
0.592368 0.492699 0.272169
0.592693 0.493024 0.393724
0.593019 0.493350 0.515984
0.593348 0.493679 0.638779
0.593677 0.494008 0.762005
0.594007 0.494338 0.885592
0.594270 0.494601 0.983935
0.594978 0.617687 0.036646
0.595294 0.618003 0.154914
0.595616 0.618325 0.275418
0.595941 0.618650 0.396972
0.596268 0.618976 0.519233
0.596596 0.619305 0.642028
0.596926 0.619634 0.765254
0.597256 0.619964 0.888841
0.597519 0.620227 0.987184
0.598239 0.743770 0.039906
0.598555 0.744086 0.158174
0.598877 0.744408 0.278678
0.599202 0.744733 0.400233
0.599529 0.745060 0.522494
0.599857 0.745388 0.645289
0.600186 0.745717 0.768514
0.600516 0.746048 0.892101
0.600779 0.746310 0.990444
0.601509 0.870234 0.043177
0.601825 0.870550 0.161445
0.602147 0.870872 0.281949
0.602472 0.871197 0.403503
0.602799 0.871524 0.525764
0.603127 0.871852 0.648559
0.603457 0.872182 0.771785
0.603787 0.872512 0.895372
0.604050 0.872775 0.993715
0.604720 0.994385 0.046387
0.605036 0.994701 0.164655
0.605358 0.995023 0.285159
0.605683 0.995348 0.406714
0.606010 0.995674 0.528975
0.606338 0.996003 0.651770
0.606667 0.996332 0.774995
0.606997 0.996662 0.898582
0.607260 0.996925 0.996925
0.702838 0.005546 0.021759
0.703155 0.005862 0.140027
0.703477 0.006184 0.260531
0.703802 0.006509 0.382086
0.704128 0.006836 0.504347
0.704456 0.007164 0.627142
0.704786 0.007493 0.750367
0.705116 0.007824 0.873954
0.705379 0.008087 0.972297
0.705814 0.120593 0.024734
0.706130 0.120909 0.143002
0.706452 0.121231 0.263506
0.706777 0.121556 0.385061
0.707103 0.121882 0.507322
0.707432 0.122211 0.630117
0.707761 0.122540 0.753342
0.708091 0.122870 0.876929
0.708354 0.123133 0.975272
0.708997 0.243692 0.027918
0.709313 0.244008 0.146186
0.709635 0.244330 0.266690
0.709960 0.244655 0.388244
0.710287 0.244982 0.510505
0.710615 0.245310 0.633300
0.710944 0.245639 0.756526
0.711275 0.245970 0.880113
0.711538 0.246232 0.978456
0.712211 0.367976 0.031132
0.712527 0.368292 0.149400
0.712849 0.368614 0.269904
0.713174 0.368939 0.391458
0.713501 0.369266 0.513719
0.713829 0.369594 0.636514
0.714158 0.369923 0.759740
0.714489 0.370254 0.883327
0.714752 0.370517 0.981670
0.715445 0.493029 0.034366
0.715761 0.493345 0.152634
0.716083 0.493667 0.273138
0.716408 0.493992 0.394692
0.716735 0.494319 0.516953
0.717063 0.494647 0.639748
0.717392 0.494977 0.762974
0.717723 0.495307 0.886561
0.717985 0.495570 0.984903
0.718694 0.618655 0.037614
0.719010 0.618971 0.155882
0.719332 0.619293 0.276386
0.719657 0.619618 0.397941
0.719983 0.619945 0.520202
0.720312 0.620273 0.642997
0.720641 0.620603 0.766222
0.720971 0.620933 0.889809
0.721234 0.621196 0.988152
0.721954 0.744739 0.040875
0.722270 0.745055 0.159143
0.722592 0.745377 0.279647
0.722917 0.745702 0.401202
0.723244 0.746028 0.523462
0.723572 0.746357 0.646257
0.723902 0.746686 0.769483
0.724232 0.747016 0.893070
0.724495 0.747279 0.991413
0.725225 0.871203 0.044145
0.725541 0.871519 0.162413
0.725863 0.871841 0.282917
0.726188 0.872166 0.404472
0.726514 0.872493 0.526733
0.726843 0.872821 0.649528
0.727172 0.873150 0.772753
0.727502 0.873481 0.896340
0.727765 0.873743 0.994683
0.728435 0.995353 0.047356
0.728751 0.995669 0.165624
0.729073 0.995991 0.286128
0.729398 0.996316 0.407683
0.729725 0.996643 0.529943
0.730053 0.996971 0.652738
0.730382 0.997301 0.775964
0.730713 0.997631 0.899551
0.730976 0.997894 0.997894
0.826940 0.006518 0.022731
0.827256 0.006834 0.140999
0.827578 0.007156 0.261503
0.827903 0.007481 0.383058
0.828230 0.007807 0.505318
0.828558 0.008136 0.628113
0.828887 0.008465 0.751339
0.829218 0.008795 0.874926
0.829480 0.009058 0.973269
0.829915 0.121564 0.025706
0.830231 0.121880 0.143974
0.830553 0.122202 0.264478
0.830878 0.122527 0.386033
0.831205 0.122854 0.508293
0.831533 0.123182 0.631088
0.831862 0.123512 0.754314
0.832193 0.123842 0.877901
0.832455 0.124105 0.976244
0.833098 0.244663 0.028889
0.833414 0.244980 0.147157
0.833736 0.245302 0.267661
0.834061 0.245627 0.389216
0.834388 0.245953 0.511477
0.834716 0.246282 0.634272
0.835046 0.246611 0.757498
0.835376 0.246941 0.881084
0.835639 0.247204 0.979427
0.836312 0.368948 0.032103
0.836628 0.369264 0.150371
0.836951 0.369586 0.270875
0.837275 0.369911 0.392430
0.837602 0.370237 0.514691
0.837930 0.370566 0.637486
0.838260 0.370895 0.760712
0.838590 0.371225 0.884298
0.838853 0.371488 0.982641
0.839546 0.494001 0.035337
0.839862 0.494317 0.153605
0.840184 0.494639 0.274109
0.840509 0.494964 0.395664
0.840836 0.495291 0.517925
0.841164 0.495619 0.640720
0.841494 0.495948 0.763945
0.841824 0.496279 0.887532
0.842087 0.496541 0.985875
0.842795 0.619627 0.038586
0.843111 0.619943 0.156854
0.843433 0.620265 0.277358
0.843758 0.620590 0.398913
0.844085 0.620917 0.521173
0.844413 0.621245 0.643968
0.844742 0.621574 0.767194
0.845073 0.621905 0.890781
0.845335 0.622167 0.989124
0.846055 0.745710 0.041847
0.846372 0.746026 0.160114
0.846694 0.746348 0.280619
0.847019 0.746673 0.402173
0.847345 0.747000 0.524434
0.847674 0.747328 0.647229
0.848003 0.747658 0.770455
0.848333 0.747988 0.894041
0.848596 0.748251 0.992384
0.849326 0.872175 0.045117
0.849642 0.872491 0.163385
0.849964 0.872813 0.283889
0.850289 0.873138 0.405444
0.850616 0.873464 0.527704
0.850944 0.873793 0.650499
0.851273 0.874122 0.773725
0.851604 0.874452 0.897312
0.851866 0.874715 0.995655
0.852536 0.996325 0.048327
0.852853 0.996641 0.166595
0.853175 0.996963 0.287100
0.853500 0.997288 0.408654
0.853826 0.997615 0.530915
0.854154 0.997943 0.653710
0.854484 0.998272 0.776936
0.854814 0.998602 0.900522
0.855077 0.998865 0.998865
0.951371 0.007492 0.023705
0.951687 0.007808 0.141973
0.952009 0.008130 0.262477
0.952334 0.008455 0.384032
0.952661 0.008782 0.506292
0.952989 0.009110 0.629087
0.953318 0.009439 0.752313
0.953648 0.009770 0.875900
0.953911 0.010032 0.974243
0.954346 0.122538 0.026680
0.954662 0.122855 0.144948
0.954984 0.123177 0.265452
0.955309 0.123502 0.387007
0.955636 0.123828 0.509268
0.955964 0.124157 0.632063
0.956293 0.124486 0.755288
0.956624 0.124816 0.878875
0.956886 0.125079 0.977218
0.957529 0.245638 0.029864
0.957845 0.245954 0.148131
0.958167 0.246276 0.268636
0.958492 0.246601 0.390190
0.958819 0.246928 0.512451
0.959147 0.247256 0.635246
0.959477 0.247585 0.758472
0.959807 0.247915 0.882059
0.960070 0.248178 0.980401
0.960743 0.369922 0.033078
0.961059 0.370238 0.151345
0.961381 0.370560 0.271850
0.961706 0.370885 0.393404
0.962033 0.371212 0.515665
0.962361 0.371540 0.638460
0.962691 0.371869 0.761686
0.963021 0.372200 0.885273
0.963284 0.372462 0.983615
0.963977 0.494975 0.036312
0.964293 0.495291 0.154579
0.964615 0.495613 0.275084
0.964940 0.495938 0.396638
0.965267 0.496265 0.518899
0.965595 0.496593 0.641694
0.965924 0.496922 0.764920
0.966255 0.497253 0.888506
0.966518 0.497516 0.986849
0.967226 0.620601 0.039560
0.967542 0.620917 0.157828
0.967864 0.621239 0.278332
0.968189 0.621564 0.399887
0.968516 0.621891 0.522148
0.968844 0.622219 0.644943
0.969173 0.622548 0.768168
0.969504 0.622879 0.891755
0.969766 0.623142 0.990098
0.970486 0.746684 0.042821
0.970802 0.747001 0.161089
0.971125 0.747323 0.281593
0.971449 0.747647 0.403147
0.971776 0.747974 0.525408
0.972104 0.748302 0.648203
0.972434 0.748632 0.771429
0.972764 0.748962 0.895016
0.973027 0.749225 0.993359
0.973757 0.873149 0.046091
0.974073 0.873465 0.164359
0.974395 0.873787 0.284863
0.974720 0.874112 0.406418
0.975047 0.874439 0.528679
0.975375 0.874767 0.651474
0.975704 0.875096 0.774699
0.976034 0.875427 0.898286
0.976297 0.875689 0.996629
0.976967 0.997299 0.049302
0.977283 0.997615 0.167570
0.977605 0.997937 0.288074
0.977930 0.998262 0.409628
0.978257 0.998589 0.531889
0.978585 0.998917 0.654684
0.978915 0.999246 0.777910
0.979245 0.999577 0.901497
0.979508 0.999840 0.999840
