skills/editops-orchestrator/assets/grade/luts/cool_tech_v13.cube
TITLE "cool_tech_v13"
LUT_3D_SIZE 17
DOMAIN_MIN 0.0 0.0 0.0
DOMAIN_MAX 1.0 1.0 1.0
0.000112 0.000112 0.025363
0.000364 0.000364 0.082484
0.000622 0.000622 0.140854
0.000883 0.000883 0.199934
0.001146 0.001146 0.259516
0.001411 0.001411 0.319488
0.001678 0.001678 0.379781
0.001945 0.001945 0.440346
0.002214 0.002214 0.501146
0.002483 0.002483 0.562156
0.002754 0.002754 0.623352
0.003025 0.003025 0.684718
0.003296 0.003296 0.746240
0.003569 0.003569 0.807905
0.003842 0.003842 0.869702
0.004115 0.004115 0.931623
0.004180 0.004180 0.946285
0.002049 0.046124 0.027300
0.002301 0.046377 0.084421
0.002559 0.046635 0.142791
0.002820 0.046895 0.201871
0.003083 0.047159 0.261453
0.003348 0.047424 0.321425
0.003615 0.047690 0.381718
0.003882 0.047957 0.442283
0.004151 0.048226 0.503084
0.004420 0.048496 0.564093
0.004691 0.048766 0.625289
0.004962 0.049037 0.686655
0.005233 0.049309 0.748177
0.005506 0.049581 0.809842
0.005779 0.049854 0.871639
0.006052 0.050128 0.933561
0.006117 0.050192 0.948222
0.004572 0.106045 0.029823
0.004824 0.106297 0.086944
0.005082 0.106555 0.145314
0.005343 0.106816 0.204393
0.005606 0.107079 0.263975
0.005871 0.107344 0.323948
0.006137 0.107610 0.384241
0.006405 0.107878 0.444806
0.006674 0.108146 0.505606
0.006943 0.108416 0.566615
0.007213 0.108686 0.627812
0.007484 0.108957 0.689178
0.007756 0.109229 0.750700
0.008029 0.109501 0.812364
0.008302 0.109774 0.874162
0.008575 0.110048 0.936083
0.008640 0.110113 0.950745
0.007138 0.166993 0.032389
0.007390 0.167245 0.089510
0.007648 0.167503 0.147880
0.007909 0.167764 0.206959
0.008172 0.168027 0.266541
0.008437 0.168292 0.326514
0.008703 0.168559 0.386807
0.008971 0.168826 0.447372
0.009239 0.169095 0.508172
0.009509 0.169364 0.569181
0.009779 0.169635 0.630378
0.010050 0.169906 0.691744
0.010322 0.170177 0.753266
0.010595 0.170450 0.814930
0.010867 0.170723 0.876728
0.011141 0.170996 0.938649
0.011206 0.171061 0.953311
0.009731 0.228589 0.034982
0.009983 0.228841 0.092103
0.010241 0.229099 0.150473
0.010502 0.229360 0.209553
0.010765 0.229623 0.269135
0.011030 0.229888 0.329107
0.011297 0.230154 0.389400
0.011564 0.230422 0.449965
0.011833 0.230690 0.510765
0.012102 0.230960 0.571775
0.012372 0.231230 0.632971
0.012644 0.231501 0.694337
0.012915 0.231773 0.755859
0.013188 0.232045 0.817523
0.013461 0.232318 0.879321
0.013734 0.232592 0.941242
0.013799 0.232657 0.955904
0.012344 0.290661 0.037595
0.012597 0.290913 0.094716
0.012854 0.291171 0.153086
0.013115 0.291432 0.212166
0.013379 0.291695 0.271748
0.013644 0.291960 0.331721
0.013910 0.292226 0.392014
0.014177 0.292494 0.452578
0.014446 0.292762 0.513379
0.014715 0.293032 0.574388
0.014986 0.293302 0.635584
0.015257 0.293573 0.696951
0.015529 0.293845 0.758472
0.015801 0.294117 0.820137
0.016074 0.294390 0.881934
0.016347 0.294664 0.943856
0.016412 0.294729 0.958518
0.014973 0.353111 0.040224
0.015226 0.353363 0.097345
0.015484 0.353621 0.155716
0.015745 0.353882 0.214795
0.016008 0.354145 0.274377
0.016273 0.354410 0.334350
0.016539 0.354676 0.394643
0.016807 0.354944 0.455207
0.017075 0.355213 0.516008
0.017345 0.355482 0.577017
0.017615 0.355752 0.638213
0.017886 0.356023 0.699580
0.018158 0.356295 0.761101
0.018430 0.356568 0.822766
0.018703 0.356841 0.884563
0.018977 0.357114 0.946485
0.019041 0.357179 0.961147
0.017616 0.415875 0.042867
0.017868 0.416127 0.099988
0.018126 0.416385 0.158358
0.018387 0.416646 0.217437
0.018650 0.416909 0.277019
0.018915 0.417174 0.336992
0.019181 0.417441 0.397285
0.019449 0.417708 0.457850
0.019718 0.417977 0.518650
0.019987 0.418246 0.579659
0.020257 0.418517 0.640856
0.020528 0.418788 0.702222
0.020800 0.419059 0.763744
0.021073 0.419332 0.825408
0.021346 0.419605 0.887206
0.021619 0.419878 0.949127
0.021684 0.419943 0.963789
0.020270 0.478908 0.045520
0.020522 0.479160 0.102642
0.020780 0.479418 0.161012
0.021041 0.479679 0.220091
0.021304 0.479942 0.279673
0.021569 0.480207 0.339646
0.021835 0.480473 0.399939
0.022103 0.480741 0.460503
0.022371 0.481010 0.521304
0.022641 0.481279 0.582313
0.022911 0.481549 0.643510
0.023182 0.481820 0.704876
0.023454 0.482092 0.766397
0.023726 0.482365 0.828062
0.023999 0.482638 0.889860
0.024273 0.482911 0.951781
0.024338 0.482976 0.966443
0.022933 0.542176 0.048184
0.023185 0.542428 0.105305
0.023443 0.542686 0.163675
0.023704 0.542947 0.222755
0.023967 0.543210 0.282337
0.024232 0.543475 0.342309
0.024499 0.543741 0.402602
0.024766 0.544009 0.463167
0.025035 0.544277 0.523968
0.025304 0.544547 0.584977
0.025575 0.544817 0.646173
0.025846 0.545088 0.707539
0.026117 0.545360 0.769061
0.026390 0.545632 0.830726
0.026663 0.545905 0.892523
0.026936 0.546179 0.954445
0.027001 0.546244 0.969106
0.025606 0.605652 0.050856
0.025858 0.605905 0.107978
0.026116 0.606163 0.166348
0.026377 0.606424 0.225427
0.026640 0.606687 0.285009
0.026905 0.606952 0.344982
0.027171 0.607218 0.405275
0.027439 0.607485 0.465839
0.027707 0.607754 0.526640
0.027977 0.608024 0.587649
0.028247 0.608294 0.648846
0.028518 0.608565 0.710212
0.028790 0.608837 0.771733
0.029062 0.609109 0.833398
0.029335 0.609382 0.895196
0.029609 0.609656 0.957117
0.029674 0.609720 0.971779
0.028286 0.669317 0.053537
0.028538 0.669570 0.110658
0.028796 0.669827 0.169028
0.029057 0.670088 0.228107
0.029320 0.670352 0.287689
0.029585 0.670616 0.347662
0.029851 0.670883 0.407955
0.030119 0.671150 0.468520
0.030388 0.671419 0.529320
0.030657 0.671688 0.590329
0.030927 0.671959 0.651526
0.031198 0.672230 0.712892
0.031470 0.672502 0.774414
0.031743 0.672774 0.836078
0.032016 0.673047 0.897876
0.032289 0.673320 0.959797
0.032354 0.673385 0.974459
0.030973 0.733153 0.056224
0.031226 0.733405 0.113345
0.031484 0.733663 0.171716
0.031745 0.733924 0.230795
0.032008 0.734187 0.290377
0.032273 0.734452 0.350350
0.032539 0.734719 0.410643
0.032807 0.734986 0.471207
0.033075 0.735255 0.532008
0.033345 0.735524 0.593017
0.033615 0.735795 0.654213
0.033886 0.736066 0.715580
0.034158 0.736337 0.777101
0.034430 0.736610 0.838766
0.034703 0.736883 0.900563
0.034977 0.737156 0.962485
0.035041 0.737221 0.977147
0.033668 0.797146 0.058918
0.033920 0.797398 0.116040
0.034178 0.797656 0.174410
0.034439 0.797917 0.233489
0.034702 0.798180 0.293071
0.034967 0.798445 0.353044
0.035233 0.798712 0.413337
0.035501 0.798979 0.473901
0.035769 0.799248 0.534702
0.036039 0.799517 0.595711
0.036309 0.799787 0.656908
0.036580 0.800059 0.718274
0.036852 0.800330 0.779795
0.037124 0.800603 0.841460
0.037397 0.800876 0.903258
0.037671 0.801149 0.965179
0.037736 0.801214 0.979841
0.036368 0.861284 0.061619
0.036620 0.861536 0.118740
0.036878 0.861794 0.177110
0.037139 0.862055 0.236189
0.037402 0.862318 0.295771
0.037667 0.862583 0.355744
0.037933 0.862849 0.416037
0.038201 0.863117 0.476602
0.038469 0.863385 0.537402
0.038739 0.863655 0.598411
0.039009 0.863925 0.659608
0.039280 0.864196 0.720974
0.039552 0.864468 0.782496
0.039824 0.864741 0.844160
0.040097 0.865014 0.905958
0.040371 0.865287 0.967879
0.040436 0.865352 0.982541
0.039074 0.925557 0.064324
0.039326 0.925809 0.121446
0.039584 0.926067 0.179816
0.039845 0.926328 0.238895
0.040108 0.926591 0.298477
0.040373 0.926856 0.358450
0.040639 0.927122 0.418743
0.040907 0.927390 0.479307
0.041175 0.927658 0.540108
0.041445 0.927928 0.601117
0.041715 0.928198 0.662314
0.041986 0.928469 0.723680
0.042258 0.928741 0.785201
0.042530 0.929013 0.846866
0.042803 0.929286 0.908664
0.043077 0.929560 0.970585
0.043142 0.929624 0.985247
0.041518 0.983624 0.066769
0.041771 0.983876 0.123890
0.042029 0.984134 0.182260
0.042289 0.984395 0.241340
0.042553 0.984658 0.300922
0.042818 0.984923 0.360895
0.043084 0.985189 0.421188
0.043351 0.985457 0.481752
0.043620 0.985725 0.542553
0.043890 0.985995 0.603562
0.044160 0.986265 0.664758
0.044431 0.986536 0.726125
0.044703 0.986808 0.787646
0.044975 0.987080 0.849311
0.045248 0.987353 0.911108
0.045522 0.987627 0.973030
0.045586 0.987692 0.987692
0.007287 0.000205 0.025455
0.007539 0.000457 0.082577
0.007797 0.000715 0.140947
0.008058 0.000976 0.200026
0.008321 0.001239 0.259608
0.008586 0.001504 0.319581
0.008852 0.001770 0.379874
0.009120 0.002038 0.440438
0.009388 0.002306 0.501239
0.009658 0.002576 0.562248
0.009928 0.002846 0.623445
0.010199 0.003117 0.684811
0.010471 0.003389 0.746332
0.010743 0.003661 0.807997
0.011016 0.003934 0.869795
0.011290 0.004208 0.931716
0.011355 0.004273 0.946378
0.009224 0.046217 0.027392
0.009476 0.046469 0.084514
0.009734 0.046727 0.142884
0.009995 0.046988 0.201963
0.010258 0.047251 0.261545
0.010523 0.047516 0.321518
0.010789 0.047782 0.381811
0.011057 0.048050 0.442376
0.011325 0.048319 0.503176
0.011595 0.048588 0.564185
0.011865 0.048858 0.625382
0.012136 0.049129 0.686748
0.012408 0.049401 0.748269
0.012680 0.049674 0.809934
0.012953 0.049947 0.871732
0.013227 0.050220 0.933653
0.013292 0.050285 0.948315
0.011746 0.106137 0.029915
0.011999 0.106390 0.087036
0.012257 0.106647 0.145407
0.012518 0.106908 0.204486
0.012781 0.107172 0.264068
0.013046 0.107437 0.324041
0.013312 0.107703 0.384334
0.013580 0.107970 0.444898
0.013848 0.108239 0.505699
0.014118 0.108508 0.566708
0.014388 0.108779 0.627904
0.014659 0.109050 0.689271
0.014931 0.109322 0.750792
0.015203 0.109594 0.812457
0.015476 0.109867 0.874254
0.015750 0.110140 0.936176
0.015814 0.110205 0.950838
0.014312 0.167086 0.032481
0.014565 0.167338 0.089602
0.014823 0.167596 0.147972
0.015083 0.167857 0.207052
0.015347 0.168120 0.266634
0.015612 0.168385 0.326607
0.015878 0.168651 0.386900
0.016145 0.168919 0.447464
0.016414 0.169187 0.508265
0.016684 0.169457 0.569274
0.016954 0.169727 0.630470
0.017225 0.169998 0.691837
0.017497 0.170270 0.753358
0.017769 0.170542 0.815023
0.018042 0.170815 0.876820
0.018316 0.171089 0.938742
0.018380 0.171154 0.953404
0.016906 0.228681 0.035074
0.017158 0.228934 0.092195
0.017416 0.229191 0.150566
0.017677 0.229452 0.209645
0.017940 0.229716 0.269227
0.018205 0.229980 0.329200
0.018471 0.230247 0.389493
0.018739 0.230514 0.450057
0.019007 0.230783 0.510858
0.019277 0.231052 0.571867
0.019547 0.231323 0.633064
0.019818 0.231594 0.694430
0.020090 0.231866 0.755951
0.020362 0.232138 0.817616
0.020635 0.232411 0.879414
0.020909 0.232684 0.941335
0.020974 0.232749 0.955997
0.019519 0.290753 0.037688
0.019771 0.291006 0.094809
0.020029 0.291263 0.153179
0.020290 0.291524 0.212258
0.020553 0.291788 0.271840
0.020818 0.292052 0.331813
0.021084 0.292319 0.392106
0.021352 0.292586 0.452671
0.021621 0.292855 0.513471
0.021890 0.293124 0.574480
0.022160 0.293395 0.635677
0.022431 0.293666 0.697043
0.022703 0.293938 0.758565
0.022976 0.294210 0.820229
0.023249 0.294483 0.882027
0.023522 0.294756 0.943948
0.023587 0.294821 0.958610
0.022148 0.353203 0.040317
0.022400 0.353456 0.097438
0.022658 0.353714 0.155808
0.022919 0.353975 0.214888
0.023182 0.354238 0.274470
0.023447 0.354503 0.334442
0.023714 0.354769 0.394735
0.023981 0.355037 0.455300
0.024250 0.355305 0.516100
0.024519 0.355575 0.577110
0.024789 0.355845 0.638306
0.025061 0.356116 0.699672
0.025332 0.356388 0.761194
0.025605 0.356660 0.822858
0.025878 0.356933 0.884656
0.026151 0.357207 0.946577
0.026216 0.357271 0.961239
0.024790 0.415968 0.042959
0.025043 0.416220 0.100080
0.025301 0.416478 0.158451
0.025562 0.416739 0.217530
0.025825 0.417002 0.277112
0.026090 0.417267 0.337085
0.026356 0.417533 0.397378
0.026624 0.417801 0.457942
0.026892 0.418069 0.518743
0.027162 0.418339 0.579752
0.027432 0.418609 0.640948
0.027703 0.418880 0.702315
0.027975 0.419152 0.763836
0.028247 0.419424 0.825501
0.028520 0.419697 0.887298
0.028794 0.419971 0.949220
0.028858 0.420036 0.963882
0.027444 0.479000 0.045613
0.027696 0.479253 0.102734
0.027954 0.479511 0.161104
0.028215 0.479772 0.220184
0.028478 0.480035 0.279766
0.028743 0.480300 0.339738
0.029010 0.480566 0.400031
0.029277 0.480833 0.460596
0.029546 0.481102 0.521396
0.029815 0.481372 0.582406
0.030086 0.481642 0.643602
0.030357 0.481913 0.704968
0.030628 0.482185 0.766490
0.030901 0.482457 0.828155
0.031174 0.482730 0.889952
0.031447 0.483004 0.951873
0.031512 0.483068 0.966535
0.030108 0.542268 0.048277
0.030360 0.542521 0.105398
0.030618 0.542778 0.163768
0.030879 0.543039 0.222847
0.031142 0.543303 0.282429
0.031407 0.543567 0.342402
0.031673 0.543834 0.402695
0.031941 0.544101 0.463260
0.032209 0.544370 0.524060
0.032479 0.544639 0.585069
0.032749 0.544910 0.646266
0.033020 0.545181 0.707632
0.033292 0.545453 0.769153
0.033564 0.545725 0.830818
0.033837 0.545998 0.892616
0.034111 0.546271 0.954537
0.034176 0.546336 0.969199
0.032780 0.605745 0.050949
0.033032 0.605997 0.108070
0.033290 0.606255 0.166440
0.033551 0.606516 0.225520
0.033814 0.606779 0.285102
0.034079 0.607044 0.345074
0.034346 0.607310 0.405367
0.034613 0.607578 0.465932
0.034882 0.607847 0.526732
0.035151 0.608116 0.587742
0.035422 0.608386 0.648938
0.035693 0.608657 0.710304
0.035964 0.608929 0.771826
0.036237 0.609202 0.833491
0.036510 0.609475 0.895288
0.036783 0.609748 0.957210
0.036848 0.609813 0.971871
0.035460 0.669410 0.053629
0.035713 0.669662 0.110750
0.035971 0.669920 0.169121
0.036232 0.670181 0.228200
0.036495 0.670444 0.287782
0.036760 0.670709 0.347755
0.037026 0.670975 0.408048
0.037294 0.671243 0.468612
0.037562 0.671511 0.529413
0.037832 0.671781 0.590422
0.038102 0.672051 0.651618
0.038373 0.672322 0.712985
0.038645 0.672594 0.774506
0.038917 0.672866 0.836171
0.039190 0.673139 0.897968
0.039464 0.673413 0.959890
0.039528 0.673478 0.974552
0.038148 0.733246 0.056317
0.038400 0.733498 0.113438
0.038658 0.733756 0.171808
0.038919 0.734017 0.230888
0.039182 0.734280 0.290470
0.039447 0.734545 0.350442
0.039714 0.734811 0.410735
0.039981 0.735079 0.471300
0.040250 0.735347 0.532100
0.040519 0.735617 0.593110
0.040789 0.735887 0.654306
0.041061 0.736158 0.715672
0.041332 0.736430 0.777194
0.041605 0.736702 0.838858
0.041878 0.736975 0.900656
0.042151 0.737249 0.962577
0.042216 0.737314 0.977239
0.040842 0.797238 0.059011
0.041094 0.797491 0.116132
0.041352 0.797749 0.174502
0.041613 0.798010 0.233582
0.041876 0.798273 0.293164
0.042141 0.798538 0.353136
0.042408 0.798804 0.413429
0.042675 0.799072 0.473994
0.042944 0.799340 0.534794
0.043213 0.799610 0.595804
0.043484 0.799880 0.657000
0.043755 0.800151 0.718366
0.044026 0.800423 0.779888
0.044299 0.800695 0.841553
0.044572 0.800968 0.903350
0.044845 0.801242 0.965271
0.044910 0.801306 0.979933
0.043542 0.861376 0.061711
0.043795 0.861629 0.118832
0.044053 0.861887 0.177202
0.044313 0.862147 0.236282
0.044577 0.862411 0.295864
0.044842 0.862676 0.355837
0.045108 0.862942 0.416130
0.045375 0.863209 0.476694
0.045644 0.863478 0.537495
0.045914 0.863748 0.598504
0.046184 0.864018 0.659700
0.046455 0.864289 0.721067
0.046727 0.864561 0.782588
0.046999 0.864833 0.844253
0.047272 0.865106 0.906050
0.047546 0.865380 0.967972
0.047610 0.865444 0.982634
0.046248 0.925649 0.064417
0.046501 0.925901 0.121538
0.046758 0.926159 0.179908
0.047019 0.926420 0.238988
0.047283 0.926683 0.298570
0.047547 0.926948 0.358543
0.047814 0.927215 0.418835
0.048081 0.927482 0.479400
0.048350 0.927751 0.540201
0.048619 0.928020 0.601210
0.048890 0.928291 0.662406
0.049161 0.928562 0.723772
0.049433 0.928833 0.785294
0.049705 0.929106 0.846959
0.049978 0.929379 0.908756
0.050251 0.929652 0.970678
0.050316 0.929717 0.985339
0.048693 0.983716 0.066862
0.048945 0.983968 0.123983
0.049203 0.984226 0.182353
0.049464 0.984487 0.241432
0.049727 0.984750 0.301014
0.049992 0.985015 0.360987
0.050258 0.985282 0.421280
0.050526 0.985549 0.481845
0.050795 0.985818 0.542645
0.051064 0.986087 0.603654
0.051334 0.986358 0.664851
0.051605 0.986629 0.726217
0.051877 0.986900 0.787739
0.052150 0.987173 0.849403
0.052423 0.987446 0.911201
0.052696 0.987719 0.973122
0.052761 0.987784 0.987784
0.064073 0.000937 0.026188
0.064325 0.001189 0.083309
0.064583 0.001447 0.141679
0.064844 0.001708 0.200758
0.065107 0.001971 0.260340
0.065372 0.002236 0.320313
0.065638 0.002502 0.380606
0.065906 0.002770 0.441171
0.066174 0.003039 0.501971
0.066444 0.003308 0.562980
0.066714 0.003578 0.624177
0.066985 0.003849 0.685543
0.067257 0.004121 0.747065
0.067529 0.004394 0.808729
0.067802 0.004667 0.870527
0.068076 0.004940 0.932448
0.068141 0.005005 0.947110
0.066010 0.046949 0.028125
0.066262 0.047202 0.085246
0.066520 0.047459 0.143616
0.066781 0.047720 0.202696
0.067044 0.047984 0.262278
0.067309 0.048248 0.322250
0.067575 0.048515 0.382543
0.067843 0.048782 0.443108
0.068112 0.049051 0.503908
0.068381 0.049320 0.564918
0.068651 0.049591 0.626114
0.068922 0.049862 0.687480
0.069194 0.050134 0.749002
0.069467 0.050406 0.810667
0.069740 0.050679 0.872464
0.070013 0.050952 0.934385
0.070078 0.051017 0.949047
0.068533 0.106870 0.030648
0.068785 0.107122 0.087769
0.069043 0.107380 0.146139
0.069304 0.107641 0.205218
0.069567 0.107904 0.264800
0.069832 0.108169 0.324773
0.070098 0.108435 0.385066
0.070366 0.108703 0.445631
0.070634 0.108971 0.506431
0.070904 0.109241 0.567440
0.071174 0.109511 0.628637
0.071445 0.109782 0.690003
0.071717 0.110054 0.751524
0.071989 0.110326 0.813189
0.072262 0.110599 0.874987
0.072536 0.110873 0.936908
0.072601 0.110938 0.951570
0.071099 0.167818 0.033213
0.071351 0.168070 0.090335
0.071609 0.168328 0.148705
0.071870 0.168589 0.207784
0.072133 0.168852 0.267366
0.072398 0.169117 0.327339
0.072664 0.169384 0.387632
0.072932 0.169651 0.448196
0.073200 0.169920 0.508997
0.073470 0.170189 0.570006
0.073740 0.170459 0.631203
0.074011 0.170730 0.692569
0.074283 0.171002 0.754090
0.074555 0.171275 0.815755
0.074828 0.171548 0.877553
0.075102 0.171821 0.939474
0.075166 0.171886 0.954136
0.073692 0.229414 0.035807
0.073944 0.229666 0.092928
0.074202 0.229924 0.151298
0.074463 0.230185 0.210377
0.074726 0.230448 0.269959
0.074991 0.230713 0.329932
0.075257 0.230979 0.390225
0.075525 0.231247 0.450790
0.075793 0.231515 0.511590
0.076063 0.231785 0.572599
0.076333 0.232055 0.633796
0.076604 0.232326 0.695162
0.076876 0.232598 0.756684
0.077148 0.232870 0.818348
0.077421 0.233143 0.880146
0.077695 0.233417 0.942067
0.077760 0.233481 0.956729
0.076305 0.291486 0.038420
0.076557 0.291738 0.095541
0.076815 0.291996 0.153911
0.077076 0.292257 0.212991
0.077339 0.292520 0.272573
0.077604 0.292785 0.332545
0.077871 0.293051 0.392838
0.078138 0.293319 0.453403
0.078407 0.293587 0.514203
0.078676 0.293857 0.575213
0.078946 0.294127 0.636409
0.079218 0.294398 0.697775
0.079489 0.294670 0.759297
0.079762 0.294942 0.820962
0.080035 0.295215 0.882759
0.080308 0.295489 0.944681
0.080373 0.295554 0.959342
0.078934 0.353936 0.041049
0.079186 0.354188 0.098170
0.079444 0.354446 0.156540
0.079705 0.354707 0.215620
0.079968 0.354970 0.275202
0.080233 0.355235 0.335175
0.080500 0.355501 0.395468
0.080767 0.355769 0.456032
0.081036 0.356037 0.516833
0.081305 0.356307 0.577842
0.081576 0.356577 0.639038
0.081847 0.356848 0.700405
0.082118 0.357120 0.761926
0.082391 0.357392 0.823591
0.082664 0.357665 0.885388
0.082937 0.357939 0.947310
0.083002 0.358004 0.961972
0.081577 0.416700 0.043692
0.081829 0.416952 0.100813
0.082087 0.417210 0.159183
0.082348 0.417471 0.218262
0.082611 0.417734 0.277844
0.082876 0.417999 0.337817
0.083142 0.418265 0.398110
0.083410 0.418533 0.458675
0.083678 0.418802 0.519475
0.083948 0.419071 0.580484
0.084218 0.419341 0.641681
0.084489 0.419612 0.703047
0.084761 0.419884 0.764568
0.085033 0.420157 0.826233
0.085306 0.420430 0.888031
0.085580 0.420703 0.949952
0.085645 0.420768 0.964614
0.084230 0.479733 0.046345
0.084483 0.479985 0.103466
0.084740 0.480243 0.161837
0.085001 0.480504 0.220916
0.085265 0.480767 0.280498
0.085530 0.481032 0.340471
0.085796 0.481298 0.400764
0.086063 0.481566 0.461328
0.086332 0.481834 0.522129
0.086601 0.482104 0.583138
0.086872 0.482374 0.644334
0.087143 0.482645 0.705701
0.087415 0.482917 0.767222
0.087687 0.483189 0.828887
0.087960 0.483462 0.890684
0.088233 0.483736 0.952606
0.088298 0.483801 0.967268
0.086894 0.543001 0.049009
0.087146 0.543253 0.106130
0.087404 0.543511 0.164500
0.087665 0.543772 0.223580
0.087928 0.544035 0.283162
0.088193 0.544300 0.343134
0.088459 0.544566 0.403427
0.088727 0.544834 0.463992
0.088996 0.545102 0.524792
0.089265 0.545372 0.585802
0.089535 0.545642 0.646998
0.089806 0.545913 0.708364
0.090078 0.546185 0.769886
0.090351 0.546457 0.831551
0.090624 0.546730 0.893348
0.090897 0.547004 0.955269
0.090962 0.547069 0.969931
0.089566 0.606477 0.051681
0.089819 0.606730 0.108802
0.090076 0.606987 0.167173
0.090337 0.607248 0.226252
0.090601 0.607512 0.285834
0.090866 0.607776 0.345807
0.091132 0.608043 0.406100
0.091399 0.608310 0.466664
0.091668 0.608579 0.527465
0.091937 0.608848 0.588474
0.092208 0.609119 0.649670
0.092479 0.609390 0.711037
0.092751 0.609662 0.772558
0.093023 0.609934 0.834223
0.093296 0.610207 0.896020
0.093570 0.610480 0.957942
0.093634 0.610545 0.972604
0.092247 0.670142 0.054362
0.092499 0.670394 0.111483
0.092757 0.670652 0.169853
0.093018 0.670913 0.228932
0.093281 0.671176 0.288514
0.093546 0.671441 0.348487
0.093812 0.671708 0.408780
0.094080 0.671975 0.469345
0.094348 0.672244 0.530145
0.094618 0.672513 0.591154
0.094888 0.672784 0.652351
0.095159 0.673055 0.713717
0.095431 0.673326 0.775239
0.095703 0.673599 0.836903
0.095976 0.673872 0.898701
0.096250 0.674145 0.960622
0.096315 0.674210 0.975284
0.094934 0.733978 0.057049
0.095186 0.734230 0.114170
0.095444 0.734488 0.172540
0.095705 0.734749 0.231620
0.095968 0.735012 0.291202
0.096233 0.735277 0.351175
0.096500 0.735544 0.411468
0.096767 0.735811 0.472032
0.097036 0.736080 0.532833
0.097305 0.736349 0.593842
0.097576 0.736619 0.655038
0.097847 0.736890 0.716405
0.098118 0.737162 0.777926
0.098391 0.737435 0.839591
0.098664 0.737708 0.901388
0.098937 0.737981 0.963310
0.099002 0.738046 0.977972
0.097628 0.797971 0.059743
0.097881 0.798223 0.116864
0.098138 0.798481 0.175235
0.098399 0.798742 0.234314
0.098663 0.799005 0.293896
0.098928 0.799270 0.353869
0.099194 0.799536 0.414162
0.099461 0.799804 0.474726
0.099730 0.800072 0.535527
0.099999 0.800342 0.596536
0.100270 0.800612 0.657732
0.100541 0.800883 0.719099
0.100813 0.801155 0.780620
0.101085 0.801428 0.842285
0.101358 0.801700 0.904082
0.101631 0.801974 0.966004
0.101696 0.802039 0.980666
0.100329 0.862109 0.062443
0.100581 0.862361 0.119565
0.100839 0.862619 0.177935
0.101100 0.862880 0.237014
0.101363 0.863143 0.296596
0.101628 0.863408 0.356569
0.101894 0.863674 0.416862
0.102162 0.863942 0.477426
0.102430 0.864210 0.538227
0.102700 0.864480 0.599236
0.102970 0.864750 0.660433
0.103241 0.865021 0.721799
0.103513 0.865293 0.783320
0.103785 0.865565 0.844985
0.104058 0.865838 0.906783
0.104332 0.866112 0.968704
0.104396 0.866177 0.983366
0.103034 0.926381 0.065149
0.103287 0.926634 0.122271
0.103545 0.926892 0.180641
0.103806 0.927152 0.239720
0.104069 0.927416 0.299302
0.104334 0.927681 0.359275
0.104600 0.927947 0.419568
0.104868 0.928214 0.480132
0.105136 0.928483 0.540933
0.105406 0.928753 0.601942
0.105676 0.929023 0.663139
0.105947 0.929294 0.724505
0.106219 0.929566 0.786026
0.106491 0.929838 0.847691
0.106764 0.930111 0.909489
0.107038 0.930385 0.971410
0.107102 0.930449 0.986072
0.105479 0.984448 0.067594
0.105731 0.984701 0.124715
0.105989 0.984959 0.183085
0.106250 0.985220 0.242165
0.106513 0.985483 0.301747
0.106778 0.985748 0.361720
0.107045 0.986014 0.422012
0.107312 0.986282 0.482577
0.107581 0.986550 0.543378
0.107850 0.986820 0.604387
0.108121 0.987090 0.665583
0.108392 0.987361 0.726949
0.108663 0.987633 0.788471
0.108936 0.987905 0.850136
0.109209 0.988178 0.911933
0.109482 0.988452 0.973855
0.109547 0.988516 0.988516
0.122623 0.001692 0.026943
0.122875 0.001944 0.084064
0.123133 0.002202 0.142434
0.123394 0.002463 0.201514
0.123657 0.002726 0.261096
0.123922 0.002991 0.321068
0.124189 0.003258 0.381361
0.124456 0.003525 0.441926
0.124725 0.003794 0.502726
0.124994 0.004063 0.563736
0.125265 0.004333 0.624932
0.125536 0.004605 0.686298
0.125807 0.004876 0.747820
0.126080 0.005149 0.809484
0.126353 0.005422 0.871282
0.126626 0.005695 0.933203
0.126691 0.005760 0.947865
0.124560 0.047704 0.028880
