skills/editops-orchestrator/assets/grade/luts/cool_tech_v10.cube
TITLE "cool_tech_v10"
LUT_3D_SIZE 17
DOMAIN_MIN 0.0 0.0 0.0
DOMAIN_MAX 1.0 1.0 1.0
0.000079 0.000079 0.021529
0.000290 0.000290 0.079284
0.000506 0.000506 0.138168
0.000724 0.000724 0.197670
0.000943 0.000943 0.257606
0.001164 0.001164 0.317875
0.001385 0.001385 0.378418
0.001608 0.001608 0.439191
0.001831 0.001831 0.500165
0.002055 0.002055 0.561315
0.002279 0.002279 0.622623
0.002504 0.002504 0.684075
0.002729 0.002729 0.745658
0.002955 0.002955 0.807361
0.003182 0.003182 0.869176
0.003408 0.003408 0.931095
0.003496 0.003496 0.955075
0.001817 0.049589 0.023267
0.002029 0.049800 0.081023
0.002244 0.050016 0.139906
0.002462 0.050233 0.199409
0.002681 0.050453 0.259344
0.002902 0.050673 0.319614
0.003124 0.050895 0.380156
0.003346 0.051117 0.440930
0.003569 0.051341 0.501903
0.003793 0.051564 0.563054
0.004018 0.051789 0.624362
0.004243 0.052014 0.685814
0.004468 0.052239 0.747396
0.004694 0.052465 0.809099
0.004920 0.052691 0.870914
0.005147 0.052918 0.932833
0.005235 0.053006 0.956813
0.003935 0.109882 0.025385
0.004146 0.110094 0.083140
0.004362 0.110309 0.142024
0.004579 0.110527 0.201526
0.004799 0.110747 0.261461
0.005019 0.110967 0.321731
0.005241 0.111189 0.382274
0.005463 0.111411 0.443047
0.005687 0.111634 0.504021
0.005910 0.111858 0.565171
0.006135 0.112083 0.626479
0.006360 0.112308 0.687931
0.006585 0.112533 0.749513
0.006811 0.112759 0.811216
0.007037 0.112985 0.873031
0.007264 0.113212 0.934950
0.007352 0.113300 0.958931
0.006081 0.171014 0.027531
0.006293 0.171226 0.085287
0.006508 0.171441 0.144170
0.006726 0.171659 0.203673
0.006945 0.171879 0.263608
0.007166 0.172099 0.323878
0.007388 0.172321 0.384420
0.007610 0.172543 0.445194
0.007833 0.172766 0.506167
0.008057 0.172990 0.567317
0.008281 0.173215 0.628626
0.008506 0.173440 0.690077
0.008732 0.173665 0.751660
0.008958 0.173891 0.813363
0.009184 0.174117 0.875178
0.009411 0.174344 0.937097
0.009498 0.174432 0.961077
0.008247 0.232679 0.029697
0.008458 0.232890 0.087452
0.008674 0.233106 0.146336
0.008891 0.233324 0.205838
0.009111 0.233543 0.265773
0.009331 0.233764 0.326043
0.009553 0.233985 0.386586
0.009775 0.234208 0.447359
0.009999 0.234431 0.508333
0.010222 0.234655 0.569483
0.010447 0.234879 0.630791
0.010672 0.235104 0.692243
0.010897 0.235330 0.753825
0.011123 0.235555 0.815528
0.011349 0.235782 0.877343
0.011576 0.236008 0.939262
0.011664 0.236096 0.963243
0.010426 0.294737 0.031876
0.010637 0.294948 0.089631
0.010853 0.295164 0.148515
0.011070 0.295382 0.208017
0.011290 0.295601 0.267952
0.011510 0.295822 0.328222
0.011732 0.296043 0.388765
0.011955 0.296266 0.449538
0.012178 0.296489 0.510512
0.012402 0.296713 0.571662
0.012626 0.296937 0.632970
0.012851 0.297162 0.694422
0.013076 0.297388 0.756004
0.013302 0.297614 0.817708
0.013528 0.297840 0.879523
0.013755 0.298066 0.941442
0.013843 0.298154 0.965422
0.012616 0.357108 0.034066
0.012827 0.357319 0.091821
0.013043 0.357535 0.150705
0.013261 0.357753 0.210207
0.013480 0.357972 0.270143
0.013701 0.358193 0.330412
0.013922 0.358414 0.390955
0.014145 0.358637 0.451728
0.014368 0.358860 0.512702
0.014592 0.359084 0.573852
0.014816 0.359308 0.635160
0.015041 0.359533 0.696612
0.015267 0.359758 0.758195
0.015492 0.359984 0.819898
0.015719 0.360211 0.881713
0.015945 0.360437 0.943632
0.016033 0.360525 0.967612
0.014815 0.419739 0.036265
0.015027 0.419950 0.094020
0.015242 0.420166 0.152904
0.015460 0.420383 0.212407
0.015679 0.420603 0.272342
0.015900 0.420823 0.332612
0.016122 0.421045 0.393154
0.016344 0.421267 0.453928
0.016567 0.421491 0.514901
0.016791 0.421714 0.576051
0.017015 0.421939 0.637360
0.017240 0.422164 0.698811
0.017466 0.422389 0.760394
0.017692 0.422615 0.822097
0.017918 0.422841 0.883912
0.018145 0.423068 0.945831
0.018232 0.423156 0.969811
0.017022 0.482592 0.038472
0.017234 0.482803 0.096228
0.017449 0.483019 0.155111
0.017667 0.483237 0.214614
0.017886 0.483456 0.274549
0.018107 0.483677 0.334819
0.018329 0.483898 0.395361
0.018551 0.484121 0.456135
0.018774 0.484344 0.517108
0.018998 0.484568 0.578259
0.019223 0.484792 0.639567
0.019447 0.485017 0.701018
0.019673 0.485243 0.762601
0.019899 0.485468 0.824304
0.020125 0.485695 0.886119
0.020352 0.485921 0.948038
0.020439 0.486009 0.972018
0.019236 0.545640 0.040686
0.019448 0.545851 0.098442
0.019663 0.546067 0.157325
0.019881 0.546285 0.216828
0.020100 0.546504 0.276763
0.020321 0.546725 0.337033
0.020543 0.546946 0.397575
0.020765 0.547169 0.458349
0.020988 0.547392 0.519322
0.021212 0.547616 0.580472
0.021436 0.547840 0.641781
0.021661 0.548065 0.703232
0.021887 0.548290 0.764815
0.022113 0.548516 0.826518
0.022339 0.548743 0.888333
0.022566 0.548969 0.950252
0.022653 0.549057 0.974232
0.021456 0.608861 0.042906
0.021668 0.609072 0.100662
0.021883 0.609288 0.159545
0.022101 0.609506 0.219048
0.022320 0.609725 0.278983
0.022541 0.609946 0.339253
0.022763 0.610167 0.399795
0.022985 0.610390 0.460569
0.023208 0.610613 0.521542
0.023432 0.610837 0.582692
0.023656 0.611061 0.644001
0.023881 0.611286 0.705452
0.024107 0.611512 0.767035
0.024333 0.611737 0.828738
0.024559 0.611964 0.890553
0.024786 0.612190 0.952472
0.024873 0.612278 0.976452
0.023682 0.672238 0.045132
0.023893 0.672449 0.102887
0.024109 0.672665 0.161771
0.024326 0.672883 0.221273
0.024546 0.673102 0.281208
0.024766 0.673323 0.341478
0.024988 0.673544 0.402021
0.025210 0.673767 0.462794
0.025434 0.673990 0.523768
0.025658 0.674214 0.584918
0.025882 0.674438 0.646226
0.026107 0.674663 0.707678
0.026332 0.674888 0.769260
0.026558 0.675114 0.830964
0.026784 0.675341 0.892778
0.027011 0.675567 0.954698
0.027099 0.675655 0.978678
0.025912 0.735756 0.047362
0.026124 0.735968 0.105117
0.026339 0.736183 0.164001
0.026557 0.736401 0.223504
0.026776 0.736621 0.283439
0.026997 0.736841 0.343709
0.027218 0.737063 0.404251
0.027441 0.737285 0.465025
0.027664 0.737508 0.525998
0.027888 0.737732 0.587148
0.028112 0.737957 0.648457
0.028337 0.738182 0.709908
0.028563 0.738407 0.771491
0.028789 0.738633 0.833194
0.029015 0.738859 0.895009
0.029242 0.739086 0.956928
0.029329 0.739174 0.980908
0.028147 0.799405 0.049597
0.028359 0.799617 0.107352
0.028574 0.799832 0.166236
0.028792 0.800050 0.225739
0.029011 0.800269 0.285674
0.029232 0.800490 0.345944
0.029454 0.800712 0.406486
0.029676 0.800934 0.467260
0.029899 0.801157 0.528233
0.030123 0.801381 0.589383
0.030347 0.801605 0.650692
0.030572 0.801830 0.712143
0.030798 0.802056 0.773726
0.031024 0.802282 0.835429
0.031250 0.802508 0.897244
0.031477 0.802735 0.959163
0.031564 0.802822 0.983143
0.030386 0.863174 0.051836
0.030598 0.863385 0.109592
0.030813 0.863601 0.168476
0.031031 0.863819 0.227978
0.031251 0.864038 0.287913
0.031471 0.864259 0.348183
0.031693 0.864480 0.408726
0.031915 0.864703 0.469499
0.032138 0.864926 0.530472
0.032362 0.865150 0.591623
0.032587 0.865374 0.652931
0.032812 0.865599 0.714383
0.033037 0.865825 0.775965
0.033263 0.866050 0.837668
0.033489 0.866277 0.899483
0.033716 0.866503 0.961402
0.033804 0.866591 0.985383
0.032630 0.927055 0.054080
0.032841 0.927266 0.111835
0.033056 0.927481 0.170719
0.033274 0.927699 0.230221
0.033494 0.927919 0.290156
0.033714 0.928139 0.350426
0.033936 0.928361 0.410969
0.034158 0.928583 0.471742
0.034382 0.928807 0.532716
0.034605 0.929030 0.593866
0.034830 0.929255 0.655174
0.035055 0.929480 0.716626
0.035280 0.929705 0.778208
0.035506 0.929931 0.839911
0.035732 0.930157 0.901726
0.035959 0.930384 0.963645
0.036047 0.930472 0.987626
0.034710 0.986288 0.056160
0.034921 0.986500 0.113915
0.035136 0.986715 0.172799
0.035354 0.986933 0.232301
0.035574 0.987153 0.292236
0.035794 0.987373 0.352506
0.036016 0.987595 0.413049
0.036238 0.987817 0.473822
0.036462 0.988041 0.534796
0.036685 0.988264 0.595946
0.036910 0.988489 0.657254
0.037135 0.988714 0.718706
0.037360 0.988939 0.780288
0.037586 0.989165 0.841991
0.037812 0.989391 0.903806
0.038039 0.989618 0.965725
0.038127 0.989706 0.989706
0.017325 0.000263 0.021713
0.017537 0.000475 0.079469
0.017752 0.000690 0.138353
0.017970 0.000908 0.197855
0.018189 0.001128 0.257790
0.018410 0.001348 0.318060
0.018632 0.001570 0.378603
0.018854 0.001792 0.439376
0.019077 0.002015 0.500349
0.019301 0.002239 0.561500
0.019525 0.002464 0.622808
0.019750 0.002689 0.684260
0.019976 0.002914 0.745842
0.020202 0.003140 0.807545
0.020428 0.003366 0.869360
0.020655 0.003593 0.931279
0.020742 0.003681 0.955260
0.019064 0.049773 0.023452
0.019275 0.049985 0.081207
0.019491 0.050200 0.140091
0.019708 0.050418 0.199593
0.019928 0.050637 0.259529
0.020148 0.050858 0.319798
0.020370 0.051080 0.380341
0.020593 0.051302 0.441115
0.020816 0.051525 0.502088
0.021040 0.051749 0.563238
0.021264 0.051973 0.624547
0.021489 0.052198 0.685998
0.021714 0.052424 0.747581
0.021940 0.052650 0.809284
0.022166 0.052876 0.871099
0.022393 0.053103 0.933018
0.022481 0.053190 0.956998
0.021181 0.110067 0.025569
0.021392 0.110278 0.083324
0.021608 0.110494 0.142208
0.021826 0.110712 0.201711
0.022045 0.110931 0.261646
0.022266 0.111152 0.321916
0.022487 0.111373 0.382458
0.022710 0.111596 0.443232
0.022933 0.111819 0.504205
0.023157 0.112043 0.565355
0.023381 0.112267 0.626664
0.023606 0.112492 0.688115
0.023832 0.112718 0.749698
0.024057 0.112944 0.811401
0.024284 0.113170 0.873216
0.024510 0.113396 0.935135
0.024598 0.113484 0.959115
0.023328 0.171199 0.027716
0.023539 0.171410 0.085471
0.023754 0.171626 0.144355
0.023972 0.171844 0.203857
0.024192 0.172063 0.263793
0.024412 0.172284 0.324062
0.024634 0.172505 0.384605
0.024856 0.172728 0.445378
0.025080 0.172951 0.506352
0.025303 0.173175 0.567502
0.025528 0.173399 0.628810
0.025753 0.173624 0.690262
0.025978 0.173850 0.751845
0.026204 0.174075 0.813548
0.026430 0.174302 0.875363
0.026657 0.174528 0.937282
0.026745 0.174616 0.961262
0.025493 0.232864 0.029881
0.025704 0.233075 0.087636
0.025920 0.233291 0.146520
0.026138 0.233508 0.206023
0.026357 0.233728 0.265958
0.026578 0.233948 0.326228
0.026799 0.234170 0.386770
0.027022 0.234392 0.447544
0.027245 0.234616 0.508517
0.027469 0.234839 0.569667
0.027693 0.235064 0.630976
0.027918 0.235289 0.692427
0.028144 0.235514 0.754010
0.028369 0.235740 0.815713
0.028596 0.235966 0.877528
0.028822 0.236193 0.939447
0.028910 0.236281 0.963427
0.027672 0.294922 0.032060
0.027883 0.295133 0.089816
0.028099 0.295349 0.148699
0.028317 0.295566 0.208202
0.028536 0.295786 0.268137
0.028757 0.296006 0.328407
0.028978 0.296228 0.388949
0.029201 0.296450 0.449723
0.029424 0.296674 0.510696
0.029648 0.296897 0.571847
0.029872 0.297122 0.633155
0.030097 0.297347 0.694607
0.030323 0.297572 0.756189
0.030549 0.297798 0.817892
0.030775 0.298024 0.879707
0.031001 0.298251 0.941626
0.031089 0.298339 0.965606
0.029862 0.357292 0.034250
0.030074 0.357504 0.092006
0.030289 0.357719 0.150890
0.030507 0.357937 0.210392
0.030726 0.358157 0.270327
0.030947 0.358377 0.330597
0.031169 0.358599 0.391140
0.031391 0.358821 0.451913
0.031614 0.359044 0.512887
0.031838 0.359268 0.574037
0.032062 0.359493 0.635345
0.032287 0.359718 0.696797
0.032513 0.359943 0.758379
0.032739 0.360169 0.820082
0.032965 0.360395 0.881897
0.033192 0.360622 0.943816
0.033279 0.360710 0.967797
0.032061 0.419923 0.036450
0.032273 0.420135 0.094205
0.032488 0.420350 0.153089
0.032706 0.420568 0.212591
0.032926 0.420787 0.272526
0.033146 0.421008 0.332796
0.033368 0.421230 0.393339
0.033590 0.421452 0.454112
0.033814 0.421675 0.515086
0.034037 0.421899 0.576236
0.034262 0.422123 0.637544
0.034487 0.422348 0.698996
0.034712 0.422574 0.760578
0.034938 0.422800 0.822282
0.035164 0.423026 0.884097
0.035391 0.423253 0.946016
0.035479 0.423340 0.969996
0.034269 0.482776 0.038657
0.034480 0.482988 0.096412
0.034696 0.483203 0.155296
0.034913 0.483421 0.214798
0.035133 0.483641 0.274734
0.035353 0.483861 0.335003
0.035575 0.484083 0.395546
0.035797 0.484305 0.456319
0.036021 0.484528 0.517293
0.036244 0.484752 0.578443
0.036469 0.484977 0.639751
0.036694 0.485202 0.701203
0.036919 0.485427 0.762786
0.037145 0.485653 0.824489
0.037371 0.485879 0.886304
0.037598 0.486106 0.948223
0.037686 0.486194 0.972203
0.036483 0.545824 0.040871
0.036694 0.546036 0.098626
0.036909 0.546251 0.157510
0.037127 0.546469 0.217012
0.037347 0.546689 0.276948
0.037567 0.546909 0.337217
0.037789 0.547131 0.397760
0.038011 0.547353 0.458533
0.038235 0.547576 0.519507
0.038458 0.547800 0.580657
0.038683 0.548025 0.641965
0.038908 0.548250 0.703417
0.039133 0.548475 0.764999
0.039359 0.548701 0.826703
0.039585 0.548927 0.888518
0.039812 0.549154 0.950437
0.039900 0.549242 0.974417
0.038703 0.609045 0.043091
0.038914 0.609257 0.100846
0.039129 0.609472 0.159730
0.039347 0.609690 0.219232
0.039567 0.609910 0.279168
0.039787 0.610130 0.339437
0.040009 0.610352 0.399980
0.040231 0.610574 0.460753
0.040455 0.610797 0.521727
0.040678 0.611021 0.582877
0.040903 0.611246 0.644185
0.041128 0.611471 0.705637
0.041353 0.611696 0.767219
0.041579 0.611922 0.828923
0.041805 0.612148 0.890738
0.042032 0.612375 0.952657
0.042120 0.612463 0.976637
0.040928 0.672422 0.045316
0.041139 0.672634 0.103072
0.041355 0.672849 0.161955
0.041573 0.673067 0.221458
0.041792 0.673286 0.281393
0.042013 0.673507 0.341663
0.042234 0.673729 0.402205
0.042457 0.673951 0.462979
0.042680 0.674174 0.523952
0.042904 0.674398 0.585102
0.043128 0.674623 0.646411
0.043353 0.674848 0.707862
0.043579 0.675073 0.769445
0.043804 0.675299 0.831148
0.044031 0.675525 0.892963
0.044257 0.675752 0.954882
0.044345 0.675840 0.978862
0.043158 0.735941 0.047547
0.043370 0.736152 0.105302
0.043585 0.736368 0.164186
0.043803 0.736586 0.223688
0.044023 0.736805 0.283623
0.044243 0.737026 0.343893
0.044465 0.737247 0.404436
0.044687 0.737470 0.465209
0.044910 0.737693 0.526183
0.045134 0.737917 0.587333
0.045359 0.738141 0.648641
0.045584 0.738366 0.710093
0.045809 0.738592 0.771675
0.046035 0.738817 0.833379
0.046261 0.739044 0.895193
0.046488 0.739270 0.957113
0.046576 0.739358 0.981093
0.045393 0.799590 0.049782
0.045605 0.799801 0.107537
0.045820 0.800017 0.166421
0.046038 0.800234 0.225923
0.046258 0.800454 0.285858
0.046478 0.800674 0.346128
0.046700 0.800896 0.406671
0.046922 0.801119 0.467444
0.047146 0.801342 0.528418
0.047369 0.801566 0.589568
0.047594 0.801790 0.650876
0.047819 0.802015 0.712328
0.048044 0.802240 0.773910
0.048270 0.802466 0.835614
0.048496 0.802692 0.897428
0.048723 0.802919 0.959348
0.048811 0.803007 0.983328
0.047633 0.863359 0.052021
0.047844 0.863570 0.109776
0.048060 0.863786 0.168660
0.048277 0.864003 0.228162
0.048497 0.864223 0.288098
0.048717 0.864443 0.348367
0.048939 0.864665 0.408910
0.049162 0.864887 0.469684
0.049385 0.865111 0.530657
0.049609 0.865334 0.591807
0.049833 0.865559 0.653116
0.050058 0.865784 0.714567
0.050283 0.866009 0.776150
0.050509 0.866235 0.837853
0.050735 0.866461 0.899668
0.050962 0.866688 0.961587
0.051050 0.866776 0.985567
0.049876 0.927239 0.054264
0.050087 0.927451 0.112019
0.050303 0.927666 0.170903
0.050521 0.927884 0.230406
0.050740 0.928103 0.290341
0.050961 0.928324 0.350611
0.051182 0.928545 0.411153
0.051405 0.928768 0.471927
0.051628 0.928991 0.532900
0.051852 0.929215 0.594050
0.052076 0.929439 0.655359
0.052301 0.929664 0.716810
0.052527 0.929890 0.778393
0.052752 0.930116 0.840096
0.052979 0.930342 0.901911
0.053205 0.930569 0.963830
0.053293 0.930656 0.987810
0.051956 0.986473 0.056344
0.052167 0.986684 0.114099
0.052383 0.986900 0.172983
0.052601 0.987118 0.232486
0.052820 0.987337 0.292421
0.053041 0.987558 0.352691
0.053262 0.987779 0.413233
0.053485 0.988002 0.474007
0.053708 0.988225 0.534980
0.053932 0.988449 0.596130
0.054156 0.988673 0.657439
0.054381 0.988898 0.718890
0.054607 0.989124 0.780473
0.054832 0.989350 0.842176
0.055059 0.989576 0.903991
0.055285 0.989802 0.965910
0.055373 0.989890 0.989890
0.075344 0.000884 0.022334
0.075555 0.001096 0.080090
0.075771 0.001311 0.138973
0.075989 0.001529 0.198476
0.076208 0.001748 0.258411
0.076429 0.001969 0.318681
0.076650 0.002191 0.379223
0.076873 0.002413 0.439997
0.077096 0.002636 0.500970
0.077320 0.002860 0.562121
0.077544 0.003085 0.623429
0.077769 0.003310 0.684881
0.077995 0.003535 0.746463
0.078221 0.003761 0.808166
0.078447 0.003987 0.869981
0.078673 0.004214 0.931900
0.078761 0.004302 0.955880
0.077083 0.050394 0.024073
0.077294 0.050605 0.081828
0.077510 0.050821 0.140712
0.077727 0.051039 0.200214
0.077947 0.051258 0.260150
0.078167 0.051479 0.320419
0.078389 0.051700 0.380962
0.078611 0.051923 0.441735
0.078835 0.052146 0.502709
0.079058 0.052370 0.563859
0.079283 0.052594 0.625167
0.079508 0.052819 0.686619
0.079733 0.053045 0.748202
0.079959 0.053271 0.809905
0.080185 0.053497 0.871720
0.080412 0.053723 0.933639
0.080500 0.053811 0.957619
0.079200 0.110688 0.026190
0.079411 0.110899 0.083945
0.079627 0.111115 0.142829
0.079845 0.111333 0.202332
0.080064 0.111552 0.262267
0.080285 0.111773 0.322537
0.080506 0.111994 0.383079
0.080729 0.112217 0.443853
0.080952 0.112440 0.504826
0.081176 0.112664 0.565976
0.081400 0.112888 0.627285
0.081625 0.113113 0.688736
0.081850 0.113339 0.750319
0.082076 0.113564 0.812022
0.082303 0.113791 0.873837
0.082529 0.114017 0.935756
0.082617 0.114105 0.959736
0.081346 0.171820 0.028337
0.081558 0.172031 0.086092
0.081773 0.172247 0.144976
0.081991 0.172465 0.204478
0.082211 0.172684 0.264413
0.082431 0.172905 0.324683
0.082653 0.173126 0.385226
0.082875 0.173349 0.445999
0.083098 0.173572 0.506973
0.083322 0.173796 0.568123
0.083547 0.174020 0.629431
0.083772 0.174245 0.690883
0.083997 0.174471 0.752465
0.084223 0.174696 0.814169
0.084449 0.174923 0.875983
0.084676 0.175149 0.937903
0.084764 0.175237 0.961883
0.083512 0.233484 0.030502
0.083723 0.233696 0.088257
0.083939 0.233911 0.147141
0.084157 0.234129 0.206644
0.084376 0.234349 0.266579
0.084597 0.234569 0.326849
0.084818 0.234791 0.387391
0.085041 0.235013 0.448165
0.085264 0.235237 0.509138
0.085488 0.235460 0.570288
0.085712 0.235685 0.631597
0.085937 0.235910 0.693048
0.086162 0.236135 0.754631
0.086388 0.236361 0.816334
0.086615 0.236587 0.878149
0.086841 0.236814 0.940068
0.086929 0.236902 0.964048
0.085691 0.295543 0.032681
0.085902 0.295754 0.090437
0.086118 0.295969 0.149320
0.086336 0.296187 0.208823
0.086555 0.296407 0.268758
0.086776 0.296627 0.329028
0.086997 0.296849 0.389570
0.087220 0.297071 0.450344
0.087443 0.297295 0.511317
0.087667 0.297518 0.572468
0.087891 0.297743 0.633776
0.088116 0.297968 0.695227
0.088342 0.298193 0.756810
0.088567 0.298419 0.818513
0.088794 0.298645 0.880328
0.089020 0.298872 0.942247
0.089108 0.298960 0.966227
0.087881 0.357913 0.034871
0.088093 0.358125 0.092627
0.088308 0.358340 0.151511
0.088526 0.358558 0.211013
0.088745 0.358778 0.270948
0.088966 0.358998 0.331218
0.089187 0.359220 0.391761
0.089410 0.359442 0.452534
0.089633 0.359665 0.513507
0.089857 0.359889 0.574658
0.090081 0.360114 0.635966
0.090306 0.360339 0.697418
0.090532 0.360564 0.759000
0.090758 0.360790 0.820703
0.090984 0.361016 0.882518
0.091211 0.361243 0.944437
0.091298 0.361331 0.968418
0.090080 0.420544 0.037071
0.090292 0.420756 0.094826
0.090507 0.420971 0.153710
0.090725 0.421189 0.213212
0.090945 0.421408 0.273147
0.091165 0.421629 0.333417
0.091387 0.421850 0.393960
0.091609 0.422073 0.454733
0.091832 0.422296 0.515707
0.092056 0.422520 0.576857
0.092281 0.422744 0.638165
0.092506 0.422969 0.699617
0.092731 0.423195 0.761199
0.092957 0.423421 0.822903
0.093183 0.423647 0.884717
0.093410 0.423874 0.946637
0.093498 0.423961 0.970617
0.092287 0.483397 0.039278
0.092499 0.483609 0.097033
0.092714 0.483824 0.155917
0.092932 0.484042 0.215419
0.093152 0.484262 0.275355
0.093372 0.484482 0.335624
0.093594 0.484704 0.396167
0.093816 0.484926 0.456940
0.094040 0.485149 0.517914
0.094263 0.485373 0.579064
0.094488 0.485598 0.640372
0.094713 0.485823 0.701824
0.094938 0.486048 0.763407
0.095164 0.486274 0.825110
0.095390 0.486500 0.886925
0.095617 0.486727 0.948844
0.095705 0.486815 0.972824
0.094501 0.546445 0.041492
0.094713 0.546657 0.099247
0.094928 0.546872 0.158131
0.095146 0.547090 0.217633
0.095366 0.547310 0.277568
0.095586 0.547530 0.337838
0.095808 0.547752 0.398381
0.096030 0.547974 0.459154
0.096253 0.548197 0.520128
0.096477 0.548421 0.581278
0.096702 0.548646 0.642586
0.096927 0.548871 0.704038
0.097152 0.549096 0.765620
0.097378 0.549322 0.827324
0.097604 0.549548 0.889138
0.097831 0.549775 0.951058
0.097919 0.549863 0.975038
0.096721 0.609666 0.043712
0.096933 0.609878 0.101467
0.097148 0.610093 0.160351
0.097366 0.610311 0.219853
0.097586 0.610531 0.279788
0.097806 0.610751 0.340058
0.098028 0.610973 0.400601
0.098250 0.611195 0.461374
0.098473 0.611418 0.522348
0.098697 0.611642 0.583498
0.098922 0.611867 0.644806
0.099147 0.612092 0.706258
0.099372 0.612317 0.767840
0.099598 0.612543 0.829544
0.099824 0.612769 0.891358
0.100051 0.612996 0.953278
0.100139 0.613084 0.977258
0.098947 0.673043 0.045937
0.099158 0.673255 0.103693
0.099374 0.673470 0.162576
0.099592 0.673688 0.222079
0.099811 0.673907 0.282014
0.100032 0.674128 0.342284
0.100253 0.674350 0.402826
0.100476 0.674572 0.463600
0.100699 0.674795 0.524573
0.100923 0.675019 0.585723
0.101147 0.675244 0.647032
0.101372 0.675468 0.708483
0.101598 0.675694 0.770066
0.101823 0.675920 0.831769
0.102050 0.676146 0.893584
0.102276 0.676373 0.955503
0.102364 0.676460 0.979483
0.101177 0.736562 0.048168
0.101389 0.736773 0.105923
0.101604 0.736989 0.164807
0.101822 0.737207 0.224309
0.102042 0.737426 0.284244
0.102262 0.737647 0.344514
0.102484 0.737868 0.405057
0.102706 0.738091 0.465830
0.102929 0.738314 0.526804
0.103153 0.738538 0.587954
0.103378 0.738762 0.649262
0.103603 0.738987 0.710714
0.103828 0.739213 0.772296
0.104054 0.739438 0.833999
0.104280 0.739665 0.895814
0.104507 0.739891 0.957733
0.104595 0.739979 0.981714
0.103412 0.800211 0.050403
0.103624 0.800422 0.108158
0.103839 0.800638 0.167042
0.104057 0.800855 0.226544
0.104277 0.801075 0.286479
0.104497 0.801295 0.346749
0.104719 0.801517 0.407292
0.104941 0.801739 0.468065
0.105164 0.801963 0.529039
0.105388 0.802187 0.590189
0.105613 0.802411 0.651497
0.105838 0.802636 0.712949
0.106063 0.802861 0.774531
0.106289 0.803087 0.836235
0.106515 0.803313 0.898049
0.106742 0.803540 0.959969
0.106830 0.803628 0.983949
0.105652 0.863980 0.052642
0.105863 0.864191 0.110397
0.106079 0.864406 0.169281
0.106296 0.864624 0.228783
0.106516 0.864844 0.288719
0.106736 0.865064 0.348988
0.106958 0.865286 0.409531
0.107180 0.865508 0.470304
0.107404 0.865732 0.531278
0.107627 0.865955 0.592428
0.107852 0.866180 0.653736
0.108077 0.866405 0.715188
0.108302 0.866630 0.776771
0.108528 0.866856 0.838474
0.108754 0.867082 0.900289
0.108981 0.867309 0.962208
0.109069 0.867397 0.986188
0.107895 0.927860 0.054885
0.108106 0.928071 0.112640
0.108322 0.928287 0.171524
0.108540 0.928505 0.231027
0.108759 0.928724 0.290962
0.108980 0.928945 0.351232
0.109201 0.929166 0.411774
0.109424 0.929389 0.472548
0.109647 0.929612 0.533521
0.109871 0.929836 0.594671
0.110095 0.930060 0.655980
0.110320 0.930285 0.717431
0.110545 0.930511 0.779014
0.110771 0.930737 0.840717
0.110998 0.930963 0.902532
0.111224 0.931189 0.964451
0.111312 0.931277 0.988431
0.109975 0.987094 0.056965
0.110186 0.987305 0.114720
0.110402 0.987521 0.173604
0.110620 0.987739 0.233107
0.110839 0.987958 0.293042
0.111060 0.988179 0.353312
0.111281 0.988400 0.413854
0.111504 0.988623 0.474628
0.111727 0.988846 0.535601
0.111951 0.989070 0.596751
0.112175 0.989294 0.658060
0.112400 0.989519 0.719511
0.112625 0.989745 0.781094
0.112851 0.989971 0.842797
0.113078 0.990197 0.904612
0.113304 0.990423 0.966531
0.113392 0.990511 0.990511
0.134585 0.001518 0.022968
0.134796 0.001730 0.080724
0.135012 0.001945 0.139607
0.135230 0.002163 0.199110
0.135449 0.002382 0.259045
0.135670 0.002603 0.319315
0.135891 0.002825 0.379857
0.136114 0.003047 0.440631
0.136337 0.003270 0.501604
0.136561 0.003494 0.562755
0.136785 0.003719 0.624063
0.137010 0.003944 0.685515
0.137236 0.004169 0.747097
0.137462 0.004395 0.808800
0.137688 0.004621 0.870615
0.137914 0.004848 0.932534
0.138002 0.004936 0.956514
0.136324 0.051028 0.024707
