skills/editops-orchestrator/assets/grade/luts/moody_teal_v07.cube
TITLE "moody_teal_v07"
LUT_3D_SIZE 17
DOMAIN_MIN 0.0 0.0 0.0
DOMAIN_MAX 1.0 1.0 1.0
0.000000 0.000000 0.000000
0.000291 0.000291 0.048010
0.000638 0.000638 0.105305
0.000993 0.000993 0.163859
0.001353 0.001353 0.223225
0.001717 0.001717 0.283196
0.002083 0.002083 0.343650
0.002452 0.002452 0.404508
0.002823 0.002823 0.465712
0.003196 0.003196 0.527219
0.003571 0.003571 0.588998
0.003947 0.003947 0.651021
0.004324 0.004324 0.713266
0.004702 0.004702 0.775717
0.005082 0.005082 0.838356
0.005463 0.005463 0.901171
0.005624 0.005624 0.927729
0.001502 0.026361 0.001502
0.001793 0.026652 0.049512
0.002140 0.026999 0.106807
0.002495 0.027354 0.165361
0.002855 0.027714 0.224727
0.003219 0.028077 0.284698
0.003585 0.028444 0.345152
0.003954 0.028813 0.406009
0.004325 0.029184 0.467213
0.004698 0.029557 0.528721
0.005072 0.029931 0.590500
0.005448 0.030307 0.652523
0.005826 0.030685 0.714768
0.006204 0.031063 0.777218
0.006584 0.031443 0.839858
0.006965 0.031824 0.902673
0.007126 0.031985 0.929231
0.004892 0.085866 0.004892
0.005183 0.086157 0.052902
0.005531 0.086504 0.110197
0.005885 0.086859 0.168751
0.006245 0.087219 0.228117
0.006609 0.087583 0.288088
0.006975 0.087949 0.348542
0.007344 0.088318 0.409400
0.007715 0.088689 0.470604
0.008088 0.089062 0.532112
0.008463 0.089437 0.593890
0.008839 0.089813 0.655913
0.009216 0.090190 0.718159
0.009595 0.090569 0.780609
0.009974 0.090948 0.843248
0.010355 0.091329 0.906064
0.010516 0.091490 0.932621
0.008382 0.147118 0.008382
0.008673 0.147409 0.056392
0.009020 0.147756 0.113687
0.009375 0.148111 0.172241
0.009735 0.148471 0.231607
0.010099 0.148835 0.291578
0.010465 0.149201 0.352032
0.010834 0.149570 0.412889
0.011205 0.149941 0.474093
0.011578 0.150314 0.535601
0.011953 0.150689 0.597380
0.012329 0.151065 0.659403
0.012706 0.151442 0.721648
0.013084 0.151821 0.784099
0.013464 0.152200 0.846738
0.013845 0.152581 0.909553
0.014006 0.152742 0.936111
0.011929 0.209371 0.011929
0.012220 0.209662 0.059939
0.012567 0.210009 0.117234
0.012922 0.210364 0.175788
0.013282 0.210724 0.235154
0.013646 0.211087 0.295124
0.014012 0.211454 0.355579
0.014381 0.211823 0.416436
0.014752 0.212194 0.477640
0.015125 0.212567 0.539148
0.015499 0.212941 0.600927
0.015875 0.213317 0.662950
0.016253 0.213695 0.725195
0.016631 0.214073 0.787645
0.017011 0.214453 0.850285
0.017392 0.214834 0.913100
0.017553 0.214995 0.939658
0.015516 0.272335 0.015516
0.015807 0.272626 0.063526
0.016154 0.272974 0.120821
0.016509 0.273329 0.179375
0.016869 0.273689 0.238741
0.017233 0.274052 0.298712
0.017599 0.274419 0.359166
0.017968 0.274787 0.420024
0.018339 0.275158 0.481228
0.018712 0.275531 0.542735
0.019087 0.275906 0.604514
0.019463 0.276282 0.666537
0.019840 0.276659 0.728783
0.020219 0.277038 0.791233
0.020598 0.277418 0.853872
0.020979 0.277798 0.916687
0.021140 0.277959 0.943245
0.019135 0.335855 0.019135
0.019426 0.336146 0.067145
0.019773 0.336494 0.124440
0.020128 0.336849 0.182994
0.020488 0.337208 0.242360
0.020852 0.337572 0.302331
0.021218 0.337938 0.362785
0.021587 0.338307 0.423643
0.021958 0.338678 0.484847
0.022331 0.339051 0.546354
0.022706 0.339426 0.608133
0.023082 0.339802 0.670156
0.023459 0.340179 0.732402
0.023838 0.340558 0.794852
0.024217 0.340937 0.857491
0.024598 0.341318 0.920306
0.024759 0.341479 0.946864
0.022780 0.399831 0.022780
0.023071 0.400122 0.070790
0.023418 0.400470 0.128085
0.023773 0.400825 0.186639
0.024133 0.401185 0.246005
0.024497 0.401548 0.305976
0.024863 0.401915 0.366430
0.025232 0.402284 0.427288
0.025603 0.402655 0.488492
0.025976 0.403027 0.549999
0.026351 0.403402 0.611778
0.026727 0.403778 0.673801
0.027104 0.404155 0.736047
0.027483 0.404534 0.798497
0.027862 0.404914 0.861136
0.028243 0.405294 0.923951
0.028404 0.405455 0.950509
0.026447 0.464195 0.026447
0.026738 0.464486 0.074457
0.027086 0.464833 0.131752
0.027441 0.465188 0.190306
0.027800 0.465548 0.249672
0.028164 0.465912 0.309643
0.028530 0.466278 0.370097
0.028899 0.466647 0.430955
0.029270 0.467018 0.492159
0.029643 0.467391 0.553667
0.030018 0.467766 0.615445
0.030394 0.468142 0.677468
0.030771 0.468519 0.739714
0.031150 0.468898 0.802164
0.031529 0.469277 0.864803
0.031910 0.469658 0.927619
0.032071 0.469819 0.954176
0.030133 0.528896 0.030133
0.030425 0.529187 0.078144
0.030772 0.529535 0.135439
0.031127 0.529890 0.193992
0.031487 0.530249 0.253358
0.031850 0.530613 0.313329
0.032217 0.530979 0.373783
0.032586 0.531348 0.434641
0.032957 0.531719 0.495845
0.033330 0.532092 0.557353
0.033704 0.532467 0.619131
0.034080 0.532843 0.681154
0.034457 0.533220 0.743400
0.034836 0.533599 0.805850
0.035216 0.533978 0.868489
0.035596 0.534359 0.931305
0.035757 0.534520 0.957863
0.033837 0.593896 0.033837
0.034128 0.594187 0.081847
0.034475 0.594535 0.139142
0.034830 0.594889 0.197696
0.035190 0.595249 0.257062
0.035554 0.595613 0.317032
0.035920 0.595979 0.377487
0.036289 0.596348 0.438344
0.036660 0.596719 0.499548
0.037033 0.597092 0.561056
0.037407 0.597467 0.622835
0.037783 0.597843 0.684858
0.038161 0.598220 0.747103
0.038539 0.598599 0.809553
0.038919 0.598978 0.872193
0.039300 0.599359 0.935008
0.039461 0.599520 0.961566
0.037555 0.659164 0.037555
0.037846 0.659455 0.085566
0.038194 0.659803 0.142860
0.038549 0.660158 0.201414
0.038909 0.660518 0.260780
0.039272 0.660881 0.320751
0.039639 0.661248 0.381205
0.040008 0.661617 0.442063
0.040379 0.661988 0.503267
0.040751 0.662360 0.564775
0.041126 0.662735 0.626553
0.041502 0.663111 0.688576
0.041879 0.663488 0.750822
0.042258 0.663867 0.813272
0.042638 0.664247 0.875911
0.043018 0.664627 0.938727
0.043179 0.664788 0.965285
0.041288 0.724676 0.041288
0.041579 0.724967 0.089298
0.041926 0.725314 0.146593
0.042281 0.725669 0.205147
0.042641 0.726029 0.264513
0.043005 0.726393 0.324484
0.043371 0.726759 0.384938
0.043740 0.727128 0.445795
0.044111 0.727499 0.506999
0.044484 0.727872 0.568507
0.044858 0.728247 0.630286
0.045234 0.728623 0.692309
0.045612 0.729000 0.754554
0.045990 0.729379 0.817004
0.046370 0.729758 0.879644
0.046751 0.730139 0.942459
0.046912 0.730300 0.969017
0.045033 0.790411 0.045033
0.045324 0.790702 0.093043
0.045671 0.791049 0.150338
0.046026 0.791404 0.208892
0.046386 0.791764 0.268258
0.046750 0.792128 0.328229
0.047116 0.792494 0.388683
0.047485 0.792863 0.449541
0.047856 0.793234 0.510745
0.048229 0.793607 0.572252
0.048604 0.793981 0.634031
0.048980 0.794357 0.696054
0.049357 0.794735 0.758300
0.049736 0.795113 0.820750
0.050115 0.795493 0.883389
0.050496 0.795874 0.946204
0.050657 0.796035 0.972762
0.048790 0.856352 0.048790
0.049081 0.856643 0.096800
0.049428 0.856990 0.154095
0.049783 0.857345 0.212649
0.050143 0.857705 0.272015
0.050507 0.858068 0.331986
0.050873 0.858435 0.392440
0.051242 0.858804 0.453298
0.051613 0.859175 0.514502
0.051986 0.859548 0.576009
0.052361 0.859922 0.637788
0.052737 0.860298 0.699811
0.053114 0.860675 0.762056
0.053492 0.861054 0.824507
0.053872 0.861434 0.887146
0.054253 0.861815 0.949961
0.054414 0.861976 0.976519
0.052558 0.922483 0.052558
0.052849 0.922774 0.100568
0.053196 0.923122 0.157863
0.053551 0.923477 0.216417
0.053911 0.923836 0.275783
0.054275 0.924200 0.335753
0.054641 0.924566 0.396208
0.055010 0.924935 0.457065
0.055381 0.925306 0.518269
0.055754 0.925679 0.579777
0.056128 0.926054 0.641556
0.056504 0.926430 0.703579
0.056882 0.926807 0.765824
0.057260 0.927186 0.828274
0.057640 0.927565 0.890914
0.058021 0.927946 0.953729
0.058182 0.928107 0.980287
0.055710 0.977816 0.055710
0.056001 0.978107 0.103721
0.056349 0.978454 0.161015
0.056704 0.978809 0.219569
0.057064 0.979169 0.278935
0.057427 0.979532 0.338906
0.057794 0.979899 0.399360
0.058162 0.980268 0.460218
0.058534 0.980639 0.521422
0.058906 0.981012 0.582930
0.059281 0.981386 0.644708
0.059657 0.981762 0.706731
0.060034 0.982139 0.768977
0.060413 0.982518 0.831427
0.060793 0.982898 0.894066
0.061173 0.983279 0.956882
0.061334 0.983440 0.983440
0.002959 0.000052 0.000052
0.003250 0.000343 0.048062
0.003598 0.000691 0.105357
0.003953 0.001046 0.163911
0.004313 0.001405 0.223277
0.004676 0.001769 0.283248
0.005043 0.002135 0.343702
0.005412 0.002504 0.404560
0.005783 0.002875 0.465764
0.006156 0.003248 0.527272
0.006530 0.003623 0.589050
0.006906 0.003999 0.651073
0.007283 0.004376 0.713319
0.007662 0.004755 0.775769
0.008042 0.005134 0.838408
0.008422 0.005515 0.901224
0.008583 0.005676 0.927781
0.004461 0.026413 0.001554
0.004752 0.026704 0.049564
0.005100 0.027051 0.106859
0.005455 0.027406 0.165413
0.005815 0.027766 0.224779
0.006178 0.028130 0.284750
0.006545 0.028496 0.345204
0.006913 0.028865 0.406062
0.007285 0.029236 0.467266
0.007657 0.029609 0.528773
0.008032 0.029983 0.590552
0.008408 0.030359 0.652575
0.008785 0.030737 0.714821
0.009164 0.031115 0.777271
0.009544 0.031495 0.839910
0.009924 0.031876 0.902725
0.010085 0.032037 0.929283
0.007852 0.085918 0.004944
0.008143 0.086209 0.052955
0.008490 0.086557 0.110249
0.008845 0.086912 0.168803
0.009205 0.087271 0.228169
0.009568 0.087635 0.288140
0.009935 0.088002 0.348594
0.010304 0.088370 0.409452
0.010675 0.088741 0.470656
0.011048 0.089114 0.532164
0.011422 0.089489 0.593942
0.011798 0.089865 0.655965
0.012175 0.090242 0.718211
0.012554 0.090621 0.780661
0.012934 0.091000 0.843300
0.013315 0.091381 0.906116
0.013476 0.091542 0.932674
0.011341 0.147170 0.008434
0.011632 0.147461 0.056444
0.011980 0.147809 0.113739
0.012335 0.148164 0.172293
0.012695 0.148524 0.231659
0.013058 0.148887 0.291630
0.013425 0.149254 0.352084
0.013794 0.149622 0.412942
0.014165 0.149994 0.474146
0.014537 0.150366 0.535654
0.014912 0.150741 0.597432
0.015288 0.151117 0.659455
0.015665 0.151494 0.721701
0.016044 0.151873 0.784151
0.016424 0.152253 0.846790
0.016804 0.152633 0.909606
0.016965 0.152794 0.936163
0.014888 0.209423 0.011981
0.015179 0.209714 0.059991
0.015527 0.210061 0.117286
0.015882 0.210416 0.175840
0.016241 0.210776 0.235206
0.016605 0.211140 0.295177
0.016971 0.211506 0.355631
0.017340 0.211875 0.416488
0.017711 0.212246 0.477692
0.018084 0.212619 0.539200
0.018459 0.212993 0.600979
0.018835 0.213369 0.663002
0.019212 0.213747 0.725247
0.019591 0.214125 0.787698
0.019970 0.214505 0.850337
0.020351 0.214886 0.913152
0.020512 0.215047 0.939710
0.018476 0.272388 0.015568
0.018767 0.272679 0.063579
0.019114 0.273026 0.120873
0.019469 0.273381 0.179427
0.019829 0.273741 0.238793
0.020192 0.274104 0.298764
0.020559 0.274471 0.359218
0.020928 0.274840 0.420076
0.021299 0.275211 0.481280
0.021672 0.275584 0.542788
0.022046 0.275958 0.604566
0.022422 0.276334 0.666589
0.022799 0.276711 0.728835
0.023178 0.277090 0.791285
0.023558 0.277470 0.853924
0.023939 0.277851 0.916740
0.024100 0.278012 0.943298
0.022095 0.335907 0.019187
0.022386 0.336198 0.067198
0.022733 0.336546 0.124492
0.023088 0.336901 0.183046
0.023448 0.337261 0.242412
0.023811 0.337624 0.302383
0.024178 0.337991 0.362837
0.024547 0.338360 0.423695
0.024918 0.338731 0.484899
0.025291 0.339103 0.546407
0.025665 0.339478 0.608185
0.026041 0.339854 0.670208
0.026418 0.340231 0.732454
0.026797 0.340610 0.794904
0.027177 0.340990 0.857543
0.027558 0.341370 0.920359
0.027719 0.341531 0.946917
0.025740 0.399884 0.022832
0.026031 0.400175 0.070843
0.026378 0.400522 0.128137
0.026733 0.400877 0.186691
0.027093 0.401237 0.246057
0.027456 0.401600 0.306028
0.027823 0.401967 0.366482
0.028192 0.402336 0.427340
0.028563 0.402707 0.488544
0.028936 0.403080 0.550052
0.029310 0.403454 0.611830
0.029686 0.403830 0.673853
0.030063 0.404207 0.736099
0.030442 0.404586 0.798549
0.030822 0.404966 0.861188
0.031203 0.405347 0.924004
0.031364 0.405508 0.950562
0.029407 0.464247 0.026499
0.029698 0.464538 0.074510
0.030045 0.464886 0.131804
0.030400 0.465241 0.190358
0.030760 0.465601 0.249724
0.031123 0.465964 0.309695
0.031490 0.466331 0.370149
0.031859 0.466700 0.431007
0.032230 0.467071 0.492211
0.032603 0.467443 0.553719
0.032977 0.467818 0.615497
0.033353 0.468194 0.677520
0.033731 0.468571 0.739766
0.034109 0.468950 0.802216
0.034489 0.469330 0.864855
0.034870 0.469710 0.927671
0.035031 0.469871 0.954229
0.033093 0.528948 0.030186
0.033384 0.529239 0.078196
0.033731 0.529587 0.135491
0.034086 0.529942 0.194044
0.034446 0.530302 0.253411
0.034810 0.530665 0.313381
0.035176 0.531032 0.373836
0.035545 0.531401 0.434693
0.035916 0.531772 0.495897
0.036289 0.532145 0.557405
0.036663 0.532519 0.619184
0.037039 0.532895 0.681207
0.037417 0.533272 0.743452
0.037795 0.533651 0.805902
0.038175 0.534031 0.868542
0.038556 0.534411 0.931357
0.038717 0.534572 0.957915
0.036796 0.593948 0.033889
0.037087 0.594239 0.081899
0.037435 0.594587 0.139194
0.037790 0.594942 0.197748
0.038149 0.595302 0.257114
0.038513 0.595665 0.317085
0.038879 0.596032 0.377539
0.039248 0.596401 0.438397
0.039619 0.596772 0.499601
0.039992 0.597144 0.561108
0.040367 0.597519 0.622887
0.040743 0.597895 0.684910
0.041120 0.598272 0.747155
0.041499 0.598651 0.809606
0.041878 0.599031 0.872245
0.042259 0.599411 0.935060
0.042420 0.599572 0.961618
0.040515 0.659217 0.037608
0.040806 0.659508 0.085618
0.041153 0.659855 0.142913
0.041508 0.660210 0.201466
0.041868 0.660570 0.260832
0.042232 0.660933 0.320803
0.042598 0.661300 0.381258
0.042967 0.661669 0.442115
0.043338 0.662040 0.503319
0.043711 0.662413 0.564827
0.044085 0.662787 0.626606
0.044461 0.663163 0.688629
0.044839 0.663540 0.750874
0.045217 0.663919 0.813324
0.045597 0.664299 0.875964
0.045978 0.664680 0.938779
0.046139 0.664841 0.965337
0.044247 0.724728 0.041340
0.044538 0.725019 0.089350
0.044886 0.725367 0.146645
0.045241 0.725722 0.205199
0.045601 0.726082 0.264565
0.045964 0.726445 0.324536
0.046331 0.726812 0.384990
0.046699 0.727180 0.445848
0.047071 0.727552 0.507052
0.047443 0.727924 0.568559
0.047818 0.728299 0.630338
0.048194 0.728675 0.692361
0.048571 0.729052 0.754607
0.048950 0.729431 0.817057
0.049330 0.729811 0.879696
0.049710 0.730191 0.942511
0.049871 0.730352 0.969069
0.047993 0.790463 0.045085
0.048284 0.790754 0.093096
0.048631 0.791101 0.150390
0.048986 0.791456 0.208944
0.049346 0.791816 0.268310
0.049709 0.792180 0.328281
0.050076 0.792546 0.388735
0.050445 0.792915 0.449593
0.050816 0.793286 0.510797
0.051189 0.793659 0.572305
0.051563 0.794034 0.634083
0.051939 0.794410 0.696106
0.052316 0.794787 0.758352
0.052695 0.795166 0.820802
0.053075 0.795545 0.883441
0.053456 0.795926 0.946257
0.053617 0.796087 0.972815
0.051749 0.856404 0.048842
0.052040 0.856695 0.096852
0.052388 0.857042 0.154147
0.052743 0.857397 0.212701
0.053103 0.857757 0.272067
0.053466 0.858120 0.332038
0.053833 0.858487 0.392492
0.054202 0.858856 0.453350
0.054573 0.859227 0.514554
0.054945 0.859600 0.576062
0.055320 0.859974 0.637840
0.055696 0.860350 0.699863
0.056073 0.860728 0.762109
0.056452 0.861106 0.824559
0.056832 0.861486 0.887198
0.057212 0.861867 0.950014
0.057373 0.862028 0.976571
0.055517 0.922535 0.052610
0.055808 0.922826 0.100620
0.056156 0.923174 0.157915
0.056511 0.923529 0.216469
0.056870 0.923889 0.275835
0.057234 0.924252 0.335806
0.057600 0.924619 0.396260
0.057969 0.924988 0.457118
0.058340 0.925359 0.518322
0.058713 0.925731 0.579829
0.059088 0.926106 0.641608
0.059464 0.926482 0.703631
0.059841 0.926859 0.765876
0.060220 0.927238 0.828327
0.060599 0.927618 0.890966
0.060980 0.927998 0.953781
0.061141 0.928159 0.980339
0.058670 0.977868 0.055763
0.058961 0.978159 0.103773
0.059308 0.978506 0.161068
0.059663 0.978861 0.219621
0.060023 0.979221 0.278987
0.060387 0.979585 0.338958
0.060753 0.979951 0.399412
0.061122 0.980320 0.460270
0.061493 0.980691 0.521474
0.061866 0.981064 0.582982
0.062240 0.981438 0.644761
0.062616 0.981814 0.706783
0.062994 0.982192 0.769029
0.063372 0.982570 0.831479
0.063752 0.982950 0.894118
0.064133 0.983331 0.956934
0.064294 0.983492 0.983492
0.058575 0.001033 0.001033
0.058866 0.001324 0.049044
0.059213 0.001672 0.106338
0.059568 0.002027 0.164892
0.059928 0.002387 0.224258
0.060292 0.002750 0.284229
0.060658 0.003117 0.344683
0.061027 0.003486 0.405541
0.061398 0.003857 0.466745
0.061771 0.004229 0.528253
0.062146 0.004604 0.590031
0.062522 0.004980 0.652054
0.062899 0.005357 0.714300
0.063278 0.005736 0.776750
0.063657 0.006116 0.839389
0.064038 0.006496 0.902205
0.064199 0.006657 0.928763
0.060077 0.027394 0.002535
0.060368 0.027685 0.050546
0.060715 0.028032 0.107840
0.061070 0.028387 0.166394
0.061430 0.028747 0.225760
0.061794 0.029111 0.285731
0.062160 0.029477 0.346185
0.062529 0.029846 0.407043
0.062900 0.030217 0.468247
0.063273 0.030590 0.529755
0.063648 0.030965 0.591533
0.064024 0.031341 0.653556
0.064401 0.031718 0.715802
0.064779 0.032097 0.778252
0.065159 0.032476 0.840891
0.065540 0.032857 0.903707
0.065701 0.033018 0.930265
0.063467 0.086899 0.005926
0.063758 0.087191 0.053936
0.064106 0.087538 0.111231
0.064461 0.087893 0.169784
0.064820 0.088253 0.229150
0.065184 0.088616 0.289121
0.065551 0.088983 0.349576
0.065919 0.089352 0.410433
0.066290 0.089723 0.471637
0.066663 0.090096 0.533145
0.067038 0.090470 0.594924
0.067414 0.090846 0.656947
0.067791 0.091223 0.719192
0.068170 0.091602 0.781642
0.068549 0.091982 0.844282
0.068930 0.092362 0.907097
0.069091 0.092523 0.933655
0.066957 0.148152 0.009415
0.067248 0.148443 0.057426
0.067595 0.148790 0.114720
0.067950 0.149145 0.173274
0.068310 0.149505 0.232640
0.068674 0.149868 0.292611
0.069040 0.150235 0.353065
0.069409 0.150604 0.413923
0.069780 0.150975 0.475127
0.070153 0.151348 0.536635
0.070528 0.151722 0.598413
0.070904 0.152098 0.660436
0.071281 0.152475 0.722682
0.071660 0.152854 0.785132
0.072039 0.153234 0.847771
0.072420 0.153615 0.910587
0.072581 0.153776 0.937145
0.070504 0.210404 0.012962
0.070795 0.210695 0.060972
0.071142 0.211042 0.118267
0.071497 0.211397 0.176821
0.071857 0.211757 0.236187
0.072221 0.212121 0.296158
0.072587 0.212487 0.356612
0.072956 0.212856 0.417470
0.073327 0.213227 0.478674
0.073700 0.213600 0.540182
0.074074 0.213975 0.601960
0.074450 0.214351 0.663983
0.074828 0.214728 0.726229
0.075206 0.215107 0.788679
0.075586 0.215486 0.851318
0.075967 0.215867 0.914134
0.076128 0.216028 0.940691
0.074091 0.273369 0.016550
0.074382 0.273660 0.064560
0.074730 0.274007 0.121855
0.075085 0.274362 0.180408
0.075444 0.274722 0.239774
0.075808 0.275085 0.299745
0.076174 0.275452 0.360199
0.076543 0.275821 0.421057
0.076914 0.276192 0.482261
0.077287 0.276565 0.543769
0.077662 0.276939 0.605548
0.078038 0.277315 0.667570
0.078415 0.277693 0.729816
0.078794 0.278071 0.792266
0.079173 0.278451 0.854905
0.079554 0.278832 0.917721
0.079715 0.278993 0.944279
0.077710 0.336889 0.020169
0.078001 0.337180 0.068179
0.078349 0.337527 0.125474
0.078704 0.337882 0.184027
0.079063 0.338242 0.243393
0.079427 0.338605 0.303364
0.079793 0.338972 0.363818
0.080162 0.339341 0.424676
0.080533 0.339712 0.485880
0.080906 0.340085 0.547388
0.081281 0.340459 0.609167
0.081657 0.340835 0.671189
0.082034 0.341213 0.733435
0.082413 0.341591 0.795885
0.082792 0.341971 0.858524
0.083173 0.342352 0.921340
0.083334 0.342513 0.947898
0.081355 0.400865 0.023814
0.081646 0.401156 0.071824
0.081994 0.401503 0.129119
0.082349 0.401858 0.187672
0.082708 0.402218 0.247038
0.083072 0.402582 0.307009
0.083438 0.402948 0.367463
0.083807 0.403317 0.428321
0.084178 0.403688 0.489525
0.084551 0.404061 0.551033
0.084926 0.404435 0.612812
0.085302 0.404811 0.674834
0.085679 0.405189 0.737080
0.086058 0.405567 0.799530
0.086437 0.405947 0.862169
0.086818 0.406328 0.924985
0.086979 0.406489 0.951543
0.085022 0.465229 0.027481
0.085313 0.465520 0.075491
0.085661 0.465867 0.132786
0.086016 0.466222 0.191339
0.086375 0.466582 0.250705
0.086739 0.466945 0.310676
0.087106 0.467312 0.371131
0.087474 0.467681 0.431988
0.087845 0.468052 0.493192
0.088218 0.468425 0.554700
0.088593 0.468799 0.616479
0.088969 0.469175 0.678502
0.089346 0.469552 0.740747
0.089725 0.469931 0.803197
0.090104 0.470311 0.865837
0.090485 0.470692 0.928652
0.090646 0.470853 0.955210
0.088709 0.529930 0.031167
0.089000 0.530221 0.079177
0.089347 0.530568 0.136472
0.089702 0.530923 0.195026
0.090062 0.531283 0.254392
0.090425 0.531646 0.314363
0.090792 0.532013 0.374817
0.091161 0.532382 0.435674
0.091532 0.532753 0.496878
0.091905 0.533126 0.558386
0.092279 0.533500 0.620165
0.092655 0.533876 0.682188
0.093032 0.534254 0.744433
0.093411 0.534632 0.806883
0.093791 0.535012 0.869523
0.094172 0.535393 0.932338
0.094333 0.535554 0.958896
0.092412 0.594930 0.034870
0.092703 0.595221 0.082880
0.093050 0.595568 0.140175
0.093405 0.595923 0.198729
0.093765 0.596283 0.258095
0.094129 0.596646 0.318066
0.094495 0.597013 0.378520
0.094864 0.597382 0.439378
0.095235 0.597753 0.500582
0.095608 0.598126 0.562090
0.095982 0.598500 0.623868
0.096358 0.598876 0.685891
0.096736 0.599253 0.748137
0.097114 0.599632 0.810587
0.097494 0.600012 0.873226
0.097875 0.600393 0.936042
0.098036 0.600554 0.962599
0.096131 0.660198 0.038589
0.096422 0.660489 0.086599
0.096769 0.660836 0.143894
0.097124 0.661191 0.202448
0.097484 0.661551 0.261814
0.097847 0.661915 0.321785
0.098214 0.662281 0.382239
0.098583 0.662650 0.443096
0.098954 0.663021 0.504300
0.099327 0.663394 0.565808
0.099701 0.663768 0.627587
0.100077 0.664144 0.689610
0.100454 0.664522 0.751855
0.100833 0.664900 0.814305
0.101213 0.665280 0.876945
0.101594 0.665661 0.939760
0.101755 0.665822 0.966318
0.099863 0.725710 0.042321
0.100154 0.726001 0.090332
0.100501 0.726348 0.147626
0.100856 0.726703 0.206180
0.101216 0.727063 0.265546
0.101580 0.727426 0.325517
0.101946 0.727793 0.385971
0.102315 0.728162 0.446829
0.102686 0.728533 0.508033
0.103059 0.728906 0.569541
0.103434 0.729280 0.631319
0.103810 0.729656 0.693342
0.104187 0.730033 0.755588
0.104565 0.730412 0.818038
0.104945 0.730792 0.880677
0.105326 0.731173 0.943493
0.105487 0.731334 0.970051
0.103608 0.791444 0.046066
0.103899 0.791735 0.094077
0.104247 0.792083 0.151372
0.104602 0.792438 0.209925
0.104961 0.792798 0.269291
0.105325 0.793161 0.329262
0.105691 0.793528 0.389716
0.106060 0.793896 0.450574
0.106431 0.794268 0.511778
0.106804 0.794640 0.573286
0.107179 0.795015 0.635064
0.107555 0.795391 0.697087
0.107932 0.795768 0.759333
0.108311 0.796147 0.821783
0.108690 0.796527 0.884422
0.109071 0.796907 0.947238
0.109232 0.797068 0.973796
0.107365 0.857385 0.049823
0.107656 0.857676 0.097834
0.108003 0.858023 0.155128
0.108358 0.858378 0.213682
0.108718 0.858738 0.273048
0.109082 0.859102 0.333019
0.109448 0.859468 0.393473
0.109817 0.859837 0.454331
0.110188 0.860208 0.515535
0.110561 0.860581 0.577043
0.110936 0.860956 0.638821
0.111312 0.861331 0.700844
0.111689 0.861709 0.763090
0.112068 0.862087 0.825540
0.112447 0.862467 0.888179
0.112828 0.862848 0.950995
0.112989 0.863009 0.977553
0.111133 0.923517 0.053591
0.111424 0.923808 0.101601
0.111771 0.924155 0.158896
0.112126 0.924510 0.217450
0.112486 0.924870 0.276816
0.112850 0.925233 0.336787
0.113216 0.925600 0.397241
0.113585 0.925969 0.458099
0.113956 0.926340 0.519303
0.114329 0.926713 0.580811
0.114703 0.927087 0.642589
0.115079 0.927463 0.704612
0.115457 0.927841 0.766858
0.115835 0.928219 0.829308
0.116215 0.928599 0.891947
0.116596 0.928980 0.954763
0.116757 0.929141 0.981320
0.114285 0.978849 0.056744
0.114576 0.979140 0.104754
0.114924 0.979487 0.162049
0.115279 0.979842 0.220603
0.115639 0.980202 0.279969
0.116002 0.980566 0.339939
0.116369 0.980932 0.400394
0.116738 0.981301 0.461251
0.117109 0.981672 0.522455
0.117481 0.982045 0.583963
0.117856 0.982420 0.645742
0.118232 0.982796 0.707765
0.118609 0.983173 0.770010
0.118988 0.983551 0.832460
0.119368 0.983931 0.895100
0.119748 0.984312 0.957915
0.119909 0.984473 0.984473
0.116825 0.002061 0.002061
0.117116 0.002352 0.050071
0.117463 0.002699 0.107366
0.117818 0.003054 0.165920
0.118178 0.003414 0.225286
0.118542 0.003778 0.285257
0.118908 0.004144 0.345711
0.119277 0.004513 0.406569
0.119648 0.004884 0.467773
0.120021 0.005257 0.529280
0.120396 0.005632 0.591059
0.120772 0.006008 0.653082
0.121149 0.006385 0.715328
0.121527 0.006764 0.777778
0.121907 0.007143 0.840417
0.122288 0.007524 0.903232
0.122449 0.007685 0.929790
0.118327 0.028422 0.003563
