skills/editops-orchestrator/assets/grade/luts/moody_teal_v10.cube
TITLE "moody_teal_v10"
LUT_3D_SIZE 9
DOMAIN_MIN 0.0 0.0 0.0
DOMAIN_MAX 1.0 1.0 1.0
0.000000 0.000000 0.000000
0.000781 0.000781 0.101674
0.001675 0.001675 0.217987
0.002592 0.002592 0.337393
0.003525 0.003525 0.458825
0.004469 0.004469 0.581777
0.005423 0.005423 0.705950
0.006385 0.006385 0.831145
0.006992 0.006992 0.910150
0.005417 0.076052 0.005417
0.006198 0.076833 0.107091
0.007092 0.077727 0.223404
0.008009 0.078644 0.342810
0.008942 0.079577 0.464242
0.009886 0.080522 0.587194
0.010840 0.081476 0.711367
0.011802 0.082437 0.836562
0.012409 0.083044 0.915567
0.014175 0.199012 0.014175
0.014956 0.199793 0.115849
0.015849 0.200687 0.232162
0.016767 0.201604 0.351568
0.017700 0.202537 0.473000
0.018644 0.203482 0.595952
0.019598 0.204436 0.720125
0.020560 0.205397 0.845320
0.021167 0.206004 0.924325
0.023209 0.325854 0.023209
0.023990 0.326635 0.124883
0.024884 0.327529 0.241196
0.025801 0.328446 0.360602
0.026734 0.329379 0.482035
0.027679 0.330323 0.604987
0.028633 0.331277 0.729159
0.029594 0.332239 0.854354
0.030201 0.332846 0.933359
0.032413 0.455078 0.032413
0.033194 0.455859 0.134088
0.034088 0.456753 0.250400
0.035005 0.457670 0.369806
0.035938 0.458603 0.491239
0.036883 0.459547 0.614191
0.037837 0.460501 0.738363
0.038798 0.461463 0.863558
0.039405 0.462070 0.942563
0.041741 0.586042 0.041741
0.042522 0.586823 0.143416
0.043416 0.587717 0.259728
0.044333 0.588634 0.379135
0.045266 0.589567 0.500567
0.046211 0.590512 0.623519
0.047165 0.591466 0.747691
0.048126 0.592427 0.872886
0.048733 0.593034 0.951891
0.051168 0.718383 0.051168
0.051949 0.719164 0.152842
0.052842 0.720058 0.269155
0.053759 0.720975 0.388561
0.054692 0.721908 0.509993
0.055637 0.722853 0.632945
0.056591 0.723807 0.757118
0.057553 0.724768 0.882312
0.058160 0.725375 0.961317
0.060675 0.851866 0.060675
0.061456 0.852647 0.162349
0.062350 0.853541 0.278662
0.063267 0.854458 0.398068
0.064200 0.855391 0.519500
0.065144 0.856335 0.642452
0.066098 0.857289 0.766625
0.067060 0.858251 0.891820
0.067667 0.858858 0.970825
0.069261 0.972419 0.069261
0.070043 0.973200 0.170936
0.070936 0.974094 0.287249
0.071853 0.975011 0.406655
0.072786 0.975944 0.528087
0.073731 0.976889 0.651039
0.074685 0.977843 0.775211
0.075647 0.978804 0.900406
0.076253 0.979411 0.979411
0.041916 0.000934 0.000934
0.042697 0.001715 0.102608
0.043591 0.002609 0.218921
0.044508 0.003526 0.338327
0.045441 0.004459 0.459760
0.046386 0.005404 0.582712
0.047339 0.006358 0.706884
0.048301 0.007319 0.832079
0.048908 0.007926 0.911084
0.047333 0.076987 0.006351
0.048114 0.077768 0.108025
0.049008 0.078661 0.224338
0.049925 0.079578 0.343744
0.050858 0.080511 0.465176
0.051802 0.081456 0.588128
0.052756 0.082410 0.712301
0.053718 0.083372 0.837496
0.054325 0.083979 0.916501
0.056091 0.199946 0.015109
0.056872 0.200728 0.116783
0.057766 0.201621 0.233096
0.058683 0.202538 0.352502
0.059616 0.203471 0.473934
0.060560 0.204416 0.596886
0.061514 0.205370 0.721059
0.062476 0.206332 0.846254
0.063083 0.206938 0.925259
0.065125 0.326788 0.024143
0.065907 0.327569 0.125818
0.066800 0.328463 0.242131
0.067717 0.329380 0.361537
0.068650 0.330313 0.482969
0.069595 0.331258 0.605921
0.070549 0.332212 0.730093
0.071510 0.333173 0.855288
0.072117 0.333780 0.934293
0.074330 0.456012 0.033348
0.075111 0.456793 0.135022
0.076004 0.457687 0.251335
0.076921 0.458604 0.370741
0.077854 0.459537 0.492173
0.078799 0.460482 0.615125
0.079753 0.461436 0.739298
0.080715 0.462397 0.864492
0.081322 0.463004 0.943497
0.083658 0.586977 0.042676
0.084439 0.587758 0.144350
0.085332 0.588651 0.260663
0.086250 0.589568 0.380069
0.087182 0.590501 0.501501
0.088127 0.591446 0.624453
0.089081 0.592400 0.748626
0.090043 0.593362 0.873820
0.090650 0.593969 0.952826
0.093084 0.719317 0.052102
0.093865 0.720099 0.153776
0.094758 0.720992 0.270089
0.095676 0.721909 0.389495
0.096608 0.722842 0.510927
0.097553 0.723787 0.633879
0.098507 0.724741 0.758052
0.099469 0.725703 0.883246
0.100076 0.726309 0.962252
0.102591 0.852800 0.061609
0.103372 0.853581 0.163283
0.104266 0.854475 0.279596
0.105183 0.855392 0.399002
0.106116 0.856325 0.520434
0.107060 0.857270 0.643387
0.108014 0.858224 0.767559
0.108976 0.859185 0.892754
0.109583 0.859792 0.971759
0.111178 0.973354 0.070196
0.111959 0.974135 0.171870
0.112852 0.975028 0.288183
0.113770 0.975946 0.407589
0.114702 0.976878 0.529021
0.115647 0.977823 0.651973
0.116601 0.978777 0.776146
0.117563 0.979739 0.901340
0.118170 0.980346 0.980346
0.157111 0.003502 0.003502
0.157892 0.004283 0.105176
0.158785 0.005176 0.221489
0.159703 0.006094 0.340895
0.160636 0.007027 0.462327
0.161580 0.007971 0.585279
0.162534 0.008925 0.709452
0.163496 0.009887 0.834646
0.164103 0.010494 0.913652
0.162528 0.079554 0.008919
0.163309 0.080335 0.110593
0.164202 0.081229 0.226906
0.165120 0.082146 0.346312
0.166053 0.083079 0.467744
0.166997 0.084023 0.590696
0.167951 0.084977 0.714869
0.168913 0.085939 0.840063
0.169520 0.086546 0.919069
0.171286 0.202514 0.017677
0.172067 0.203295 0.119351
0.172960 0.204189 0.235664
0.173878 0.205106 0.355070
0.174810 0.206039 0.476502
0.175755 0.206983 0.599454
0.176709 0.207937 0.723627
0.177671 0.208899 0.848821
0.178278 0.209506 0.927826
0.180320 0.329356 0.026711
0.181101 0.330137 0.128385
0.181995 0.331030 0.244698
0.182912 0.331948 0.364104
0.183845 0.332881 0.485536
0.184789 0.333825 0.608488
0.185743 0.334779 0.732661
0.186705 0.335741 0.857856
0.187312 0.336348 0.936861
0.189524 0.458580 0.035915
0.190305 0.459361 0.137589
0.191199 0.460254 0.253902
0.192116 0.461172 0.373308
0.193049 0.462105 0.494740
0.193994 0.463049 0.617692
0.194947 0.464003 0.741865
0.195909 0.464965 0.867060
0.196516 0.465572 0.946065
0.198852 0.589544 0.045243
0.199633 0.590325 0.146917
0.200527 0.591219 0.263230
0.201444 0.592136 0.382636
0.202377 0.593069 0.504068
0.203322 0.594013 0.627020
0.204276 0.594967 0.751193
0.205237 0.595929 0.876388
0.205844 0.596536 0.955393
0.208278 0.721885 0.054669
0.209059 0.722666 0.156343
0.209953 0.723560 0.272656
0.210870 0.724477 0.392062
0.211803 0.725410 0.513495
0.212748 0.726354 0.636447
0.213702 0.727308 0.760619
0.214663 0.728270 0.885814
0.215270 0.728877 0.964819
0.217786 0.855368 0.064177
0.218567 0.856149 0.165851
0.219460 0.857042 0.282164
0.220378 0.857960 0.401570
0.221311 0.858893 0.523002
0.222255 0.859837 0.645954
0.223209 0.860791 0.770127
0.224171 0.861753 0.895321
0.224778 0.862360 0.974327
0.226372 0.975921 0.072763
0.227153 0.976702 0.174437
0.228047 0.977596 0.290750
0.228964 0.978513 0.410156
0.229897 0.979446 0.531588
0.230842 0.980390 0.654541
0.231796 0.981344 0.778713
0.232757 0.982306 0.903908
0.233364 0.982913 0.982913
0.276815 0.006170 0.006170
0.277596 0.006951 0.107844
0.278490 0.007844 0.224157
0.279407 0.008762 0.343563
0.280340 0.009695 0.464995
0.281285 0.010639 0.587947
0.282239 0.011593 0.712120
0.283200 0.012555 0.837314
0.283807 0.013162 0.916320
0.282232 0.082222 0.011587
0.283013 0.083003 0.113261
0.283907 0.083897 0.229574
0.284824 0.084814 0.348980
0.285757 0.085747 0.470412
0.286702 0.086691 0.593364
0.287656 0.087645 0.717537
0.288617 0.088607 0.842731
0.289224 0.089214 0.921737
0.290990 0.205182 0.020345
0.291771 0.205963 0.122019
0.292665 0.206857 0.238332
0.293582 0.207774 0.357738
0.294515 0.208707 0.479170
0.295460 0.209651 0.602122
0.296413 0.210605 0.726295
0.297375 0.211567 0.851489
0.297982 0.212174 0.930494
0.300025 0.332024 0.029379
0.300806 0.332805 0.131053
0.301699 0.333698 0.247366
0.302617 0.334616 0.366772
0.303549 0.335549 0.488204
0.304494 0.336493 0.611156
0.305448 0.337447 0.735329
0.306410 0.338409 0.860524
0.307017 0.339016 0.939529
0.309229 0.461248 0.038583
0.310010 0.462029 0.140257
0.310903 0.462922 0.256570
0.311821 0.463840 0.375976
0.312754 0.464773 0.497408
0.313698 0.465717 0.620360
0.314652 0.466671 0.744533
0.315614 0.467633 0.869728
0.316221 0.468240 0.948733
0.318557 0.592212 0.047911
0.319338 0.592993 0.149585
0.320231 0.593887 0.265898
0.321149 0.594804 0.385304
0.322082 0.595737 0.506736
0.323026 0.596681 0.629688
0.323980 0.597635 0.753861
0.324942 0.598597 0.879056
0.325549 0.599204 0.958061
0.327983 0.724553 0.057337
0.328764 0.725334 0.159011
0.329657 0.726228 0.275324
0.330575 0.727145 0.394730
0.331508 0.728078 0.516163
0.332452 0.729022 0.639115
0.333406 0.729976 0.763287
0.334368 0.730938 0.888482
0.334975 0.731545 0.967487
0.337490 0.858036 0.066845
0.338271 0.858817 0.168519
0.339165 0.859710 0.284832
0.340082 0.860628 0.404238
0.341015 0.861561 0.525670
0.341960 0.862505 0.648622
0.342914 0.863459 0.772795
0.343875 0.864421 0.897989
0.344482 0.865028 0.976995
0.346077 0.978589 0.075431
0.346858 0.979370 0.177105
0.347751 0.980264 0.293418
0.348669 0.981181 0.412824
0.349602 0.982114 0.534256
0.350546 0.983058 0.657209
0.351500 0.984012 0.781381
0.352462 0.984974 0.906576
0.353069 0.985581 0.985581
0.399039 0.008894 0.008894
0.399820 0.009675 0.110568
0.400714 0.010568 0.226881
0.401631 0.011486 0.346287
0.402564 0.012419 0.467719
0.403508 0.013363 0.590671
0.404462 0.014317 0.714844
0.405424 0.015279 0.840039
0.406031 0.015886 0.919044
0.404456 0.084946 0.014311
0.405237 0.085727 0.115985
0.406131 0.086621 0.232298
0.407048 0.087538 0.351704
0.407981 0.088471 0.473136
0.408925 0.089416 0.596088
0.409879 0.090369 0.720261
0.410841 0.091331 0.845455
0.411448 0.091938 0.924461
0.413214 0.207906 0.023069
0.413995 0.208687 0.124743
0.414888 0.209581 0.241056
0.415806 0.210498 0.360462
0.416739 0.211431 0.481894
0.417683 0.212375 0.604846
0.418637 0.213329 0.729019
0.419599 0.214291 0.854213
0.420206 0.214898 0.933219
0.422248 0.334748 0.032103
0.423029 0.335529 0.133777
0.423923 0.336422 0.250090
0.424840 0.337340 0.369496
0.425773 0.338273 0.490928
0.426718 0.339217 0.613880
0.427672 0.340171 0.738053
0.428633 0.341133 0.863248
0.429240 0.341740 0.942253
0.431452 0.463972 0.041307
0.432233 0.464753 0.142981
0.433127 0.465647 0.259294
0.434044 0.466564 0.378700
0.434977 0.467497 0.500132
0.435922 0.468441 0.623085
0.436876 0.469395 0.747257
0.437837 0.470357 0.872452
0.438444 0.470964 0.951457
0.440780 0.594936 0.050635
0.441561 0.595717 0.152309
0.442455 0.596611 0.268622
0.443372 0.597528 0.388028
0.444305 0.598461 0.509461
0.445250 0.599405 0.632413
0.446204 0.600359 0.756585
0.447165 0.601321 0.881780
0.447772 0.601928 0.960785
0.450207 0.727277 0.060061
0.450988 0.728058 0.161736
0.451881 0.728952 0.278048
0.452798 0.729869 0.397454
0.453731 0.730802 0.518887
0.454676 0.731746 0.641839
0.455630 0.732700 0.766011
0.456592 0.733662 0.891206
0.457199 0.734269 0.970211
0.459714 0.860760 0.069569
0.460495 0.861541 0.171243
0.461389 0.862435 0.287556
0.462306 0.863352 0.406962
0.463239 0.864285 0.528394
0.464183 0.865229 0.651346
0.465137 0.866183 0.775519
0.466099 0.867145 0.900714
0.466706 0.867752 0.979719
0.468300 0.981313 0.078155
0.469082 0.982094 0.179830
0.469975 0.982988 0.296142
0.470892 0.983905 0.415548
0.471825 0.984838 0.536981
0.472770 0.985783 0.659933
0.473724 0.986737 0.784105
0.474686 0.987698 0.909300
0.475292 0.988305 0.988305
0.523044 0.011658 0.011658
0.523825 0.012439 0.113332
0.524718 0.013332 0.229645
0.525636 0.014250 0.349051
0.526569 0.015183 0.470483
0.527513 0.016127 0.593435
0.528467 0.017081 0.717608
0.529429 0.018043 0.842802
0.530036 0.018650 0.921808
0.528461 0.087710 0.017075
0.529242 0.088491 0.118749
0.530135 0.089385 0.235062
0.531053 0.090302 0.354468
0.531985 0.091235 0.475900
0.532930 0.092179 0.598852
0.533884 0.093133 0.723025
0.534846 0.094095 0.848219
0.535453 0.094702 0.927224
0.537219 0.210670 0.025833
0.538000 0.211451 0.127507
0.538893 0.212345 0.243820
0.539810 0.213262 0.363226
0.540743 0.214195 0.484658
0.541688 0.215139 0.607610
0.542642 0.216093 0.731783
0.543604 0.217055 0.856977
0.544211 0.217662 0.935982
0.546253 0.337512 0.034867
0.547034 0.338293 0.136541
0.547928 0.339186 0.252854
0.548845 0.340104 0.372260
0.549778 0.341037 0.493692
0.550722 0.341981 0.616644
0.551676 0.342935 0.740817
0.552638 0.343897 0.866012
0.553245 0.344504 0.945017
0.555457 0.466736 0.044071
0.556238 0.467517 0.145745
0.557132 0.468410 0.262058
0.558049 0.469328 0.381464
0.558982 0.470261 0.502896
0.559926 0.471205 0.625848
0.560880 0.472159 0.750021
0.561842 0.473121 0.875216
0.562449 0.473728 0.954221
0.564785 0.597700 0.053399
0.565566 0.598481 0.155073
0.566460 0.599375 0.271386
0.567377 0.600292 0.390792
0.568310 0.601225 0.512224
0.569254 0.602169 0.635176
0.570208 0.603123 0.759349
0.571170 0.604085 0.884544
0.571777 0.604692 0.963549
0.574211 0.730041 0.062825
0.574992 0.730822 0.164499
0.575886 0.731716 0.280812
0.576803 0.732633 0.400218
0.577736 0.733566 0.521650
0.578681 0.734510 0.644603
0.579635 0.735464 0.768775
0.580596 0.736426 0.893970
0.581203 0.737033 0.972975
0.583719 0.863524 0.072333
0.584500 0.864305 0.174007
0.585393 0.865198 0.290320
0.586311 0.866116 0.409726
0.587243 0.867049 0.531158
0.588188 0.867993 0.654110
0.589142 0.868947 0.778283
0.590104 0.869909 0.903477
0.590711 0.870516 0.982483
0.592305 0.984077 0.080919
0.593086 0.984858 0.182593
0.593980 0.985752 0.298906
0.594897 0.986669 0.418312
0.595830 0.987602 0.539744
0.596775 0.988546 0.662696
0.597728 0.989500 0.786869
0.598690 0.990462 0.912064
0.599297 0.991069 0.991069
0.648434 0.014452 0.014452
0.649215 0.015233 0.116127
0.650108 0.016127 0.232439
0.651026 0.017044 0.351846
0.651959 0.017977 0.473278
0.652903 0.018922 0.596230
0.653857 0.019876 0.720402
0.654819 0.020837 0.845597
0.655426 0.021444 0.924602
0.653851 0.090505 0.019869
0.654632 0.091286 0.121544
0.655525 0.092179 0.237856
0.656443 0.093097 0.357262
0.657376 0.094030 0.478695
0.658320 0.094974 0.601647
0.659274 0.095928 0.725819
0.660236 0.096890 0.851014
0.660843 0.097497 0.930019
0.662609 0.213465 0.028627
0.663390 0.214246 0.130301
0.664283 0.215139 0.246614
0.665201 0.216057 0.366020
0.666133 0.216989 0.487453
0.667078 0.217934 0.610405
0.668032 0.218888 0.734577
0.668994 0.219850 0.859772
0.669601 0.220457 0.938777
0.671643 0.340306 0.037662
0.672424 0.341088 0.139336
0.673318 0.341981 0.255649
0.674235 0.342898 0.375055
0.675168 0.343831 0.496487
0.676112 0.344776 0.619439
0.677066 0.345730 0.743612
0.678028 0.346691 0.868806
0.678635 0.347298 0.947812
0.680847 0.469531 0.046866
0.681628 0.470312 0.148540
0.682522 0.471205 0.264853
0.683439 0.472122 0.384259
0.684372 0.473055 0.505691
0.685317 0.474000 0.628643
0.686270 0.474954 0.752816
0.687232 0.475916 0.878010
0.687839 0.476523 0.957016
0.690175 0.600495 0.056194
0.690956 0.601276 0.157868
0.691850 0.602169 0.274181
0.692767 0.603087 0.393587
0.693700 0.604020 0.515019
0.694645 0.604964 0.637971
0.695599 0.605918 0.762144
0.696560 0.606880 0.887339
0.697167 0.607487 0.966344
0.699601 0.732836 0.065620
0.700382 0.733617 0.167294
0.701276 0.734510 0.283607
0.702193 0.735428 0.403013
0.703126 0.736360 0.524445
0.704071 0.737305 0.647397
0.705025 0.738259 0.771570
0.705986 0.739221 0.896765
0.706593 0.739828 0.975770
0.709109 0.866318 0.075127
0.709890 0.867100 0.176802
0.710783 0.867993 0.293114
0.711701 0.868910 0.412520
0.712634 0.869843 0.533953
0.713578 0.870788 0.656905
0.714532 0.871742 0.781077
0.715494 0.872703 0.906272
0.716101 0.873310 0.985277
0.717695 0.986872 0.083714
0.718476 0.987653 0.185388
0.719370 0.988546 0.301701
0.720287 0.989464 0.421107
0.721220 0.990397 0.542539
0.722165 0.991341 0.665491
0.723119 0.992295 0.789664
0.724080 0.993257 0.914859
0.724687 0.993864 0.993864
0.774961 0.017272 0.017272
0.775742 0.018054 0.118947
0.776635 0.018947 0.235259
0.777553 0.019864 0.354666
0.778485 0.020797 0.476098
0.779430 0.021742 0.599050
0.780384 0.022696 0.723222
0.781346 0.023658 0.848417
0.781953 0.024264 0.927422
0.780378 0.093325 0.022689
0.781159 0.094106 0.124364
0.782052 0.094999 0.240676
0.782969 0.095917 0.360082
0.783902 0.096850 0.481515
0.784847 0.097794 0.604467
0.785801 0.098748 0.728639
0.786763 0.099710 0.853834
0.787370 0.100317 0.932839
0.789135 0.216285 0.031447
0.789917 0.217066 0.133122
0.790810 0.217959 0.249434
0.791727 0.218877 0.368840
0.792660 0.219810 0.490273
0.793605 0.220754 0.613225
0.794559 0.221708 0.737397
0.795521 0.222670 0.862592
0.796127 0.223277 0.941597
0.798170 0.343126 0.040482
0.798951 0.343908 0.142156
0.799845 0.344801 0.258469
0.800762 0.345718 0.377875
0.801695 0.346651 0.499307
0.802639 0.347596 0.622259
0.803593 0.348550 0.746432
0.804555 0.349512 0.871626
0.805162 0.350118 0.950632
0.807374 0.472351 0.049686
0.808155 0.473132 0.151360
0.809049 0.474025 0.267673
0.809966 0.474943 0.387079
0.810899 0.475875 0.508511
0.811843 0.476820 0.631463
0.812797 0.477774 0.755636
0.813759 0.478736 0.880831
0.814366 0.479343 0.959836
0.816702 0.603315 0.059014
0.817483 0.604096 0.160688
0.818377 0.604989 0.277001
0.819294 0.605907 0.396407
0.820227 0.606840 0.517839
0.821171 0.607784 0.640791
0.822125 0.608738 0.764964
0.823087 0.609700 0.890159
0.823694 0.610307 0.969164
0.826128 0.735656 0.068440
0.826909 0.736437 0.170114
0.827803 0.737330 0.286427
0.828720 0.738248 0.405833
0.829653 0.739181 0.527265
0.830597 0.740125 0.650217
0.831551 0.741079 0.774390
0.832513 0.742041 0.899585
0.833120 0.742648 0.978590
0.835636 0.869138 0.077947
0.836417 0.869920 0.179622
0.837310 0.870813 0.295934
0.838228 0.871730 0.415341
0.839160 0.872663 0.536773
0.840105 0.873608 0.659725
0.841059 0.874562 0.783897
0.842021 0.875524 0.909092
0.842628 0.876130 0.988097
0.844222 0.989692 0.086534
0.845003 0.990473 0.188208
0.845897 0.991366 0.304521
0.846814 0.992284 0.423927
0.847747 0.993217 0.545359
0.848691 0.994161 0.668311
0.849645 0.995115 0.792484
0.850607 0.996077 0.917679
0.851214 0.996684 0.996684
0.902453 0.020114 0.020114
0.903234 0.020895 0.121788
0.904127 0.021789 0.238101
0.905045 0.022706 0.357507
0.905978 0.023639 0.478939
0.906922 0.024583 0.601891
0.907876 0.025537 0.726064
0.908838 0.026499 0.851259
0.909445 0.027106 0.930264
0.907870 0.096166 0.025531
0.908651 0.096947 0.127205
0.909544 0.097841 0.243518
0.910462 0.098758 0.362924
0.911395 0.099691 0.484356
0.912339 0.100636 0.607308
0.913293 0.101590 0.731481
0.914255 0.102551 0.856676
0.914862 0.103158 0.935681
0.916628 0.219126 0.034289
0.917409 0.219907 0.135963
0.918302 0.220801 0.252276
0.919220 0.221718 0.371682
0.920152 0.222651 0.493114
0.921097 0.223596 0.616066
0.922051 0.224550 0.740239
0.923013 0.225511 0.865434
0.923620 0.226118 0.944439
0.925662 0.345968 0.043323
0.926443 0.346749 0.144998
0.927337 0.347643 0.261310
0.928254 0.348560 0.380716
0.929187 0.349493 0.502149
0.930131 0.350437 0.625101
0.931085 0.351391 0.749273
0.932047 0.352353 0.874468
0.932654 0.352960 0.953473
0.934866 0.475192 0.052527
0.935647 0.475973 0.154202
0.936541 0.476867 0.270514
0.937458 0.477784 0.389921
0.938391 0.478717 0.511353
0.939336 0.479662 0.634305
0.940289 0.480615 0.758477
0.941251 0.481577 0.883672
0.941858 0.482184 0.962677
0.944194 0.606156 0.061855
0.944975 0.606937 0.163530
0.945869 0.607831 0.279842
0.946786 0.608748 0.399249
0.947719 0.609681 0.520681
0.948664 0.610626 0.643633
0.949618 0.611580 0.767805
0.950579 0.612541 0.893000
0.951186 0.613148 0.972005
0.953620 0.738497 0.071282
0.954401 0.739278 0.172956
0.955295 0.740172 0.289269
0.956212 0.741089 0.408675
0.957145 0.742022 0.530107
0.958090 0.742967 0.653059
0.959044 0.743921 0.777232
0.960005 0.744882 0.902426
0.960612 0.745489 0.981431
0.963128 0.871980 0.080789
0.963909 0.872761 0.182463
0.964802 0.873655 0.298776
0.965720 0.874572 0.418182
0.966653 0.875505 0.539614
0.967597 0.876449 0.662566
0.968551 0.877403 0.786739
0.969513 0.878365 0.911934
0.970120 0.878972 0.990939
0.971714 0.992533 0.089376
0.972495 0.993314 0.191050
0.973389 0.994208 0.307363
0.974306 0.995125 0.426769
0.975239 0.996058 0.548201
0.976184 0.997003 0.671153
0.977138 0.997957 0.795326
0.978099 0.998918 0.920520
0.978706 0.999525 0.999525
