skills/editops-orchestrator/assets/grade/luts/moody_teal_v16.cube
TITLE "moody_teal_v16"
LUT_3D_SIZE 9
DOMAIN_MIN 0.0 0.0 0.0
DOMAIN_MAX 1.0 1.0 1.0
0.000000 0.000000 0.000000
0.001056 0.001056 0.094984
0.002313 0.002313 0.208000
0.003616 0.003616 0.325249
0.004951 0.004951 0.445286
0.006309 0.006309 0.567425
0.007685 0.007685 0.691259
0.009078 0.009078 0.816516
0.009728 0.009728 0.874991
0.005751 0.057387 0.005751
0.006807 0.058443 0.100734
0.008063 0.059700 0.213751
0.009367 0.061003 0.330999
0.010701 0.062338 0.451037
0.012059 0.063696 0.573176
0.013436 0.065072 0.697010
0.014829 0.066465 0.822267
0.015479 0.067115 0.880742
0.017911 0.178733 0.017911
0.018967 0.179789 0.112894
0.020223 0.181046 0.225911
0.021527 0.182349 0.343159
0.022861 0.183684 0.463197
0.024219 0.185042 0.585336
0.025596 0.186419 0.709170
0.026989 0.187811 0.834427
0.027639 0.188461 0.892902
0.030667 0.306026 0.030667
0.031723 0.307082 0.125650
0.032979 0.308339 0.238667
0.034283 0.309642 0.355915
0.035617 0.310977 0.475953
0.036975 0.312335 0.598092
0.038352 0.313712 0.721926
0.039745 0.315104 0.847183
0.040395 0.315754 0.905658
0.043777 0.436853 0.043777
0.044833 0.437909 0.138760
0.046089 0.439165 0.251777
0.047393 0.440469 0.369025
0.048727 0.441803 0.489063
0.050085 0.443161 0.611202
0.051462 0.444538 0.735036
0.052855 0.445931 0.860293
0.053505 0.446581 0.918768
0.057143 0.570237 0.057143
0.058199 0.571293 0.152126
0.059455 0.572549 0.265143
0.060759 0.573853 0.382391
0.062094 0.575187 0.502429
0.063451 0.576545 0.624568
0.064828 0.577922 0.748402
0.066221 0.579315 0.873659
0.066871 0.579965 0.932134
0.070711 0.705637 0.070711
0.071767 0.706693 0.165695
0.073024 0.707949 0.278711
0.074327 0.709253 0.395960
0.075662 0.710587 0.515997
0.077020 0.711945 0.638136
0.078397 0.713322 0.761970
0.079789 0.714715 0.887228
0.080439 0.715365 0.945702
0.084447 0.842706 0.084447
0.085503 0.843762 0.179430
0.086759 0.845019 0.292447
0.088063 0.846322 0.409695
0.089397 0.847657 0.529733
0.090755 0.849015 0.651872
0.092132 0.850392 0.775706
0.093525 0.851784 0.900963
0.094175 0.852434 0.959438
0.096364 0.961627 0.096364
0.097420 0.962683 0.191347
0.098676 0.963939 0.304364
0.099980 0.965243 0.421612
0.101314 0.966578 0.541650
0.102672 0.967935 0.663789
0.104049 0.969312 0.787623
0.105442 0.970705 0.912880
0.106092 0.971355 0.971355
0.012064 0.000387 0.000387
0.013120 0.001443 0.095370
0.014376 0.002699 0.208387
0.015680 0.004003 0.325635
0.017015 0.005337 0.445672
0.018372 0.006695 0.567812
0.019749 0.008072 0.691646
0.021142 0.009464 0.816903
0.021792 0.010115 0.875378
0.017815 0.057774 0.006137
0.018871 0.058830 0.101121
0.020127 0.060086 0.214137
0.021431 0.061390 0.331386
0.022765 0.062724 0.451423
0.024123 0.064082 0.573563
0.025500 0.065459 0.697396
0.026893 0.066852 0.822654
0.027543 0.067502 0.881128
0.029975 0.179120 0.018297
0.031031 0.180176 0.113281
0.032287 0.181432 0.226297
0.033591 0.182736 0.343546
0.034925 0.184070 0.463583
0.036283 0.185428 0.585723
0.037660 0.186805 0.709556
0.039053 0.188198 0.834814
0.039703 0.188848 0.893288
0.042731 0.306413 0.031053
0.043787 0.307469 0.126037
0.045043 0.308725 0.239053
0.046347 0.310029 0.356302
0.047681 0.311363 0.476339
0.049039 0.312721 0.598478
0.050416 0.314098 0.722312
0.051808 0.315491 0.847570
0.052459 0.316141 0.906044
0.055841 0.437239 0.044163
0.056897 0.438295 0.139147
0.058153 0.439552 0.252163
0.059457 0.440856 0.369412
0.060791 0.442190 0.489449
0.062149 0.443548 0.611588
0.063526 0.444925 0.735422
0.064918 0.446317 0.860680
0.065569 0.446967 0.919154
0.069207 0.570623 0.057530
0.070263 0.571679 0.152513
0.071519 0.572936 0.265530
0.072823 0.574239 0.382778
0.074157 0.575574 0.502815
0.075515 0.576932 0.624955
0.076892 0.578309 0.748789
0.078285 0.579701 0.874046
0.078935 0.580351 0.932521
0.082775 0.706023 0.071098
0.083831 0.707079 0.166081
0.085088 0.708336 0.279098
0.086391 0.709639 0.396346
0.087726 0.710974 0.516384
0.089084 0.712332 0.638523
0.090460 0.713709 0.762357
0.091853 0.715101 0.887614
0.092503 0.715751 0.946089
0.096511 0.843093 0.084833
0.097567 0.844149 0.179817
0.098823 0.845405 0.292834
0.100127 0.846709 0.410082
0.101461 0.848044 0.530119
0.102819 0.849401 0.652259
0.104196 0.850778 0.776093
0.105589 0.852171 0.901350
0.106239 0.852821 0.959825
0.108428 0.962014 0.096750
0.109484 0.963070 0.191734
0.110740 0.964326 0.304751
0.112044 0.965630 0.421999
0.113378 0.966964 0.542036
0.114736 0.968322 0.664176
0.116113 0.969699 0.788010
0.117506 0.971091 0.913267
0.118156 0.971742 0.971742
0.120608 0.003865 0.003865
0.121664 0.004921 0.098848
0.122920 0.006177 0.211865
0.124224 0.007481 0.329113
0.125558 0.008815 0.449151
0.126916 0.010173 0.571290
0.128293 0.011550 0.695124
0.129685 0.012943 0.820381
0.130336 0.013593 0.878856
0.126358 0.061252 0.009616
0.127414 0.062308 0.104599
0.128671 0.063564 0.217616
0.129974 0.064868 0.334864
0.131309 0.066203 0.454901
0.132667 0.067560 0.577041
0.134044 0.068937 0.700875
0.135436 0.070330 0.826132
0.136086 0.070980 0.884607
0.138518 0.182598 0.021776
0.139574 0.183654 0.116759
0.140831 0.184911 0.229776
0.142134 0.186214 0.347024
0.143469 0.187549 0.467061
0.144827 0.188907 0.589201
0.146204 0.190283 0.713035
0.147596 0.191676 0.838292
0.148246 0.192326 0.896767
0.151274 0.309891 0.034531
0.152330 0.310947 0.129515
0.153587 0.312204 0.242532
0.154890 0.313507 0.359780
0.156225 0.314842 0.479817
0.157583 0.316200 0.601957
0.158960 0.317576 0.725791
0.160352 0.318969 0.851048
0.161002 0.319619 0.909523
0.164384 0.440718 0.047641
0.165440 0.441774 0.142625
0.166697 0.443030 0.255642
0.168000 0.444334 0.372890
0.169335 0.445668 0.492927
0.170693 0.447026 0.615067
0.172070 0.448403 0.738901
0.173462 0.449796 0.864158
0.174112 0.450446 0.922633
0.177751 0.574102 0.061008
0.178807 0.575158 0.155991
0.180063 0.576414 0.269008
0.181367 0.577718 0.386256
0.182701 0.579052 0.506294
0.184059 0.580410 0.628433
0.185436 0.581787 0.752267
0.186828 0.583179 0.877524
0.187479 0.583830 0.935999
0.191319 0.709502 0.074576
0.192375 0.710558 0.169560
0.193631 0.711814 0.282576
0.194935 0.713118 0.399825
0.196269 0.714452 0.519862
0.197627 0.715810 0.642001
0.199004 0.717187 0.765835
0.200397 0.718579 0.891092
0.201047 0.719230 0.949567
0.205054 0.846571 0.088312
0.206110 0.847627 0.183295
0.207367 0.848884 0.296312
0.208670 0.850187 0.413560
0.210005 0.851522 0.533598
0.211363 0.852880 0.655737
0.212740 0.854256 0.779571
0.214132 0.855649 0.904828
0.214782 0.856299 0.963303
0.216971 0.965492 0.100229
0.218027 0.966548 0.195212
0.219284 0.967804 0.308229
0.220587 0.969108 0.425477
0.221922 0.970442 0.545515
0.223280 0.971800 0.667654
0.224657 0.973177 0.791488
0.226049 0.974570 0.916745
0.226699 0.975220 0.975220
0.237175 0.007600 0.007600
0.238231 0.008656 0.102584
0.239487 0.009913 0.215600
0.240791 0.011216 0.332849
0.242125 0.012551 0.452886
0.243483 0.013909 0.575025
0.244860 0.015285 0.698859
0.246253 0.016678 0.824117
0.246903 0.017328 0.882591
0.242925 0.064987 0.013351
0.243981 0.066043 0.108334
0.245238 0.067300 0.221351
0.246541 0.068603 0.338599
0.247876 0.069938 0.458637
0.249234 0.071296 0.580776
0.250611 0.072673 0.704610
0.252003 0.074065 0.829867
0.252653 0.074715 0.888342
0.255085 0.186333 0.025511
0.256141 0.187389 0.120494
0.257398 0.188646 0.233511
0.258701 0.189949 0.350759
0.260036 0.191284 0.470797
0.261394 0.192642 0.592936
0.262771 0.194019 0.716770
0.264163 0.195411 0.842027
0.264813 0.196061 0.900502
0.267841 0.313626 0.038267
0.268897 0.314682 0.133250
0.270154 0.315939 0.246267
0.271457 0.317243 0.363515
0.272792 0.318577 0.483553
0.274150 0.319935 0.605692
0.275527 0.321312 0.729526
0.276919 0.322704 0.854783
0.277569 0.323354 0.913258
0.280951 0.444453 0.051377
0.282007 0.445509 0.146360
0.283264 0.446766 0.259377
0.284567 0.448069 0.376625
0.285902 0.449404 0.496663
0.287260 0.450762 0.618802
0.288637 0.452138 0.742636
0.290029 0.453531 0.867893
0.290679 0.454181 0.926368
0.294318 0.577837 0.064743
0.295374 0.578893 0.159727
0.296630 0.580149 0.272743
0.297934 0.581453 0.389992
0.299268 0.582788 0.510029
0.300626 0.584145 0.632168
0.302003 0.585522 0.756002
0.303395 0.586915 0.881260
0.304046 0.587565 0.939734
0.307886 0.713237 0.078311
0.308942 0.714293 0.173295
0.310198 0.715549 0.286312
0.311502 0.716853 0.403560
0.312837 0.718188 0.523597
0.314194 0.719546 0.645737
0.315571 0.720922 0.769571
0.316964 0.722315 0.894828
0.317614 0.722965 0.953303
0.321622 0.850307 0.092047
0.322678 0.851363 0.187031
0.323934 0.852619 0.300047
0.325238 0.853923 0.417296
0.326572 0.855257 0.537333
0.327930 0.856615 0.659472
0.329307 0.857992 0.783306
0.330699 0.859384 0.908563
0.331350 0.860035 0.967038
0.333538 0.969227 0.103964
0.334594 0.970283 0.198948
0.335851 0.971540 0.311964
0.337155 0.972843 0.429213
0.338489 0.974178 0.549250
0.339847 0.975536 0.671389
0.341224 0.976912 0.795223
0.342616 0.978305 0.920480
0.343266 0.978955 0.978955
0.357634 0.011460 0.011460
0.358690 0.012516 0.106444
0.359947 0.013773 0.219460
0.361250 0.015076 0.336709
0.362585 0.016411 0.456746
0.363943 0.017769 0.578886
0.365319 0.019146 0.702719
0.366712 0.020538 0.827977
0.367362 0.021188 0.886451
0.363385 0.068847 0.017211
0.364441 0.069903 0.112195
0.365697 0.071160 0.225211
0.367001 0.072463 0.342460
0.368335 0.073798 0.462497
0.369693 0.075156 0.584636
0.371070 0.076533 0.708470
0.372463 0.077925 0.833727
0.373113 0.078575 0.892202
0.375545 0.190194 0.029371
0.376601 0.191250 0.124355
0.377857 0.192506 0.237371
0.379161 0.193810 0.354620
0.380495 0.195144 0.474657
0.381853 0.196502 0.596796
0.383230 0.197879 0.720630
0.384623 0.199271 0.845887
0.385273 0.199922 0.904362
0.388301 0.317487 0.042127
0.389357 0.318543 0.137110
0.390613 0.319799 0.250127
0.391917 0.321103 0.367375
0.393251 0.322437 0.487413
0.394609 0.323795 0.609552
0.395986 0.325172 0.733386
0.397379 0.326564 0.858643
0.398029 0.327215 0.917118
0.401411 0.448313 0.055237
0.402467 0.449369 0.150220
0.403723 0.450626 0.263237
0.405027 0.451929 0.380485
0.406361 0.453264 0.500523
0.407719 0.454622 0.622662
0.409096 0.455998 0.746496
0.410489 0.457391 0.871753
0.411139 0.458041 0.930228
0.414777 0.581697 0.068603
0.415833 0.582753 0.163587
0.417090 0.584010 0.276603
0.418393 0.585313 0.393852
0.419728 0.586648 0.513889
0.421086 0.588006 0.636028
0.422462 0.589382 0.759862
0.423855 0.590775 0.885120
0.424505 0.591425 0.943594
0.428345 0.717097 0.082172
0.429401 0.718153 0.177155
0.430658 0.719410 0.290172
0.431961 0.720713 0.407420
0.433296 0.722048 0.527457
0.434654 0.723406 0.649597
0.436031 0.724782 0.773431
0.437423 0.726175 0.898688
0.438073 0.726825 0.957163
0.442081 0.854167 0.095907
0.443137 0.855223 0.190891
0.444394 0.856479 0.303907
0.445697 0.857783 0.421156
0.447032 0.859117 0.541193
0.448390 0.860475 0.663332
0.449766 0.861852 0.787166
0.451159 0.863244 0.912424
0.451809 0.863895 0.970898
0.453998 0.973087 0.107824
0.455054 0.974143 0.202808
0.456310 0.975400 0.315824
0.457614 0.976703 0.433073
0.458949 0.978038 0.553110
0.460306 0.979396 0.675249
0.461683 0.980773 0.799083
0.463076 0.982165 0.924340
0.463726 0.982815 0.982815
0.480759 0.015406 0.015406
0.481815 0.016462 0.110389
0.483072 0.017718 0.223406
0.484375 0.019022 0.340654
0.485710 0.020356 0.460692
0.487068 0.021714 0.582831
0.488444 0.023091 0.706665
0.489837 0.024484 0.831922
0.490487 0.025134 0.890397
0.486510 0.072793 0.021157
0.487566 0.073849 0.116140
0.488822 0.075105 0.229157
0.490126 0.076409 0.346405
0.491460 0.077744 0.466442
0.492818 0.079101 0.588582
0.494195 0.080478 0.712416
0.495588 0.081871 0.837673
0.496238 0.082521 0.896148
0.498670 0.194139 0.033316
0.499726 0.195195 0.128300
0.500982 0.196452 0.241317
0.502286 0.197755 0.358565
0.503620 0.199090 0.478602
0.504978 0.200448 0.600742
0.506355 0.201824 0.724576
0.507748 0.203217 0.849833
0.508398 0.203867 0.908308
0.511426 0.321432 0.046072
0.512482 0.322488 0.141056
0.513738 0.323745 0.254073
0.515042 0.325048 0.371321
0.516376 0.326383 0.491358
0.517734 0.327741 0.613498
0.519111 0.329117 0.737332
0.520504 0.330510 0.862589
0.521154 0.331160 0.921064
0.524536 0.452259 0.059182
0.525592 0.453315 0.154166
0.526848 0.454571 0.267183
0.528152 0.455875 0.384431
0.529486 0.457209 0.504468
0.530844 0.458567 0.626608
0.532221 0.459944 0.750442
0.533614 0.461337 0.875699
0.534264 0.461987 0.934174
0.537902 0.585643 0.072549
0.538958 0.586699 0.167532
0.540215 0.587955 0.280549
0.541518 0.589259 0.397797
0.542853 0.590593 0.517835
0.544211 0.591951 0.639974
0.545587 0.593328 0.763808
0.546980 0.594720 0.889065
0.547630 0.595371 0.947540
0.551470 0.721043 0.086117
0.552526 0.722099 0.181101
0.553783 0.723355 0.294117
0.555086 0.724659 0.411366
0.556421 0.725993 0.531403
0.557779 0.727351 0.653542
0.559156 0.728728 0.777376
0.560548 0.730120 0.902633
0.561198 0.730771 0.961108
0.565206 0.858112 0.099853
0.566262 0.859168 0.194836
0.567519 0.860425 0.307853
0.568822 0.861728 0.425101
0.570157 0.863063 0.545139
0.571515 0.864421 0.667278
0.572891 0.865797 0.791112
0.574284 0.867190 0.916369
0.574934 0.867840 0.974844
0.577123 0.977033 0.111770
0.578179 0.978089 0.206753
0.579435 0.979345 0.319770
0.580739 0.980649 0.437018
0.582074 0.981983 0.557055
0.583431 0.983341 0.679195
0.584808 0.984718 0.803029
0.586201 0.986111 0.928286
0.586851 0.986761 0.986761
0.605928 0.019417 0.019417
0.606984 0.020473 0.114400
0.608241 0.021729 0.227417
0.609544 0.023033 0.344665
0.610879 0.024367 0.464703
0.612237 0.025725 0.586842
0.613614 0.027102 0.710676
0.615006 0.028495 0.835933
0.615656 0.029145 0.894408
0.611679 0.076804 0.025168
0.612735 0.077860 0.120151
0.613992 0.079116 0.233168
0.615295 0.080420 0.350416
0.616630 0.081755 0.470453
0.617988 0.083112 0.592593
0.619364 0.084489 0.716427
0.620757 0.085882 0.841684
0.621407 0.086532 0.900159
0.623839 0.198150 0.037328
0.624895 0.199206 0.132311
0.626152 0.200463 0.245328
0.627455 0.201766 0.362576
0.628790 0.203101 0.482613
0.630148 0.204459 0.604753
0.631524 0.205835 0.728587
0.632917 0.207228 0.853844
0.633567 0.207878 0.912319
0.636595 0.325443 0.050083
0.637651 0.326499 0.145067
0.638907 0.327756 0.258084
0.640211 0.329059 0.375332
0.641546 0.330394 0.495369
0.642904 0.331752 0.617509
0.644280 0.333128 0.741343
0.645673 0.334521 0.866600
0.646323 0.335171 0.925075
0.649705 0.456270 0.063193
0.650761 0.457326 0.158177
0.652017 0.458582 0.271194
0.653321 0.459886 0.388442
0.654656 0.461220 0.508479
0.656014 0.462578 0.630619
0.657390 0.463955 0.754453
0.658783 0.465348 0.879710
0.659433 0.465998 0.938185
0.663071 0.589654 0.076560
0.664127 0.590710 0.171543
0.665384 0.591966 0.284560
0.666687 0.593270 0.401808
0.668022 0.594604 0.521846
0.669380 0.595962 0.643985
0.670757 0.597339 0.767819
0.672149 0.598731 0.893076
0.672799 0.599382 0.951551
0.676640 0.725054 0.090128
0.677696 0.726110 0.185112
0.678952 0.727366 0.298128
0.680256 0.728670 0.415377
0.681590 0.730004 0.535414
0.682948 0.731362 0.657553
0.684325 0.732739 0.781387
0.685717 0.734131 0.906644
0.686368 0.734782 0.965119
0.690375 0.862123 0.103864
0.691431 0.863179 0.198847
0.692688 0.864436 0.311864
0.693991 0.865739 0.429112
0.695326 0.867074 0.549150
0.696684 0.868432 0.671289
0.698061 0.869808 0.795123
0.699453 0.871201 0.920380
0.700103 0.871851 0.978855
0.702292 0.981044 0.115781
0.703348 0.982100 0.210764
0.704605 0.983356 0.323781
0.705908 0.984660 0.441029
0.707243 0.985994 0.561066
0.708601 0.987352 0.683206
0.709977 0.988729 0.807040
0.711370 0.990122 0.932297
0.712020 0.990772 0.990772
0.732762 0.023481 0.023481
0.733818 0.024537 0.118465
0.735075 0.025794 0.231481
0.736378 0.027097 0.348730
0.737713 0.028432 0.468767
0.739071 0.029790 0.590906
0.740448 0.031166 0.714740
0.741840 0.032559 0.839998
0.742490 0.033209 0.898472
0.738513 0.080868 0.029232
0.739569 0.081924 0.124215
0.740825 0.083181 0.237232
0.742129 0.084484 0.354480
0.743464 0.085819 0.474518
0.744821 0.087177 0.596657
0.746198 0.088554 0.720491
0.747591 0.089946 0.845748
0.748241 0.090596 0.904223
0.750673 0.202214 0.041392
0.751729 0.203270 0.136375
0.752985 0.204527 0.249392
0.754289 0.205830 0.366640
0.755624 0.207165 0.486678
0.756981 0.208523 0.608817
0.758358 0.209900 0.732651
0.759751 0.211292 0.857908
0.760401 0.211942 0.916383
0.763429 0.329507 0.054148
0.764485 0.330563 0.149131
0.765741 0.331820 0.262148
0.767045 0.333123 0.379396
0.768379 0.334458 0.499434
0.769737 0.335816 0.621573
0.771114 0.337193 0.745407
0.772507 0.338585 0.870664
0.773157 0.339235 0.929139
0.776539 0.460334 0.067258
0.777595 0.461390 0.162241
0.778851 0.462647 0.275258
0.780155 0.463950 0.392506
0.781489 0.465285 0.512544
0.782847 0.466643 0.634683
0.784224 0.468019 0.758517
0.785617 0.469412 0.883774
0.786267 0.470062 0.942249
0.789905 0.593718 0.080624
0.790961 0.594774 0.175608
0.792218 0.596030 0.288624
0.793521 0.597334 0.405873
0.794856 0.598669 0.525910
0.796214 0.600026 0.648049
0.797590 0.601403 0.771883
0.798983 0.602796 0.897140
0.799633 0.603446 0.955615
0.803473 0.729118 0.094192
0.804529 0.730174 0.189176
0.805786 0.731430 0.302193
0.807090 0.732734 0.419441
0.808424 0.734069 0.539478
0.809782 0.735426 0.661618
0.811159 0.736803 0.785452
0.812551 0.738196 0.910709
0.813201 0.738846 0.969184
0.817209 0.866187 0.107928
0.818265 0.867243 0.202912
0.819522 0.868500 0.315928
0.820825 0.869804 0.433177
0.822160 0.871138 0.553214
0.823518 0.872496 0.675353
0.824894 0.873873 0.799187
0.826287 0.875265 0.924444
0.826937 0.875915 0.982919
0.829126 0.985108 0.119845
0.830182 0.986164 0.214829
0.831439 0.987421 0.327845
0.832742 0.988724 0.445094
0.834077 0.990059 0.565131
0.835435 0.991417 0.687270
0.836811 0.992793 0.811104
0.838204 0.994186 0.936361
0.838854 0.994836 0.994836
0.861004 0.027591 0.027591
0.862060 0.028647 0.122574
0.863316 0.029903 0.235591
0.864620 0.031207 0.352839
0.865954 0.032541 0.472877
0.867312 0.033899 0.595016
0.868689 0.035276 0.718850
0.870081 0.036669 0.844107
0.870732 0.037319 0.902582
0.866754 0.084978 0.033341
0.867810 0.086034 0.128325
0.869067 0.087290 0.241342
0.870370 0.088594 0.358590
0.871705 0.089928 0.478627
0.873063 0.091286 0.600767
0.874440 0.092663 0.724601
0.875832 0.094056 0.849858
0.876482 0.094706 0.908333
0.878914 0.206324 0.045501
0.879970 0.207380 0.140485
0.881227 0.208636 0.253502
0.882530 0.209940 0.370750
0.883865 0.211274 0.490787
0.885223 0.212632 0.612927
0.886600 0.214009 0.736761
0.887992 0.215402 0.862018
0.888642 0.216052 0.920492
0.891670 0.333617 0.058257
0.892726 0.334673 0.153241
0.893983 0.335929 0.266257
0.895286 0.337233 0.383506
0.896621 0.338567 0.503543
0.897979 0.339925 0.625683
0.899355 0.341302 0.749516
0.900748 0.342695 0.874774
0.901398 0.343345 0.933248
0.904780 0.464444 0.071367
0.905836 0.465500 0.166351
0.907093 0.466756 0.279367
0.908396 0.468060 0.396616
0.909731 0.469394 0.516653
0.911089 0.470752 0.638793
0.912466 0.472129 0.762626
0.913858 0.473521 0.887884
0.914508 0.474172 0.946358
0.918147 0.597827 0.084734
0.919203 0.598883 0.179717
0.920459 0.600140 0.292734
0.921763 0.601443 0.409982
0.923097 0.602778 0.530019
0.924455 0.604136 0.652159
0.925832 0.605513 0.775993
0.927224 0.606905 0.901250
0.927875 0.607555 0.959725
0.931715 0.733227 0.098302
0.932771 0.734283 0.193285
0.934027 0.735540 0.306302
0.935331 0.736843 0.423550
0.936665 0.738178 0.543588
0.938023 0.739536 0.665727
0.939400 0.740913 0.789561
0.940793 0.742305 0.914818
0.941443 0.742955 0.973293
0.945450 0.870297 0.112037
0.946506 0.871353 0.207021
0.947763 0.872609 0.320038
0.949066 0.873913 0.437286
0.950401 0.875248 0.557323
0.951759 0.876605 0.679463
0.953136 0.877982 0.803297
0.954528 0.879375 0.928554
0.955178 0.880025 0.987029
0.957367 0.989218 0.123954
0.958423 0.990274 0.218938
0.959680 0.991530 0.331955
0.960983 0.992834 0.449203
0.962318 0.994168 0.569240
0.963676 0.995526 0.691380
0.965053 0.996903 0.815214
0.966445 0.998295 0.940471
0.967095 0.998946 0.998946
