skills/editops-orchestrator/assets/grade/luts/moody_teal_v06.cube
TITLE "moody_teal_v06"
LUT_3D_SIZE 5
DOMAIN_MIN 0.0 0.0 0.0
DOMAIN_MAX 1.0 1.0 1.0
0.000000 0.000000 0.000000
0.001246 0.001246 0.225009
0.002591 0.002591 0.468026
0.003962 0.003962 0.715703
0.005168 0.005168 0.933589
0.011123 0.212854 0.011123
0.012369 0.214100 0.236133
0.013714 0.215445 0.479150
0.015085 0.216816 0.726827
0.016291 0.218022 0.944713
0.024417 0.467234 0.024417
0.025663 0.468480 0.249426
0.027008 0.469825 0.492443
0.028379 0.471196 0.740120
0.029585 0.472402 0.958006
0.037980 0.726762 0.037980
0.039225 0.728007 0.262989
0.040570 0.729353 0.506006
0.041941 0.730724 0.753683
0.043148 0.731930 0.971569
0.051193 0.979614 0.051193
0.052439 0.980860 0.276202
0.053784 0.982205 0.519219
0.055155 0.983576 0.766897
0.056361 0.984782 0.984782
0.182728 0.002947 0.002947
0.183973 0.004192 0.227956
0.185318 0.005538 0.470973
0.186690 0.006909 0.718650
0.187896 0.008115 0.936536
0.193851 0.215801 0.014070
0.195097 0.217047 0.239079
0.196442 0.218392 0.482096
0.197813 0.219763 0.729774
0.199019 0.220969 0.947659
0.207145 0.470181 0.027364
0.208390 0.471427 0.252373
0.209735 0.472772 0.495390
0.211107 0.474143 0.743067
0.212313 0.475349 0.960953
0.220707 0.729709 0.040926
0.221953 0.730954 0.265936
0.223298 0.732299 0.508952
0.224669 0.733670 0.756630
0.225875 0.734877 0.974515
0.233921 0.982561 0.054140
0.235166 0.983807 0.279149
0.236512 0.985152 0.522166
0.237883 0.986523 0.769843
0.239089 0.987729 0.987729
0.427127 0.006888 0.006888
0.428373 0.008134 0.231897
0.429718 0.009479 0.474914
0.431089 0.010850 0.722591
0.432295 0.012056 0.940477
0.438251 0.219742 0.018012
0.439496 0.220988 0.243021
0.440841 0.222333 0.486038
0.442212 0.223704 0.733715
0.443419 0.224910 0.951601
0.451544 0.474122 0.031305
0.452790 0.475368 0.256314
0.454135 0.476713 0.499331
0.455506 0.478084 0.747008
0.456712 0.479290 0.964894
0.465107 0.733650 0.044868
0.466352 0.734896 0.269877
0.467698 0.736241 0.512894
0.469069 0.737612 0.760571
0.470275 0.738818 0.978457
0.478320 0.986502 0.058081
0.479566 0.987748 0.283091
0.480911 0.989093 0.526107
0.482282 0.990464 0.773785
0.483488 0.991670 0.991670
0.676763 0.010914 0.010914
0.678009 0.012159 0.235923
0.679354 0.013505 0.478940
0.680725 0.014876 0.726617
0.681931 0.016082 0.944503
0.687887 0.223768 0.022037
0.689133 0.225014 0.247047
0.690478 0.226359 0.490063
0.691849 0.227730 0.737741
0.693055 0.228936 0.955626
0.701180 0.478148 0.035331
0.702426 0.479394 0.260340
0.703771 0.480739 0.503357
0.705142 0.482110 0.751034
0.706348 0.483316 0.968920
0.714743 0.737676 0.048893
0.715989 0.738921 0.273903
0.717334 0.740267 0.516920
0.718705 0.741638 0.764597
0.719911 0.742844 0.982482
0.727957 0.990528 0.062107
0.729202 0.991774 0.287116
0.730548 0.993119 0.530133
0.731919 0.994490 0.777810
0.733125 0.995696 0.995696
0.929698 0.014993 0.014993
0.930943 0.016238 0.240002
0.932289 0.017584 0.483019
0.933660 0.018955 0.730696
0.934866 0.020161 0.948582
0.940821 0.227847 0.026116
0.942067 0.229093 0.251126
0.943412 0.230438 0.494142
0.944783 0.231809 0.741820
0.945989 0.233015 0.959705
0.954115 0.482227 0.039410
0.955360 0.483473 0.264419
0.956706 0.484818 0.507436
0.958077 0.486189 0.755113
0.959283 0.487395 0.972999
0.967677 0.741755 0.052972
0.968923 0.743000 0.277982
0.970268 0.744346 0.520999
0.971639 0.745717 0.768676
0.972845 0.746923 0.986561
0.980891 0.994607 0.066186
0.982137 0.995853 0.291195
0.983482 0.997198 0.534212
0.984853 0.998569 0.781889
0.986059 0.999775 0.999775
