skills/editops-orchestrator/assets/grade/luts/moody_teal_v16.cube
TITLE "moody_teal_v16"
LUT_3D_SIZE 5
DOMAIN_MIN 0.0 0.0 0.0
DOMAIN_MAX 1.0 1.0 1.0
0.000000 0.000000 0.000000
0.002313 0.002313 0.208000
0.004951 0.004951 0.445286
0.007685 0.007685 0.691259
0.009728 0.009728 0.874991
0.017911 0.178733 0.017911
0.020223 0.181046 0.225911
0.022861 0.183684 0.463197
0.025596 0.186419 0.709170
0.027639 0.188461 0.892902
0.043777 0.436853 0.043777
0.046089 0.439165 0.251777
0.048727 0.441803 0.489063
0.051462 0.444538 0.735036
0.053505 0.446581 0.918768
0.070711 0.705637 0.070711
0.073024 0.707949 0.278711
0.075662 0.710587 0.515997
0.078397 0.713322 0.761970
0.080439 0.715365 0.945702
0.096364 0.961627 0.096364
0.098676 0.963939 0.304364
0.101314 0.966578 0.541650
0.104049 0.969312 0.787623
0.106092 0.971355 0.971355
0.120608 0.003865 0.003865
0.122920 0.006177 0.211865
0.125558 0.008815 0.449151
0.128293 0.011550 0.695124
0.130336 0.013593 0.878856
0.138518 0.182598 0.021776
0.140831 0.184911 0.229776
0.143469 0.187549 0.467061
0.146204 0.190283 0.713035
0.148246 0.192326 0.896767
0.164384 0.440718 0.047641
0.166697 0.443030 0.255642
0.169335 0.445668 0.492927
0.172070 0.448403 0.738901
0.174112 0.450446 0.922633
0.191319 0.709502 0.074576
0.193631 0.711814 0.282576
0.196269 0.714452 0.519862
0.199004 0.717187 0.765835
0.201047 0.719230 0.949567
0.216971 0.965492 0.100229
0.219284 0.967804 0.308229
0.221922 0.970442 0.545515
0.224657 0.973177 0.791488
0.226699 0.975220 0.975220
0.357634 0.011460 0.011460
0.359947 0.013773 0.219460
0.362585 0.016411 0.456746
0.365319 0.019146 0.702719
0.367362 0.021188 0.886451
0.375545 0.190194 0.029371
0.377857 0.192506 0.237371
0.380495 0.195144 0.474657
0.383230 0.197879 0.720630
0.385273 0.199922 0.904362
0.401411 0.448313 0.055237
0.403723 0.450626 0.263237
0.406361 0.453264 0.500523
0.409096 0.455998 0.746496
0.411139 0.458041 0.930228
0.428345 0.717097 0.082172
0.430658 0.719410 0.290172
0.433296 0.722048 0.527457
0.436031 0.724782 0.773431
0.438073 0.726825 0.957163
0.453998 0.973087 0.107824
0.456310 0.975400 0.315824
0.458949 0.978038 0.553110
0.461683 0.980773 0.799083
0.463726 0.982815 0.982815
0.605928 0.019417 0.019417
0.608241 0.021729 0.227417
0.610879 0.024367 0.464703
0.613614 0.027102 0.710676
0.615656 0.029145 0.894408
0.623839 0.198150 0.037328
0.626152 0.200463 0.245328
0.628790 0.203101 0.482613
0.631524 0.205835 0.728587
0.633567 0.207878 0.912319
0.649705 0.456270 0.063193
0.652017 0.458582 0.271194
0.654656 0.461220 0.508479
0.657390 0.463955 0.754453
0.659433 0.465998 0.938185
0.676640 0.725054 0.090128
0.678952 0.727366 0.298128
0.681590 0.730004 0.535414
0.684325 0.732739 0.781387
0.686368 0.734782 0.965119
0.702292 0.981044 0.115781
0.704605 0.983356 0.323781
0.707243 0.985994 0.561066
0.709977 0.988729 0.807040
0.712020 0.990772 0.990772
0.861004 0.027591 0.027591
0.863316 0.029903 0.235591
0.865954 0.032541 0.472877
0.868689 0.035276 0.718850
0.870732 0.037319 0.902582
0.878914 0.206324 0.045501
0.881227 0.208636 0.253502
0.883865 0.211274 0.490787
0.886600 0.214009 0.736761
0.888642 0.216052 0.920492
0.904780 0.464444 0.071367
0.907093 0.466756 0.279367
0.909731 0.469394 0.516653
0.912466 0.472129 0.762626
0.914508 0.474172 0.946358
0.931715 0.733227 0.098302
0.934027 0.735540 0.306302
0.936665 0.738178 0.543588
0.939400 0.740913 0.789561
0.941443 0.742955 0.973293
0.957367 0.989218 0.123954
0.959680 0.991530 0.331955
0.962318 0.994168 0.569240
0.965053 0.996903 0.815214
0.967095 0.998946 0.998946
