skills/editops-orchestrator/assets/grade/luts/moody_teal_v07.cube
TITLE "moody_teal_v07"
LUT_3D_SIZE 5
DOMAIN_MIN 0.0 0.0 0.0
DOMAIN_MAX 1.0 1.0 1.0
0.000000 0.000000 0.000000
0.001353 0.001353 0.223225
0.002823 0.002823 0.465712
0.004324 0.004324 0.713266
0.005624 0.005624 0.927729
0.011929 0.209371 0.011929
0.013282 0.210724 0.235154
0.014752 0.212194 0.477640
0.016253 0.213695 0.725195
0.017553 0.214995 0.939658
0.026447 0.464195 0.026447
0.027800 0.465548 0.249672
0.029270 0.467018 0.492159
0.030771 0.468519 0.739714
0.032071 0.469819 0.954176
0.041288 0.724676 0.041288
0.042641 0.726029 0.264513
0.044111 0.727499 0.506999
0.045612 0.729000 0.754554
0.046912 0.730300 0.969017
0.055710 0.977816 0.055710
0.057064 0.979169 0.278935
0.058534 0.980639 0.521422
0.060034 0.982139 0.768977
0.061334 0.983440 0.983440
0.176235 0.003109 0.003109
0.177588 0.004462 0.226334
0.179058 0.005932 0.468821
0.180558 0.007433 0.716376
0.181859 0.008733 0.930838
0.188163 0.212480 0.015038
0.189516 0.213833 0.238263
0.190986 0.215303 0.480749
0.192487 0.216804 0.728304
0.193787 0.218104 0.942767
0.202682 0.467304 0.029556
0.204035 0.468658 0.252781
0.205505 0.470128 0.495268
0.207006 0.471628 0.742823
0.208306 0.472928 0.957286
0.217522 0.727785 0.044397
0.218876 0.729139 0.267622
0.220346 0.730609 0.510109
0.221846 0.732109 0.757664
0.223146 0.733409 0.972126
0.231945 0.980925 0.058820
0.233298 0.982278 0.282044
0.234768 0.983748 0.524531
0.236269 0.985249 0.772086
0.237569 0.986549 0.986549
0.420073 0.007411 0.007411
0.421426 0.008764 0.230636
0.422896 0.010234 0.473123
0.424397 0.011735 0.720678
0.425697 0.013035 0.935140
0.432001 0.216782 0.019340
0.433355 0.218135 0.242565
0.434825 0.219605 0.485051
0.436325 0.221106 0.732606
0.437625 0.222406 0.947069
0.446520 0.471606 0.033858
0.447873 0.472959 0.257083
0.449343 0.474429 0.499570
0.450844 0.475930 0.747125
0.452144 0.477230 0.961588
0.461361 0.732087 0.048699
0.462714 0.733440 0.271924
0.464184 0.734910 0.514411
0.465685 0.736411 0.761966
0.466985 0.737711 0.976428
0.475783 0.985227 0.063121
0.477136 0.986580 0.286346
0.478606 0.988050 0.528833
0.480107 0.989551 0.776388
0.481407 0.990851 0.990851
0.669685 0.011815 0.011815
0.671038 0.013168 0.235040
0.672508 0.014638 0.477526
0.674008 0.016139 0.725081
0.675309 0.017439 0.939544
0.681613 0.221186 0.023744
0.682966 0.222539 0.246969
0.684436 0.224009 0.489455
0.685937 0.225509 0.737010
0.687237 0.226810 0.951473
0.696132 0.476010 0.038262
0.697485 0.477363 0.261487
0.698955 0.478833 0.503974
0.700456 0.480334 0.751529
0.701756 0.481634 0.965991
0.710972 0.736491 0.053103
0.712326 0.737844 0.276328
0.713796 0.739314 0.518814
0.715296 0.740815 0.766369
0.716596 0.742115 0.980832
0.725395 0.989630 0.067525
0.726748 0.990984 0.290750
0.728218 0.992454 0.533237
0.729719 0.993954 0.780792
0.731019 0.995254 0.995254
0.922918 0.016283 0.016283
0.924271 0.017636 0.239507
0.925741 0.019106 0.481994
0.927242 0.020606 0.729549
0.928542 0.021907 0.944012
0.934846 0.225653 0.028211
0.936200 0.227006 0.251436
0.937670 0.228476 0.493923
0.939170 0.229977 0.741478
0.940470 0.231277 0.955941
0.949365 0.480478 0.042730
0.950718 0.481831 0.265955
0.952188 0.483301 0.508441
0.953689 0.484802 0.755996
0.954989 0.486102 0.970459
0.964206 0.740959 0.057570
0.965559 0.742312 0.280795
0.967029 0.743782 0.523282
0.968529 0.745283 0.770837
0.969830 0.746583 0.985300
0.978628 0.994098 0.071993
0.979981 0.995451 0.295218
0.981451 0.996921 0.537704
0.982952 0.998422 0.785259
0.984252 0.999722 0.999722
