skills/editops-orchestrator/assets/grade/luts/moody_teal_v03.cube
TITLE "moody_teal_v03"
LUT_3D_SIZE 5
DOMAIN_MIN 0.0 0.0 0.0
DOMAIN_MAX 1.0 1.0 1.0
0.000000 0.000000 0.000000
0.000921 0.000921 0.230483
0.001898 0.001898 0.475032
0.002888 0.002888 0.723012
0.003800 0.003800 0.951168
0.008537 0.223394 0.008537
0.009458 0.224314 0.239019
0.010435 0.225291 0.483569
0.011425 0.226282 0.731549
0.012337 0.227194 0.959705
0.018204 0.476351 0.018204
0.019125 0.477272 0.248686
0.020102 0.478249 0.493235
0.021092 0.479239 0.741216
0.022004 0.480151 0.969372
0.028011 0.732984 0.028011
0.028932 0.733904 0.258493
0.029909 0.734881 0.503043
0.030899 0.735872 0.751023
0.031811 0.736784 0.979179
0.037642 0.985011 0.037642
0.038563 0.985931 0.268125
0.039540 0.986908 0.512674
0.040531 0.987899 0.760654
0.041442 0.988811 0.988811
0.202542 0.002364 0.002364
0.203463 0.003285 0.232847
0.204440 0.004262 0.477396
0.205430 0.005253 0.725377
0.206342 0.006164 0.953533
0.211079 0.225758 0.010901
0.212000 0.226679 0.241384
0.212977 0.227656 0.485933
0.213967 0.228646 0.733914
0.214879 0.229558 0.962070
0.220745 0.478715 0.020568
0.221666 0.479636 0.251051
0.222643 0.480613 0.495600
0.223634 0.481604 0.743580
0.224545 0.482515 0.971736
0.230553 0.735348 0.030375
0.231473 0.736269 0.260858
0.232450 0.737246 0.505407
0.233441 0.738236 0.753387
0.234353 0.739148 0.981544
0.240184 0.987375 0.040006
0.241105 0.988296 0.270489
0.242082 0.989273 0.515038
0.243072 0.990263 0.763019
0.243984 0.991175 0.991175
0.448407 0.005234 0.005234
0.449328 0.006155 0.235717
0.450305 0.007132 0.480266
0.451296 0.008123 0.728247
0.452207 0.009034 0.956403
0.456944 0.228628 0.013771
0.457865 0.229549 0.244254
0.458842 0.230526 0.488803
0.459833 0.231517 0.736784
0.460744 0.232428 0.964940
0.466611 0.481585 0.023438
0.467532 0.482506 0.253921
0.468509 0.483483 0.498470
0.469500 0.484474 0.746450
0.470411 0.485385 0.974607
0.476418 0.738218 0.033245
0.477339 0.739139 0.263728
0.478316 0.740116 0.508277
0.479307 0.741106 0.756258
0.480218 0.742018 0.984414
0.486050 0.990245 0.042876
0.486970 0.991166 0.273359
0.487947 0.992143 0.517908
0.488938 0.993133 0.765889
0.489850 0.994045 0.994045
0.697978 0.008148 0.008148
0.698898 0.009068 0.238630
0.699875 0.010045 0.483179
0.700866 0.011036 0.731160
0.701778 0.011948 0.959316
0.706515 0.231541 0.016685
0.707435 0.232462 0.247167
0.708412 0.233439 0.491716
0.709403 0.234430 0.739697
0.710315 0.235341 0.967853
0.716181 0.484499 0.026351
0.717102 0.485419 0.256834
0.718079 0.486396 0.501383
0.719070 0.487387 0.749364
0.719981 0.488299 0.977520
0.725989 0.741131 0.036159
0.726909 0.742052 0.266641
0.727886 0.743029 0.511190
0.728877 0.744020 0.759171
0.729789 0.744931 0.987327
0.735620 0.993158 0.045790
0.736541 0.994079 0.276272
0.737518 0.995056 0.520821
0.738508 0.996047 0.768802
0.739420 0.996958 0.996958
0.949908 0.011088 0.011088
0.950829 0.012009 0.241571
0.951806 0.012986 0.486120
0.952796 0.013977 0.734101
0.953708 0.014888 0.962257
0.958445 0.234482 0.019625
0.959366 0.235403 0.250108
0.960343 0.236380 0.494657
0.961333 0.237371 0.742638
0.962245 0.238282 0.970794
0.968112 0.487439 0.029292
0.969032 0.488360 0.259775
0.970009 0.489337 0.504324
0.971000 0.490328 0.752304
0.971912 0.491239 0.980461
0.977919 0.744072 0.039099
0.978840 0.744993 0.269582
0.979817 0.745970 0.514131
0.980807 0.746961 0.762112
0.981719 0.747872 0.990268
0.987550 0.996099 0.048731
0.988471 0.997020 0.279213
0.989448 0.997997 0.523762
0.990438 0.998988 0.771743
0.991350 0.999899 0.999899
