skills/editops-orchestrator/assets/grade/luts/moody_teal_v17.cube
TITLE "moody_teal_v17"
LUT_3D_SIZE 9
DOMAIN_MIN 0.0 0.0 0.0
DOMAIN_MAX 1.0 1.0 1.0
0.000000 0.000000 0.000000
0.001101 0.001101 0.093938
0.002418 0.002418 0.206395
0.003788 0.003788 0.323269
0.005191 0.005191 0.443056
0.006621 0.006621 0.565041
0.008071 0.008071 0.688799
0.009539 0.009539 0.814047
0.010184 0.010184 0.869131
0.005719 0.054410 0.005719
0.006819 0.055511 0.099656
0.008137 0.056828 0.212114
0.009507 0.058198 0.328988
0.010910 0.059601 0.448775
0.012339 0.061031 0.570760
0.013790 0.062481 0.694518
0.015257 0.063948 0.819766
0.015903 0.064594 0.874850
0.018436 0.175413 0.018436
0.019537 0.176514 0.112374
0.020855 0.177832 0.224832
0.022224 0.179201 0.341705
0.023628 0.180605 0.461493
0.025057 0.182034 0.583478
0.026507 0.183484 0.707236
0.027975 0.184952 0.832484
0.028620 0.185597 0.887568
0.031820 0.302746 0.031820
0.032920 0.303847 0.125757
0.034238 0.305164 0.238215
0.035607 0.306534 0.355088
0.037011 0.307937 0.474876
0.038440 0.309367 0.596861
0.039890 0.310817 0.720619
0.041358 0.312285 0.845867
0.042004 0.312930 0.900951
0.045596 0.433817 0.045596
0.046696 0.434918 0.139533
0.048014 0.436236 0.251991
0.049383 0.437605 0.368864
0.050787 0.439009 0.488652
0.052216 0.440438 0.610637
0.053666 0.441888 0.734395
0.055134 0.443356 0.859643
0.055780 0.444001 0.914727
0.059655 0.567590 0.059655
0.060756 0.568691 0.153593
0.062074 0.570009 0.266051
0.063443 0.571378 0.382924
0.064847 0.572782 0.502712
0.066276 0.574211 0.624697
0.067726 0.575661 0.748455
0.069194 0.577129 0.873703
0.069839 0.577774 0.928787
0.073939 0.703491 0.073939
0.075040 0.704592 0.167877
0.076358 0.705910 0.280334
0.077727 0.707279 0.397208
0.079131 0.708683 0.516995
0.080560 0.710112 0.638980
0.082010 0.711562 0.762738
0.083478 0.713030 0.887986
0.084123 0.713675 0.943070
0.088408 0.841155 0.088408
0.089509 0.842256 0.182345
0.090826 0.843573 0.294803
0.092196 0.844943 0.411677
0.093599 0.846346 0.531464
0.095029 0.847776 0.653449
0.096479 0.849226 0.777207
0.097946 0.850693 0.902455
0.098592 0.851339 0.957539
0.100881 0.959828 0.100881
0.101982 0.960929 0.194818
0.103299 0.962247 0.307276
0.104669 0.963616 0.424150
0.106072 0.965020 0.543937
0.107502 0.966449 0.665922
0.108952 0.967899 0.789680
0.110419 0.969367 0.914928
0.111065 0.970012 0.970012
0.007690 0.000259 0.000259
0.008790 0.001360 0.094197
0.010108 0.002678 0.206655
0.011477 0.004047 0.323528
0.012881 0.005451 0.443316
0.014310 0.006880 0.565301
0.015761 0.008330 0.689059
0.017228 0.009798 0.814306
0.017874 0.010443 0.869391
0.013408 0.054669 0.005978
0.014509 0.055770 0.099916
0.015827 0.057088 0.212373
0.017196 0.058457 0.329247
0.018600 0.059861 0.449034
0.020029 0.061290 0.571019
0.021479 0.062740 0.694777
0.022947 0.064208 0.820025
0.023592 0.064853 0.875109
0.026126 0.175673 0.018696
0.027227 0.176773 0.112633
0.028544 0.178091 0.225091
0.029914 0.179460 0.341965
0.031318 0.180864 0.461752
0.032747 0.182293 0.583737
0.034197 0.183744 0.707495
0.035665 0.185211 0.832743
0.036310 0.185857 0.887827
0.039509 0.303005 0.032079
0.040610 0.304106 0.126016
0.041928 0.305424 0.238474
0.043297 0.306793 0.355348
0.044701 0.308197 0.475135
0.046130 0.309626 0.597120
0.047580 0.311076 0.720878
0.049048 0.312544 0.846126
0.049693 0.313189 0.901210
0.053285 0.434077 0.045855
0.054386 0.435178 0.139792
0.055704 0.436495 0.252250
0.057073 0.437865 0.369124
0.058477 0.439268 0.488911
0.059906 0.440698 0.610896
0.061356 0.442148 0.734654
0.062824 0.443615 0.859902
0.063469 0.444261 0.914986
0.067345 0.567850 0.059915
0.068446 0.568950 0.153852
0.069763 0.570268 0.266310
0.071133 0.571638 0.383184
0.072537 0.573041 0.502971
0.073966 0.574470 0.624956
0.075416 0.575921 0.748714
0.076884 0.577388 0.873962
0.077529 0.578034 0.929046
0.081629 0.703751 0.074198
0.082729 0.704852 0.168136
0.084047 0.706169 0.280594
0.085417 0.707539 0.397467
0.086820 0.708942 0.517255
0.088249 0.710372 0.639240
0.089700 0.711822 0.762998
0.091167 0.713289 0.888246
0.091813 0.713935 0.943330
0.096097 0.841414 0.088667
0.097198 0.842515 0.182605
0.098516 0.843833 0.295063
0.099885 0.845202 0.411936
0.101289 0.846606 0.531723
0.102718 0.848035 0.653709
0.104168 0.849485 0.777467
0.105636 0.850953 0.902714
0.106281 0.851598 0.957799
0.108570 0.960088 0.101140
0.109671 0.961188 0.195078
0.110989 0.962506 0.307535
0.112358 0.963876 0.424409
0.113762 0.965279 0.544196
0.115191 0.966708 0.666181
0.116641 0.968159 0.789939
0.118109 0.969626 0.915187
0.118754 0.970272 0.970272
0.114770 0.003872 0.003872
0.115870 0.004972 0.097809
0.117188 0.006290 0.210267
0.118558 0.007660 0.327141
0.119961 0.009063 0.446928
0.121390 0.010493 0.568913
0.122841 0.011943 0.692671
0.124308 0.013410 0.817919
0.124954 0.014056 0.873003
0.120488 0.058282 0.009590
0.121589 0.059382 0.103528
0.122907 0.060700 0.215986
0.124276 0.062069 0.332859
0.125680 0.063473 0.452646
0.127109 0.064902 0.574632
0.128559 0.066353 0.698390
0.130027 0.067820 0.823637
0.130672 0.068466 0.878722
0.133206 0.179285 0.022308
0.134307 0.180386 0.116246
0.135625 0.181703 0.228703
0.136994 0.183073 0.345577
0.138398 0.184476 0.465364
0.139827 0.185906 0.587349
0.141277 0.187356 0.711107
0.142745 0.188823 0.836355
0.143390 0.189469 0.891440
0.146589 0.306618 0.035691
0.147690 0.307718 0.129629
0.149008 0.309036 0.242086
0.150377 0.310406 0.358960
0.151781 0.311809 0.478747
0.153210 0.313239 0.600732
0.154660 0.314689 0.724490
0.156128 0.316156 0.849738
0.156773 0.316802 0.904823
0.160365 0.437689 0.049467
0.161466 0.438790 0.143405
0.162784 0.440108 0.255862
0.164153 0.441477 0.372736
0.165557 0.442881 0.492523
0.166986 0.444310 0.614508
0.168436 0.445760 0.738266
0.169904 0.447228 0.863514
0.170549 0.447873 0.918599
0.174425 0.571462 0.063527
0.175526 0.572563 0.157465
0.176843 0.573880 0.269922
0.178213 0.575250 0.386796
0.179617 0.576653 0.506583
0.181046 0.578083 0.628568
0.182496 0.579533 0.752326
0.183964 0.581000 0.877574
0.184609 0.581646 0.932659
0.188709 0.707363 0.077811
0.189809 0.708464 0.171748
0.191127 0.709782 0.284206
0.192497 0.711151 0.401080
0.193900 0.712555 0.520867
0.195330 0.713984 0.642852
0.196780 0.715434 0.766610
0.198247 0.716902 0.891858
0.198893 0.717547 0.946942
0.203178 0.845027 0.092280
0.204278 0.846127 0.186217
0.205596 0.847445 0.298675
0.206965 0.848814 0.415548
0.208369 0.850218 0.535336
0.209798 0.851647 0.657321
0.211249 0.853098 0.781079
0.212716 0.854565 0.906327
0.213362 0.855211 0.961411
0.215650 0.963700 0.104753
0.216751 0.964801 0.198690
0.218069 0.966118 0.311148
0.219438 0.967488 0.428021
0.220842 0.968891 0.547809
0.222271 0.970321 0.669794
0.223721 0.971771 0.793552
0.225189 0.973238 0.918800
0.225834 0.973884 0.973884
0.230725 0.007783 0.007783
0.231825 0.008884 0.101721
0.233143 0.010202 0.214179
0.234513 0.011571 0.331052
0.235916 0.012975 0.450840
0.237345 0.014404 0.572825
0.238796 0.015854 0.696583
0.240263 0.017322 0.821830
0.240909 0.017967 0.876915
0.236443 0.062193 0.013502
0.237544 0.063294 0.107440
0.238862 0.064612 0.219897
0.240231 0.065981 0.336771
0.241635 0.067385 0.456558
0.243064 0.068814 0.578543
0.244514 0.070264 0.702301
0.245982 0.071732 0.827549
0.246627 0.072377 0.882633
0.249161 0.183197 0.026220
0.250262 0.184297 0.120157
0.251579 0.185615 0.232615
0.252949 0.186984 0.349489
0.254353 0.188388 0.469276
0.255782 0.189817 0.591261
0.257232 0.191268 0.715019
0.258700 0.192735 0.840267
0.259345 0.193381 0.895351
0.262544 0.310529 0.039603
0.263645 0.311630 0.133540
0.264963 0.312948 0.245998
0.266332 0.314317 0.362872
0.267736 0.315721 0.482659
0.269165 0.317150 0.604644
0.270615 0.318600 0.728402
0.272083 0.320068 0.853650
0.272728 0.320713 0.908734
0.276320 0.441601 0.053379
0.277421 0.442702 0.147316
0.278739 0.444019 0.259774
0.280108 0.445389 0.376648
0.281512 0.446792 0.496435
0.282941 0.448222 0.618420
0.284391 0.449672 0.742178
0.285859 0.451139 0.867426
0.286504 0.451785 0.922510
0.290380 0.575374 0.067439
0.291481 0.576474 0.161376
0.292798 0.577792 0.273834
0.294168 0.579161 0.390708
0.295572 0.580565 0.510495
0.297001 0.581994 0.632480
0.298451 0.583445 0.756238
0.299919 0.584912 0.881486
0.300564 0.585558 0.936570
0.304664 0.711275 0.081722
0.305764 0.712376 0.175660
0.307082 0.713693 0.288118
0.308452 0.715063 0.404991
0.309855 0.716466 0.524779
0.311285 0.717896 0.646764
0.312735 0.719346 0.770522
0.314202 0.720813 0.895770
0.314848 0.721459 0.950854
0.319133 0.848938 0.096191
0.320233 0.850039 0.190129
0.321551 0.851357 0.302587
0.322920 0.852726 0.419460
0.324324 0.854130 0.539247
0.325753 0.855559 0.661232
0.327203 0.857009 0.784990
0.328671 0.858477 0.910238
0.329317 0.859122 0.965323
0.331605 0.967612 0.108664
0.332706 0.968712 0.202602
0.334024 0.970030 0.315059
0.335393 0.971399 0.431933
0.336797 0.972803 0.551720
0.338226 0.974232 0.673705
0.339676 0.975683 0.797463
0.341144 0.977150 0.922711
0.341789 0.977796 0.977796
0.350830 0.011835 0.011835
0.351931 0.012936 0.105773
0.353248 0.014253 0.218230
0.354618 0.015623 0.335104
0.356021 0.017027 0.454891
0.357451 0.018456 0.576876
0.358901 0.019906 0.700634
0.360368 0.021374 0.825882
0.361014 0.022019 0.880966
0.356549 0.066245 0.017554
0.357649 0.067346 0.111491
0.358967 0.068663 0.223949
0.360336 0.070033 0.340823
0.361740 0.071436 0.460610
0.363169 0.072866 0.582595
0.364620 0.074316 0.706353
0.366087 0.075783 0.831601
0.366733 0.076429 0.886685
0.369266 0.187248 0.030272
0.370367 0.188349 0.124209
0.371685 0.189667 0.236667
0.373054 0.191036 0.353540
0.374458 0.192440 0.473328
0.375887 0.193869 0.595313
0.377337 0.195319 0.719071
0.378805 0.196787 0.844319
0.379450 0.197432 0.899403
0.382649 0.314581 0.043655
0.383750 0.315682 0.137592
0.385068 0.316999 0.250050
0.386437 0.318369 0.366923
0.387841 0.319773 0.486711
0.389270 0.321202 0.608696
0.390720 0.322652 0.732454
0.392188 0.324120 0.857702
0.392833 0.324765 0.912786
0.396425 0.445652 0.057431
0.397526 0.446753 0.151368
0.398844 0.448071 0.263826
0.400213 0.449440 0.380699
0.401617 0.450844 0.500487
0.403046 0.452273 0.622472
0.404496 0.453723 0.746230
0.405964 0.455191 0.871478
0.406609 0.455836 0.926562
0.410485 0.579425 0.071491
0.411586 0.580526 0.165428
0.412904 0.581844 0.277886
0.414273 0.583213 0.394759
0.415677 0.584617 0.514547
0.417106 0.586046 0.636532
0.418556 0.587496 0.760290
0.420024 0.588964 0.885538
0.420669 0.589609 0.940622
0.424769 0.715327 0.085774
0.425870 0.716427 0.179712
0.427187 0.717745 0.292169
0.428557 0.719114 0.409043
0.429960 0.720518 0.528830
0.431390 0.721947 0.650815
0.432840 0.723398 0.774573
0.434308 0.724865 0.899821
0.434953 0.725511 0.954906
0.439238 0.852990 0.100243
0.440339 0.854091 0.194181
0.441656 0.855408 0.306638
0.443026 0.856778 0.423512
0.444429 0.858181 0.543299
0.445859 0.859611 0.665284
0.447309 0.861061 0.789042
0.448776 0.862528 0.914290
0.449422 0.863174 0.969374
0.451711 0.971663 0.112716
0.452811 0.972764 0.206653
0.454129 0.974082 0.319111
0.455499 0.975451 0.435985
0.456902 0.976855 0.555772
0.458332 0.978284 0.677757
0.459782 0.979734 0.801515
0.461249 0.981202 0.926763
0.461895 0.981847 0.981847
0.473760 0.015982 0.015982
0.474861 0.017083 0.109920
0.476179 0.018400 0.222377
0.477548 0.019770 0.339251
0.478952 0.021174 0.459038
0.480381 0.022603 0.581023
0.481831 0.024053 0.704781
0.483299 0.025521 0.830029
0.483944 0.026166 0.885113
0.479479 0.070392 0.021701
0.480580 0.071493 0.115638
0.481897 0.072810 0.228096
0.483267 0.074180 0.344970
0.484670 0.075583 0.464757
0.486100 0.077013 0.586742
0.487550 0.078463 0.710500
0.489017 0.079930 0.835748
0.489663 0.080576 0.890832
0.492197 0.191395 0.034419
0.493297 0.192496 0.128356
0.494615 0.193814 0.240814
0.495985 0.195183 0.357687
0.497388 0.196587 0.477475
0.498817 0.198016 0.599460
0.500268 0.199466 0.723218
0.501735 0.200934 0.848466
0.502381 0.201579 0.903550
0.505580 0.318728 0.047802
0.506680 0.319829 0.141739
0.507998 0.321146 0.254197
0.509368 0.322516 0.371070
0.510771 0.323920 0.490858
0.512201 0.325349 0.612843
0.513651 0.326799 0.736601
0.515118 0.328267 0.861849
0.515764 0.328912 0.916933
0.519356 0.449799 0.061578
0.520456 0.450900 0.155515
0.521774 0.452218 0.267973
0.523144 0.453587 0.384846
0.524547 0.454991 0.504634
0.525977 0.456420 0.626619
0.527427 0.457870 0.750377
0.528894 0.459338 0.875625
0.529540 0.459983 0.930709
0.533416 0.583572 0.075638
0.534516 0.584673 0.169575
0.535834 0.585991 0.282033
0.537204 0.587360 0.398906
0.538607 0.588764 0.518694
0.540036 0.590193 0.640679
0.541487 0.591643 0.764437
0.542954 0.593111 0.889685
0.543600 0.593756 0.944769
0.547699 0.719474 0.089921
0.548800 0.720574 0.183859
0.550118 0.721892 0.296316
0.551487 0.723261 0.413190
0.552891 0.724665 0.532977
0.554320 0.726094 0.654962
0.555770 0.727545 0.778720
0.557238 0.729012 0.903968
0.557883 0.729658 0.959053
0.562168 0.857137 0.104390
0.563269 0.858238 0.198328
0.564587 0.859555 0.310785
0.565956 0.860925 0.427659
0.567360 0.862328 0.547446
0.568789 0.863758 0.669431
0.570239 0.865208 0.793189
0.571707 0.866675 0.918437
0.572352 0.867321 0.973521
0.574641 0.975810 0.116863
0.575742 0.976911 0.210800
0.577059 0.978229 0.323258
0.578429 0.979598 0.440132
0.579833 0.981002 0.559919
0.581262 0.982431 0.681904
0.582712 0.983881 0.805662
0.584180 0.985349 0.930910
0.584825 0.985994 0.985994
0.598851 0.020202 0.020202
0.599952 0.021303 0.114140
0.601270 0.022620 0.226597
0.602639 0.023990 0.343471
0.604043 0.025393 0.463258
0.605472 0.026823 0.585243
0.606922 0.028273 0.709001
0.608390 0.029741 0.834249
0.609035 0.030386 0.889333
0.604570 0.074612 0.025921
0.605671 0.075713 0.119858
0.606988 0.077030 0.232316
0.608358 0.078400 0.349189
0.609762 0.079803 0.468977
0.611191 0.081233 0.590962
0.612641 0.082683 0.714720
0.614109 0.084150 0.839968
0.614754 0.084796 0.895052
0.617288 0.195615 0.038638
0.618389 0.196716 0.132576
0.619706 0.198034 0.245034
0.621076 0.199403 0.361907
0.622479 0.200807 0.481695
0.623909 0.202236 0.603680
0.625359 0.203686 0.727438
0.626826 0.205154 0.852685
0.627472 0.205799 0.907770
0.630671 0.322948 0.052021
0.631772 0.324049 0.145959
0.633089 0.325366 0.258417
0.634459 0.326736 0.375290
0.635862 0.328139 0.495078
0.637292 0.329569 0.617063
0.638742 0.331019 0.740821
0.640209 0.332486 0.866069
0.640855 0.333132 0.921153
0.644447 0.454019 0.065797
0.645548 0.455120 0.159735
0.646865 0.456438 0.272193
0.648235 0.457807 0.389066
0.649638 0.459211 0.508854
0.651068 0.460640 0.630839
0.652518 0.462090 0.754597
0.653985 0.463558 0.879845
0.654631 0.464203 0.934929
0.658507 0.587792 0.079857
0.659608 0.588893 0.173795
0.660925 0.590211 0.286253
0.662295 0.591580 0.403126
0.663698 0.592984 0.522914
0.665128 0.594413 0.644899
0.666578 0.595863 0.768657
0.668045 0.597331 0.893904
0.668691 0.597976 0.948989
0.672790 0.723693 0.094141
0.673891 0.724794 0.188079
0.675209 0.726112 0.300536
0.676578 0.727481 0.417410
0.677982 0.728885 0.537197
0.679411 0.730314 0.659182
0.680861 0.731764 0.782940
0.682329 0.733232 0.908188
0.682974 0.733877 0.963272
0.687259 0.861357 0.108610
0.688360 0.862458 0.202547
0.689678 0.863775 0.315005
0.691047 0.865145 0.431879
0.692451 0.866548 0.551666
0.693880 0.867978 0.673651
0.695330 0.869428 0.797409
0.696798 0.870895 0.922657
0.697443 0.871541 0.977741
0.699732 0.980030 0.121083
0.700833 0.981131 0.215020
0.702151 0.982449 0.327478
0.703520 0.983818 0.444352
0.704924 0.985222 0.564139
0.706353 0.986651 0.686124
0.707803 0.988101 0.809882
0.709271 0.989569 0.935130
0.709916 0.990214 0.990214
0.725700 0.024481 0.024481
0.726801 0.025582 0.118419
0.728118 0.026900 0.230876
0.729488 0.028269 0.347750
0.730892 0.029673 0.467537
0.732321 0.031102 0.589522
0.733771 0.032552 0.713280
0.735239 0.034020 0.838528
0.735884 0.034665 0.893613
0.731419 0.078891 0.030200
0.732519 0.079992 0.124137
0.733837 0.081309 0.236595
0.735207 0.082679 0.353469
0.736610 0.084082 0.473256
0.738040 0.085512 0.595241
0.739490 0.086962 0.718999
0.740957 0.088430 0.844247
0.741603 0.089075 0.899331
0.744137 0.199894 0.042918
0.745237 0.200995 0.136855
0.746555 0.202313 0.249313
0.747924 0.203682 0.366186
0.749328 0.205086 0.485974
0.750757 0.206515 0.607959
0.752207 0.207965 0.731717
0.753675 0.209433 0.856965
0.754321 0.210078 0.912049
0.757520 0.327227 0.056301
0.758620 0.328328 0.150238
0.759938 0.329646 0.262696
0.761307 0.331015 0.379570
0.762711 0.332419 0.499357
0.764140 0.333848 0.621342
0.765591 0.335298 0.745100
0.767058 0.336766 0.870348
0.767704 0.337411 0.925432
0.771296 0.458299 0.070077
0.772396 0.459399 0.164014
0.773714 0.460717 0.276472
0.775083 0.462086 0.393346
0.776487 0.463490 0.513133
0.777916 0.464919 0.635118
0.779367 0.466370 0.758876
0.780834 0.467837 0.884124
0.781480 0.468483 0.939208
0.785356 0.592071 0.084137
0.786456 0.593172 0.178074
0.787774 0.594490 0.290532
0.789143 0.595859 0.407405
0.790547 0.597263 0.527193
0.791976 0.598692 0.649178
0.793426 0.600142 0.772936
0.794894 0.601610 0.898184
0.795540 0.602255 0.953268
0.799639 0.727973 0.098420
0.800740 0.729073 0.192358
0.802058 0.730391 0.304815
0.803427 0.731760 0.421689
0.804831 0.733164 0.541476
0.806260 0.734593 0.663461
0.807710 0.736044 0.787219
0.809178 0.737511 0.912467
0.809823 0.738157 0.967552
0.814108 0.865636 0.112889
0.815209 0.866737 0.206827
0.816526 0.868054 0.319284
0.817896 0.869424 0.436158
0.819299 0.870827 0.555945
0.820729 0.872257 0.677930
0.822179 0.873707 0.801688
0.823647 0.875175 0.926936
0.824292 0.875820 0.982020
0.826581 0.984309 0.125362
0.827682 0.985410 0.219300
0.828999 0.986728 0.331757
0.830369 0.988097 0.448631
0.831772 0.989501 0.568418
0.833202 0.990930 0.690403
0.834652 0.992380 0.814161
0.836119 0.993848 0.939409
0.836765 0.994493 0.994493
0.854034 0.028810 0.028810
0.855134 0.029911 0.122748
0.856452 0.031229 0.235206
0.857821 0.032598 0.352079
0.859225 0.034002 0.471867
0.860654 0.035431 0.593852
0.862104 0.036881 0.717610
0.863572 0.038349 0.842857
0.864218 0.038994 0.897942
0.859752 0.083220 0.034529
0.860853 0.084321 0.128467
0.862171 0.085639 0.240924
0.863540 0.087008 0.357798
0.864944 0.088412 0.477585
0.866373 0.089841 0.599570
0.867823 0.091291 0.723328
0.869291 0.092759 0.848576
0.869936 0.093404 0.903660
0.872470 0.204224 0.047247
0.873571 0.205324 0.141184
0.874888 0.206642 0.253642
0.876258 0.208011 0.370516
0.877661 0.209415 0.490303
0.879091 0.210844 0.612288
0.880541 0.212295 0.736046
0.882009 0.213762 0.861294
0.882654 0.214408 0.916378
0.885853 0.331556 0.060630
0.886954 0.332657 0.154567
0.888271 0.333975 0.267025
0.889641 0.335344 0.383899
0.891045 0.336748 0.503686
0.892474 0.338177 0.625671
0.893924 0.339627 0.749429
0.895392 0.341095 0.874677
0.896037 0.341740 0.929761
0.899629 0.462628 0.074406
0.900730 0.463729 0.168343
0.902047 0.465046 0.280801
0.903417 0.466416 0.397675
0.904821 0.467819 0.517462
0.906250 0.469249 0.639447
0.907700 0.470699 0.763205
0.909168 0.472166 0.888453
0.909813 0.472812 0.943537
0.913689 0.596401 0.088466
0.914790 0.597501 0.182403
0.916107 0.598819 0.294861
0.917477 0.600189 0.411735
0.918880 0.601592 0.531522
0.920310 0.603021 0.653507
0.921760 0.604472 0.777265
0.923228 0.605939 0.902513
0.923873 0.606585 0.957597
0.927973 0.732302 0.102749
0.929073 0.733403 0.196687
0.930391 0.734720 0.309145
0.931760 0.736090 0.426018
0.933164 0.737493 0.545806
0.934593 0.738923 0.667791
0.936044 0.740373 0.791549
0.937511 0.741840 0.916797
0.938157 0.742486 0.971881
0.942441 0.869965 0.117218
0.943542 0.871066 0.211156
0.944860 0.872384 0.323614
0.946229 0.873753 0.440487
0.947633 0.875157 0.560274
0.949062 0.876586 0.682260
0.950512 0.878036 0.806018
0.951980 0.879504 0.931265
0.952625 0.880149 0.986350
0.954914 0.988639 0.129691
0.956015 0.989739 0.223629
0.957333 0.991057 0.336086
0.958702 0.992426 0.452960
0.960106 0.993830 0.572747
0.961535 0.995259 0.694732
0.962985 0.996710 0.818490
0.964453 0.998177 0.943738
0.965098 0.998823 0.998823
