skills/editops-orchestrator/assets/grade/luts/moody_teal_v03.cube
TITLE "moody_teal_v03"
LUT_3D_SIZE 17
DOMAIN_MIN 0.0 0.0 0.0
DOMAIN_MAX 1.0 1.0 1.0
0.000000 0.000000 0.000000
0.000206 0.000206 0.051598
0.000441 0.000441 0.110469
0.000680 0.000680 0.170199
0.000921 0.000921 0.230483
0.001163 0.001163 0.291178
0.001407 0.001407 0.352202
0.001652 0.001652 0.413499
0.001898 0.001898 0.475032
0.002144 0.002144 0.536770
0.002392 0.002392 0.598690
0.002640 0.002640 0.660776
0.002888 0.002888 0.723012
0.003138 0.003138 0.785386
0.003387 0.003387 0.847887
0.003638 0.003638 0.910507
0.003800 0.003800 0.951168
0.001481 0.038765 0.001481
0.001688 0.038971 0.053079
0.001923 0.039206 0.111950
0.002161 0.039445 0.171680
0.002402 0.039686 0.231964
0.002645 0.039928 0.292659
0.002888 0.040172 0.353683
0.003133 0.040417 0.414981
0.003379 0.040663 0.476513
0.003626 0.040909 0.538251
0.003873 0.041157 0.600172
0.004121 0.041405 0.662258
0.004370 0.041653 0.724494
0.004619 0.041903 0.786867
0.004869 0.042152 0.849369
0.005119 0.042402 0.911988
0.005281 0.042565 0.952650
0.003799 0.099409 0.003799
0.004005 0.099616 0.055397
0.004240 0.099851 0.114268
0.004479 0.100089 0.173998
0.004720 0.100330 0.234281
0.004962 0.100573 0.294977
0.005206 0.100816 0.356001
0.005451 0.101061 0.417298
0.005697 0.101307 0.478831
0.005943 0.101554 0.540568
0.006191 0.101801 0.602489
0.006439 0.102049 0.664575
0.006687 0.102298 0.726811
0.006937 0.102547 0.789185
0.007186 0.102797 0.851686
0.007436 0.103047 0.914306
0.007599 0.103209 0.954967
0.006156 0.161088 0.006156
0.006362 0.161294 0.057754
0.006597 0.161529 0.116625
0.006836 0.161768 0.176355
0.007077 0.162009 0.236638
0.007319 0.162251 0.297334
0.007563 0.162495 0.358358
0.007808 0.162740 0.419655
0.008054 0.162986 0.481188
0.008300 0.163232 0.542925
0.008548 0.163480 0.604846
0.008796 0.163728 0.666932
0.009044 0.163976 0.729168
0.009294 0.164226 0.791542
0.009543 0.164475 0.854043
0.009794 0.164726 0.916663
0.009956 0.164888 0.957324
0.008537 0.223394 0.008537
0.008743 0.223600 0.060135
0.008978 0.223835 0.119006
0.009217 0.224074 0.178736
0.009458 0.224314 0.239019
0.009700 0.224557 0.299715
0.009944 0.224801 0.360739
0.010189 0.225046 0.422036
0.010435 0.225291 0.483569
0.010681 0.225538 0.545307
0.010929 0.225785 0.607227
0.011177 0.226034 0.669313
0.011425 0.226282 0.731549
0.011675 0.226531 0.793923
0.011924 0.226781 0.856424
0.012175 0.227031 0.919044
0.012337 0.227194 0.959705
0.010935 0.286154 0.010935
0.011141 0.286360 0.062533
0.011377 0.286595 0.121404
0.011615 0.286834 0.181134
0.011856 0.287075 0.241418
0.012099 0.287317 0.302113
0.012342 0.287561 0.363137
0.012587 0.287806 0.424435
0.012833 0.288052 0.485967
0.013080 0.288298 0.547705
0.013327 0.288546 0.609626
0.013575 0.288794 0.671712
0.013824 0.289043 0.733948
0.014073 0.289292 0.796321
0.014323 0.289541 0.858823
0.014573 0.289792 0.921442
0.014735 0.289954 0.962104
0.013347 0.349272 0.013347
0.013554 0.349478 0.064945
0.013789 0.349713 0.123816
0.014027 0.349952 0.183546
0.014268 0.350193 0.243830
0.014511 0.350435 0.304525
0.014754 0.350679 0.365549
0.014999 0.350924 0.426847
0.015245 0.351170 0.488379
0.015492 0.351417 0.550117
0.015739 0.351664 0.612038
0.015987 0.351912 0.674124
0.016236 0.352161 0.736360
0.016485 0.352410 0.798733
0.016735 0.352659 0.861235
0.016985 0.352910 0.923854
0.017147 0.353072 0.964516
0.015771 0.412686 0.015771
0.015977 0.412892 0.067369
0.016212 0.413127 0.126240
0.016451 0.413366 0.185970
0.016692 0.413606 0.246253
0.016934 0.413849 0.306949
0.017178 0.414093 0.367973
0.017423 0.414338 0.429270
0.017669 0.414583 0.490802
0.017915 0.414830 0.552540
0.018163 0.415077 0.614461
0.018411 0.415325 0.676547
0.018659 0.415574 0.738783
0.018908 0.415823 0.801157
0.019158 0.416073 0.863658
0.019408 0.416323 0.926278
0.019571 0.416486 0.966939
0.018204 0.476351 0.018204
0.018410 0.476557 0.069802
0.018645 0.476792 0.128673
0.018884 0.477031 0.188402
0.019125 0.477272 0.248686
0.019367 0.477514 0.309382
0.019611 0.477758 0.370406
0.019856 0.478003 0.431703
0.020102 0.478249 0.493235
0.020348 0.478495 0.554973
0.020596 0.478743 0.616894
0.020844 0.478991 0.678980
0.021092 0.479239 0.741216
0.021341 0.479489 0.803590
0.021591 0.479738 0.866091
0.021841 0.479988 0.928711
0.022004 0.480151 0.969372
0.020645 0.540236 0.020645
0.020851 0.540442 0.072243
0.021086 0.540677 0.131114
0.021325 0.540916 0.190844
0.021566 0.541157 0.251128
0.021808 0.541399 0.311823
0.022052 0.541643 0.372847
0.022297 0.541888 0.434144
0.022543 0.542134 0.495677
0.022790 0.542380 0.557415
0.023037 0.542628 0.619335
0.023285 0.542876 0.681421
0.023534 0.543124 0.743657
0.023783 0.543373 0.806031
0.024032 0.543623 0.868532
0.024283 0.543873 0.931152
0.024445 0.544036 0.971813
0.023094 0.604315 0.023094
0.023300 0.604522 0.074692
0.023535 0.604757 0.133563
0.023774 0.604995 0.193293
0.024015 0.605236 0.253576
0.024257 0.605479 0.314272
0.024501 0.605722 0.375296
0.024746 0.605967 0.436593
0.024992 0.606213 0.498126
0.025238 0.606460 0.559863
0.025486 0.606707 0.621784
0.025734 0.606955 0.683870
0.025982 0.607204 0.746106
0.026232 0.607453 0.808480
0.026481 0.607703 0.870981
0.026731 0.607953 0.933601
0.026894 0.608115 0.974262
0.025549 0.668570 0.025549
0.025755 0.668776 0.077147
0.025991 0.669011 0.136018
0.026229 0.669250 0.195748
0.026470 0.669491 0.256032
0.026713 0.669733 0.316727
0.026956 0.669977 0.377751
0.027201 0.670222 0.439049
0.027447 0.670468 0.500581
0.027694 0.670714 0.562319
0.027941 0.670962 0.624240
0.028189 0.671210 0.686326
0.028438 0.671458 0.748562
0.028687 0.671708 0.810935
0.028937 0.671957 0.873437
0.029187 0.672208 0.936056
0.029349 0.672370 0.976718
0.028011 0.732984 0.028011
0.028217 0.733190 0.079609
0.028452 0.733425 0.138480
0.028691 0.733664 0.198210
0.028932 0.733904 0.258493
0.029174 0.734147 0.319189
0.029418 0.734391 0.380213
0.029663 0.734636 0.441510
0.029909 0.734881 0.503043
0.030155 0.735128 0.564780
0.030403 0.735375 0.626701
0.030651 0.735623 0.688787
0.030899 0.735872 0.751023
0.031149 0.736121 0.813397
0.031398 0.736371 0.875898
0.031648 0.736621 0.938518
0.031811 0.736784 0.979179
0.030478 0.797543 0.030478
0.030684 0.797749 0.082076
0.030919 0.797984 0.140947
0.031158 0.798223 0.200677
0.031399 0.798464 0.260961
0.031641 0.798706 0.321656
0.031885 0.798950 0.382680
0.032130 0.799195 0.443977
0.032376 0.799441 0.505510
0.032622 0.799687 0.567248
0.032870 0.799935 0.629168
0.033118 0.800183 0.691254
0.033367 0.800431 0.753490
0.033616 0.800681 0.815864
0.033865 0.800930 0.878365
0.034116 0.801180 0.940985
0.034278 0.801343 0.981646
0.032950 0.862236 0.032950
0.033156 0.862443 0.084548
0.033392 0.862678 0.143419
0.033630 0.862916 0.203149
0.033871 0.863157 0.263433
0.034114 0.863400 0.324128
0.034357 0.863644 0.385152
0.034602 0.863888 0.446450
0.034848 0.864134 0.507982
0.035095 0.864381 0.569720
0.035342 0.864628 0.631641
0.035590 0.864876 0.693727
0.035839 0.865125 0.755963
0.036088 0.865374 0.818336
0.036338 0.865624 0.880838
0.036588 0.865874 0.943457
0.036750 0.866036 0.984119
0.035427 0.927055 0.035427
0.035633 0.927261 0.087025
0.035869 0.927496 0.145896
0.036107 0.927735 0.205626
0.036348 0.927976 0.265910
0.036591 0.928218 0.326605
0.036834 0.928462 0.387629
0.037079 0.928707 0.448927
0.037325 0.928953 0.510459
0.037572 0.929199 0.572197
0.037819 0.929447 0.634118
0.038067 0.929695 0.696204
0.038316 0.929943 0.758440
0.038565 0.930193 0.820813
0.038815 0.930442 0.883315
0.039065 0.930693 0.945934
0.039227 0.930855 0.986596
0.037642 0.985011 0.037642
0.037848 0.985217 0.089240
0.038083 0.985452 0.148111
0.038322 0.985690 0.207841
0.038563 0.985931 0.268125
0.038805 0.986174 0.328820
0.039049 0.986418 0.389844
0.039294 0.986662 0.451141
0.039540 0.986908 0.512674
0.039787 0.987155 0.574412
0.040034 0.987402 0.636333
0.040282 0.987650 0.698418
0.040531 0.987899 0.760654
0.040780 0.988148 0.823028
0.041029 0.988398 0.885529
0.041280 0.988648 0.948149
0.041442 0.988811 0.988811
0.023589 0.000275 0.000275
0.023796 0.000482 0.051873
0.024031 0.000717 0.110744
0.024269 0.000955 0.170474
0.024510 0.001196 0.230758
0.024753 0.001439 0.291453
0.024997 0.001682 0.352477
0.025241 0.001927 0.413775
0.025487 0.002173 0.475307
0.025734 0.002420 0.537045
0.025981 0.002667 0.598966
0.026229 0.002915 0.661052
0.026478 0.003164 0.723288
0.026727 0.003413 0.785661
0.026977 0.003663 0.848163
0.027227 0.003913 0.910782
0.027389 0.004075 0.951444
0.025071 0.039040 0.001757
0.025277 0.039246 0.053355
0.025512 0.039482 0.112226
0.025751 0.039720 0.171956
0.025992 0.039961 0.232239
0.026234 0.040204 0.292935
0.026478 0.040447 0.353959
0.026723 0.040692 0.415256
0.026969 0.040938 0.476788
0.027215 0.041185 0.538526
0.027463 0.041432 0.600447
0.027711 0.041680 0.662533
0.027959 0.041929 0.724769
0.028209 0.042178 0.787143
0.028458 0.042428 0.849644
0.028708 0.042678 0.912264
0.028871 0.042840 0.952925
0.027388 0.099685 0.004074
0.027595 0.099891 0.055672
0.027830 0.100126 0.114543
0.028068 0.100365 0.174273
0.028309 0.100606 0.234557
0.028552 0.100848 0.295252
0.028795 0.101092 0.356276
0.029040 0.101337 0.417574
0.029286 0.101583 0.479106
0.029533 0.101829 0.540844
0.029780 0.102077 0.602765
0.030028 0.102325 0.664851
0.030277 0.102573 0.727087
0.030526 0.102822 0.789460
0.030776 0.103072 0.851962
0.031026 0.103322 0.914581
0.031188 0.103485 0.955243
0.029745 0.161363 0.006431
0.029952 0.161569 0.058029
0.030187 0.161805 0.116900
0.030425 0.162043 0.176630
0.030666 0.162284 0.236914
0.030909 0.162527 0.297609
0.031153 0.162770 0.358633
0.031397 0.163015 0.419931
0.031643 0.163261 0.481463
0.031890 0.163508 0.543201
0.032137 0.163755 0.605122
0.032385 0.164003 0.667208
0.032634 0.164252 0.729444
0.032883 0.164501 0.791817
0.033133 0.164751 0.854319
0.033383 0.165001 0.916938
0.033545 0.165163 0.957600
0.032126 0.223669 0.008812
0.032333 0.223875 0.060410
0.032568 0.224110 0.119281
0.032806 0.224349 0.179011
0.033047 0.224590 0.239295
0.033290 0.224832 0.299990
0.033534 0.225076 0.361014
0.033778 0.225321 0.422312
0.034024 0.225567 0.483844
0.034271 0.225813 0.545582
0.034518 0.226061 0.607503
0.034766 0.226309 0.669589
0.035015 0.226558 0.731825
0.035264 0.226807 0.794198
0.035514 0.227056 0.856700
0.035764 0.227307 0.919319
0.035926 0.227469 0.959981
0.034525 0.286429 0.011211
0.034731 0.286636 0.062809
0.034966 0.286871 0.121680
0.035205 0.287109 0.181410
0.035446 0.287350 0.241693
0.035688 0.287593 0.302389
0.035932 0.287836 0.363413
0.036177 0.288081 0.424710
0.036423 0.288327 0.486242
0.036669 0.288574 0.547980
0.036917 0.288821 0.609901
0.037165 0.289069 0.671987
0.037413 0.289318 0.734223
0.037663 0.289567 0.796597
0.037912 0.289817 0.859098
0.038162 0.290067 0.921718
0.038325 0.290229 0.962379
0.036937 0.349547 0.013623
0.037143 0.349754 0.065221
0.037378 0.349989 0.124092
0.037617 0.350227 0.183822
0.037858 0.350468 0.244105
0.038100 0.350711 0.304801
0.038344 0.350955 0.365825
0.038589 0.351199 0.427122
0.038835 0.351445 0.488654
0.039081 0.351692 0.550392
0.039329 0.351939 0.612313
0.039577 0.352187 0.674399
0.039825 0.352436 0.736635
0.040075 0.352685 0.799009
0.040324 0.352935 0.861510
0.040574 0.353185 0.924130
0.040737 0.353347 0.964791
0.039360 0.412961 0.016046
0.039566 0.413167 0.067644
0.039802 0.413402 0.126515
0.040040 0.413641 0.186245
0.040281 0.413882 0.246529
0.040524 0.414124 0.307224
0.040767 0.414368 0.368248
0.041012 0.414613 0.429545
0.041258 0.414859 0.491078
0.041505 0.415105 0.552816
0.041752 0.415353 0.614737
0.042000 0.415601 0.676822
0.042249 0.415849 0.739058
0.042498 0.416099 0.801432
0.042748 0.416348 0.863933
0.042998 0.416599 0.926553
0.043160 0.416761 0.967215
0.041793 0.476626 0.018479
0.041999 0.476832 0.070077
0.042235 0.477068 0.128948
0.042473 0.477306 0.188678
0.042714 0.477547 0.248962
0.042956 0.477790 0.309657
0.043200 0.478033 0.370681
0.043445 0.478278 0.431978
0.043691 0.478524 0.493511
0.043938 0.478771 0.555249
0.044185 0.479018 0.617170
0.044433 0.479266 0.679255
0.044682 0.479515 0.741491
0.044931 0.479764 0.803865
0.045181 0.480014 0.866366
0.045431 0.480264 0.928986
0.045593 0.480426 0.969648
0.044235 0.540511 0.020920
0.044441 0.540717 0.072518
0.044676 0.540952 0.131389
0.044915 0.541191 0.191119
0.045155 0.541432 0.251403
0.045398 0.541674 0.312098
0.045642 0.541918 0.373122
0.045887 0.542163 0.434420
0.046132 0.542409 0.495952
0.046379 0.542656 0.557690
0.046626 0.542903 0.619611
0.046874 0.543151 0.681697
0.047123 0.543400 0.743933
0.047372 0.543649 0.806306
0.047622 0.543899 0.868808
0.047872 0.544149 0.931427
0.048035 0.544311 0.972089
0.046683 0.604591 0.023369
0.046889 0.604797 0.074967
0.047125 0.605032 0.133838
0.047363 0.605271 0.193568
0.047604 0.605512 0.253852
0.047847 0.605754 0.314547
0.048090 0.605998 0.375571
0.048335 0.606243 0.436869
0.048581 0.606489 0.498401
0.048828 0.606735 0.560139
0.049075 0.606983 0.622060
0.049323 0.607231 0.684145
0.049572 0.607479 0.746381
0.049821 0.607728 0.808755
0.050071 0.607978 0.871256
0.050321 0.608228 0.933876
0.050483 0.608391 0.974538
0.049139 0.668845 0.025825
0.049345 0.669051 0.077423
0.049580 0.669287 0.136294
0.049819 0.669525 0.196023
0.050060 0.669766 0.256307
0.050302 0.670009 0.317003
0.050546 0.670252 0.378027
0.050791 0.670497 0.439324
0.051037 0.670743 0.500856
0.051283 0.670990 0.562594
0.051531 0.671237 0.624515
0.051779 0.671485 0.686601
0.052027 0.671734 0.748837
0.052277 0.671983 0.811211
0.052526 0.672233 0.873712
0.052776 0.672483 0.936332
0.052939 0.672645 0.976993
0.051600 0.733259 0.028286
0.051807 0.733465 0.079884
0.052042 0.733700 0.138755
0.052280 0.733939 0.198485
0.052521 0.734180 0.258769
0.052764 0.734422 0.319464
0.053007 0.734666 0.380488
0.053252 0.734911 0.441786
0.053498 0.735157 0.503318
0.053745 0.735403 0.565056
0.053992 0.735651 0.626977
0.054240 0.735899 0.689063
0.054489 0.736147 0.751299
0.054738 0.736397 0.813672
0.054988 0.736646 0.876174
0.055238 0.736896 0.938793
0.055400 0.737059 0.979455
0.054068 0.797818 0.030753
0.054274 0.798024 0.082351
0.054509 0.798260 0.141222
0.054747 0.798498 0.200952
0.054988 0.798739 0.261236
0.055231 0.798981 0.321931
0.055475 0.799225 0.382955
0.055719 0.799470 0.444253
0.055965 0.799716 0.505785
0.056212 0.799963 0.567523
0.056459 0.800210 0.629444
0.056707 0.800458 0.691530
0.056956 0.800707 0.753766
0.057205 0.800956 0.816139
0.057455 0.801206 0.878641
0.057705 0.801456 0.941260
0.057868 0.801618 0.981922
0.056540 0.862512 0.033226
0.056746 0.862718 0.084823
0.056981 0.862953 0.143695
0.057220 0.863192 0.203424
0.057461 0.863433 0.263708
0.057703 0.863675 0.324404
0.057947 0.863919 0.385427
0.058192 0.864164 0.446725
0.058438 0.864410 0.508257
0.058684 0.864656 0.569995
0.058932 0.864904 0.631916
0.059180 0.865152 0.694002
0.059428 0.865400 0.756238
0.059677 0.865650 0.818612
0.059927 0.865899 0.881113
0.060177 0.866149 0.943733
0.060340 0.866312 0.984394
0.059017 0.927330 0.035703
0.059223 0.927536 0.087300
0.059458 0.927772 0.146172
0.059697 0.928010 0.205901
0.059938 0.928251 0.266185
0.060180 0.928494 0.326881
0.060424 0.928737 0.387905
0.060669 0.928982 0.449202
0.060915 0.929228 0.510734
0.061161 0.929475 0.572472
0.061409 0.929722 0.634393
0.061657 0.929970 0.696479
0.061905 0.930219 0.758715
0.062155 0.930468 0.821089
0.062404 0.930718 0.883590
0.062654 0.930968 0.946210
0.062817 0.931130 0.986871
0.061232 0.985286 0.037917
0.061438 0.985492 0.089515
0.061673 0.985727 0.148386
0.061912 0.985966 0.208116
0.062152 0.986207 0.268400
0.062395 0.986449 0.329095
0.062639 0.986693 0.390119
0.062884 0.986938 0.451417
0.063129 0.987184 0.512949
0.063376 0.987430 0.574687
0.063623 0.987678 0.636608
0.063871 0.987926 0.698694
0.064120 0.988174 0.760930
0.064369 0.988424 0.823304
0.064619 0.988673 0.885805
0.064869 0.988923 0.948424
0.065032 0.989086 0.989086
0.082209 0.000960 0.000960
0.082415 0.001166 0.052557
0.082650 0.001401 0.111429
0.082889 0.001640 0.171158
0.083130 0.001880 0.231442
0.083372 0.002123 0.292138
0.083616 0.002367 0.353161
0.083861 0.002612 0.414459
0.084107 0.002857 0.475991
0.084353 0.003104 0.537729
0.084601 0.003351 0.599650
0.084849 0.003600 0.661736
0.085097 0.003848 0.723972
0.085346 0.004097 0.786346
0.085596 0.004347 0.848847
0.085846 0.004597 0.911467
0.086009 0.004760 0.952128
0.083690 0.039725 0.002441
0.083896 0.039931 0.054039
0.084132 0.040166 0.112910
0.084370 0.040404 0.172640
0.084611 0.040645 0.232924
0.084853 0.040888 0.293619
0.085097 0.041132 0.354643
0.085342 0.041376 0.415940
0.085588 0.041622 0.477473
0.085835 0.041869 0.539211
0.086082 0.042116 0.601131
0.086330 0.042364 0.663217
0.086579 0.042613 0.725453
0.086828 0.042862 0.787827
0.087078 0.043112 0.850328
0.087328 0.043362 0.912948
0.087490 0.043525 0.953609
0.086008 0.100369 0.004759
0.086214 0.100575 0.056356
0.086449 0.100810 0.115227
0.086688 0.101049 0.174957
0.086929 0.101290 0.235241
0.087171 0.101532 0.295936
0.087415 0.101776 0.356960
0.087660 0.102021 0.418258
0.087906 0.102267 0.479790
0.088152 0.102513 0.541528
0.088400 0.102761 0.603449
0.088648 0.103009 0.665535
0.088896 0.103258 0.727771
0.089145 0.103507 0.790145
0.089395 0.103756 0.852646
0.089645 0.104007 0.915265
0.089808 0.104169 0.955927
0.088365 0.162048 0.007116
0.088571 0.162254 0.058713
0.088806 0.162489 0.117584
0.089045 0.162728 0.177314
0.089286 0.162968 0.237598
0.089528 0.163211 0.298294
0.089772 0.163455 0.359317
0.090017 0.163700 0.420615
0.090263 0.163945 0.482147
0.090509 0.164192 0.543885
0.090757 0.164439 0.605806
0.091005 0.164687 0.667892
0.091253 0.164936 0.730128
0.091502 0.165185 0.792502
0.091752 0.165435 0.855003
0.092002 0.165685 0.917623
0.092165 0.165848 0.958284
0.090746 0.224353 0.009497
0.090952 0.224559 0.061094
0.091187 0.224795 0.119965
0.091426 0.225033 0.179695
0.091667 0.225274 0.239979
0.091909 0.225517 0.300675
0.092153 0.225760 0.361698
0.092398 0.226005 0.422996
0.092644 0.226251 0.484528
0.092890 0.226498 0.546266
0.093138 0.226745 0.608187
0.093386 0.226993 0.670273
0.093634 0.227242 0.732509
0.093883 0.227491 0.794883
0.094133 0.227741 0.857384
0.094383 0.227991 0.920004
0.094546 0.228153 0.960665
0.093144 0.287114 0.011895
0.093350 0.287320 0.063493
0.093585 0.287555 0.122364
0.093824 0.287794 0.182094
0.094065 0.288034 0.242378
0.094307 0.288277 0.303073
0.094551 0.288521 0.364097
0.094796 0.288766 0.425394
0.095042 0.289011 0.486927
0.095289 0.289258 0.548665
0.095536 0.289505 0.610585
0.095784 0.289754 0.672671
0.096033 0.290002 0.734907
0.096282 0.290251 0.797281
0.096532 0.290501 0.859782
0.096782 0.290751 0.922402
0.096944 0.290914 0.963063
0.095556 0.350232 0.014307
0.095762 0.350438 0.065905
0.095998 0.350673 0.124776
0.096236 0.350912 0.184506
0.096477 0.351153 0.244790
0.096719 0.351395 0.305485
0.096963 0.351639 0.366509
0.097208 0.351884 0.427806
0.097454 0.352130 0.489339
0.097701 0.352376 0.551077
0.097948 0.352624 0.612997
0.098196 0.352872 0.675083
0.098445 0.353120 0.737319
0.098694 0.353369 0.799693
0.098944 0.353619 0.862194
0.099194 0.353869 0.924814
0.099356 0.354032 0.965475
0.097980 0.413645 0.016730
0.098186 0.413851 0.068328
0.098421 0.414087 0.127199
0.098660 0.414325 0.186929
0.098900 0.414566 0.247213
0.099143 0.414809 0.307908
0.099387 0.415052 0.368932
0.099632 0.415297 0.430230
0.099877 0.415543 0.491762
0.100124 0.415790 0.553500
0.100371 0.416037 0.615421
0.100619 0.416285 0.677507
0.100868 0.416534 0.739743
0.101117 0.416783 0.802116
0.101367 0.417033 0.864618
0.101617 0.417283 0.927237
0.101780 0.417445 0.967899
0.100413 0.477311 0.019163
0.100619 0.477517 0.070761
0.100854 0.477752 0.129632
0.101092 0.477990 0.189362
0.101333 0.478231 0.249646
0.101576 0.478474 0.310341
0.101820 0.478718 0.371365
0.102064 0.478963 0.432663
0.102310 0.479208 0.494195
0.102557 0.479455 0.555933
0.102804 0.479702 0.617854
0.103052 0.479950 0.679940
0.103301 0.480199 0.742176
0.103550 0.480448 0.804549
0.103800 0.480698 0.867051
0.104050 0.480948 0.929670
0.104213 0.481111 0.970332
0.102854 0.541195 0.021605
0.103060 0.541402 0.073203
0.103295 0.541637 0.132074
0.103534 0.541875 0.191803
0.103775 0.542116 0.252087
0.104017 0.542359 0.312783
0.104261 0.542602 0.373807
0.104506 0.542847 0.435104
0.104752 0.543093 0.496636
0.104998 0.543340 0.558374
0.105246 0.543587 0.620295
0.105494 0.543835 0.682381
0.105742 0.544084 0.744617
0.105992 0.544333 0.806991
0.106241 0.544583 0.869492
0.106491 0.544833 0.932112
0.106654 0.544995 0.972773
0.105303 0.605275 0.024054
0.105509 0.605481 0.075651
0.105744 0.605716 0.134522
0.105983 0.605955 0.194252
0.106223 0.606196 0.254536
0.106466 0.606438 0.315231
0.106710 0.606682 0.376255
0.106955 0.606927 0.437553
0.107200 0.607173 0.499085
0.107447 0.607419 0.560823
0.107694 0.607667 0.622744
0.107943 0.607915 0.684830
0.108191 0.608164 0.747066
0.108440 0.608413 0.809440
0.108690 0.608662 0.871941
0.108940 0.608913 0.934560
0.109103 0.609075 0.975222
0.107758 0.669530 0.026509
0.107964 0.669736 0.078107
0.108199 0.669971 0.136978
0.108438 0.670210 0.196708
0.108679 0.670450 0.256992
0.108921 0.670693 0.317687
0.109165 0.670937 0.378711
0.109410 0.671182 0.440008
0.109656 0.671427 0.501541
0.109903 0.671674 0.563279
0.110150 0.671921 0.625199
0.110398 0.672169 0.687285
0.110647 0.672418 0.749521
0.110896 0.672667 0.811895
0.111146 0.672917 0.874396
0.111396 0.673167 0.937016
0.111558 0.673330 0.977677
0.110220 0.733943 0.028971
0.110426 0.734149 0.080568
0.110661 0.734385 0.139439
0.110900 0.734623 0.199169
0.111141 0.734864 0.259453
0.111383 0.735107 0.320148
0.111627 0.735350 0.381172
0.111872 0.735595 0.442470
0.112118 0.735841 0.504002
0.112364 0.736088 0.565740
0.112612 0.736335 0.627661
0.112860 0.736583 0.689747
0.113108 0.736832 0.751983
0.113357 0.737081 0.814357
0.113607 0.737331 0.876858
0.113857 0.737581 0.939477
0.114020 0.737743 0.980139
0.112687 0.798502 0.031438
0.112893 0.798709 0.083035
0.113128 0.798944 0.141907
0.113367 0.799182 0.201636
0.113608 0.799423 0.261920
0.113850 0.799666 0.322616
0.114094 0.799910 0.383640
0.114339 0.800154 0.444937
0.114585 0.800400 0.506469
0.114831 0.800647 0.568207
0.115079 0.800894 0.630128
0.115327 0.801142 0.692214
0.115575 0.801391 0.754450
0.115825 0.801640 0.816824
0.116074 0.801890 0.879325
0.116324 0.802140 0.941945
0.116487 0.802302 0.982606
0.115159 0.863196 0.033910
0.115365 0.863402 0.085508
0.115600 0.863637 0.144379
0.115839 0.863876 0.204109
0.116080 0.864117 0.264392
0.116322 0.864359 0.325088
0.116566 0.864603 0.386112
0.116811 0.864848 0.447409
0.117057 0.865094 0.508942
0.117304 0.865341 0.570679
0.117551 0.865588 0.632600
0.117799 0.865836 0.694686
0.118048 0.866085 0.756922
0.118297 0.866334 0.819296
0.118546 0.866584 0.881797
0.118797 0.866834 0.944417
0.118959 0.866996 0.985078
0.117636 0.928015 0.036387
0.117842 0.928221 0.087985
0.118077 0.928456 0.146856
0.118316 0.928695 0.206586
0.118557 0.928935 0.266869
0.118799 0.929178 0.327565
0.119043 0.929422 0.388589
0.119288 0.929667 0.449886
0.119534 0.929912 0.511419
0.119781 0.930159 0.573157
0.120028 0.930406 0.635077
0.120276 0.930654 0.697163
0.120525 0.930903 0.759399
0.120774 0.931152 0.821773
0.121024 0.931402 0.884274
0.121274 0.931652 0.946894
0.121436 0.931815 0.987555
0.119851 0.985970 0.038602
0.120057 0.986176 0.090200
0.120292 0.986412 0.149071
0.120531 0.986650 0.208801
0.120772 0.986891 0.269084
0.121014 0.987133 0.329780
0.121258 0.987377 0.390804
0.121503 0.987622 0.452101
0.121749 0.987868 0.513633
0.121995 0.988115 0.575371
0.122243 0.988362 0.637292
0.122491 0.988610 0.699378
0.122739 0.988859 0.761614
0.122989 0.989108 0.823988
0.123238 0.989358 0.886489
0.123488 0.989608 0.949109
0.123651 0.989770 0.989770
0.142038 0.001658 0.001658
0.142245 0.001864 0.053256
0.142480 0.002099 0.112127
0.142718 0.002338 0.171857
0.142959 0.002579 0.232141
0.143202 0.002821 0.292836
0.143446 0.003065 0.353860
0.143690 0.003310 0.415157
0.143936 0.003556 0.476690
0.144183 0.003802 0.538428
0.144430 0.004050 0.600348
0.144678 0.004298 0.662434
0.144927 0.004547 0.724670
0.145176 0.004796 0.787044
0.145426 0.005045 0.849545
0.145676 0.005296 0.912165
0.145838 0.005458 0.952826
0.143520 0.040423 0.003139
