skills/editops-orchestrator/assets/grade/luts/moody_teal_v01.cube
TITLE "moody_teal_v01"
LUT_3D_SIZE 9
DOMAIN_MIN 0.0 0.0 0.0
DOMAIN_MAX 1.0 1.0 1.0
0.000000 0.000000 0.000000
0.000340 0.000340 0.113197
0.000703 0.000703 0.234235
0.001069 0.001069 0.356573
0.001439 0.001439 0.479756
0.001810 0.001810 0.603570
0.002183 0.002183 0.727887
0.002557 0.002557 0.852624
0.002888 0.002888 0.962888
0.003078 0.106367 0.003078
0.003418 0.106706 0.116275
0.003781 0.107069 0.237313
0.004147 0.107436 0.359651
0.004517 0.107806 0.482834
0.004888 0.108177 0.606648
0.005261 0.108550 0.730965
0.005635 0.108924 0.855702
0.005966 0.109255 0.965966
0.006670 0.230492 0.006670
0.007009 0.230831 0.119867
0.007372 0.231194 0.240905
0.007739 0.231561 0.363243
0.008109 0.231930 0.486426
0.008480 0.232302 0.610240
0.008853 0.232675 0.734557
0.009227 0.233049 0.859294
0.009558 0.233380 0.969558
0.010302 0.356013 0.010302
0.010642 0.356353 0.123499
0.011005 0.356716 0.244537
0.011372 0.357083 0.366875
0.011741 0.357452 0.490058
0.012112 0.357823 0.613872
0.012485 0.358196 0.738189
0.012859 0.358570 0.862926
0.013190 0.358901 0.973190
0.013960 0.482427 0.013960
0.014300 0.482767 0.127158
0.014663 0.483130 0.248195
0.015030 0.483497 0.370533
0.015399 0.483866 0.493717
0.015771 0.484238 0.617530
0.016143 0.484611 0.741847
0.016518 0.484985 0.866584
0.016848 0.485315 0.976848
0.017638 0.609502 0.017638
0.017977 0.609841 0.130835
0.018340 0.610204 0.251873
0.018707 0.610571 0.374211
0.019076 0.610941 0.497394
0.019448 0.611312 0.621207
0.019821 0.611685 0.745524
0.020195 0.612059 0.870261
0.020526 0.612390 0.980526
0.021330 0.737102 0.021330
0.021670 0.737441 0.134527
0.022033 0.737804 0.255565
0.022399 0.738171 0.377903
0.022769 0.738541 0.501086
0.023140 0.738912 0.624900
0.023513 0.739285 0.749217
0.023887 0.739659 0.873954
0.024218 0.739990 0.984218
0.025035 0.865139 0.025035
0.025375 0.865478 0.138232
0.025738 0.865841 0.259270
0.026105 0.866208 0.381608
0.026474 0.866578 0.504791
0.026845 0.866949 0.628605
0.027218 0.867322 0.752922
0.027592 0.867696 0.877659
0.027923 0.868027 0.987923
0.028608 0.988608 0.028608
0.028948 0.988948 0.141805
0.029311 0.989311 0.262843
0.029677 0.989677 0.385181
0.030047 0.990047 0.508364
0.030418 0.990418 0.632178
0.030791 0.990791 0.756495
0.031165 0.991165 0.881232
0.031496 0.991496 0.991496
0.094567 0.000830 0.000830
0.094907 0.001170 0.114028
0.095270 0.001533 0.235065
0.095637 0.001900 0.357403
0.096006 0.002269 0.480587
0.096378 0.002641 0.604400
0.096751 0.003014 0.728717
0.097125 0.003388 0.853454
0.097455 0.003718 0.963718
0.097645 0.107197 0.003908
0.097985 0.107537 0.117106
0.098348 0.107900 0.238143
0.098715 0.108267 0.360481
0.099084 0.108636 0.483665
0.099456 0.109007 0.607478
0.099829 0.109380 0.731795
0.100203 0.109754 0.856532
0.100533 0.110085 0.966796
0.101237 0.231322 0.007500
0.101577 0.231661 0.120698
0.101940 0.232024 0.241735
0.102307 0.232391 0.364073
0.102676 0.232761 0.487257
0.103048 0.233132 0.611070
0.103420 0.233505 0.735387
0.103795 0.233879 0.860124
0.104125 0.234210 0.970388
0.104870 0.356844 0.011133
0.105209 0.357183 0.124330
0.105572 0.357546 0.245368
0.105939 0.357913 0.367705
0.106308 0.358282 0.490889
0.106680 0.358654 0.614702
0.107053 0.359027 0.739019
0.107427 0.359401 0.863756
0.107758 0.359732 0.974021
0.108528 0.483258 0.014791
0.108867 0.483597 0.127988
0.109230 0.483960 0.249026
0.109597 0.484327 0.371364
0.109967 0.484697 0.494547
0.110338 0.485068 0.618361
0.110711 0.485441 0.742678
0.111085 0.485815 0.867414
0.111416 0.486146 0.977679
0.112205 0.610332 0.018468
0.112544 0.610672 0.131665
0.112907 0.611035 0.252703
0.113274 0.611402 0.375041
0.113644 0.611771 0.498224
0.114015 0.612143 0.622038
0.114388 0.612515 0.746355
0.114762 0.612890 0.871092
0.115093 0.613220 0.981356
0.115897 0.737932 0.022160
0.116237 0.738272 0.135358
0.116600 0.738635 0.256395
0.116967 0.739002 0.378733
0.117336 0.739371 0.501917
0.117708 0.739743 0.625730
0.118081 0.740115 0.750047
0.118455 0.740490 0.874784
0.118785 0.740820 0.985048
0.119602 0.865969 0.025865
0.119942 0.866308 0.139063
0.120305 0.866672 0.260100
0.120672 0.867038 0.382438
0.121041 0.867408 0.505622
0.121413 0.867779 0.629435
0.121786 0.868152 0.753752
0.122160 0.868526 0.878489
0.122490 0.868857 0.988753
0.123175 0.989438 0.029438
0.123515 0.989778 0.142636
0.123878 0.990141 0.263673
0.124245 0.990508 0.386011
0.124614 0.990877 0.509195
0.124986 0.991249 0.633008
0.125359 0.991622 0.757325
0.125733 0.991996 0.882062
0.126063 0.992326 0.992326
0.216016 0.001897 0.001897
0.216355 0.002236 0.115094
0.216718 0.002599 0.236132
0.217085 0.002966 0.358470
0.217455 0.003336 0.481653
0.217826 0.003707 0.605467
0.218199 0.004080 0.729784
0.218573 0.004454 0.854520
0.218904 0.004785 0.964785
0.219094 0.108263 0.004975
0.219433 0.108603 0.118172
0.219796 0.108966 0.239210
0.220163 0.109333 0.361548
0.220533 0.109702 0.484731
0.220904 0.110074 0.608545
0.221277 0.110447 0.732862
0.221651 0.110821 0.857598
0.221982 0.111151 0.967863
0.222686 0.232388 0.008567
0.223025 0.232728 0.121764
0.223388 0.233091 0.242802
0.223755 0.233458 0.365140
0.224125 0.233827 0.488323
0.224496 0.234199 0.612136
0.224869 0.234571 0.736454
0.225243 0.234946 0.861190
0.225574 0.235276 0.971455
0.226318 0.357910 0.012199
0.226658 0.358249 0.125396
0.227021 0.358612 0.246434
0.227388 0.358979 0.368772
0.227757 0.359349 0.491955
0.228128 0.359720 0.615769
0.228501 0.360093 0.740086
0.228875 0.360467 0.864823
0.229206 0.360798 0.975087
0.229976 0.484324 0.015857
0.230316 0.484664 0.129054
0.230679 0.485027 0.250092
0.231046 0.485394 0.372430
0.231415 0.485763 0.495613
0.231786 0.486134 0.619427
0.232159 0.486507 0.743744
0.232533 0.486881 0.868481
0.232864 0.487212 0.978745
0.233653 0.611399 0.019534
0.233993 0.611738 0.132732
0.234356 0.612101 0.253769
0.234723 0.612468 0.376107
0.235092 0.612838 0.499291
0.235464 0.613209 0.623104
0.235837 0.613582 0.747421
0.236211 0.613956 0.872158
0.236541 0.614287 0.982422
0.237346 0.738999 0.023227
0.237685 0.739338 0.136424
0.238048 0.739701 0.257462
0.238415 0.740068 0.379800
0.238785 0.740438 0.502983
0.239156 0.740809 0.626797
0.239529 0.741182 0.751114
0.239903 0.741556 0.875850
0.240234 0.741887 0.986115
0.241051 0.867035 0.026932
0.241390 0.867375 0.140129
0.241753 0.867738 0.261167
0.242120 0.868105 0.383505
0.242490 0.868474 0.506688
0.242861 0.868846 0.630502
0.243234 0.869219 0.754819
0.243608 0.869593 0.879556
0.243939 0.869923 0.989820
0.244624 0.990505 0.030505
0.244963 0.990844 0.143702
0.245326 0.991207 0.264740
0.245693 0.991574 0.387078
0.246063 0.991944 0.510261
0.246434 0.992315 0.634075
0.246807 0.992688 0.758392
0.247181 0.993062 0.883128
0.247512 0.993393 0.993393
0.338900 0.002976 0.002976
0.339239 0.003315 0.116173
0.339602 0.003678 0.237211
0.339969 0.004045 0.359549
0.340339 0.004415 0.482732
0.340710 0.004786 0.606546
0.341083 0.005159 0.730863
0.341457 0.005533 0.855599
0.341788 0.005864 0.965864
0.341978 0.109342 0.006054
0.342317 0.109682 0.119251
0.342680 0.110045 0.240289
0.343047 0.110412 0.362627
0.343417 0.110781 0.485810
0.343788 0.111153 0.609624
0.344161 0.111526 0.733941
0.344535 0.111900 0.858677
0.344866 0.112230 0.968942
0.345570 0.233467 0.009646
0.345909 0.233807 0.122843
0.346272 0.234170 0.243881
0.346639 0.234537 0.366219
0.347008 0.234906 0.489402
0.347380 0.235278 0.613215
0.347753 0.235650 0.737533
0.348127 0.236025 0.862269
0.348458 0.236355 0.972534
0.349202 0.358989 0.013278
0.349541 0.359328 0.126475
0.349904 0.359691 0.247513
0.350271 0.360058 0.369851
0.350641 0.360428 0.493034
0.351012 0.360799 0.616848
0.351385 0.361172 0.741165
0.351759 0.361546 0.865902
0.352090 0.361877 0.976166
0.352860 0.485403 0.016936
0.353199 0.485743 0.130133
0.353562 0.486106 0.251171
0.353929 0.486473 0.373509
0.354299 0.486842 0.496692
0.354670 0.487213 0.620506
0.355043 0.487586 0.744823
0.355417 0.487960 0.869560
0.355748 0.488291 0.979824
0.356537 0.612478 0.020613
0.356877 0.612817 0.133811
0.357240 0.613180 0.254848
0.357607 0.613547 0.377186
0.357976 0.613917 0.500370
0.358347 0.614288 0.624183
0.358720 0.614661 0.748500
0.359094 0.615035 0.873237
0.359425 0.615366 0.983501
0.360230 0.740078 0.024306
0.360569 0.740417 0.137503
0.360932 0.740780 0.258541
0.361299 0.741147 0.380879
0.361669 0.741517 0.504062
0.362040 0.741888 0.627876
0.362413 0.742261 0.752193
0.362787 0.742635 0.876929
0.363118 0.742966 0.987194
0.363935 0.868114 0.028011
0.364274 0.868454 0.141208
0.364637 0.868817 0.262246
0.365004 0.869184 0.384584
0.365374 0.869553 0.507767
0.365745 0.869925 0.631581
0.366118 0.870298 0.755898
0.366492 0.870672 0.880635
0.366823 0.871002 0.990899
0.367508 0.991584 0.031584
0.367847 0.991923 0.144781
0.368210 0.992286 0.265819
0.368577 0.992653 0.388157
0.368947 0.993023 0.511340
0.369318 0.993394 0.635154
0.369691 0.993767 0.759471
0.370065 0.994141 0.884207
0.370396 0.994472 0.994472
0.462683 0.004063 0.004063
0.463023 0.004402 0.117260
0.463386 0.004765 0.238298
0.463753 0.005132 0.360636
0.464122 0.005502 0.483819
0.464494 0.005873 0.607632
0.464867 0.006246 0.731950
0.465241 0.006620 0.856686
0.465571 0.006951 0.966951
0.465761 0.110429 0.007141
0.466101 0.110769 0.120338
0.466464 0.111132 0.241376
0.466831 0.111499 0.363714
0.467200 0.111868 0.486897
0.467572 0.112240 0.610710
0.467945 0.112612 0.735028
0.468319 0.112987 0.859764
0.468649 0.113317 0.970029
0.469353 0.234554 0.010733
0.469693 0.234894 0.123930
0.470056 0.235257 0.244967
0.470423 0.235624 0.367305
0.470792 0.235993 0.490489
0.471164 0.236364 0.614302
0.471536 0.236737 0.738619
0.471911 0.237111 0.863356
0.472241 0.237442 0.973621
0.472986 0.360076 0.014365
0.473325 0.360415 0.127562
0.473688 0.360778 0.248600
0.474055 0.361145 0.370938
0.474425 0.361515 0.494121
0.474796 0.361886 0.617935
0.475169 0.362259 0.742252
0.475543 0.362633 0.866989
0.475874 0.362964 0.977253
0.476644 0.486490 0.018023
0.476983 0.486829 0.131220
0.477346 0.487193 0.252258
0.477713 0.487559 0.374596
0.478083 0.487929 0.497779
0.478454 0.488300 0.621593
0.478827 0.488673 0.745910
0.479201 0.489047 0.870647
0.479532 0.489378 0.980911
0.480321 0.613565 0.021700
0.480660 0.613904 0.134897
0.481023 0.614267 0.255935
0.481390 0.614634 0.378273
0.481760 0.615003 0.501456
0.482131 0.615375 0.625270
0.482504 0.615748 0.749587
0.482878 0.616122 0.874324
0.483209 0.616453 0.984588
0.484013 0.741165 0.025393
0.484353 0.741504 0.138590
0.484716 0.741867 0.259628
0.485083 0.742234 0.381966
0.485452 0.742603 0.505149
0.485824 0.742975 0.628962
0.486197 0.743348 0.753280
0.486571 0.743722 0.878016
0.486901 0.744053 0.988281
0.487718 0.869201 0.029098
0.488058 0.869541 0.142295
0.488421 0.869904 0.263333
0.488788 0.870271 0.385671
0.489157 0.870640 0.508854
0.489529 0.871012 0.632668
0.489902 0.871384 0.756985
0.490276 0.871759 0.881721
0.490606 0.872089 0.991986
0.491291 0.992671 0.032671
0.491631 0.993010 0.145868
0.491994 0.993373 0.266906
0.492361 0.993740 0.389244
0.492730 0.994110 0.512427
0.493102 0.994481 0.636240
0.493475 0.994854 0.760558
0.493849 0.995228 0.885294
0.494179 0.995559 0.995559
0.587128 0.005155 0.005155
0.587467 0.005495 0.118353
0.587830 0.005858 0.239390
0.588197 0.006225 0.361728
0.588567 0.006594 0.484912
0.588938 0.006966 0.608725
0.589311 0.007338 0.733042
0.589685 0.007713 0.857779
0.590016 0.008043 0.968043
0.590206 0.111522 0.008233
0.590545 0.111862 0.121431
0.590908 0.112225 0.242468
0.591275 0.112591 0.364806
0.591645 0.112961 0.487990
0.592016 0.113332 0.611803
0.592389 0.113705 0.736120
0.592763 0.114079 0.860857
0.593094 0.114410 0.971121
0.593798 0.235647 0.011825
0.594137 0.235986 0.125022
0.594500 0.236349 0.246060
0.594867 0.236716 0.368398
0.595237 0.237086 0.491581
0.595608 0.237457 0.615395
0.595981 0.237830 0.739712
0.596355 0.238204 0.864449
0.596686 0.238535 0.974713
0.597430 0.361168 0.015457
0.597769 0.361508 0.128655
0.598132 0.361871 0.249692
0.598499 0.362238 0.372030
0.598869 0.362607 0.495214
0.599240 0.362979 0.619027
0.599613 0.363352 0.743344
0.599987 0.363726 0.868081
0.600318 0.364056 0.978345
0.601088 0.487583 0.019116
0.601428 0.487922 0.132313
0.601791 0.488285 0.253351
0.602158 0.488652 0.375689
0.602527 0.489022 0.498872
0.602898 0.489393 0.622685
0.603271 0.489766 0.747003
0.603645 0.490140 0.871739
0.603976 0.490471 0.982004
0.604765 0.614657 0.022793
0.605105 0.614997 0.135990
0.605468 0.615360 0.257028
0.605835 0.615727 0.379366
0.606204 0.616096 0.502549
0.606576 0.616468 0.626363
0.606948 0.616840 0.750680
0.607323 0.617215 0.875417
0.607653 0.617545 0.985681
0.608458 0.742257 0.026485
0.608797 0.742597 0.139683
0.609160 0.742960 0.260720
0.609527 0.743327 0.383058
0.609897 0.743696 0.506242
0.610268 0.744068 0.630055
0.610641 0.744440 0.754372
0.611015 0.744815 0.879109
0.611346 0.745145 0.989373
0.612163 0.870294 0.030190
0.612502 0.870633 0.143388
0.612865 0.870996 0.264425
0.613232 0.871363 0.386763
0.613602 0.871733 0.509947
0.613973 0.872104 0.633760
0.614346 0.872477 0.758077
0.614720 0.872851 0.882814
0.615051 0.873182 0.993078
0.615736 0.993763 0.033763
0.616075 0.994103 0.146961
0.616438 0.994466 0.267998
0.616805 0.994833 0.390336
0.617175 0.995202 0.513520
0.617546 0.995574 0.637333
0.617919 0.995946 0.761650
0.618293 0.996321 0.886387
0.618624 0.996651 0.996651
0.712095 0.006253 0.006253
0.712435 0.006592 0.119450
0.712798 0.006955 0.240488
0.713165 0.007322 0.362826
0.713534 0.007692 0.486009
0.713906 0.008063 0.609822
0.714279 0.008436 0.734140
0.714653 0.008810 0.858876
0.714983 0.009141 0.969141
0.715173 0.112619 0.009331
0.715513 0.112959 0.122528
0.715876 0.113322 0.243566
0.716243 0.113689 0.365904
0.716612 0.114058 0.489087
0.716984 0.114430 0.612900
0.717357 0.114802 0.737218
0.717731 0.115177 0.861954
0.718061 0.115507 0.972219
0.718765 0.236744 0.012922
0.719105 0.237084 0.126120
0.719468 0.237447 0.247157
0.719835 0.237814 0.369495
0.720204 0.238183 0.492679
0.720576 0.238554 0.616492
0.720948 0.238927 0.740809
0.721323 0.239301 0.865546
0.721653 0.239632 0.975810
0.722398 0.362266 0.016555
0.722737 0.362605 0.129752
0.723100 0.362968 0.250790
0.723467 0.363335 0.373128
0.723836 0.363705 0.496311
0.724208 0.364076 0.620125
0.724581 0.364449 0.744442
0.724955 0.364823 0.869179
0.725286 0.365154 0.979443
0.726056 0.488680 0.020213
0.726395 0.489019 0.133410
0.726758 0.489382 0.254448
0.727125 0.489749 0.376786
0.727495 0.490119 0.499969
0.727866 0.490490 0.623783
0.728239 0.490863 0.748100
0.728613 0.491237 0.872837
0.728944 0.491568 0.983101
0.729733 0.615755 0.023890
0.730072 0.616094 0.137087
0.730435 0.616457 0.258125
0.730802 0.616824 0.380463
0.731172 0.617193 0.503646
0.731543 0.617565 0.627460
0.731916 0.617938 0.751777
0.732290 0.618312 0.876514
0.732621 0.618643 0.986778
0.733425 0.743355 0.027583
0.733765 0.743694 0.140780
0.734128 0.744057 0.261818
0.734495 0.744424 0.384156
0.734864 0.744793 0.507339
0.735236 0.745165 0.631152
0.735609 0.745538 0.755470
0.735983 0.745912 0.880206
0.736313 0.746243 0.990471
0.737130 0.871391 0.031288
0.737470 0.871731 0.144485
0.737833 0.872094 0.265523
0.738200 0.872461 0.387861
0.738569 0.872830 0.511044
0.738941 0.873202 0.634858
0.739314 0.873574 0.759175
0.739688 0.873949 0.883911
0.740018 0.874279 0.994176
0.740703 0.994861 0.034861
0.741043 0.995200 0.148058
0.741406 0.995563 0.269096
0.741773 0.995930 0.391434
0.742142 0.996300 0.514617
0.742514 0.996671 0.638430
0.742887 0.997044 0.762748
0.743261 0.997418 0.887484
0.743591 0.997749 0.997749
0.837497 0.007354 0.007354
0.837836 0.007693 0.120551
0.838199 0.008056 0.241589
0.838566 0.008423 0.363927
0.838936 0.008793 0.487110
0.839307 0.009164 0.610924
0.839680 0.009537 0.735241
0.840054 0.009911 0.859977
0.840385 0.010242 0.970242
0.840575 0.113720 0.010432
0.840914 0.114060 0.123629
0.841277 0.114423 0.244667
0.841644 0.114790 0.367005
0.842014 0.115159 0.490188
0.842385 0.115531 0.614002
0.842758 0.115904 0.738319
0.843132 0.116278 0.863055
0.843463 0.116608 0.973320
0.844167 0.237845 0.014024
0.844506 0.238185 0.127221
0.844869 0.238548 0.248259
0.845236 0.238915 0.370597
0.845605 0.239284 0.493780
0.845977 0.239656 0.617593
0.846350 0.240028 0.741910
0.846724 0.240402 0.866647
0.847055 0.240733 0.976912
0.847799 0.363367 0.017656
0.848138 0.363706 0.130853
0.848501 0.364069 0.251891
0.848868 0.364436 0.374229
0.849238 0.364806 0.497412
0.849609 0.365177 0.621226
0.849982 0.365550 0.745543
0.850356 0.365924 0.870280
0.850687 0.366255 0.980544
0.851457 0.489781 0.021314
0.851796 0.490121 0.134511
0.852160 0.490484 0.255549
0.852526 0.490851 0.377887
0.852896 0.491220 0.501070
0.853267 0.491591 0.624884
0.853640 0.491964 0.749201
0.854014 0.492338 0.873938
0.854345 0.492669 0.984202
0.855134 0.616856 0.024991
0.855474 0.617195 0.138189
0.855837 0.617558 0.259226
0.856204 0.617925 0.381564
0.856573 0.618295 0.504748
0.856944 0.618666 0.628561
0.857317 0.619039 0.752878
0.857691 0.619413 0.877615
0.858022 0.619744 0.987879
0.858827 0.744456 0.028684
0.859166 0.744795 0.141881
0.859529 0.745158 0.262919
0.859896 0.745525 0.385257
0.860266 0.745895 0.508440
0.860637 0.746266 0.632254
0.861010 0.746639 0.756571
0.861384 0.747013 0.881307
0.861715 0.747344 0.991572
0.862532 0.872492 0.032389
0.862871 0.872832 0.145586
0.863234 0.873195 0.266624
0.863601 0.873562 0.388962
0.863971 0.873931 0.512145
0.864342 0.874303 0.635959
0.864715 0.874675 0.760276
0.865089 0.875050 0.885012
0.865420 0.875380 0.995277
0.866105 0.995962 0.035962
0.866444 0.996301 0.149159
0.866807 0.996664 0.270197
0.867174 0.997031 0.392535
0.867544 0.997401 0.515718
0.867915 0.997772 0.639532
0.868288 0.998145 0.763849
0.868662 0.998519 0.888585
0.868993 0.998850 0.998850
0.963269 0.008458 0.008458
0.963608 0.008798 0.121655
0.963971 0.009161 0.242693
0.964338 0.009528 0.365031
0.964707 0.009897 0.488214
0.965079 0.010268 0.612028
0.965452 0.010641 0.736345
0.965826 0.011015 0.861082
0.966157 0.011346 0.971346
0.966347 0.114825 0.011536
0.966686 0.115164 0.124733
0.967049 0.115527 0.245771
0.967416 0.115894 0.368109
0.967785 0.116264 0.491292
0.968157 0.116635 0.615106
0.968530 0.117008 0.739423
0.968904 0.117382 0.864160
0.969235 0.117713 0.974424
0.969938 0.238950 0.015128
0.970278 0.239289 0.128325
0.970641 0.239652 0.249363
0.971008 0.240019 0.371701
0.971377 0.240388 0.494884
0.971749 0.240760 0.618698
0.972122 0.241133 0.743015
0.972496 0.241507 0.867752
0.972826 0.241838 0.978016
0.973571 0.364471 0.018760
0.973910 0.364811 0.131958
0.974273 0.365174 0.252995
0.974640 0.365541 0.375333
0.975010 0.365910 0.498517
0.975381 0.366281 0.622330
0.975754 0.366654 0.746647
0.976128 0.367028 0.871384
0.976459 0.367359 0.981648
0.977229 0.490885 0.022418
0.977568 0.491225 0.135616
0.977931 0.491588 0.256653
0.978298 0.491955 0.378991
0.978668 0.492324 0.502175
0.979039 0.492696 0.625988
0.979412 0.493069 0.750305
0.979786 0.493443 0.875042
0.980117 0.493773 0.985306
0.980906 0.617960 0.026096
0.981246 0.618299 0.139293
0.981609 0.618663 0.260331
0.981976 0.619029 0.382669
0.982345 0.619399 0.505852
0.982716 0.619770 0.629665
0.983089 0.620143 0.753983
0.983463 0.620517 0.878719
0.983794 0.620848 0.988984
0.984599 0.745560 0.029788
0.984938 0.745899 0.142985
0.985301 0.746262 0.264023
0.985668 0.746629 0.386361
0.986037 0.746999 0.509544
0.986409 0.747370 0.633358
0.986782 0.747743 0.757675
0.987156 0.748117 0.882412
0.987487 0.748448 0.992676
0.988304 0.873597 0.033493
0.988643 0.873936 0.146690
0.989006 0.874299 0.267728
0.989373 0.874666 0.390066
0.989743 0.875036 0.513249
0.990114 0.875407 0.637063
0.990487 0.875780 0.761380
0.990861 0.876154 0.886117
0.991192 0.876485 0.996381
0.991877 0.997066 0.037066
0.992216 0.997406 0.150263
0.992579 0.997769 0.271301
0.992946 0.998136 0.393639
0.993315 0.998505 0.516822
0.993687 0.998876 0.640636
0.994060 0.999249 0.764953
0.994434 0.999623 0.889690
0.994765 0.999954 0.999954
