skills/editops-orchestrator/assets/grade/luts/moody_teal_v13.cube
TITLE "moody_teal_v13"
LUT_3D_SIZE 9
DOMAIN_MIN 0.0 0.0 0.0
DOMAIN_MAX 1.0 1.0 1.0
0.000000 0.000000 0.000000
0.000920 0.000920 0.098238
0.001994 0.001994 0.212915
0.003103 0.003103 0.331262
0.004234 0.004234 0.452019
0.005382 0.005382 0.574589
0.006543 0.006543 0.698617
0.007717 0.007717 0.823868
0.008360 0.008360 0.892571
0.005699 0.066553 0.005699
0.006619 0.067473 0.103937
0.007694 0.068547 0.218614
0.008802 0.069655 0.336961
0.009933 0.070786 0.457719
0.011081 0.071934 0.580289
0.012243 0.073096 0.704317
0.013416 0.074269 0.829568
0.014059 0.074913 0.898270
0.016168 0.188797 0.016168
0.017088 0.189718 0.114406
0.018162 0.190792 0.229083
0.019271 0.191900 0.347430
0.020402 0.193031 0.468187
0.021550 0.194179 0.590757
0.022711 0.195341 0.714785
0.023885 0.196514 0.840036
0.024528 0.197157 0.908739
0.027053 0.315910 0.027053
0.027974 0.316830 0.125291
0.029048 0.317904 0.239969
0.030156 0.319012 0.358315
0.031287 0.320143 0.479073
0.032435 0.321291 0.601643
0.033597 0.322453 0.725671
0.034770 0.323626 0.850922
0.035413 0.324270 0.919624
0.038191 0.445963 0.038191
0.039111 0.446883 0.136428
0.040185 0.447958 0.251106
0.041293 0.449066 0.369453
0.042425 0.450197 0.490210
0.043573 0.451345 0.612780
0.044734 0.452507 0.736808
0.045907 0.453680 0.862059
0.046551 0.454323 0.930761
0.049511 0.578156 0.049511
0.050431 0.579076 0.147749
0.051506 0.580150 0.262426
0.052614 0.581258 0.380773
0.053745 0.582389 0.501531
0.054893 0.583537 0.624100
0.056055 0.584699 0.748129
0.057228 0.585872 0.873380
0.057871 0.586516 0.942082
0.060976 0.712037 0.060976
0.061897 0.712957 0.159214
0.062971 0.714031 0.273892
0.064079 0.715140 0.392238
0.065210 0.716271 0.512996
0.066358 0.717419 0.635566
0.067520 0.718580 0.759594
0.068693 0.719753 0.884845
0.069336 0.720397 0.953547
0.072561 0.847318 0.072561
0.073482 0.848238 0.170799
0.074556 0.849312 0.285477
0.075664 0.850421 0.403823
0.076795 0.851552 0.524581
0.077943 0.852700 0.647151
0.079105 0.853861 0.771179
0.080278 0.855034 0.896430
0.080921 0.855678 0.965132
0.082813 0.967023 0.082813
0.083733 0.967943 0.181050
0.084807 0.969017 0.295728
0.085915 0.970126 0.414075
0.087046 0.971257 0.534832
0.088194 0.972405 0.657402
0.089356 0.973567 0.781430
0.090529 0.974740 0.906681
0.091173 0.975383 0.975383
0.026329 0.000713 0.000713
0.027249 0.001633 0.098951
0.028323 0.002707 0.213628
0.029432 0.003816 0.331975
0.030563 0.004947 0.452733
0.031711 0.006095 0.575302
0.032872 0.007257 0.699330
0.034046 0.008430 0.824582
0.034689 0.009073 0.893284
0.032028 0.067266 0.006413
0.032949 0.068186 0.104650
0.034023 0.069260 0.219328
0.035131 0.070369 0.337674
0.036262 0.071500 0.458432
0.037410 0.072648 0.581002
0.038572 0.073809 0.705030
0.039745 0.074982 0.830281
0.040388 0.075626 0.898983
0.042497 0.189511 0.016881
0.043417 0.190431 0.115119
0.044491 0.191505 0.229796
0.045600 0.192613 0.348143
0.046731 0.193744 0.468900
0.047879 0.194892 0.591470
0.049040 0.196054 0.715498
0.050214 0.197227 0.840750
0.050857 0.197871 0.909452
0.053383 0.316623 0.027767
0.054303 0.317543 0.126004
0.055377 0.318617 0.240682
0.056485 0.319726 0.359029
0.057616 0.320857 0.479786
0.058764 0.322005 0.602356
0.059926 0.323166 0.726384
0.061099 0.324339 0.851635
0.061743 0.324983 0.920337
0.064520 0.446676 0.038904
0.065440 0.447597 0.137142
0.066514 0.448671 0.251819
0.067623 0.449779 0.370166
0.068754 0.450910 0.490923
0.069902 0.452058 0.613493
0.071063 0.453220 0.737521
0.072236 0.454393 0.862772
0.072880 0.455036 0.931474
0.075840 0.578869 0.050224
0.076760 0.579789 0.148462
0.077835 0.580863 0.263140
0.078943 0.581971 0.381486
0.080074 0.583102 0.502244
0.081222 0.584250 0.624814
0.082384 0.585412 0.748842
0.083557 0.586585 0.874093
0.084200 0.587229 0.942795
0.087306 0.712750 0.061690
0.088226 0.713670 0.159927
0.089300 0.714744 0.274605
0.090408 0.715853 0.392952
0.091539 0.716984 0.513709
0.092687 0.718132 0.636279
0.093849 0.719293 0.760307
0.095022 0.720467 0.885558
0.095666 0.721110 0.954260
0.098891 0.848031 0.073275
0.099811 0.848951 0.171512
0.100885 0.850025 0.286190
0.101993 0.851134 0.404537
0.103124 0.852265 0.525294
0.104272 0.853413 0.647864
0.105434 0.854574 0.771892
0.106607 0.855748 0.897143
0.107251 0.856391 0.965845
0.109142 0.967736 0.083526
0.110062 0.968656 0.181763
0.111136 0.969731 0.296441
0.112244 0.970839 0.414788
0.113375 0.971970 0.535545
0.114523 0.973118 0.658115
0.115685 0.974280 0.782143
0.116858 0.975453 0.907394
0.117502 0.976096 0.976096
0.138554 0.003753 0.003753
0.139474 0.004673 0.101990
0.140548 0.005747 0.216668
0.141656 0.006856 0.335015
0.142787 0.007987 0.455772
0.143935 0.009135 0.578342
0.145097 0.010296 0.702370
0.146270 0.011469 0.827621
0.146914 0.012113 0.896323
0.144253 0.070306 0.009452
0.145173 0.071226 0.107690
0.146247 0.072300 0.222367
0.147356 0.073408 0.340714
0.148487 0.074539 0.461472
0.149635 0.075687 0.584041
0.150796 0.076849 0.708070
0.151969 0.078022 0.833321
0.152613 0.078666 0.902023
0.154722 0.192550 0.019921
0.155642 0.193470 0.118158
0.156716 0.194545 0.232836
0.157824 0.195653 0.351183
0.158955 0.196784 0.471940
0.160103 0.197932 0.594510
0.161265 0.199094 0.718538
0.162438 0.200267 0.843789
0.163082 0.200910 0.912491
0.165607 0.319663 0.030806
0.166527 0.320583 0.129044
0.167601 0.321657 0.243721
0.168710 0.322765 0.362068
0.169841 0.323896 0.482826
0.170989 0.325044 0.605396
0.172150 0.326206 0.729424
0.173324 0.327379 0.854675
0.173967 0.328023 0.923377
0.176744 0.449716 0.041944
0.177665 0.450636 0.140181
0.178739 0.451710 0.254859
0.179847 0.452819 0.373206
0.180978 0.453950 0.493963
0.182126 0.455098 0.616533
0.183288 0.456260 0.740561
0.184461 0.457433 0.865812
0.185104 0.458076 0.934514
0.188065 0.581908 0.053264
0.188985 0.582829 0.151502
0.190059 0.583903 0.266179
0.191168 0.585011 0.384526
0.192299 0.586142 0.505284
0.193447 0.587290 0.627853
0.194608 0.588452 0.751882
0.195781 0.589625 0.877133
0.196425 0.590268 0.945835
0.199530 0.715790 0.064729
0.200450 0.716710 0.162967
0.201524 0.717784 0.277644
0.202633 0.718892 0.395991
0.203764 0.720023 0.516749
0.204912 0.721171 0.639319
0.206073 0.722333 0.763347
0.207247 0.723506 0.888598
0.207890 0.724150 0.957300
0.211115 0.851071 0.076314
0.212035 0.851991 0.174552
0.213109 0.853065 0.289230
0.214218 0.854174 0.407576
0.215349 0.855305 0.528334
0.216497 0.856453 0.650904
0.217658 0.857614 0.774932
0.218832 0.858787 0.900183
0.219475 0.859431 0.968885
0.221366 0.970776 0.086566
0.222286 0.971696 0.184803
0.223360 0.972770 0.299481
0.224469 0.973879 0.417828
0.225600 0.975010 0.538585
0.226748 0.976158 0.661155
0.227910 0.977319 0.785183
0.229083 0.978493 0.910434
0.229726 0.979136 0.979136
0.256800 0.006956 0.006956
0.257720 0.007876 0.105193
0.258795 0.008950 0.219871
0.259903 0.010058 0.338218
0.261034 0.011189 0.458975
0.262182 0.012338 0.581545
0.263344 0.013499 0.705573
0.264517 0.014672 0.830824
0.265160 0.015316 0.899526
0.262500 0.073509 0.012655
0.263420 0.074429 0.110893
0.264494 0.075503 0.225570
0.265602 0.076611 0.343917
0.266733 0.077742 0.464675
0.267881 0.078890 0.587244
0.269043 0.080052 0.711272
0.270216 0.081225 0.836524
0.270860 0.081869 0.905226
0.272968 0.195753 0.023124
0.273888 0.196673 0.121361
0.274963 0.197747 0.236039
0.276071 0.198856 0.354386
0.277202 0.199987 0.475143
0.278350 0.201135 0.597713
0.279512 0.202297 0.721741
0.280685 0.203470 0.846992
0.281328 0.204113 0.915694
0.283854 0.322866 0.034009
0.284774 0.323786 0.132247
0.285848 0.324860 0.246924
0.286956 0.325968 0.365271
0.288087 0.327099 0.486029
0.289235 0.328247 0.608598
0.290397 0.329409 0.732627
0.291570 0.330582 0.857878
0.292214 0.331226 0.926580
0.294991 0.452919 0.045147
0.295911 0.453839 0.143384
0.296985 0.454913 0.258062
0.298094 0.456022 0.376409
0.299225 0.457153 0.497166
0.300373 0.458301 0.619736
0.301535 0.459463 0.743764
0.302708 0.460636 0.869015
0.303351 0.461279 0.937717
0.306312 0.585111 0.056467
0.307232 0.586031 0.154705
0.308306 0.587106 0.269382
0.309414 0.588214 0.387729
0.310545 0.589345 0.508486
0.311693 0.590493 0.631056
0.312855 0.591655 0.755084
0.314028 0.592828 0.880335
0.314672 0.593471 0.949038
0.317777 0.718993 0.067932
0.318697 0.719913 0.166170
0.319771 0.720987 0.280847
0.320879 0.722095 0.399194
0.322010 0.723226 0.519952
0.323158 0.724374 0.642521
0.324320 0.725536 0.766550
0.325493 0.726709 0.891801
0.326137 0.727353 0.960503
0.329362 0.854274 0.079517
0.330282 0.855194 0.177755
0.331356 0.856268 0.292432
0.332464 0.857376 0.410779
0.333596 0.858507 0.531537
0.334744 0.859655 0.654106
0.335905 0.860817 0.778135
0.337078 0.861990 0.903386
0.337722 0.862634 0.972088
0.339613 0.973979 0.089768
0.340533 0.974899 0.188006
0.341607 0.975973 0.302684
0.342716 0.977082 0.421030
0.343847 0.978213 0.541788
0.344995 0.979361 0.664358
0.346156 0.980522 0.788386
0.347329 0.981695 0.913637
0.347973 0.982339 0.982339
0.378218 0.010245 0.010245
0.379138 0.011165 0.108482
0.380212 0.012239 0.223160
0.381321 0.013347 0.341507
0.382452 0.014478 0.462264
0.383600 0.015626 0.584834
0.384761 0.016788 0.708862
0.385934 0.017961 0.834113
0.386578 0.018605 0.902815
0.383917 0.076797 0.015944
0.384837 0.077717 0.114181
0.385912 0.078792 0.228859
0.387020 0.079900 0.347206
0.388151 0.081031 0.467963
0.389299 0.082179 0.590533
0.390461 0.083341 0.714561
0.391634 0.084514 0.839812
0.392277 0.085157 0.908514
0.394386 0.199042 0.026413
0.395306 0.199962 0.124650
0.396380 0.201036 0.239328
0.397489 0.202145 0.357675
0.398620 0.203276 0.478432
0.399768 0.204424 0.601002
0.400929 0.205585 0.725030
0.402102 0.206759 0.850281
0.402746 0.207402 0.918983
0.405271 0.326154 0.037298
0.406192 0.327074 0.135536
0.407266 0.328148 0.250213
0.408374 0.329257 0.368560
0.409505 0.330388 0.489317
0.410653 0.331536 0.611887
0.411815 0.332698 0.735915
0.412988 0.333871 0.861166
0.413631 0.334514 0.929869
0.416409 0.456208 0.048435
0.417329 0.457128 0.146673
0.418403 0.458202 0.261350
0.419511 0.459311 0.379697
0.420642 0.460442 0.500455
0.421790 0.461590 0.623025
0.422952 0.462751 0.747053
0.424125 0.463924 0.872304
0.424769 0.464568 0.941006
0.427729 0.588400 0.059756
0.428649 0.589320 0.157993
0.429723 0.590394 0.272671
0.430832 0.591503 0.391018
0.431963 0.592634 0.511775
0.433111 0.593782 0.634345
0.434273 0.594943 0.758373
0.435446 0.596117 0.883624
0.436089 0.596760 0.952326
0.439194 0.722281 0.071221
0.440115 0.723202 0.169459
0.441189 0.724276 0.284136
0.442297 0.725384 0.402483
0.443428 0.726515 0.523240
0.444576 0.727663 0.645810
0.445738 0.728825 0.769838
0.446911 0.729998 0.895089
0.447554 0.730641 0.963792
0.450779 0.857562 0.082806
0.451700 0.858483 0.181044
0.452774 0.859557 0.295721
0.453882 0.860665 0.414068
0.455013 0.861796 0.534825
0.456161 0.862944 0.657395
0.457323 0.864106 0.781423
0.458496 0.865279 0.906674
0.459139 0.865922 0.975377
0.461031 0.977268 0.093057
0.461951 0.978188 0.191295
0.463025 0.979262 0.305972
0.464133 0.980370 0.424319
0.465264 0.981501 0.545077
0.466412 0.982649 0.667646
0.467574 0.983811 0.791674
0.468747 0.984984 0.916926
0.469391 0.985628 0.985628
0.501844 0.013593 0.013593
0.502764 0.014513 0.111831
0.503838 0.015587 0.226508
0.504947 0.016696 0.344855
0.506078 0.017827 0.465612
0.507226 0.018975 0.588182
0.508387 0.020137 0.712210
0.509560 0.021310 0.837461
0.510204 0.021953 0.906164
0.507543 0.080146 0.019292
0.508463 0.081066 0.117530
0.509537 0.082140 0.232208
0.510646 0.083249 0.350554
0.511777 0.084380 0.471312
0.512925 0.085528 0.593882
0.514087 0.086689 0.717910
0.515260 0.087862 0.843161
0.515903 0.088506 0.911863
0.518012 0.202391 0.029761
0.518932 0.203311 0.127999
0.520006 0.204385 0.242676
0.521115 0.205493 0.361023
0.522246 0.206624 0.481780
0.523394 0.207772 0.604350
0.524555 0.208934 0.728378
0.525728 0.210107 0.853629
0.526372 0.210751 0.922332
0.528897 0.329503 0.040647
0.529817 0.330423 0.138884
0.530892 0.331497 0.253562
0.532000 0.332606 0.371909
0.533131 0.333737 0.492666
0.534279 0.334885 0.615236
0.535441 0.336046 0.739264
0.536614 0.337219 0.864515
0.537257 0.337863 0.933217
0.540035 0.459556 0.051784
0.540955 0.460477 0.150021
0.542029 0.461551 0.264699
0.543137 0.462659 0.383046
0.544268 0.463790 0.503803
0.545416 0.464938 0.626373
0.546578 0.466100 0.750401
0.547751 0.467273 0.875652
0.548395 0.467916 0.944354
0.551355 0.591749 0.063104
0.552275 0.592669 0.161342
0.553349 0.593743 0.276020
0.554458 0.594851 0.394366
0.555589 0.595982 0.515124
0.556737 0.597130 0.637694
0.557899 0.598292 0.761722
0.559072 0.599465 0.886973
0.559715 0.600109 0.955675
0.562820 0.725630 0.074570
0.563740 0.726550 0.172807
0.564815 0.727624 0.287485
0.565923 0.728733 0.405832
0.567054 0.729864 0.526589
0.568202 0.731012 0.649159
0.569364 0.732173 0.773187
0.570537 0.733347 0.898438
0.571180 0.733990 0.967140
0.574405 0.860911 0.086155
0.575325 0.861831 0.184392
0.576400 0.862905 0.299070
0.577508 0.864014 0.417417
0.578639 0.865145 0.538174
0.579787 0.866293 0.660744
0.580949 0.867454 0.784772
0.582122 0.868628 0.910023
0.582765 0.869271 0.978725
0.584657 0.980616 0.096406
0.585577 0.981536 0.194643
0.586651 0.982610 0.309321
0.587759 0.983719 0.427668
0.588890 0.984850 0.548425
0.590038 0.985998 0.670995
0.591200 0.987160 0.795023
0.592373 0.988333 0.920274
0.593017 0.988976 0.988976
0.627176 0.016988 0.016988
0.628096 0.017908 0.115225
0.629170 0.018982 0.229903
0.630278 0.020091 0.348250
0.631409 0.021222 0.469007
0.632557 0.022370 0.591577
0.633719 0.023531 0.715605
0.634892 0.024704 0.840856
0.635536 0.025348 0.909558
0.632875 0.083541 0.022687
0.633795 0.084461 0.120925
0.634869 0.085535 0.235602
0.635978 0.086643 0.353949
0.637109 0.087774 0.474707
0.638257 0.088922 0.597276
0.639419 0.090084 0.721305
0.640592 0.091257 0.846556
0.641235 0.091901 0.915258
0.643344 0.205785 0.033156
0.644264 0.206705 0.131393
0.645338 0.207780 0.246071
0.646446 0.208888 0.364418
0.647577 0.210019 0.485175
0.648725 0.211167 0.607745
0.649887 0.212329 0.731773
0.651060 0.213502 0.857024
0.651704 0.214145 0.925726
0.654229 0.332898 0.044041
0.655149 0.333818 0.142279
0.656223 0.334892 0.256956
0.657332 0.336000 0.375303
0.658463 0.337131 0.496061
0.659611 0.338279 0.618631
0.660773 0.339441 0.742659
0.661946 0.340614 0.867910
0.662589 0.341258 0.936612
0.665367 0.462951 0.055179
0.666287 0.463871 0.153416
0.667361 0.464945 0.268094
0.668469 0.466054 0.386441
0.669600 0.467185 0.507198
0.670748 0.468333 0.629768
0.671910 0.469495 0.753796
0.673083 0.470668 0.879047
0.673727 0.471311 0.947749
0.676687 0.595143 0.066499
0.677607 0.596064 0.164737
0.678681 0.597138 0.279414
0.679790 0.598246 0.397761
0.680921 0.599377 0.518519
0.682069 0.600525 0.641088
0.683230 0.601687 0.765117
0.684404 0.602860 0.890368
0.685047 0.603503 0.959070
0.688152 0.729025 0.077964
0.689072 0.729945 0.176202
0.690146 0.731019 0.290880
0.691255 0.732127 0.409226
0.692386 0.733258 0.529984
0.693534 0.734406 0.652554
0.694696 0.735568 0.776582
0.695869 0.736741 0.901833
0.696512 0.737385 0.970535
0.699737 0.864306 0.089549
0.700657 0.865226 0.187787
0.701731 0.866300 0.302465
0.702840 0.867409 0.420811
0.703971 0.868540 0.541569
0.705119 0.869688 0.664139
0.706281 0.870849 0.788167
0.707454 0.872022 0.913418
0.708097 0.872666 0.982120
0.709988 0.984011 0.099801
0.710909 0.984931 0.198038
0.711983 0.986005 0.312716
0.713091 0.987114 0.431063
0.714222 0.988245 0.551820
0.715370 0.989393 0.674390
0.716532 0.990554 0.798418
0.717705 0.991728 0.923669
0.718348 0.992371 0.992371
0.753902 0.020420 0.020420
0.754822 0.021341 0.118658
0.755896 0.022415 0.233336
0.757005 0.023523 0.351682
0.758136 0.024654 0.472440
0.759284 0.025802 0.595010
0.760446 0.026964 0.719038
0.761619 0.028137 0.844289
0.762262 0.028780 0.912991
0.759602 0.086973 0.026120
0.760522 0.087893 0.124357
0.761596 0.088967 0.239035
0.762704 0.090076 0.357382
0.763835 0.091207 0.478139
0.764983 0.092355 0.600709
0.766145 0.093517 0.724737
0.767318 0.094690 0.849988
0.767962 0.095333 0.918690
0.770070 0.209218 0.036588
0.770990 0.210138 0.134826
0.772064 0.211212 0.249504
0.773173 0.212321 0.367850
0.774304 0.213452 0.488608
0.775452 0.214600 0.611178
0.776614 0.215761 0.735206
0.777787 0.216934 0.860457
0.778430 0.217578 0.929159
0.780956 0.336330 0.047474
0.781876 0.337250 0.145711
0.782950 0.338324 0.260389
0.784058 0.339433 0.378736
0.785189 0.340564 0.499493
0.786337 0.341712 0.622063
0.787499 0.342874 0.746091
0.788672 0.344047 0.871342
0.789316 0.344690 0.940044
0.792093 0.466384 0.058611
0.793013 0.467304 0.156849
0.794087 0.468378 0.271526
0.795196 0.469486 0.389873
0.796327 0.470618 0.510631
0.797475 0.471766 0.633200
0.798636 0.472927 0.757229
0.799810 0.474100 0.882480
0.800453 0.474744 0.951182
0.803414 0.598576 0.069932
0.804334 0.599496 0.168169
0.805408 0.600570 0.282847
0.806516 0.601679 0.401194
0.807647 0.602810 0.521951
0.808795 0.603958 0.644521
0.809957 0.605119 0.768549
0.811130 0.606293 0.893800
0.811774 0.606936 0.962502
0.814879 0.732457 0.081397
0.815799 0.733377 0.179634
0.816873 0.734452 0.294312
0.817981 0.735560 0.412659
0.819112 0.736691 0.533416
0.820260 0.737839 0.655986
0.821422 0.739001 0.780014
0.822595 0.740174 0.905265
0.823239 0.740817 0.973967
0.826464 0.867738 0.092982
0.827384 0.868659 0.191220
0.828458 0.869733 0.305897
0.829566 0.870841 0.424244
0.830697 0.871972 0.545001
0.831845 0.873120 0.667571
0.833007 0.874282 0.791599
0.834180 0.875455 0.916850
0.834824 0.876098 0.985552
0.836715 0.987444 0.103233
0.837635 0.988364 0.201471
0.838709 0.989438 0.316148
0.839818 0.990546 0.434495
0.840949 0.991677 0.555252
0.842097 0.992825 0.677822
0.843258 0.993987 0.801850
0.844431 0.995160 0.927101
0.845075 0.995804 0.995804
0.881811 0.023885 0.023885
0.882731 0.024805 0.122123
0.883805 0.025879 0.236800
0.884913 0.026988 0.355147
0.886044 0.028119 0.475904
0.887192 0.029267 0.598474
0.888354 0.030428 0.722502
0.889527 0.031602 0.847753
0.890171 0.032245 0.916456
0.887510 0.090438 0.029584
0.888430 0.091358 0.127822
0.889504 0.092432 0.242500
0.890613 0.093540 0.360846
0.891744 0.094672 0.481604
0.892892 0.095820 0.604174
0.894053 0.096981 0.728202
0.895227 0.098154 0.853453
0.895870 0.098798 0.922155
0.897979 0.212683 0.040053
0.898899 0.213603 0.138291
0.899973 0.214677 0.252968
0.901081 0.215785 0.371315
0.902212 0.216916 0.492072
0.903360 0.218064 0.614642
0.904522 0.219226 0.738670
0.905695 0.220399 0.863921
0.906339 0.221043 0.932624
0.908864 0.339795 0.050939
0.909784 0.340715 0.149176
0.910858 0.341789 0.263854
0.911967 0.342897 0.382200
0.913098 0.344028 0.502958
0.914246 0.345176 0.625528
0.915407 0.346338 0.749556
0.916581 0.347511 0.874807
0.917224 0.348155 0.943509
0.920001 0.469848 0.062076
0.920922 0.470768 0.160313
0.921996 0.471843 0.274991
0.923104 0.472951 0.393338
0.924235 0.474082 0.514095
0.925383 0.475230 0.636665
0.926545 0.476392 0.760693
0.927718 0.477565 0.885944
0.928361 0.478208 0.954646
0.931322 0.602041 0.073396
0.932242 0.602961 0.171634
0.933316 0.604035 0.286311
0.934425 0.605143 0.404658
0.935556 0.606274 0.525416
0.936704 0.607422 0.647986
0.937865 0.608584 0.772014
0.939038 0.609757 0.897265
0.939682 0.610401 0.965967
0.942787 0.735922 0.084862
0.943707 0.736842 0.183099
0.944781 0.737916 0.297777
0.945890 0.739025 0.416123
0.947021 0.740156 0.536881
0.948169 0.741304 0.659451
0.949330 0.742465 0.783479
0.950504 0.743638 0.908730
0.951147 0.744282 0.977432
0.954372 0.871203 0.096447
0.955292 0.872123 0.194684
0.956366 0.873197 0.309362
0.957475 0.874306 0.427709
0.958606 0.875437 0.548466
0.959754 0.876585 0.671036
0.960916 0.877746 0.795064
0.962089 0.878920 0.920315
0.962732 0.879563 0.989017
0.964623 0.990908 0.106698
0.965543 0.991828 0.204935
0.966617 0.992902 0.319613
0.967726 0.994011 0.437960
0.968857 0.995142 0.558717
0.970005 0.996290 0.681287
0.971167 0.997452 0.805315
0.972340 0.998625 0.930566
0.972983 0.999268 0.999268
