skills/editops-orchestrator/assets/grade/luts/moody_teal_v01.cube
TITLE "moody_teal_v01"
LUT_3D_SIZE 17
DOMAIN_MIN 0.0 0.0 0.0
DOMAIN_MAX 1.0 1.0 1.0
0.000000 0.000000 0.000000
0.000161 0.000161 0.053545
0.000340 0.000340 0.113197
0.000520 0.000520 0.173505
0.000703 0.000703 0.234235
0.000886 0.000886 0.295279
0.001069 0.001069 0.356573
0.001254 0.001254 0.418075
0.001439 0.001439 0.479756
0.001624 0.001624 0.541594
0.001810 0.001810 0.603570
0.001997 0.001997 0.665671
0.002183 0.002183 0.727887
0.002370 0.002370 0.790207
0.002557 0.002557 0.852624
0.002745 0.002745 0.915130
0.002888 0.002888 0.962888
0.001310 0.045274 0.001310
0.001471 0.045435 0.054855
0.001650 0.045613 0.114507
0.001831 0.045794 0.174815
0.002013 0.045977 0.235545
0.002196 0.046160 0.296589
0.002380 0.046343 0.357883
0.002564 0.046528 0.419385
0.002749 0.046713 0.481066
0.002935 0.046898 0.542904
0.003120 0.047084 0.604880
0.003307 0.047271 0.666982
0.003493 0.047457 0.729197
0.003680 0.047644 0.791517
0.003867 0.047831 0.853934
0.004055 0.048019 0.916440
0.004198 0.048162 0.964198
0.003078 0.106367 0.003078
0.003239 0.106527 0.056623
0.003418 0.106706 0.116275
0.003598 0.106887 0.176583
0.003781 0.107069 0.237313
0.003964 0.107252 0.298357
0.004147 0.107436 0.359651
0.004332 0.107621 0.421153
0.004517 0.107806 0.482834
0.004702 0.107991 0.544672
0.004888 0.108177 0.606648
0.005075 0.108363 0.668749
0.005261 0.108550 0.730965
0.005448 0.108737 0.793285
0.005635 0.108924 0.855702
0.005823 0.109111 0.918208
0.005966 0.109255 0.965966
0.004867 0.168199 0.004867
0.005028 0.168360 0.058412
0.005207 0.168539 0.118065
0.005388 0.168720 0.178372
0.005570 0.168902 0.239102
0.005753 0.169085 0.300146
0.005937 0.169269 0.361440
0.006121 0.169453 0.422943
0.006306 0.169638 0.484624
0.006492 0.169824 0.546461
0.006678 0.170010 0.608437
0.006864 0.170196 0.670539
0.007050 0.170383 0.732754
0.007237 0.170569 0.795074
0.007425 0.170757 0.857491
0.007612 0.170944 0.919998
0.007755 0.171087 0.967755
0.006670 0.230492 0.006670
0.006830 0.230652 0.060215
0.007009 0.230831 0.119867
0.007190 0.231012 0.180175
0.007372 0.231194 0.240905
0.007556 0.231377 0.301949
0.007739 0.231561 0.363243
0.007924 0.231745 0.424745
0.008109 0.231930 0.486426
0.008294 0.232116 0.548263
0.008480 0.232302 0.610240
0.008666 0.232488 0.672341
0.008853 0.232675 0.734557
0.009040 0.232862 0.796877
0.009227 0.233049 0.859294
0.009415 0.233236 0.921800
0.009558 0.233380 0.969558
0.008482 0.293120 0.008482
0.008643 0.293280 0.062027
0.008822 0.293459 0.121679
0.009003 0.293640 0.181987
0.009185 0.293822 0.242717
0.009368 0.294005 0.303761
0.009552 0.294189 0.365055
0.009736 0.294374 0.426558
0.009921 0.294559 0.488238
0.010107 0.294744 0.550076
0.010292 0.294930 0.612052
0.010479 0.295116 0.674154
0.010665 0.295303 0.736369
0.010852 0.295490 0.798689
0.011039 0.295677 0.861106
0.011227 0.295864 0.923612
0.011370 0.296008 0.971370
0.010302 0.356013 0.010302
0.010463 0.356174 0.063847
0.010642 0.356353 0.123499
0.010823 0.356534 0.183807
0.011005 0.356716 0.244537
0.011188 0.356899 0.305581
0.011372 0.357083 0.366875
0.011556 0.357267 0.428378
0.011741 0.357452 0.490058
0.011927 0.357638 0.551896
0.012112 0.357823 0.613872
0.012299 0.358010 0.675974
0.012485 0.358196 0.738189
0.012672 0.358383 0.800509
0.012859 0.358570 0.862926
0.013047 0.358758 0.925432
0.013190 0.358901 0.973190
0.012129 0.419126 0.012129
0.012289 0.419287 0.065673
0.012468 0.419466 0.125326
0.012649 0.419647 0.185633
0.012831 0.419829 0.246364
0.013014 0.420012 0.307407
0.013198 0.420196 0.368701
0.013382 0.420380 0.430204
0.013567 0.420565 0.491885
0.013753 0.420751 0.553722
0.013939 0.420937 0.615698
0.014125 0.421123 0.677800
0.014312 0.421310 0.740015
0.014499 0.421497 0.802336
0.014686 0.421684 0.864752
0.014873 0.421871 0.927259
0.015017 0.422014 0.975017
0.013960 0.482427 0.013960
0.014121 0.482588 0.067505
0.014300 0.482767 0.127158
0.014481 0.482948 0.187465
0.014663 0.483130 0.248195
0.014846 0.483313 0.309239
0.015030 0.483497 0.370533
0.015214 0.483681 0.432036
0.015399 0.483866 0.493717
0.015585 0.484052 0.555554
0.015771 0.484238 0.617530
0.015957 0.484424 0.679632
0.016143 0.484611 0.741847
0.016330 0.484797 0.804167
0.016518 0.484985 0.866584
0.016705 0.485172 0.929091
0.016848 0.485315 0.976848
0.015797 0.545892 0.015797
0.015957 0.546053 0.069342
0.016136 0.546232 0.128994
0.016317 0.546412 0.189302
0.016499 0.546595 0.250032
0.016682 0.546778 0.311076
0.016866 0.546961 0.372370
0.017051 0.547146 0.433872
0.017236 0.547331 0.495553
0.017421 0.547516 0.557390
0.017607 0.547702 0.619367
0.017793 0.547889 0.681468
0.017980 0.548075 0.743684
0.018167 0.548262 0.806004
0.018354 0.548449 0.868421
0.018542 0.548637 0.930927
0.018685 0.548780 0.978685
0.017638 0.609502 0.017638
0.017798 0.609663 0.071182
0.017977 0.609841 0.130835
0.018158 0.610022 0.191142
0.018340 0.610204 0.251873
0.018523 0.610388 0.312916
0.018707 0.610571 0.374211
0.018891 0.610756 0.435713
0.019076 0.610941 0.497394
0.019262 0.611126 0.559231
0.019448 0.611312 0.621207
0.019634 0.611499 0.683309
0.019821 0.611685 0.745524
0.020008 0.611872 0.807845
0.020195 0.612059 0.870261
0.020382 0.612247 0.932768
0.020526 0.612390 0.980526
0.019482 0.673243 0.019482
0.019643 0.673403 0.073027
0.019822 0.673582 0.132679
0.020002 0.673763 0.192987
0.020185 0.673945 0.253717
0.020368 0.674128 0.314761
0.020552 0.674312 0.376055
0.020736 0.674497 0.437557
0.020921 0.674682 0.499238
0.021106 0.674867 0.561076
0.021292 0.675053 0.623052
0.021479 0.675239 0.685153
0.021665 0.675426 0.747369
0.021852 0.675613 0.809689
0.022039 0.675800 0.872106
0.022227 0.675987 0.934612
0.022370 0.676131 0.982370
0.021330 0.737102 0.021330
0.021491 0.737263 0.074875
0.021670 0.737441 0.134527
0.021850 0.737622 0.194835
0.022033 0.737804 0.255565
0.022216 0.737988 0.316609
0.022399 0.738171 0.377903
0.022584 0.738356 0.439405
0.022769 0.738541 0.501086
0.022954 0.738726 0.562924
0.023140 0.738912 0.624900
0.023327 0.739098 0.687001
0.023513 0.739285 0.749217
0.023700 0.739472 0.811537
0.023887 0.739659 0.873954
0.024075 0.739847 0.936460
0.024218 0.739990 0.984218
0.023181 0.801070 0.023181
0.023342 0.801231 0.076726
0.023521 0.801410 0.136378
0.023701 0.801590 0.196686
0.023884 0.801773 0.257416
0.024067 0.801956 0.318460
0.024251 0.802140 0.379754
0.024435 0.802324 0.441256
0.024620 0.802509 0.502937
0.024805 0.802694 0.564775
0.024991 0.802880 0.626751
0.025178 0.803067 0.688853
0.025364 0.803253 0.751068
0.025551 0.803440 0.813388
0.025738 0.803627 0.875805
0.025926 0.803815 0.938311
0.026069 0.803958 0.986069
0.025035 0.865139 0.025035
0.025196 0.865299 0.078580
0.025375 0.865478 0.138232
0.025555 0.865659 0.198540
0.025738 0.865841 0.259270
0.025921 0.866024 0.320314
0.026105 0.866208 0.381608
0.026289 0.866393 0.443110
0.026474 0.866578 0.504791
0.026659 0.866763 0.566629
0.026845 0.866949 0.628605
0.027032 0.867135 0.690706
0.027218 0.867322 0.752922
0.027405 0.867509 0.815242
0.027592 0.867696 0.877659
0.027780 0.867883 0.940165
0.027923 0.868027 0.987923
0.026892 0.929300 0.026892
0.027052 0.929461 0.080437
0.027231 0.929640 0.140089
0.027412 0.929821 0.200397
0.027594 0.930003 0.261127
0.027777 0.930186 0.322171
0.027961 0.930370 0.383465
0.028146 0.930554 0.444967
0.028331 0.930739 0.506648
0.028516 0.930925 0.568485
0.028702 0.931111 0.630462
0.028888 0.931297 0.692563
0.029075 0.931484 0.754779
0.029262 0.931671 0.817099
0.029449 0.931858 0.879516
0.029637 0.932045 0.942022
0.029780 0.932188 0.989780
0.028608 0.988608 0.028608
0.028769 0.988769 0.082153
0.028948 0.988948 0.141805
0.029128 0.989128 0.202113
0.029311 0.989311 0.262843
0.029494 0.989494 0.323887
0.029677 0.989677 0.385181
0.029862 0.989862 0.446683
0.030047 0.990047 0.508364
0.030232 0.990232 0.570202
0.030418 0.990418 0.632178
0.030605 0.990605 0.694279
0.030791 0.990791 0.756495
0.030978 0.990978 0.818815
0.031165 0.991165 0.881232
0.031353 0.991353 0.943738
0.031496 0.991496 0.991496
0.034890 0.000306 0.000306
0.035050 0.000467 0.053851
0.035229 0.000646 0.113504
0.035410 0.000827 0.173811
0.035592 0.001009 0.234541
0.035775 0.001192 0.295585
0.035959 0.001376 0.356879
0.036144 0.001560 0.418382
0.036329 0.001745 0.480063
0.036514 0.001931 0.541900
0.036700 0.002117 0.603876
0.036886 0.002303 0.665978
0.037073 0.002490 0.728193
0.037260 0.002676 0.790513
0.037447 0.002864 0.852930
0.037634 0.003051 0.915437
0.037778 0.003194 0.963194
0.036200 0.045580 0.001616
0.036360 0.045741 0.055161
0.036539 0.045920 0.114814
0.036720 0.046101 0.175121
0.036902 0.046283 0.235851
0.037085 0.046466 0.296895
0.037269 0.046650 0.358189
0.037454 0.046834 0.419692
0.037639 0.047019 0.481373
0.037824 0.047205 0.543210
0.038010 0.047391 0.605186
0.038196 0.047577 0.667288
0.038383 0.047763 0.729503
0.038570 0.047950 0.791823
0.038757 0.048138 0.854240
0.038944 0.048325 0.916747
0.039088 0.048468 0.964504
0.037968 0.106673 0.003384
0.038128 0.106834 0.056929
0.038307 0.107013 0.116582
0.038488 0.107193 0.176889
0.038670 0.107376 0.237619
0.038853 0.107559 0.298663
0.039037 0.107743 0.359957
0.039222 0.107927 0.421460
0.039407 0.108112 0.483141
0.039592 0.108297 0.544978
0.039778 0.108483 0.606954
0.039964 0.108670 0.669056
0.040151 0.108856 0.731271
0.040338 0.109043 0.793591
0.040525 0.109230 0.856008
0.040712 0.109418 0.918515
0.040856 0.109561 0.966272
0.039757 0.168506 0.005174
0.039917 0.168666 0.058718
0.040096 0.168845 0.118371
0.040277 0.169026 0.178679
0.040459 0.169208 0.239409
0.040643 0.169391 0.300453
0.040826 0.169575 0.361747
0.041011 0.169760 0.423249
0.041196 0.169945 0.484930
0.041381 0.170130 0.546767
0.041567 0.170316 0.608744
0.041753 0.170502 0.670845
0.041940 0.170689 0.733061
0.042127 0.170876 0.795381
0.042314 0.171063 0.857797
0.042502 0.171251 0.920304
0.042645 0.171394 0.968062
0.041559 0.230798 0.006976
0.041720 0.230958 0.060521
0.041899 0.231137 0.120174
0.042080 0.231318 0.180481
0.042262 0.231500 0.241211
0.042445 0.231684 0.302255
0.042629 0.231867 0.363549
0.042813 0.232052 0.425052
0.042998 0.232237 0.486733
0.043184 0.232422 0.548570
0.043370 0.232608 0.610546
0.043556 0.232794 0.672648
0.043743 0.232981 0.734863
0.043930 0.233168 0.797183
0.044117 0.233355 0.859600
0.044304 0.233543 0.922106
0.044447 0.233686 0.969864
0.043372 0.293426 0.008789
0.043532 0.293587 0.062333
0.043711 0.293765 0.121986
0.043892 0.293946 0.182293
0.044074 0.294129 0.243024
0.044257 0.294312 0.304067
0.044441 0.294495 0.365361
0.044626 0.294680 0.426864
0.044811 0.294865 0.488545
0.044996 0.295050 0.550382
0.045182 0.295236 0.612358
0.045368 0.295423 0.674460
0.045555 0.295609 0.736675
0.045742 0.295796 0.798996
0.045929 0.295983 0.861412
0.046117 0.296171 0.923919
0.046260 0.296314 0.971677
0.045192 0.356320 0.010609
0.045352 0.356480 0.064153
0.045531 0.356659 0.123806
0.045712 0.356840 0.184113
0.045894 0.357022 0.244844
0.046077 0.357205 0.305887
0.046261 0.357389 0.367181
0.046446 0.357573 0.428684
0.046631 0.357758 0.490365
0.046816 0.357944 0.552202
0.047002 0.358130 0.614178
0.047188 0.358316 0.676280
0.047375 0.358503 0.738495
0.047562 0.358690 0.800816
0.047749 0.358877 0.863232
0.047937 0.359064 0.925739
0.048080 0.359208 0.973497
0.047018 0.419433 0.012435
0.047179 0.419593 0.065980
0.047358 0.419772 0.125632
0.047539 0.419953 0.185940
0.047721 0.420135 0.246670
0.047904 0.420318 0.307714
0.048088 0.420502 0.369008
0.048272 0.420687 0.430510
0.048457 0.420872 0.492191
0.048643 0.421057 0.554028
0.048828 0.421243 0.616005
0.049015 0.421429 0.678106
0.049201 0.421616 0.740322
0.049388 0.421803 0.802642
0.049575 0.421990 0.865059
0.049763 0.422178 0.927565
0.049906 0.422321 0.975323
0.048850 0.482734 0.014267
0.049010 0.482894 0.067811
0.049189 0.483073 0.127464
0.049370 0.483254 0.187772
0.049552 0.483436 0.248502
0.049736 0.483619 0.309546
0.049919 0.483803 0.370840
0.050104 0.483988 0.432342
0.050289 0.484173 0.494023
0.050474 0.484358 0.555860
0.050660 0.484544 0.617837
0.050846 0.484730 0.679938
0.051033 0.484917 0.742154
0.051220 0.485104 0.804474
0.051407 0.485291 0.866890
0.051595 0.485478 0.929397
0.051738 0.485622 0.977155
0.050686 0.546198 0.016103
0.050847 0.546359 0.069648
0.051026 0.546538 0.129300
0.051207 0.546719 0.189608
0.051389 0.546901 0.250338
0.051572 0.547084 0.311382
0.051756 0.547268 0.372676
0.051940 0.547452 0.434179
0.052125 0.547637 0.495859
0.052311 0.547823 0.557697
0.052497 0.548009 0.619673
0.052683 0.548195 0.681775
0.052870 0.548381 0.743990
0.053056 0.548568 0.806310
0.053244 0.548756 0.868727
0.053431 0.548943 0.931233
0.053574 0.549086 0.978991
0.052527 0.609808 0.017944
0.052688 0.609969 0.071489
0.052867 0.610148 0.131141
0.053048 0.610329 0.191449
0.053230 0.610511 0.252179
0.053413 0.610694 0.313223
0.053597 0.610878 0.374517
0.053781 0.611062 0.436019
0.053966 0.611247 0.497700
0.054152 0.611433 0.559537
0.054337 0.611619 0.621514
0.054524 0.611805 0.683615
0.054710 0.611991 0.745831
0.054897 0.612178 0.808151
0.055084 0.612366 0.870568
0.055272 0.612553 0.933074
0.055415 0.612696 0.980832
0.054372 0.673549 0.019788
0.054532 0.673710 0.073333
0.054711 0.673888 0.132986
0.054892 0.674069 0.193293
0.055074 0.674251 0.254023
0.055257 0.674435 0.315067
0.055441 0.674618 0.376361
0.055626 0.674803 0.437864
0.055811 0.674988 0.499545
0.055996 0.675173 0.561382
0.056182 0.675359 0.623358
0.056368 0.675545 0.685460
0.056555 0.675732 0.747675
0.056742 0.675919 0.809995
0.056929 0.676106 0.872412
0.057116 0.676294 0.934919
0.057260 0.676437 0.982676
0.056220 0.737408 0.021636
0.056380 0.737569 0.075181
0.056559 0.737748 0.134834
0.056740 0.737929 0.195141
0.056922 0.738111 0.255871
0.057105 0.738294 0.316915
0.057289 0.738478 0.378209
0.057474 0.738662 0.439712
0.057659 0.738847 0.501393
0.057844 0.739033 0.563230
0.058030 0.739219 0.625206
0.058216 0.739405 0.687308
0.058403 0.739591 0.749523
0.058590 0.739778 0.811843
0.058777 0.739966 0.874260
0.058964 0.740153 0.936767
0.059108 0.740296 0.984524
0.058071 0.801376 0.023487
0.058231 0.801537 0.077032
0.058410 0.801716 0.136685
0.058591 0.801897 0.196992
0.058773 0.802079 0.257722
0.058956 0.802262 0.318766
0.059140 0.802446 0.380060
0.059325 0.802630 0.441563
0.059510 0.802815 0.503244
0.059695 0.803001 0.565081
0.059881 0.803187 0.627057
0.060067 0.803373 0.689159
0.060254 0.803560 0.751374
0.060441 0.803746 0.813694
0.060628 0.803934 0.876111
0.060815 0.804121 0.938618
0.060959 0.804264 0.986375
0.059925 0.865445 0.025341
0.060085 0.865606 0.078886
0.060264 0.865784 0.138539
0.060445 0.865965 0.198846
0.060627 0.866148 0.259576
0.060810 0.866331 0.320620
0.060994 0.866514 0.381914
0.061179 0.866699 0.443417
0.061364 0.866884 0.505098
0.061549 0.867069 0.566935
0.061735 0.867255 0.628911
0.061921 0.867442 0.691013
0.062108 0.867628 0.753228
0.062295 0.867815 0.815548
0.062482 0.868002 0.877965
0.062669 0.868190 0.940472
0.062813 0.868333 0.988229
0.061781 0.929607 0.027198
0.061942 0.929767 0.080743
0.062121 0.929946 0.140395
0.062302 0.930127 0.200703
0.062484 0.930309 0.261433
0.062667 0.930492 0.322477
0.062851 0.930676 0.383771
0.063035 0.930861 0.445273
0.063220 0.931046 0.506954
0.063406 0.931231 0.568792
0.063592 0.931417 0.630768
0.063778 0.931603 0.692870
0.063965 0.931790 0.755085
0.064151 0.931977 0.817405
0.064339 0.932164 0.879822
0.064526 0.932352 0.942328
0.064669 0.932495 0.990086
0.063498 0.988914 0.028914
0.063658 0.989075 0.082459
0.063837 0.989254 0.142112
0.064018 0.989435 0.202419
0.064200 0.989617 0.263149
0.064383 0.989800 0.324193
0.064567 0.989984 0.385487
0.064752 0.990168 0.446990
0.064937 0.990353 0.508671
0.065122 0.990539 0.570508
0.065308 0.990725 0.632484
0.065494 0.990911 0.694586
0.065681 0.991098 0.756801
0.065868 0.991284 0.819121
0.066055 0.991472 0.881538
0.066242 0.991659 0.944045
0.066386 0.991802 0.991802
0.094567 0.000830 0.000830
0.094728 0.000991 0.054375
0.094907 0.001170 0.114028
0.095088 0.001351 0.174335
0.095270 0.001533 0.235065
0.095453 0.001716 0.296109
0.095637 0.001900 0.357403
0.095821 0.002084 0.418906
0.096006 0.002269 0.480587
0.096192 0.002455 0.542424
0.096378 0.002641 0.604400
0.096564 0.002827 0.666502
0.096751 0.003014 0.728717
0.096937 0.003200 0.791037
0.097125 0.003388 0.853454
0.097312 0.003575 0.915961
0.097455 0.003718 0.963718
0.095877 0.046104 0.002140
0.096038 0.046265 0.055685
0.096217 0.046444 0.115338
0.096398 0.046625 0.175645
0.096580 0.046807 0.236375
0.096763 0.046990 0.297419
0.096947 0.047174 0.358713
0.097131 0.047358 0.420216
0.097316 0.047543 0.481897
0.097502 0.047729 0.543734
0.097688 0.047915 0.605710
0.097874 0.048101 0.667812
0.098061 0.048287 0.730027
0.098248 0.048474 0.792347
0.098435 0.048662 0.854764
0.098622 0.048849 0.917271
0.098765 0.048992 0.965028
0.097645 0.107197 0.003908
0.097806 0.107358 0.057453
0.097985 0.107537 0.117106
0.098166 0.107717 0.177413
0.098348 0.107900 0.238143
0.098531 0.108083 0.299187
0.098715 0.108267 0.360481
0.098899 0.108451 0.421984
0.099084 0.108636 0.483665
0.099270 0.108821 0.545502
0.099456 0.109007 0.607478
0.099642 0.109194 0.669580
0.099829 0.109380 0.731795
0.100015 0.109567 0.794115
0.100203 0.109754 0.856532
0.100390 0.109942 0.919039
0.100533 0.110085 0.966796
0.099435 0.169030 0.005698
0.099595 0.169190 0.059242
0.099774 0.169369 0.118895
0.099955 0.169550 0.179203
0.100137 0.169732 0.239933
0.100320 0.169915 0.300977
0.100504 0.170099 0.362271
0.100689 0.170284 0.423773
0.100874 0.170469 0.485454
0.101059 0.170654 0.547291
0.101245 0.170840 0.609268
0.101431 0.171026 0.671369
0.101618 0.171213 0.733585
0.101805 0.171400 0.795905
0.101992 0.171587 0.858321
0.102179 0.171775 0.920828
0.102323 0.171918 0.968586
0.101237 0.231322 0.007500
0.101398 0.231482 0.061045
0.101577 0.231661 0.120698
0.101758 0.231842 0.181005
0.101940 0.232024 0.241735
0.102123 0.232208 0.302779
0.102307 0.232391 0.364073
0.102491 0.232576 0.425576
0.102676 0.232761 0.487257
0.102862 0.232946 0.549094
0.103048 0.233132 0.611070
0.103234 0.233318 0.673172
0.103420 0.233505 0.735387
0.103607 0.233692 0.797707
0.103795 0.233879 0.860124
0.103982 0.234067 0.922630
0.104125 0.234210 0.970388
0.103050 0.293950 0.009313
0.103210 0.294111 0.062857
0.103389 0.294289 0.122510
0.103570 0.294470 0.182817
0.103752 0.294653 0.243548
0.103935 0.294836 0.304591
0.104119 0.295019 0.365886
0.104304 0.295204 0.427388
0.104489 0.295389 0.489069
0.104674 0.295574 0.550906
0.104860 0.295760 0.612882
0.105046 0.295947 0.674984
0.105233 0.296133 0.737199
0.105420 0.296320 0.799520
0.105607 0.296507 0.861936
0.105794 0.296695 0.924443
0.105938 0.296838 0.972201
0.104870 0.356844 0.011133
0.105030 0.357004 0.064677
0.105209 0.357183 0.124330
0.105390 0.357364 0.184637
0.105572 0.357546 0.245368
0.105755 0.357729 0.306411
0.105939 0.357913 0.367705
0.106123 0.358097 0.429208
0.106308 0.358282 0.490889
0.106494 0.358468 0.552726
0.106680 0.358654 0.614702
0.106866 0.358840 0.676804
0.107053 0.359027 0.739019
0.107240 0.359214 0.801340
0.107427 0.359401 0.863756
0.107614 0.359588 0.926263
0.107758 0.359732 0.974021
0.106696 0.419957 0.012959
0.106857 0.420117 0.066504
0.107035 0.420296 0.126156
0.107216 0.420477 0.186464
0.107398 0.420659 0.247194
0.107582 0.420842 0.308238
0.107765 0.421026 0.369532
0.107950 0.421211 0.431034
0.108135 0.421396 0.492715
0.108320 0.421581 0.554552
0.108506 0.421767 0.616529
0.108692 0.421953 0.678630
0.108879 0.422140 0.740846
0.109066 0.422327 0.803166
0.109253 0.422514 0.865583
0.109441 0.422702 0.928089
0.109584 0.422845 0.975847
0.108528 0.483258 0.014791
0.108688 0.483418 0.068335
0.108867 0.483597 0.127988
0.109048 0.483778 0.188296
0.109230 0.483960 0.249026
0.109413 0.484143 0.310070
0.109597 0.484327 0.371364
0.109782 0.484512 0.432866
0.109967 0.484697 0.494547
0.110152 0.484882 0.556384
0.110338 0.485068 0.618361
0.110524 0.485254 0.680462
0.110711 0.485441 0.742678
0.110898 0.485628 0.804998
0.111085 0.485815 0.867414
0.111272 0.486002 0.929921
0.111416 0.486146 0.977679
0.110364 0.546722 0.016627
0.110525 0.546883 0.070172
0.110704 0.547062 0.129824
0.110885 0.547243 0.190132
0.111067 0.547425 0.250862
0.111250 0.547608 0.311906
0.111434 0.547792 0.373200
0.111618 0.547976 0.434703
0.111803 0.548161 0.496383
0.111989 0.548347 0.558221
0.112175 0.548533 0.620197
0.112361 0.548719 0.682299
0.112547 0.548905 0.744514
0.112734 0.549092 0.806834
0.112921 0.549280 0.869251
0.113109 0.549467 0.931757
0.113252 0.549610 0.979515
0.112205 0.610332 0.018468
0.112366 0.610493 0.072013
0.112544 0.610672 0.131665
0.112725 0.610853 0.191973
0.112907 0.611035 0.252703
0.113091 0.611218 0.313747
0.113274 0.611402 0.375041
0.113459 0.611586 0.436543
0.113644 0.611771 0.498224
0.113829 0.611957 0.560061
0.114015 0.612143 0.622038
0.114201 0.612329 0.684139
0.114388 0.612515 0.746355
0.114575 0.612702 0.808675
0.114762 0.612890 0.871092
0.114950 0.613077 0.933598
0.115093 0.613220 0.981356
0.114049 0.674073 0.020312
0.114210 0.674234 0.073857
0.114389 0.674412 0.133510
0.114570 0.674593 0.193817
0.114752 0.674775 0.254547
0.114935 0.674959 0.315591
0.115119 0.675142 0.376885
0.115303 0.675327 0.438388
0.115488 0.675512 0.500069
0.115674 0.675697 0.561906
0.115860 0.675883 0.623882
0.116046 0.676069 0.685984
0.116233 0.676256 0.748199
0.116420 0.676443 0.810519
0.116607 0.676630 0.872936
0.116794 0.676818 0.935443
0.116937 0.676961 0.983200
0.115897 0.737932 0.022160
0.116058 0.738093 0.075705
0.116237 0.738272 0.135358
0.116418 0.738453 0.195665
0.116600 0.738635 0.256395
0.116783 0.738818 0.317439
0.116967 0.739002 0.378733
0.117151 0.739186 0.440236
0.117336 0.739371 0.501917
0.117522 0.739557 0.563754
0.117708 0.739743 0.625730
0.117894 0.739929 0.687832
0.118081 0.740115 0.750047
0.118267 0.740302 0.812367
0.118455 0.740490 0.874784
0.118642 0.740677 0.937291
0.118785 0.740820 0.985048
0.117748 0.801900 0.024011
0.117909 0.802061 0.077556
0.118088 0.802240 0.137209
0.118269 0.802421 0.197516
0.118451 0.802603 0.258246
0.118634 0.802786 0.319290
0.118818 0.802970 0.380584
0.119002 0.803154 0.442087
0.119187 0.803339 0.503768
0.119373 0.803525 0.565605
0.119559 0.803711 0.627581
0.119745 0.803897 0.689683
0.119932 0.804084 0.751898
0.120119 0.804270 0.814218
0.120306 0.804458 0.876635
0.120493 0.804645 0.939142
0.120636 0.804788 0.986899
0.119602 0.865969 0.025865
0.119763 0.866130 0.079410
0.119942 0.866308 0.139063
0.120123 0.866489 0.199370
0.120305 0.866672 0.260100
0.120488 0.866855 0.321144
0.120672 0.867038 0.382438
0.120856 0.867223 0.443941
0.121041 0.867408 0.505622
0.121227 0.867593 0.567459
0.121413 0.867779 0.629435
0.121599 0.867966 0.691537
0.121786 0.868152 0.753752
0.121973 0.868339 0.816072
0.122160 0.868526 0.878489
0.122347 0.868714 0.940996
0.122490 0.868857 0.988753
0.121459 0.930131 0.027722
0.121620 0.930291 0.081267
0.121799 0.930470 0.140919
0.121980 0.930651 0.201227
0.122162 0.930833 0.261957
0.122345 0.931016 0.323001
0.122529 0.931200 0.384295
0.122713 0.931385 0.445797
0.122898 0.931570 0.507478
0.123084 0.931755 0.569316
0.123269 0.931941 0.631292
0.123456 0.932127 0.693394
0.123642 0.932314 0.755609
0.123829 0.932501 0.817929
0.124016 0.932688 0.880346
0.124204 0.932876 0.942852
0.124347 0.933019 0.990610
0.123175 0.989438 0.029438
0.123336 0.989599 0.082983
0.123515 0.989778 0.142636
0.123696 0.989959 0.202943
0.123878 0.990141 0.263673
0.124061 0.990324 0.324717
0.124245 0.990508 0.386011
0.124429 0.990692 0.447514
0.124614 0.990877 0.509195
0.124800 0.991063 0.571032
0.124986 0.991249 0.633008
0.125172 0.991435 0.695110
0.125359 0.991622 0.757325
0.125545 0.991808 0.819645
0.125733 0.991996 0.882062
0.125920 0.992183 0.944569
0.126063 0.992326 0.992326
0.155052 0.001361 0.001361
0.155213 0.001522 0.054906
0.155392 0.001701 0.114559
0.155573 0.001882 0.174866
0.155755 0.002064 0.235596
0.155938 0.002247 0.296640
0.156122 0.002431 0.357934
0.156306 0.002615 0.419437
0.156491 0.002800 0.481118
0.156677 0.002986 0.542955
0.156863 0.003172 0.604931
0.157049 0.003358 0.667033
0.157235 0.003545 0.729248
0.157422 0.003732 0.791568
0.157610 0.003919 0.853985
0.157797 0.004106 0.916492
0.157940 0.004249 0.964249
0.156362 0.046635 0.002672
