skills/editops-orchestrator/assets/grade/luts/moody_teal_v01.cube
TITLE "moody_teal_v01"
LUT_3D_SIZE 5
DOMAIN_MIN 0.0 0.0 0.0
DOMAIN_MAX 1.0 1.0 1.0
0.000000 0.000000 0.000000
0.000703 0.000703 0.234235
0.001439 0.001439 0.479756
0.002183 0.002183 0.727887
0.002888 0.002888 0.962888
0.006670 0.230492 0.006670
0.007372 0.231194 0.240905
0.008109 0.231930 0.486426
0.008853 0.232675 0.734557
0.009558 0.233380 0.969558
0.013960 0.482427 0.013960
0.014663 0.483130 0.248195
0.015399 0.483866 0.493717
0.016143 0.484611 0.741847
0.016848 0.485315 0.976848
0.021330 0.737102 0.021330
0.022033 0.737804 0.255565
0.022769 0.738541 0.501086
0.023513 0.739285 0.749217
0.024218 0.739990 0.984218
0.028608 0.988608 0.028608
0.029311 0.989311 0.262843
0.030047 0.990047 0.508364
0.030791 0.990791 0.756495
0.031496 0.991496 0.991496
0.216016 0.001897 0.001897
0.216718 0.002599 0.236132
0.217455 0.003336 0.481653
0.218199 0.004080 0.729784
0.218904 0.004785 0.964785
0.222686 0.232388 0.008567
0.223388 0.233091 0.242802
0.224125 0.233827 0.488323
0.224869 0.234571 0.736454
0.225574 0.235276 0.971455
0.229976 0.484324 0.015857
0.230679 0.485027 0.250092
0.231415 0.485763 0.495613
0.232159 0.486507 0.743744
0.232864 0.487212 0.978745
0.237346 0.738999 0.023227
0.238048 0.739701 0.257462
0.238785 0.740438 0.502983
0.239529 0.741182 0.751114
0.240234 0.741887 0.986115
0.244624 0.990505 0.030505
0.245326 0.991207 0.264740
0.246063 0.991944 0.510261
0.246807 0.992688 0.758392
0.247512 0.993393 0.993393
0.462683 0.004063 0.004063
0.463386 0.004765 0.238298
0.464122 0.005502 0.483819
0.464867 0.006246 0.731950
0.465571 0.006951 0.966951
0.469353 0.234554 0.010733
0.470056 0.235257 0.244967
0.470792 0.235993 0.490489
0.471536 0.236737 0.738619
0.472241 0.237442 0.973621
0.476644 0.486490 0.018023
0.477346 0.487193 0.252258
0.478083 0.487929 0.497779
0.478827 0.488673 0.745910
0.479532 0.489378 0.980911
0.484013 0.741165 0.025393
0.484716 0.741867 0.259628
0.485452 0.742603 0.505149
0.486197 0.743348 0.753280
0.486901 0.744053 0.988281
0.491291 0.992671 0.032671
0.491994 0.993373 0.266906
0.492730 0.994110 0.512427
0.493475 0.994854 0.760558
0.494179 0.995559 0.995559
0.712095 0.006253 0.006253
0.712798 0.006955 0.240488
0.713534 0.007692 0.486009
0.714279 0.008436 0.734140
0.714983 0.009141 0.969141
0.718765 0.236744 0.012922
0.719468 0.237447 0.247157
0.720204 0.238183 0.492679
0.720948 0.238927 0.740809
0.721653 0.239632 0.975810
0.726056 0.488680 0.020213
0.726758 0.489382 0.254448
0.727495 0.490119 0.499969
0.728239 0.490863 0.748100
0.728944 0.491568 0.983101
0.733425 0.743355 0.027583
0.734128 0.744057 0.261818
0.734864 0.744793 0.507339
0.735609 0.745538 0.755470
0.736313 0.746243 0.990471
0.740703 0.994861 0.034861
0.741406 0.995563 0.269096
0.742142 0.996300 0.514617
0.742887 0.997044 0.762748
0.743591 0.997749 0.997749
0.963269 0.008458 0.008458
0.963971 0.009161 0.242693
0.964707 0.009897 0.488214
0.965452 0.010641 0.736345
0.966157 0.011346 0.971346
0.969938 0.238950 0.015128
0.970641 0.239652 0.249363
0.971377 0.240388 0.494884
0.972122 0.241133 0.743015
0.972826 0.241838 0.978016
0.977229 0.490885 0.022418
0.977931 0.491588 0.256653
0.978668 0.492324 0.502175
0.979412 0.493069 0.750305
0.980117 0.493773 0.985306
0.984599 0.745560 0.029788
0.985301 0.746262 0.264023
0.986037 0.746999 0.509544
0.986782 0.747743 0.757675
0.987487 0.748448 0.992676
0.991877 0.997066 0.037066
0.992579 0.997769 0.271301
0.993315 0.998505 0.516822
0.994060 0.999249 0.764953
0.994765 0.999954 0.999954
