skills/editops-orchestrator/assets/grade/luts/moody_teal_v14.cube
TITLE "moody_teal_v14"
LUT_3D_SIZE 9
DOMAIN_MIN 0.0 0.0 0.0
DOMAIN_MAX 1.0 1.0 1.0
0.000000 0.000000 0.000000
0.000966 0.000966 0.097133
0.002100 0.002100 0.211260
0.003273 0.003273 0.329245
0.004472 0.004472 0.449767
0.005689 0.005689 0.572199
0.006922 0.006922 0.696168
0.008167 0.008167 0.821427
0.008816 0.008816 0.886711
0.005742 0.063459 0.005742
0.006707 0.064425 0.102875
0.007842 0.065560 0.217001
0.009015 0.066733 0.334986
0.010213 0.067931 0.455509
0.011431 0.069148 0.577940
0.012663 0.070381 0.701909
0.013908 0.071626 0.827168
0.014558 0.072275 0.892452
0.016777 0.185426 0.016777
0.017742 0.186391 0.113910
0.018877 0.187526 0.228036
0.020050 0.188699 0.346021
0.021248 0.189897 0.466544
0.022466 0.191115 0.588976
0.023698 0.192347 0.712944
0.024943 0.193593 0.838203
0.025593 0.194242 0.903487
0.028284 0.312608 0.028284
0.029249 0.313574 0.125417
0.030384 0.314709 0.239543
0.031557 0.315882 0.357528
0.032755 0.317080 0.478051
0.033973 0.318297 0.600482
0.035205 0.319530 0.724451
0.036450 0.320775 0.849710
0.037100 0.321424 0.914994
0.040074 0.442926 0.040074
0.041040 0.443892 0.137207
0.042175 0.445026 0.251334
0.043348 0.446199 0.369319
0.044546 0.447398 0.489841
0.045763 0.448615 0.612273
0.046996 0.449847 0.736242
0.048241 0.451093 0.861501
0.048890 0.451742 0.926785
0.052071 0.575519 0.052071
0.053036 0.576485 0.149204
0.054171 0.577620 0.263331
0.055344 0.578793 0.381316
0.056542 0.579991 0.501838
0.057760 0.581208 0.624270
0.058992 0.582441 0.748239
0.060238 0.583686 0.873497
0.060887 0.584335 0.938781
0.064230 0.709909 0.064230
0.065196 0.710875 0.161363
0.066330 0.712010 0.275490
0.067503 0.713183 0.393475
0.068702 0.714381 0.513997
0.069919 0.715598 0.636429
0.071151 0.716831 0.760398
0.072397 0.718076 0.885656
0.073046 0.718725 0.950941
0.076524 0.845788 0.076524
0.077489 0.846754 0.173657
0.078624 0.847888 0.287783
0.079797 0.849061 0.405768
0.080995 0.850260 0.526291
0.082213 0.851477 0.648722
0.083445 0.852709 0.772691
0.084690 0.853955 0.897950
0.085340 0.854604 0.963234
0.087330 0.965224 0.087330
0.088295 0.966190 0.184463
0.089430 0.967325 0.298589
0.090603 0.968498 0.416574
0.091801 0.969696 0.537097
0.093019 0.970913 0.659529
0.094251 0.972146 0.783498
0.095497 0.973391 0.908756
0.096146 0.974040 0.974040
0.021409 0.000615 0.000615
0.022375 0.001581 0.097748
0.023509 0.002715 0.211875
0.024682 0.003888 0.329860
0.025881 0.005087 0.450382
0.027098 0.006304 0.572814
0.028331 0.007536 0.696783
0.029576 0.008782 0.822042
0.030225 0.009431 0.887326
0.027151 0.064074 0.006356
0.028116 0.065040 0.103490
0.029251 0.066175 0.217616
0.030424 0.067348 0.335601
0.031622 0.068546 0.456124
0.032840 0.069763 0.578555
0.034072 0.070996 0.702524
0.035317 0.072241 0.827783
0.035967 0.072890 0.893067
0.038186 0.186041 0.017391
0.039151 0.187006 0.114525
0.040286 0.188141 0.228651
0.041459 0.189314 0.346636
0.042657 0.190512 0.467159
0.043875 0.191730 0.589590
0.045107 0.192962 0.713559
0.046352 0.194207 0.838818
0.047002 0.194857 0.904102
0.049693 0.313223 0.028898
0.050658 0.314189 0.126032
0.051793 0.315324 0.240158
0.052966 0.316497 0.358143
0.054164 0.317695 0.478666
0.055382 0.318912 0.601097
0.056614 0.320145 0.725066
0.057859 0.321390 0.850325
0.058509 0.322039 0.915609
0.061483 0.443541 0.040689
0.062449 0.444507 0.137822
0.063584 0.445641 0.251949
0.064757 0.446814 0.369934
0.065955 0.448013 0.490456
0.067172 0.449230 0.612888
0.068405 0.450462 0.736857
0.069650 0.451708 0.862116
0.070299 0.452357 0.927400
0.073480 0.576134 0.052686
0.074445 0.577100 0.149819
0.075580 0.578235 0.263945
0.076753 0.579408 0.381930
0.077951 0.580606 0.502453
0.079169 0.581823 0.624885
0.080401 0.583056 0.748853
0.081647 0.584301 0.874112
0.082296 0.584950 0.939396
0.085639 0.710524 0.064845
0.086604 0.711490 0.161978
0.087739 0.712625 0.276104
0.088912 0.713798 0.394089
0.090111 0.714996 0.514612
0.091328 0.716213 0.637044
0.092560 0.717446 0.761013
0.093806 0.718691 0.886271
0.094455 0.719340 0.951555
0.097932 0.846403 0.077138
0.098898 0.847368 0.174272
0.100033 0.848503 0.288398
0.101206 0.849676 0.406383
0.102404 0.850874 0.526906
0.103622 0.852092 0.649337
0.104854 0.853324 0.773306
0.106099 0.854570 0.898565
0.106748 0.855219 0.963849
0.108739 0.965839 0.087945
0.109704 0.966805 0.185078
0.110839 0.967940 0.299204
0.112012 0.969113 0.417189
0.113210 0.970311 0.537712
0.114428 0.971528 0.660143
0.115660 0.972761 0.784112
0.116906 0.974006 0.909371
0.117555 0.974655 0.974655
0.132501 0.003806 0.003806
0.133467 0.004771 0.100939
0.134602 0.005906 0.215065
0.135775 0.007079 0.333050
0.136973 0.008277 0.453573
0.138190 0.009495 0.576004
0.139423 0.010727 0.699973
0.140668 0.011972 0.825232
0.141317 0.012622 0.890516
0.138243 0.067265 0.009547
0.139209 0.068231 0.106680
0.140343 0.069365 0.220807
0.141516 0.070538 0.338792
0.142715 0.071737 0.459314
0.143932 0.072954 0.581746
0.145164 0.074187 0.705715
0.146410 0.075432 0.830974
0.147059 0.076081 0.896258
0.149278 0.189231 0.020582
0.150244 0.190197 0.117715
0.151378 0.191332 0.231842
0.152551 0.192505 0.349827
0.153750 0.193703 0.470349
0.154967 0.194920 0.592781
0.156200 0.196153 0.716750
0.157445 0.197398 0.842009
0.158094 0.198047 0.907293
0.160785 0.316414 0.032089
0.161751 0.317380 0.129222
0.162885 0.318514 0.243349
0.164058 0.319687 0.361334
0.165257 0.320886 0.481856
0.166474 0.322103 0.604288
0.167706 0.323335 0.728257
0.168952 0.324581 0.853516
0.169601 0.325230 0.918800
0.172576 0.446731 0.043880
0.173541 0.447697 0.141013
0.174676 0.448832 0.255140
0.175849 0.450005 0.373125
0.177047 0.451203 0.493647
0.178265 0.452420 0.616079
0.179497 0.453653 0.740048
0.180742 0.454898 0.865306
0.181392 0.455547 0.930590
0.184572 0.579325 0.055876
0.185538 0.580291 0.153009
0.186673 0.581425 0.267136
0.187846 0.582598 0.385121
0.189044 0.583797 0.505643
0.190261 0.585014 0.628075
0.191494 0.586247 0.752044
0.192739 0.587492 0.877303
0.193388 0.588141 0.942587
0.196731 0.713715 0.068035
0.197697 0.714681 0.165169
0.198832 0.715815 0.279295
0.200005 0.716988 0.397280
0.201203 0.718187 0.517803
0.202420 0.719404 0.640234
0.203653 0.720637 0.764203
0.204898 0.721882 0.889462
0.205547 0.722531 0.954746
0.209025 0.849593 0.080329
0.209991 0.850559 0.177462
0.211125 0.851694 0.291589
0.212298 0.852867 0.409574
0.213497 0.854065 0.530096
0.214714 0.855282 0.652528
0.215946 0.856515 0.776497
0.217192 0.857760 0.901756
0.217841 0.858409 0.967040
0.219831 0.969030 0.091135
0.220797 0.969996 0.188268
0.221931 0.971130 0.302395
0.223105 0.972303 0.420380
0.224303 0.973502 0.540902
0.225520 0.974719 0.663334
0.226753 0.975952 0.787303
0.227998 0.977197 0.912562
0.228647 0.977846 0.977846
0.250214 0.007186 0.007186
0.251179 0.008152 0.104320
0.252314 0.009287 0.218446
0.253487 0.010460 0.336431
0.254685 0.011658 0.456954
0.255903 0.012875 0.579385
0.257135 0.014108 0.703354
0.258381 0.015353 0.828613
0.259030 0.016002 0.893897
0.255955 0.070646 0.012928
0.256921 0.071612 0.110061
0.258056 0.072746 0.224188
0.259229 0.073919 0.342173
0.260427 0.075118 0.462695
0.261644 0.076335 0.585127
0.262877 0.077567 0.709096
0.264122 0.078813 0.834355
0.264771 0.079462 0.899639
0.266990 0.192612 0.023963
0.267956 0.193578 0.121096
0.269091 0.194712 0.235223
0.270264 0.195885 0.353208
0.271462 0.197084 0.473730
0.272679 0.198301 0.596162
0.273912 0.199534 0.720131
0.275157 0.200779 0.845390
0.275806 0.201428 0.910674
0.278497 0.319795 0.035470
0.279463 0.320760 0.132603
0.280598 0.321895 0.246730
0.281771 0.323068 0.364715
0.282969 0.324266 0.485237
0.284186 0.325484 0.607669
0.285419 0.326716 0.731638
0.286664 0.327962 0.856897
0.287313 0.328611 0.922181
0.290288 0.450112 0.047261
0.291254 0.451078 0.144394
0.292388 0.452213 0.258520
0.293561 0.453386 0.376505
0.294760 0.454584 0.497028
0.295977 0.455801 0.619459
0.297209 0.457034 0.743428
0.298455 0.458279 0.868687
0.299104 0.458928 0.933971
0.302284 0.582706 0.059257
0.303250 0.583672 0.156390
0.304385 0.584806 0.270517
0.305558 0.585979 0.388502
0.306756 0.587178 0.509024
0.307973 0.588395 0.631456
0.309206 0.589627 0.755425
0.310451 0.590873 0.880684
0.311100 0.591522 0.945968
0.314443 0.717096 0.071416
0.315409 0.718062 0.168549
0.316544 0.719196 0.282676
0.317717 0.720369 0.400661
0.318915 0.721568 0.521183
0.320132 0.722785 0.643615
0.321365 0.724017 0.767584
0.322610 0.725263 0.892843
0.323259 0.725912 0.958127
0.326737 0.852974 0.083710
0.327703 0.853940 0.180843
0.328838 0.855075 0.294970
0.330011 0.856248 0.412955
0.331209 0.857446 0.533477
0.332426 0.858663 0.655909
0.333659 0.859896 0.779878
0.334904 0.861141 0.905137
0.335553 0.861790 0.970421
0.337543 0.972411 0.094516
0.338509 0.973377 0.191649
0.339644 0.974511 0.305776
0.340817 0.975684 0.423761
0.342015 0.976883 0.544283
0.343232 0.978100 0.666715
0.344465 0.979332 0.790684
0.345710 0.980578 0.915943
0.346359 0.981227 0.981227
0.371329 0.010665 0.010665
0.372295 0.011631 0.107798
0.373430 0.012765 0.221925
0.374603 0.013938 0.339910
0.375801 0.015137 0.460432
0.377018 0.016354 0.582864
0.378251 0.017586 0.706833
0.379496 0.018832 0.832092
0.380145 0.019481 0.897376
0.377071 0.074124 0.016406
0.378036 0.075090 0.113540
0.379171 0.076225 0.227666
0.380344 0.077398 0.345651
0.381542 0.078596 0.466174
0.382760 0.079813 0.588605
0.383992 0.081046 0.712574
0.385238 0.082291 0.837833
0.385887 0.082940 0.903117
0.388106 0.196091 0.027442
0.389071 0.197056 0.124575
0.390206 0.198191 0.238701
0.391379 0.199364 0.356686
0.392577 0.200562 0.477209
0.393795 0.201780 0.599640
0.395027 0.203012 0.723609
0.396273 0.204257 0.848868
0.396922 0.204907 0.914152
0.399613 0.323273 0.038948
0.400578 0.324239 0.136082
0.401713 0.325374 0.250208
0.402886 0.326547 0.368193
0.404084 0.327745 0.488716
0.405302 0.328962 0.611147
0.406534 0.330195 0.735116
0.407780 0.331440 0.860375
0.408429 0.332089 0.925659
0.411403 0.453591 0.050739
0.412369 0.454557 0.147872
0.413504 0.455691 0.261999
0.414677 0.456864 0.379984
0.415875 0.458063 0.500506
0.417092 0.459280 0.622938
0.418325 0.460512 0.746907
0.419570 0.461758 0.872166
0.420219 0.462407 0.937450
0.423400 0.586184 0.062736
0.424366 0.587150 0.159869
0.425500 0.588285 0.273995
0.426673 0.589458 0.391980
0.427872 0.590656 0.512503
0.429089 0.591873 0.634935
0.430321 0.593106 0.758904
0.431567 0.594351 0.884162
0.432216 0.595000 0.949446
0.435559 0.720574 0.074895
0.436525 0.721540 0.172028
0.437659 0.722675 0.286155
0.438832 0.723848 0.404140
0.440031 0.725046 0.524662
0.441248 0.726263 0.647094
0.442480 0.727496 0.771063
0.443726 0.728741 0.896321
0.444375 0.729390 0.961605
0.447853 0.856453 0.087188
0.448818 0.857418 0.184322
0.449953 0.858553 0.298448
0.451126 0.859726 0.416433
0.452324 0.860925 0.536956
0.453542 0.862142 0.659387
0.454774 0.863374 0.783356
0.456020 0.864620 0.908615
0.456669 0.865269 0.973899
0.458659 0.975889 0.097995
0.459625 0.976855 0.195128
0.460759 0.977990 0.309254
0.461932 0.979163 0.427239
0.463131 0.980361 0.547762
0.464348 0.981578 0.670194
0.465580 0.982811 0.794163
0.466826 0.984056 0.919421
0.467475 0.984705 0.984705
0.494802 0.014211 0.014211
0.495768 0.015177 0.111344
0.496902 0.016312 0.225471
0.498075 0.017485 0.343456
0.499274 0.018683 0.463978
0.500491 0.019900 0.586410
0.501723 0.021133 0.710379
0.502969 0.022378 0.835638
0.503618 0.023027 0.900922
0.500543 0.077671 0.019953
0.501509 0.078636 0.117086
0.502644 0.079771 0.231213
0.503817 0.080944 0.349198
0.505015 0.082142 0.469720
0.506232 0.083360 0.592152
0.507465 0.084592 0.716121
0.508710 0.085838 0.841379
0.509359 0.086487 0.906663
0.511578 0.199637 0.030988
0.512544 0.200603 0.128121
0.513679 0.201737 0.242248
0.514852 0.202910 0.360233
0.516050 0.204109 0.480755
0.517267 0.205326 0.603187
0.518500 0.206558 0.727156
0.519745 0.207804 0.852414
0.520394 0.208453 0.917699
0.523085 0.326819 0.042495
0.524051 0.327785 0.139628
0.525186 0.328920 0.253755
0.526359 0.330093 0.371740
0.527557 0.331291 0.492262
0.528774 0.332508 0.614694
0.530007 0.333741 0.738663
0.531252 0.334986 0.863921
0.531901 0.335635 0.929205
0.534876 0.457137 0.054285
0.535842 0.458103 0.151419
0.536976 0.459238 0.265545
0.538149 0.460411 0.383530
0.539348 0.461609 0.504053
0.540565 0.462826 0.626484
0.541798 0.464059 0.750453
0.543043 0.465304 0.875712
0.543692 0.465953 0.940996
0.546873 0.589731 0.066282
0.547838 0.590696 0.163415
0.548973 0.591831 0.277542
0.550146 0.593004 0.395527
0.551344 0.594202 0.516049
0.552562 0.595420 0.638481
0.553794 0.596652 0.762450
0.555039 0.597898 0.887709
0.555689 0.598547 0.952993
0.559032 0.724121 0.078441
0.559997 0.725086 0.175574
0.561132 0.726221 0.289701
0.562305 0.727394 0.407686
0.563503 0.728592 0.528208
0.564721 0.729810 0.650640
0.565953 0.731042 0.774609
0.567199 0.732288 0.899868
0.567848 0.732937 0.965152
0.571325 0.859999 0.090735
0.572291 0.860965 0.187868
0.573426 0.862099 0.301995
0.574599 0.863272 0.419980
0.575797 0.864471 0.540502
0.577014 0.865688 0.662934
0.578247 0.866921 0.786903
0.579492 0.868166 0.912161
0.580141 0.868815 0.977445
0.582131 0.979436 0.101541
0.583097 0.980401 0.198674
0.584232 0.981536 0.312801
0.585405 0.982709 0.430786
0.586603 0.983907 0.551308
0.587821 0.985125 0.673740
0.589053 0.986357 0.797709
0.590298 0.987603 0.922968
0.590947 0.988252 0.988252
0.620091 0.017810 0.017810
0.621057 0.018775 0.114943
0.622192 0.019910 0.229069
0.623365 0.021083 0.347054
0.624563 0.022281 0.467577
0.625780 0.023499 0.590009
0.627013 0.024731 0.713978
0.628258 0.025977 0.839236
0.628907 0.026626 0.904520
0.625833 0.081269 0.023551
0.626799 0.082235 0.120684
0.627933 0.083369 0.234811
0.629106 0.084543 0.352796
0.630305 0.085741 0.473318
0.631522 0.086958 0.595750
0.632754 0.088191 0.719719
0.634000 0.089436 0.844978
0.634649 0.090085 0.910262
0.636868 0.203235 0.034586
0.637834 0.204201 0.131719
0.638968 0.205336 0.245846
0.640141 0.206509 0.363831
0.641340 0.207707 0.484353
0.642557 0.208924 0.606785
0.643789 0.210157 0.730754
0.645035 0.211402 0.856013
0.645684 0.212051 0.921297
0.648375 0.330418 0.046093
0.649341 0.331384 0.143226
0.650475 0.332518 0.257353
0.651648 0.333691 0.375338
0.652847 0.334890 0.495860
0.654064 0.336107 0.618292
0.655296 0.337339 0.742261
0.656542 0.338585 0.867520
0.657191 0.339234 0.932804
0.660165 0.460736 0.057884
0.661131 0.461701 0.155017
0.662266 0.462836 0.269144
0.663439 0.464009 0.387129
0.664637 0.465207 0.507651
0.665854 0.466425 0.630083
0.667087 0.467657 0.754052
0.668332 0.468902 0.879310
0.668981 0.469552 0.944595
0.672162 0.593329 0.069880
0.673128 0.594295 0.167013
0.674262 0.595429 0.281140
0.675435 0.596603 0.399125
0.676634 0.597801 0.519648
0.677851 0.599018 0.642079
0.679083 0.600251 0.766048
0.680329 0.601496 0.891307
0.680978 0.602145 0.956591
0.684321 0.727719 0.082039
0.685287 0.728685 0.179173
0.686421 0.729820 0.293299
0.687594 0.730993 0.411284
0.688793 0.732191 0.531807
0.690010 0.733408 0.654238
0.691243 0.734641 0.778207
0.692488 0.735886 0.903466
0.693137 0.736535 0.968750
0.696615 0.863597 0.094333
0.697580 0.864563 0.191466
0.698715 0.865698 0.305593
0.699888 0.866871 0.423578
0.701087 0.868069 0.544100
0.702304 0.869286 0.666532
0.703536 0.870519 0.790501
0.704782 0.871764 0.915760
0.705431 0.872413 0.981044
0.707421 0.983034 0.105139
0.708387 0.984000 0.202272
0.709521 0.985134 0.316399
0.710694 0.986308 0.434384
0.711893 0.987506 0.554907
0.713110 0.988723 0.677338
0.714342 0.989956 0.801307
0.715588 0.991201 0.926566
0.716237 0.991850 0.991850
0.746864 0.021451 0.021451
0.747830 0.022416 0.118584
0.748964 0.023551 0.232710
0.750137 0.024724 0.350695
0.751336 0.025922 0.471218
0.752553 0.027140 0.593650
0.753785 0.028372 0.717619
0.755031 0.029618 0.842877
0.755680 0.030267 0.908161
0.752605 0.084910 0.027192
0.753571 0.085876 0.124325
0.754706 0.087010 0.238452
0.755879 0.088184 0.356437
0.757077 0.089382 0.476959
0.758294 0.090599 0.599391
0.759527 0.091832 0.723360
0.760772 0.093077 0.848619
0.761421 0.093726 0.913903
0.763640 0.206876 0.038227
0.764606 0.207842 0.135360
0.765741 0.208977 0.249487
0.766914 0.210150 0.367472
0.768112 0.211348 0.487994
0.769329 0.212565 0.610426
0.770562 0.213798 0.734395
0.771807 0.215043 0.859654
0.772456 0.215692 0.924938
0.775147 0.334059 0.049734
0.776113 0.335025 0.146867
0.777248 0.336159 0.260994
0.778421 0.337332 0.378979
0.779619 0.338531 0.499501
0.780836 0.339748 0.621933
0.782069 0.340980 0.745902
0.783314 0.342226 0.871161
0.783963 0.342875 0.936445
0.786938 0.464377 0.061525
0.787904 0.465342 0.158658
0.789039 0.466477 0.272785
0.790212 0.467650 0.390770
0.791410 0.468848 0.511292
0.792627 0.470066 0.633724
0.793860 0.471298 0.757693
0.795105 0.472543 0.882951
0.795754 0.473193 0.948236
0.798935 0.596970 0.073521
0.799900 0.597936 0.170655
0.801035 0.599071 0.284781
0.802208 0.600244 0.402766
0.803406 0.601442 0.523289
0.804624 0.602659 0.645720
0.805856 0.603892 0.769689
0.807102 0.605137 0.894948
0.807751 0.605786 0.960232
0.811094 0.731360 0.085680
0.812059 0.732326 0.182814
0.813194 0.733461 0.296940
0.814367 0.734634 0.414925
0.815565 0.735832 0.535448
0.816783 0.737049 0.657879
0.818015 0.738282 0.781848
0.819261 0.739527 0.907107
0.819910 0.740176 0.972391
0.823387 0.867238 0.097974
0.824353 0.868204 0.195107
0.825488 0.869339 0.309234
0.826661 0.870512 0.427219
0.827859 0.871710 0.547741
0.829076 0.872927 0.670173
0.830309 0.874160 0.794142
0.831554 0.875405 0.919401
0.832203 0.876054 0.984685
0.834194 0.986675 0.108780
0.835159 0.987641 0.205913
0.836294 0.988776 0.320040
0.837467 0.989949 0.438025
0.838665 0.991147 0.558548
0.839883 0.992364 0.680979
0.841115 0.993597 0.804948
0.842361 0.994842 0.930207
0.843010 0.995491 0.995491
0.874893 0.025128 0.025128
0.875858 0.026094 0.122261
0.876993 0.027228 0.236388
0.878166 0.028401 0.354373
0.879364 0.029600 0.474895
0.880582 0.030817 0.597327
0.881814 0.032049 0.721296
0.883060 0.033295 0.846554
0.883709 0.033944 0.911839
0.880634 0.088587 0.030869
0.881600 0.089553 0.128002
0.882735 0.090688 0.242129
0.883908 0.091861 0.360114
0.885106 0.093059 0.480637
0.886323 0.094276 0.603068
0.887556 0.095509 0.727037
0.888801 0.096754 0.852296
0.889450 0.097403 0.917580
0.891669 0.210553 0.041904
0.892635 0.211519 0.139037
0.893770 0.212654 0.253164
0.894943 0.213827 0.371149
0.896141 0.215025 0.491672
0.897358 0.216242 0.614103
0.898591 0.217475 0.738072
0.899836 0.218720 0.863331
0.900485 0.219369 0.928615
0.903176 0.337736 0.053411
0.904142 0.338702 0.150544
0.905277 0.339836 0.264671
0.906450 0.341010 0.382656
0.907648 0.342208 0.503179
0.908865 0.343425 0.625610
0.910098 0.344658 0.749579
0.911343 0.345903 0.874838
0.911992 0.346552 0.940122
0.914967 0.468054 0.065202
0.915933 0.469019 0.162335
0.917067 0.470154 0.276462
0.918240 0.471327 0.394447
0.919439 0.472525 0.514969
0.920656 0.473743 0.637401
0.921888 0.474975 0.761370
0.923134 0.476221 0.886629
0.923783 0.476870 0.951913
0.926963 0.600647 0.077198
0.927929 0.601613 0.174332
0.929064 0.602748 0.288458
0.930237 0.603921 0.406443
0.931435 0.605119 0.526966
0.932652 0.606336 0.649397
0.933885 0.607569 0.773366
0.935130 0.608814 0.898625
0.935779 0.609463 0.963909
0.939122 0.735037 0.089358
0.940088 0.736003 0.186491
0.941223 0.737138 0.300617
0.942396 0.738311 0.418602
0.943594 0.739509 0.539125
0.944811 0.740726 0.661556
0.946044 0.741959 0.785525
0.947289 0.743204 0.910784
0.947938 0.743853 0.976068
0.951416 0.870916 0.101651
0.952382 0.871881 0.198784
0.953517 0.873016 0.312911
0.954690 0.874189 0.430896
0.955888 0.875387 0.551419
0.957105 0.876605 0.673850
0.958338 0.877837 0.797819
0.959583 0.879083 0.923078
0.960232 0.879732 0.988362
0.962222 0.990352 0.112457
0.963188 0.991318 0.209591
0.964323 0.992453 0.323717
0.965496 0.993626 0.441702
0.966694 0.994824 0.562225
0.967911 0.996041 0.684656
0.969144 0.997274 0.808625
0.970389 0.998519 0.933884
0.971038 0.999168 0.999168
