skills/editops-orchestrator/assets/grade/luts/moody_teal_v09.cube
TITLE "moody_teal_v09"
LUT_3D_SIZE 5
DOMAIN_MIN 0.0 0.0 0.0
DOMAIN_MAX 1.0 1.0 1.0
0.000000 0.000000 0.000000
0.001568 0.001568 0.219714
0.003290 0.003290 0.461111
0.005055 0.005055 0.708390
0.006536 0.006536 0.916010
0.013454 0.202449 0.013454
0.015022 0.204017 0.233168
0.016745 0.205740 0.474566
0.018509 0.207504 0.721845
0.019990 0.208985 0.929464
0.030445 0.458117 0.030445
0.032013 0.459685 0.250160
0.033736 0.461407 0.491557
0.035500 0.463172 0.738836
0.036981 0.464653 0.946455
0.047882 0.720487 0.047882
0.049450 0.722055 0.267596
0.051172 0.723777 0.508993
0.052937 0.725541 0.756272
0.054418 0.727023 0.963892
0.064744 0.974218 0.064744
0.066312 0.975786 0.284459
0.068035 0.977508 0.525856
0.069799 0.979273 0.773135
0.071280 0.980754 0.980754
0.163425 0.003387 0.003387
0.164992 0.004954 0.223101
0.166715 0.006677 0.464498
0.168479 0.008441 0.711777
0.169961 0.009923 0.919396
0.176879 0.205836 0.016841
0.178447 0.207404 0.236555
0.180169 0.209126 0.477952
0.181934 0.210891 0.725231
0.183415 0.212372 0.932851
0.193870 0.461504 0.033832
0.195438 0.463071 0.253546
0.197160 0.464794 0.494943
0.198925 0.466558 0.742222
0.200406 0.468040 0.949842
0.211307 0.723873 0.051269
0.212874 0.725441 0.270983
0.214597 0.727164 0.512380
0.216361 0.728928 0.759659
0.217843 0.730409 0.967278
0.228169 0.977605 0.068131
0.229737 0.979172 0.287845
0.231459 0.980895 0.529242
0.233224 0.982659 0.776521
0.234705 0.984141 0.984141
0.406028 0.008414 0.008414
0.407596 0.009982 0.228128
0.409318 0.011704 0.469526
0.411082 0.013469 0.716804
0.412564 0.014950 0.924424
0.419482 0.210864 0.021868
0.421050 0.212431 0.241583
0.422772 0.214154 0.482980
0.424537 0.215918 0.730259
0.426018 0.217400 0.937878
0.436473 0.466531 0.038860
0.438041 0.468099 0.258574
0.439763 0.469821 0.499971
0.441528 0.471586 0.747250
0.443009 0.473067 0.954869
0.453910 0.728901 0.056296
0.455478 0.730469 0.276010
0.457200 0.732191 0.517408
0.458964 0.733956 0.764686
0.460446 0.735437 0.972306
0.470772 0.982632 0.073159
0.472340 0.984200 0.292873
0.474062 0.985922 0.534270
0.475827 0.987687 0.781549
0.477308 0.989168 0.989168
0.655519 0.013584 0.013584
0.657087 0.015152 0.233298
0.658809 0.016875 0.474696
0.660574 0.018639 0.721975
0.662055 0.020120 0.929594
0.668973 0.216034 0.027039
0.670541 0.217602 0.246753
0.672264 0.219324 0.488150
0.674028 0.221088 0.735429
0.675509 0.222570 0.943048
0.685965 0.471701 0.044030
0.687532 0.473269 0.263744
0.689255 0.474992 0.505141
0.691019 0.476756 0.752420
0.692501 0.478237 0.960039
0.703401 0.734071 0.061466
0.704969 0.735639 0.281180
0.706691 0.737361 0.522578
0.708456 0.739126 0.769857
0.709937 0.740607 0.977476
0.720263 0.987802 0.078329
0.721831 0.989370 0.298043
0.723554 0.991093 0.539440
0.725318 0.992857 0.786719
0.726799 0.994338 0.994338
0.909295 0.018843 0.018843
0.910862 0.020411 0.238557
0.912585 0.022134 0.479955
0.914349 0.023898 0.727234
0.915831 0.025379 0.934853
0.922749 0.221293 0.032298
0.924317 0.222861 0.252012
0.926039 0.224583 0.493409
0.927804 0.226347 0.740688
0.929285 0.227829 0.948307
0.939740 0.476960 0.049289
0.941308 0.478528 0.269003
0.943030 0.480251 0.510400
0.944795 0.482015 0.757679
0.946276 0.483496 0.965298
0.957177 0.739330 0.066725
0.958744 0.740898 0.286439
0.960467 0.742620 0.527837
0.962231 0.744385 0.775116
0.963713 0.745866 0.982735
0.974039 0.993061 0.083588
0.975607 0.994629 0.303302
0.977329 0.996352 0.544699
0.979094 0.998116 0.791978
0.980575 0.999597 0.999597
