skills/editops-orchestrator/assets/grade/luts/moody_teal_v17.cube
TITLE "moody_teal_v17"
LUT_3D_SIZE 17
DOMAIN_MIN 0.0 0.0 0.0
DOMAIN_MAX 1.0 1.0 1.0
0.000000 0.000000 0.000000
0.000476 0.000476 0.040617
0.001101 0.001101 0.093938
0.001751 0.001751 0.149454
0.002418 0.002418 0.206395
0.003098 0.003098 0.264403
0.003788 0.003788 0.323269
0.004486 0.004486 0.382853
0.005191 0.005191 0.443056
0.005903 0.005903 0.503805
0.006621 0.006621 0.565041
0.007344 0.007344 0.626719
0.008071 0.008071 0.688799
0.008803 0.008803 0.751251
0.009539 0.009539 0.814047
0.010184 0.010184 0.869131
0.010184 0.010184 0.869131
0.000031 0.000296 0.000031
0.000507 0.000772 0.040648
0.001132 0.001397 0.093969
0.001782 0.002048 0.149485
0.002450 0.002715 0.206426
0.003129 0.003395 0.264435
0.003819 0.004084 0.323300
0.004517 0.004782 0.382884
0.005223 0.005488 0.443087
0.005934 0.006200 0.503836
0.006652 0.006917 0.565072
0.007375 0.007640 0.626750
0.008102 0.008367 0.688830
0.008834 0.009099 0.751282
0.009570 0.009835 0.814078
0.010215 0.010480 0.869163
0.010215 0.010480 0.869163
0.005719 0.054410 0.005719
0.006195 0.054886 0.046336
0.006819 0.055511 0.099656
0.007470 0.056161 0.155173
0.008137 0.056828 0.212114
0.008817 0.057508 0.270122
0.009507 0.058198 0.328988
0.010205 0.058896 0.388571
0.010910 0.059601 0.448775
0.011622 0.060313 0.509524
0.012339 0.061031 0.570760
0.013062 0.061753 0.632437
0.013790 0.062481 0.694518
0.014521 0.063213 0.756970
0.015257 0.063948 0.819766
0.015903 0.064594 0.874850
0.015903 0.064594 0.874850
0.011961 0.113802 0.011961
0.012437 0.114278 0.052578
0.013062 0.114903 0.105898
0.013712 0.115553 0.161415
0.014379 0.116220 0.218356
0.015059 0.116900 0.276364
0.015749 0.117590 0.335230
0.016447 0.118288 0.394814
0.017152 0.118993 0.455017
0.017864 0.119705 0.515766
0.018582 0.120423 0.577002
0.019304 0.121145 0.638680
0.020032 0.121873 0.700760
0.020764 0.122605 0.763212
0.021499 0.123340 0.826008
0.022145 0.123986 0.881092
0.022145 0.123986 0.881092
0.018436 0.175413 0.018436
0.018912 0.175889 0.059054
0.019537 0.176514 0.112374
0.020188 0.177164 0.167890
0.020855 0.177832 0.224832
0.021535 0.178511 0.282840
0.022224 0.179201 0.341705
0.022923 0.179899 0.401289
0.023628 0.180605 0.461493
0.024340 0.181316 0.522241
0.025057 0.182034 0.583478
0.025780 0.182757 0.645155
0.026507 0.183484 0.707236
0.027239 0.184216 0.769687
0.027975 0.184952 0.832484
0.028620 0.185597 0.887568
0.028620 0.185597 0.887568
0.025069 0.238514 0.025069
0.025544 0.238990 0.065686
0.026169 0.239614 0.119006
0.026820 0.240265 0.174523
0.027487 0.240932 0.231464
0.028167 0.241612 0.289472
0.028856 0.242302 0.348337
0.029555 0.243000 0.407921
0.030260 0.243705 0.468125
0.030972 0.244417 0.528873
0.031689 0.245134 0.590110
0.032412 0.245857 0.651787
0.033139 0.246585 0.713868
0.033871 0.247316 0.776320
0.034607 0.248052 0.839116
0.035253 0.248698 0.894200
0.035253 0.248698 0.894200
0.031820 0.302746 0.031820
0.032295 0.303222 0.072437
0.032920 0.303847 0.125757
0.033571 0.304497 0.181274
0.034238 0.305164 0.238215
0.034918 0.305844 0.296223
0.035607 0.306534 0.355088
0.036306 0.307232 0.414672
0.037011 0.307937 0.474876
0.037723 0.308649 0.535624
0.038440 0.309367 0.596861
0.039163 0.310090 0.658538
0.039890 0.310817 0.720619
0.040622 0.311549 0.783071
0.041358 0.312285 0.845867
0.042004 0.312930 0.900951
0.042004 0.312930 0.900951
0.038667 0.367895 0.038667
0.039143 0.368371 0.079284
0.039768 0.368996 0.132604
0.040418 0.369647 0.188121
0.041085 0.370314 0.245062
0.041765 0.370993 0.303070
0.042455 0.371683 0.361936
0.043153 0.372381 0.421520
0.043858 0.373087 0.481723
0.044570 0.373799 0.542472
0.045288 0.374516 0.603708
0.046010 0.375239 0.665386
0.046738 0.375966 0.727466
0.047470 0.376698 0.789918
0.048205 0.377434 0.852714
0.048851 0.378079 0.907798
0.048851 0.378079 0.907798
0.045596 0.433817 0.045596
0.046071 0.434293 0.086213
0.046696 0.434918 0.139533
0.047347 0.435569 0.195050
0.048014 0.436236 0.251991
0.048694 0.436916 0.309999
0.049383 0.437605 0.368864
0.050082 0.438303 0.428448
0.050787 0.439009 0.488652
0.051499 0.439721 0.549400
0.052216 0.440438 0.610637
0.052939 0.441161 0.672314
0.053666 0.441888 0.734395
0.054398 0.442620 0.796847
0.055134 0.443356 0.859643
0.055780 0.444001 0.914727
0.055780 0.444001 0.914727
0.052594 0.500409 0.052594
0.053070 0.500884 0.093212
0.053695 0.501509 0.146532
0.054346 0.502160 0.202048
0.055013 0.502827 0.258990
0.055693 0.503507 0.316998
0.056382 0.504196 0.375863
0.057081 0.504895 0.435447
0.057786 0.505600 0.495651
0.058498 0.506312 0.556399
0.059215 0.507029 0.617636
0.059938 0.507752 0.679313
0.060665 0.508480 0.741394
0.061397 0.509211 0.803845
0.062133 0.509947 0.866642
0.062778 0.510593 0.921726
0.062778 0.510593 0.921726
0.059655 0.567590 0.059655
0.060131 0.568066 0.100273
0.060756 0.568691 0.153593
0.061407 0.569341 0.209109
0.062074 0.570009 0.266051
0.062754 0.570688 0.324059
0.063443 0.571378 0.382924
0.064142 0.572076 0.442508
0.064847 0.572782 0.502712
0.065559 0.573494 0.563460
0.066276 0.574211 0.624697
0.066999 0.574934 0.686374
0.067726 0.575661 0.748455
0.068458 0.576393 0.810906
0.069194 0.577129 0.873703
0.069839 0.577774 0.928787
0.069839 0.577774 0.928787
0.066772 0.635301 0.066772
0.067248 0.635777 0.107389
0.067873 0.636402 0.160710
0.068523 0.637052 0.216226
0.069190 0.637719 0.273167
0.069870 0.638399 0.331176
0.070560 0.639089 0.390041
0.071258 0.639787 0.449625
0.071964 0.640493 0.509828
0.072675 0.641204 0.570577
0.073393 0.641922 0.631813
0.074116 0.642645 0.693491
0.074843 0.643372 0.755571
0.075575 0.644104 0.818023
0.076311 0.644840 0.880819
0.076956 0.645485 0.935903
0.076956 0.645485 0.935903
0.073939 0.703491 0.073939
0.074415 0.703967 0.114556
0.075040 0.704592 0.167877
0.075690 0.705243 0.223393
0.076358 0.705910 0.280334
0.077037 0.706590 0.338343
0.077727 0.707279 0.397208
0.078425 0.707978 0.456792
0.079131 0.708683 0.516995
0.079842 0.709395 0.577744
0.080560 0.710112 0.638980
0.081283 0.710835 0.700658
0.082010 0.711562 0.762738
0.082742 0.712294 0.825190
0.083478 0.713030 0.887986
0.084123 0.713675 0.943070
0.084123 0.713675 0.943070
0.081152 0.772121 0.081152
0.081628 0.772597 0.121770
0.082253 0.773222 0.175090
0.082903 0.773872 0.230606
0.083571 0.774539 0.287547
0.084250 0.775219 0.345556
0.084940 0.775909 0.404421
0.085638 0.776607 0.464005
0.086344 0.777312 0.524208
0.087056 0.778024 0.584957
0.087773 0.778742 0.646193
0.088496 0.779464 0.707871
0.089223 0.780192 0.769951
0.089955 0.780924 0.832403
0.090691 0.781659 0.895199
0.091336 0.782305 0.950284
0.091336 0.782305 0.950284
0.088408 0.841155 0.088408
0.088884 0.841631 0.129025
0.089509 0.842256 0.182345
0.090159 0.842906 0.237862
0.090826 0.843573 0.294803
0.091506 0.844253 0.352811
0.092196 0.844943 0.411677
0.092894 0.845641 0.471261
0.093599 0.846346 0.531464
0.094311 0.847058 0.592213
0.095029 0.847776 0.653449
0.095751 0.848498 0.715127
0.096479 0.849226 0.777207
0.097211 0.849958 0.839659
0.097946 0.850693 0.902455
0.098592 0.851339 0.957539
0.098592 0.851339 0.957539
0.095703 0.910565 0.095703
0.096179 0.911040 0.136320
0.096804 0.911665 0.189641
0.097454 0.912316 0.245157
0.098122 0.912983 0.302098
0.098801 0.913663 0.360107
0.099491 0.914352 0.418972
0.100189 0.915051 0.478556
0.100895 0.915756 0.538759
0.101606 0.916468 0.599508
0.102324 0.917185 0.660744
0.103047 0.917908 0.722422
0.103774 0.918636 0.784502
0.104506 0.919367 0.846954
0.105242 0.920103 0.909750
0.105887 0.920749 0.964834
0.105887 0.920749 0.964834
0.100881 0.959828 0.100881
0.101357 0.960304 0.141498
0.101982 0.960929 0.194818
0.102632 0.961579 0.250335
0.103299 0.962247 0.307276
0.103979 0.962926 0.365284
0.104669 0.963616 0.424150
0.105367 0.964314 0.483734
0.106072 0.965020 0.543937
0.106784 0.965732 0.604686
0.107502 0.966449 0.665922
0.108224 0.967172 0.727599
0.108952 0.967899 0.789680
0.109684 0.968631 0.852132
0.110419 0.969367 0.914928
0.111065 0.970012 0.970012
0.111065 0.970012 0.970012
0.000000 0.000000 0.000000
0.000476 0.000476 0.040617
0.001101 0.001101 0.093938
0.001751 0.001751 0.149454
0.002418 0.002418 0.206395
0.003098 0.003098 0.264403
0.003788 0.003788 0.323269
0.004486 0.004486 0.382853
0.005191 0.005191 0.443056
0.005903 0.005903 0.503805
0.006621 0.006621 0.565041
0.007344 0.007344 0.626719
0.008071 0.008071 0.688799
0.008803 0.008803 0.751251
0.009539 0.009539 0.814047
0.010184 0.010184 0.869131
0.010184 0.010184 0.869131
0.000031 0.000296 0.000031
0.000507 0.000772 0.040648
0.001132 0.001397 0.093969
0.001782 0.002048 0.149485
0.002450 0.002715 0.206426
0.003129 0.003395 0.264435
0.003819 0.004084 0.323300
0.004517 0.004782 0.382884
0.005223 0.005488 0.443087
0.005934 0.006200 0.503836
0.006652 0.006917 0.565072
0.007375 0.007640 0.626750
0.008102 0.008367 0.688830
0.008834 0.009099 0.751282
0.009570 0.009835 0.814078
0.010215 0.010480 0.869163
0.010215 0.010480 0.869163
0.005719 0.054410 0.005719
0.006195 0.054886 0.046336
0.006819 0.055511 0.099656
0.007470 0.056161 0.155173
0.008137 0.056828 0.212114
0.008817 0.057508 0.270122
0.009507 0.058198 0.328988
0.010205 0.058896 0.388571
0.010910 0.059601 0.448775
0.011622 0.060313 0.509524
0.012339 0.061031 0.570760
0.013062 0.061753 0.632437
0.013790 0.062481 0.694518
0.014521 0.063213 0.756970
0.015257 0.063948 0.819766
0.015903 0.064594 0.874850
0.015903 0.064594 0.874850
0.011961 0.113802 0.011961
0.012437 0.114278 0.052578
0.013062 0.114903 0.105898
0.013712 0.115553 0.161415
0.014379 0.116220 0.218356
0.015059 0.116900 0.276364
0.015749 0.117590 0.335230
0.016447 0.118288 0.394814
0.017152 0.118993 0.455017
0.017864 0.119705 0.515766
0.018582 0.120423 0.577002
0.019304 0.121145 0.638680
0.020032 0.121873 0.700760
0.020764 0.122605 0.763212
0.021499 0.123340 0.826008
0.022145 0.123986 0.881092
0.022145 0.123986 0.881092
0.018436 0.175413 0.018436
0.018912 0.175889 0.059054
0.019537 0.176514 0.112374
0.020188 0.177164 0.167890
0.020855 0.177832 0.224832
0.021535 0.178511 0.282840
0.022224 0.179201 0.341705
0.022923 0.179899 0.401289
0.023628 0.180605 0.461493
0.024340 0.181316 0.522241
0.025057 0.182034 0.583478
0.025780 0.182757 0.645155
0.026507 0.183484 0.707236
0.027239 0.184216 0.769687
0.027975 0.184952 0.832484
0.028620 0.185597 0.887568
0.028620 0.185597 0.887568
0.025069 0.238514 0.025069
0.025544 0.238990 0.065686
0.026169 0.239614 0.119006
0.026820 0.240265 0.174523
0.027487 0.240932 0.231464
0.028167 0.241612 0.289472
0.028856 0.242302 0.348337
0.029555 0.243000 0.407921
0.030260 0.243705 0.468125
0.030972 0.244417 0.528873
0.031689 0.245134 0.590110
0.032412 0.245857 0.651787
0.033139 0.246585 0.713868
0.033871 0.247316 0.776320
0.034607 0.248052 0.839116
0.035253 0.248698 0.894200
0.035253 0.248698 0.894200
0.031820 0.302746 0.031820
0.032295 0.303222 0.072437
0.032920 0.303847 0.125757
0.033571 0.304497 0.181274
0.034238 0.305164 0.238215
0.034918 0.305844 0.296223
0.035607 0.306534 0.355088
0.036306 0.307232 0.414672
0.037011 0.307937 0.474876
0.037723 0.308649 0.535624
0.038440 0.309367 0.596861
0.039163 0.310090 0.658538
0.039890 0.310817 0.720619
0.040622 0.311549 0.783071
0.041358 0.312285 0.845867
0.042004 0.312930 0.900951
0.042004 0.312930 0.900951
0.038667 0.367895 0.038667
0.039143 0.368371 0.079284
0.039768 0.368996 0.132604
0.040418 0.369647 0.188121
0.041085 0.370314 0.245062
0.041765 0.370993 0.303070
0.042455 0.371683 0.361936
0.043153 0.372381 0.421520
0.043858 0.373087 0.481723
0.044570 0.373799 0.542472
0.045288 0.374516 0.603708
0.046010 0.375239 0.665386
0.046738 0.375966 0.727466
0.047470 0.376698 0.789918
0.048205 0.377434 0.852714
0.048851 0.378079 0.907798
0.048851 0.378079 0.907798
0.045596 0.433817 0.045596
0.046071 0.434293 0.086213
0.046696 0.434918 0.139533
0.047347 0.435569 0.195050
0.048014 0.436236 0.251991
0.048694 0.436916 0.309999
0.049383 0.437605 0.368864
0.050082 0.438303 0.428448
0.050787 0.439009 0.488652
0.051499 0.439721 0.549400
0.052216 0.440438 0.610637
0.052939 0.441161 0.672314
0.053666 0.441888 0.734395
0.054398 0.442620 0.796847
0.055134 0.443356 0.859643
0.055780 0.444001 0.914727
0.055780 0.444001 0.914727
0.052594 0.500409 0.052594
0.053070 0.500884 0.093212
0.053695 0.501509 0.146532
0.054346 0.502160 0.202048
0.055013 0.502827 0.258990
0.055693 0.503507 0.316998
0.056382 0.504196 0.375863
0.057081 0.504895 0.435447
0.057786 0.505600 0.495651
0.058498 0.506312 0.556399
0.059215 0.507029 0.617636
0.059938 0.507752 0.679313
0.060665 0.508480 0.741394
0.061397 0.509211 0.803845
0.062133 0.509947 0.866642
0.062778 0.510593 0.921726
0.062778 0.510593 0.921726
0.059655 0.567590 0.059655
0.060131 0.568066 0.100273
0.060756 0.568691 0.153593
0.061407 0.569341 0.209109
0.062074 0.570009 0.266051
0.062754 0.570688 0.324059
0.063443 0.571378 0.382924
0.064142 0.572076 0.442508
0.064847 0.572782 0.502712
0.065559 0.573494 0.563460
0.066276 0.574211 0.624697
0.066999 0.574934 0.686374
0.067726 0.575661 0.748455
0.068458 0.576393 0.810906
0.069194 0.577129 0.873703
0.069839 0.577774 0.928787
0.069839 0.577774 0.928787
0.066772 0.635301 0.066772
0.067248 0.635777 0.107389
0.067873 0.636402 0.160710
0.068523 0.637052 0.216226
0.069190 0.637719 0.273167
0.069870 0.638399 0.331176
0.070560 0.639089 0.390041
0.071258 0.639787 0.449625
0.071964 0.640493 0.509828
0.072675 0.641204 0.570577
0.073393 0.641922 0.631813
0.074116 0.642645 0.693491
0.074843 0.643372 0.755571
0.075575 0.644104 0.818023
0.076311 0.644840 0.880819
0.076956 0.645485 0.935903
0.076956 0.645485 0.935903
0.073939 0.703491 0.073939
0.074415 0.703967 0.114556
0.075040 0.704592 0.167877
0.075690 0.705243 0.223393
0.076358 0.705910 0.280334
0.077037 0.706590 0.338343
0.077727 0.707279 0.397208
0.078425 0.707978 0.456792
0.079131 0.708683 0.516995
0.079842 0.709395 0.577744
0.080560 0.710112 0.638980
0.081283 0.710835 0.700658
0.082010 0.711562 0.762738
0.082742 0.712294 0.825190
0.083478 0.713030 0.887986
0.084123 0.713675 0.943070
0.084123 0.713675 0.943070
0.081152 0.772121 0.081152
0.081628 0.772597 0.121770
0.082253 0.773222 0.175090
0.082903 0.773872 0.230606
0.083571 0.774539 0.287547
0.084250 0.775219 0.345556
0.084940 0.775909 0.404421
0.085638 0.776607 0.464005
0.086344 0.777312 0.524208
0.087056 0.778024 0.584957
0.087773 0.778742 0.646193
0.088496 0.779464 0.707871
0.089223 0.780192 0.769951
0.089955 0.780924 0.832403
0.090691 0.781659 0.895199
0.091336 0.782305 0.950284
0.091336 0.782305 0.950284
0.088408 0.841155 0.088408
0.088884 0.841631 0.129025
0.089509 0.842256 0.182345
0.090159 0.842906 0.237862
0.090826 0.843573 0.294803
0.091506 0.844253 0.352811
0.092196 0.844943 0.411677
0.092894 0.845641 0.471261
0.093599 0.846346 0.531464
0.094311 0.847058 0.592213
0.095029 0.847776 0.653449
0.095751 0.848498 0.715127
0.096479 0.849226 0.777207
0.097211 0.849958 0.839659
0.097946 0.850693 0.902455
0.098592 0.851339 0.957539
0.098592 0.851339 0.957539
0.095703 0.910565 0.095703
0.096179 0.911040 0.136320
0.096804 0.911665 0.189641
0.097454 0.912316 0.245157
0.098122 0.912983 0.302098
0.098801 0.913663 0.360107
0.099491 0.914352 0.418972
0.100189 0.915051 0.478556
0.100895 0.915756 0.538759
0.101606 0.916468 0.599508
0.102324 0.917185 0.660744
0.103047 0.917908 0.722422
0.103774 0.918636 0.784502
0.104506 0.919367 0.846954
0.105242 0.920103 0.909750
0.105887 0.920749 0.964834
0.105887 0.920749 0.964834
0.100881 0.959828 0.100881
0.101357 0.960304 0.141498
0.101982 0.960929 0.194818
0.102632 0.961579 0.250335
0.103299 0.962247 0.307276
0.103979 0.962926 0.365284
0.104669 0.963616 0.424150
0.105367 0.964314 0.483734
0.106072 0.965020 0.543937
0.106784 0.965732 0.604686
0.107502 0.966449 0.665922
0.108224 0.967172 0.727599
0.108952 0.967899 0.789680
0.109684 0.968631 0.852132
0.110419 0.969367 0.914928
0.111065 0.970012 0.970012
0.111065 0.970012 0.970012
0.007690 0.000259 0.000259
0.008166 0.000735 0.040877
0.008790 0.001360 0.094197
0.009441 0.002011 0.149713
0.010108 0.002678 0.206655
0.010788 0.003358 0.264663
0.011477 0.004047 0.323528
0.012176 0.004745 0.383112
0.012881 0.005451 0.443316
0.013593 0.006163 0.504064
0.014310 0.006880 0.565301
0.015033 0.007603 0.626978
0.015761 0.008330 0.689059
0.016492 0.009062 0.751510
0.017228 0.009798 0.814306
0.017874 0.010443 0.869391
0.017874 0.010443 0.869391
0.007721 0.000556 0.000291
0.008197 0.001032 0.040908
0.008821 0.001656 0.094228
0.009472 0.002307 0.149745
0.010139 0.002974 0.206686
0.010819 0.003654 0.264694
0.011509 0.004344 0.323559
0.012207 0.005042 0.383143
0.012912 0.005747 0.443347
0.013624 0.006459 0.504095
0.014342 0.007177 0.565332
0.015064 0.007899 0.627009
0.015792 0.008627 0.689090
0.016523 0.009359 0.751542
0.017259 0.010094 0.814338
0.017905 0.010740 0.869422
0.017905 0.010740 0.869422
0.013408 0.054669 0.005978
0.013884 0.055145 0.046595
0.014509 0.055770 0.099916
0.015159 0.056420 0.155432
0.015827 0.057088 0.212373
0.016506 0.057767 0.270382
0.017196 0.058457 0.329247
0.017894 0.059155 0.388831
0.018600 0.059861 0.449034
0.019312 0.060573 0.509783
0.020029 0.061290 0.571019
0.020752 0.062013 0.632697
0.021479 0.062740 0.694777
0.022211 0.063472 0.757229
0.022947 0.064208 0.820025
0.023592 0.064853 0.875109
0.023592 0.064853 0.875109
0.019651 0.114061 0.012220
0.020126 0.114537 0.052838
0.020751 0.115162 0.106158
0.021402 0.115813 0.161674
0.022069 0.116480 0.218616
0.022749 0.117159 0.276624
0.023438 0.117849 0.335489
0.024137 0.118547 0.395073
0.024842 0.119253 0.455276
0.025554 0.119965 0.516025
0.026271 0.120682 0.577262
0.026994 0.121405 0.638939
0.027721 0.122132 0.701020
0.028453 0.122864 0.763471
0.029189 0.123600 0.826267
0.029835 0.124245 0.881352
0.029835 0.124245 0.881352
0.026126 0.175673 0.018696
0.026602 0.176148 0.059313
0.027227 0.176773 0.112633
0.027877 0.177424 0.168150
0.028544 0.178091 0.225091
0.029224 0.178771 0.283099
0.029914 0.179460 0.341965
0.030612 0.180159 0.401549
0.031318 0.180864 0.461752
0.032029 0.181576 0.522501
0.032747 0.182293 0.583737
0.033470 0.183016 0.645415
0.034197 0.183744 0.707495
0.034929 0.184475 0.769947
0.035665 0.185211 0.832743
0.036310 0.185857 0.887827
0.036310 0.185857 0.887827
0.032758 0.238773 0.025328
0.033234 0.239249 0.065945
0.033859 0.239874 0.119265
0.034509 0.240524 0.174782
0.035177 0.241191 0.231723
0.035856 0.241871 0.289731
0.036546 0.242561 0.348597
0.037244 0.243259 0.408181
0.037950 0.243965 0.468384
0.038661 0.244676 0.529133
0.039379 0.245394 0.590369
0.040102 0.246117 0.652047
0.040829 0.246844 0.714127
0.041561 0.247576 0.776579
0.042297 0.248312 0.839375
0.042942 0.248957 0.894459
0.042942 0.248957 0.894459
0.039509 0.303005 0.032079
0.039985 0.303481 0.072696
0.040610 0.304106 0.126016
0.041260 0.304757 0.181533
0.041928 0.305424 0.238474
0.042607 0.306104 0.296482
0.043297 0.306793 0.355348
0.043995 0.307491 0.414932
0.044701 0.308197 0.475135
0.045412 0.308909 0.535884
0.046130 0.309626 0.597120
0.046853 0.310349 0.658798
0.047580 0.311076 0.720878
0.048312 0.311808 0.783330
0.049048 0.312544 0.846126
0.049693 0.313189 0.901210
0.049693 0.313189 0.901210
0.046356 0.368155 0.038926
0.046832 0.368631 0.079544
0.047457 0.369255 0.132864
0.048108 0.369906 0.188380
0.048775 0.370573 0.245322
0.049455 0.371253 0.303330
0.050144 0.371943 0.362195
0.050843 0.372641 0.421779
0.051548 0.373346 0.481982
0.052260 0.374058 0.542731
0.052977 0.374776 0.603968
0.053700 0.375498 0.665645
0.054427 0.376226 0.727725
0.055159 0.376957 0.790177
0.055895 0.377693 0.852973
0.056540 0.378339 0.908058
0.056540 0.378339 0.908058
0.053285 0.434077 0.045855
0.053761 0.434553 0.086472
0.054386 0.435178 0.139792
0.055036 0.435828 0.195309
0.055704 0.436495 0.252250
0.056383 0.437175 0.310258
0.057073 0.437865 0.369124
0.057771 0.438563 0.428708
0.058477 0.439268 0.488911
0.059188 0.439980 0.549660
0.059906 0.440698 0.610896
0.060629 0.441420 0.672574
0.061356 0.442148 0.734654
0.062088 0.442880 0.797106
0.062824 0.443615 0.859902
0.063469 0.444261 0.914986
0.063469 0.444261 0.914986
0.060284 0.500668 0.052854
0.060760 0.501144 0.093471
0.061385 0.501769 0.146791
0.062035 0.502419 0.202308
0.062702 0.503086 0.259249
0.063382 0.503766 0.317257
0.064072 0.504456 0.376123
0.064770 0.505154 0.435707
0.065476 0.505859 0.495910
0.066187 0.506571 0.556659
0.066905 0.507289 0.617895
0.067628 0.508011 0.679573
0.068355 0.508739 0.741653
0.069087 0.509471 0.804105
0.069823 0.510206 0.866901
0.070468 0.510852 0.921985
0.070468 0.510852 0.921985
0.067345 0.567850 0.059915
0.067821 0.568326 0.100532
0.068446 0.568950 0.153852
0.069096 0.569601 0.209369
0.069763 0.570268 0.266310
0.070443 0.570948 0.324318
0.071133 0.571638 0.383184
0.071831 0.572336 0.442768
0.072537 0.573041 0.502971
0.073248 0.573753 0.563720
0.073966 0.574470 0.624956
0.074689 0.575193 0.686634
0.075416 0.575921 0.748714
0.076148 0.576652 0.811166
0.076884 0.577388 0.873962
0.077529 0.578034 0.929046
0.077529 0.578034 0.929046
0.074462 0.635560 0.067031
0.074938 0.636036 0.107649
0.075562 0.636661 0.160969
0.076213 0.637312 0.216485
0.076880 0.637979 0.273427
0.077560 0.638659 0.331435
0.078250 0.639348 0.390300
0.078948 0.640046 0.449884
0.079653 0.640752 0.510088
0.080365 0.641464 0.570836
0.081082 0.642181 0.632073
0.081805 0.642904 0.693750
0.082533 0.643631 0.755831
0.083264 0.644363 0.818282
0.084000 0.645099 0.881079
0.084646 0.645744 0.936163
0.084646 0.645744 0.936163
0.081629 0.703751 0.074198
0.082105 0.704227 0.114816
0.082729 0.704852 0.168136
0.083380 0.705502 0.223652
0.084047 0.706169 0.280594
0.084727 0.706849 0.338602
0.085417 0.707539 0.397467
0.086115 0.708237 0.457051
0.086820 0.708942 0.517255
0.087532 0.709654 0.578003
0.088249 0.710372 0.639240
0.088972 0.711094 0.700917
0.089700 0.711822 0.762998
0.090431 0.712554 0.825449
0.091167 0.713289 0.888246
0.091813 0.713935 0.943330
0.091813 0.713935 0.943330
0.088842 0.772380 0.081412
0.089318 0.772856 0.122029
0.089943 0.773481 0.175349
0.090593 0.774131 0.230866
0.091260 0.774799 0.287807
0.091940 0.775478 0.345815
0.092630 0.776168 0.404680
0.093328 0.776866 0.464264
0.094033 0.777572 0.524468
0.094745 0.778284 0.585217
0.095463 0.779001 0.646453
0.096185 0.779724 0.708130
0.096913 0.780451 0.770211
0.097645 0.781183 0.832663
0.098380 0.781919 0.895459
0.099026 0.782564 0.950543
0.099026 0.782564 0.950543
0.096097 0.841414 0.088667
0.096573 0.841890 0.129285
0.097198 0.842515 0.182605
0.097849 0.843165 0.238121
0.098516 0.843833 0.295063
0.099196 0.844512 0.353071
0.099885 0.845202 0.411936
0.100584 0.845900 0.471520
0.101289 0.846606 0.531723
0.102001 0.847318 0.592472
0.102718 0.848035 0.653709
0.103441 0.848758 0.715386
0.104168 0.849485 0.777467
0.104900 0.850217 0.839918
0.105636 0.850953 0.902714
0.106281 0.851598 0.957799
0.106281 0.851598 0.957799
0.103393 0.910824 0.095962
0.103869 0.911300 0.136580
0.104493 0.911925 0.189900
0.105144 0.912575 0.245416
0.105811 0.913242 0.302358
0.106491 0.913922 0.360366
0.107181 0.914612 0.419231
0.107879 0.915310 0.478815
0.108584 0.916015 0.539019
0.109296 0.916727 0.599767
0.110014 0.917445 0.661004
0.110736 0.918168 0.722681
0.111464 0.918895 0.784762
0.112195 0.919627 0.847213
0.112931 0.920363 0.910010
0.113577 0.921008 0.965094
0.113577 0.921008 0.965094
0.108570 0.960088 0.101140
0.109046 0.960564 0.141758
0.109671 0.961188 0.195078
0.110322 0.961839 0.250594
0.110989 0.962506 0.307535
0.111669 0.963186 0.365544
0.112358 0.963876 0.424409
0.113056 0.964574 0.483993
0.113762 0.965279 0.544196
0.114474 0.965991 0.604945
0.115191 0.966708 0.666181
0.115914 0.967431 0.727859
0.116641 0.968159 0.789939
0.117373 0.968890 0.852391
0.118109 0.969626 0.915187
0.118754 0.970272 0.970272
0.118754 0.970272 0.970272
0.059343 0.002002 0.002002
0.059819 0.002478 0.042619
0.060444 0.003103 0.095939
0.061095 0.003753 0.151456
0.061762 0.004420 0.208397
0.062442 0.005100 0.266405
0.063131 0.005790 0.325271
0.063830 0.006488 0.384855
0.064535 0.007193 0.445058
0.065247 0.007905 0.505807
0.065964 0.008623 0.567043
0.066687 0.009345 0.628721
0.067414 0.010073 0.690801
0.068146 0.010805 0.753253
0.068882 0.011540 0.816049
0.069527 0.012186 0.871133
0.069527 0.012186 0.871133
0.059375 0.002298 0.002033
