skills/editops-orchestrator/assets/grade/luts/moody_teal_v03.cube
TITLE "moody_teal_v03"
LUT_3D_SIZE 9
DOMAIN_MIN 0.0 0.0 0.0
DOMAIN_MAX 1.0 1.0 1.0
0.000000 0.000000 0.000000
0.000441 0.000441 0.110469
0.000921 0.000921 0.230483
0.001407 0.001407 0.352202
0.001898 0.001898 0.475032
0.002392 0.002392 0.598690
0.002888 0.002888 0.723012
0.003387 0.003387 0.847887
0.003800 0.003800 0.951168
0.003799 0.099409 0.003799
0.004240 0.099851 0.114268
0.004720 0.100330 0.234281
0.005206 0.100816 0.356001
0.005697 0.101307 0.478831
0.006191 0.101801 0.602489
0.006687 0.102298 0.726811
0.007186 0.102797 0.851686
0.007599 0.103209 0.954967
0.008537 0.223394 0.008537
0.008978 0.223835 0.119006
0.009458 0.224314 0.239019
0.009944 0.224801 0.360739
0.010435 0.225291 0.483569
0.010929 0.225785 0.607227
0.011425 0.226282 0.731549
0.011924 0.226781 0.856424
0.012337 0.227194 0.959705
0.013347 0.349272 0.013347
0.013789 0.349713 0.123816
0.014268 0.350193 0.243830
0.014754 0.350679 0.365549
0.015245 0.351170 0.488379
0.015739 0.351664 0.612038
0.016236 0.352161 0.736360
0.016735 0.352659 0.861235
0.017147 0.353072 0.964516
0.018204 0.476351 0.018204
0.018645 0.476792 0.128673
0.019125 0.477272 0.248686
0.019611 0.477758 0.370406
0.020102 0.478249 0.493235
0.020596 0.478743 0.616894
0.021092 0.479239 0.741216
0.021591 0.479738 0.866091
0.022004 0.480151 0.969372
0.023094 0.604315 0.023094
0.023535 0.604757 0.133563
0.024015 0.605236 0.253576
0.024501 0.605722 0.375296
0.024992 0.606213 0.498126
0.025486 0.606707 0.621784
0.025982 0.607204 0.746106
0.026481 0.607703 0.870981
0.026894 0.608115 0.974262
0.028011 0.732984 0.028011
0.028452 0.733425 0.138480
0.028932 0.733904 0.258493
0.029418 0.734391 0.380213
0.029909 0.734881 0.503043
0.030403 0.735375 0.626701
0.030899 0.735872 0.751023
0.031398 0.736371 0.875898
0.031811 0.736784 0.979179
0.032950 0.862236 0.032950
0.033392 0.862678 0.143419
0.033871 0.863157 0.263433
0.034357 0.863644 0.385152
0.034848 0.864134 0.507982
0.035342 0.864628 0.631641
0.035839 0.865125 0.755963
0.036338 0.865624 0.880838
0.036750 0.866036 0.984119
0.037642 0.985011 0.037642
0.038083 0.985452 0.148111
0.038563 0.985931 0.268125
0.039049 0.986418 0.389844
0.039540 0.986908 0.512674
0.040034 0.987402 0.636333
0.040531 0.987899 0.760654
0.041029 0.988398 0.885529
0.041442 0.988811 0.988811
0.082209 0.000960 0.000960
0.082650 0.001401 0.111429
0.083130 0.001880 0.231442
0.083616 0.002367 0.353161
0.084107 0.002857 0.475991
0.084601 0.003351 0.599650
0.085097 0.003848 0.723972
0.085596 0.004347 0.848847
0.086009 0.004760 0.952128
0.086008 0.100369 0.004759
0.086449 0.100810 0.115227
0.086929 0.101290 0.235241
0.087415 0.101776 0.356960
0.087906 0.102267 0.479790
0.088400 0.102761 0.603449
0.088896 0.103258 0.727771
0.089395 0.103756 0.852646
0.089808 0.104169 0.955927
0.090746 0.224353 0.009497
0.091187 0.224795 0.119965
0.091667 0.225274 0.239979
0.092153 0.225760 0.361698
0.092644 0.226251 0.484528
0.093138 0.226745 0.608187
0.093634 0.227242 0.732509
0.094133 0.227741 0.857384
0.094546 0.228153 0.960665
0.095556 0.350232 0.014307
0.095998 0.350673 0.124776
0.096477 0.351153 0.244790
0.096963 0.351639 0.366509
0.097454 0.352130 0.489339
0.097948 0.352624 0.612997
0.098445 0.353120 0.737319
0.098944 0.353619 0.862194
0.099356 0.354032 0.965475
0.100413 0.477311 0.019163
0.100854 0.477752 0.129632
0.101333 0.478231 0.249646
0.101820 0.478718 0.371365
0.102310 0.479208 0.494195
0.102804 0.479702 0.617854
0.103301 0.480199 0.742176
0.103800 0.480698 0.867051
0.104213 0.481111 0.970332
0.105303 0.605275 0.024054
0.105744 0.605716 0.134522
0.106223 0.606196 0.254536
0.106710 0.606682 0.376255
0.107200 0.607173 0.499085
0.107694 0.607667 0.622744
0.108191 0.608164 0.747066
0.108690 0.608662 0.871941
0.109103 0.609075 0.975222
0.110220 0.733943 0.028971
0.110661 0.734385 0.139439
0.111141 0.734864 0.259453
0.111627 0.735350 0.381172
0.112118 0.735841 0.504002
0.112612 0.736335 0.627661
0.113108 0.736832 0.751983
0.113607 0.737331 0.876858
0.114020 0.737743 0.980139
0.115159 0.863196 0.033910
0.115600 0.863637 0.144379
0.116080 0.864117 0.264392
0.116566 0.864603 0.386112
0.117057 0.865094 0.508942
0.117551 0.865588 0.632600
0.118048 0.866085 0.756922
0.118546 0.866584 0.881797
0.118959 0.866996 0.985078
0.119851 0.985970 0.038602
0.120292 0.986412 0.149071
0.120772 0.986891 0.269084
0.121258 0.987377 0.390804
0.121749 0.987868 0.513633
0.122243 0.988362 0.637292
0.122739 0.988859 0.761614
0.123238 0.989358 0.886489
0.123651 0.989770 0.989770
0.202542 0.002364 0.002364
0.202983 0.002806 0.112833
0.203463 0.003285 0.232847
0.203949 0.003771 0.354566
0.204440 0.004262 0.477396
0.204934 0.004756 0.601055
0.205430 0.005253 0.725377
0.205929 0.005752 0.850252
0.206342 0.006164 0.953533
0.206341 0.101774 0.006163
0.206782 0.102215 0.116632
0.207262 0.102695 0.236646
0.207748 0.103181 0.358365
0.208238 0.103672 0.481195
0.208733 0.104166 0.604854
0.209229 0.104662 0.729175
0.209728 0.105161 0.854050
0.210141 0.105574 0.957332
0.211079 0.225758 0.010901
0.211520 0.226199 0.121370
0.212000 0.226679 0.241384
0.212486 0.227165 0.363103
0.212977 0.227656 0.485933
0.213471 0.228150 0.609592
0.213967 0.228646 0.733914
0.214466 0.229145 0.858789
0.214879 0.229558 0.962070
0.215889 0.351636 0.015712
0.216331 0.352078 0.126181
0.216810 0.352557 0.246194
0.217296 0.353043 0.367914
0.217787 0.353534 0.490743
0.218281 0.354028 0.614402
0.218778 0.354525 0.738724
0.219277 0.355024 0.863599
0.219689 0.355436 0.966880
0.220745 0.478715 0.020568
0.221187 0.479157 0.131037
0.221666 0.479636 0.251051
0.222153 0.480122 0.372770
0.222643 0.480613 0.495600
0.223137 0.481107 0.619258
0.223634 0.481604 0.743580
0.224133 0.482103 0.868455
0.224545 0.482515 0.971736
0.225636 0.606680 0.025458
0.226077 0.607121 0.135927
0.226556 0.607600 0.255941
0.227043 0.608087 0.377660
0.227533 0.608577 0.500490
0.228027 0.609072 0.624149
0.228524 0.609568 0.748470
0.229023 0.610067 0.873345
0.229436 0.610480 0.976627
0.230553 0.735348 0.030375
0.230994 0.735789 0.140844
0.231473 0.736269 0.260858
0.231960 0.736755 0.382577
0.232450 0.737246 0.505407
0.232945 0.737740 0.629066
0.233441 0.738236 0.753387
0.233940 0.738735 0.878262
0.234353 0.739148 0.981544
0.235492 0.864601 0.035315
0.235933 0.865042 0.145783
0.236413 0.865522 0.265797
0.236899 0.866008 0.387516
0.237390 0.866499 0.510346
0.237884 0.866993 0.634005
0.238381 0.867489 0.758327
0.238879 0.867988 0.883202
0.239292 0.868401 0.986483
0.240184 0.987375 0.040006
0.240625 0.987816 0.150475
0.241105 0.988296 0.270489
0.241591 0.988782 0.392208
0.242082 0.989273 0.515038
0.242576 0.989767 0.638697
0.243072 0.990263 0.763019
0.243571 0.990762 0.887894
0.243984 0.991175 0.991175
0.324864 0.003792 0.003792
0.325305 0.004234 0.114261
0.325785 0.004713 0.234275
0.326271 0.005199 0.355994
0.326762 0.005690 0.478824
0.327256 0.006184 0.602483
0.327752 0.006681 0.726804
0.328251 0.007180 0.851679
0.328664 0.007592 0.954961
0.328663 0.103202 0.007591
0.329104 0.103643 0.118060
0.329583 0.104122 0.238074
0.330070 0.104609 0.359793
0.330560 0.105099 0.482623
0.331054 0.105593 0.606282
0.331551 0.106090 0.730603
0.332050 0.106589 0.855478
0.332463 0.107002 0.958760
0.333401 0.227186 0.012329
0.333842 0.227627 0.122798
0.334321 0.228107 0.242812
0.334808 0.228593 0.364531
0.335298 0.229084 0.487361
0.335793 0.229578 0.611020
0.336289 0.230074 0.735341
0.336788 0.230573 0.860216
0.337201 0.230986 0.963498
0.338211 0.353064 0.017140
0.338652 0.353506 0.127608
0.339132 0.353985 0.247622
0.339618 0.354471 0.369341
0.340109 0.354962 0.492171
0.340603 0.355456 0.615830
0.341100 0.355953 0.740152
0.341599 0.356452 0.865027
0.342011 0.356864 0.968308
0.343067 0.480143 0.021996
0.343509 0.480584 0.132465
0.343988 0.481064 0.252478
0.344475 0.481550 0.374198
0.344965 0.482041 0.497028
0.345459 0.482535 0.620686
0.345956 0.483032 0.745008
0.346455 0.483530 0.869883
0.346867 0.483943 0.973164
0.347958 0.608108 0.026886
0.348399 0.608549 0.137355
0.348878 0.609028 0.257369
0.349365 0.609515 0.379088
0.349855 0.610005 0.501918
0.350349 0.610499 0.625577
0.350846 0.610996 0.749898
0.351345 0.611495 0.874773
0.351758 0.611908 0.978054
0.352875 0.736776 0.031803
0.353316 0.737217 0.142272
0.353795 0.737697 0.262286
0.354282 0.738183 0.384005
0.354772 0.738674 0.506835
0.355266 0.739168 0.630494
0.355763 0.739664 0.754815
0.356262 0.740163 0.879690
0.356675 0.740576 0.982972
0.357814 0.866029 0.036743
0.358255 0.866470 0.147211
0.358735 0.866949 0.267225
0.359221 0.867436 0.388944
0.359712 0.867926 0.511774
0.360206 0.868421 0.635433
0.360703 0.868917 0.759755
0.361201 0.869416 0.884630
0.361614 0.869829 0.987911
0.362506 0.988803 0.041434
0.362947 0.989244 0.151903
0.363427 0.989724 0.271917
0.363913 0.990210 0.393636
0.364404 0.990701 0.516466
0.364898 0.991195 0.640125
0.365394 0.991691 0.764447
0.365893 0.992190 0.889322
0.366306 0.992603 0.992603
0.448407 0.005234 0.005234
0.448849 0.005676 0.115703
0.449328 0.006155 0.235717
0.449815 0.006641 0.357436
0.450305 0.007132 0.480266
0.450799 0.007626 0.603925
0.451296 0.008123 0.728247
0.451795 0.008622 0.853122
0.452207 0.009034 0.956403
0.452206 0.104644 0.009033
0.452648 0.105085 0.119502
0.453127 0.105565 0.239516
0.453613 0.106051 0.361235
0.454104 0.106542 0.484065
0.454598 0.107036 0.607724
0.455095 0.107532 0.732046
0.455594 0.108031 0.856921
0.456006 0.108444 0.960202
0.456944 0.228628 0.013771
0.457386 0.229069 0.124240
0.457865 0.229549 0.244254
0.458351 0.230035 0.365973
0.458842 0.230526 0.488803
0.459336 0.231020 0.612462
0.459833 0.231517 0.736784
0.460332 0.232015 0.861659
0.460744 0.232428 0.964940
0.461755 0.354506 0.018582
0.462196 0.354948 0.129051
0.462676 0.355427 0.249064
0.463162 0.355914 0.370784
0.463653 0.356404 0.493613
0.464147 0.356898 0.617272
0.464643 0.357395 0.741594
0.465142 0.357894 0.866469
0.465555 0.358306 0.969750
0.466611 0.481585 0.023438
0.467052 0.482027 0.133907
0.467532 0.482506 0.253921
0.468018 0.482992 0.375640
0.468509 0.483483 0.498470
0.469003 0.483977 0.622129
0.469500 0.484474 0.746450
0.469999 0.484973 0.871325
0.470411 0.485385 0.974607
0.471501 0.609550 0.028328
0.471943 0.609991 0.138797
0.472422 0.610471 0.258811
0.472908 0.610957 0.380530
0.473399 0.611448 0.503360
0.473893 0.611942 0.627019
0.474390 0.612438 0.751340
0.474889 0.612937 0.876215
0.475301 0.613350 0.979497
0.476418 0.738218 0.033245
0.476860 0.738659 0.143714
0.477339 0.739139 0.263728
0.477825 0.739625 0.385447
0.478316 0.740116 0.508277
0.478810 0.740610 0.631936
0.479307 0.741106 0.756258
0.479806 0.741605 0.881133
0.480218 0.742018 0.984414
0.481358 0.867471 0.038185
0.481799 0.867912 0.148654
0.482279 0.868392 0.268667
0.482765 0.868878 0.390386
0.483256 0.869369 0.513216
0.483750 0.869863 0.636875
0.484246 0.870359 0.761197
0.484745 0.870858 0.886072
0.485158 0.871271 0.989353
0.486050 0.990245 0.042876
0.486491 0.990686 0.153345
0.486970 0.991166 0.273359
0.487457 0.991652 0.395078
0.487947 0.992143 0.517908
0.488441 0.992637 0.641567
0.488938 0.993133 0.765889
0.489437 0.993632 0.890764
0.489850 0.994045 0.994045
0.572841 0.006687 0.006687
0.573283 0.007128 0.117156
0.573762 0.007608 0.237169
0.574248 0.008094 0.358889
0.574739 0.008585 0.481719
0.575233 0.009079 0.605377
0.575730 0.009575 0.729699
0.576229 0.010074 0.854574
0.576641 0.010487 0.957855
0.576640 0.106096 0.010486
0.577082 0.106538 0.120955
0.577561 0.107017 0.240968
0.578047 0.107503 0.362688
0.578538 0.107994 0.485517
0.579032 0.108488 0.609176
0.579529 0.108985 0.733498
0.580028 0.109484 0.858373
0.580440 0.109896 0.961654
0.581378 0.230081 0.015224
0.581820 0.230522 0.125693
0.582299 0.231001 0.245706
0.582785 0.231488 0.367426
0.583276 0.231978 0.490256
0.583770 0.232472 0.613914
0.584267 0.232969 0.738236
0.584766 0.233468 0.863111
0.585178 0.233881 0.966392
0.586189 0.355959 0.020034
0.586630 0.356400 0.130503
0.587110 0.356880 0.250517
0.587596 0.357366 0.372236
0.588087 0.357857 0.495066
0.588581 0.358351 0.618725
0.589077 0.358848 0.743047
0.589576 0.359346 0.867922
0.589989 0.359759 0.971203
0.591045 0.483038 0.024891
0.591486 0.483479 0.135359
0.591966 0.483959 0.255373
0.592452 0.484445 0.377092
0.592943 0.484936 0.499922
0.593437 0.485430 0.623581
0.593934 0.485926 0.747903
0.594432 0.486425 0.872778
0.594845 0.486838 0.976059
0.595935 0.611002 0.029781
0.596377 0.611444 0.140250
0.596856 0.611923 0.260263
0.597342 0.612409 0.381983
0.597833 0.612900 0.504812
0.598327 0.613394 0.628471
0.598824 0.613891 0.752793
0.599323 0.614390 0.877668
0.599735 0.614802 0.980949
0.600852 0.739670 0.034698
0.601294 0.740112 0.145167
0.601773 0.740591 0.265180
0.602259 0.741078 0.386900
0.602750 0.741568 0.509729
0.603244 0.742062 0.633388
0.603741 0.742559 0.757710
0.604240 0.743058 0.882585
0.604652 0.743470 0.985866
0.605792 0.868923 0.039637
0.606233 0.869365 0.150106
0.606712 0.869844 0.270120
0.607199 0.870330 0.391839
0.607689 0.870821 0.514669
0.608183 0.871315 0.638328
0.608680 0.871812 0.762649
0.609179 0.872311 0.887524
0.609592 0.872723 0.990806
0.610483 0.991697 0.044329
0.610925 0.992139 0.154798
0.611404 0.992618 0.274812
0.611891 0.993105 0.396531
0.612381 0.993595 0.519361
0.612875 0.994089 0.643019
0.613372 0.994586 0.767341
0.613871 0.995085 0.892216
0.614283 0.995497 0.995497
0.697978 0.008148 0.008148
0.698419 0.008589 0.118617
0.698898 0.009068 0.238630
0.699385 0.009555 0.360349
0.699875 0.010045 0.483179
0.700369 0.010539 0.606838
0.700866 0.011036 0.731160
0.701365 0.011535 0.856035
0.701778 0.011948 0.959316
0.701777 0.107557 0.011947
0.702218 0.107998 0.122415
0.702697 0.108478 0.242429
0.703184 0.108964 0.364148
0.703674 0.109455 0.486978
0.704168 0.109949 0.610637
0.704665 0.110446 0.734959
0.705164 0.110944 0.859834
0.705577 0.111357 0.963115
0.706515 0.231541 0.016685
0.706956 0.231983 0.127154
0.707435 0.232462 0.247167
0.707922 0.232948 0.368886
0.708412 0.233439 0.491716
0.708906 0.233933 0.615375
0.709403 0.234430 0.739697
0.709902 0.234929 0.864572
0.710315 0.235341 0.967853
0.711325 0.357420 0.021495
0.711766 0.357861 0.131964
0.712246 0.358341 0.251978
0.712732 0.358827 0.373697
0.713223 0.359318 0.496527
0.713717 0.359812 0.620185
0.714214 0.360308 0.744507
0.714712 0.360807 0.869382
0.715125 0.361220 0.972663
0.716181 0.484499 0.026351
0.716623 0.484940 0.136820
0.717102 0.485419 0.256834
0.717588 0.485906 0.378553
0.718079 0.486396 0.501383
0.718573 0.486890 0.625042
0.719070 0.487387 0.749364
0.719569 0.487886 0.874239
0.719981 0.488299 0.977520
0.721071 0.612463 0.031242
0.721513 0.612904 0.141710
0.721992 0.613384 0.261724
0.722479 0.613870 0.383443
0.722969 0.614361 0.506273
0.723463 0.614855 0.629932
0.723960 0.615352 0.754254
0.724459 0.615850 0.879129
0.724871 0.616263 0.982410
0.725989 0.741131 0.036159
0.726430 0.741573 0.146627
0.726909 0.742052 0.266641
0.727396 0.742538 0.388360
0.727886 0.743029 0.511190
0.728380 0.743523 0.634849
0.728877 0.744020 0.759171
0.729376 0.744519 0.884046
0.729789 0.744931 0.987327
0.730928 0.870384 0.041098
0.731369 0.870825 0.151567
0.731849 0.871305 0.271580
0.732335 0.871791 0.393300
0.732826 0.872282 0.516130
0.733320 0.872776 0.639788
0.733816 0.873273 0.764110
0.734315 0.873772 0.888985
0.734728 0.874184 0.992266
0.735620 0.993158 0.045790
0.736061 0.993600 0.156259
0.736541 0.994079 0.276272
0.737027 0.994565 0.397992
0.737518 0.995056 0.520821
0.738012 0.995550 0.644480
0.738508 0.996047 0.768802
0.739007 0.996546 0.893677
0.739420 0.996958 0.996958
0.823695 0.009615 0.009615
0.824136 0.010057 0.120084
0.824616 0.010536 0.240098
0.825102 0.011022 0.361817
0.825593 0.011513 0.484647
0.826087 0.012007 0.608306
0.826583 0.012504 0.732627
0.827082 0.013003 0.857502
0.827495 0.013415 0.960784
0.827494 0.109025 0.013414
0.827935 0.109466 0.123883
0.828415 0.109945 0.243897
0.828901 0.110432 0.365616
0.829392 0.110922 0.488446
0.829886 0.111416 0.612105
0.830382 0.111913 0.736426
0.830881 0.112412 0.861301
0.831294 0.112825 0.964583
0.832232 0.233009 0.018152
0.832673 0.233450 0.128621
0.833153 0.233930 0.248635
0.833639 0.234416 0.370354
0.834130 0.234907 0.493184
0.834624 0.235401 0.616843
0.835120 0.235897 0.741164
0.835619 0.236396 0.866039
0.836032 0.236809 0.969321
0.837042 0.358887 0.022963
0.837484 0.359329 0.133431
0.837963 0.359808 0.253445
0.838449 0.360294 0.375164
0.838940 0.360785 0.497994
0.839434 0.361279 0.621653
0.839931 0.361776 0.745975
0.840430 0.362275 0.870850
0.840842 0.362687 0.974131
0.841899 0.485966 0.027819
0.842340 0.486407 0.138288
0.842819 0.486887 0.258301
0.843306 0.487373 0.380021
0.843796 0.487864 0.502851
0.844290 0.488358 0.626509
0.844787 0.488855 0.750831
0.845286 0.489353 0.875706
0.845699 0.489766 0.978987
0.846789 0.613931 0.032709
0.847230 0.614372 0.143178
0.847710 0.614851 0.263192
0.848196 0.615338 0.384911
0.848686 0.615828 0.507741
0.849181 0.616322 0.631399
0.849677 0.616819 0.755721
0.850176 0.617318 0.880596
0.850589 0.617731 0.983877
0.851706 0.742599 0.037626
0.852147 0.743040 0.148095
0.852627 0.743520 0.268109
0.853113 0.744006 0.389828
0.853604 0.744497 0.512658
0.854098 0.744991 0.636317
0.854594 0.745487 0.760638
0.855093 0.745986 0.885513
0.855506 0.746399 0.988795
0.856645 0.871852 0.042565
0.857086 0.872293 0.153034
0.857566 0.872772 0.273048
0.858052 0.873259 0.394767
0.858543 0.873749 0.517597
0.859037 0.874243 0.641256
0.859534 0.874740 0.765578
0.860033 0.875239 0.890453
0.860445 0.875652 0.993734
0.861337 0.994626 0.047257
0.861778 0.995067 0.157726
0.862258 0.995547 0.277740
0.862744 0.996033 0.399459
0.863235 0.996524 0.522289
0.863729 0.997018 0.645948
0.864225 0.997514 0.770270
0.864724 0.998013 0.895145
0.865137 0.998426 0.998426
0.949908 0.011088 0.011088
0.950349 0.011530 0.121557
0.950829 0.012009 0.241571
0.951315 0.012496 0.363290
0.951806 0.012986 0.486120
0.952300 0.013480 0.609779
0.952796 0.013977 0.734101
0.953295 0.014476 0.858976
0.953708 0.014888 0.962257
0.953707 0.110498 0.014887
0.954148 0.110939 0.125356
0.954628 0.111419 0.245370
0.955114 0.111905 0.367089
0.955605 0.112396 0.489919
0.956099 0.112890 0.613578
0.956595 0.113386 0.737900
0.957094 0.113885 0.862775
0.957507 0.114298 0.966056
0.958445 0.234482 0.019625
0.958886 0.234924 0.130094
0.959366 0.235403 0.250108
0.959852 0.235889 0.371827
0.960343 0.236380 0.494657
0.960837 0.236874 0.618316
0.961333 0.237371 0.742638
0.961832 0.237870 0.867513
0.962245 0.238282 0.970794
0.963255 0.360361 0.024436
0.963697 0.360802 0.134905
0.964176 0.361281 0.254918
0.964662 0.361768 0.376638
0.965153 0.362258 0.499468
0.965647 0.362752 0.623126
0.966144 0.363249 0.747448
0.966643 0.363748 0.872323
0.967055 0.364161 0.975604
0.968112 0.487439 0.029292
0.968553 0.487881 0.139761
0.969032 0.488360 0.259775
0.969519 0.488846 0.381494
0.970009 0.489337 0.504324
0.970503 0.489831 0.627983
0.971000 0.490328 0.752304
0.971499 0.490827 0.877179
0.971912 0.491239 0.980461
0.973002 0.615404 0.034182
0.973443 0.615845 0.144651
0.973923 0.616325 0.264665
0.974409 0.616811 0.386384
0.974900 0.617302 0.509214
0.975394 0.617796 0.632873
0.975890 0.618292 0.757195
0.976389 0.618791 0.882070
0.976802 0.619204 0.985351
0.977919 0.744072 0.039099
0.978360 0.744513 0.149568
0.978840 0.744993 0.269582
0.979326 0.745479 0.391301
0.979817 0.745970 0.514131
0.980311 0.746464 0.637790
0.980807 0.746961 0.762112
0.981306 0.747459 0.886987
0.981719 0.747872 0.990268
0.982858 0.873325 0.044039
0.983300 0.873766 0.154508
0.983779 0.874246 0.274521
0.984265 0.874732 0.396241
0.984756 0.875223 0.519070
0.985250 0.875717 0.642729
0.985747 0.876213 0.767051
0.986246 0.876712 0.891926
0.986658 0.877125 0.995207
0.987550 0.996099 0.048731
0.987991 0.996540 0.159199
0.988471 0.997020 0.279213
0.988957 0.997506 0.400932
0.989448 0.997997 0.523762
0.989942 0.998491 0.647421
0.990438 0.998988 0.771743
0.990937 0.999486 0.896618
0.991350 0.999899 0.999899
