skills/editops-orchestrator/assets/grade/luts/moody_teal_v12.cube
TITLE "moody_teal_v12"
LUT_3D_SIZE 9
DOMAIN_MIN 0.0 0.0 0.0
DOMAIN_MAX 1.0 1.0 1.0
0.000000 0.000000 0.000000
0.000874 0.000874 0.099362
0.001888 0.001888 0.214588
0.002932 0.002932 0.333292
0.003997 0.003997 0.454280
0.005076 0.005076 0.576982
0.006168 0.006168 0.701064
0.007269 0.007269 0.826302
0.007904 0.007904 0.898430
0.005631 0.069683 0.005631
0.006506 0.070557 0.104994
0.007519 0.071571 0.220219
0.008564 0.072615 0.338924
0.009628 0.073680 0.459911
0.010708 0.074759 0.582614
0.011799 0.075851 0.706695
0.012901 0.076953 0.831933
0.013535 0.077587 0.904062
0.015532 0.192186 0.015532
0.016406 0.193060 0.114894
0.017419 0.194074 0.230119
0.018464 0.195118 0.348824
0.019528 0.196183 0.469811
0.020608 0.197262 0.592514
0.021699 0.198354 0.716595
0.022801 0.199455 0.841833
0.023436 0.200090 0.913962
0.025798 0.319218 0.025798
0.026672 0.320092 0.125160
0.027686 0.321106 0.240386
0.028730 0.322150 0.359090
0.029794 0.323214 0.480077
0.030874 0.324294 0.602780
0.031965 0.325386 0.726862
0.033067 0.326487 0.852099
0.033702 0.327122 0.924228
0.036286 0.449001 0.036286
0.037160 0.449875 0.135648
0.038174 0.450889 0.250874
0.039218 0.451933 0.369578
0.040283 0.452998 0.490566
0.041362 0.454077 0.613268
0.042454 0.455169 0.737350
0.043556 0.456271 0.862588
0.044190 0.456905 0.934716
0.046937 0.580788 0.046937
0.047811 0.581662 0.146299
0.048824 0.582676 0.261524
0.049869 0.583720 0.380229
0.050933 0.584785 0.501216
0.052013 0.585864 0.623919
0.053104 0.586956 0.748000
0.054206 0.588057 0.873238
0.054841 0.588692 0.945367
0.057715 0.714158 0.057715
0.058589 0.715032 0.157077
0.059603 0.716046 0.272303
0.060647 0.717090 0.391007
0.061711 0.718155 0.511994
0.062791 0.719234 0.634697
0.063883 0.720326 0.758779
0.064984 0.721428 0.884017
0.065619 0.722062 0.956145
0.068599 0.848841 0.068599
0.069473 0.849715 0.167962
0.070487 0.850729 0.283187
0.071531 0.851773 0.401892
0.072596 0.852838 0.522879
0.073675 0.853917 0.645581
0.074767 0.855009 0.769663
0.075869 0.856110 0.894901
0.076503 0.856745 0.967030
0.078296 0.968822 0.078296
0.079170 0.969696 0.177658
0.080183 0.970710 0.292883
0.081228 0.971754 0.411588
0.082292 0.972818 0.532575
0.083372 0.973898 0.655278
0.084463 0.974990 0.779359
0.085565 0.976091 0.904597
0.086200 0.976726 0.976726
0.031394 0.000800 0.000800
0.032268 0.001674 0.100162
0.033282 0.002687 0.215387
0.034326 0.003732 0.334092
0.035390 0.004796 0.455079
0.036470 0.005876 0.577782
0.037561 0.006967 0.701863
0.038663 0.008069 0.827101
0.039298 0.008704 0.899230
0.037025 0.070483 0.006431
0.037899 0.071357 0.105793
0.038913 0.072371 0.221019
0.039957 0.073415 0.339723
0.041022 0.074479 0.460711
0.042101 0.075559 0.583413
0.043193 0.076650 0.707495
0.044295 0.077752 0.832733
0.044929 0.078387 0.904861
0.046925 0.192986 0.016331
0.047799 0.193860 0.115693
0.048813 0.194873 0.230919
0.049857 0.195918 0.349623
0.050922 0.196982 0.470611
0.052001 0.198062 0.593313
0.053093 0.199153 0.717395
0.054195 0.200255 0.842633
0.054829 0.200890 0.914761
0.057191 0.320017 0.026597
0.058065 0.320892 0.125960
0.059079 0.321905 0.241185
0.060124 0.322950 0.359889
0.061188 0.324014 0.480877
0.062267 0.325094 0.603579
0.063359 0.326185 0.727661
0.064461 0.327287 0.852899
0.065095 0.327921 0.925028
0.067680 0.449801 0.037086
0.068554 0.450675 0.136448
0.069568 0.451689 0.251674
0.070612 0.452733 0.370378
0.071676 0.453797 0.491365
0.072756 0.454877 0.614068
0.073847 0.455968 0.738150
0.074949 0.457070 0.863387
0.075584 0.457705 0.935516
0.078330 0.581588 0.047736
0.079204 0.582462 0.147098
0.080218 0.583475 0.262324
0.081262 0.584520 0.381028
0.082327 0.585584 0.502016
0.083406 0.586664 0.624718
0.084498 0.587755 0.748800
0.085600 0.588857 0.874038
0.086234 0.589492 0.946166
0.089109 0.714958 0.058514
0.089983 0.715832 0.157877
0.090996 0.716846 0.273102
0.092041 0.717890 0.391807
0.093105 0.718954 0.512794
0.094185 0.720034 0.635497
0.095276 0.721126 0.759578
0.096378 0.722227 0.884816
0.097013 0.722862 0.956945
0.099993 0.849641 0.069399
0.100867 0.850515 0.168761
0.101881 0.851528 0.283987
0.102925 0.852573 0.402691
0.103990 0.853637 0.523678
0.105069 0.854717 0.646381
0.106161 0.855808 0.770463
0.107262 0.856910 0.895701
0.107897 0.857545 0.967829
0.109689 0.969621 0.079095
0.110563 0.970496 0.178457
0.111577 0.971509 0.293683
0.112621 0.972554 0.412387
0.113686 0.973618 0.533375
0.114765 0.974698 0.656077
0.115857 0.975789 0.780159
0.116959 0.976891 0.905397
0.117593 0.977525 0.977525
0.144674 0.003685 0.003685
0.145548 0.004559 0.103047
0.146562 0.005573 0.218273
0.147606 0.006617 0.336977
0.148670 0.007681 0.457964
0.149750 0.008761 0.580667
0.150841 0.009852 0.704749
0.151943 0.010954 0.829986
0.152578 0.011589 0.902115
0.150305 0.073368 0.009316
0.151179 0.074242 0.108678
0.152193 0.075256 0.223904
0.153237 0.076300 0.342608
0.154302 0.077365 0.463596
0.155381 0.078444 0.586298
0.156473 0.079536 0.710380
0.157575 0.080637 0.835618
0.158209 0.081272 0.907747
0.160205 0.195871 0.019216
0.161079 0.196745 0.118579
0.162093 0.197759 0.233804
0.163137 0.198803 0.352509
0.164202 0.199867 0.473496
0.165281 0.200947 0.596198
0.166373 0.202038 0.720280
0.167475 0.203140 0.845518
0.168109 0.203775 0.917647
0.170471 0.322903 0.029482
0.171346 0.323777 0.128845
0.172359 0.324791 0.244070
0.173404 0.325835 0.362775
0.174468 0.326899 0.483762
0.175547 0.327979 0.606465
0.176639 0.329070 0.730546
0.177741 0.330172 0.855784
0.178375 0.330807 0.927913
0.180960 0.452686 0.039971
0.181834 0.453560 0.139333
0.182848 0.454574 0.254559
0.183892 0.455618 0.373263
0.184956 0.456683 0.494250
0.186036 0.457762 0.616953
0.187128 0.458854 0.741035
0.188229 0.459955 0.866273
0.188864 0.460590 0.938401
0.191610 0.584473 0.050621
0.192484 0.585347 0.149984
0.193498 0.586361 0.265209
0.194542 0.587405 0.383914
0.195607 0.588469 0.504901
0.196686 0.589549 0.627603
0.197778 0.590640 0.751685
0.198880 0.591742 0.876923
0.199514 0.592377 0.949052
0.202389 0.717843 0.061400
0.203263 0.718717 0.160762
0.204276 0.719731 0.275988
0.205321 0.720775 0.394692
0.206385 0.721840 0.515679
0.207465 0.722919 0.638382
0.208556 0.724011 0.762464
0.209658 0.725112 0.887701
0.210293 0.725747 0.959830
0.213273 0.852526 0.072284
0.214147 0.853400 0.171646
0.215161 0.854414 0.286872
0.216205 0.855458 0.405576
0.217270 0.856522 0.526564
0.218349 0.857602 0.649266
0.219441 0.858693 0.773348
0.220542 0.859795 0.898586
0.221177 0.860430 0.970714
0.222969 0.972507 0.081980
0.223843 0.973381 0.181343
0.224857 0.974395 0.296568
0.225901 0.975439 0.415273
0.226966 0.976503 0.536260
0.228045 0.977583 0.658962
0.229137 0.978674 0.783044
0.230239 0.979776 0.908282
0.230873 0.980411 0.980411
0.263430 0.006709 0.006709
0.264304 0.007584 0.106072
0.265318 0.008597 0.221297
0.266362 0.009642 0.340002
0.267427 0.010706 0.460989
0.268506 0.011785 0.583692
0.269598 0.012877 0.707773
0.270700 0.013979 0.833011
0.271334 0.014613 0.905140
0.269062 0.076393 0.012341
0.269936 0.077267 0.111703
0.270950 0.078280 0.226929
0.271994 0.079325 0.345633
0.273058 0.080389 0.466620
0.274138 0.081469 0.589323
0.275229 0.082560 0.713405
0.276331 0.083662 0.838643
0.276966 0.084297 0.910771
0.278962 0.198895 0.022241
0.279836 0.199770 0.121603
0.280850 0.200783 0.236829
0.281894 0.201828 0.355533
0.282958 0.202892 0.476521
0.284038 0.203971 0.599223
0.285129 0.205063 0.723305
0.286231 0.206165 0.848543
0.286866 0.206799 0.920671
0.289228 0.325927 0.032507
0.290102 0.326802 0.131869
0.291116 0.327815 0.247095
0.292160 0.328860 0.365799
0.293224 0.329924 0.486787
0.294304 0.331003 0.609489
0.295396 0.332095 0.733571
0.296497 0.333197 0.858809
0.297132 0.333831 0.930937
0.299716 0.455711 0.042996
0.300591 0.456585 0.142358
0.301604 0.457599 0.257583
0.302649 0.458643 0.376288
0.303713 0.459707 0.497275
0.304792 0.460787 0.619978
0.305884 0.461878 0.744060
0.306986 0.462980 0.869297
0.307620 0.463615 0.941426
0.310367 0.587498 0.053646
0.311241 0.588372 0.153008
0.312255 0.589385 0.268234
0.313299 0.590430 0.386938
0.314363 0.591494 0.507926
0.315443 0.592574 0.630628
0.316534 0.593665 0.754710
0.317636 0.594767 0.879948
0.318271 0.595402 0.952076
0.321145 0.720868 0.064424
0.322019 0.721742 0.163787
0.323033 0.722756 0.279012
0.324077 0.723800 0.397717
0.325142 0.724864 0.518704
0.326221 0.725944 0.641406
0.327313 0.727035 0.765488
0.328415 0.728137 0.890726
0.329049 0.728772 0.962855
0.332030 0.855550 0.075309
0.332904 0.856425 0.174671
0.333917 0.857438 0.289897
0.334962 0.858483 0.408601
0.336026 0.859547 0.529588
0.337106 0.860626 0.652291
0.338197 0.861718 0.776373
0.339299 0.862820 0.901610
0.339934 0.863454 0.973739
0.341726 0.975531 0.085005
0.342600 0.976405 0.184367
0.343614 0.977419 0.299593
0.344658 0.978464 0.418297
0.345722 0.979528 0.539285
0.346802 0.980607 0.661987
0.347893 0.981699 0.786069
0.348995 0.982801 0.911307
0.349630 0.983435 0.983435
0.385133 0.009809 0.009809
0.386007 0.010683 0.109171
0.387021 0.011697 0.224397
0.388065 0.012741 0.343101
0.389130 0.013806 0.464089
0.390209 0.014885 0.586791
0.391301 0.015977 0.710873
0.392403 0.017079 0.836111
0.393037 0.017713 0.908239
0.390765 0.079492 0.015441
0.391639 0.080367 0.114803
0.392652 0.081380 0.230029
0.393697 0.082425 0.348733
0.394761 0.083489 0.469720
0.395841 0.084568 0.592423
0.396932 0.085660 0.716505
0.398034 0.086762 0.841742
0.398669 0.087396 0.913871
0.400665 0.201995 0.025341
0.401539 0.202869 0.124703
0.402553 0.203883 0.239929
0.403597 0.204927 0.358633
0.404661 0.205992 0.479620
0.405741 0.207071 0.602323
0.406832 0.208163 0.726405
0.407934 0.209265 0.851642
0.408569 0.209899 0.923771
0.410931 0.329027 0.035607
0.411805 0.329901 0.134969
0.412819 0.330915 0.250195
0.413863 0.331959 0.368899
0.414927 0.333024 0.489886
0.416007 0.334103 0.612589
0.417098 0.335195 0.736671
0.418200 0.336297 0.861909
0.418835 0.336931 0.934037
0.421419 0.458810 0.046095
0.422293 0.459685 0.145458
0.423307 0.460698 0.260683
0.424351 0.461743 0.379388
0.425416 0.462807 0.500375
0.426495 0.463886 0.623077
0.427587 0.464978 0.747159
0.428689 0.466080 0.872397
0.429323 0.466714 0.944526
0.432070 0.590597 0.056746
0.432944 0.591471 0.156108
0.433958 0.592485 0.271334
0.435002 0.593529 0.390038
0.436066 0.594594 0.511025
0.437146 0.595673 0.633728
0.438237 0.596765 0.757810
0.439339 0.597867 0.883047
0.439974 0.598501 0.955176
0.442848 0.723967 0.067524
0.443722 0.724842 0.166886
0.444736 0.725855 0.282112
0.445780 0.726900 0.400816
0.446845 0.727964 0.521804
0.447924 0.729043 0.644506
0.449016 0.730135 0.768588
0.450117 0.731237 0.893826
0.450752 0.731871 0.965954
0.453732 0.858650 0.078408
0.454607 0.859524 0.177771
0.455620 0.860538 0.292996
0.456665 0.861582 0.411701
0.457729 0.862647 0.532688
0.458808 0.863726 0.655391
0.459900 0.864818 0.779472
0.461002 0.865920 0.904710
0.461636 0.866554 0.976839
0.463429 0.978631 0.088105
0.464303 0.979505 0.187467
0.465317 0.980519 0.302693
0.466361 0.981563 0.421397
0.467425 0.982628 0.542384
0.468505 0.983707 0.665087
0.469596 0.984799 0.789169
0.470698 0.985901 0.914406
0.471333 0.986535 0.986535
0.508899 0.012961 0.012961
0.509773 0.013836 0.112324
0.510787 0.014849 0.227549
0.511831 0.015894 0.346254
0.512895 0.016958 0.467241
0.513975 0.018037 0.589944
0.515066 0.019129 0.714025
0.516168 0.020231 0.839263
0.516803 0.020865 0.911392
0.514530 0.082645 0.018593
0.515404 0.083519 0.117955
0.516418 0.084532 0.233181
0.517462 0.085577 0.351885
0.518527 0.086641 0.472872
0.519606 0.087721 0.595575
0.520698 0.088812 0.719657
0.521800 0.089914 0.844895
0.522434 0.090549 0.917023
0.524430 0.205147 0.028493
0.525304 0.206022 0.127855
0.526318 0.207035 0.243081
0.527362 0.208080 0.361785
0.528427 0.209144 0.482773
0.529506 0.210223 0.605475
0.530598 0.211315 0.729557
0.531700 0.212417 0.854795
0.532334 0.213051 0.926923
0.534696 0.332179 0.038759
0.535571 0.333053 0.138121
0.536584 0.334067 0.253347
0.537629 0.335112 0.372051
0.538693 0.336176 0.493039
0.539772 0.337255 0.615741
0.540864 0.338347 0.739823
0.541966 0.339449 0.865061
0.542600 0.340083 0.937189
0.545185 0.461963 0.049248
0.546059 0.462837 0.148610
0.547073 0.463850 0.263835
0.548117 0.464895 0.382540
0.549181 0.465959 0.503527
0.550261 0.467039 0.626230
0.551353 0.468130 0.750311
0.552454 0.469232 0.875549
0.553089 0.469867 0.947678
0.555835 0.593749 0.059898
0.556709 0.594624 0.159260
0.557723 0.595637 0.274486
0.558767 0.596682 0.393190
0.559832 0.597746 0.514178
0.560911 0.598826 0.636880
0.562003 0.599917 0.760962
0.563105 0.601019 0.886200
0.563739 0.601653 0.958328
0.566614 0.727120 0.070676
0.567488 0.727994 0.170039
0.568501 0.729008 0.285264
0.569546 0.730052 0.403969
0.570610 0.731116 0.524956
0.571690 0.732196 0.647658
0.572781 0.733287 0.771740
0.573883 0.734389 0.896978
0.574518 0.735024 0.969107
0.577498 0.861802 0.081561
0.578372 0.862677 0.180923
0.579386 0.863690 0.296149
0.580430 0.864735 0.414853
0.581495 0.865799 0.535840
0.582574 0.866878 0.658543
0.583666 0.867970 0.782625
0.584767 0.869072 0.907862
0.585402 0.869706 0.979991
0.587194 0.981783 0.091257
0.588068 0.982657 0.190619
0.589082 0.983671 0.305845
0.590126 0.984715 0.424549
0.591191 0.985780 0.545537
0.592270 0.986859 0.668239
0.593362 0.987951 0.792321
0.594464 0.989053 0.917559
0.595098 0.989687 0.989687
0.634262 0.016154 0.016154
0.635136 0.017029 0.115517
0.636149 0.018042 0.230742
0.637194 0.019087 0.349447
0.638258 0.020151 0.470434
0.639338 0.021230 0.593136
0.640429 0.022322 0.717218
0.641531 0.023424 0.842456
0.642166 0.024058 0.914585
0.639893 0.085838 0.021786
0.640767 0.086712 0.121148
0.641781 0.087725 0.236374
0.642825 0.088770 0.355078
0.643890 0.089834 0.476065
0.644969 0.090914 0.598768
0.646061 0.092005 0.722850
0.647162 0.093107 0.848088
0.647797 0.093742 0.920216
0.649793 0.208340 0.031686
0.650667 0.209215 0.131048
0.651681 0.210228 0.246274
0.652725 0.211273 0.364978
0.653790 0.212337 0.485965
0.654869 0.213416 0.608668
0.655961 0.214508 0.732750
0.657063 0.215610 0.857988
0.657697 0.216244 0.930116
0.660059 0.335372 0.041952
0.660933 0.336246 0.141314
0.661947 0.337260 0.256540
0.662991 0.338304 0.375244
0.664056 0.339369 0.496232
0.665135 0.340448 0.618934
0.666227 0.341540 0.743016
0.667329 0.342642 0.868254
0.667963 0.343276 0.940382
0.670548 0.465156 0.052441
0.671422 0.466030 0.151803
0.672436 0.467043 0.267028
0.673480 0.468088 0.385733
0.674544 0.469152 0.506720
0.675624 0.470232 0.629423
0.676715 0.471323 0.753504
0.677817 0.472425 0.878742
0.678452 0.473060 0.950871
0.681198 0.596942 0.063091
0.682072 0.597817 0.162453
0.683086 0.598830 0.277679
0.684130 0.599875 0.396383
0.685195 0.600939 0.517370
0.686274 0.602018 0.640073
0.687366 0.603110 0.764155
0.688467 0.604212 0.889393
0.689102 0.604846 0.961521
0.691976 0.730313 0.073869
0.692851 0.731187 0.173232
0.693864 0.732200 0.288457
0.694909 0.733245 0.407161
0.695973 0.734309 0.528149
0.697052 0.735389 0.650851
0.698144 0.736480 0.774933
0.699246 0.737582 0.900171
0.699880 0.738217 0.972300
0.702861 0.864995 0.084754
0.703735 0.865869 0.184116
0.704749 0.866883 0.299342
0.705793 0.867927 0.418046
0.706857 0.868992 0.539033
0.707937 0.870071 0.661736
0.709028 0.871163 0.785818
0.710130 0.872265 0.911055
0.710765 0.872899 0.983184
0.712557 0.984976 0.094450
0.713431 0.985850 0.193812
0.714445 0.986864 0.309038
0.715489 0.987908 0.427742
0.716554 0.988973 0.548730
0.717633 0.990052 0.671432
0.718725 0.991144 0.795514
0.719827 0.992246 0.920752
0.720461 0.992880 0.992880
0.760932 0.019381 0.019381
0.761806 0.020255 0.118743
0.762819 0.021268 0.233968
0.763864 0.022313 0.352673
0.764928 0.023377 0.473660
0.766008 0.024457 0.596363
0.767099 0.025548 0.720445
0.768201 0.026650 0.845682
0.768836 0.027285 0.917811
0.766563 0.089064 0.025012
0.767437 0.089938 0.124374
0.768451 0.090952 0.239600
0.769495 0.091996 0.358304
0.770560 0.093060 0.479292
0.771639 0.094140 0.601994
0.772731 0.095231 0.726076
0.773832 0.096333 0.851314
0.774467 0.096968 0.923442
0.776463 0.211567 0.034912
0.777337 0.212441 0.134274
0.778351 0.213454 0.249500
0.779395 0.214499 0.368204
0.780460 0.215563 0.489192
0.781539 0.216643 0.611894
0.782631 0.217734 0.735976
0.783733 0.218836 0.861214
0.784367 0.219471 0.933342
0.786729 0.338599 0.045178
0.787603 0.339473 0.144541
0.788617 0.340486 0.259766
0.789661 0.341531 0.378470
0.790726 0.342595 0.499458
0.791805 0.343675 0.622160
0.792897 0.344766 0.746242
0.793999 0.345868 0.871480
0.794633 0.346503 0.943609
0.797218 0.468382 0.055667
0.798092 0.469256 0.155029
0.799106 0.470270 0.270255
0.800150 0.471314 0.388959
0.801214 0.472378 0.509946
0.802294 0.473458 0.632649
0.803385 0.474549 0.756731
0.804487 0.475651 0.881968
0.805122 0.476286 0.954097
0.807868 0.600169 0.066317
0.808742 0.601043 0.165679
0.809756 0.602057 0.280905
0.810800 0.603101 0.399609
0.811865 0.604165 0.520597
0.812944 0.605245 0.643299
0.814036 0.606336 0.767381
0.815138 0.607438 0.892619
0.815772 0.608073 0.964747
0.818646 0.733539 0.077095
0.819521 0.734413 0.176458
0.820534 0.735427 0.291683
0.821579 0.736471 0.410388
0.822643 0.737535 0.531375
0.823722 0.738615 0.654078
0.824814 0.739707 0.778159
0.825916 0.740808 0.903397
0.826550 0.741443 0.975526
0.829531 0.868222 0.087980
0.830405 0.869096 0.187342
0.831419 0.870109 0.302568
0.832463 0.871154 0.421272
0.833527 0.872218 0.542259
0.834607 0.873298 0.664962
0.835699 0.874389 0.789044
0.836800 0.875491 0.914282
0.837435 0.876126 0.986410
0.839227 0.988202 0.097676
0.840101 0.989077 0.197038
0.841115 0.990090 0.312264
0.842159 0.991135 0.430968
0.843224 0.992199 0.551956
0.844303 0.993279 0.674658
0.845395 0.994370 0.798740
0.846497 0.995472 0.923978
0.847131 0.996106 0.996106
0.888710 0.022635 0.022635
0.889584 0.023509 0.121997
0.890598 0.024523 0.237223
0.891642 0.025567 0.355927
0.892707 0.026632 0.476915
0.893786 0.027711 0.599617
0.894878 0.028803 0.723699
0.895980 0.029905 0.848937
0.896614 0.030539 0.921065
0.894342 0.092318 0.028267
0.895216 0.093192 0.127629
0.896230 0.094206 0.242854
0.897274 0.095250 0.361559
0.898338 0.096315 0.482546
0.899418 0.097394 0.605249
0.900509 0.098486 0.729330
0.901611 0.099588 0.854568
0.902246 0.100222 0.926697
0.904242 0.214821 0.038167
0.905116 0.215695 0.137529
0.906130 0.216709 0.252755
0.907174 0.217753 0.371459
0.908238 0.218818 0.492446
0.909318 0.219897 0.615149
0.910410 0.220989 0.739231
0.911511 0.222091 0.864468
0.912146 0.222725 0.936597
0.914508 0.341853 0.048433
0.915382 0.342727 0.147795
0.916396 0.343741 0.263021
0.917440 0.344785 0.381725
0.918505 0.345850 0.502712
0.919584 0.346929 0.625415
0.920676 0.348021 0.749497
0.921777 0.349122 0.874734
0.922412 0.349757 0.946863
0.924996 0.471636 0.058921
0.925871 0.472510 0.158283
0.926884 0.473524 0.273509
0.927929 0.474568 0.392213
0.928993 0.475633 0.513201
0.930073 0.476712 0.635903
0.931164 0.477804 0.759985
0.932266 0.478906 0.885223
0.932900 0.479540 0.957352
0.935647 0.603423 0.069572
0.936521 0.604297 0.168934
0.937535 0.605311 0.284159
0.938579 0.606355 0.402864
0.939643 0.607420 0.523851
0.940723 0.608499 0.646554
0.941815 0.609591 0.770636
0.942916 0.610693 0.895873
0.943551 0.611327 0.968002
0.946425 0.736793 0.080350
0.947299 0.737667 0.179712
0.948313 0.738681 0.294938
0.949357 0.739726 0.413642
0.950422 0.740790 0.534630
0.951501 0.741869 0.657332
0.952593 0.742961 0.781414
0.953695 0.744063 0.906652
0.954329 0.744697 0.978780
0.957310 0.871476 0.091234
0.958184 0.872350 0.190597
0.959197 0.873364 0.305822
0.960242 0.874408 0.424527
0.961306 0.875473 0.545514
0.962386 0.876552 0.668216
0.963477 0.877644 0.792298
0.964579 0.878745 0.917536
0.965214 0.879380 0.989665
0.967006 0.991457 0.100931
0.967880 0.992331 0.200293
0.968894 0.993345 0.315519
0.969938 0.994389 0.434223
0.971002 0.995454 0.555210
0.972082 0.996533 0.677913
0.973174 0.997625 0.801995
0.974275 0.998726 0.927232
0.974910 0.999361 0.999361
