skills/editops-orchestrator/assets/grade/luts/moody_teal_v09.cube
TITLE "moody_teal_v09"
LUT_3D_SIZE 9
DOMAIN_MIN 0.0 0.0 0.0
DOMAIN_MAX 1.0 1.0 1.0
0.000000 0.000000 0.000000
0.000734 0.000734 0.102862
0.001568 0.001568 0.219714
0.002422 0.002422 0.339464
0.003290 0.003290 0.461111
0.004168 0.004168 0.584180
0.005055 0.005055 0.708390
0.005948 0.005948 0.833555
0.006536 0.006536 0.916010
0.005269 0.079290 0.005269
0.006003 0.080024 0.108132
0.006837 0.080857 0.224983
0.007692 0.081712 0.344734
0.008560 0.082580 0.466381
0.009438 0.083458 0.589450
0.010324 0.084344 0.713660
0.011217 0.085237 0.838825
0.011805 0.085826 0.921279
0.013454 0.202449 0.013454
0.014188 0.203183 0.116317
0.015022 0.204017 0.233168
0.015877 0.204872 0.352919
0.016745 0.205740 0.474566
0.017623 0.206618 0.597635
0.018509 0.207504 0.721845
0.019402 0.208397 0.847010
0.019990 0.208985 0.929464
0.021877 0.329182 0.021877
0.022611 0.329916 0.124739
0.023444 0.330749 0.241591
0.024299 0.331604 0.361341
0.025167 0.332472 0.482988
0.026045 0.333350 0.606057
0.026931 0.334236 0.730267
0.027824 0.335129 0.855432
0.028413 0.335718 0.937886
0.030445 0.458117 0.030445
0.031179 0.458851 0.133308
0.032013 0.459685 0.250160
0.032868 0.460539 0.369910
0.033736 0.461407 0.491557
0.034614 0.462285 0.614626
0.035500 0.463172 0.738836
0.036393 0.464065 0.864001
0.036981 0.464653 0.946455
0.039121 0.588664 0.039121
0.039855 0.589398 0.141984
0.040689 0.590232 0.258835
0.041544 0.591086 0.378586
0.042411 0.591954 0.500233
0.043290 0.592832 0.623302
0.044176 0.593719 0.747512
0.045069 0.594612 0.872677
0.045657 0.595200 0.955131
0.047882 0.720487 0.047882
0.048616 0.721221 0.150744
0.049450 0.722055 0.267596
0.050304 0.722909 0.387346
0.051172 0.723777 0.508993
0.052050 0.724655 0.632062
0.052937 0.725541 0.756272
0.053830 0.726434 0.881437
0.054418 0.727023 0.963892
0.056713 0.853368 0.056713
0.057447 0.854102 0.159575
0.058281 0.854936 0.276427
0.059135 0.855790 0.396177
0.060003 0.856658 0.517824
0.060881 0.857536 0.640893
0.061768 0.858423 0.765103
0.062661 0.859316 0.890268
0.063249 0.859904 0.972723
0.064744 0.974218 0.064744
0.065478 0.974952 0.167607
0.066312 0.975786 0.284459
0.067167 0.976640 0.404209
0.068035 0.977508 0.525856
0.068913 0.978386 0.648925
0.069799 0.979273 0.773135
0.070692 0.980166 0.898300
0.071280 0.980754 0.980754
0.047358 0.000981 0.000981
0.048092 0.001715 0.103844
0.048926 0.002549 0.220695
0.049781 0.003404 0.340446
0.050649 0.004272 0.462093
0.051527 0.005150 0.585162
0.052413 0.006036 0.709372
0.053306 0.006929 0.834537
0.053894 0.007517 0.916991
0.052628 0.080271 0.006251
0.053362 0.081005 0.109113
0.054196 0.081839 0.225965
0.055050 0.082693 0.345715
0.055918 0.083561 0.467362
0.056796 0.084439 0.590431
0.057682 0.085326 0.714641
0.058576 0.086219 0.839806
0.059164 0.086807 0.922261
0.060813 0.203431 0.014436
0.061547 0.204165 0.117298
0.062381 0.204999 0.234150
0.063235 0.205853 0.353900
0.064103 0.206721 0.475547
0.064981 0.207599 0.598616
0.065867 0.208485 0.722826
0.066760 0.209379 0.847991
0.067349 0.209967 0.930445
0.069235 0.330163 0.022858
0.069969 0.330897 0.125720
0.070803 0.331731 0.242572
0.071657 0.332585 0.362322
0.072525 0.333453 0.483969
0.073403 0.334331 0.607038
0.074290 0.335218 0.731248
0.075183 0.336111 0.856413
0.075771 0.336699 0.938868
0.077804 0.459098 0.031427
0.078538 0.459832 0.134289
0.079372 0.460666 0.251141
0.080226 0.461521 0.370891
0.081094 0.462389 0.492538
0.081972 0.463267 0.615607
0.082859 0.464153 0.739817
0.083752 0.465046 0.864982
0.084340 0.465634 0.947437
0.086480 0.589645 0.040103
0.087214 0.590379 0.142965
0.088048 0.591213 0.259817
0.088902 0.592068 0.379567
0.089770 0.592936 0.501214
0.090648 0.593814 0.624283
0.091534 0.594700 0.748493
0.092427 0.595593 0.873658
0.093016 0.596181 0.956112
0.095240 0.721468 0.048863
0.095974 0.722202 0.151726
0.096808 0.723036 0.268577
0.097663 0.723890 0.388328
0.098531 0.724758 0.509975
0.099409 0.725637 0.633044
0.100295 0.726523 0.757254
0.101188 0.727416 0.882419
0.101776 0.728004 0.964873
0.104071 0.854350 0.057694
0.104805 0.855083 0.160557
0.105639 0.855917 0.277408
0.106494 0.856772 0.397159
0.107362 0.857640 0.518806
0.108240 0.858518 0.641875
0.109126 0.859404 0.766085
0.110019 0.860297 0.891250
0.110607 0.860886 0.973704
0.112103 0.975200 0.065726
0.112837 0.975933 0.168588
0.113671 0.976767 0.285440
0.114525 0.977622 0.405190
0.115393 0.978490 0.526837
0.116271 0.979368 0.649906
0.117157 0.980254 0.774116
0.118051 0.981147 0.899281
0.118639 0.981736 0.981736
0.163425 0.003387 0.003387
0.164159 0.004121 0.106249
0.164992 0.004954 0.223101
0.165847 0.005809 0.342851
0.166715 0.006677 0.464498
0.167593 0.007555 0.587567
0.168479 0.008441 0.711777
0.169372 0.009334 0.836942
0.169961 0.009923 0.919396
0.168694 0.082676 0.008656
0.169428 0.083410 0.111518
0.170262 0.084244 0.228370
0.171116 0.085098 0.348120
0.171984 0.085966 0.469767
0.172862 0.086845 0.592836
0.173749 0.087731 0.717046
0.174642 0.088624 0.842211
0.175230 0.089212 0.924666
0.176879 0.205836 0.016841
0.177613 0.206570 0.119703
0.178447 0.207404 0.236555
0.179301 0.208258 0.356305
0.180169 0.209126 0.477952
0.181047 0.210004 0.601021
0.181934 0.210891 0.725231
0.182827 0.211784 0.850396
0.183415 0.212372 0.932851
0.185301 0.332568 0.025263
0.186035 0.333302 0.128126
0.186869 0.334136 0.244977
0.187723 0.334990 0.364728
0.188591 0.335858 0.486375
0.189470 0.336737 0.609444
0.190356 0.337623 0.733654
0.191249 0.338516 0.858819
0.191837 0.339104 0.941273
0.193870 0.461504 0.033832
0.194604 0.462238 0.136694
0.195438 0.463071 0.253546
0.196292 0.463926 0.373296
0.197160 0.464794 0.494943
0.198038 0.465672 0.618012
0.198925 0.466558 0.742222
0.199818 0.467451 0.867387
0.200406 0.468040 0.949842
0.202546 0.592051 0.042508
0.203280 0.592785 0.145370
0.204114 0.593618 0.262222
0.204968 0.594473 0.381972
0.205836 0.595341 0.503619
0.206714 0.596219 0.626688
0.207600 0.597105 0.750898
0.208494 0.597998 0.876063
0.209082 0.598587 0.958518
0.211307 0.723873 0.051269
0.212041 0.724607 0.154131
0.212874 0.725441 0.270983
0.213729 0.726296 0.390733
0.214597 0.727164 0.512380
0.215475 0.728042 0.635449
0.216361 0.728928 0.759659
0.217254 0.729821 0.884824
0.217843 0.730409 0.967278
0.220138 0.856755 0.060100
0.220872 0.857489 0.162962
0.221705 0.858322 0.279814
0.222560 0.859177 0.399564
0.223428 0.860045 0.521211
0.224306 0.860923 0.644280
0.225192 0.861809 0.768490
0.226085 0.862702 0.893655
0.226674 0.863291 0.976109
0.228169 0.977605 0.068131
0.228903 0.978339 0.170993
0.229737 0.979172 0.287845
0.230591 0.980027 0.407595
0.231459 0.980895 0.529242
0.232337 0.981773 0.652311
0.233224 0.982659 0.776521
0.234117 0.983552 0.901686
0.234705 0.984141 0.984141
0.283568 0.005876 0.005876
0.284302 0.006610 0.108739
0.285136 0.007444 0.225590
0.285991 0.008299 0.345341
0.286858 0.009167 0.466988
0.287737 0.010045 0.590057
0.288623 0.010931 0.714267
0.289516 0.011824 0.839432
0.290104 0.012412 0.921886
0.288838 0.085166 0.011146
0.289572 0.085900 0.114008
0.290405 0.086734 0.230860
0.291260 0.087588 0.350610
0.292128 0.088456 0.472257
0.293006 0.089334 0.595326
0.293892 0.090221 0.719536
0.294785 0.091114 0.844701
0.295374 0.091702 0.927155
0.297023 0.208326 0.019331
0.297757 0.209060 0.122193
0.298590 0.209894 0.239045
0.299445 0.210748 0.358795
0.300313 0.211616 0.480442
0.301191 0.212494 0.603511
0.302077 0.213380 0.727721
0.302970 0.214273 0.852886
0.303559 0.214862 0.935340
0.305445 0.335058 0.027753
0.306179 0.335792 0.130615
0.307013 0.336626 0.247467
0.307867 0.337480 0.367217
0.308735 0.338348 0.488864
0.309613 0.339226 0.611933
0.310500 0.340113 0.736143
0.311393 0.341006 0.861308
0.311981 0.341594 0.943763
0.314014 0.463993 0.036322
0.314748 0.464727 0.139184
0.315582 0.465561 0.256036
0.316436 0.466416 0.375786
0.317304 0.467284 0.497433
0.318182 0.468162 0.620502
0.319068 0.469048 0.744712
0.319961 0.469941 0.869877
0.320550 0.470529 0.952332
0.322690 0.594540 0.044998
0.323424 0.595274 0.147860
0.324257 0.596108 0.264712
0.325112 0.596963 0.384462
0.325980 0.597831 0.506109
0.326858 0.598709 0.629178
0.327744 0.599595 0.753388
0.328637 0.600488 0.878553
0.329226 0.601076 0.961007
0.331450 0.726363 0.053758
0.332184 0.727097 0.156621
0.333018 0.727931 0.273472
0.333872 0.728785 0.393223
0.334740 0.729653 0.514870
0.335619 0.730532 0.637939
0.336505 0.731418 0.762149
0.337398 0.732311 0.887314
0.337986 0.732899 0.969768
0.340281 0.859244 0.062589
0.341015 0.859978 0.165452
0.341849 0.860812 0.282303
0.342703 0.861667 0.402054
0.343571 0.862535 0.523701
0.344450 0.863413 0.646770
0.345336 0.864299 0.770980
0.346229 0.865192 0.896145
0.346817 0.865780 0.978599
0.348313 0.980095 0.070621
0.349047 0.980828 0.173483
0.349880 0.981662 0.290335
0.350735 0.982517 0.410085
0.351603 0.983385 0.531732
0.352481 0.984263 0.654801
0.353367 0.985149 0.779011
0.354260 0.986042 0.904176
0.354849 0.986631 0.986631
0.406028 0.008414 0.008414
0.406762 0.009148 0.111276
0.407596 0.009982 0.228128
0.408450 0.010836 0.347878
0.409318 0.011704 0.469526
0.410196 0.012582 0.592594
0.411082 0.013469 0.716804
0.411975 0.014362 0.841969
0.412564 0.014950 0.924424
0.411297 0.087704 0.013684
0.412031 0.088438 0.116546
0.412865 0.089271 0.233398
0.413719 0.090126 0.353148
0.414587 0.090994 0.474795
0.415466 0.091872 0.597864
0.416352 0.092758 0.722074
0.417245 0.093651 0.847239
0.417833 0.094240 0.929693
0.419482 0.210864 0.021868
0.420216 0.211598 0.124731
0.421050 0.212431 0.241583
0.421904 0.213286 0.361333
0.422772 0.214154 0.482980
0.423650 0.215032 0.606049
0.424537 0.215918 0.730259
0.425430 0.216811 0.855424
0.426018 0.217400 0.937878
0.427904 0.337596 0.030291
0.428638 0.338330 0.133153
0.429472 0.339163 0.250005
0.430327 0.340018 0.369755
0.431195 0.340886 0.491402
0.432073 0.341764 0.614471
0.432959 0.342650 0.738681
0.433852 0.343543 0.863846
0.434440 0.344132 0.946301
0.436473 0.466531 0.038860
0.437207 0.467265 0.141722
0.438041 0.468099 0.258574
0.438895 0.468953 0.378324
0.439763 0.469821 0.499971
0.440642 0.470699 0.623040
0.441528 0.471586 0.747250
0.442421 0.472479 0.872415
0.443009 0.473067 0.954869
0.445149 0.597078 0.047535
0.445883 0.597812 0.150398
0.446717 0.598646 0.267250
0.447571 0.599500 0.387000
0.448439 0.600368 0.508647
0.449317 0.601246 0.631716
0.450204 0.602133 0.755926
0.451097 0.603026 0.881091
0.451685 0.603614 0.963545
0.453910 0.728901 0.056296
0.454644 0.729635 0.159158
0.455478 0.730469 0.276010
0.456332 0.731323 0.395760
0.457200 0.732191 0.517408
0.458078 0.733069 0.640476
0.458964 0.733956 0.764686
0.459857 0.734849 0.889851
0.460446 0.735437 0.972306
0.462741 0.861782 0.065127
0.463475 0.862516 0.167989
0.464309 0.863350 0.284841
0.465163 0.864204 0.404591
0.466031 0.865072 0.526239
0.466909 0.865951 0.649307
0.467795 0.866837 0.773517
0.468688 0.867730 0.898682
0.469277 0.868318 0.981137
0.470772 0.982632 0.073159
0.471506 0.983366 0.176021
0.472340 0.984200 0.292873
0.473194 0.985054 0.412623
0.474062 0.985922 0.534270
0.474941 0.986801 0.657339
0.475827 0.987687 0.781549
0.476720 0.988580 0.906714
0.477308 0.989168 0.989168
0.530132 0.010986 0.010986
0.530866 0.011720 0.113848
0.531700 0.012554 0.230700
0.532554 0.013408 0.350450
0.533422 0.014276 0.472097
0.534301 0.015154 0.595166
0.535187 0.016041 0.719376
0.536080 0.016934 0.844541
0.536668 0.017522 0.926996
0.535402 0.090276 0.016255
0.536136 0.091009 0.119118
0.536969 0.091843 0.235969
0.537824 0.092698 0.355720
0.538692 0.093566 0.477367
0.539570 0.094444 0.600436
0.540456 0.095330 0.724646
0.541349 0.096223 0.849811
0.541938 0.096812 0.932265
0.543587 0.213435 0.024440
0.544321 0.214169 0.127303
0.545154 0.215003 0.244154
0.546009 0.215858 0.363905
0.546877 0.216726 0.485552
0.547755 0.217604 0.608620
0.548641 0.218490 0.732830
0.549534 0.219383 0.857995
0.550123 0.219971 0.940450
0.552009 0.340168 0.032863
0.552743 0.340902 0.135725
0.553577 0.341735 0.252577
0.554431 0.342590 0.372327
0.555299 0.343458 0.493974
0.556177 0.344336 0.617043
0.557064 0.345222 0.741253
0.557957 0.346115 0.866418
0.558545 0.346704 0.948872
0.560578 0.469103 0.041431
0.561312 0.469837 0.144294
0.562145 0.470671 0.261145
0.563000 0.471525 0.380896
0.563868 0.472393 0.502543
0.564746 0.473271 0.625612
0.565632 0.474158 0.749822
0.566525 0.475051 0.874987
0.567114 0.475639 0.957441
0.569254 0.599650 0.050107
0.569988 0.600384 0.152970
0.570821 0.601218 0.269821
0.571676 0.602072 0.389572
0.572544 0.602940 0.511219
0.573422 0.603818 0.634287
0.574308 0.604704 0.758497
0.575201 0.605598 0.883662
0.575790 0.606186 0.966117
0.578014 0.731473 0.058868
0.578748 0.732207 0.161730
0.579582 0.733040 0.278582
0.580436 0.733895 0.398332
0.581304 0.734763 0.519979
0.582183 0.735641 0.643048
0.583069 0.736527 0.767258
0.583962 0.737420 0.892423
0.584550 0.738009 0.974878
0.586845 0.864354 0.067699
0.587579 0.865088 0.170561
0.588413 0.865922 0.287413
0.589267 0.866776 0.407163
0.590135 0.867644 0.528810
0.591014 0.868522 0.651879
0.591900 0.869409 0.776089
0.592793 0.870302 0.901254
0.593381 0.870890 0.983709
0.594877 0.985204 0.075730
0.595611 0.985938 0.178593
0.596444 0.986772 0.295444
0.597299 0.987626 0.415195
0.598167 0.988494 0.536842
0.599045 0.989372 0.659911
0.599931 0.990259 0.784121
0.600824 0.991152 0.909286
0.601413 0.991740 0.991740
0.655519 0.013584 0.013584
0.656253 0.014318 0.116447
0.657087 0.015152 0.233298
0.657941 0.016007 0.353049
0.658809 0.016875 0.474696
0.659687 0.017753 0.597765
0.660574 0.018639 0.721975
0.661467 0.019532 0.847140
0.662055 0.020120 0.929594
0.660788 0.092874 0.018854
0.661522 0.093608 0.121716
0.662356 0.094442 0.238568
0.663211 0.095296 0.358318
0.664079 0.096164 0.479965
0.664957 0.097042 0.603034
0.665843 0.097928 0.727244
0.666736 0.098822 0.852409
0.667324 0.099410 0.934863
0.668973 0.216034 0.027039
0.669707 0.216768 0.129901
0.670541 0.217602 0.246753
0.671396 0.218456 0.366503
0.672264 0.219324 0.488150
0.673142 0.220202 0.611219
0.674028 0.221088 0.735429
0.674921 0.221981 0.860594
0.675509 0.222570 0.943048
0.677396 0.342766 0.035461
0.678130 0.343500 0.138323
0.678963 0.344334 0.255175
0.679818 0.345188 0.374925
0.680686 0.346056 0.496572
0.681564 0.346934 0.619641
0.682450 0.347821 0.743851
0.683343 0.348714 0.869016
0.683932 0.349302 0.951471
0.685965 0.471701 0.044030
0.686698 0.472435 0.146892
0.687532 0.473269 0.263744
0.688387 0.474124 0.383494
0.689255 0.474992 0.505141
0.690133 0.475870 0.628210
0.691019 0.476756 0.752420
0.691912 0.477649 0.877585
0.692501 0.478237 0.960039
0.694640 0.602248 0.052706
0.695374 0.602982 0.155568
0.696208 0.603816 0.272420
0.697063 0.604670 0.392170
0.697931 0.605538 0.513817
0.698809 0.606417 0.636886
0.699695 0.607303 0.761096
0.700588 0.608196 0.886261
0.701176 0.608784 0.968715
0.703401 0.734071 0.061466
0.704135 0.734805 0.164329
0.704969 0.735639 0.281180
0.705823 0.736493 0.400931
0.706691 0.737361 0.522578
0.707569 0.738239 0.645647
0.708456 0.739126 0.769857
0.709349 0.740019 0.895022
0.709937 0.740607 0.977476
0.712232 0.866952 0.070297
0.712966 0.867686 0.173160
0.713800 0.868520 0.290011
0.714654 0.869375 0.409762
0.715522 0.870243 0.531409
0.716400 0.871121 0.654478
0.717287 0.872007 0.778688
0.718180 0.872900 0.903853
0.718768 0.873488 0.986307
0.720263 0.987802 0.078329
0.720997 0.988536 0.181191
0.721831 0.989370 0.298043
0.722686 0.990225 0.417793
0.723554 0.991093 0.539440
0.724432 0.991971 0.662509
0.725318 0.992857 0.786719
0.726211 0.993750 0.911884
0.726799 0.994338 0.994338
0.781959 0.016205 0.016205
0.782693 0.016939 0.119067
0.783527 0.017772 0.235919
0.784381 0.018627 0.355669
0.785249 0.019495 0.477316
0.786128 0.020373 0.600385
0.787014 0.021259 0.724595
0.787907 0.022152 0.849760
0.788495 0.022741 0.932214
0.787229 0.095494 0.021474
0.787963 0.096228 0.124336
0.788796 0.097062 0.241188
0.789651 0.097916 0.360938
0.790519 0.098784 0.482585
0.791397 0.099662 0.605654
0.792283 0.100549 0.729864
0.793176 0.101442 0.855029
0.793765 0.102030 0.937484
0.795414 0.218654 0.029659
0.796148 0.219388 0.132521
0.796981 0.220222 0.249373
0.797836 0.221076 0.369123
0.798704 0.221944 0.490770
0.799582 0.222822 0.613839
0.800468 0.223709 0.738049
0.801361 0.224602 0.863214
0.801950 0.225190 0.945669
0.803836 0.345386 0.038081
0.804570 0.346120 0.140944
0.805404 0.346954 0.257795
0.806258 0.347808 0.377546
0.807126 0.348676 0.499193
0.808004 0.349554 0.622261
0.808891 0.350441 0.746471
0.809784 0.351334 0.871636
0.810372 0.351922 0.954091
0.812405 0.474322 0.046650
0.813139 0.475056 0.149512
0.813972 0.475889 0.266364
0.814827 0.476744 0.386114
0.815695 0.477612 0.507761
0.816573 0.478490 0.630830
0.817459 0.479376 0.755040
0.818352 0.480269 0.880205
0.818941 0.480858 0.962660
0.821081 0.604869 0.055326
0.821815 0.605602 0.158188
0.822648 0.606436 0.275040
0.823503 0.607291 0.394790
0.824371 0.608159 0.516437
0.825249 0.609037 0.639506
0.826135 0.609923 0.763716
0.827028 0.610816 0.888881
0.827617 0.611405 0.971336
0.829841 0.736691 0.064087
0.830575 0.737425 0.166949
0.831409 0.738259 0.283801
0.832263 0.739114 0.403551
0.833131 0.739982 0.525198
0.834010 0.740860 0.648267
0.834896 0.741746 0.772477
0.835789 0.742639 0.897642
0.836377 0.743227 0.980096
0.838672 0.869573 0.072918
0.839406 0.870307 0.175780
0.840240 0.871140 0.292632
0.841094 0.871995 0.412382
0.841962 0.872863 0.534029
0.842841 0.873741 0.657098
0.843727 0.874627 0.781308
0.844620 0.875520 0.906473
0.845208 0.876109 0.988927
0.846704 0.990423 0.080949
0.847438 0.991157 0.183811
0.848271 0.991990 0.300663
0.849126 0.992845 0.420413
0.849994 0.993713 0.542060
0.850872 0.994591 0.665129
0.851758 0.995477 0.789339
0.852651 0.996370 0.914504
0.853240 0.996959 0.996959
0.909295 0.018843 0.018843
0.910029 0.019577 0.121706
0.910862 0.020411 0.238557
0.911717 0.021266 0.358308
0.912585 0.022134 0.479955
0.913463 0.023012 0.603024
0.914349 0.023898 0.727234
0.915242 0.024791 0.852399
0.915831 0.025379 0.934853
0.914564 0.098133 0.024113
0.915298 0.098867 0.126975
0.916132 0.099701 0.243827
0.916986 0.100555 0.363577
0.917854 0.101423 0.485224
0.918732 0.102301 0.608293
0.919619 0.103187 0.732503
0.920512 0.104081 0.857668
0.921100 0.104669 0.940122
0.922749 0.221293 0.032298
0.923483 0.222027 0.135160
0.924317 0.222861 0.252012
0.925171 0.223715 0.371762
0.926039 0.224583 0.493409
0.926917 0.225461 0.616478
0.927804 0.226347 0.740688
0.928697 0.227240 0.865853
0.929285 0.227829 0.948307
0.931171 0.348025 0.040720
0.931905 0.348759 0.143582
0.932739 0.349593 0.260434
0.933594 0.350447 0.380184
0.934462 0.351315 0.501831
0.935340 0.352193 0.624900
0.936226 0.353080 0.749110
0.937119 0.353973 0.874275
0.937707 0.354561 0.956730
0.939740 0.476960 0.049289
0.940474 0.477694 0.152151
0.941308 0.478528 0.269003
0.942162 0.479383 0.388753
0.943030 0.480251 0.510400
0.943909 0.481129 0.633469
0.944795 0.482015 0.757679
0.945688 0.482908 0.882844
0.946276 0.483496 0.965298
0.948416 0.607507 0.057965
0.949150 0.608241 0.160827
0.949984 0.609075 0.277679
0.950838 0.609929 0.397429
0.951706 0.610797 0.519076
0.952584 0.611676 0.642145
0.953471 0.612562 0.766355
0.954364 0.613455 0.891520
0.954952 0.614043 0.973974
0.957177 0.739330 0.066725
0.957911 0.740064 0.169588
0.958744 0.740898 0.286439
0.959599 0.741752 0.406190
0.960467 0.742620 0.527837
0.961345 0.743498 0.650906
0.962231 0.744385 0.775116
0.963124 0.745278 0.900281
0.963713 0.745866 0.982735
0.966008 0.872211 0.075556
0.966742 0.872945 0.178419
0.967575 0.873779 0.295270
0.968430 0.874634 0.415021
0.969298 0.875502 0.536668
0.970176 0.876380 0.659737
0.971062 0.877266 0.783947
0.971955 0.878159 0.909112
0.972544 0.878747 0.991566
0.974039 0.993061 0.083588
0.974773 0.993795 0.186450
0.975607 0.994629 0.303302
0.976461 0.995484 0.423052
0.977329 0.996352 0.544699
0.978207 0.997230 0.667768
0.979094 0.998116 0.791978
0.979987 0.999009 0.917143
0.980575 0.999597 0.999597
