skills/editops-orchestrator/assets/grade/luts/moody_teal_v09.cube
TITLE "moody_teal_v09"
LUT_3D_SIZE 17
DOMAIN_MIN 0.0 0.0 0.0
DOMAIN_MAX 1.0 1.0 1.0
0.000000 0.000000 0.000000
0.000331 0.000331 0.046360
0.000734 0.000734 0.102862
0.001147 0.001147 0.160819
0.001568 0.001568 0.219714
0.001993 0.001993 0.279309
0.002422 0.002422 0.339464
0.002855 0.002855 0.400087
0.003290 0.003290 0.461111
0.003728 0.003728 0.522489
0.004168 0.004168 0.584180
0.004611 0.004611 0.646156
0.005055 0.005055 0.708390
0.005500 0.005500 0.770863
0.005948 0.005948 0.833555
0.006396 0.006396 0.896453
0.006536 0.006536 0.916010
0.001362 0.020500 0.001362
0.001693 0.020830 0.047723
0.002096 0.021234 0.104225
0.002510 0.021647 0.162181
0.002930 0.022067 0.221076
0.003355 0.022493 0.280672
0.003785 0.022922 0.340827
0.004217 0.023354 0.401449
0.004653 0.023790 0.462474
0.005090 0.024228 0.523851
0.005531 0.024668 0.585543
0.005973 0.025110 0.647518
0.006417 0.025554 0.709753
0.006863 0.026000 0.772225
0.007310 0.026447 0.834918
0.007759 0.026896 0.897815
0.007898 0.027036 0.917372
0.005269 0.079290 0.005269
0.005600 0.079620 0.051630
0.006003 0.080024 0.108132
0.006417 0.080437 0.166088
0.006837 0.080857 0.224983
0.007262 0.081283 0.284579
0.007692 0.081712 0.344734
0.008124 0.082144 0.405356
0.008560 0.082580 0.466381
0.008998 0.083018 0.527758
0.009438 0.083458 0.589450
0.009880 0.083900 0.651425
0.010324 0.084344 0.713660
0.010770 0.084790 0.776132
0.011217 0.085237 0.838825
0.011666 0.085686 0.901722
0.011805 0.085826 0.921279
0.009322 0.140265 0.009322
0.009653 0.140596 0.055682
0.010056 0.140999 0.112184
0.010469 0.141413 0.170140
0.010889 0.141833 0.229036
0.011315 0.142258 0.288631
0.011744 0.142687 0.348786
0.012176 0.143120 0.409409
0.012612 0.143555 0.470433
0.013050 0.143993 0.531810
0.013490 0.144433 0.593502
0.013932 0.144876 0.655477
0.014376 0.145320 0.717712
0.014822 0.145766 0.780184
0.015269 0.146213 0.842877
0.015718 0.146662 0.905775
0.015858 0.146801 0.925331
0.013454 0.202449 0.013454
0.013785 0.202780 0.059815
0.014188 0.203183 0.116317
0.014602 0.203597 0.174273
0.015022 0.204017 0.233168
0.015447 0.204442 0.292764
0.015877 0.204872 0.352919
0.016309 0.205304 0.413541
0.016745 0.205740 0.474566
0.017182 0.206178 0.535943
0.017623 0.206618 0.597635
0.018065 0.207060 0.659610
0.018509 0.207504 0.721845
0.018955 0.207950 0.784317
0.019402 0.208397 0.847010
0.019851 0.208846 0.909907
0.019990 0.208985 0.929464
0.017644 0.265485 0.017644
0.017974 0.265816 0.064004
0.018378 0.266219 0.120506
0.018791 0.266633 0.178462
0.019211 0.267053 0.237358
0.019637 0.267478 0.296953
0.020066 0.267907 0.357108
0.020498 0.268340 0.417731
0.020934 0.268775 0.478755
0.021372 0.269213 0.540132
0.021812 0.269653 0.601824
0.022254 0.270096 0.663799
0.022698 0.270540 0.726034
0.023144 0.270985 0.788506
0.023591 0.271433 0.851199
0.024040 0.271882 0.914096
0.024180 0.272021 0.933653
0.021877 0.329182 0.021877
0.022207 0.329512 0.068237
0.022611 0.329916 0.124739
0.023024 0.330329 0.182695
0.023444 0.330749 0.241591
0.023870 0.331175 0.301186
0.024299 0.331604 0.361341
0.024731 0.332036 0.421964
0.025167 0.332472 0.482988
0.025605 0.332910 0.544365
0.026045 0.333350 0.606057
0.026487 0.333792 0.668032
0.026931 0.334236 0.730267
0.027377 0.334682 0.792739
0.027824 0.335129 0.855432
0.028273 0.335578 0.918330
0.028413 0.335718 0.937886
0.026146 0.393420 0.026146
0.026477 0.393750 0.072506
0.026880 0.394154 0.129008
0.027293 0.394567 0.186965
0.027714 0.394987 0.245860
0.028139 0.395413 0.305455
0.028568 0.395842 0.365610
0.029001 0.396274 0.426233
0.029436 0.396710 0.487257
0.029874 0.397148 0.548634
0.030314 0.397588 0.610326
0.030756 0.398030 0.672302
0.031200 0.398474 0.734536
0.031646 0.398920 0.797008
0.032093 0.399367 0.859701
0.032542 0.399816 0.922599
0.032682 0.399956 0.942155
0.030445 0.458117 0.030445
0.030776 0.458448 0.076806
0.031179 0.458851 0.133308
0.031593 0.459264 0.191264
0.032013 0.459685 0.250160
0.032438 0.460110 0.309755
0.032868 0.460539 0.369910
0.033300 0.460972 0.430532
0.033736 0.461407 0.491557
0.034174 0.461845 0.552934
0.034614 0.462285 0.614626
0.035056 0.462728 0.676601
0.035500 0.463172 0.738836
0.035946 0.463617 0.801308
0.036393 0.464065 0.864001
0.036842 0.464513 0.926898
0.036981 0.464653 0.946455
0.034772 0.523214 0.034772
0.035102 0.523545 0.081132
0.035506 0.523948 0.137634
0.035919 0.524361 0.195590
0.036339 0.524781 0.254486
0.036765 0.525207 0.314081
0.037194 0.525636 0.374236
0.037626 0.526068 0.434859
0.038062 0.526504 0.495883
0.038500 0.526942 0.557260
0.038940 0.527382 0.618952
0.039382 0.527824 0.680927
0.039826 0.528268 0.743162
0.040272 0.528714 0.805634
0.040719 0.529161 0.868327
0.041168 0.529610 0.931224
0.041308 0.529750 0.950781
0.039121 0.588664 0.039121
0.039452 0.588995 0.085482
0.039855 0.589398 0.141984
0.040269 0.589811 0.199940
0.040689 0.590232 0.258835
0.041114 0.590657 0.318431
0.041544 0.591086 0.378586
0.041976 0.591519 0.439208
0.042411 0.591954 0.500233
0.042849 0.592392 0.561610
0.043290 0.592832 0.623302
0.043732 0.593274 0.685277
0.044176 0.593719 0.747512
0.044622 0.594164 0.809984
0.045069 0.594612 0.872677
0.045518 0.595060 0.935574
0.045657 0.595200 0.955131
0.043492 0.654431 0.043492
0.043823 0.654762 0.089852
0.044226 0.655165 0.146354
0.044640 0.655579 0.204311
0.045060 0.655999 0.263206
0.045485 0.656424 0.322801
0.045914 0.656854 0.382956
0.046347 0.657286 0.443579
0.046782 0.657722 0.504603
0.047220 0.658160 0.565981
0.047660 0.658600 0.627672
0.048103 0.659042 0.689648
0.048547 0.659486 0.751882
0.048992 0.659932 0.814355
0.049440 0.660379 0.877047
0.049889 0.660828 0.939945
0.050028 0.660967 0.959502
0.047882 0.720487 0.047882
0.048213 0.720818 0.094242
0.048616 0.721221 0.150744
0.049029 0.721634 0.208701
0.049450 0.722055 0.267596
0.049875 0.722480 0.327191
0.050304 0.722909 0.387346
0.050737 0.723342 0.447969
0.051172 0.723777 0.508993
0.051610 0.724215 0.570371
0.052050 0.724655 0.632062
0.052493 0.725097 0.694038
0.052937 0.725541 0.756272
0.053382 0.725987 0.818745
0.053830 0.726434 0.881437
0.054278 0.726883 0.944335
0.054418 0.727023 0.963892
0.052289 0.786806 0.052289
0.052620 0.787137 0.098650
0.053023 0.787540 0.155152
0.053437 0.787953 0.213108
0.053857 0.788374 0.272003
0.054282 0.788799 0.331599
0.054712 0.789228 0.391754
0.055144 0.789661 0.452376
0.055580 0.790096 0.513401
0.056018 0.790534 0.574778
0.056458 0.790974 0.636470
0.056900 0.791416 0.698445
0.057344 0.791860 0.760680
0.057790 0.792306 0.823152
0.058237 0.792754 0.885845
0.058686 0.793202 0.948742
0.058825 0.793342 0.968299
0.056713 0.853368 0.056713
0.057044 0.853699 0.103073
0.057447 0.854102 0.159575
0.057860 0.854516 0.217532
0.058281 0.854936 0.276427
0.058706 0.855361 0.336022
0.059135 0.855790 0.396177
0.059568 0.856223 0.456800
0.060003 0.856658 0.517824
0.060441 0.857096 0.579202
0.060881 0.857536 0.640893
0.061324 0.857979 0.702869
0.061768 0.858423 0.765103
0.062213 0.858868 0.827576
0.062661 0.859316 0.890268
0.063109 0.859765 0.953166
0.063249 0.859904 0.972723
0.061152 0.920156 0.061152
0.061482 0.920487 0.107512
0.061886 0.920890 0.164014
0.062299 0.921304 0.221970
0.062719 0.921724 0.280866
0.063145 0.922149 0.340461
0.063574 0.922578 0.400616
0.064006 0.923011 0.461239
0.064442 0.923446 0.522263
0.064880 0.923884 0.583640
0.065320 0.924324 0.645332
0.065762 0.924767 0.707307
0.066206 0.925211 0.769542
0.066652 0.925656 0.832014
0.067099 0.926104 0.894707
0.067548 0.926553 0.957604
0.067688 0.926692 0.977161
0.064744 0.974218 0.064744
0.065075 0.974549 0.111105
0.065478 0.974952 0.167607
0.065892 0.975366 0.225563
0.066312 0.975786 0.284459
0.066737 0.976211 0.344054
0.067167 0.976640 0.404209
0.067599 0.977073 0.464831
0.068035 0.977508 0.525856
0.068473 0.977946 0.587233
0.068913 0.978386 0.648925
0.069355 0.978829 0.710900
0.069799 0.979273 0.773135
0.070245 0.979718 0.835607
0.070692 0.980166 0.898300
0.071141 0.980615 0.961197
0.071280 0.980754 0.980754
0.000000 0.000000 0.000000
0.000331 0.000331 0.046360
0.000734 0.000734 0.102862
0.001147 0.001147 0.160819
0.001568 0.001568 0.219714
0.001993 0.001993 0.279309
0.002422 0.002422 0.339464
0.002855 0.002855 0.400087
0.003290 0.003290 0.461111
0.003728 0.003728 0.522489
0.004168 0.004168 0.584180
0.004611 0.004611 0.646156
0.005055 0.005055 0.708390
0.005500 0.005500 0.770863
0.005948 0.005948 0.833555
0.006396 0.006396 0.896453
0.006536 0.006536 0.916010
0.001362 0.020500 0.001362
0.001693 0.020830 0.047723
0.002096 0.021234 0.104225
0.002510 0.021647 0.162181
0.002930 0.022067 0.221076
0.003355 0.022493 0.280672
0.003785 0.022922 0.340827
0.004217 0.023354 0.401449
0.004653 0.023790 0.462474
0.005090 0.024228 0.523851
0.005531 0.024668 0.585543
0.005973 0.025110 0.647518
0.006417 0.025554 0.709753
0.006863 0.026000 0.772225
0.007310 0.026447 0.834918
0.007759 0.026896 0.897815
0.007898 0.027036 0.917372
0.005269 0.079290 0.005269
0.005600 0.079620 0.051630
0.006003 0.080024 0.108132
0.006417 0.080437 0.166088
0.006837 0.080857 0.224983
0.007262 0.081283 0.284579
0.007692 0.081712 0.344734
0.008124 0.082144 0.405356
0.008560 0.082580 0.466381
0.008998 0.083018 0.527758
0.009438 0.083458 0.589450
0.009880 0.083900 0.651425
0.010324 0.084344 0.713660
0.010770 0.084790 0.776132
0.011217 0.085237 0.838825
0.011666 0.085686 0.901722
0.011805 0.085826 0.921279
0.009322 0.140265 0.009322
0.009653 0.140596 0.055682
0.010056 0.140999 0.112184
0.010469 0.141413 0.170140
0.010889 0.141833 0.229036
0.011315 0.142258 0.288631
0.011744 0.142687 0.348786
0.012176 0.143120 0.409409
0.012612 0.143555 0.470433
0.013050 0.143993 0.531810
0.013490 0.144433 0.593502
0.013932 0.144876 0.655477
0.014376 0.145320 0.717712
0.014822 0.145766 0.780184
0.015269 0.146213 0.842877
0.015718 0.146662 0.905775
0.015858 0.146801 0.925331
0.013454 0.202449 0.013454
0.013785 0.202780 0.059815
0.014188 0.203183 0.116317
0.014602 0.203597 0.174273
0.015022 0.204017 0.233168
0.015447 0.204442 0.292764
0.015877 0.204872 0.352919
0.016309 0.205304 0.413541
0.016745 0.205740 0.474566
0.017182 0.206178 0.535943
0.017623 0.206618 0.597635
0.018065 0.207060 0.659610
0.018509 0.207504 0.721845
0.018955 0.207950 0.784317
0.019402 0.208397 0.847010
0.019851 0.208846 0.909907
0.019990 0.208985 0.929464
0.017644 0.265485 0.017644
0.017974 0.265816 0.064004
0.018378 0.266219 0.120506
0.018791 0.266633 0.178462
0.019211 0.267053 0.237358
0.019637 0.267478 0.296953
0.020066 0.267907 0.357108
0.020498 0.268340 0.417731
0.020934 0.268775 0.478755
0.021372 0.269213 0.540132
0.021812 0.269653 0.601824
0.022254 0.270096 0.663799
0.022698 0.270540 0.726034
0.023144 0.270985 0.788506
0.023591 0.271433 0.851199
0.024040 0.271882 0.914096
0.024180 0.272021 0.933653
0.021877 0.329182 0.021877
0.022207 0.329512 0.068237
0.022611 0.329916 0.124739
0.023024 0.330329 0.182695
0.023444 0.330749 0.241591
0.023870 0.331175 0.301186
0.024299 0.331604 0.361341
0.024731 0.332036 0.421964
0.025167 0.332472 0.482988
0.025605 0.332910 0.544365
0.026045 0.333350 0.606057
0.026487 0.333792 0.668032
0.026931 0.334236 0.730267
0.027377 0.334682 0.792739
0.027824 0.335129 0.855432
0.028273 0.335578 0.918330
0.028413 0.335718 0.937886
0.026146 0.393420 0.026146
0.026477 0.393750 0.072506
0.026880 0.394154 0.129008
0.027293 0.394567 0.186965
0.027714 0.394987 0.245860
0.028139 0.395413 0.305455
0.028568 0.395842 0.365610
0.029001 0.396274 0.426233
0.029436 0.396710 0.487257
0.029874 0.397148 0.548634
0.030314 0.397588 0.610326
0.030756 0.398030 0.672302
0.031200 0.398474 0.734536
0.031646 0.398920 0.797008
0.032093 0.399367 0.859701
0.032542 0.399816 0.922599
0.032682 0.399956 0.942155
0.030445 0.458117 0.030445
0.030776 0.458448 0.076806
0.031179 0.458851 0.133308
0.031593 0.459264 0.191264
0.032013 0.459685 0.250160
0.032438 0.460110 0.309755
0.032868 0.460539 0.369910
0.033300 0.460972 0.430532
0.033736 0.461407 0.491557
0.034174 0.461845 0.552934
0.034614 0.462285 0.614626
0.035056 0.462728 0.676601
0.035500 0.463172 0.738836
0.035946 0.463617 0.801308
0.036393 0.464065 0.864001
0.036842 0.464513 0.926898
0.036981 0.464653 0.946455
0.034772 0.523214 0.034772
0.035102 0.523545 0.081132
0.035506 0.523948 0.137634
0.035919 0.524361 0.195590
0.036339 0.524781 0.254486
0.036765 0.525207 0.314081
0.037194 0.525636 0.374236
0.037626 0.526068 0.434859
0.038062 0.526504 0.495883
0.038500 0.526942 0.557260
0.038940 0.527382 0.618952
0.039382 0.527824 0.680927
0.039826 0.528268 0.743162
0.040272 0.528714 0.805634
0.040719 0.529161 0.868327
0.041168 0.529610 0.931224
0.041308 0.529750 0.950781
0.039121 0.588664 0.039121
0.039452 0.588995 0.085482
0.039855 0.589398 0.141984
0.040269 0.589811 0.199940
0.040689 0.590232 0.258835
0.041114 0.590657 0.318431
0.041544 0.591086 0.378586
0.041976 0.591519 0.439208
0.042411 0.591954 0.500233
0.042849 0.592392 0.561610
0.043290 0.592832 0.623302
0.043732 0.593274 0.685277
0.044176 0.593719 0.747512
0.044622 0.594164 0.809984
0.045069 0.594612 0.872677
0.045518 0.595060 0.935574
0.045657 0.595200 0.955131
0.043492 0.654431 0.043492
0.043823 0.654762 0.089852
0.044226 0.655165 0.146354
0.044640 0.655579 0.204311
0.045060 0.655999 0.263206
0.045485 0.656424 0.322801
0.045914 0.656854 0.382956
0.046347 0.657286 0.443579
0.046782 0.657722 0.504603
0.047220 0.658160 0.565981
0.047660 0.658600 0.627672
0.048103 0.659042 0.689648
0.048547 0.659486 0.751882
0.048992 0.659932 0.814355
0.049440 0.660379 0.877047
0.049889 0.660828 0.939945
0.050028 0.660967 0.959502
0.047882 0.720487 0.047882
0.048213 0.720818 0.094242
0.048616 0.721221 0.150744
0.049029 0.721634 0.208701
0.049450 0.722055 0.267596
0.049875 0.722480 0.327191
0.050304 0.722909 0.387346
0.050737 0.723342 0.447969
0.051172 0.723777 0.508993
0.051610 0.724215 0.570371
0.052050 0.724655 0.632062
0.052493 0.725097 0.694038
0.052937 0.725541 0.756272
0.053382 0.725987 0.818745
0.053830 0.726434 0.881437
0.054278 0.726883 0.944335
0.054418 0.727023 0.963892
0.052289 0.786806 0.052289
0.052620 0.787137 0.098650
0.053023 0.787540 0.155152
0.053437 0.787953 0.213108
0.053857 0.788374 0.272003
0.054282 0.788799 0.331599
0.054712 0.789228 0.391754
0.055144 0.789661 0.452376
0.055580 0.790096 0.513401
0.056018 0.790534 0.574778
0.056458 0.790974 0.636470
0.056900 0.791416 0.698445
0.057344 0.791860 0.760680
0.057790 0.792306 0.823152
0.058237 0.792754 0.885845
0.058686 0.793202 0.948742
0.058825 0.793342 0.968299
0.056713 0.853368 0.056713
0.057044 0.853699 0.103073
0.057447 0.854102 0.159575
0.057860 0.854516 0.217532
0.058281 0.854936 0.276427
0.058706 0.855361 0.336022
0.059135 0.855790 0.396177
0.059568 0.856223 0.456800
0.060003 0.856658 0.517824
0.060441 0.857096 0.579202
0.060881 0.857536 0.640893
0.061324 0.857979 0.702869
0.061768 0.858423 0.765103
0.062213 0.858868 0.827576
0.062661 0.859316 0.890268
0.063109 0.859765 0.953166
0.063249 0.859904 0.972723
0.061152 0.920156 0.061152
0.061482 0.920487 0.107512
0.061886 0.920890 0.164014
0.062299 0.921304 0.221970
0.062719 0.921724 0.280866
0.063145 0.922149 0.340461
0.063574 0.922578 0.400616
0.064006 0.923011 0.461239
0.064442 0.923446 0.522263
0.064880 0.923884 0.583640
0.065320 0.924324 0.645332
0.065762 0.924767 0.707307
0.066206 0.925211 0.769542
0.066652 0.925656 0.832014
0.067099 0.926104 0.894707
0.067548 0.926553 0.957604
0.067688 0.926692 0.977161
0.064744 0.974218 0.064744
0.065075 0.974549 0.111105
0.065478 0.974952 0.167607
0.065892 0.975366 0.225563
0.066312 0.975786 0.284459
0.066737 0.976211 0.344054
0.067167 0.976640 0.404209
0.067599 0.977073 0.464831
0.068035 0.977508 0.525856
0.068473 0.977946 0.587233
0.068913 0.978386 0.648925
0.069355 0.978829 0.710900
0.069799 0.979273 0.773135
0.070245 0.979718 0.835607
0.070692 0.980166 0.898300
0.071141 0.980615 0.961197
0.071280 0.980754 0.980754
0.047358 0.000981 0.000981
0.047689 0.001312 0.047342
0.048092 0.001715 0.103844
0.048506 0.002129 0.161800
0.048926 0.002549 0.220695
0.049351 0.002974 0.280291
0.049781 0.003404 0.340446
0.050213 0.003836 0.401068
0.050649 0.004272 0.462093
0.051087 0.004710 0.523470
0.051527 0.005150 0.585162
0.051969 0.005592 0.647137
0.052413 0.006036 0.709372
0.052859 0.006482 0.771844
0.053306 0.006929 0.834537
0.053755 0.007378 0.897434
0.053894 0.007517 0.916991
0.048721 0.021481 0.002344
0.049052 0.021812 0.048704
0.049455 0.022215 0.105206
0.049868 0.022628 0.163162
0.050289 0.023049 0.222058
0.050714 0.023474 0.281653
0.051143 0.023903 0.341808
0.051576 0.024336 0.402431
0.052011 0.024771 0.463455
0.052449 0.025209 0.524832
0.052889 0.025649 0.586524
0.053331 0.026091 0.648500
0.053775 0.026536 0.710734
0.054221 0.026981 0.773206
0.054669 0.027429 0.835899
0.055117 0.027877 0.898797
0.055257 0.028017 0.918353
0.052628 0.080271 0.006251
0.052959 0.080602 0.052611
0.053362 0.081005 0.109113
0.053775 0.081418 0.167070
0.054196 0.081839 0.225965
0.054621 0.082264 0.285560
0.055050 0.082693 0.345715
0.055483 0.083126 0.406338
0.055918 0.083561 0.467362
0.056356 0.083999 0.528739
0.056796 0.084439 0.590431
0.057238 0.084881 0.652407
0.057682 0.085326 0.714641
0.058128 0.085771 0.777113
0.058576 0.086219 0.839806
0.059024 0.086667 0.902704
0.059164 0.086807 0.922261
0.056680 0.141247 0.010303
0.057011 0.141577 0.056663
0.057414 0.141981 0.113165
0.057828 0.142394 0.171122
0.058248 0.142814 0.230017
0.058673 0.143240 0.289612
0.059102 0.143669 0.349767
0.059535 0.144101 0.410390
0.059970 0.144537 0.471415
0.060408 0.144975 0.532792
0.060849 0.145415 0.594483
0.061291 0.145857 0.656459
0.061735 0.146301 0.718693
0.062181 0.146747 0.781166
0.062628 0.147194 0.843858
0.063077 0.147643 0.906756
0.063216 0.147783 0.926313
0.060813 0.203431 0.014436
0.061144 0.203762 0.060796
0.061547 0.204165 0.117298
0.061960 0.204578 0.175254
0.062381 0.204999 0.234150
0.062806 0.205424 0.293745
0.063235 0.205853 0.353900
0.063668 0.206286 0.414523
0.064103 0.206721 0.475547
0.064541 0.207159 0.536924
0.064981 0.207599 0.598616
0.065423 0.208041 0.660592
0.065867 0.208485 0.722826
0.066313 0.208931 0.785298
0.066760 0.209379 0.847991
0.067209 0.209827 0.910889
0.067349 0.209967 0.930445
0.065002 0.266467 0.018625
0.065333 0.266797 0.064985
0.065736 0.267200 0.121487
0.066150 0.267614 0.179444
0.066570 0.268034 0.238339
0.066995 0.268459 0.297934
0.067424 0.268889 0.358089
0.067857 0.269321 0.418712
0.068292 0.269757 0.479736
0.068730 0.270195 0.541114
0.069170 0.270635 0.602805
0.069613 0.271077 0.664781
0.070057 0.271521 0.727015
0.070502 0.271967 0.789488
0.070950 0.272414 0.852180
0.071399 0.272863 0.915078
0.071538 0.273003 0.934635
0.069235 0.330163 0.022858
0.069566 0.330494 0.069218
0.069969 0.330897 0.125720
0.070383 0.331311 0.183677
0.070803 0.331731 0.242572
0.071228 0.332156 0.302167
0.071657 0.332585 0.362322
0.072090 0.333018 0.422945
0.072525 0.333453 0.483969
0.072963 0.333891 0.545347
0.073403 0.334331 0.607038
0.073846 0.334774 0.669014
0.074290 0.335218 0.731248
0.074736 0.335663 0.793721
0.075183 0.336111 0.856413
0.075632 0.336559 0.919311
0.075771 0.336699 0.938868
0.073504 0.394401 0.027127
0.073835 0.394732 0.073488
0.074238 0.395135 0.129990
0.074652 0.395549 0.187946
0.075072 0.395969 0.246841
0.075497 0.396394 0.306437
0.075926 0.396823 0.366592
0.076359 0.397256 0.427214
0.076794 0.397691 0.488239
0.077232 0.398129 0.549616
0.077673 0.398569 0.611307
0.078115 0.399012 0.673283
0.078559 0.399456 0.735517
0.079005 0.399901 0.797990
0.079452 0.400349 0.860682
0.079901 0.400797 0.923580
0.080040 0.400937 0.943137
0.077804 0.459098 0.031427
0.078135 0.459429 0.077787
0.078538 0.459832 0.134289
0.078951 0.460246 0.192246
0.079372 0.460666 0.251141
0.079797 0.461091 0.310736
0.080226 0.461521 0.370891
0.080659 0.461953 0.431514
0.081094 0.462389 0.492538
0.081532 0.462827 0.553915
0.081972 0.463267 0.615607
0.082414 0.463709 0.677583
0.082859 0.464153 0.739817
0.083304 0.464599 0.802289
0.083752 0.465046 0.864982
0.084200 0.465495 0.927880
0.084340 0.465634 0.947437
0.082130 0.524195 0.035753
0.082461 0.524526 0.082113
0.082864 0.524929 0.138615
0.083278 0.525343 0.196572
0.083698 0.525763 0.255467
0.084123 0.526188 0.315062
0.084552 0.526617 0.375217
0.084985 0.527050 0.435840
0.085420 0.527485 0.496864
0.085858 0.527923 0.558242
0.086298 0.528363 0.619933
0.086741 0.528806 0.681909
0.087185 0.529250 0.744143
0.087630 0.529695 0.806616
0.088078 0.530143 0.869308
0.088527 0.530592 0.932206
0.088666 0.530731 0.951763
0.086480 0.589645 0.040103
0.086811 0.589976 0.086463
0.087214 0.590379 0.142965
0.087627 0.590793 0.200921
0.088048 0.591213 0.259817
0.088473 0.591638 0.319412
0.088902 0.592068 0.379567
0.089335 0.592500 0.440190
0.089770 0.592936 0.501214
0.090208 0.593373 0.562591
0.090648 0.593814 0.624283
0.091090 0.594256 0.686259
0.091534 0.594700 0.748493
0.091980 0.595146 0.810965
0.092427 0.595593 0.873658
0.092876 0.596042 0.936556
0.093016 0.596181 0.956112
0.090851 0.655413 0.044474
0.091181 0.655744 0.090834
0.091585 0.656147 0.147336
0.091998 0.656560 0.205292
0.092418 0.656981 0.264188
0.092844 0.657406 0.323783
0.093273 0.657835 0.383938
0.093705 0.658268 0.444560
0.094141 0.658703 0.505585
0.094579 0.659141 0.566962
0.095019 0.659581 0.628654
0.095461 0.660023 0.690629
0.095905 0.660467 0.752864
0.096351 0.660913 0.815336
0.096798 0.661360 0.878029
0.097247 0.661809 0.940926
0.097387 0.661949 0.960483
0.095240 0.721468 0.048863
0.095571 0.721799 0.095224
0.095974 0.722202 0.151726
0.096388 0.722616 0.209682
0.096808 0.723036 0.268577
0.097233 0.723461 0.328173
0.097663 0.723890 0.388328
0.098095 0.724323 0.448950
0.098531 0.724758 0.509975
0.098969 0.725196 0.571352
0.099409 0.725637 0.633044
0.099851 0.726079 0.695019
0.100295 0.726523 0.757254
0.100741 0.726969 0.819726
0.101188 0.727416 0.882419
0.101637 0.727865 0.945316
0.101776 0.728004 0.964873
0.099648 0.787787 0.053271
0.099979 0.788118 0.099631
0.100382 0.788521 0.156133
0.100795 0.788935 0.214090
0.101216 0.789355 0.272985
0.101641 0.789780 0.332580
0.102070 0.790209 0.392735
0.102503 0.790642 0.453358
0.102938 0.791077 0.514382
0.103376 0.791515 0.575759
0.103816 0.791956 0.637451
0.104258 0.792398 0.699427
0.104702 0.792842 0.761661
0.105148 0.793288 0.824133
0.105596 0.793735 0.886826
0.106044 0.794184 0.949724
0.106184 0.794323 0.969281
0.104071 0.854350 0.057694
0.104402 0.854680 0.104055
0.104805 0.855083 0.160557
0.105219 0.855497 0.218513
0.105639 0.855917 0.277408
0.106064 0.856342 0.337004
0.106494 0.856772 0.397159
0.106926 0.857204 0.457781
0.107362 0.857640 0.518806
0.107800 0.858078 0.580183
0.108240 0.858518 0.641875
0.108682 0.858960 0.703850
0.109126 0.859404 0.766085
0.109572 0.859850 0.828557
0.110019 0.860297 0.891250
0.110468 0.860746 0.954147
0.110607 0.860886 0.973704
0.108510 0.921138 0.062133
0.108841 0.921468 0.108493
0.109244 0.921872 0.164995
0.109658 0.922285 0.222952
0.110078 0.922705 0.281847
0.110503 0.923131 0.341442
0.110932 0.923560 0.401597
0.111365 0.923992 0.462220
0.111800 0.924428 0.523244
0.112238 0.924866 0.584622
0.112678 0.925306 0.646313
0.113121 0.925748 0.708289
0.113565 0.926192 0.770523
0.114010 0.926638 0.832996
0.114458 0.927085 0.895688
0.114907 0.927534 0.958586
0.115046 0.927674 0.978143
0.112103 0.975200 0.065726
0.112434 0.975530 0.112086
0.112837 0.975933 0.168588
0.113250 0.976347 0.226545
0.113671 0.976767 0.285440
0.114096 0.977192 0.345035
0.114525 0.977622 0.405190
0.114958 0.978054 0.465813
0.115393 0.978490 0.526837
0.115831 0.978928 0.588214
0.116271 0.979368 0.649906
0.116713 0.979810 0.711882
0.117157 0.980254 0.774116
0.117603 0.980700 0.836588
0.118051 0.981147 0.899281
0.118499 0.981596 0.962179
0.118639 0.981736 0.981736
0.104657 0.002169 0.002169
0.104988 0.002500 0.048529
0.105391 0.002903 0.105031
0.105804 0.003316 0.162988
0.106225 0.003737 0.221883
0.106650 0.004162 0.281478
0.107079 0.004591 0.341633
0.107512 0.005024 0.402256
0.107947 0.005459 0.463280
0.108385 0.005897 0.524657
0.108825 0.006337 0.586349
0.109267 0.006779 0.648325
0.109711 0.007223 0.710559
0.110157 0.007669 0.773031
0.110605 0.008116 0.835724
0.111053 0.008565 0.898622
0.111193 0.008705 0.918178
0.106019 0.022668 0.003531
