skills/editops-orchestrator/assets/grade/luts/moody_teal_v02.cube
TITLE "moody_teal_v02"
LUT_3D_SIZE 17
DOMAIN_MIN 0.0 0.0 0.0
DOMAIN_MAX 1.0 1.0 1.0
0.000000 0.000000 0.000000
0.000184 0.000184 0.052558
0.000391 0.000391 0.111820
0.000600 0.000600 0.171840
0.000812 0.000812 0.232348
0.001025 0.001025 0.293219
0.001238 0.001238 0.354379
0.001453 0.001453 0.415780
0.001668 0.001668 0.477388
0.001884 0.001884 0.539177
0.002100 0.002100 0.601127
0.002317 0.002317 0.663222
0.002535 0.002535 0.725449
0.002753 0.002753 0.787797
0.002971 0.002971 0.850258
0.003190 0.003190 0.912822
0.003344 0.003344 0.957028
0.001410 0.041995 0.001410
0.001593 0.042179 0.053968
0.001800 0.042386 0.113230
0.002010 0.042596 0.173250
0.002222 0.042807 0.233758
0.002434 0.043020 0.294629
0.002648 0.043234 0.355789
0.002862 0.043448 0.417190
0.003078 0.043663 0.478798
0.003294 0.043879 0.540587
0.003510 0.044096 0.602537
0.003727 0.044313 0.664632
0.003945 0.044530 0.726859
0.004162 0.044748 0.789207
0.004381 0.044966 0.851667
0.004599 0.045185 0.914232
0.004754 0.045339 0.958438
0.003453 0.102873 0.003453
0.003637 0.103057 0.056011
0.003844 0.103264 0.115274
0.004054 0.103474 0.175293
0.004265 0.103685 0.235801
0.004478 0.103898 0.296672
0.004691 0.104111 0.357832
0.004906 0.104326 0.419234
0.005121 0.104541 0.480842
0.005337 0.104757 0.542630
0.005554 0.104973 0.604580
0.005771 0.105190 0.666675
0.005988 0.105408 0.728902
0.006206 0.105626 0.791251
0.006424 0.105844 0.853711
0.006643 0.106063 0.916275
0.006797 0.106217 0.960481
0.005526 0.164633 0.005526
0.005710 0.164817 0.058084
0.005917 0.165024 0.117347
0.006127 0.165234 0.177367
0.006338 0.165445 0.237875
0.006551 0.165658 0.298745
0.006765 0.165872 0.359906
0.006979 0.166086 0.421307
0.007194 0.166301 0.482915
0.007410 0.166517 0.544704
0.007627 0.166734 0.606654
0.007844 0.166951 0.668748
0.008061 0.167168 0.730976
0.008279 0.167386 0.793324
0.008497 0.167604 0.855784
0.008716 0.167823 0.918348
0.008870 0.167977 0.962555
0.007618 0.226936 0.007618
0.007801 0.227119 0.060176
0.008008 0.227326 0.119438
0.008218 0.227536 0.179458
0.008430 0.227747 0.239966
0.008642 0.227960 0.300837
0.008856 0.228174 0.361997
0.009071 0.228388 0.423398
0.009286 0.228604 0.485006
0.009502 0.228820 0.546795
0.009718 0.229036 0.608745
0.009935 0.229253 0.670840
0.010153 0.229470 0.733067
0.010370 0.229688 0.795415
0.010589 0.229907 0.857875
0.010807 0.230125 0.920440
0.010962 0.230280 0.964646
0.009722 0.289632 0.009722
0.009906 0.289816 0.062280
0.010113 0.290023 0.121543
0.010323 0.290233 0.181562
0.010534 0.290444 0.242070
0.010747 0.290657 0.302941
0.010961 0.290871 0.364102
0.011175 0.291085 0.425503
0.011390 0.291300 0.487111
0.011606 0.291516 0.548900
0.011823 0.291733 0.610849
0.012040 0.291950 0.672944
0.012257 0.292167 0.735171
0.012475 0.292385 0.797520
0.012693 0.292603 0.859980
0.012912 0.292822 0.922544
0.013066 0.292976 0.966751
0.011837 0.352640 0.011837
0.012021 0.352824 0.064395
0.012228 0.353031 0.123658
0.012438 0.353240 0.183678
0.012649 0.353452 0.244186
0.012862 0.353665 0.305056
0.013076 0.353878 0.366217
0.013290 0.354093 0.427618
0.013505 0.354308 0.489226
0.013721 0.354524 0.551015
0.013938 0.354740 0.612964
0.014155 0.354957 0.675059
0.014372 0.355175 0.737287
0.014590 0.355393 0.799635
0.014808 0.355611 0.862095
0.015027 0.355830 0.924659
0.015181 0.355984 0.968866
0.013961 0.415905 0.013961
0.014145 0.416089 0.066519
0.014352 0.416296 0.125782
0.014561 0.416505 0.185801
0.014773 0.416717 0.246309
0.014986 0.416930 0.307180
0.015199 0.417143 0.368340
0.015414 0.417358 0.429741
0.015629 0.417573 0.491349
0.015845 0.417789 0.553138
0.016061 0.418005 0.615088
0.016278 0.418222 0.677183
0.016496 0.418440 0.739410
0.016714 0.418658 0.801758
0.016932 0.418876 0.864219
0.017151 0.419095 0.926783
0.017305 0.419249 0.970989
0.016092 0.479389 0.016092
0.016276 0.479573 0.068650
0.016483 0.479780 0.127913
0.016692 0.479990 0.187932
0.016904 0.480201 0.248440
0.017117 0.480414 0.309311
0.017330 0.480628 0.370471
0.017545 0.480842 0.431873
0.017760 0.481057 0.493480
0.017976 0.481273 0.555269
0.018192 0.481490 0.617219
0.018409 0.481707 0.679314
0.018627 0.481924 0.741541
0.018845 0.482142 0.803889
0.019063 0.482360 0.866350
0.019282 0.482579 0.928914
0.019436 0.482733 0.973120
0.018230 0.543065 0.018230
0.018413 0.543249 0.070788
0.018620 0.543456 0.130050
0.018830 0.543665 0.190070
0.019041 0.543877 0.250578
0.019254 0.544090 0.311448
0.019468 0.544303 0.372609
0.019682 0.544518 0.434010
0.019898 0.544733 0.495618
0.020113 0.544949 0.557407
0.020330 0.545165 0.619357
0.020547 0.545382 0.681452
0.020764 0.545600 0.743679
0.020982 0.545818 0.806027
0.021200 0.546036 0.868487
0.021419 0.546255 0.931051
0.021574 0.546409 0.975258
0.020373 0.606911 0.020373
0.020556 0.607094 0.072931
0.020763 0.607301 0.132193
0.020973 0.607511 0.192213
0.021185 0.607722 0.252721
0.021397 0.607935 0.313592
0.021611 0.608149 0.374752
0.021825 0.608363 0.436153
0.022041 0.608579 0.497761
0.022257 0.608795 0.559550
0.022473 0.609011 0.621500
0.022690 0.609228 0.683595
0.022908 0.609445 0.745822
0.023125 0.609663 0.808170
0.023344 0.609882 0.870630
0.023562 0.610100 0.933195
0.023717 0.610255 0.977401
0.022521 0.670909 0.022521
0.022705 0.671092 0.075079
0.022912 0.671300 0.134341
0.023121 0.671509 0.194361
0.023333 0.671721 0.254869
0.023546 0.671933 0.315740
0.023759 0.672147 0.376900
0.023974 0.672362 0.438301
0.024189 0.672577 0.499909
0.024405 0.672793 0.561698
0.024621 0.673009 0.623648
0.024838 0.673226 0.685743
0.025056 0.673444 0.747970
0.025274 0.673661 0.810318
0.025492 0.673880 0.872779
0.025710 0.674098 0.935343
0.025865 0.674253 0.979549
0.024674 0.735046 0.024674
0.024858 0.735229 0.077232
0.025065 0.735436 0.136494
0.025274 0.735646 0.196514
0.025486 0.735858 0.257022
0.025698 0.736070 0.317893
0.025912 0.736284 0.379053
0.026127 0.736498 0.440454
0.026342 0.736714 0.502062
0.026558 0.736930 0.563851
0.026774 0.737146 0.625801
0.026991 0.737363 0.687896
0.027209 0.737581 0.750123
0.027427 0.737798 0.812471
0.027645 0.738017 0.874932
0.027863 0.738235 0.937496
0.028018 0.738390 0.981702
0.026831 0.799310 0.026831
0.027015 0.799493 0.079389
0.027222 0.799700 0.138652
0.027432 0.799910 0.198671
0.027643 0.800122 0.259179
0.027856 0.800334 0.320050
0.028069 0.800548 0.381210
0.028284 0.800762 0.442612
0.028499 0.800978 0.504219
0.028715 0.801194 0.566008
0.028932 0.801410 0.627958
0.029148 0.801627 0.690053
0.029366 0.801844 0.752280
0.029584 0.802062 0.814628
0.029802 0.802281 0.877089
0.030021 0.802499 0.939653
0.030175 0.802654 0.983859
0.028992 0.863691 0.028992
0.029176 0.863875 0.081550
0.029383 0.864082 0.140813
0.029593 0.864291 0.200832
0.029804 0.864503 0.261340
0.030017 0.864715 0.322211
0.030230 0.864929 0.383371
0.030445 0.865144 0.444773
0.030660 0.865359 0.506381
0.030876 0.865575 0.568169
0.031093 0.865791 0.630119
0.031310 0.866008 0.692214
0.031527 0.866226 0.754441
0.031745 0.866444 0.816790
0.031963 0.866662 0.879250
0.032182 0.866880 0.941814
0.032336 0.867035 0.986020
0.031157 0.928181 0.031157
0.031341 0.928365 0.083715
0.031548 0.928572 0.142978
0.031757 0.928781 0.202997
0.031969 0.928993 0.263505
0.032182 0.929206 0.324376
0.032395 0.929419 0.385536
0.032610 0.929634 0.446937
0.032825 0.929849 0.508545
0.033041 0.930065 0.570334
0.033257 0.930281 0.632284
0.033474 0.930498 0.694379
0.033692 0.930716 0.756606
0.033910 0.930934 0.818954
0.034128 0.931152 0.881415
0.034347 0.931371 0.943979
0.034501 0.931525 0.988185
0.033125 0.986809 0.033125
0.033309 0.986993 0.085683
0.033516 0.987200 0.144946
0.033725 0.987410 0.204965
0.033937 0.987621 0.265473
0.034150 0.987834 0.326344
0.034363 0.988048 0.387504
0.034578 0.988262 0.448906
0.034793 0.988477 0.510513
0.035009 0.988693 0.572302
0.035225 0.988910 0.634252
0.035442 0.989127 0.696347
0.035660 0.989344 0.758574
0.035878 0.989562 0.820922
0.036096 0.989780 0.883383
0.036315 0.989999 0.945947
0.036469 0.990153 0.990153
0.029173 0.000298 0.000298
0.029357 0.000482 0.052856
0.029564 0.000689 0.112119
0.029773 0.000899 0.172138
0.029985 0.001110 0.232646
0.030198 0.001323 0.293517
0.030411 0.001536 0.354677
0.030626 0.001751 0.416079
0.030841 0.001966 0.477686
0.031057 0.002182 0.539475
0.031273 0.002399 0.601425
0.031490 0.002616 0.663520
0.031708 0.002833 0.725747
0.031926 0.003051 0.788096
0.032144 0.003269 0.850556
0.032363 0.003488 0.913120
0.032517 0.003642 0.957326
0.030583 0.042293 0.001708
0.030766 0.042477 0.054266
0.030973 0.042684 0.113528
0.031183 0.042894 0.173548
0.031395 0.043105 0.234056
0.031607 0.043318 0.294927
0.031821 0.043532 0.356087
0.032036 0.043746 0.417488
0.032251 0.043962 0.479096
0.032467 0.044177 0.540885
0.032683 0.044394 0.602835
0.032900 0.044611 0.664930
0.033118 0.044828 0.727157
0.033335 0.045046 0.789505
0.033554 0.045264 0.851965
0.033772 0.045483 0.914530
0.033927 0.045637 0.958736
0.032626 0.103171 0.003751
0.032810 0.103355 0.056309
0.033017 0.103562 0.115572
0.033227 0.103772 0.175592
0.033438 0.103983 0.236100
0.033651 0.104196 0.296970
0.033865 0.104409 0.358131
0.034079 0.104624 0.419532
0.034294 0.104839 0.481140
0.034510 0.105055 0.542929
0.034727 0.105272 0.604878
0.034944 0.105489 0.666973
0.035161 0.105706 0.729201
0.035379 0.105924 0.791549
0.035597 0.106142 0.854009
0.035816 0.106361 0.916573
0.035970 0.106515 0.960780
0.034699 0.164932 0.005825
0.034883 0.165115 0.058383
0.035090 0.165322 0.117645
0.035300 0.165532 0.177665
0.035511 0.165743 0.238173
0.035724 0.165956 0.299043
0.035938 0.166170 0.360204
0.036152 0.166384 0.421605
0.036367 0.166600 0.483213
0.036583 0.166816 0.545002
0.036800 0.167032 0.606952
0.037017 0.167249 0.669047
0.037234 0.167466 0.731274
0.037452 0.167684 0.793622
0.037670 0.167902 0.856082
0.037889 0.168121 0.918646
0.038043 0.168276 0.962853
0.036791 0.227234 0.007916
0.036974 0.227417 0.060474
0.037181 0.227624 0.119736
0.037391 0.227834 0.179756
0.037603 0.228046 0.240264
0.037815 0.228258 0.301135
0.038029 0.228472 0.362295
0.038244 0.228687 0.423696
0.038459 0.228902 0.485304
0.038675 0.229118 0.547093
0.038891 0.229334 0.609043
0.039108 0.229551 0.671138
0.039326 0.229769 0.733365
0.039543 0.229986 0.795713
0.039762 0.230205 0.858173
0.039980 0.230423 0.920738
0.040135 0.230578 0.964944
0.038895 0.289930 0.010020
0.039079 0.290114 0.062578
0.039286 0.290321 0.121841
0.039496 0.290531 0.181861
0.039707 0.290742 0.242369
0.039920 0.290955 0.303239
0.040134 0.291169 0.364400
0.040348 0.291383 0.425801
0.040563 0.291598 0.487409
0.040779 0.291814 0.549198
0.040996 0.292031 0.611148
0.041213 0.292248 0.673243
0.041430 0.292465 0.735470
0.041648 0.292683 0.797818
0.041866 0.292901 0.860278
0.042085 0.293120 0.922842
0.042239 0.293274 0.967049
0.041010 0.352938 0.012135
0.041194 0.353122 0.064694
0.041401 0.353329 0.123956
0.041611 0.353539 0.183976
0.041822 0.353750 0.244484
0.042035 0.353963 0.305354
0.042249 0.354176 0.366515
0.042463 0.354391 0.427916
0.042678 0.354606 0.489524
0.042894 0.354822 0.551313
0.043111 0.355039 0.613263
0.043328 0.355256 0.675358
0.043545 0.355473 0.737585
0.043763 0.355691 0.799933
0.043981 0.355909 0.862393
0.044200 0.356128 0.924957
0.044354 0.356282 0.969164
0.043134 0.416203 0.014259
0.043318 0.416387 0.066817
0.043525 0.416594 0.126080
0.043735 0.416804 0.186099
0.043946 0.417015 0.246607
0.044159 0.417228 0.307478
0.044372 0.417441 0.368638
0.044587 0.417656 0.430040
0.044802 0.417871 0.491648
0.045018 0.418087 0.553436
0.045234 0.418304 0.615386
0.045451 0.418520 0.677481
0.045669 0.418738 0.739708
0.045887 0.418956 0.802057
0.046105 0.419174 0.864517
0.046324 0.419393 0.927081
0.046478 0.419547 0.971287
0.045265 0.479687 0.016390
0.045449 0.479871 0.068948
0.045656 0.480078 0.128211
0.045866 0.480288 0.188230
0.046077 0.480499 0.248738
0.046290 0.480712 0.309609
0.046503 0.480926 0.370769
0.046718 0.481140 0.432171
0.046933 0.481356 0.493779
0.047149 0.481571 0.555567
0.047366 0.481788 0.617517
0.047583 0.482005 0.679612
0.047800 0.482222 0.741839
0.048018 0.482440 0.804188
0.048236 0.482658 0.866648
0.048455 0.482877 0.929212
0.048609 0.483031 0.973418
0.047403 0.543363 0.018528
0.047586 0.543547 0.071086
0.047793 0.543754 0.130348
0.048003 0.543964 0.190368
0.048214 0.544175 0.250876
0.048427 0.544388 0.311747
0.048641 0.544601 0.372907
0.048855 0.544816 0.434308
0.049071 0.545031 0.495916
0.049287 0.545247 0.557705
0.049503 0.545464 0.619655
0.049720 0.545681 0.681750
0.049937 0.545898 0.743977
0.050155 0.546116 0.806325
0.050373 0.546334 0.868785
0.050592 0.546553 0.931350
0.050747 0.546707 0.975556
0.049546 0.607209 0.020671
0.049729 0.607392 0.073229
0.049936 0.607599 0.132491
0.050146 0.607809 0.192511
0.050358 0.608021 0.253019
0.050570 0.608233 0.313890
0.050784 0.608447 0.375050
0.050999 0.608662 0.436451
0.051214 0.608877 0.498059
0.051430 0.609093 0.559848
0.051646 0.609309 0.621798
0.051863 0.609526 0.683893
0.052081 0.609744 0.746120
0.052298 0.609961 0.808468
0.052517 0.610180 0.870928
0.052735 0.610398 0.933493
0.052890 0.610553 0.977699
0.051694 0.671207 0.022819
0.051878 0.671391 0.075377
0.052085 0.671598 0.134640
0.052294 0.671807 0.194659
0.052506 0.672019 0.255167
0.052719 0.672231 0.316038
0.052932 0.672445 0.377198
0.053147 0.672660 0.438600
0.053362 0.672875 0.500207
0.053578 0.673091 0.561996
0.053794 0.673307 0.623946
0.054011 0.673524 0.686041
0.054229 0.673742 0.748268
0.054447 0.673960 0.810616
0.054665 0.674178 0.873077
0.054884 0.674396 0.935641
0.055038 0.674551 0.979847
0.053847 0.735344 0.024972
0.054031 0.735527 0.077530
0.054238 0.735735 0.136793
0.054447 0.735944 0.196812
0.054659 0.736156 0.257320
0.054871 0.736368 0.318191
0.055085 0.736582 0.379351
0.055300 0.736797 0.440752
0.055515 0.737012 0.502360
0.055731 0.737228 0.564149
0.055947 0.737444 0.626099
0.056164 0.737661 0.688194
0.056382 0.737879 0.750421
0.056600 0.738097 0.812769
0.056818 0.738315 0.875230
0.057036 0.738533 0.937794
0.057191 0.738688 0.982000
0.056004 0.799608 0.027129
0.056188 0.799791 0.079687
0.056395 0.799998 0.138950
0.056605 0.800208 0.198969
0.056816 0.800420 0.259477
0.057029 0.800632 0.320348
0.057242 0.800846 0.381508
0.057457 0.801061 0.442910
0.057672 0.801276 0.504518
0.057888 0.801492 0.566306
0.058105 0.801708 0.628256
0.058322 0.801925 0.690351
0.058539 0.802143 0.752578
0.058757 0.802360 0.814927
0.058975 0.802579 0.877387
0.059194 0.802797 0.939951
0.059348 0.802952 0.984157
0.058165 0.863989 0.029290
0.058349 0.864173 0.081848
0.058556 0.864380 0.141111
0.058766 0.864589 0.201131
0.058977 0.864801 0.261639
0.059190 0.865014 0.322509
0.059404 0.865227 0.383670
0.059618 0.865442 0.445071
0.059833 0.865657 0.506679
0.060049 0.865873 0.568468
0.060266 0.866089 0.630417
0.060483 0.866306 0.692512
0.060700 0.866524 0.754740
0.060918 0.866742 0.817088
0.061136 0.866960 0.879548
0.061355 0.867179 0.942112
0.061509 0.867333 0.986319
0.060330 0.928479 0.031455
0.060514 0.928663 0.084013
0.060721 0.928870 0.143276
0.060931 0.929080 0.203295
0.061142 0.929291 0.263803
0.061355 0.929504 0.324674
0.061568 0.929717 0.385834
0.061783 0.929932 0.447236
0.061998 0.930147 0.508844
0.062214 0.930363 0.570632
0.062430 0.930580 0.632582
0.062647 0.930797 0.694677
0.062865 0.931014 0.756904
0.063083 0.931232 0.819253
0.063301 0.931450 0.881713
0.063520 0.931669 0.944277
0.063674 0.931823 0.988483
0.062298 0.987107 0.033423
0.062482 0.987291 0.085981
0.062689 0.987498 0.145244
0.062899 0.987708 0.205263
0.063110 0.987919 0.265771
0.063323 0.988132 0.326642
0.063536 0.988346 0.387802
0.063751 0.988560 0.449204
0.063966 0.988775 0.510812
0.064182 0.988991 0.572600
0.064399 0.989208 0.634550
0.064615 0.989425 0.696645
0.064833 0.989642 0.758872
0.065051 0.989860 0.821221
0.065269 0.990078 0.883681
0.065488 0.990297 0.946245
0.065642 0.990451 0.990451
0.088346 0.000903 0.000903
0.088529 0.001086 0.053461
0.088736 0.001294 0.112723
0.088946 0.001503 0.172743
0.089157 0.001715 0.233251
0.089370 0.001927 0.294122
0.089584 0.002141 0.355282
0.089798 0.002356 0.416683
0.090014 0.002571 0.478291
0.090230 0.002787 0.540080
0.090446 0.003003 0.602030
0.090663 0.003220 0.664125
0.090880 0.003438 0.726352
0.091098 0.003656 0.788700
0.091317 0.003874 0.851160
0.091535 0.004092 0.913725
0.091690 0.004247 0.957931
0.089755 0.042898 0.002313
0.089939 0.043082 0.054871
0.090146 0.043289 0.114133
0.090356 0.043499 0.174153
0.090567 0.043710 0.234661
0.090780 0.043923 0.295532
0.090994 0.044136 0.356692
0.091208 0.044351 0.418093
0.091423 0.044566 0.479701
0.091639 0.044782 0.541490
0.091856 0.044999 0.603440
0.092073 0.045216 0.665535
0.092290 0.045433 0.727762
0.092508 0.045651 0.790110
0.092726 0.045869 0.852570
0.092945 0.046088 0.915134
0.093099 0.046242 0.959341
0.091799 0.103776 0.004356
0.091982 0.103960 0.056914
0.092190 0.104167 0.116177
0.092399 0.104376 0.176196
0.092611 0.104588 0.236704
0.092823 0.104800 0.297575
0.093037 0.105014 0.358735
0.093252 0.105229 0.420137
0.093467 0.105444 0.481744
0.093683 0.105660 0.543533
0.093899 0.105876 0.605483
0.094116 0.106093 0.667578
0.094334 0.106311 0.729805
0.094551 0.106529 0.792153
0.094770 0.106747 0.854614
0.094988 0.106965 0.917178
0.095143 0.107120 0.961384
0.093872 0.165536 0.006429
0.094056 0.165720 0.058987
0.094263 0.165927 0.118250
0.094472 0.166137 0.178269
0.094684 0.166348 0.238777
0.094897 0.166561 0.299648
0.095110 0.166775 0.360808
0.095325 0.166989 0.422210
0.095540 0.167204 0.483818
0.095756 0.167420 0.545606
0.095972 0.167637 0.607556
0.096189 0.167854 0.669651
0.096407 0.168071 0.731878
0.096625 0.168289 0.794227
0.096843 0.168507 0.856687
0.097062 0.168726 0.919251
0.097216 0.168880 0.963457
0.095963 0.227838 0.008521
0.096147 0.228022 0.061079
0.096354 0.228229 0.120341
0.096564 0.228439 0.180361
0.096775 0.228650 0.240869
0.096988 0.228863 0.301740
0.097202 0.229077 0.362900
0.097416 0.229291 0.424301
0.097631 0.229507 0.485909
0.097847 0.229722 0.547698
0.098064 0.229939 0.609648
0.098281 0.230156 0.671743
0.098498 0.230373 0.733970
0.098716 0.230591 0.796318
0.098934 0.230809 0.858778
0.099153 0.231028 0.921343
0.099307 0.231182 0.965549
0.098068 0.290535 0.010625
0.098252 0.290719 0.063183
0.098459 0.290926 0.122446
0.098668 0.291136 0.182465
0.098880 0.291347 0.242973
0.099092 0.291560 0.303844
0.099306 0.291773 0.365004
0.099521 0.291988 0.426406
0.099736 0.292203 0.488014
0.099952 0.292419 0.549802
0.100168 0.292636 0.611752
0.100385 0.292853 0.673847
0.100603 0.293070 0.736074
0.100821 0.293288 0.798423
0.101039 0.293506 0.860883
0.101257 0.293725 0.923447
0.101412 0.293879 0.967653
0.100183 0.353543 0.012740
0.100367 0.353727 0.065298
0.100574 0.353934 0.124561
0.100783 0.354143 0.184580
0.100995 0.354355 0.245088
0.101207 0.354567 0.305959
0.101421 0.354781 0.367119
0.101636 0.354996 0.428521
0.101851 0.355211 0.490129
0.102067 0.355427 0.551917
0.102283 0.355643 0.613867
0.102500 0.355860 0.675962
0.102718 0.356078 0.738189
0.102936 0.356296 0.800538
0.103154 0.356514 0.862998
0.103372 0.356732 0.925562
0.103527 0.356887 0.969768
0.102307 0.416808 0.014864
0.102490 0.416991 0.067422
0.102697 0.417199 0.126684
0.102907 0.417408 0.186704
0.103118 0.417620 0.247212
0.103331 0.417832 0.308083
0.103545 0.418046 0.369243
0.103759 0.418261 0.430644
0.103975 0.418476 0.492252
0.104191 0.418692 0.554041
0.104407 0.418908 0.615991
0.104624 0.419125 0.678086
0.104841 0.419343 0.740313
0.105059 0.419560 0.802661
0.105278 0.419779 0.865121
0.105496 0.419997 0.927686
0.105651 0.420152 0.971892
0.104438 0.480292 0.016995
0.104621 0.480476 0.069553
0.104828 0.480683 0.128815
0.105038 0.480893 0.188835
0.105249 0.481104 0.249343
0.105462 0.481317 0.310214
0.105676 0.481530 0.371374
0.105890 0.481745 0.432775
0.106106 0.481960 0.494383
0.106322 0.482176 0.556172
0.106538 0.482393 0.618122
0.106755 0.482610 0.680217
0.106972 0.482827 0.742444
0.107190 0.483045 0.804792
0.107409 0.483263 0.867253
0.107627 0.483482 0.929817
0.107782 0.483636 0.974023
0.106575 0.543968 0.019132
0.106759 0.544152 0.071690
0.106966 0.544359 0.130953
0.107176 0.544568 0.190973
0.107387 0.544780 0.251481
0.107600 0.544992 0.312351
0.107813 0.545206 0.373512
0.108028 0.545421 0.434913
0.108243 0.545636 0.496521
0.108459 0.545852 0.558310
0.108676 0.546068 0.620259
0.108892 0.546285 0.682354
0.109110 0.546503 0.744582
0.109328 0.546721 0.806930
0.109546 0.546939 0.869390
0.109765 0.547157 0.931954
0.109919 0.547312 0.976161
0.108718 0.607813 0.021276
0.108902 0.607997 0.073834
0.109109 0.608204 0.133096
0.109319 0.608414 0.193116
0.109530 0.608625 0.253624
0.109743 0.608838 0.314494
0.109957 0.609052 0.375655
0.110171 0.609266 0.437056
0.110386 0.609482 0.498664
0.110602 0.609697 0.560453
0.110819 0.609914 0.622403
0.111036 0.610131 0.684498
0.111253 0.610348 0.746725
0.111471 0.610566 0.809073
0.111689 0.610784 0.871533
0.111908 0.611003 0.934097
0.112062 0.611157 0.978304
0.110867 0.671812 0.023424
0.111050 0.671995 0.075982
0.111257 0.672202 0.135244
0.111467 0.672412 0.195264
0.111678 0.672624 0.255772
0.111891 0.672836 0.316643
0.112105 0.673050 0.377803
0.112319 0.673264 0.439204
0.112535 0.673480 0.500812
0.112751 0.673696 0.562601
0.112967 0.673912 0.624551
0.113184 0.674129 0.686646
0.113401 0.674346 0.748873
0.113619 0.674564 0.811221
0.113837 0.674783 0.873681
0.114056 0.675001 0.936246
0.114211 0.675156 0.980452
0.113019 0.735949 0.025577
0.113203 0.736132 0.078135
0.113410 0.736339 0.137397
0.113620 0.736549 0.197417
0.113831 0.736760 0.257925
0.114044 0.736973 0.318796
0.114258 0.737187 0.379956
0.114472 0.737401 0.441357
0.114688 0.737617 0.502965
0.114903 0.737832 0.564754
0.115120 0.738049 0.626704
0.115337 0.738266 0.688799
0.115554 0.738483 0.751026
0.115772 0.738701 0.813374
0.115990 0.738919 0.875834
0.116209 0.739138 0.938399
0.116363 0.739293 0.982605
0.115177 0.800212 0.027734
0.115360 0.800396 0.080292
0.115567 0.800603 0.139554
0.115777 0.800813 0.199574
0.115989 0.801024 0.260082
0.116201 0.801237 0.320953
0.116415 0.801451 0.382113
0.116629 0.801665 0.443514
0.116845 0.801881 0.505122
0.117061 0.802096 0.566911
0.117277 0.802313 0.628861
0.117494 0.802530 0.690956
0.117712 0.802747 0.753183
0.117929 0.802965 0.815531
0.118148 0.803183 0.877992
0.118366 0.803402 0.940556
0.118521 0.803556 0.984762
0.117338 0.864594 0.029895
0.117521 0.864777 0.082453
0.117729 0.864984 0.141716
0.117938 0.865194 0.201735
0.118150 0.865406 0.262243
0.118362 0.865618 0.323114
0.118576 0.865832 0.384274
0.118791 0.866047 0.445676
0.119006 0.866262 0.507283
0.119222 0.866478 0.569072
0.119438 0.866694 0.631022
0.119655 0.866911 0.693117
0.119873 0.867129 0.755344
0.120090 0.867346 0.817692
0.120309 0.867565 0.880153
0.120527 0.867783 0.942717
0.120682 0.867938 0.986923
0.119503 0.929084 0.032060
0.119686 0.929268 0.084618
0.119893 0.929475 0.143880
0.120103 0.929684 0.203900
0.120314 0.929896 0.264408
0.120527 0.930108 0.325279
0.120741 0.930322 0.386439
0.120955 0.930537 0.447840
0.121171 0.930752 0.509448
0.121387 0.930968 0.571237
0.121603 0.931184 0.633187
0.121820 0.931401 0.695282
0.122037 0.931619 0.757509
0.122255 0.931837 0.819857
0.122474 0.932055 0.882317
0.122692 0.932273 0.944882
0.122847 0.932428 0.989088
0.121471 0.987712 0.034028
0.121654 0.987896 0.086586
0.121861 0.988103 0.145848
0.122071 0.988313 0.205868
0.122282 0.988524 0.266376
0.122495 0.988737 0.327247
0.122709 0.988950 0.388407
0.122923 0.989165 0.449808
0.123139 0.989380 0.511416
0.123355 0.989596 0.573205
0.123571 0.989813 0.635155
0.123788 0.990030 0.697250
0.124005 0.990247 0.759477
0.124223 0.990465 0.821825
0.124442 0.990683 0.884286
0.124660 0.990902 0.946850
0.124815 0.991056 0.991056
0.148513 0.001518 0.001518
0.148697 0.001701 0.054076
0.148904 0.001908 0.113338
0.149113 0.002118 0.173358
0.149325 0.002330 0.233866
0.149538 0.002542 0.294737
0.149751 0.002756 0.355897
0.149966 0.002971 0.417298
0.150181 0.003186 0.478906
0.150397 0.003402 0.540695
0.150613 0.003618 0.602645
0.150830 0.003835 0.664740
0.151048 0.004053 0.726967
0.151266 0.004270 0.789315
0.151484 0.004489 0.851775
0.151703 0.004707 0.914340
0.151857 0.004862 0.958546
0.149923 0.043513 0.002927
