skills/editops-orchestrator/assets/grade/luts/moody_teal_v12.cube
TITLE "moody_teal_v12"
LUT_3D_SIZE 5
DOMAIN_MIN 0.0 0.0 0.0
DOMAIN_MAX 1.0 1.0 1.0
0.000000 0.000000 0.000000
0.001888 0.001888 0.214588
0.003997 0.003997 0.454280
0.006168 0.006168 0.701064
0.007904 0.007904 0.898430
0.015532 0.192186 0.015532
0.017419 0.194074 0.230119
0.019528 0.196183 0.469811
0.021699 0.198354 0.716595
0.023436 0.200090 0.913962
0.036286 0.449001 0.036286
0.038174 0.450889 0.250874
0.040283 0.452998 0.490566
0.042454 0.455169 0.737350
0.044190 0.456905 0.934716
0.057715 0.714158 0.057715
0.059603 0.716046 0.272303
0.061711 0.718155 0.511994
0.063883 0.720326 0.758779
0.065619 0.722062 0.956145
0.078296 0.968822 0.078296
0.080183 0.970710 0.292883
0.082292 0.972818 0.532575
0.084463 0.974990 0.779359
0.086200 0.976726 0.976726
0.144674 0.003685 0.003685
0.146562 0.005573 0.218273
0.148670 0.007681 0.457964
0.150841 0.009852 0.704749
0.152578 0.011589 0.902115
0.160205 0.195871 0.019216
0.162093 0.197759 0.233804
0.164202 0.199867 0.473496
0.166373 0.202038 0.720280
0.168109 0.203775 0.917647
0.180960 0.452686 0.039971
0.182848 0.454574 0.254559
0.184956 0.456683 0.494250
0.187128 0.458854 0.741035
0.188864 0.460590 0.938401
0.202389 0.717843 0.061400
0.204276 0.719731 0.275988
0.206385 0.721840 0.515679
0.208556 0.724011 0.762464
0.210293 0.725747 0.959830
0.222969 0.972507 0.081980
0.224857 0.974395 0.296568
0.226966 0.976503 0.536260
0.229137 0.978674 0.783044
0.230873 0.980411 0.980411
0.385133 0.009809 0.009809
0.387021 0.011697 0.224397
0.389130 0.013806 0.464089
0.391301 0.015977 0.710873
0.393037 0.017713 0.908239
0.400665 0.201995 0.025341
0.402553 0.203883 0.239929
0.404661 0.205992 0.479620
0.406832 0.208163 0.726405
0.408569 0.209899 0.923771
0.421419 0.458810 0.046095
0.423307 0.460698 0.260683
0.425416 0.462807 0.500375
0.427587 0.464978 0.747159
0.429323 0.466714 0.944526
0.442848 0.723967 0.067524
0.444736 0.725855 0.282112
0.446845 0.727964 0.521804
0.449016 0.730135 0.768588
0.450752 0.731871 0.965954
0.463429 0.978631 0.088105
0.465317 0.980519 0.302693
0.467425 0.982628 0.542384
0.469596 0.984799 0.789169
0.471333 0.986535 0.986535
0.634262 0.016154 0.016154
0.636149 0.018042 0.230742
0.638258 0.020151 0.470434
0.640429 0.022322 0.717218
0.642166 0.024058 0.914585
0.649793 0.208340 0.031686
0.651681 0.210228 0.246274
0.653790 0.212337 0.485965
0.655961 0.214508 0.732750
0.657697 0.216244 0.930116
0.670548 0.465156 0.052441
0.672436 0.467043 0.267028
0.674544 0.469152 0.506720
0.676715 0.471323 0.753504
0.678452 0.473060 0.950871
0.691976 0.730313 0.073869
0.693864 0.732200 0.288457
0.695973 0.734309 0.528149
0.698144 0.736480 0.774933
0.699880 0.738217 0.972300
0.712557 0.984976 0.094450
0.714445 0.986864 0.309038
0.716554 0.988973 0.548730
0.718725 0.991144 0.795514
0.720461 0.992880 0.992880
0.888710 0.022635 0.022635
0.890598 0.024523 0.237223
0.892707 0.026632 0.476915
0.894878 0.028803 0.723699
0.896614 0.030539 0.921065
0.904242 0.214821 0.038167
0.906130 0.216709 0.252755
0.908238 0.218818 0.492446
0.910410 0.220989 0.739231
0.912146 0.222725 0.936597
0.924996 0.471636 0.058921
0.926884 0.473524 0.273509
0.928993 0.475633 0.513201
0.931164 0.477804 0.759985
0.932900 0.479540 0.957352
0.946425 0.736793 0.080350
0.948313 0.738681 0.294938
0.950422 0.740790 0.534630
0.952593 0.742961 0.781414
0.954329 0.744697 0.978780
0.967006 0.991457 0.100931
0.968894 0.993345 0.315519
0.971002 0.995454 0.555210
0.973174 0.997625 0.801995
0.974910 0.999361 0.999361
