skills/editops-orchestrator/assets/grade/luts/moody_teal_v14.cube
TITLE "moody_teal_v14"
LUT_3D_SIZE 17
DOMAIN_MIN 0.0 0.0 0.0
DOMAIN_MAX 1.0 1.0 1.0
0.000000 0.000000 0.000000
0.000424 0.000424 0.042620
0.000966 0.000966 0.097133
0.001527 0.001527 0.153573
0.002100 0.002100 0.211260
0.002683 0.002683 0.269879
0.003273 0.003273 0.329245
0.003870 0.003870 0.389237
0.004472 0.004472 0.449767
0.005078 0.005078 0.510772
0.005689 0.005689 0.572199
0.006304 0.006304 0.634009
0.006922 0.006922 0.696168
0.007543 0.007543 0.758648
0.008167 0.008167 0.821427
0.008794 0.008794 0.884482
0.008816 0.008816 0.886711
0.000640 0.007072 0.000640
0.001064 0.007496 0.043259
0.001606 0.008038 0.097773
0.002167 0.008599 0.154213
0.002740 0.009172 0.211900
0.003323 0.009755 0.270518
0.003913 0.010345 0.329885
0.004510 0.010942 0.389876
0.005112 0.011544 0.450407
0.005718 0.012150 0.511411
0.006329 0.012761 0.572839
0.006943 0.013375 0.634649
0.007561 0.013993 0.696808
0.008183 0.014615 0.759288
0.008807 0.015239 0.822066
0.009434 0.015866 0.885122
0.009456 0.015888 0.887351
0.005742 0.063459 0.005742
0.006165 0.063883 0.048361
0.006707 0.064425 0.102875
0.007268 0.064986 0.159315
0.007842 0.065560 0.217001
0.008425 0.066143 0.275620
0.009015 0.066733 0.334986
0.009611 0.067329 0.394978
0.010213 0.067931 0.455509
0.010820 0.068538 0.516513
0.011431 0.069148 0.577940
0.012045 0.069763 0.639750
0.012663 0.070381 0.701909
0.013284 0.071002 0.764390
0.013908 0.071626 0.827168
0.014535 0.072253 0.890224
0.014558 0.072275 0.892452
0.011178 0.123541 0.011178
0.011601 0.123965 0.053797
0.012143 0.124507 0.108311
0.012704 0.125068 0.164751
0.013278 0.125642 0.222437
0.013861 0.126224 0.281056
0.014451 0.126815 0.340422
0.015047 0.127411 0.400414
0.015649 0.128013 0.460945
0.016256 0.128619 0.521949
0.016867 0.129230 0.583376
0.017481 0.129845 0.645186
0.018099 0.130463 0.707345
0.018720 0.131084 0.769826
0.019344 0.131708 0.832604
0.019971 0.132335 0.895660
0.019994 0.132357 0.897888
0.016777 0.185426 0.016777
0.017200 0.185849 0.059396
0.017742 0.186391 0.113910
0.018303 0.186953 0.170350
0.018877 0.187526 0.228036
0.019460 0.188109 0.286655
0.020050 0.188699 0.346021
0.020647 0.189296 0.406013
0.021248 0.189897 0.466544
0.021855 0.190504 0.527548
0.022466 0.191115 0.588976
0.023080 0.191729 0.650785
0.023698 0.192347 0.712944
0.024319 0.192968 0.775425
0.024943 0.193593 0.838203
0.025570 0.194219 0.901259
0.025593 0.194242 0.903487
0.022487 0.248544 0.022487
0.022911 0.248968 0.065107
0.023453 0.249510 0.119620
0.024014 0.250071 0.176060
0.024588 0.250645 0.233747
0.025171 0.251227 0.292366
0.025761 0.251818 0.351732
0.026357 0.252414 0.411724
0.026959 0.253016 0.472254
0.027566 0.253622 0.533259
0.028176 0.254233 0.594686
0.028791 0.254848 0.656496
0.029409 0.255466 0.718655
0.030030 0.256087 0.781136
0.030654 0.256711 0.843914
0.031281 0.257338 0.906970
0.031303 0.257360 0.909198
0.028284 0.312608 0.028284
0.028707 0.313032 0.070903
0.029249 0.313574 0.125417
0.029810 0.314135 0.181857
0.030384 0.314709 0.239543
0.030967 0.315291 0.298162
0.031557 0.315882 0.357528
0.032153 0.316478 0.417520
0.032755 0.317080 0.478051
0.033362 0.317687 0.539055
0.033973 0.318297 0.600482
0.034587 0.318912 0.662292
0.035205 0.319530 0.724451
0.035826 0.320151 0.786932
0.036450 0.320775 0.849710
0.037077 0.321402 0.912766
0.037100 0.321424 0.914994
0.034149 0.377442 0.034149
0.034573 0.377866 0.076769
0.035115 0.378408 0.131283
0.035676 0.378969 0.187722
0.036250 0.379542 0.245409
0.036833 0.380125 0.304028
0.037423 0.380715 0.363394
0.038019 0.381312 0.423386
0.038621 0.381914 0.483917
0.039228 0.382520 0.544921
0.039838 0.383131 0.606348
0.040453 0.383746 0.668158
0.041071 0.384364 0.730317
0.041692 0.384985 0.792798
0.042316 0.385609 0.855576
0.042943 0.386236 0.918632
0.042965 0.386258 0.920860
0.040074 0.442926 0.040074
0.040498 0.443350 0.082694
0.041040 0.443892 0.137207
0.041601 0.444453 0.193647
0.042175 0.445026 0.251334
0.042757 0.445609 0.309953
0.043348 0.446199 0.369319
0.043944 0.446796 0.429311
0.044546 0.447398 0.489841
0.045152 0.448004 0.550846
0.045763 0.448615 0.612273
0.046378 0.449229 0.674083
0.046996 0.449847 0.736242
0.047617 0.450469 0.798723
0.048241 0.451093 0.861501
0.048868 0.451720 0.924557
0.048890 0.451742 0.926785
0.046050 0.508974 0.046050
0.046474 0.509397 0.088670
0.047016 0.509939 0.143183
0.047577 0.510500 0.199623
0.048150 0.511074 0.257310
0.048733 0.511657 0.315928
0.049323 0.512247 0.375295
0.049920 0.512844 0.435287
0.050522 0.513445 0.495817
0.051128 0.514052 0.556821
0.051739 0.514663 0.618249
0.052353 0.515277 0.680059
0.052971 0.515895 0.742218
0.053593 0.516516 0.804698
0.054217 0.517141 0.867477
0.054844 0.517767 0.930532
0.054866 0.517790 0.932761
0.052071 0.575519 0.052071
0.052494 0.575943 0.094690
0.053036 0.576485 0.149204
0.053598 0.577046 0.205644
0.054171 0.577620 0.263331
0.054754 0.578203 0.321949
0.055344 0.578793 0.381316
0.055941 0.579389 0.441307
0.056542 0.579991 0.501838
0.057149 0.580598 0.562842
0.057760 0.581208 0.624270
0.058374 0.581823 0.686080
0.058992 0.582441 0.748239
0.059613 0.583062 0.810719
0.060238 0.583686 0.873497
0.060865 0.584313 0.936553
0.060887 0.584335 0.938781
0.058132 0.642512 0.058132
0.058556 0.642936 0.100752
0.059098 0.643478 0.155265
0.059659 0.644039 0.211705
0.060232 0.644612 0.269392
0.060815 0.645195 0.328011
0.061405 0.645785 0.387377
0.062002 0.646382 0.447369
0.062604 0.646984 0.507899
0.063210 0.647590 0.568903
0.063821 0.648201 0.630331
0.064435 0.648815 0.692141
0.065053 0.649433 0.754300
0.065675 0.650055 0.816780
0.066299 0.650679 0.879559
0.066926 0.651306 0.942614
0.066948 0.651328 0.944843
0.064230 0.709909 0.064230
0.064654 0.710333 0.106849
0.065196 0.710875 0.161363
0.065757 0.711436 0.217803
0.066330 0.712010 0.275490
0.066913 0.712593 0.334108
0.067503 0.713183 0.393475
0.068100 0.713779 0.453466
0.068702 0.714381 0.513997
0.069308 0.714988 0.575001
0.069919 0.715598 0.636429
0.070533 0.716213 0.698239
0.071151 0.716831 0.760398
0.071773 0.717452 0.822878
0.072397 0.718076 0.885656
0.073024 0.718703 0.948712
0.073046 0.718725 0.950941
0.070361 0.777678 0.070361
0.070785 0.778101 0.112981
0.071327 0.778643 0.167494
0.071888 0.779205 0.223934
0.072462 0.779778 0.281621
0.073044 0.780361 0.340240
0.073635 0.780951 0.399606
0.074231 0.781548 0.459598
0.074833 0.782149 0.520128
0.075439 0.782756 0.581133
0.076050 0.783367 0.642560
0.076665 0.783981 0.704370
0.077283 0.784599 0.766529
0.077904 0.785220 0.829010
0.078528 0.785845 0.891788
0.079155 0.786472 0.954844
0.079177 0.786494 0.957072
0.076524 0.845788 0.076524
0.076947 0.846212 0.119143
0.077489 0.846754 0.173657
0.078050 0.847315 0.230097
0.078624 0.847888 0.287783
0.079207 0.848471 0.346402
0.079797 0.849061 0.405768
0.080393 0.849658 0.465760
0.080995 0.850260 0.526291
0.081602 0.850866 0.587295
0.082213 0.851477 0.648722
0.082827 0.852091 0.710532
0.083445 0.852709 0.772691
0.084066 0.853331 0.835172
0.084690 0.853955 0.897950
0.085317 0.854582 0.961006
0.085340 0.854604 0.963234
0.082715 0.914215 0.082715
0.083138 0.914639 0.125334
0.083680 0.915181 0.179848
0.084241 0.915742 0.236288
0.084815 0.916316 0.293974
0.085398 0.916899 0.352593
0.085988 0.917489 0.411959
0.086585 0.918085 0.471951
0.087186 0.918687 0.532482
0.087793 0.919294 0.593486
0.088404 0.919904 0.654914
0.089018 0.920519 0.716723
0.089636 0.921137 0.778882
0.090257 0.921758 0.841363
0.090882 0.922382 0.904141
0.091508 0.923009 0.967197
0.091531 0.923031 0.969425
0.087330 0.965224 0.087330
0.087753 0.965648 0.129949
0.088295 0.966190 0.184463
0.088857 0.966751 0.240903
0.089430 0.967325 0.298589
0.090013 0.967908 0.357208
0.090603 0.968498 0.416574
0.091200 0.969094 0.476566
0.091801 0.969696 0.537097
0.092408 0.970303 0.598101
0.093019 0.970913 0.659529
0.093633 0.971528 0.721338
0.094251 0.972146 0.783498
0.094872 0.972767 0.845978
0.095497 0.973391 0.908756
0.096124 0.974018 0.971812
0.096146 0.974040 0.974040
0.000000 0.000000 0.000000
0.000424 0.000424 0.042620
0.000966 0.000966 0.097133
0.001527 0.001527 0.153573
0.002100 0.002100 0.211260
0.002683 0.002683 0.269879
0.003273 0.003273 0.329245
0.003870 0.003870 0.389237
0.004472 0.004472 0.449767
0.005078 0.005078 0.510772
0.005689 0.005689 0.572199
0.006304 0.006304 0.634009
0.006922 0.006922 0.696168
0.007543 0.007543 0.758648
0.008167 0.008167 0.821427
0.008794 0.008794 0.884482
0.008816 0.008816 0.886711
0.000640 0.007072 0.000640
0.001064 0.007496 0.043259
0.001606 0.008038 0.097773
0.002167 0.008599 0.154213
0.002740 0.009172 0.211900
0.003323 0.009755 0.270518
0.003913 0.010345 0.329885
0.004510 0.010942 0.389876
0.005112 0.011544 0.450407
0.005718 0.012150 0.511411
0.006329 0.012761 0.572839
0.006943 0.013375 0.634649
0.007561 0.013993 0.696808
0.008183 0.014615 0.759288
0.008807 0.015239 0.822066
0.009434 0.015866 0.885122
0.009456 0.015888 0.887351
0.005742 0.063459 0.005742
0.006165 0.063883 0.048361
0.006707 0.064425 0.102875
0.007268 0.064986 0.159315
0.007842 0.065560 0.217001
0.008425 0.066143 0.275620
0.009015 0.066733 0.334986
0.009611 0.067329 0.394978
0.010213 0.067931 0.455509
0.010820 0.068538 0.516513
0.011431 0.069148 0.577940
0.012045 0.069763 0.639750
0.012663 0.070381 0.701909
0.013284 0.071002 0.764390
0.013908 0.071626 0.827168
0.014535 0.072253 0.890224
0.014558 0.072275 0.892452
0.011178 0.123541 0.011178
0.011601 0.123965 0.053797
0.012143 0.124507 0.108311
0.012704 0.125068 0.164751
0.013278 0.125642 0.222437
0.013861 0.126224 0.281056
0.014451 0.126815 0.340422
0.015047 0.127411 0.400414
0.015649 0.128013 0.460945
0.016256 0.128619 0.521949
0.016867 0.129230 0.583376
0.017481 0.129845 0.645186
0.018099 0.130463 0.707345
0.018720 0.131084 0.769826
0.019344 0.131708 0.832604
0.019971 0.132335 0.895660
0.019994 0.132357 0.897888
0.016777 0.185426 0.016777
0.017200 0.185849 0.059396
0.017742 0.186391 0.113910
0.018303 0.186953 0.170350
0.018877 0.187526 0.228036
0.019460 0.188109 0.286655
0.020050 0.188699 0.346021
0.020647 0.189296 0.406013
0.021248 0.189897 0.466544
0.021855 0.190504 0.527548
0.022466 0.191115 0.588976
0.023080 0.191729 0.650785
0.023698 0.192347 0.712944
0.024319 0.192968 0.775425
0.024943 0.193593 0.838203
0.025570 0.194219 0.901259
0.025593 0.194242 0.903487
0.022487 0.248544 0.022487
0.022911 0.248968 0.065107
0.023453 0.249510 0.119620
0.024014 0.250071 0.176060
0.024588 0.250645 0.233747
0.025171 0.251227 0.292366
0.025761 0.251818 0.351732
0.026357 0.252414 0.411724
0.026959 0.253016 0.472254
0.027566 0.253622 0.533259
0.028176 0.254233 0.594686
0.028791 0.254848 0.656496
0.029409 0.255466 0.718655
0.030030 0.256087 0.781136
0.030654 0.256711 0.843914
0.031281 0.257338 0.906970
0.031303 0.257360 0.909198
0.028284 0.312608 0.028284
0.028707 0.313032 0.070903
0.029249 0.313574 0.125417
0.029810 0.314135 0.181857
0.030384 0.314709 0.239543
0.030967 0.315291 0.298162
0.031557 0.315882 0.357528
0.032153 0.316478 0.417520
0.032755 0.317080 0.478051
0.033362 0.317687 0.539055
0.033973 0.318297 0.600482
0.034587 0.318912 0.662292
0.035205 0.319530 0.724451
0.035826 0.320151 0.786932
0.036450 0.320775 0.849710
0.037077 0.321402 0.912766
0.037100 0.321424 0.914994
0.034149 0.377442 0.034149
0.034573 0.377866 0.076769
0.035115 0.378408 0.131283
0.035676 0.378969 0.187722
0.036250 0.379542 0.245409
0.036833 0.380125 0.304028
0.037423 0.380715 0.363394
0.038019 0.381312 0.423386
0.038621 0.381914 0.483917
0.039228 0.382520 0.544921
0.039838 0.383131 0.606348
0.040453 0.383746 0.668158
0.041071 0.384364 0.730317
0.041692 0.384985 0.792798
0.042316 0.385609 0.855576
0.042943 0.386236 0.918632
0.042965 0.386258 0.920860
0.040074 0.442926 0.040074
0.040498 0.443350 0.082694
0.041040 0.443892 0.137207
0.041601 0.444453 0.193647
0.042175 0.445026 0.251334
0.042757 0.445609 0.309953
0.043348 0.446199 0.369319
0.043944 0.446796 0.429311
0.044546 0.447398 0.489841
0.045152 0.448004 0.550846
0.045763 0.448615 0.612273
0.046378 0.449229 0.674083
0.046996 0.449847 0.736242
0.047617 0.450469 0.798723
0.048241 0.451093 0.861501
0.048868 0.451720 0.924557
0.048890 0.451742 0.926785
0.046050 0.508974 0.046050
0.046474 0.509397 0.088670
0.047016 0.509939 0.143183
0.047577 0.510500 0.199623
0.048150 0.511074 0.257310
0.048733 0.511657 0.315928
0.049323 0.512247 0.375295
0.049920 0.512844 0.435287
0.050522 0.513445 0.495817
0.051128 0.514052 0.556821
0.051739 0.514663 0.618249
0.052353 0.515277 0.680059
0.052971 0.515895 0.742218
0.053593 0.516516 0.804698
0.054217 0.517141 0.867477
0.054844 0.517767 0.930532
0.054866 0.517790 0.932761
0.052071 0.575519 0.052071
0.052494 0.575943 0.094690
0.053036 0.576485 0.149204
0.053598 0.577046 0.205644
0.054171 0.577620 0.263331
0.054754 0.578203 0.321949
0.055344 0.578793 0.381316
0.055941 0.579389 0.441307
0.056542 0.579991 0.501838
0.057149 0.580598 0.562842
0.057760 0.581208 0.624270
0.058374 0.581823 0.686080
0.058992 0.582441 0.748239
0.059613 0.583062 0.810719
0.060238 0.583686 0.873497
0.060865 0.584313 0.936553
0.060887 0.584335 0.938781
0.058132 0.642512 0.058132
0.058556 0.642936 0.100752
0.059098 0.643478 0.155265
0.059659 0.644039 0.211705
0.060232 0.644612 0.269392
0.060815 0.645195 0.328011
0.061405 0.645785 0.387377
0.062002 0.646382 0.447369
0.062604 0.646984 0.507899
0.063210 0.647590 0.568903
0.063821 0.648201 0.630331
0.064435 0.648815 0.692141
0.065053 0.649433 0.754300
0.065675 0.650055 0.816780
0.066299 0.650679 0.879559
0.066926 0.651306 0.942614
0.066948 0.651328 0.944843
0.064230 0.709909 0.064230
0.064654 0.710333 0.106849
0.065196 0.710875 0.161363
0.065757 0.711436 0.217803
0.066330 0.712010 0.275490
0.066913 0.712593 0.334108
0.067503 0.713183 0.393475
0.068100 0.713779 0.453466
0.068702 0.714381 0.513997
0.069308 0.714988 0.575001
0.069919 0.715598 0.636429
0.070533 0.716213 0.698239
0.071151 0.716831 0.760398
0.071773 0.717452 0.822878
0.072397 0.718076 0.885656
0.073024 0.718703 0.948712
0.073046 0.718725 0.950941
0.070361 0.777678 0.070361
0.070785 0.778101 0.112981
0.071327 0.778643 0.167494
0.071888 0.779205 0.223934
0.072462 0.779778 0.281621
0.073044 0.780361 0.340240
0.073635 0.780951 0.399606
0.074231 0.781548 0.459598
0.074833 0.782149 0.520128
0.075439 0.782756 0.581133
0.076050 0.783367 0.642560
0.076665 0.783981 0.704370
0.077283 0.784599 0.766529
0.077904 0.785220 0.829010
0.078528 0.785845 0.891788
0.079155 0.786472 0.954844
0.079177 0.786494 0.957072
0.076524 0.845788 0.076524
0.076947 0.846212 0.119143
0.077489 0.846754 0.173657
0.078050 0.847315 0.230097
0.078624 0.847888 0.287783
0.079207 0.848471 0.346402
0.079797 0.849061 0.405768
0.080393 0.849658 0.465760
0.080995 0.850260 0.526291
0.081602 0.850866 0.587295
0.082213 0.851477 0.648722
0.082827 0.852091 0.710532
0.083445 0.852709 0.772691
0.084066 0.853331 0.835172
0.084690 0.853955 0.897950
0.085317 0.854582 0.961006
0.085340 0.854604 0.963234
0.082715 0.914215 0.082715
0.083138 0.914639 0.125334
0.083680 0.915181 0.179848
0.084241 0.915742 0.236288
0.084815 0.916316 0.293974
0.085398 0.916899 0.352593
0.085988 0.917489 0.411959
0.086585 0.918085 0.471951
0.087186 0.918687 0.532482
0.087793 0.919294 0.593486
0.088404 0.919904 0.654914
0.089018 0.920519 0.716723
0.089636 0.921137 0.778882
0.090257 0.921758 0.841363
0.090882 0.922382 0.904141
0.091508 0.923009 0.967197
0.091531 0.923031 0.969425
0.087330 0.965224 0.087330
0.087753 0.965648 0.129949
0.088295 0.966190 0.184463
0.088857 0.966751 0.240903
0.089430 0.967325 0.298589
0.090013 0.967908 0.357208
0.090603 0.968498 0.416574
0.091200 0.969094 0.476566
0.091801 0.969696 0.537097
0.092408 0.970303 0.598101
0.093019 0.970913 0.659529
0.093633 0.971528 0.721338
0.094251 0.972146 0.783498
0.094872 0.972767 0.845978
0.095497 0.973391 0.908756
0.096124 0.974018 0.971812
0.096146 0.974040 0.974040
0.021409 0.000615 0.000615
0.021833 0.001039 0.043234
0.022375 0.001581 0.097748
0.022936 0.002142 0.154188
0.023509 0.002715 0.211875
0.024092 0.003298 0.270493
0.024682 0.003888 0.329860
0.025279 0.004485 0.389851
0.025881 0.005087 0.450382
0.026487 0.005693 0.511386
0.027098 0.006304 0.572814
0.027713 0.006918 0.634624
0.028331 0.007536 0.696783
0.028952 0.008158 0.759263
0.029576 0.008782 0.822042
0.030203 0.009409 0.885097
0.030225 0.009431 0.887326
0.022049 0.007687 0.001255
0.022473 0.008110 0.043874
0.023015 0.008652 0.098388
0.023576 0.009214 0.154828
0.024149 0.009787 0.212515
0.024732 0.010370 0.271133
0.025322 0.010960 0.330500
0.025919 0.011557 0.390491
0.026521 0.012158 0.451022
0.027127 0.012765 0.512026
0.027738 0.013376 0.573454
0.028352 0.013990 0.635264
0.028970 0.014608 0.697423
0.029592 0.015229 0.759903
0.030216 0.015854 0.822681
0.030843 0.016481 0.885737
0.030865 0.016503 0.887965
0.027151 0.064074 0.006356
0.027574 0.064498 0.048976
0.028116 0.065040 0.103490
0.028677 0.065601 0.159929
0.029251 0.066175 0.217616
0.029834 0.066758 0.276235
0.030424 0.067348 0.335601
0.031020 0.067944 0.395593
0.031622 0.068546 0.456124
0.032229 0.069153 0.517128
0.032840 0.069763 0.578555
0.033454 0.070378 0.640365
0.034072 0.070996 0.702524
0.034693 0.071617 0.765005
0.035317 0.072241 0.827783
0.035944 0.072868 0.890839
0.035967 0.072890 0.893067
0.032586 0.124156 0.011792
0.033010 0.124580 0.054412
0.033552 0.125122 0.108926
0.034113 0.125683 0.165365
0.034687 0.126256 0.223052
0.035270 0.126839 0.281671
0.035860 0.127430 0.341037
0.036456 0.128026 0.401029
0.037058 0.128628 0.461560
0.037665 0.129234 0.522564
0.038275 0.129845 0.583991
0.038890 0.130460 0.645801
0.039508 0.131078 0.707960
0.040129 0.131699 0.770441
0.040753 0.132323 0.833219
0.041380 0.132950 0.896275
0.041402 0.132972 0.898503
0.038186 0.186041 0.017391
0.038609 0.186464 0.060011
0.039151 0.187006 0.114525
0.039712 0.187567 0.170964
0.040286 0.188141 0.228651
0.040869 0.188724 0.287270
0.041459 0.189314 0.346636
0.042055 0.189910 0.406628
0.042657 0.190512 0.467159
0.043264 0.191119 0.528163
0.043875 0.191730 0.589590
0.044489 0.192344 0.651400
0.045107 0.192962 0.713559
0.045728 0.193583 0.776040
0.046352 0.194207 0.838818
0.046979 0.194834 0.901874
0.047002 0.194857 0.904102
0.043896 0.249159 0.023102
0.044320 0.249583 0.065722
0.044862 0.250125 0.120235
0.045423 0.250686 0.176675
0.045997 0.251259 0.234362
0.046579 0.251842 0.292981
0.047170 0.252432 0.352347
0.047766 0.253029 0.412339
0.048368 0.253631 0.472869
0.048975 0.254237 0.533874
0.049585 0.254848 0.595301
0.050200 0.255463 0.657111
0.050818 0.256081 0.719270
0.051439 0.256702 0.781751
0.052063 0.257326 0.844529
0.052690 0.257953 0.907585
0.052712 0.257975 0.909813
0.049693 0.313223 0.028898
0.050116 0.313647 0.071518
0.050658 0.314189 0.126032
0.051219 0.314750 0.182471
0.051793 0.315324 0.240158
0.052376 0.315906 0.298777
0.052966 0.316497 0.358143
0.053562 0.317093 0.418135
0.054164 0.317695 0.478666
0.054771 0.318301 0.539670
0.055382 0.318912 0.601097
0.055996 0.319527 0.662907
0.056614 0.320145 0.725066
0.057235 0.320766 0.787547
0.057859 0.321390 0.850325
0.058486 0.322017 0.913381
0.058509 0.322039 0.915609
0.055558 0.378057 0.034764
0.055982 0.378481 0.077384
0.056524 0.379023 0.131897
0.057085 0.379584 0.188337
0.057659 0.380157 0.246024
0.058242 0.380740 0.304643
0.058832 0.381330 0.364009
0.059428 0.381927 0.424001
0.060030 0.382529 0.484532
0.060637 0.383135 0.545536
0.061247 0.383746 0.606963
0.061862 0.384360 0.668773
0.062480 0.384978 0.730932
0.063101 0.385600 0.793413
0.063725 0.386224 0.856191
0.064352 0.386851 0.919247
0.064374 0.386873 0.921475
0.061483 0.443541 0.040689
0.061907 0.443965 0.083309
0.062449 0.444507 0.137822
0.063010 0.445068 0.194262
0.063584 0.445641 0.251949
0.064166 0.446224 0.310568
0.064757 0.446814 0.369934
0.065353 0.447411 0.429926
0.065955 0.448013 0.490456
0.066561 0.448619 0.551461
0.067172 0.449230 0.612888
0.067787 0.449844 0.674698
0.068405 0.450462 0.736857
0.069026 0.451084 0.799337
0.069650 0.451708 0.862116
0.070277 0.452335 0.925172
0.070299 0.452357 0.927400
0.067459 0.509588 0.046665
0.067883 0.510012 0.089284
0.068425 0.510554 0.143798
0.068986 0.511115 0.200238
0.069559 0.511689 0.257925
0.070142 0.512272 0.316543
0.070732 0.512862 0.375910
0.071329 0.513458 0.435901
0.071931 0.514060 0.496432
0.072537 0.514667 0.557436
0.073148 0.515277 0.618864
0.073762 0.515892 0.680674
0.074380 0.516510 0.742833
0.075002 0.517131 0.805313
0.075626 0.517755 0.868091
0.076253 0.518382 0.931147
0.076275 0.518404 0.933376
0.073480 0.576134 0.052686
0.073903 0.576558 0.095305
0.074445 0.577100 0.149819
0.075007 0.577661 0.206259
0.075580 0.578235 0.263945
0.076163 0.578818 0.322564
0.076753 0.579408 0.381930
0.077350 0.580004 0.441922
0.077951 0.580606 0.502453
0.078558 0.581213 0.563457
0.079169 0.581823 0.624885
0.079783 0.582438 0.686694
0.080401 0.583056 0.748853
0.081022 0.583677 0.811334
0.081647 0.584301 0.874112
0.082274 0.584928 0.937168
0.082296 0.584950 0.939396
0.079541 0.643127 0.058747
0.079965 0.643551 0.101366
0.080507 0.644093 0.155880
0.081068 0.644654 0.212320
0.081641 0.645227 0.270007
0.082224 0.645810 0.328625
0.082814 0.646400 0.387992
0.083411 0.646997 0.447983
0.084013 0.647599 0.508514
0.084619 0.648205 0.569518
0.085230 0.648816 0.630946
0.085844 0.649430 0.692756
0.086462 0.650048 0.754915
0.087084 0.650670 0.817395
0.087708 0.651294 0.880173
0.088335 0.651921 0.943229
0.088357 0.651943 0.945458
0.085639 0.710524 0.064845
0.086062 0.710948 0.107464
0.086604 0.711490 0.161978
0.087166 0.712051 0.218418
0.087739 0.712625 0.276104
0.088322 0.713208 0.334723
0.088912 0.713798 0.394089
0.089509 0.714394 0.454081
0.090111 0.714996 0.514612
0.090717 0.715603 0.575616
0.091328 0.716213 0.637044
0.091942 0.716828 0.698853
0.092560 0.717446 0.761013
0.093182 0.718067 0.823493
0.093806 0.718691 0.886271
0.094433 0.719318 0.949327
0.094455 0.719340 0.951555
0.091770 0.778293 0.070976
0.092194 0.778716 0.113596
0.092736 0.779258 0.168109
0.093297 0.779819 0.224549
0.093871 0.780393 0.282236
0.094453 0.780976 0.340855
0.095044 0.781566 0.400221
0.095640 0.782163 0.460213
0.096242 0.782764 0.520743
0.096848 0.783371 0.581748
0.097459 0.783982 0.643175
0.098074 0.784596 0.704985
0.098692 0.785214 0.767144
0.099313 0.785835 0.829624
0.099937 0.786459 0.892403
0.100564 0.787086 0.955459
0.100586 0.787109 0.957687
0.097932 0.846403 0.077138
0.098356 0.846826 0.119758
0.098898 0.847368 0.174272
0.099459 0.847930 0.230711
0.100033 0.848503 0.288398
0.100616 0.849086 0.347017
0.101206 0.849676 0.406383
0.101802 0.850273 0.466375
0.102404 0.850874 0.526906
0.103011 0.851481 0.587910
0.103622 0.852092 0.649337
0.104236 0.852706 0.711147
0.104854 0.853324 0.773306
0.105475 0.853945 0.835787
0.106099 0.854570 0.898565
0.106726 0.855197 0.961621
0.106748 0.855219 0.963849
0.104124 0.914830 0.083329
0.104547 0.915254 0.125949
0.105089 0.915796 0.180463
0.105650 0.916357 0.236902
0.106224 0.916931 0.294589
0.106807 0.917513 0.353208
0.107397 0.918104 0.412574
0.107993 0.918700 0.472566
0.108595 0.919302 0.533097
0.109202 0.919909 0.594101
0.109813 0.920519 0.655528
0.110427 0.921134 0.717338
0.111045 0.921752 0.779497
0.111666 0.922373 0.841978
0.112290 0.922997 0.904756
0.112917 0.923624 0.967812
0.112940 0.923646 0.970040
0.108739 0.965839 0.087945
0.109162 0.966263 0.130564
0.109704 0.966805 0.185078
0.110266 0.967366 0.241518
0.110839 0.967940 0.299204
0.111422 0.968523 0.357823
0.112012 0.969113 0.417189
0.112609 0.969709 0.477181
0.113210 0.970311 0.537712
0.113817 0.970918 0.598716
0.114428 0.971528 0.660143
0.115042 0.972143 0.721953
0.115660 0.972761 0.784112
0.116281 0.973382 0.846593
0.116906 0.974006 0.909371
0.117532 0.974633 0.972427
0.117555 0.974655 0.974655
0.075660 0.002173 0.002173
0.076083 0.002597 0.044793
0.076625 0.003139 0.099306
0.077187 0.003700 0.155746
0.077760 0.004273 0.213433
0.078343 0.004856 0.272052
0.078933 0.005446 0.331418
0.079530 0.006043 0.391410
0.080131 0.006645 0.451940
0.080738 0.007251 0.512945
0.081349 0.007862 0.574372
0.081963 0.008477 0.636182
0.082581 0.009095 0.698341
0.083202 0.009716 0.760821
0.083827 0.010340 0.823600
0.084454 0.010967 0.886655
0.084476 0.010989 0.888884
0.076300 0.009245 0.002813
