skills/editops-orchestrator/assets/grade/luts/moody_teal_v10.cube
TITLE "moody_teal_v10"
LUT_3D_SIZE 17
DOMAIN_MIN 0.0 0.0 0.0
DOMAIN_MAX 1.0 1.0 1.0
0.000000 0.000000 0.000000
0.000350 0.000350 0.045569
0.000781 0.000781 0.101674
0.001224 0.001224 0.159330
0.001675 0.001675 0.217987
0.002131 0.002131 0.277391
0.002592 0.002592 0.337393
0.003057 0.003057 0.397894
0.003525 0.003525 0.458825
0.003996 0.003996 0.520133
0.004469 0.004469 0.581777
0.004945 0.004945 0.643725
0.005423 0.005423 0.705950
0.005903 0.005903 0.768429
0.006385 0.006385 0.831145
0.006869 0.006869 0.894079
0.006992 0.006992 0.910150
0.001258 0.017664 0.001258
0.001608 0.018014 0.046828
0.002039 0.018445 0.102932
0.002482 0.018888 0.160588
0.002933 0.019339 0.219245
0.003389 0.019795 0.278649
0.003850 0.020256 0.338651
0.004315 0.020721 0.399153
0.004783 0.021189 0.460083
0.005254 0.021660 0.521391
0.005728 0.022134 0.583035
0.006203 0.022610 0.644983
0.006681 0.023088 0.707208
0.007161 0.023568 0.769688
0.007643 0.024049 0.832403
0.008127 0.024533 0.895338
0.008250 0.024656 0.911408
0.005417 0.076052 0.005417
0.005767 0.076402 0.050986
0.006198 0.076833 0.107091
0.006641 0.077276 0.164747
0.007092 0.077727 0.223404
0.007548 0.078183 0.282808
0.008009 0.078644 0.342810
0.008474 0.079109 0.403311
0.008942 0.079577 0.464242
0.009413 0.080048 0.525550
0.009886 0.080522 0.587194
0.010362 0.080998 0.649142
0.010840 0.081476 0.711367
0.011320 0.081956 0.773846
0.011802 0.082437 0.836562
0.012285 0.082921 0.899496
0.012409 0.083044 0.915567
0.009749 0.136873 0.009749
0.010099 0.137223 0.055318
0.010530 0.137654 0.111423
0.010973 0.138097 0.169079
0.011424 0.138548 0.227736
0.011880 0.139004 0.287140
0.012341 0.139465 0.347142
0.012806 0.139930 0.407643
0.013274 0.140398 0.468574
0.013745 0.140869 0.529882
0.014218 0.141342 0.591526
0.014694 0.141818 0.653474
0.015172 0.142296 0.715699
0.015652 0.142776 0.778178
0.016134 0.143258 0.840894
0.016617 0.143742 0.903828
0.016741 0.143865 0.919899
0.014175 0.199012 0.014175
0.014525 0.199362 0.059744
0.014956 0.199793 0.115849
0.015399 0.200236 0.173505
0.015849 0.200687 0.232162
0.016306 0.201143 0.291566
0.016767 0.201604 0.351568
0.017232 0.202069 0.412069
0.017700 0.202537 0.473000
0.018171 0.203008 0.534308
0.018644 0.203482 0.595952
0.019120 0.203958 0.657900
0.019598 0.204436 0.720125
0.020078 0.204916 0.782604
0.020560 0.205397 0.845320
0.021043 0.205881 0.908254
0.021167 0.206004 0.924325
0.018667 0.262075 0.018667
0.019017 0.262426 0.064236
0.019448 0.262857 0.120341
0.019891 0.263299 0.177996
0.020341 0.263750 0.236654
0.020798 0.264206 0.296058
0.021259 0.264667 0.356060
0.021723 0.265132 0.416561
0.022191 0.265600 0.477492
0.022662 0.266071 0.538800
0.023136 0.266545 0.600444
0.023612 0.267021 0.662392
0.024090 0.267499 0.724617
0.024570 0.267979 0.787096
0.025052 0.268460 0.849811
0.025535 0.268944 0.912746
0.025659 0.269067 0.928816
0.023209 0.325854 0.023209
0.023559 0.326204 0.068779
0.023990 0.326635 0.124883
0.024433 0.327078 0.182539
0.024884 0.327529 0.241196
0.025340 0.327985 0.300600
0.025801 0.328446 0.360602
0.026266 0.328911 0.421104
0.026734 0.329379 0.482035
0.027205 0.329850 0.543342
0.027679 0.330323 0.604987
0.028155 0.330799 0.666934
0.028633 0.331277 0.729159
0.029113 0.331757 0.791639
0.029594 0.332239 0.854354
0.030078 0.332723 0.917289
0.030201 0.332846 0.933359
0.027794 0.390218 0.027794
0.028144 0.390568 0.073363
0.028575 0.390999 0.129468
0.029018 0.391442 0.187123
0.029468 0.391893 0.245781
0.029925 0.392349 0.305185
0.030386 0.392810 0.365187
0.030850 0.393275 0.425688
0.031318 0.393743 0.486619
0.031789 0.394214 0.547927
0.032263 0.394687 0.609571
0.032739 0.395163 0.671519
0.033217 0.395641 0.733744
0.033697 0.396121 0.796223
0.034179 0.396603 0.858938
0.034662 0.397087 0.921873
0.034786 0.397210 0.937944
0.032413 0.455078 0.032413
0.032763 0.455428 0.077983
0.033194 0.455859 0.134088
0.033637 0.456302 0.191743
0.034088 0.456753 0.250400
0.034544 0.457209 0.309805
0.035005 0.457670 0.369806
0.035470 0.458135 0.430308
0.035938 0.458603 0.491239
0.036409 0.459074 0.552547
0.036883 0.459547 0.614191
0.037359 0.460023 0.676139
0.037837 0.460501 0.738363
0.038317 0.460981 0.800843
0.038798 0.461463 0.863558
0.039282 0.461947 0.926493
0.039405 0.462070 0.942563
0.037064 0.520369 0.037064
0.037414 0.520720 0.082633
0.037845 0.521151 0.138738
0.038288 0.521593 0.196394
0.038738 0.522044 0.255051
0.039195 0.522500 0.314455
0.039656 0.522961 0.374457
0.040121 0.523426 0.434958
0.040589 0.523894 0.495889
0.041060 0.524365 0.557197
0.041533 0.524839 0.618841
0.042009 0.525315 0.680789
0.042487 0.525793 0.743014
0.042967 0.526273 0.805493
0.043449 0.526755 0.868209
0.043932 0.527238 0.931143
0.044056 0.527361 0.947214
0.041741 0.586042 0.041741
0.042091 0.586392 0.087311
0.042522 0.586823 0.143416
0.042965 0.587266 0.201071
0.043416 0.587717 0.259728
0.043872 0.588173 0.319133
0.044333 0.588634 0.379135
0.044798 0.589099 0.439636
0.045266 0.589567 0.500567
0.045737 0.590038 0.561875
0.046211 0.590512 0.623519
0.046687 0.590988 0.685467
0.047165 0.591466 0.747691
0.047645 0.591946 0.810171
0.048126 0.592427 0.872886
0.048610 0.592911 0.935821
0.048733 0.593034 0.951891
0.046443 0.652057 0.046443
0.046793 0.652408 0.092013
0.047224 0.652839 0.148118
0.047667 0.653281 0.205773
0.048118 0.653732 0.264430
0.048574 0.654188 0.323835
0.049035 0.654649 0.383837
0.049500 0.655114 0.444338
0.049968 0.655582 0.505269
0.050439 0.656053 0.566577
0.050913 0.656527 0.628221
0.051389 0.657003 0.690169
0.051867 0.657481 0.752393
0.052347 0.657961 0.814873
0.052828 0.658443 0.877588
0.053312 0.658926 0.940523
0.053435 0.659049 0.956593
0.051168 0.718383 0.051168
0.051518 0.718733 0.096737
0.051949 0.719164 0.152842
0.052392 0.719607 0.210497
0.052842 0.720058 0.269155
0.053299 0.720514 0.328559
0.053759 0.720975 0.388561
0.054224 0.721440 0.449062
0.054692 0.721908 0.509993
0.055163 0.722379 0.571301
0.055637 0.722853 0.632945
0.056113 0.723329 0.694893
0.056591 0.723807 0.757118
0.057071 0.724287 0.819597
0.057553 0.724768 0.882312
0.058036 0.725252 0.945247
0.058160 0.725375 0.961317
0.055912 0.784993 0.055912
0.056262 0.785344 0.101481
0.056693 0.785775 0.157586
0.057136 0.786217 0.215242
0.057587 0.786668 0.273899
0.058043 0.787124 0.333303
0.058504 0.787585 0.393305
0.058969 0.788050 0.453806
0.059437 0.788518 0.514737
0.059908 0.788989 0.576045
0.060381 0.789463 0.637689
0.060857 0.789939 0.699637
0.061335 0.790417 0.761862
0.061815 0.790897 0.824341
0.062297 0.791379 0.887057
0.062780 0.791862 0.949991
0.062904 0.791985 0.966062
0.060675 0.851866 0.060675
0.061025 0.852216 0.106244
0.061456 0.852647 0.162349
0.061899 0.853090 0.220005
0.062350 0.853541 0.278662
0.062806 0.853997 0.338066
0.063267 0.854458 0.398068
0.063732 0.854923 0.458569
0.064200 0.855391 0.519500
0.064671 0.855862 0.580808
0.065144 0.856335 0.642452
0.065620 0.856811 0.704400
0.066098 0.857289 0.766625
0.066578 0.857769 0.829104
0.067060 0.858251 0.891820
0.067543 0.858735 0.954754
0.067667 0.858858 0.970825
0.065455 0.918982 0.065455
0.065805 0.919332 0.111025
0.066236 0.919763 0.167130
0.066679 0.920206 0.224785
0.067130 0.920657 0.283442
0.067586 0.921113 0.342847
0.068047 0.921574 0.402848
0.068512 0.922039 0.463350
0.068980 0.922507 0.524281
0.069451 0.922978 0.585589
0.069925 0.923452 0.647233
0.070401 0.923927 0.709181
0.070879 0.924405 0.771405
0.071359 0.924885 0.833885
0.071840 0.925367 0.896600
0.072324 0.925851 0.959535
0.072447 0.925974 0.975605
0.069261 0.972419 0.069261
0.069612 0.972769 0.114831
0.070043 0.973200 0.170936
0.070485 0.973643 0.228591
0.070936 0.974094 0.287249
0.071392 0.974550 0.346653
0.071853 0.975011 0.406655
0.072318 0.975476 0.467156
0.072786 0.975944 0.528087
0.073257 0.976415 0.589395
0.073731 0.976889 0.651039
0.074207 0.977365 0.712987
0.074685 0.977843 0.775211
0.075165 0.978323 0.837691
0.075647 0.978804 0.900406
0.076130 0.979288 0.963341
0.076253 0.979411 0.979411
0.000000 0.000000 0.000000
0.000350 0.000350 0.045569
0.000781 0.000781 0.101674
0.001224 0.001224 0.159330
0.001675 0.001675 0.217987
0.002131 0.002131 0.277391
0.002592 0.002592 0.337393
0.003057 0.003057 0.397894
0.003525 0.003525 0.458825
0.003996 0.003996 0.520133
0.004469 0.004469 0.581777
0.004945 0.004945 0.643725
0.005423 0.005423 0.705950
0.005903 0.005903 0.768429
0.006385 0.006385 0.831145
0.006869 0.006869 0.894079
0.006992 0.006992 0.910150
0.001258 0.017664 0.001258
0.001608 0.018014 0.046828
0.002039 0.018445 0.102932
0.002482 0.018888 0.160588
0.002933 0.019339 0.219245
0.003389 0.019795 0.278649
0.003850 0.020256 0.338651
0.004315 0.020721 0.399153
0.004783 0.021189 0.460083
0.005254 0.021660 0.521391
0.005728 0.022134 0.583035
0.006203 0.022610 0.644983
0.006681 0.023088 0.707208
0.007161 0.023568 0.769688
0.007643 0.024049 0.832403
0.008127 0.024533 0.895338
0.008250 0.024656 0.911408
0.005417 0.076052 0.005417
0.005767 0.076402 0.050986
0.006198 0.076833 0.107091
0.006641 0.077276 0.164747
0.007092 0.077727 0.223404
0.007548 0.078183 0.282808
0.008009 0.078644 0.342810
0.008474 0.079109 0.403311
0.008942 0.079577 0.464242
0.009413 0.080048 0.525550
0.009886 0.080522 0.587194
0.010362 0.080998 0.649142
0.010840 0.081476 0.711367
0.011320 0.081956 0.773846
0.011802 0.082437 0.836562
0.012285 0.082921 0.899496
0.012409 0.083044 0.915567
0.009749 0.136873 0.009749
0.010099 0.137223 0.055318
0.010530 0.137654 0.111423
0.010973 0.138097 0.169079
0.011424 0.138548 0.227736
0.011880 0.139004 0.287140
0.012341 0.139465 0.347142
0.012806 0.139930 0.407643
0.013274 0.140398 0.468574
0.013745 0.140869 0.529882
0.014218 0.141342 0.591526
0.014694 0.141818 0.653474
0.015172 0.142296 0.715699
0.015652 0.142776 0.778178
0.016134 0.143258 0.840894
0.016617 0.143742 0.903828
0.016741 0.143865 0.919899
0.014175 0.199012 0.014175
0.014525 0.199362 0.059744
0.014956 0.199793 0.115849
0.015399 0.200236 0.173505
0.015849 0.200687 0.232162
0.016306 0.201143 0.291566
0.016767 0.201604 0.351568
0.017232 0.202069 0.412069
0.017700 0.202537 0.473000
0.018171 0.203008 0.534308
0.018644 0.203482 0.595952
0.019120 0.203958 0.657900
0.019598 0.204436 0.720125
0.020078 0.204916 0.782604
0.020560 0.205397 0.845320
0.021043 0.205881 0.908254
0.021167 0.206004 0.924325
0.018667 0.262075 0.018667
0.019017 0.262426 0.064236
0.019448 0.262857 0.120341
0.019891 0.263299 0.177996
0.020341 0.263750 0.236654
0.020798 0.264206 0.296058
0.021259 0.264667 0.356060
0.021723 0.265132 0.416561
0.022191 0.265600 0.477492
0.022662 0.266071 0.538800
0.023136 0.266545 0.600444
0.023612 0.267021 0.662392
0.024090 0.267499 0.724617
0.024570 0.267979 0.787096
0.025052 0.268460 0.849811
0.025535 0.268944 0.912746
0.025659 0.269067 0.928816
0.023209 0.325854 0.023209
0.023559 0.326204 0.068779
0.023990 0.326635 0.124883
0.024433 0.327078 0.182539
0.024884 0.327529 0.241196
0.025340 0.327985 0.300600
0.025801 0.328446 0.360602
0.026266 0.328911 0.421104
0.026734 0.329379 0.482035
0.027205 0.329850 0.543342
0.027679 0.330323 0.604987
0.028155 0.330799 0.666934
0.028633 0.331277 0.729159
0.029113 0.331757 0.791639
0.029594 0.332239 0.854354
0.030078 0.332723 0.917289
0.030201 0.332846 0.933359
0.027794 0.390218 0.027794
0.028144 0.390568 0.073363
0.028575 0.390999 0.129468
0.029018 0.391442 0.187123
0.029468 0.391893 0.245781
0.029925 0.392349 0.305185
0.030386 0.392810 0.365187
0.030850 0.393275 0.425688
0.031318 0.393743 0.486619
0.031789 0.394214 0.547927
0.032263 0.394687 0.609571
0.032739 0.395163 0.671519
0.033217 0.395641 0.733744
0.033697 0.396121 0.796223
0.034179 0.396603 0.858938
0.034662 0.397087 0.921873
0.034786 0.397210 0.937944
0.032413 0.455078 0.032413
0.032763 0.455428 0.077983
0.033194 0.455859 0.134088
0.033637 0.456302 0.191743
0.034088 0.456753 0.250400
0.034544 0.457209 0.309805
0.035005 0.457670 0.369806
0.035470 0.458135 0.430308
0.035938 0.458603 0.491239
0.036409 0.459074 0.552547
0.036883 0.459547 0.614191
0.037359 0.460023 0.676139
0.037837 0.460501 0.738363
0.038317 0.460981 0.800843
0.038798 0.461463 0.863558
0.039282 0.461947 0.926493
0.039405 0.462070 0.942563
0.037064 0.520369 0.037064
0.037414 0.520720 0.082633
0.037845 0.521151 0.138738
0.038288 0.521593 0.196394
0.038738 0.522044 0.255051
0.039195 0.522500 0.314455
0.039656 0.522961 0.374457
0.040121 0.523426 0.434958
0.040589 0.523894 0.495889
0.041060 0.524365 0.557197
0.041533 0.524839 0.618841
0.042009 0.525315 0.680789
0.042487 0.525793 0.743014
0.042967 0.526273 0.805493
0.043449 0.526755 0.868209
0.043932 0.527238 0.931143
0.044056 0.527361 0.947214
0.041741 0.586042 0.041741
0.042091 0.586392 0.087311
0.042522 0.586823 0.143416
0.042965 0.587266 0.201071
0.043416 0.587717 0.259728
0.043872 0.588173 0.319133
0.044333 0.588634 0.379135
0.044798 0.589099 0.439636
0.045266 0.589567 0.500567
0.045737 0.590038 0.561875
0.046211 0.590512 0.623519
0.046687 0.590988 0.685467
0.047165 0.591466 0.747691
0.047645 0.591946 0.810171
0.048126 0.592427 0.872886
0.048610 0.592911 0.935821
0.048733 0.593034 0.951891
0.046443 0.652057 0.046443
0.046793 0.652408 0.092013
0.047224 0.652839 0.148118
0.047667 0.653281 0.205773
0.048118 0.653732 0.264430
0.048574 0.654188 0.323835
0.049035 0.654649 0.383837
0.049500 0.655114 0.444338
0.049968 0.655582 0.505269
0.050439 0.656053 0.566577
0.050913 0.656527 0.628221
0.051389 0.657003 0.690169
0.051867 0.657481 0.752393
0.052347 0.657961 0.814873
0.052828 0.658443 0.877588
0.053312 0.658926 0.940523
0.053435 0.659049 0.956593
0.051168 0.718383 0.051168
0.051518 0.718733 0.096737
0.051949 0.719164 0.152842
0.052392 0.719607 0.210497
0.052842 0.720058 0.269155
0.053299 0.720514 0.328559
0.053759 0.720975 0.388561
0.054224 0.721440 0.449062
0.054692 0.721908 0.509993
0.055163 0.722379 0.571301
0.055637 0.722853 0.632945
0.056113 0.723329 0.694893
0.056591 0.723807 0.757118
0.057071 0.724287 0.819597
0.057553 0.724768 0.882312
0.058036 0.725252 0.945247
0.058160 0.725375 0.961317
0.055912 0.784993 0.055912
0.056262 0.785344 0.101481
0.056693 0.785775 0.157586
0.057136 0.786217 0.215242
0.057587 0.786668 0.273899
0.058043 0.787124 0.333303
0.058504 0.787585 0.393305
0.058969 0.788050 0.453806
0.059437 0.788518 0.514737
0.059908 0.788989 0.576045
0.060381 0.789463 0.637689
0.060857 0.789939 0.699637
0.061335 0.790417 0.761862
0.061815 0.790897 0.824341
0.062297 0.791379 0.887057
0.062780 0.791862 0.949991
0.062904 0.791985 0.966062
0.060675 0.851866 0.060675
0.061025 0.852216 0.106244
0.061456 0.852647 0.162349
0.061899 0.853090 0.220005
0.062350 0.853541 0.278662
0.062806 0.853997 0.338066
0.063267 0.854458 0.398068
0.063732 0.854923 0.458569
0.064200 0.855391 0.519500
0.064671 0.855862 0.580808
0.065144 0.856335 0.642452
0.065620 0.856811 0.704400
0.066098 0.857289 0.766625
0.066578 0.857769 0.829104
0.067060 0.858251 0.891820
0.067543 0.858735 0.954754
0.067667 0.858858 0.970825
0.065455 0.918982 0.065455
0.065805 0.919332 0.111025
0.066236 0.919763 0.167130
0.066679 0.920206 0.224785
0.067130 0.920657 0.283442
0.067586 0.921113 0.342847
0.068047 0.921574 0.402848
0.068512 0.922039 0.463350
0.068980 0.922507 0.524281
0.069451 0.922978 0.585589
0.069925 0.923452 0.647233
0.070401 0.923927 0.709181
0.070879 0.924405 0.771405
0.071359 0.924885 0.833885
0.071840 0.925367 0.896600
0.072324 0.925851 0.959535
0.072447 0.925974 0.975605
0.069261 0.972419 0.069261
0.069612 0.972769 0.114831
0.070043 0.973200 0.170936
0.070485 0.973643 0.228591
0.070936 0.974094 0.287249
0.071392 0.974550 0.346653
0.071853 0.975011 0.406655
0.072318 0.975476 0.467156
0.072786 0.975944 0.528087
0.073257 0.976415 0.589395
0.073731 0.976889 0.651039
0.074207 0.977365 0.712987
0.074685 0.977843 0.775211
0.075165 0.978323 0.837691
0.075647 0.978804 0.900406
0.076130 0.979288 0.963341
0.076253 0.979411 0.979411
0.041916 0.000934 0.000934
0.042266 0.001284 0.046504
0.042697 0.001715 0.102608
0.043140 0.002158 0.160264
0.043591 0.002609 0.218921
0.044047 0.003065 0.278325
0.044508 0.003526 0.338327
0.044973 0.003991 0.398829
0.045441 0.004459 0.459760
0.045912 0.004930 0.521067
0.046386 0.005404 0.582712
0.046861 0.005879 0.644659
0.047339 0.006358 0.706884
0.047819 0.006838 0.769364
0.048301 0.007319 0.832079
0.048785 0.007803 0.895014
0.048908 0.007926 0.911084
0.043174 0.018599 0.002192
0.043524 0.018949 0.047762
0.043955 0.019380 0.103867
0.044398 0.019823 0.161522
0.044849 0.020273 0.220179
0.045305 0.020729 0.279584
0.045766 0.021190 0.339585
0.046231 0.021655 0.400087
0.046699 0.022123 0.461018
0.047170 0.022594 0.522326
0.047644 0.023068 0.583970
0.048120 0.023544 0.645918
0.048598 0.024022 0.708142
0.049078 0.024502 0.770622
0.049559 0.024984 0.833337
0.050043 0.025467 0.896272
0.050166 0.025591 0.912342
0.047333 0.076987 0.006351
0.047683 0.077337 0.051921
0.048114 0.077768 0.108025
0.048557 0.078211 0.165681
0.049008 0.078661 0.224338
0.049464 0.079118 0.283742
0.049925 0.079578 0.343744
0.050390 0.080043 0.404246
0.050858 0.080511 0.465176
0.051329 0.080982 0.526484
0.051802 0.081456 0.588128
0.052278 0.081932 0.650076
0.052756 0.082410 0.712301
0.053236 0.082890 0.774781
0.053718 0.083372 0.837496
0.054202 0.083855 0.900431
0.054325 0.083979 0.916501
0.051665 0.137807 0.010683
0.052015 0.138157 0.056253
0.052446 0.138588 0.112357
0.052889 0.139031 0.170013
0.053340 0.139482 0.228670
0.053796 0.139938 0.288074
0.054257 0.140399 0.348076
0.054722 0.140864 0.408578
0.055190 0.141332 0.469508
0.055661 0.141803 0.530816
0.056134 0.142277 0.592460
0.056610 0.142752 0.654408
0.057088 0.143231 0.716633
0.057568 0.143710 0.779113
0.058050 0.144192 0.841828
0.058534 0.144676 0.904763
0.058657 0.144799 0.920833
0.056091 0.199946 0.015109
0.056441 0.200297 0.060678
0.056872 0.200728 0.116783
0.057315 0.201170 0.174439
0.057766 0.201621 0.233096
0.058222 0.202077 0.292500
0.058683 0.202538 0.352502
0.059148 0.203003 0.413004
0.059616 0.203471 0.473934
0.060087 0.203942 0.535242
0.060560 0.204416 0.596886
0.061036 0.204892 0.658834
0.061514 0.205370 0.721059
0.061994 0.205850 0.783539
0.062476 0.206332 0.846254
0.062960 0.206815 0.909189
0.063083 0.206938 0.925259
0.060583 0.263010 0.019601
0.060933 0.263360 0.065170
0.061364 0.263791 0.121275
0.061807 0.264234 0.178931
0.062257 0.264684 0.237588
0.062714 0.265141 0.296992
0.063175 0.265602 0.356994
0.063639 0.266066 0.417495
0.064108 0.266534 0.478426
0.064579 0.267005 0.539734
0.065052 0.267479 0.601378
0.065528 0.267955 0.663326
0.066006 0.268433 0.725551
0.066486 0.268913 0.788030
0.066968 0.269395 0.850746
0.067451 0.269878 0.913680
0.067575 0.270002 0.929751
0.065125 0.326788 0.024143
0.065475 0.327138 0.069713
0.065907 0.327569 0.125818
0.066349 0.328012 0.183473
0.066800 0.328463 0.242131
0.067256 0.328919 0.301535
0.067717 0.329380 0.361537
0.068182 0.329845 0.422038
0.068650 0.330313 0.482969
0.069121 0.330784 0.544277
0.069595 0.331258 0.605921
0.070071 0.331734 0.667869
0.070549 0.332212 0.730093
0.071029 0.332692 0.792573
0.071510 0.333173 0.855288
0.071994 0.333657 0.918223
0.072117 0.333780 0.934293
0.069710 0.391152 0.028728
0.070060 0.391502 0.074297
0.070491 0.391933 0.130402
0.070934 0.392376 0.188058
0.071384 0.392827 0.246715
0.071841 0.393283 0.306119
0.072302 0.393744 0.366121
0.072767 0.394209 0.426622
0.073235 0.394677 0.487553
0.073706 0.395148 0.548861
0.074179 0.395622 0.610505
0.074655 0.396097 0.672453
0.075133 0.396575 0.734678
0.075613 0.397055 0.797157
0.076095 0.397537 0.859873
0.076578 0.398021 0.922807
0.076702 0.398144 0.938878
0.074330 0.456012 0.033348
0.074680 0.456362 0.078917
0.075111 0.456793 0.135022
0.075554 0.457236 0.192677
0.076004 0.457687 0.251335
0.076461 0.458143 0.310739
0.076921 0.458604 0.370741
0.077386 0.459069 0.431242
0.077854 0.459537 0.492173
0.078325 0.460008 0.553481
0.078799 0.460482 0.615125
0.079275 0.460958 0.677073
0.079753 0.461436 0.739298
0.080233 0.461916 0.801777
0.080715 0.462397 0.864492
0.081198 0.462881 0.927427
0.081322 0.463004 0.943497
0.078980 0.521304 0.037998
0.079330 0.521654 0.083567
0.079761 0.522085 0.139672
0.080204 0.522528 0.197328
0.080655 0.522978 0.255985
0.081111 0.523435 0.315389
0.081572 0.523896 0.375391
0.082037 0.524360 0.435893
0.082505 0.524829 0.496823
0.082976 0.525299 0.558131
0.083449 0.525773 0.619775
0.083925 0.526249 0.681723
0.084403 0.526727 0.743948
0.084883 0.527207 0.806428
0.085365 0.527689 0.869143
0.085849 0.528172 0.932077
0.085972 0.528296 0.948148
0.083658 0.586977 0.042676
0.084008 0.587327 0.088245
0.084439 0.587758 0.144350
0.084882 0.588201 0.202005
0.085332 0.588651 0.260663
0.085789 0.589108 0.320067
0.086250 0.589568 0.380069
0.086714 0.590033 0.440570
0.087182 0.590501 0.501501
0.087653 0.590972 0.562809
0.088127 0.591446 0.624453
0.088603 0.591922 0.686401
0.089081 0.592400 0.748626
0.089561 0.592880 0.811105
0.090043 0.593362 0.873820
0.090526 0.593845 0.936755
0.090650 0.593969 0.952826
0.088360 0.652992 0.047378
0.088710 0.653342 0.092947
0.089141 0.653773 0.149052
0.089584 0.654216 0.206707
0.090034 0.654666 0.265365
0.090491 0.655123 0.324769
0.090951 0.655584 0.384771
0.091416 0.656048 0.445272
0.091884 0.656517 0.506203
0.092355 0.656987 0.567511
0.092829 0.657461 0.629155
0.093305 0.657937 0.691103
0.093783 0.658415 0.753328
0.094263 0.658895 0.815807
0.094745 0.659377 0.878522
0.095228 0.659860 0.941457
0.095352 0.659984 0.957528
0.093084 0.719317 0.052102
0.093434 0.719668 0.097671
0.093865 0.720099 0.153776
0.094308 0.720541 0.211432
0.094758 0.720992 0.270089
0.095215 0.721448 0.329493
0.095676 0.721909 0.389495
0.096140 0.722374 0.449996
0.096608 0.722842 0.510927
0.097079 0.723313 0.572235
0.097553 0.723787 0.633879
0.098029 0.724263 0.695827
0.098507 0.724741 0.758052
0.098987 0.725221 0.820531
0.099469 0.725703 0.883246
0.099952 0.726186 0.946181
0.100076 0.726309 0.962252
0.097828 0.785928 0.056846
0.098178 0.786278 0.102416
0.098609 0.786709 0.158520
0.099052 0.787152 0.216176
0.099503 0.787602 0.274833
0.099959 0.788059 0.334237
0.100420 0.788520 0.394239
0.100885 0.788984 0.454741
0.101353 0.789452 0.515671
0.101824 0.789923 0.576979
0.102297 0.790397 0.638623
0.102773 0.790873 0.700571
0.103251 0.791351 0.762796
0.103731 0.791831 0.825276
0.104213 0.792313 0.887991
0.104697 0.792796 0.950926
0.104820 0.792920 0.966996
0.102591 0.852800 0.061609
0.102941 0.853150 0.107179
0.103372 0.853581 0.163283
0.103815 0.854024 0.220939
0.104266 0.854475 0.279596
0.104722 0.854931 0.339000
0.105183 0.855392 0.399002
0.105648 0.855857 0.459504
0.106116 0.856325 0.520434
0.106587 0.856796 0.581742
0.107060 0.857270 0.643387
0.107536 0.857746 0.705334
0.108014 0.858224 0.767559
0.108494 0.858704 0.830039
0.108976 0.859185 0.892754
0.109460 0.859669 0.955689
0.109583 0.859792 0.971759
0.107372 0.919916 0.066390
0.107722 0.920266 0.111959
0.108153 0.920697 0.168064
0.108596 0.921140 0.225719
0.109046 0.921591 0.284377
0.109503 0.922047 0.343781
0.109963 0.922508 0.403783
0.110428 0.922973 0.464284
0.110896 0.923441 0.525215
0.111367 0.923912 0.586523
0.111841 0.924386 0.648167
0.112317 0.924862 0.710115
0.112795 0.925340 0.772340
0.113275 0.925820 0.834819
0.113757 0.926301 0.897534
0.114240 0.926785 0.960469
0.114364 0.926908 0.976539
0.111178 0.973354 0.070196
0.111528 0.973704 0.115765
0.111959 0.974135 0.171870
0.112402 0.974578 0.229525
0.112852 0.975028 0.288183
0.113309 0.975485 0.347587
0.113770 0.975946 0.407589
0.114234 0.976410 0.468090
0.114702 0.976878 0.529021
0.115173 0.977349 0.590329
0.115647 0.977823 0.651973
0.116123 0.978299 0.713921
0.116601 0.978777 0.776146
0.117081 0.979257 0.838625
0.117563 0.979739 0.901340
0.118046 0.980222 0.964275
0.118170 0.980346 0.980346
0.098690 0.002200 0.002200
0.099040 0.002550 0.047769
0.099471 0.002981 0.103874
0.099914 0.003424 0.161529
0.100365 0.003874 0.220187
0.100821 0.004331 0.279591
0.101282 0.004792 0.339593
0.101747 0.005256 0.400094
0.102215 0.005724 0.461025
0.102686 0.006195 0.522333
0.103159 0.006669 0.583977
0.103635 0.007145 0.645925
0.104113 0.007623 0.708150
0.104593 0.008103 0.770629
0.105075 0.008585 0.833344
0.105559 0.009068 0.896279
0.105682 0.009192 0.912350
0.099948 0.019864 0.003458
