skills/editops-orchestrator/assets/grade/luts/moody_teal_v02.cube
TITLE "moody_teal_v02"
LUT_3D_SIZE 5
DOMAIN_MIN 0.0 0.0 0.0
DOMAIN_MAX 1.0 1.0 1.0
0.000000 0.000000 0.000000
0.000812 0.000812 0.232348
0.001668 0.001668 0.477388
0.002535 0.002535 0.725449
0.003344 0.003344 0.957028
0.007618 0.226936 0.007618
0.008430 0.227747 0.239966
0.009286 0.228604 0.485006
0.010153 0.229470 0.733067
0.010962 0.230280 0.964646
0.016092 0.479389 0.016092
0.016904 0.480201 0.248440
0.017760 0.481057 0.493480
0.018627 0.481924 0.741541
0.019436 0.482733 0.973120
0.024674 0.735046 0.024674
0.025486 0.735858 0.257022
0.026342 0.736714 0.502062
0.027209 0.737581 0.750123
0.028018 0.738390 0.981702
0.033125 0.986809 0.033125
0.033937 0.987621 0.265473
0.034793 0.988477 0.510513
0.035660 0.989344 0.758574
0.036469 0.990153 0.990153
0.209253 0.002138 0.002138
0.210065 0.002950 0.234487
0.210921 0.003807 0.479527
0.211788 0.004673 0.727588
0.212597 0.005482 0.959167
0.216871 0.229074 0.009756
0.217683 0.229886 0.242104
0.218539 0.230742 0.487145
0.219406 0.231609 0.735205
0.220215 0.232418 0.966784
0.225345 0.481528 0.018231
0.226157 0.482340 0.250579
0.227013 0.483196 0.495619
0.227880 0.484063 0.743680
0.228689 0.484872 0.975259
0.233927 0.737184 0.026812
0.234739 0.737996 0.259160
0.235595 0.738852 0.504201
0.236462 0.739719 0.752261
0.237271 0.740528 0.983841
0.242378 0.988948 0.035264
0.243190 0.989760 0.267612
0.244046 0.990616 0.512652
0.244913 0.991483 0.760713
0.245722 0.992292 0.992292
0.455537 0.004655 0.004655
0.456349 0.005467 0.237003
0.457205 0.006323 0.482044
0.458072 0.007190 0.730104
0.458881 0.007999 0.961684
0.463155 0.231591 0.012273
0.463967 0.232403 0.244621
0.464823 0.233259 0.489661
0.465690 0.234126 0.737722
0.466499 0.234935 0.969301
0.471629 0.484045 0.020747
0.472441 0.484856 0.253096
0.473297 0.485713 0.498136
0.474164 0.486579 0.746197
0.474973 0.487389 0.977776
0.480211 0.739701 0.029329
0.481023 0.740513 0.261677
0.481879 0.741369 0.506718
0.482746 0.742236 0.754778
0.483555 0.743045 0.986357
0.488662 0.991465 0.037780
0.489474 0.992276 0.270129
0.490330 0.993133 0.515169
0.491197 0.993999 0.763230
0.492006 0.994809 0.994809
0.705039 0.007205 0.007205
0.705851 0.008017 0.239553
0.706707 0.008873 0.484593
0.707574 0.009740 0.732654
0.708383 0.010549 0.964233
0.712657 0.234141 0.014823
0.713469 0.234953 0.247171
0.714325 0.235809 0.492211
0.715192 0.236676 0.740272
0.716001 0.237485 0.971851
0.721131 0.486594 0.023297
0.721943 0.487406 0.255645
0.722800 0.488262 0.500686
0.723666 0.489129 0.748746
0.724475 0.489938 0.980325
0.729713 0.742251 0.031879
0.730525 0.743063 0.264227
0.731381 0.743919 0.509267
0.732248 0.744786 0.757328
0.733057 0.745595 0.988907
0.738164 0.994014 0.040330
0.738976 0.994826 0.272678
0.739832 0.995682 0.517719
0.740699 0.996549 0.765779
0.741508 0.997358 0.997358
0.956600 0.009776 0.009776
0.957412 0.010588 0.242124
0.958268 0.011444 0.487164
0.959135 0.012311 0.735225
0.959944 0.013120 0.966804
0.964217 0.236712 0.017394
0.965029 0.237523 0.249742
0.965886 0.238380 0.494782
0.966752 0.239246 0.742843
0.967561 0.240056 0.974422
0.972692 0.489165 0.025868
0.973504 0.489977 0.258216
0.974360 0.490833 0.503256
0.975227 0.491700 0.751317
0.976036 0.492509 0.982896
0.981274 0.744822 0.034450
0.982085 0.745633 0.266798
0.982942 0.746490 0.511838
0.983808 0.747356 0.759899
0.984618 0.748166 0.991478
0.989725 0.996585 0.042901
0.990537 0.997397 0.275249
0.991393 0.998253 0.520289
0.992260 0.999120 0.768350
0.993069 0.999929 0.999929
