skills/editops-orchestrator/assets/grade/luts/moody_teal_v17.cube
TITLE "moody_teal_v17"
LUT_3D_SIZE 5
DOMAIN_MIN 0.0 0.0 0.0
DOMAIN_MAX 1.0 1.0 1.0
0.000000 0.000000 0.000000
0.002418 0.002418 0.206395
0.005191 0.005191 0.443056
0.008071 0.008071 0.688799
0.010184 0.010184 0.869131
0.018436 0.175413 0.018436
0.020855 0.177832 0.224832
0.023628 0.180605 0.461493
0.026507 0.183484 0.707236
0.028620 0.185597 0.887568
0.045596 0.433817 0.045596
0.048014 0.436236 0.251991
0.050787 0.439009 0.488652
0.053666 0.441888 0.734395
0.055780 0.444001 0.914727
0.073939 0.703491 0.073939
0.076358 0.705910 0.280334
0.079131 0.708683 0.516995
0.082010 0.711562 0.762738
0.084123 0.713675 0.943070
0.100881 0.959828 0.100881
0.103299 0.962247 0.307276
0.106072 0.965020 0.543937
0.108952 0.967899 0.789680
0.111065 0.970012 0.970012
0.114770 0.003872 0.003872
0.117188 0.006290 0.210267
0.119961 0.009063 0.446928
0.122841 0.011943 0.692671
0.124954 0.014056 0.873003
0.133206 0.179285 0.022308
0.135625 0.181703 0.228703
0.138398 0.184476 0.465364
0.141277 0.187356 0.711107
0.143390 0.189469 0.891440
0.160365 0.437689 0.049467
0.162784 0.440108 0.255862
0.165557 0.442881 0.492523
0.168436 0.445760 0.738266
0.170549 0.447873 0.918599
0.188709 0.707363 0.077811
0.191127 0.709782 0.284206
0.193900 0.712555 0.520867
0.196780 0.715434 0.766610
0.198893 0.717547 0.946942
0.215650 0.963700 0.104753
0.218069 0.966118 0.311148
0.220842 0.968891 0.547809
0.223721 0.971771 0.793552
0.225834 0.973884 0.973884
0.350830 0.011835 0.011835
0.353248 0.014253 0.218230
0.356021 0.017027 0.454891
0.358901 0.019906 0.700634
0.361014 0.022019 0.880966
0.369266 0.187248 0.030272
0.371685 0.189667 0.236667
0.374458 0.192440 0.473328
0.377337 0.195319 0.719071
0.379450 0.197432 0.899403
0.396425 0.445652 0.057431
0.398844 0.448071 0.263826
0.401617 0.450844 0.500487
0.404496 0.453723 0.746230
0.406609 0.455836 0.926562
0.424769 0.715327 0.085774
0.427187 0.717745 0.292169
0.429960 0.720518 0.528830
0.432840 0.723398 0.774573
0.434953 0.725511 0.954906
0.451711 0.971663 0.112716
0.454129 0.974082 0.319111
0.456902 0.976855 0.555772
0.459782 0.979734 0.801515
0.461895 0.981847 0.981847
0.598851 0.020202 0.020202
0.601270 0.022620 0.226597
0.604043 0.025393 0.463258
0.606922 0.028273 0.709001
0.609035 0.030386 0.889333
0.617288 0.195615 0.038638
0.619706 0.198034 0.245034
0.622479 0.200807 0.481695
0.625359 0.203686 0.727438
0.627472 0.205799 0.907770
0.644447 0.454019 0.065797
0.646865 0.456438 0.272193
0.649638 0.459211 0.508854
0.652518 0.462090 0.754597
0.654631 0.464203 0.934929
0.672790 0.723693 0.094141
0.675209 0.726112 0.300536
0.677982 0.728885 0.537197
0.680861 0.731764 0.782940
0.682974 0.733877 0.963272
0.699732 0.980030 0.121083
0.702151 0.982449 0.327478
0.704924 0.985222 0.564139
0.707803 0.988101 0.809882
0.709916 0.990214 0.990214
0.854034 0.028810 0.028810
0.856452 0.031229 0.235206
0.859225 0.034002 0.471867
0.862104 0.036881 0.717610
0.864218 0.038994 0.897942
0.872470 0.204224 0.047247
0.874888 0.206642 0.253642
0.877661 0.209415 0.490303
0.880541 0.212295 0.736046
0.882654 0.214408 0.916378
0.899629 0.462628 0.074406
0.902047 0.465046 0.280801
0.904821 0.467819 0.517462
0.907700 0.470699 0.763205
0.909813 0.472812 0.943537
0.927973 0.732302 0.102749
0.930391 0.734720 0.309145
0.933164 0.737493 0.545806
0.936044 0.740373 0.791549
0.938157 0.742486 0.971881
0.954914 0.988639 0.129691
0.957333 0.991057 0.336086
0.960106 0.993830 0.572747
0.962985 0.996710 0.818490
0.965098 0.998823 0.998823
