skills/editops-orchestrator/assets/grade/luts/moody_teal_v06.cube
TITLE "moody_teal_v06"
LUT_3D_SIZE 17
DOMAIN_MIN 0.0 0.0 0.0
DOMAIN_MAX 1.0 1.0 1.0
0.000000 0.000000 0.000000
0.000271 0.000271 0.048870
0.000590 0.000590 0.106561
0.000916 0.000916 0.165411
0.001246 0.001246 0.225009
0.001579 0.001579 0.285165
0.001914 0.001914 0.345765
0.002252 0.002252 0.406736
0.002591 0.002591 0.468026
0.002932 0.002932 0.529595
0.003274 0.003274 0.591414
0.003617 0.003617 0.653456
0.003962 0.003962 0.715703
0.004307 0.004307 0.778138
0.004654 0.004654 0.840747
0.005002 0.005002 0.903517
0.005168 0.005168 0.933589
0.001535 0.029380 0.001535
0.001806 0.029651 0.050406
0.002125 0.029970 0.108096
0.002451 0.030296 0.166946
0.002781 0.030626 0.226545
0.003114 0.030959 0.286700
0.003449 0.031294 0.347300
0.003787 0.031632 0.408272
0.004126 0.031971 0.469561
0.004467 0.032312 0.531131
0.004809 0.032654 0.592949
0.005153 0.032997 0.654992
0.005497 0.033342 0.717239
0.005843 0.033688 0.779674
0.006189 0.034034 0.842282
0.006537 0.034382 0.905053
0.006703 0.034548 0.935124
0.004662 0.089204 0.004662
0.004932 0.089475 0.053532
0.005252 0.089794 0.111222
0.005577 0.090120 0.170072
0.005907 0.090450 0.229671
0.006240 0.090783 0.289826
0.006576 0.091118 0.350427
0.006913 0.091456 0.411398
0.007252 0.091795 0.472688
0.007593 0.092136 0.534257
0.007936 0.092478 0.596075
0.008279 0.092821 0.658118
0.008624 0.093166 0.720365
0.008969 0.093512 0.782800
0.009316 0.093858 0.845409
0.009663 0.094206 0.908179
0.009830 0.094372 0.938251
0.007869 0.150578 0.007869
0.008140 0.150849 0.056739
0.008459 0.151168 0.114430
0.008785 0.151494 0.173280
0.009115 0.151824 0.232878
0.009448 0.152157 0.293034
0.009783 0.152492 0.353634
0.010121 0.152830 0.414605
0.010460 0.153169 0.475895
0.010801 0.153510 0.537464
0.011143 0.153852 0.599283
0.011486 0.154195 0.661325
0.011831 0.154540 0.723572
0.012176 0.154886 0.786007
0.012523 0.155232 0.848616
0.012871 0.155580 0.911386
0.013037 0.155746 0.941458
0.011123 0.212854 0.011123
0.011394 0.213125 0.059994
0.011713 0.213444 0.117684
0.012039 0.213770 0.176534
0.012369 0.214100 0.236133
0.012702 0.214433 0.296288
0.013037 0.214768 0.356888
0.013375 0.215106 0.417860
0.013714 0.215445 0.479150
0.014055 0.215786 0.540719
0.014397 0.216128 0.602537
0.014741 0.216472 0.664580
0.015085 0.216816 0.726827
0.015431 0.217162 0.789262
0.015778 0.217508 0.851870
0.016125 0.217856 0.914641
0.016291 0.218022 0.944713
0.014412 0.275775 0.014412
0.014682 0.276046 0.063282
0.015002 0.276365 0.120972
0.015327 0.276691 0.179822
0.015657 0.277021 0.239421
0.015990 0.277354 0.299576
0.016326 0.277689 0.360177
0.016663 0.278027 0.421148
0.017002 0.278366 0.482438
0.017343 0.278707 0.544007
0.017685 0.279049 0.605825
0.018029 0.279393 0.667868
0.018374 0.279737 0.730115
0.018719 0.280083 0.792550
0.019066 0.280430 0.855159
0.019413 0.280777 0.917929
0.019580 0.280943 0.948001
0.017726 0.339201 0.017726
0.017997 0.339471 0.066596
0.018316 0.339791 0.124287
0.018642 0.340117 0.183137
0.018972 0.340447 0.242735
0.019305 0.340780 0.302891
0.019640 0.341115 0.363491
0.019978 0.341452 0.424462
0.020317 0.341792 0.485752
0.020658 0.342133 0.547322
0.021000 0.342475 0.609140
0.021343 0.342818 0.671182
0.021688 0.343163 0.733429
0.022034 0.343508 0.795864
0.022380 0.343855 0.858473
0.022728 0.344202 0.921244
0.022894 0.344369 0.951315
0.021062 0.403041 0.021062
0.021333 0.403312 0.069933
0.021652 0.403631 0.127623
0.021978 0.403957 0.186473
0.022308 0.404287 0.246072
0.022641 0.404620 0.306227
0.022976 0.404955 0.366827
0.023314 0.405293 0.427799
0.023653 0.405632 0.489088
0.023994 0.405973 0.550658
0.024336 0.406315 0.612476
0.024680 0.406659 0.674519
0.025024 0.407003 0.736766
0.025370 0.407349 0.799201
0.025716 0.407695 0.861809
0.026064 0.408043 0.924580
0.026230 0.408209 0.954651
0.024417 0.467234 0.024417
0.024688 0.467505 0.073287
0.025007 0.467824 0.130978
0.025333 0.468150 0.189828
0.025663 0.468480 0.249426
0.025996 0.468813 0.309582
0.026331 0.469148 0.370182
0.026669 0.469486 0.431153
0.027008 0.469825 0.492443
0.027349 0.470166 0.554012
0.027691 0.470508 0.615831
0.028034 0.470852 0.677873
0.028379 0.471196 0.740120
0.028724 0.471542 0.802555
0.029071 0.471888 0.865164
0.029419 0.472236 0.927934
0.029585 0.472402 0.958006
0.027788 0.531734 0.027788
0.028058 0.532005 0.076658
0.028378 0.532324 0.134348
0.028703 0.532650 0.193198
0.029033 0.532980 0.252797
0.029366 0.533313 0.312952
0.029702 0.533648 0.373553
0.030039 0.533986 0.434524
0.030379 0.534325 0.495814
0.030719 0.534666 0.557383
0.031062 0.535008 0.619201
0.031405 0.535352 0.681244
0.031750 0.535696 0.743491
0.032095 0.536042 0.805926
0.032442 0.536388 0.868535
0.032789 0.536736 0.931305
0.032956 0.536902 0.961377
0.031173 0.596507 0.031173
0.031443 0.596777 0.080043
0.031762 0.597097 0.137733
0.032088 0.597422 0.196583
0.032418 0.597752 0.256182
0.032751 0.598085 0.316337
0.033087 0.598421 0.376937
0.033424 0.598758 0.437909
0.033763 0.599097 0.499199
0.034104 0.599438 0.560768
0.034446 0.599780 0.622586
0.034790 0.600124 0.684629
0.035134 0.600469 0.746876
0.035480 0.600814 0.809311
0.035827 0.601161 0.871920
0.036174 0.601508 0.934690
0.036341 0.601675 0.964762
0.034570 0.661523 0.034570
0.034841 0.661794 0.083441
0.035160 0.662113 0.141131
0.035486 0.662439 0.199981
0.035816 0.662769 0.259580
0.036149 0.663102 0.319735
0.036484 0.663437 0.380335
0.036822 0.663775 0.441306
0.037161 0.664114 0.502596
0.037502 0.664455 0.564166
0.037844 0.664797 0.625984
0.038188 0.665141 0.688026
0.038532 0.665485 0.750274
0.038878 0.665831 0.812709
0.039224 0.666177 0.875317
0.039572 0.666525 0.938088
0.039738 0.666691 0.968159
0.037980 0.726762 0.037980
0.038250 0.727032 0.086850
0.038569 0.727352 0.144540
0.038895 0.727677 0.203390
0.039225 0.728007 0.262989
0.039558 0.728340 0.323144
0.039894 0.728676 0.383744
0.040231 0.729013 0.444716
0.040570 0.729353 0.506006
0.040911 0.729693 0.567575
0.041253 0.730036 0.629393
0.041597 0.730379 0.691436
0.041941 0.730724 0.753683
0.042287 0.731069 0.816118
0.042634 0.731416 0.878727
0.042981 0.731763 0.941497
0.043148 0.731930 0.971569
0.041399 0.792204 0.041399
0.041670 0.792474 0.090270
0.041989 0.792794 0.147960
0.042315 0.793119 0.206810
0.042645 0.793449 0.266409
0.042978 0.793782 0.326564
0.043313 0.794118 0.387164
0.043651 0.794455 0.448136
0.043990 0.794794 0.509426
0.044331 0.795135 0.570995
0.044673 0.795477 0.632813
0.045017 0.795821 0.694856
0.045361 0.796165 0.757103
0.045707 0.796511 0.819538
0.046054 0.796858 0.882146
0.046401 0.797205 0.944917
0.046567 0.797372 0.974988
0.044829 0.857833 0.044829
0.045100 0.858103 0.093699
0.045419 0.858423 0.151390
0.045745 0.858749 0.210240
0.046075 0.859079 0.269838
0.046408 0.859412 0.329994
0.046743 0.859747 0.390594
0.047081 0.860084 0.451565
0.047420 0.860424 0.512855
0.047761 0.860765 0.574425
0.048103 0.861107 0.636243
0.048446 0.861450 0.698285
0.048791 0.861795 0.760532
0.049137 0.862140 0.822967
0.049483 0.862487 0.885576
0.049831 0.862834 0.948346
0.049997 0.863001 0.978418
0.048268 0.923636 0.048268
0.048538 0.923907 0.097138
0.048858 0.924226 0.154828
0.049184 0.924552 0.213679
0.049514 0.924882 0.273277
0.049846 0.925215 0.333433
0.050182 0.925550 0.394033
0.050519 0.925888 0.455004
0.050859 0.926227 0.516294
0.051200 0.926568 0.577863
0.051542 0.926910 0.639681
0.051885 0.927254 0.701724
0.052230 0.927598 0.763971
0.052575 0.927944 0.826406
0.052922 0.928290 0.889015
0.053269 0.928638 0.951785
0.053436 0.928804 0.981857
0.051193 0.979614 0.051193
0.051464 0.979885 0.100064
0.051783 0.980204 0.157754
0.052109 0.980530 0.216604
0.052439 0.980860 0.276202
0.052772 0.981193 0.336358
0.053107 0.981528 0.396958
0.053445 0.981866 0.457929
0.053784 0.982205 0.519219
0.054125 0.982546 0.580789
0.054467 0.982888 0.642607
0.054811 0.983232 0.704649
0.055155 0.983576 0.766897
0.055501 0.983922 0.829332
0.055847 0.984268 0.891940
0.056195 0.984616 0.954711
0.056361 0.984782 0.984782
0.007792 0.000126 0.000126
0.008063 0.000396 0.048996
0.008382 0.000716 0.106686
0.008708 0.001041 0.165536
0.009038 0.001371 0.225135
0.009371 0.001704 0.285290
0.009706 0.002040 0.345891
0.010044 0.002377 0.406862
0.010383 0.002716 0.468152
0.010724 0.003057 0.529721
0.011066 0.003400 0.591539
0.011410 0.003743 0.653582
0.011754 0.004088 0.715829
0.012100 0.004433 0.778264
0.012446 0.004780 0.840873
0.012794 0.005127 0.903643
0.012960 0.005294 0.933715
0.009328 0.029506 0.001661
0.009598 0.029776 0.050531
0.009918 0.030096 0.108222
0.010243 0.030421 0.167072
0.010573 0.030751 0.226670
0.010906 0.031084 0.286826
0.011242 0.031420 0.347426
0.011579 0.031757 0.408397
0.011919 0.032097 0.469687
0.012259 0.032437 0.531256
0.012602 0.032780 0.593075
0.012945 0.033123 0.655117
0.013290 0.033468 0.717364
0.013635 0.033813 0.779799
0.013982 0.034160 0.842408
0.014329 0.034507 0.905178
0.014496 0.034674 0.935250
0.012454 0.089330 0.004787
0.012725 0.089600 0.053658
0.013044 0.089920 0.111348
0.013370 0.090245 0.170198
0.013700 0.090575 0.229797
0.014033 0.090908 0.289952
0.014368 0.091244 0.350552
0.014706 0.091581 0.411524
0.015045 0.091921 0.472813
0.015386 0.092261 0.534383
0.015728 0.092604 0.596201
0.016071 0.092947 0.658244
0.016416 0.093292 0.720491
0.016762 0.093637 0.782926
0.017108 0.093984 0.845534
0.017456 0.094331 0.908305
0.017622 0.094498 0.938376
0.015661 0.150704 0.007995
0.015932 0.150974 0.056865
0.016251 0.151294 0.114555
0.016577 0.151619 0.173405
0.016907 0.151949 0.233004
0.017240 0.152282 0.293159
0.017575 0.152618 0.353760
0.017913 0.152955 0.414731
0.018252 0.153295 0.476021
0.018593 0.153635 0.537590
0.018935 0.153978 0.599408
0.019279 0.154321 0.661451
0.019623 0.154666 0.723698
0.019969 0.155011 0.786133
0.020315 0.155358 0.848742
0.020663 0.155705 0.911512
0.020829 0.155872 0.941584
0.018916 0.212980 0.011249
0.019186 0.213250 0.060119
0.019506 0.213570 0.117810
0.019832 0.213896 0.176660
0.020161 0.214225 0.236258
0.020494 0.214558 0.296414
0.020830 0.214894 0.357014
0.021167 0.215231 0.417985
0.021507 0.215571 0.479275
0.021848 0.215912 0.540845
0.022190 0.216254 0.602663
0.022533 0.216597 0.664705
0.022878 0.216942 0.726952
0.023223 0.217287 0.789387
0.023570 0.217634 0.851996
0.023917 0.217981 0.914766
0.024084 0.218148 0.944838
0.022204 0.275901 0.014537
0.022475 0.276172 0.063408
0.022794 0.276491 0.121098
0.023120 0.276817 0.179948
0.023450 0.277147 0.239547
0.023783 0.277480 0.299702
0.024118 0.277815 0.360302
0.024456 0.278153 0.421273
0.024795 0.278492 0.482563
0.025136 0.278833 0.544133
0.025478 0.279175 0.605951
0.025821 0.279518 0.667993
0.026166 0.279863 0.730241
0.026512 0.280209 0.792676
0.026858 0.280555 0.855284
0.027206 0.280903 0.918055
0.027372 0.281069 0.948126
0.025519 0.339327 0.017852
0.025789 0.339597 0.066722
0.026108 0.339916 0.124412
0.026434 0.340242 0.183263
0.026764 0.340572 0.242861
0.027097 0.340905 0.303016
0.027433 0.341241 0.363617
0.027770 0.341578 0.424588
0.028109 0.341917 0.485878
0.028450 0.342258 0.547447
0.028792 0.342600 0.609265
0.029136 0.342944 0.671308
0.029480 0.343288 0.733555
0.029826 0.343634 0.795990
0.030173 0.343981 0.858599
0.030520 0.344328 0.921369
0.030687 0.344495 0.951441
0.028855 0.403167 0.021188
0.029125 0.403437 0.070058
0.029445 0.403757 0.127749
0.029770 0.404083 0.186599
0.030100 0.404412 0.246197
0.030433 0.404745 0.306353
0.030769 0.405081 0.366953
0.031106 0.405418 0.427924
0.031446 0.405758 0.489214
0.031786 0.406099 0.550783
0.032129 0.406441 0.612602
0.032472 0.406784 0.674644
0.032817 0.407129 0.736891
0.033162 0.407474 0.799326
0.033509 0.407821 0.861935
0.033856 0.408168 0.924705
0.034023 0.408335 0.954777
0.032209 0.467360 0.024543
0.032480 0.467630 0.073413
0.032799 0.467950 0.131103
0.033125 0.468276 0.189953
0.033455 0.468605 0.249552
0.033788 0.468938 0.309707
0.034123 0.469274 0.370308
0.034461 0.469611 0.431279
0.034800 0.469951 0.492569
0.035141 0.470292 0.554138
0.035483 0.470634 0.615956
0.035827 0.470977 0.677999
0.036171 0.471322 0.740246
0.036517 0.471667 0.802681
0.036863 0.472014 0.865290
0.037211 0.472361 0.928060
0.037377 0.472528 0.958132
0.035580 0.531860 0.027913
0.035851 0.532131 0.076784
0.036170 0.532450 0.134474
0.036496 0.532776 0.193324
0.036826 0.533106 0.252923
0.037159 0.533439 0.313078
0.037494 0.533774 0.373678
0.037832 0.534112 0.434650
0.038171 0.534451 0.495939
0.038512 0.534792 0.557509
0.038854 0.535134 0.619327
0.039197 0.535477 0.681370
0.039542 0.535822 0.743617
0.039888 0.536168 0.806052
0.040234 0.536514 0.868660
0.040582 0.536862 0.931431
0.040748 0.537028 0.961502
0.038965 0.596632 0.031298
0.039236 0.596903 0.080169
0.039555 0.597222 0.137859
0.039881 0.597548 0.196709
0.040211 0.597878 0.256307
0.040544 0.598211 0.316463
0.040879 0.598546 0.377063
0.041217 0.598884 0.438034
0.041556 0.599223 0.499324
0.041897 0.599564 0.560894
0.042239 0.599906 0.622712
0.042582 0.600250 0.684754
0.042927 0.600594 0.747002
0.043272 0.600940 0.809437
0.043619 0.601286 0.872045
0.043967 0.601634 0.934816
0.044133 0.601800 0.964887
0.042363 0.661649 0.034696
0.042633 0.661919 0.083566
0.042953 0.662239 0.141256
0.043278 0.662565 0.200107
0.043608 0.662895 0.259705
0.043941 0.663228 0.319861
0.044277 0.663563 0.380461
0.044614 0.663901 0.441432
0.044954 0.664240 0.502722
0.045294 0.664581 0.564291
0.045637 0.664923 0.626109
0.045980 0.665266 0.688152
0.046325 0.665611 0.750399
0.046670 0.665956 0.812834
0.047017 0.666303 0.875443
0.047364 0.666650 0.938213
0.047531 0.666817 0.968285
0.045772 0.726888 0.038105
0.046042 0.727158 0.086975
0.046362 0.727477 0.144666
0.046688 0.727803 0.203516
0.047018 0.728133 0.263114
0.047351 0.728466 0.323270
0.047686 0.728802 0.383870
0.048023 0.729139 0.444841
0.048363 0.729478 0.506131
0.048704 0.729819 0.567701
0.049046 0.730161 0.629519
0.049389 0.730505 0.691561
0.049734 0.730849 0.753808
0.050079 0.731195 0.816243
0.050426 0.731542 0.878852
0.050773 0.731889 0.941623
0.050940 0.732056 0.971694
0.049192 0.792329 0.041525
0.049462 0.792600 0.090395
0.049782 0.792919 0.148086
0.050108 0.793245 0.206936
0.050437 0.793575 0.266534
0.050770 0.793908 0.326690
0.051106 0.794243 0.387290
0.051443 0.794581 0.448261
0.051783 0.794920 0.509551
0.052123 0.795261 0.571121
0.052466 0.795603 0.632939
0.052809 0.795947 0.694981
0.053154 0.796291 0.757228
0.053499 0.796637 0.819663
0.053846 0.796983 0.882272
0.054193 0.797331 0.945042
0.054360 0.797497 0.975114
0.052622 0.857959 0.044955
0.052892 0.858229 0.093825
0.053211 0.858548 0.151515
0.053537 0.858874 0.210366
0.053867 0.859204 0.269964
0.054200 0.859537 0.330119
0.054536 0.859873 0.390720
0.054873 0.860210 0.451691
0.055212 0.860549 0.512981
0.055553 0.860890 0.574550
0.055895 0.861232 0.636368
0.056239 0.861576 0.698411
0.056583 0.861920 0.760658
0.056929 0.862266 0.823093
0.057276 0.862613 0.885702
0.057623 0.862960 0.948472
0.057790 0.863127 0.978544
0.056060 0.923762 0.048394
0.056331 0.924033 0.097264
0.056650 0.924352 0.154954
0.056976 0.924678 0.213804
0.057306 0.925008 0.273403
0.057639 0.925341 0.333558
0.057974 0.925676 0.394158
0.058312 0.926014 0.455130
0.058651 0.926353 0.516420
0.058992 0.926694 0.577989
0.059334 0.927036 0.639807
0.059678 0.927379 0.701850
0.060022 0.927724 0.764097
0.060368 0.928070 0.826532
0.060714 0.928416 0.889141
0.061062 0.928764 0.951911
0.061228 0.928930 0.981983
0.058986 0.979740 0.051319
0.059256 0.980011 0.100189
0.059576 0.980330 0.157879
0.059901 0.980656 0.216730
0.060231 0.980986 0.276328
0.060564 0.981319 0.336484
0.060900 0.981654 0.397084
0.061237 0.981992 0.458055
0.061576 0.982331 0.519345
0.061917 0.982672 0.580914
0.062260 0.983014 0.642732
0.062603 0.983357 0.704775
0.062948 0.983702 0.767022
0.063293 0.984047 0.829457
0.063640 0.984394 0.892066
0.063987 0.984742 0.954836
0.064154 0.984908 0.984908
0.064340 0.001038 0.001038
0.064610 0.001308 0.049908
0.064929 0.001627 0.107598
0.065255 0.001953 0.166448
0.065585 0.002283 0.226047
0.065918 0.002616 0.286202
0.066254 0.002952 0.346802
0.066591 0.003289 0.407774
0.066930 0.003628 0.469064
0.067271 0.003969 0.530633
0.067613 0.004311 0.592451
0.067957 0.004655 0.654494
0.068301 0.004999 0.716741
0.068647 0.005345 0.779176
0.068994 0.005692 0.841785
0.069341 0.006039 0.904555
0.069508 0.006206 0.934627
0.065875 0.030418 0.002573
0.066145 0.030688 0.051443
0.066465 0.031008 0.109133
0.066791 0.031333 0.167984
0.067121 0.031663 0.227582
0.067454 0.031996 0.287738
0.067789 0.032332 0.348338
0.068126 0.032669 0.409309
0.068466 0.033009 0.470599
0.068807 0.033349 0.532168
0.069149 0.033692 0.593986
0.069492 0.034035 0.656029
0.069837 0.034380 0.718276
0.070182 0.034725 0.780711
0.070529 0.035072 0.843320
0.070876 0.035419 0.906090
0.071043 0.035586 0.936162
0.069001 0.090242 0.005699
0.069272 0.090512 0.054570
0.069591 0.090831 0.112260
0.069917 0.091157 0.171110
0.070247 0.091487 0.230708
0.070580 0.091820 0.290864
0.070915 0.092156 0.351464
0.071253 0.092493 0.412435
0.071592 0.092832 0.473725
0.071933 0.093173 0.535295
0.072275 0.093515 0.597113
0.072619 0.093859 0.659155
0.072963 0.094203 0.721403
0.073309 0.094549 0.783838
0.073655 0.094896 0.846446
0.074003 0.095243 0.909217
0.074169 0.095410 0.939288
0.072209 0.151616 0.008907
0.072479 0.151886 0.057777
0.072798 0.152206 0.115467
0.073124 0.152531 0.174317
0.073454 0.152861 0.233916
0.073787 0.153194 0.294071
0.074123 0.153530 0.354671
0.074460 0.153867 0.415643
0.074799 0.154206 0.476933
0.075140 0.154547 0.538502
0.075482 0.154890 0.600320
0.075826 0.155233 0.662363
0.076170 0.155578 0.724610
0.076516 0.155923 0.787045
0.076863 0.156270 0.849654
0.077210 0.156617 0.912424
0.077377 0.156784 0.942496
0.075463 0.213892 0.012161
0.075734 0.214162 0.061031
0.076053 0.214482 0.118722
0.076379 0.214807 0.177572
0.076709 0.215137 0.237170
0.077042 0.215470 0.297326
0.077377 0.215806 0.357926
0.077715 0.216143 0.418897
0.078054 0.216483 0.480187
0.078395 0.216823 0.541756
0.078737 0.217166 0.603575
0.079080 0.217509 0.665617
0.079425 0.217854 0.727864
0.079771 0.218199 0.790299
0.080117 0.218546 0.852908
0.080465 0.218893 0.915678
0.080631 0.219060 0.945750
0.078751 0.276813 0.015449
0.079022 0.277084 0.064320
0.079341 0.277403 0.122010
0.079667 0.277729 0.180860
0.079997 0.278059 0.240458
0.080330 0.278392 0.300614
0.080665 0.278727 0.361214
0.081003 0.279065 0.422185
0.081342 0.279404 0.483475
0.081683 0.279745 0.545045
0.082025 0.280087 0.606863
0.082369 0.280430 0.668905
0.082713 0.280775 0.731153
0.083059 0.281121 0.793587
0.083405 0.281467 0.856196
0.083753 0.281815 0.918967
0.083919 0.281981 0.949038
0.082066 0.340239 0.018764
0.082336 0.340509 0.067634
0.082656 0.340828 0.125324
0.082981 0.341154 0.184174
0.083311 0.341484 0.243773
0.083644 0.341817 0.303928
0.083980 0.342153 0.364529
0.084317 0.342490 0.425500
0.084657 0.342829 0.486790
0.084997 0.343170 0.548359
0.085340 0.343512 0.610177
0.085683 0.343856 0.672220
0.086028 0.344200 0.734467
0.086373 0.344546 0.796902
0.086720 0.344893 0.859511
0.087067 0.345240 0.922281
0.087234 0.345407 0.952353
0.085402 0.404079 0.022100
0.085672 0.404349 0.070970
0.085992 0.404669 0.128660
0.086318 0.404994 0.187511
0.086648 0.405324 0.247109
0.086981 0.405657 0.307265
0.087316 0.405993 0.367865
0.087653 0.406330 0.428836
0.087993 0.406670 0.490126
0.088334 0.407010 0.551695
0.088676 0.407353 0.613514
0.089019 0.407696 0.675556
0.089364 0.408041 0.737803
0.089709 0.408386 0.800238
0.090056 0.408733 0.862847
0.090403 0.409080 0.925617
0.090570 0.409247 0.955689
0.088757 0.468272 0.025455
0.089027 0.468542 0.074325
0.089346 0.468862 0.132015
0.089672 0.469187 0.190865
0.090002 0.469517 0.250464
0.090335 0.469850 0.310619
0.090671 0.470186 0.371219
0.091008 0.470523 0.432191
0.091347 0.470863 0.493481
0.091688 0.471203 0.555050
0.092030 0.471546 0.616868
0.092374 0.471889 0.678911
0.092718 0.472234 0.741158
0.093064 0.472579 0.803593
0.093411 0.472926 0.866202
0.093758 0.473273 0.928972
0.093925 0.473440 0.959044
0.092127 0.532772 0.028825
0.092398 0.533042 0.077696
0.092717 0.533362 0.135386
0.093043 0.533688 0.194236
0.093373 0.534018 0.253834
0.093706 0.534351 0.313990
0.094041 0.534686 0.374590
0.094379 0.535023 0.435561
0.094718 0.535363 0.496851
0.095059 0.535704 0.558421
0.095401 0.536046 0.620239
0.095745 0.536389 0.682281
0.096089 0.536734 0.744529
0.096435 0.537079 0.806964
0.096781 0.537426 0.869572
0.097129 0.537773 0.932343
0.097295 0.537940 0.962414
0.095512 0.597544 0.032210
0.095783 0.597815 0.081080
0.096102 0.598134 0.138771
0.096428 0.598460 0.197621
0.096758 0.598790 0.257219
0.097091 0.599123 0.317375
0.097426 0.599458 0.377975
0.097764 0.599796 0.438946
0.098103 0.600135 0.500236
0.098444 0.600476 0.561806
0.098786 0.600818 0.623624
0.099129 0.601162 0.685666
0.099474 0.601506 0.747913
0.099820 0.601852 0.810348
0.100166 0.602198 0.872957
0.100514 0.602546 0.935728
0.100680 0.602712 0.965799
0.098910 0.662561 0.035608
0.099180 0.662831 0.084478
0.099500 0.663151 0.142168
0.099826 0.663477 0.201019
0.100155 0.663806 0.260617
0.100488 0.664139 0.320772
0.100824 0.664475 0.381373
0.101161 0.664812 0.442344
0.101501 0.665152 0.503634
0.101841 0.665493 0.565203
0.102184 0.665835 0.627021
0.102527 0.666178 0.689064
0.102872 0.666523 0.751311
0.103217 0.666868 0.813746
0.103564 0.667215 0.876355
0.103911 0.667562 0.939125
0.104078 0.667729 0.969197
0.102319 0.727799 0.039017
0.102590 0.728070 0.087887
0.102909 0.728389 0.145578
0.103235 0.728715 0.204428
0.103565 0.729045 0.264026
0.103898 0.729378 0.324182
0.104233 0.729713 0.384782
0.104571 0.730051 0.445753
0.104910 0.730390 0.507043
0.105251 0.730731 0.568613
0.105593 0.731073 0.630431
0.105936 0.731417 0.692473
0.106281 0.731761 0.754720
0.106627 0.732107 0.817155
0.106973 0.732453 0.879764
0.107321 0.732801 0.942534
0.107487 0.732967 0.972606
0.105739 0.793241 0.042437
0.106010 0.793512 0.091307
0.106329 0.793831 0.148998
0.106655 0.794157 0.207848
0.106985 0.794487 0.267446
0.107318 0.794820 0.327602
0.107653 0.795155 0.388202
0.107991 0.795493 0.449173
0.108330 0.795832 0.510463
0.108671 0.796173 0.572032
0.109013 0.796515 0.633851
0.109356 0.796858 0.695893
0.109701 0.797203 0.758140
0.110047 0.797549 0.820575
0.110393 0.797895 0.883184
0.110741 0.798243 0.945954
0.110907 0.798409 0.976026
0.109169 0.858871 0.045867
0.109439 0.859141 0.094737
0.109759 0.859460 0.152427
0.110084 0.859786 0.211277
0.110414 0.860116 0.270876
0.110747 0.860449 0.331031
0.111083 0.860785 0.391632
0.111420 0.861122 0.452603
0.111760 0.861461 0.513893
0.112100 0.861802 0.575462
0.112443 0.862144 0.637280
0.112786 0.862488 0.699323
0.113131 0.862832 0.761570
0.113476 0.863178 0.824005
0.113823 0.863525 0.886614
0.114170 0.863872 0.949384
0.114337 0.864039 0.979456
0.112608 0.924674 0.049306
0.112878 0.924944 0.098176
0.113197 0.925264 0.155866
0.113523 0.925590 0.214716
0.113853 0.925920 0.274315
0.114186 0.926253 0.334470
0.114522 0.926588 0.395070
0.114859 0.926925 0.456042
0.115198 0.927265 0.517332
0.115539 0.927606 0.578901
0.115881 0.927948 0.640719
0.116225 0.928291 0.702762
0.116569 0.928636 0.765009
0.116915 0.928981 0.827444
0.117262 0.929328 0.890052
0.117609 0.929675 0.952823
0.117776 0.929842 0.982895
0.115533 0.980652 0.052231
0.115803 0.980922 0.101101
0.116123 0.981242 0.158791
0.116448 0.981568 0.217642
0.116778 0.981897 0.277240
0.117111 0.982230 0.337395
0.117447 0.982566 0.397996
0.117784 0.982903 0.458967
0.118124 0.983243 0.520257
0.118464 0.983584 0.581826
0.118807 0.983926 0.643644
0.119150 0.984269 0.705687
0.119495 0.984614 0.767934
0.119840 0.984959 0.830369
0.120187 0.985306 0.892978
0.120534 0.985653 0.955748
0.120701 0.985820 0.985820
0.123022 0.001984 0.001984
0.123292 0.002254 0.050854
0.123612 0.002574 0.108544
0.123937 0.002900 0.167395
0.124267 0.003229 0.226993
0.124600 0.003562 0.287149
0.124936 0.003898 0.347749
0.125273 0.004235 0.408720
0.125613 0.004575 0.470010
0.125953 0.004916 0.531579
0.126296 0.005258 0.593397
0.126639 0.005601 0.655440
0.126984 0.005946 0.717687
0.127329 0.006291 0.780122
0.127676 0.006638 0.842731
0.128023 0.006985 0.905501
0.128190 0.007152 0.935573
0.124557 0.031364 0.003519
