skills/editops-orchestrator/assets/grade/luts/moody_teal_v06.cube
TITLE "moody_teal_v06"
LUT_3D_SIZE 9
DOMAIN_MIN 0.0 0.0 0.0
DOMAIN_MAX 1.0 1.0 1.0
0.000000 0.000000 0.000000
0.000590 0.000590 0.106561
0.001246 0.001246 0.225009
0.001914 0.001914 0.345765
0.002591 0.002591 0.468026
0.003274 0.003274 0.591414
0.003962 0.003962 0.715703
0.004654 0.004654 0.840747
0.005168 0.005168 0.933589
0.004662 0.089204 0.004662
0.005252 0.089794 0.111222
0.005907 0.090450 0.229671
0.006576 0.091118 0.350427
0.007252 0.091795 0.472688
0.007936 0.092478 0.596075
0.008624 0.093166 0.720365
0.009316 0.093858 0.845409
0.009830 0.094372 0.938251
0.011123 0.212854 0.011123
0.011713 0.213444 0.117684
0.012369 0.214100 0.236133
0.013037 0.214768 0.356888
0.013714 0.215445 0.479150
0.014397 0.216128 0.602537
0.015085 0.216816 0.726827
0.015778 0.217508 0.851870
0.016291 0.218022 0.944713
0.017726 0.339201 0.017726
0.018316 0.339791 0.124287
0.018972 0.340447 0.242735
0.019640 0.341115 0.363491
0.020317 0.341792 0.485752
0.021000 0.342475 0.609140
0.021688 0.343163 0.733429
0.022380 0.343855 0.858473
0.022894 0.344369 0.951315
0.024417 0.467234 0.024417
0.025007 0.467824 0.130978
0.025663 0.468480 0.249426
0.026331 0.469148 0.370182
0.027008 0.469825 0.492443
0.027691 0.470508 0.615831
0.028379 0.471196 0.740120
0.029071 0.471888 0.865164
0.029585 0.472402 0.958006
0.031173 0.596507 0.031173
0.031762 0.597097 0.137733
0.032418 0.597752 0.256182
0.033087 0.598421 0.376937
0.033763 0.599097 0.499199
0.034446 0.599780 0.622586
0.035134 0.600469 0.746876
0.035827 0.601161 0.871920
0.036341 0.601675 0.964762
0.037980 0.726762 0.037980
0.038569 0.727352 0.144540
0.039225 0.728007 0.262989
0.039894 0.728676 0.383744
0.040570 0.729353 0.506006
0.041253 0.730036 0.629393
0.041941 0.730724 0.753683
0.042634 0.731416 0.878727
0.043148 0.731930 0.971569
0.044829 0.857833 0.044829
0.045419 0.858423 0.151390
0.046075 0.859079 0.269838
0.046743 0.859747 0.390594
0.047420 0.860424 0.512855
0.048103 0.861107 0.636243
0.048791 0.861795 0.760532
0.049483 0.862487 0.885576
0.049997 0.863001 0.978418
0.051193 0.979614 0.051193
0.051783 0.980204 0.157754
0.052439 0.980860 0.276202
0.053107 0.981528 0.396958
0.053784 0.982205 0.519219
0.054467 0.982888 0.642607
0.055155 0.983576 0.766897
0.055847 0.984268 0.891940
0.056361 0.984782 0.984782
0.064340 0.001038 0.001038
0.064929 0.001627 0.107598
0.065585 0.002283 0.226047
0.066254 0.002952 0.346802
0.066930 0.003628 0.469064
0.067613 0.004311 0.592451
0.068301 0.004999 0.716741
0.068994 0.005692 0.841785
0.069508 0.006206 0.934627
0.069001 0.090242 0.005699
0.069591 0.090831 0.112260
0.070247 0.091487 0.230708
0.070915 0.092156 0.351464
0.071592 0.092832 0.473725
0.072275 0.093515 0.597113
0.072963 0.094203 0.721403
0.073655 0.094896 0.846446
0.074169 0.095410 0.939288
0.075463 0.213892 0.012161
0.076053 0.214482 0.118722
0.076709 0.215137 0.237170
0.077377 0.215806 0.357926
0.078054 0.216483 0.480187
0.078737 0.217166 0.603575
0.079425 0.217854 0.727864
0.080117 0.218546 0.852908
0.080631 0.219060 0.945750
0.082066 0.340239 0.018764
0.082656 0.340828 0.125324
0.083311 0.341484 0.243773
0.083980 0.342153 0.364529
0.084657 0.342829 0.486790
0.085340 0.343512 0.610177
0.086028 0.344200 0.734467
0.086720 0.344893 0.859511
0.087234 0.345407 0.952353
0.088757 0.468272 0.025455
0.089346 0.468862 0.132015
0.090002 0.469517 0.250464
0.090671 0.470186 0.371219
0.091347 0.470863 0.493481
0.092030 0.471546 0.616868
0.092718 0.472234 0.741158
0.093411 0.472926 0.866202
0.093925 0.473440 0.959044
0.095512 0.597544 0.032210
0.096102 0.598134 0.138771
0.096758 0.598790 0.257219
0.097426 0.599458 0.377975
0.098103 0.600135 0.500236
0.098786 0.600818 0.623624
0.099474 0.601506 0.747913
0.100166 0.602198 0.872957
0.100680 0.602712 0.965799
0.102319 0.727799 0.039017
0.102909 0.728389 0.145578
0.103565 0.729045 0.264026
0.104233 0.729713 0.384782
0.104910 0.730390 0.507043
0.105593 0.731073 0.630431
0.106281 0.731761 0.754720
0.106973 0.732453 0.879764
0.107487 0.732967 0.972606
0.109169 0.858871 0.045867
0.109759 0.859460 0.152427
0.110414 0.860116 0.270876
0.111083 0.860785 0.391632
0.111760 0.861461 0.513893
0.112443 0.862144 0.637280
0.113131 0.862832 0.761570
0.113823 0.863525 0.886614
0.114337 0.864039 0.979456
0.115533 0.980652 0.052231
0.116123 0.981242 0.158791
0.116778 0.981897 0.277240
0.117447 0.982566 0.397996
0.118124 0.983243 0.520257
0.118807 0.983926 0.643644
0.119495 0.984614 0.767934
0.120187 0.985306 0.892978
0.120701 0.985820 0.985820
0.182728 0.002947 0.002947
0.183318 0.003537 0.109507
0.183973 0.004192 0.227956
0.184642 0.004861 0.348712
0.185318 0.005538 0.470973
0.186001 0.006221 0.594360
0.186690 0.006909 0.718650
0.187382 0.007601 0.843694
0.187896 0.008115 0.936536
0.187389 0.092151 0.007608
0.187979 0.092741 0.114169
0.188635 0.093396 0.232618
0.189303 0.094065 0.353373
0.189980 0.094742 0.475635
0.190663 0.095425 0.599022
0.191351 0.096113 0.723312
0.192043 0.096805 0.848355
0.192557 0.097319 0.941198
0.193851 0.215801 0.014070
0.194441 0.216391 0.120631
0.195097 0.217047 0.239079
0.195765 0.217715 0.359835
0.196442 0.218392 0.482096
0.197125 0.219075 0.605484
0.197813 0.219763 0.729774
0.198505 0.220455 0.854817
0.199019 0.220969 0.947659
0.200454 0.342148 0.020673
0.201044 0.342738 0.127233
0.201699 0.343393 0.245682
0.202368 0.344062 0.366438
0.203045 0.344739 0.488699
0.203728 0.345422 0.612086
0.204416 0.346110 0.736376
0.205108 0.346802 0.861420
0.205622 0.347316 0.954262
0.207145 0.470181 0.027364
0.207735 0.470771 0.133924
0.208390 0.471427 0.252373
0.209059 0.472095 0.373129
0.209735 0.472772 0.495390
0.210418 0.473455 0.618777
0.211107 0.474143 0.743067
0.211799 0.474835 0.868111
0.212313 0.475349 0.960953
0.213900 0.599453 0.034119
0.214490 0.600043 0.140680
0.215146 0.600699 0.259129
0.215814 0.601367 0.379884
0.216491 0.602044 0.502145
0.217174 0.602727 0.625533
0.217862 0.603415 0.749823
0.218554 0.604107 0.874866
0.219068 0.604621 0.967708
0.220707 0.729709 0.040926
0.221297 0.730298 0.147487
0.221953 0.730954 0.265936
0.222621 0.731623 0.386691
0.223298 0.732299 0.508952
0.223981 0.732982 0.632340
0.224669 0.733670 0.756630
0.225361 0.734363 0.881673
0.225875 0.734877 0.974515
0.227557 0.860780 0.047776
0.228147 0.861370 0.154336
0.228802 0.862025 0.272785
0.229471 0.862694 0.393541
0.230148 0.863371 0.515802
0.230831 0.864054 0.639189
0.231519 0.864742 0.763479
0.232211 0.865434 0.888523
0.232725 0.865948 0.981365
0.233921 0.982561 0.054140
0.234511 0.983151 0.160701
0.235166 0.983807 0.279149
0.235835 0.984475 0.399905
0.236512 0.985152 0.522166
0.237195 0.985835 0.645554
0.237883 0.986523 0.769843
0.238575 0.987215 0.894887
0.239089 0.987729 0.987729
0.304056 0.004903 0.004903
0.304646 0.005493 0.111464
0.305301 0.006149 0.229913
0.305970 0.006817 0.350668
0.306647 0.007494 0.472930
0.307330 0.008177 0.596317
0.308018 0.008865 0.720607
0.308710 0.009557 0.845650
0.309224 0.010071 0.938492
0.308718 0.094107 0.009565
0.309307 0.094697 0.116126
0.309963 0.095353 0.234574
0.310632 0.096021 0.355330
0.311308 0.096698 0.477591
0.311991 0.097381 0.600979
0.312679 0.098069 0.725268
0.313372 0.098761 0.850312
0.313886 0.099275 0.943154
0.315179 0.217758 0.016027
0.315769 0.218347 0.122587
0.316425 0.219003 0.241036
0.317093 0.219672 0.361792
0.317770 0.220348 0.484053
0.318453 0.221031 0.607440
0.319141 0.221719 0.731730
0.319833 0.222412 0.856774
0.320347 0.222926 0.949616
0.321782 0.344104 0.022630
0.322372 0.344694 0.129190
0.323028 0.345350 0.247639
0.323696 0.346018 0.368394
0.324373 0.346695 0.490656
0.325056 0.347378 0.614043
0.325744 0.348066 0.738333
0.326436 0.348758 0.863377
0.326950 0.349272 0.956219
0.328473 0.472138 0.029320
0.329063 0.472728 0.135881
0.329718 0.473383 0.254330
0.330387 0.474052 0.375085
0.331064 0.474728 0.497347
0.331747 0.475411 0.620734
0.332435 0.476099 0.745024
0.333127 0.476792 0.870067
0.333641 0.477306 0.962909
0.335228 0.601410 0.036076
0.335818 0.602000 0.142637
0.336474 0.602656 0.261085
0.337142 0.603324 0.381841
0.337819 0.604001 0.504102
0.338502 0.604684 0.627490
0.339190 0.605372 0.751779
0.339882 0.606064 0.876823
0.340396 0.606578 0.969665
0.342035 0.731665 0.042883
0.342625 0.732255 0.149443
0.343281 0.732911 0.267892
0.343949 0.733579 0.388648
0.344626 0.734256 0.510909
0.345309 0.734939 0.634296
0.345997 0.735627 0.758586
0.346689 0.736319 0.883630
0.347203 0.736833 0.976472
0.348885 0.862736 0.049733
0.349475 0.863326 0.156293
0.350131 0.863982 0.274742
0.350799 0.864650 0.395497
0.351476 0.865327 0.517759
0.352159 0.866010 0.641146
0.352847 0.866698 0.765436
0.353539 0.867390 0.890480
0.354053 0.867904 0.983322
0.355249 0.984518 0.056097
0.355839 0.985108 0.162657
0.356495 0.985763 0.281106
0.357163 0.986432 0.401862
0.357840 0.987109 0.524123
0.358523 0.987792 0.647510
0.359211 0.988480 0.771800
0.359903 0.989172 0.896844
0.360417 0.989686 0.989686
0.427127 0.006888 0.006888
0.427717 0.007478 0.113449
0.428373 0.008134 0.231897
0.429041 0.008802 0.352653
0.429718 0.009479 0.474914
0.430401 0.010162 0.598302
0.431089 0.010850 0.722591
0.431781 0.011542 0.847635
0.432295 0.012056 0.940477
0.431789 0.096092 0.011550
0.432379 0.096682 0.118110
0.433034 0.097338 0.236559
0.433703 0.098006 0.357315
0.434380 0.098683 0.479576
0.435063 0.099366 0.602963
0.435751 0.100054 0.727253
0.436443 0.100746 0.852297
0.436957 0.101260 0.945139
0.438251 0.219742 0.018012
0.438840 0.220332 0.124572
0.439496 0.220988 0.243021
0.440165 0.221656 0.363776
0.440841 0.222333 0.486038
0.441524 0.223016 0.609425
0.442212 0.223704 0.733715
0.442905 0.224396 0.858759
0.443419 0.224910 0.951601
0.444853 0.346089 0.024614
0.445443 0.346679 0.131175
0.446099 0.347335 0.249624
0.446767 0.348003 0.370379
0.447444 0.348680 0.492640
0.448127 0.349363 0.616028
0.448815 0.350051 0.740318
0.449507 0.350743 0.865361
0.450021 0.351257 0.958203
0.451544 0.474122 0.031305
0.452134 0.474712 0.137866
0.452790 0.475368 0.256314
0.453458 0.476036 0.377070
0.454135 0.476713 0.499331
0.454818 0.477396 0.622719
0.455506 0.478084 0.747008
0.456198 0.478776 0.872052
0.456712 0.479290 0.964894
0.458300 0.603395 0.038061
0.458890 0.603985 0.144621
0.459545 0.604640 0.263070
0.460214 0.605309 0.383826
0.460891 0.605986 0.506087
0.461574 0.606669 0.629474
0.462262 0.607357 0.753764
0.462954 0.608049 0.878808
0.463468 0.608563 0.971650
0.465107 0.733650 0.044868
0.465697 0.734240 0.151428
0.466352 0.734896 0.269877
0.467021 0.735564 0.390633
0.467698 0.736241 0.512894
0.468381 0.736924 0.636281
0.469069 0.737612 0.760571
0.469761 0.738304 0.885615
0.470275 0.738818 0.978457
0.471956 0.864721 0.051717
0.472546 0.865311 0.158278
0.473202 0.865967 0.276726
0.473870 0.866635 0.397482
0.474547 0.867312 0.519743
0.475230 0.867995 0.643131
0.475918 0.868683 0.767421
0.476610 0.869375 0.892464
0.477124 0.869889 0.985306
0.478320 0.986502 0.058081
0.478910 0.987092 0.164642
0.479566 0.987748 0.283091
0.480234 0.988416 0.403846
0.480911 0.989093 0.526107
0.481594 0.989776 0.649495
0.482282 0.990464 0.773785
0.482974 0.991156 0.898828
0.483488 0.991670 0.991670
0.551453 0.008893 0.008893
0.552043 0.009483 0.115454
0.552699 0.010139 0.233902
0.553367 0.010807 0.354658
0.554044 0.011484 0.476919
0.554727 0.012167 0.600307
0.555415 0.012855 0.724596
0.556107 0.013547 0.849640
0.556621 0.014061 0.942482
0.556115 0.098097 0.013555
0.556705 0.098687 0.120115
0.557360 0.099343 0.238564
0.558029 0.100011 0.359320
0.558706 0.100688 0.481581
0.559389 0.101371 0.604968
0.560077 0.102059 0.729258
0.560769 0.102751 0.854302
0.561283 0.103265 0.947144
0.562577 0.221747 0.020017
0.563167 0.222337 0.126577
0.563822 0.222993 0.245026
0.564491 0.223661 0.365781
0.565167 0.224338 0.488043
0.565850 0.225021 0.611430
0.566539 0.225709 0.735720
0.567231 0.226401 0.860764
0.567745 0.226915 0.953606
0.569179 0.348094 0.026619
0.569769 0.348684 0.133180
0.570425 0.349340 0.251628
0.571093 0.350008 0.372384
0.571770 0.350685 0.494645
0.572453 0.351368 0.618033
0.573141 0.352056 0.742323
0.573833 0.352748 0.867366
0.574347 0.353262 0.960208
0.575870 0.476127 0.033310
0.576460 0.476717 0.139871
0.577116 0.477373 0.258319
0.577784 0.478041 0.379075
0.578461 0.478718 0.501336
0.579144 0.479401 0.624724
0.579832 0.480089 0.749013
0.580524 0.480781 0.874057
0.581038 0.481295 0.966899
0.582626 0.605400 0.040066
0.583216 0.605990 0.146626
0.583871 0.606645 0.265075
0.584540 0.607314 0.385831
0.585217 0.607991 0.508092
0.585900 0.608674 0.631479
0.586588 0.609362 0.755769
0.587280 0.610054 0.880813
0.587794 0.610568 0.973655
0.589433 0.735655 0.046873
0.590023 0.736245 0.153433
0.590678 0.736900 0.271882
0.591347 0.737569 0.392637
0.592024 0.738246 0.514899
0.592707 0.738929 0.638286
0.593395 0.739617 0.762576
0.594087 0.740309 0.887620
0.594601 0.740823 0.980462
0.596282 0.866726 0.053722
0.596872 0.867316 0.160283
0.597528 0.867972 0.278731
0.598196 0.868640 0.399487
0.598873 0.869317 0.521748
0.599556 0.870000 0.645136
0.600244 0.870688 0.769425
0.600936 0.871380 0.894469
0.601450 0.871894 0.987311
0.602646 0.988507 0.060086
0.603236 0.989097 0.166647
0.603892 0.989753 0.285096
0.604560 0.990421 0.405851
0.605237 0.991098 0.528112
0.605920 0.991781 0.651500
0.606608 0.992469 0.775790
0.607301 0.993161 0.900833
0.607814 0.993675 0.993675
0.676763 0.010914 0.010914
0.677353 0.011504 0.117474
0.678009 0.012159 0.235923
0.678678 0.012828 0.356679
0.679354 0.013505 0.478940
0.680037 0.014188 0.602327
0.680725 0.014876 0.726617
0.681418 0.015568 0.851661
0.681931 0.016082 0.944503
0.681425 0.100118 0.015576
0.682015 0.100708 0.122136
0.682671 0.101363 0.240585
0.683339 0.102032 0.361340
0.684016 0.102709 0.483602
0.684699 0.103392 0.606989
0.685387 0.104080 0.731279
0.686079 0.104772 0.856323
0.686593 0.105286 0.949165
0.687887 0.223768 0.022037
0.688477 0.224358 0.128598
0.689133 0.225014 0.247047
0.689801 0.225682 0.367802
0.690478 0.226359 0.490063
0.691161 0.227042 0.613451
0.691849 0.227730 0.737741
0.692541 0.228422 0.862784
0.693055 0.228936 0.955626
0.694490 0.350115 0.028640
0.695080 0.350705 0.135201
0.695735 0.351360 0.253649
0.696404 0.352029 0.374405
0.697080 0.352706 0.496666
0.697763 0.353389 0.620054
0.698452 0.354077 0.744343
0.699144 0.354769 0.869387
0.699658 0.355283 0.962229
0.701180 0.478148 0.035331
0.701770 0.478738 0.141891
0.702426 0.479394 0.260340
0.703095 0.480062 0.381096
0.703771 0.480739 0.503357
0.704454 0.481422 0.626744
0.705142 0.482110 0.751034
0.705835 0.482802 0.876078
0.706348 0.483316 0.968920
0.707936 0.607421 0.042086
0.708526 0.608010 0.148647
0.709182 0.608666 0.267096
0.709850 0.609335 0.387851
0.710527 0.610011 0.510113
0.711210 0.610694 0.633500
0.711898 0.611382 0.757790
0.712590 0.612075 0.882833
0.713104 0.612589 0.975676
0.714743 0.737676 0.048893
0.715333 0.738266 0.155454
0.715989 0.738921 0.273903
0.716657 0.739590 0.394658
0.717334 0.740267 0.516920
0.718017 0.740950 0.640307
0.718705 0.741638 0.764597
0.719397 0.742330 0.889640
0.719911 0.742844 0.982482
0.721593 0.868747 0.055743
0.722182 0.869337 0.162304
0.722838 0.869992 0.280752
0.723507 0.870661 0.401508
0.724183 0.871338 0.523769
0.724866 0.872021 0.647157
0.725554 0.872709 0.771446
0.726247 0.873401 0.896490
0.726761 0.873915 0.989332
0.727957 0.990528 0.062107
0.728547 0.991118 0.168668
0.729202 0.991774 0.287116
0.729871 0.992442 0.407872
0.730548 0.993119 0.530133
0.731231 0.993802 0.653521
0.731919 0.994490 0.777810
0.732611 0.995182 0.902854
0.733125 0.995696 0.995696
0.802885 0.012948 0.012948
0.803475 0.013538 0.119508
0.804131 0.014193 0.237957
0.804799 0.014862 0.358713
0.805476 0.015539 0.480974
0.806159 0.016222 0.604361
0.806847 0.016910 0.728651
0.807539 0.017602 0.853695
0.808053 0.018116 0.946537
0.807547 0.102152 0.017609
0.808137 0.102742 0.124170
0.808792 0.103397 0.242619
0.809461 0.104066 0.363374
0.810138 0.104743 0.485636
0.810821 0.105426 0.609023
0.811509 0.106114 0.733313
0.812201 0.106806 0.858356
0.812715 0.107320 0.951199
0.814009 0.225802 0.024071
0.814598 0.226392 0.130632
0.815254 0.227048 0.249081
0.815923 0.227716 0.369836
0.816599 0.228393 0.492097
0.817282 0.229076 0.615485
0.817970 0.229764 0.739775
0.818663 0.230456 0.864818
0.819177 0.230970 0.957660
0.820611 0.352149 0.030674
0.821201 0.352739 0.137235
0.821857 0.353394 0.255683
0.822525 0.354063 0.376439
0.823202 0.354740 0.498700
0.823885 0.355423 0.622088
0.824573 0.356111 0.746377
0.825265 0.356803 0.871421
0.825779 0.357317 0.964263
0.827302 0.480182 0.037365
0.827892 0.480772 0.143925
0.828548 0.481428 0.262374
0.829216 0.482096 0.383130
0.829893 0.482773 0.505391
0.830576 0.483456 0.628778
0.831264 0.484144 0.753068
0.831956 0.484836 0.878112
0.832470 0.485350 0.970954
0.834058 0.609454 0.044120
0.834648 0.610044 0.150681
0.835303 0.610700 0.269130
0.835972 0.611368 0.389885
0.836649 0.612045 0.512147
0.837332 0.612728 0.635534
0.838020 0.613416 0.759824
0.838712 0.614109 0.884867
0.839226 0.614622 0.977709
0.840865 0.739710 0.050927
0.841455 0.740300 0.157488
0.842110 0.740955 0.275937
0.842779 0.741624 0.396692
0.843456 0.742300 0.518953
0.844139 0.742983 0.642341
0.844827 0.743672 0.766631
0.845519 0.744364 0.891674
0.846033 0.744878 0.984516
0.847714 0.870781 0.057777
0.848304 0.871371 0.164337
0.848960 0.872026 0.282786
0.849628 0.872695 0.403542
0.850305 0.873372 0.525803
0.850988 0.874055 0.649191
0.851676 0.874743 0.773480
0.852368 0.875435 0.898524
0.852882 0.875949 0.991366
0.854078 0.992562 0.064141
0.854668 0.993152 0.170702
0.855324 0.993808 0.289150
0.855992 0.994476 0.409906
0.856669 0.995153 0.532167
0.857352 0.995836 0.655555
0.858040 0.996524 0.779844
0.858732 0.997216 0.904888
0.859246 0.997730 0.997730
0.929698 0.014993 0.014993
0.930288 0.015583 0.121553
0.930943 0.016238 0.240002
0.931612 0.016907 0.360758
0.932289 0.017584 0.483019
0.932972 0.018267 0.606406
0.933660 0.018955 0.730696
0.934352 0.019647 0.855740
0.934866 0.020161 0.948582
0.934360 0.104197 0.019655
0.934949 0.104787 0.126215
0.935605 0.105442 0.244664
0.936274 0.106111 0.365419
0.936950 0.106788 0.487681
0.937633 0.107471 0.611068
0.938321 0.108159 0.735358
0.939014 0.108851 0.860402
0.939528 0.109365 0.953244
0.940821 0.227847 0.026116
0.941411 0.228437 0.132677
0.942067 0.229093 0.251126
0.942735 0.229761 0.371881
0.943412 0.230438 0.494142
0.944095 0.231121 0.617530
0.944783 0.231809 0.741820
0.945475 0.232501 0.866863
0.945989 0.233015 0.959705
0.947424 0.354194 0.032719
0.948014 0.354784 0.139280
0.948670 0.355439 0.257728
0.949338 0.356108 0.378484
0.950015 0.356785 0.500745
0.950698 0.357468 0.624133
0.951386 0.358156 0.748422
0.952078 0.358848 0.873466
0.952592 0.359362 0.966308
0.954115 0.482227 0.039410
0.954705 0.482817 0.145970
0.955360 0.483473 0.264419
0.956029 0.484141 0.385175
0.956706 0.484818 0.507436
0.957389 0.485501 0.630823
0.958077 0.486189 0.755113
0.958769 0.486881 0.880157
0.959283 0.487395 0.972999
0.960870 0.611500 0.046165
0.961460 0.612089 0.152726
0.962116 0.612745 0.271175
0.962784 0.613414 0.391930
0.963461 0.614090 0.514192
0.964144 0.614773 0.637579
0.964832 0.615461 0.761869
0.965524 0.616154 0.886912
0.966038 0.616668 0.979755
0.967677 0.741755 0.052972
0.968267 0.742345 0.159533
0.968923 0.743000 0.277982
0.969591 0.743669 0.398737
0.970268 0.744346 0.520999
0.970951 0.745029 0.644386
0.971639 0.745717 0.768676
0.972331 0.746409 0.893719
0.972845 0.746923 0.986561
0.974527 0.872826 0.059822
0.975117 0.873416 0.166383
0.975773 0.874071 0.284831
0.976441 0.874740 0.405587
0.977118 0.875417 0.527848
0.977801 0.876100 0.651236
0.978489 0.876788 0.775525
0.979181 0.877480 0.900569
0.979695 0.877994 0.993411
0.980891 0.994607 0.066186
0.981481 0.995197 0.172747
0.982137 0.995853 0.291195
0.982805 0.996521 0.411951
0.983482 0.997198 0.534212
0.984165 0.997881 0.657600
0.984853 0.998569 0.781889
0.985545 0.999261 0.906933
0.986059 0.999775 0.999775
