skills/editops-orchestrator/assets/grade/luts/moody_teal_v10.cube
TITLE "moody_teal_v10"
LUT_3D_SIZE 5
DOMAIN_MIN 0.0 0.0 0.0
DOMAIN_MAX 1.0 1.0 1.0
0.000000 0.000000 0.000000
0.001675 0.001675 0.217987
0.003525 0.003525 0.458825
0.005423 0.005423 0.705950
0.006992 0.006992 0.910150
0.014175 0.199012 0.014175
0.015849 0.200687 0.232162
0.017700 0.202537 0.473000
0.019598 0.204436 0.720125
0.021167 0.206004 0.924325
0.032413 0.455078 0.032413
0.034088 0.456753 0.250400
0.035938 0.458603 0.491239
0.037837 0.460501 0.738363
0.039405 0.462070 0.942563
0.051168 0.718383 0.051168
0.052842 0.720058 0.269155
0.054692 0.721908 0.509993
0.056591 0.723807 0.757118
0.058160 0.725375 0.961317
0.069261 0.972419 0.069261
0.070936 0.974094 0.287249
0.072786 0.975944 0.528087
0.074685 0.977843 0.775211
0.076253 0.979411 0.979411
0.157111 0.003502 0.003502
0.158785 0.005176 0.221489
0.160636 0.007027 0.462327
0.162534 0.008925 0.709452
0.164103 0.010494 0.913652
0.171286 0.202514 0.017677
0.172960 0.204189 0.235664
0.174810 0.206039 0.476502
0.176709 0.207937 0.723627
0.178278 0.209506 0.927826
0.189524 0.458580 0.035915
0.191199 0.460254 0.253902
0.193049 0.462105 0.494740
0.194947 0.464003 0.741865
0.196516 0.465572 0.946065
0.208278 0.721885 0.054669
0.209953 0.723560 0.272656
0.211803 0.725410 0.513495
0.213702 0.727308 0.760619
0.215270 0.728877 0.964819
0.226372 0.975921 0.072763
0.228047 0.977596 0.290750
0.229897 0.979446 0.531588
0.231796 0.981344 0.778713
0.233364 0.982913 0.982913
0.399039 0.008894 0.008894
0.400714 0.010568 0.226881
0.402564 0.012419 0.467719
0.404462 0.014317 0.714844
0.406031 0.015886 0.919044
0.413214 0.207906 0.023069
0.414888 0.209581 0.241056
0.416739 0.211431 0.481894
0.418637 0.213329 0.729019
0.420206 0.214898 0.933219
0.431452 0.463972 0.041307
0.433127 0.465647 0.259294
0.434977 0.467497 0.500132
0.436876 0.469395 0.747257
0.438444 0.470964 0.951457
0.450207 0.727277 0.060061
0.451881 0.728952 0.278048
0.453731 0.730802 0.518887
0.455630 0.732700 0.766011
0.457199 0.734269 0.970211
0.468300 0.981313 0.078155
0.469975 0.982988 0.296142
0.471825 0.984838 0.536981
0.473724 0.986737 0.784105
0.475292 0.988305 0.988305
0.648434 0.014452 0.014452
0.650108 0.016127 0.232439
0.651959 0.017977 0.473278
0.653857 0.019876 0.720402
0.655426 0.021444 0.924602
0.662609 0.213465 0.028627
0.664283 0.215139 0.246614
0.666133 0.216989 0.487453
0.668032 0.218888 0.734577
0.669601 0.220457 0.938777
0.680847 0.469531 0.046866
0.682522 0.471205 0.264853
0.684372 0.473055 0.505691
0.686270 0.474954 0.752816
0.687839 0.476523 0.957016
0.699601 0.732836 0.065620
0.701276 0.734510 0.283607
0.703126 0.736360 0.524445
0.705025 0.738259 0.771570
0.706593 0.739828 0.975770
0.717695 0.986872 0.083714
0.719370 0.988546 0.301701
0.721220 0.990397 0.542539
0.723119 0.992295 0.789664
0.724687 0.993864 0.993864
0.902453 0.020114 0.020114
0.904127 0.021789 0.238101
0.905978 0.023639 0.478939
0.907876 0.025537 0.726064
0.909445 0.027106 0.930264
0.916628 0.219126 0.034289
0.918302 0.220801 0.252276
0.920152 0.222651 0.493114
0.922051 0.224550 0.740239
0.923620 0.226118 0.944439
0.934866 0.475192 0.052527
0.936541 0.476867 0.270514
0.938391 0.478717 0.511353
0.940289 0.480615 0.758477
0.941858 0.482184 0.962677
0.953620 0.738497 0.071282
0.955295 0.740172 0.289269
0.957145 0.742022 0.530107
0.959044 0.743921 0.777232
0.960612 0.745489 0.981431
0.971714 0.992533 0.089376
0.973389 0.994208 0.307363
0.975239 0.996058 0.548201
0.977138 0.997957 0.795326
0.978706 0.999525 0.999525
