skills/editops-orchestrator/assets/grade/luts/moody_teal_v02.cube
TITLE "moody_teal_v02"
LUT_3D_SIZE 9
DOMAIN_MIN 0.0 0.0 0.0
DOMAIN_MAX 1.0 1.0 1.0
0.000000 0.000000 0.000000
0.000391 0.000391 0.111820
0.000812 0.000812 0.232348
0.001238 0.001238 0.354379
0.001668 0.001668 0.477388
0.002100 0.002100 0.601127
0.002535 0.002535 0.725449
0.002971 0.002971 0.850258
0.003344 0.003344 0.957028
0.003453 0.102873 0.003453
0.003844 0.103264 0.115274
0.004265 0.103685 0.235801
0.004691 0.104111 0.357832
0.005121 0.104541 0.480842
0.005554 0.104973 0.604580
0.005988 0.105408 0.728902
0.006424 0.105844 0.853711
0.006797 0.106217 0.960481
0.007618 0.226936 0.007618
0.008008 0.227326 0.119438
0.008430 0.227747 0.239966
0.008856 0.228174 0.361997
0.009286 0.228604 0.485006
0.009718 0.229036 0.608745
0.010153 0.229470 0.733067
0.010589 0.229907 0.857875
0.010962 0.230280 0.964646
0.011837 0.352640 0.011837
0.012228 0.353031 0.123658
0.012649 0.353452 0.244186
0.013076 0.353878 0.366217
0.013505 0.354308 0.489226
0.013938 0.354740 0.612964
0.014372 0.355175 0.737287
0.014808 0.355611 0.862095
0.015181 0.355984 0.968866
0.016092 0.479389 0.016092
0.016483 0.479780 0.127913
0.016904 0.480201 0.248440
0.017330 0.480628 0.370471
0.017760 0.481057 0.493480
0.018192 0.481490 0.617219
0.018627 0.481924 0.741541
0.019063 0.482360 0.866350
0.019436 0.482733 0.973120
0.020373 0.606911 0.020373
0.020763 0.607301 0.132193
0.021185 0.607722 0.252721
0.021611 0.608149 0.374752
0.022041 0.608579 0.497761
0.022473 0.609011 0.621500
0.022908 0.609445 0.745822
0.023344 0.609882 0.870630
0.023717 0.610255 0.977401
0.024674 0.735046 0.024674
0.025065 0.735436 0.136494
0.025486 0.735858 0.257022
0.025912 0.736284 0.379053
0.026342 0.736714 0.502062
0.026774 0.737146 0.625801
0.027209 0.737581 0.750123
0.027645 0.738017 0.874932
0.028018 0.738390 0.981702
0.028992 0.863691 0.028992
0.029383 0.864082 0.140813
0.029804 0.864503 0.261340
0.030230 0.864929 0.383371
0.030660 0.865359 0.506381
0.031093 0.865791 0.630119
0.031527 0.866226 0.754441
0.031963 0.866662 0.879250
0.032336 0.867035 0.986020
0.033125 0.986809 0.033125
0.033516 0.987200 0.144946
0.033937 0.987621 0.265473
0.034363 0.988048 0.387504
0.034793 0.988477 0.510513
0.035225 0.988910 0.634252
0.035660 0.989344 0.758574
0.036096 0.989780 0.883383
0.036469 0.990153 0.990153
0.088346 0.000903 0.000903
0.088736 0.001294 0.112723
0.089157 0.001715 0.233251
0.089584 0.002141 0.355282
0.090014 0.002571 0.478291
0.090446 0.003003 0.602030
0.090880 0.003438 0.726352
0.091317 0.003874 0.851160
0.091690 0.004247 0.957931
0.091799 0.103776 0.004356
0.092190 0.104167 0.116177
0.092611 0.104588 0.236704
0.093037 0.105014 0.358735
0.093467 0.105444 0.481744
0.093899 0.105876 0.605483
0.094334 0.106311 0.729805
0.094770 0.106747 0.854614
0.095143 0.107120 0.961384
0.095963 0.227838 0.008521
0.096354 0.228229 0.120341
0.096775 0.228650 0.240869
0.097202 0.229077 0.362900
0.097631 0.229507 0.485909
0.098064 0.229939 0.609648
0.098498 0.230373 0.733970
0.098934 0.230809 0.858778
0.099307 0.231182 0.965549
0.100183 0.353543 0.012740
0.100574 0.353934 0.124561
0.100995 0.354355 0.245088
0.101421 0.354781 0.367119
0.101851 0.355211 0.490129
0.102283 0.355643 0.613867
0.102718 0.356078 0.738189
0.103154 0.356514 0.862998
0.103527 0.356887 0.969768
0.104438 0.480292 0.016995
0.104828 0.480683 0.128815
0.105249 0.481104 0.249343
0.105676 0.481530 0.371374
0.106106 0.481960 0.494383
0.106538 0.482393 0.618122
0.106972 0.482827 0.742444
0.107409 0.483263 0.867253
0.107782 0.483636 0.974023
0.108718 0.607813 0.021276
0.109109 0.608204 0.133096
0.109530 0.608625 0.253624
0.109957 0.609052 0.375655
0.110386 0.609482 0.498664
0.110819 0.609914 0.622403
0.111253 0.610348 0.746725
0.111689 0.610784 0.871533
0.112062 0.611157 0.978304
0.113019 0.735949 0.025577
0.113410 0.736339 0.137397
0.113831 0.736760 0.257925
0.114258 0.737187 0.379956
0.114688 0.737617 0.502965
0.115120 0.738049 0.626704
0.115554 0.738483 0.751026
0.115990 0.738919 0.875834
0.116363 0.739293 0.982605
0.117338 0.864594 0.029895
0.117729 0.864984 0.141716
0.118150 0.865406 0.262243
0.118576 0.865832 0.384274
0.119006 0.866262 0.507283
0.119438 0.866694 0.631022
0.119873 0.867129 0.755344
0.120309 0.867565 0.880153
0.120682 0.867938 0.986923
0.121471 0.987712 0.034028
0.121861 0.988103 0.145848
0.122282 0.988524 0.266376
0.122709 0.988950 0.388407
0.123139 0.989380 0.511416
0.123571 0.989813 0.635155
0.124005 0.990247 0.759477
0.124442 0.990683 0.884286
0.124815 0.991056 0.991056
0.209253 0.002138 0.002138
0.209644 0.002529 0.113959
0.210065 0.002950 0.234487
0.210492 0.003377 0.356518
0.210921 0.003807 0.479527
0.211354 0.004239 0.603266
0.211788 0.004673 0.727588
0.212224 0.005109 0.852396
0.212597 0.005482 0.959167
0.212707 0.105012 0.005592
0.213097 0.105402 0.117412
0.213518 0.105823 0.237940
0.213945 0.106250 0.359971
0.214375 0.106680 0.482980
0.214807 0.107112 0.606719
0.215241 0.107546 0.731041
0.215677 0.107982 0.855849
0.216051 0.108356 0.962620
0.216871 0.229074 0.009756
0.217262 0.229465 0.121577
0.217683 0.229886 0.242104
0.218109 0.230312 0.364135
0.218539 0.230742 0.487145
0.218971 0.231174 0.610883
0.219406 0.231609 0.735205
0.219842 0.232045 0.860014
0.220215 0.232418 0.966784
0.221091 0.354778 0.013976
0.221481 0.355169 0.125796
0.221903 0.355590 0.246324
0.222329 0.356017 0.368355
0.222759 0.356447 0.491364
0.223191 0.356879 0.615103
0.223625 0.357313 0.739425
0.224062 0.357749 0.864233
0.224435 0.358122 0.971004
0.225345 0.481528 0.018231
0.225736 0.481918 0.130051
0.226157 0.482340 0.250579
0.226584 0.482766 0.372610
0.227013 0.483196 0.495619
0.227446 0.483628 0.619358
0.227880 0.484063 0.743680
0.228316 0.484499 0.868488
0.228689 0.484872 0.975259
0.229626 0.609049 0.022511
0.230017 0.609440 0.134332
0.230438 0.609861 0.254859
0.230864 0.610287 0.376890
0.231294 0.610717 0.499899
0.231726 0.611149 0.623638
0.232161 0.611584 0.747960
0.232597 0.612020 0.872769
0.232970 0.612393 0.979539
0.233927 0.737184 0.026812
0.234318 0.737575 0.138633
0.234739 0.737996 0.259160
0.235165 0.738422 0.381192
0.235595 0.738852 0.504201
0.236028 0.739285 0.627939
0.236462 0.739719 0.752261
0.236898 0.740155 0.877070
0.237271 0.740528 0.983841
0.238246 0.865829 0.031131
0.238636 0.866220 0.142951
0.239057 0.866641 0.263479
0.239484 0.867068 0.385510
0.239914 0.867497 0.508519
0.240346 0.867930 0.632258
0.240780 0.868364 0.756580
0.241216 0.868800 0.881388
0.241590 0.869173 0.988159
0.242378 0.988948 0.035264
0.242769 0.989338 0.147084
0.243190 0.989760 0.267612
0.243617 0.990186 0.389643
0.244046 0.990616 0.512652
0.244479 0.991048 0.636391
0.244913 0.991483 0.760713
0.245349 0.991919 0.885521
0.245722 0.992292 0.992292
0.331866 0.003391 0.003391
0.332257 0.003782 0.115212
0.332678 0.004203 0.235740
0.333104 0.004630 0.357771
0.333534 0.005060 0.480780
0.333966 0.005492 0.604519
0.334401 0.005926 0.728841
0.334837 0.006362 0.853649
0.335210 0.006735 0.960420
0.335319 0.106265 0.006845
0.335710 0.106655 0.118665
0.336131 0.107076 0.239193
0.336557 0.107503 0.361224
0.336987 0.107933 0.484233
0.337420 0.108365 0.607972
0.337854 0.108799 0.732294
0.338290 0.109235 0.857102
0.338663 0.109609 0.963873
0.339484 0.230327 0.011009
0.339874 0.230718 0.122830
0.340296 0.231139 0.243357
0.340722 0.231565 0.365388
0.341152 0.231995 0.488398
0.341584 0.232428 0.612136
0.342019 0.232862 0.736458
0.342455 0.233298 0.861267
0.342828 0.233671 0.968037
0.343703 0.356032 0.015229
0.344094 0.356422 0.127049
0.344515 0.356843 0.247577
0.344942 0.357270 0.369608
0.345371 0.357700 0.492617
0.345804 0.358132 0.616356
0.346238 0.358566 0.740678
0.346674 0.359002 0.865486
0.347047 0.359376 0.972257
0.347958 0.482781 0.019484
0.348349 0.483172 0.131304
0.348770 0.483593 0.251832
0.349196 0.484019 0.373863
0.349626 0.484449 0.496872
0.350058 0.484881 0.620611
0.350493 0.485316 0.744933
0.350929 0.485752 0.869741
0.351302 0.486125 0.976512
0.352239 0.610302 0.023764
0.352629 0.610693 0.135585
0.353050 0.611114 0.256112
0.353477 0.611540 0.378143
0.353907 0.611970 0.501153
0.354339 0.612403 0.624891
0.354773 0.612837 0.749213
0.355210 0.613273 0.874022
0.355583 0.613646 0.980792
0.356540 0.738437 0.028065
0.356931 0.738828 0.139886
0.357352 0.739249 0.260414
0.357778 0.739675 0.382445
0.358208 0.740105 0.505454
0.358640 0.740538 0.629192
0.359075 0.740972 0.753515
0.359511 0.741408 0.878323
0.359884 0.741781 0.985094
0.360858 0.867082 0.032384
0.361249 0.867473 0.144204
0.361670 0.867894 0.264732
0.362096 0.868321 0.386763
0.362526 0.868750 0.509772
0.362959 0.869183 0.633511
0.363393 0.869617 0.757833
0.363829 0.870053 0.882641
0.364202 0.870426 0.989412
0.364991 0.990201 0.036517
0.365382 0.990591 0.148337
0.365803 0.991013 0.268865
0.366229 0.991439 0.390896
0.366659 0.991869 0.513905
0.367091 0.992301 0.637644
0.367526 0.992736 0.761966
0.367962 0.993172 0.886774
0.368335 0.993545 0.993545
0.455537 0.004655 0.004655
0.455928 0.005046 0.116476
0.456349 0.005467 0.237003
0.456775 0.005894 0.359035
0.457205 0.006323 0.482044
0.457637 0.006756 0.605782
0.458072 0.007190 0.730104
0.458508 0.007626 0.854913
0.458881 0.007999 0.961684
0.458990 0.107528 0.008109
0.459381 0.107919 0.119929
0.459802 0.108340 0.240457
0.460229 0.108767 0.362488
0.460658 0.109196 0.485497
0.461091 0.109629 0.609236
0.461525 0.110063 0.733558
0.461961 0.110499 0.858366
0.462334 0.110872 0.965137
0.463155 0.231591 0.012273
0.463546 0.231982 0.124094
0.463967 0.232403 0.244621
0.464393 0.232829 0.366652
0.464823 0.233259 0.489661
0.465255 0.233691 0.613400
0.465690 0.234126 0.737722
0.466126 0.234562 0.862531
0.466499 0.234935 0.969301
0.467374 0.357295 0.016493
0.467765 0.357686 0.128313
0.468186 0.358107 0.248841
0.468613 0.358534 0.370872
0.469042 0.358963 0.493881
0.469475 0.359396 0.617620
0.469909 0.359830 0.741942
0.470345 0.360266 0.866750
0.470718 0.360639 0.973521
0.471629 0.484045 0.020747
0.472020 0.484435 0.132568
0.472441 0.484856 0.253096
0.472867 0.485283 0.375127
0.473297 0.485713 0.498136
0.473730 0.486145 0.621875
0.474164 0.486579 0.746197
0.474600 0.487016 0.871005
0.474973 0.487389 0.977776
0.475910 0.611566 0.025028
0.476300 0.611957 0.136848
0.476722 0.612378 0.257376
0.477148 0.612804 0.379407
0.477578 0.613234 0.502416
0.478010 0.613666 0.626155
0.478445 0.614101 0.750477
0.478881 0.614537 0.875286
0.479254 0.614910 0.982056
0.480211 0.739701 0.029329
0.480602 0.740092 0.141150
0.481023 0.740513 0.261677
0.481449 0.740939 0.383708
0.481879 0.741369 0.506718
0.482311 0.741801 0.630456
0.482746 0.742236 0.754778
0.483182 0.742672 0.879587
0.483555 0.743045 0.986357
0.484529 0.868346 0.033648
0.484920 0.868737 0.145468
0.485341 0.869158 0.265996
0.485768 0.869584 0.388027
0.486197 0.870014 0.511036
0.486630 0.870447 0.634775
0.487064 0.870881 0.759097
0.487500 0.871317 0.883905
0.487873 0.871690 0.990676
0.488662 0.991465 0.037780
0.489053 0.991855 0.149601
0.489474 0.992276 0.270129
0.489900 0.992703 0.392160
0.490330 0.993133 0.515169
0.490763 0.993565 0.638908
0.491197 0.993999 0.763230
0.491633 0.994436 0.888038
0.492006 0.994809 0.994809
0.579982 0.005927 0.005927
0.580373 0.006318 0.117748
0.580794 0.006739 0.238275
0.581221 0.007165 0.360306
0.581650 0.007595 0.483315
0.582083 0.008028 0.607054
0.582517 0.008462 0.731376
0.582953 0.008898 0.856185
0.583326 0.009271 0.962955
0.583435 0.108800 0.009380
0.583826 0.109191 0.121201
0.584247 0.109612 0.241728
0.584674 0.110038 0.363760
0.585104 0.110468 0.486769
0.585536 0.110901 0.610507
0.585970 0.111335 0.734829
0.586406 0.111771 0.859638
0.586779 0.112144 0.966409
0.587600 0.232863 0.013545
0.587991 0.233253 0.125365
0.588412 0.233675 0.245893
0.588838 0.234101 0.367924
0.589268 0.234531 0.490933
0.589700 0.234963 0.614672
0.590135 0.235398 0.738994
0.590571 0.235834 0.863802
0.590944 0.236207 0.970573
0.591820 0.358567 0.017764
0.592210 0.358958 0.129585
0.592631 0.359379 0.250113
0.593058 0.359805 0.372144
0.593488 0.360235 0.495153
0.593920 0.360668 0.618892
0.594354 0.361102 0.743214
0.594791 0.361538 0.868022
0.595164 0.361911 0.974793
0.596074 0.485316 0.022019
0.596465 0.485707 0.133840
0.596886 0.486128 0.254367
0.597313 0.486555 0.376398
0.597742 0.486984 0.499408
0.598175 0.487417 0.623146
0.598609 0.487851 0.747468
0.599045 0.488287 0.872277
0.599418 0.488660 0.979047
0.600355 0.612838 0.026300
0.600746 0.613228 0.138120
0.601167 0.613650 0.258648
0.601593 0.614076 0.380679
0.602023 0.614506 0.503688
0.602455 0.614938 0.627427
0.602890 0.615373 0.751749
0.603326 0.615809 0.876557
0.603699 0.616182 0.983328
0.604656 0.740973 0.030601
0.605047 0.741363 0.142421
0.605468 0.741785 0.262949
0.605894 0.742211 0.384980
0.606324 0.742641 0.507989
0.606757 0.743073 0.631728
0.607191 0.743508 0.756050
0.607627 0.743944 0.880859
0.608000 0.744317 0.987629
0.608974 0.869618 0.034919
0.609365 0.870009 0.146740
0.609786 0.870430 0.267267
0.610213 0.870856 0.389299
0.610643 0.871286 0.512308
0.611075 0.871718 0.636046
0.611509 0.872153 0.760368
0.611945 0.872589 0.885177
0.612318 0.872962 0.991948
0.613107 0.992736 0.039052
0.613498 0.993127 0.150873
0.613919 0.993548 0.271400
0.614346 0.993975 0.393431
0.614775 0.994404 0.516440
0.615208 0.994837 0.640179
0.615642 0.995271 0.764501
0.616078 0.995707 0.889310
0.616451 0.996080 0.996080
0.705039 0.007205 0.007205
0.705430 0.007596 0.119026
0.705851 0.008017 0.239553
0.706278 0.008443 0.361584
0.706707 0.008873 0.484593
0.707140 0.009306 0.608332
0.707574 0.009740 0.732654
0.708010 0.010176 0.857463
0.708383 0.010549 0.964233
0.708493 0.110078 0.010658
0.708883 0.110469 0.122479
0.709304 0.110890 0.243006
0.709731 0.111316 0.365038
0.710161 0.111746 0.488047
0.710593 0.112179 0.611785
0.711027 0.112613 0.736107
0.711464 0.113049 0.860916
0.711837 0.113422 0.967687
0.712657 0.234141 0.014823
0.713048 0.234531 0.126643
0.713469 0.234953 0.247171
0.713895 0.235379 0.369202
0.714325 0.235809 0.492211
0.714758 0.236241 0.615950
0.715192 0.236676 0.740272
0.715628 0.237112 0.865080
0.716001 0.237485 0.971851
0.716877 0.359845 0.019042
0.717267 0.360236 0.130863
0.717689 0.360657 0.251391
0.718115 0.361083 0.373422
0.718545 0.361513 0.496431
0.718977 0.361946 0.620170
0.719412 0.362380 0.744492
0.719848 0.362816 0.869300
0.720221 0.363189 0.976071
0.721131 0.486594 0.023297
0.721522 0.486985 0.135118
0.721943 0.487406 0.255645
0.722370 0.487833 0.377676
0.722800 0.488262 0.500686
0.723232 0.488695 0.624424
0.723666 0.489129 0.748746
0.724102 0.489565 0.873555
0.724475 0.489938 0.980325
0.725412 0.614116 0.027578
0.725803 0.614506 0.139398
0.726224 0.614928 0.259926
0.726650 0.615354 0.381957
0.727080 0.615784 0.504966
0.727512 0.616216 0.628705
0.727947 0.616651 0.753027
0.728383 0.617087 0.877835
0.728756 0.617460 0.984606
0.729713 0.742251 0.031879
0.730104 0.742642 0.143699
0.730525 0.743063 0.264227
0.730952 0.743489 0.386258
0.731381 0.743919 0.509267
0.731814 0.744351 0.633006
0.732248 0.744786 0.757328
0.732684 0.745222 0.882137
0.733057 0.745595 0.988907
0.734032 0.870896 0.036197
0.734422 0.871287 0.148018
0.734843 0.871708 0.268545
0.735270 0.872134 0.390577
0.735700 0.872564 0.513586
0.736132 0.872996 0.637324
0.736566 0.873431 0.761646
0.737003 0.873867 0.886455
0.737376 0.874240 0.993226
0.738164 0.994014 0.040330
0.738555 0.994405 0.152151
0.738976 0.994826 0.272678
0.739403 0.995253 0.394709
0.739832 0.995682 0.517719
0.740265 0.996115 0.641457
0.740699 0.996549 0.765779
0.741135 0.996985 0.890588
0.741508 0.997358 0.997358
0.830603 0.008488 0.008488
0.830994 0.008879 0.120309
0.831415 0.009300 0.240836
0.831841 0.009727 0.362867
0.832271 0.010156 0.485877
0.832704 0.010589 0.609615
0.833138 0.011023 0.733937
0.833574 0.011459 0.858746
0.833947 0.011832 0.965517
0.834056 0.111361 0.011942
0.834447 0.111752 0.123762
0.834868 0.112173 0.244290
0.835295 0.112600 0.366321
0.835724 0.113029 0.489330
0.836157 0.113462 0.613069
0.836591 0.113896 0.737391
0.837027 0.114332 0.862199
0.837400 0.114705 0.968970
0.838221 0.235424 0.016106
0.838612 0.235815 0.127927
0.839033 0.236236 0.248454
0.839459 0.236662 0.370485
0.839889 0.237092 0.493494
0.840321 0.237524 0.617233
0.840756 0.237959 0.741555
0.841192 0.238395 0.866364
0.841565 0.238768 0.973134
0.842441 0.361128 0.020326
0.842831 0.361519 0.132146
0.843252 0.361940 0.252674
0.843679 0.362367 0.374705
0.844109 0.362796 0.497714
0.844541 0.363229 0.621453
0.844975 0.363663 0.745775
0.845411 0.364099 0.870583
0.845785 0.364472 0.977354
0.846695 0.487878 0.024580
0.847086 0.488268 0.136401
0.847507 0.488689 0.256929
0.847934 0.489116 0.378960
0.848363 0.489546 0.501969
0.848796 0.489978 0.625707
0.849230 0.490412 0.750030
0.849666 0.490849 0.874838
0.850039 0.491222 0.981609
0.850976 0.615399 0.028861
0.851367 0.615790 0.140681
0.851788 0.616211 0.261209
0.852214 0.616637 0.383240
0.852644 0.617067 0.506249
0.853076 0.617499 0.629988
0.853511 0.617934 0.754310
0.853947 0.618370 0.879119
0.854320 0.618743 0.985889
0.855277 0.743534 0.033162
0.855668 0.743925 0.144983
0.856089 0.744346 0.265510
0.856515 0.744772 0.387541
0.856945 0.745202 0.510551
0.857378 0.745634 0.634289
0.857812 0.746069 0.758611
0.858248 0.746505 0.883420
0.858621 0.746878 0.990190
0.859595 0.872179 0.037481
0.859986 0.872570 0.149301
0.860407 0.872991 0.269829
0.860834 0.873417 0.391860
0.861264 0.873847 0.514869
0.861696 0.874280 0.638608
0.862130 0.874714 0.762930
0.862566 0.875150 0.887738
0.862939 0.875523 0.994509
0.863728 0.995298 0.041613
0.864119 0.995688 0.153434
0.864540 0.996109 0.273961
0.864967 0.996536 0.395993
0.865396 0.996966 0.519002
0.865829 0.997398 0.642740
0.866263 0.997832 0.767062
0.866699 0.998268 0.891871
0.867072 0.998642 0.998642
0.956600 0.009776 0.009776
0.956990 0.010167 0.121596
0.957412 0.010588 0.242124
0.957838 0.011014 0.364155
0.958268 0.011444 0.487164
0.958700 0.011876 0.610903
0.959135 0.012311 0.735225
0.959571 0.012747 0.860034
0.959944 0.013120 0.966804
0.960053 0.112649 0.013229
0.960444 0.113040 0.125050
0.960865 0.113461 0.245577
0.961291 0.113887 0.367608
0.961721 0.114317 0.490617
0.962153 0.114749 0.614356
0.962588 0.115184 0.738678
0.963024 0.115620 0.863487
0.963397 0.115993 0.970257
0.964217 0.236712 0.017394
0.964608 0.237102 0.129214
0.965029 0.237523 0.249742
0.965456 0.237950 0.371773
0.965886 0.238380 0.494782
0.966318 0.238812 0.618521
0.966752 0.239246 0.742843
0.967188 0.239682 0.867651
0.967561 0.240056 0.974422
0.968437 0.362416 0.021613
0.968828 0.362807 0.133434
0.969249 0.363228 0.253961
0.969675 0.363654 0.375992
0.970105 0.364084 0.499002
0.970538 0.364516 0.622740
0.970972 0.364951 0.747062
0.971408 0.365387 0.871871
0.971781 0.365760 0.978641
0.972692 0.489165 0.025868
0.973083 0.489556 0.137688
0.973504 0.489977 0.258216
0.973930 0.490403 0.380247
0.974360 0.490833 0.503256
0.974792 0.491266 0.626995
0.975227 0.491700 0.751317
0.975663 0.492136 0.876126
0.976036 0.492509 0.982896
0.976972 0.616686 0.030149
0.977363 0.617077 0.141969
0.977784 0.617498 0.262497
0.978211 0.617925 0.384528
0.978640 0.618355 0.507537
0.979073 0.618787 0.631276
0.979507 0.619221 0.755598
0.979943 0.619657 0.880406
0.980316 0.620030 0.987177
0.981274 0.744822 0.034450
0.981664 0.745212 0.146270
0.982085 0.745633 0.266798
0.982512 0.746060 0.388829
0.982942 0.746490 0.511838
0.983374 0.746922 0.635577
0.983808 0.747356 0.759899
0.984245 0.747793 0.884707
0.984618 0.748166 0.991478
0.985592 0.873467 0.038768
0.985983 0.873858 0.150589
0.986404 0.874279 0.271116
0.986830 0.874705 0.393147
0.987260 0.875135 0.516156
0.987692 0.875567 0.639895
0.988127 0.876002 0.764217
0.988563 0.876438 0.889026
0.988936 0.876811 0.995796
0.989725 0.996585 0.042901
0.990116 0.996976 0.154721
0.990537 0.997397 0.275249
0.990963 0.997823 0.397280
0.991393 0.998253 0.520289
0.991825 0.998686 0.644028
0.992260 0.999120 0.768350
0.992696 0.999556 0.893159
0.993069 0.999929 0.999929
