skills/editops-orchestrator/assets/grade/luts/moody_teal_v13.cube
TITLE "moody_teal_v13"
LUT_3D_SIZE 17
DOMAIN_MIN 0.0 0.0 0.0
DOMAIN_MAX 1.0 1.0 1.0
0.000000 0.000000 0.000000
0.000406 0.000406 0.043326
0.000920 0.000920 0.098238
0.001452 0.001452 0.154983
0.001994 0.001994 0.212915
0.002545 0.002545 0.271733
0.003103 0.003103 0.331262
0.003666 0.003666 0.391385
0.004234 0.004234 0.452019
0.004806 0.004806 0.513104
0.005382 0.005382 0.574589
0.005961 0.005961 0.636438
0.006543 0.006543 0.698617
0.007129 0.007129 0.761102
0.007717 0.007717 0.823868
0.008307 0.008307 0.886898
0.008360 0.008360 0.892571
0.000822 0.009593 0.000822
0.001227 0.009999 0.044148
0.001742 0.010514 0.099059
0.002273 0.011045 0.155805
0.002816 0.011588 0.213737
0.003367 0.012139 0.272555
0.003924 0.012696 0.332084
0.004487 0.013259 0.392206
0.005055 0.013827 0.452841
0.005627 0.014399 0.513925
0.006203 0.014975 0.575411
0.006783 0.015554 0.637259
0.007365 0.016137 0.699439
0.007950 0.016722 0.761923
0.008538 0.017310 0.824690
0.009128 0.017900 0.887720
0.009182 0.017953 0.893392
0.005699 0.066553 0.005699
0.006105 0.066959 0.049025
0.006619 0.067473 0.103937
0.007151 0.068004 0.160682
0.007694 0.068547 0.218614
0.008244 0.069098 0.277433
0.008802 0.069655 0.336961
0.009365 0.070219 0.397084
0.009933 0.070786 0.457719
0.010505 0.071359 0.518803
0.011081 0.071934 0.580289
0.011660 0.072514 0.642137
0.012243 0.073096 0.704317
0.012828 0.073681 0.766801
0.013416 0.074269 0.829568
0.014006 0.074860 0.892597
0.014059 0.074913 0.898270
0.010862 0.126838 0.010862
0.011268 0.127244 0.054188
0.011782 0.127758 0.109100
0.012314 0.128289 0.165845
0.012856 0.128832 0.223777
0.013407 0.129383 0.282595
0.013965 0.129941 0.342124
0.014528 0.130504 0.402247
0.015096 0.131072 0.462881
0.015668 0.131644 0.523966
0.016244 0.132220 0.585451
0.016823 0.132799 0.647300
0.017405 0.133381 0.709479
0.017991 0.133966 0.771964
0.018578 0.134554 0.834730
0.019169 0.135145 0.897760
0.019222 0.135198 0.903432
0.016168 0.188797 0.016168
0.016574 0.189203 0.059494
0.017088 0.189718 0.114406
0.017620 0.190249 0.171151
0.018162 0.190792 0.229083
0.018713 0.191343 0.287901
0.019271 0.191900 0.347430
0.019834 0.192463 0.407553
0.020402 0.193031 0.468187
0.020974 0.193603 0.529272
0.021550 0.194179 0.590757
0.022129 0.194758 0.652606
0.022711 0.195341 0.714785
0.023297 0.195926 0.777270
0.023885 0.196514 0.840036
0.024475 0.197104 0.903066
0.024528 0.197157 0.908739
0.021573 0.251910 0.021573
0.021979 0.252316 0.064899
0.022493 0.252831 0.119810
0.023024 0.253362 0.176556
0.023567 0.253905 0.234488
0.024118 0.254456 0.293306
0.024675 0.255013 0.352835
0.025239 0.255576 0.412958
0.025806 0.256144 0.473592
0.026379 0.256716 0.534676
0.026954 0.257292 0.596162
0.027534 0.257871 0.658010
0.028116 0.258454 0.720190
0.028701 0.259039 0.782674
0.029289 0.259627 0.845441
0.029880 0.260217 0.908471
0.029933 0.260270 0.914143
0.027053 0.315910 0.027053
0.027459 0.316316 0.070379
0.027974 0.316830 0.125291
0.028505 0.317361 0.182037
0.029048 0.317904 0.239969
0.029599 0.318455 0.298787
0.030156 0.319012 0.358315
0.030719 0.319576 0.418438
0.031287 0.320143 0.479073
0.031859 0.320716 0.540157
0.032435 0.321291 0.601643
0.033014 0.321871 0.663491
0.033597 0.322453 0.725671
0.034182 0.323038 0.788155
0.034770 0.323626 0.850922
0.035360 0.324217 0.913952
0.035413 0.324270 0.919624
0.032596 0.380631 0.032596
0.033002 0.381037 0.075922
0.033516 0.381551 0.130834
0.034048 0.382083 0.187579
0.034590 0.382625 0.245511
0.035141 0.383176 0.304329
0.035699 0.383734 0.363858
0.036262 0.384297 0.423981
0.036830 0.384865 0.484615
0.037402 0.385437 0.545700
0.037978 0.386013 0.607185
0.038557 0.386592 0.669034
0.039139 0.387175 0.731213
0.039725 0.387760 0.793698
0.040313 0.388348 0.856464
0.040903 0.388938 0.919494
0.040956 0.388991 0.925167
0.038191 0.445963 0.038191
0.038597 0.446369 0.081517
0.039111 0.446883 0.136428
0.039642 0.447415 0.193174
0.040185 0.447958 0.251106
0.040736 0.448508 0.309924
0.041293 0.449066 0.369453
0.041857 0.449629 0.429576
0.042425 0.450197 0.490210
0.042997 0.450769 0.551294
0.043573 0.451345 0.612780
0.044152 0.451924 0.674628
0.044734 0.452507 0.736808
0.045319 0.453092 0.799292
0.045907 0.453680 0.862059
0.046498 0.454270 0.925089
0.046551 0.454323 0.930761
0.043831 0.511825 0.043831
0.044237 0.512231 0.087157
0.044751 0.512745 0.142069
0.045283 0.513277 0.198814
0.045825 0.513819 0.256746
0.046376 0.514370 0.315564
0.046934 0.514928 0.375093
0.047497 0.515491 0.435216
0.048065 0.516059 0.495850
0.048637 0.516631 0.556935
0.049213 0.517207 0.618420
0.049792 0.517786 0.680269
0.050374 0.518369 0.742448
0.050960 0.518954 0.804933
0.051548 0.519542 0.867699
0.052138 0.520132 0.930729
0.052191 0.520185 0.936402
0.049511 0.578156 0.049511
0.049917 0.578561 0.092837
0.050431 0.579076 0.147749
0.050963 0.579607 0.204494
0.051506 0.580150 0.262426
0.052056 0.580701 0.321245
0.052614 0.581258 0.380773
0.053177 0.581821 0.440896
0.053745 0.582389 0.501531
0.054317 0.582961 0.562615
0.054893 0.583537 0.624100
0.055472 0.584117 0.685949
0.056055 0.584699 0.748129
0.056640 0.585284 0.810613
0.057228 0.585872 0.873380
0.057818 0.586462 0.936409
0.057871 0.586516 0.942082
0.055228 0.644906 0.055228
0.055633 0.645312 0.098554
0.056148 0.645826 0.153465
0.056679 0.646357 0.210211
0.057222 0.646900 0.268143
0.057773 0.647451 0.326961
0.058330 0.648008 0.386490
0.058893 0.648572 0.446612
0.059461 0.649139 0.507247
0.060033 0.649712 0.568331
0.060609 0.650287 0.629817
0.061189 0.650867 0.691665
0.061771 0.651449 0.753845
0.062356 0.652034 0.816329
0.062944 0.652622 0.879096
0.063534 0.653213 0.942126
0.063588 0.653266 0.947798
0.060976 0.712037 0.060976
0.061382 0.712443 0.104302
0.061897 0.712957 0.159214
0.062428 0.713488 0.215960
0.062971 0.714031 0.273892
0.063522 0.714582 0.332710
0.064079 0.715140 0.392238
0.064642 0.715703 0.452361
0.065210 0.716271 0.512996
0.065782 0.716843 0.574080
0.066358 0.717419 0.635566
0.066937 0.717998 0.697414
0.067520 0.718580 0.759594
0.068105 0.719165 0.822078
0.068693 0.719753 0.884845
0.069283 0.720344 0.947875
0.069336 0.720397 0.953547
0.066755 0.779517 0.066755
0.067161 0.779922 0.110081
0.067675 0.780437 0.164993
0.068207 0.780968 0.221738
0.068749 0.781511 0.279670
0.069300 0.782062 0.338489
0.069858 0.782619 0.398017
0.070421 0.783182 0.458140
0.070989 0.783750 0.518775
0.071561 0.784322 0.579859
0.072137 0.784898 0.641344
0.072716 0.785478 0.703193
0.073299 0.786060 0.765373
0.073884 0.786645 0.827857
0.074472 0.787233 0.890624
0.075062 0.787823 0.953653
0.075115 0.787877 0.959326
0.072561 0.847318 0.072561
0.072967 0.847724 0.115887
0.073482 0.848238 0.170799
0.074013 0.848770 0.227545
0.074556 0.849312 0.285477
0.075107 0.849863 0.344295
0.075664 0.850421 0.403823
0.076227 0.850984 0.463946
0.076795 0.851552 0.524581
0.077367 0.852124 0.585665
0.077943 0.852700 0.647151
0.078522 0.853279 0.708999
0.079105 0.853861 0.771179
0.079690 0.854447 0.833663
0.080278 0.855034 0.896430
0.080868 0.855625 0.959460
0.080921 0.855678 0.965132
0.078393 0.915418 0.078393
0.078799 0.915824 0.121719
0.079313 0.916338 0.176631
0.079845 0.916869 0.233376
0.080388 0.917412 0.291308
0.080938 0.917963 0.350127
0.081496 0.918520 0.409655
0.082059 0.919084 0.469778
0.082627 0.919651 0.530413
0.083199 0.920224 0.591497
0.083775 0.920799 0.652982
0.084354 0.921379 0.714831
0.084937 0.921961 0.777011
0.085522 0.922546 0.839495
0.086110 0.923134 0.902262
0.086700 0.923725 0.965291
0.086753 0.923778 0.970964
0.082813 0.967023 0.082813
0.083218 0.967429 0.126139
0.083733 0.967943 0.181050
0.084264 0.968475 0.237796
0.084807 0.969017 0.295728
0.085358 0.969568 0.354546
0.085915 0.970126 0.414075
0.086478 0.970689 0.474197
0.087046 0.971257 0.534832
0.087618 0.971829 0.595916
0.088194 0.972405 0.657402
0.088774 0.972984 0.719250
0.089356 0.973567 0.781430
0.089941 0.974152 0.843914
0.090529 0.974740 0.906681
0.091120 0.975330 0.969711
0.091173 0.975383 0.975383
0.000000 0.000000 0.000000
0.000406 0.000406 0.043326
0.000920 0.000920 0.098238
0.001452 0.001452 0.154983
0.001994 0.001994 0.212915
0.002545 0.002545 0.271733
0.003103 0.003103 0.331262
0.003666 0.003666 0.391385
0.004234 0.004234 0.452019
0.004806 0.004806 0.513104
0.005382 0.005382 0.574589
0.005961 0.005961 0.636438
0.006543 0.006543 0.698617
0.007129 0.007129 0.761102
0.007717 0.007717 0.823868
0.008307 0.008307 0.886898
0.008360 0.008360 0.892571
0.000822 0.009593 0.000822
0.001227 0.009999 0.044148
0.001742 0.010514 0.099059
0.002273 0.011045 0.155805
0.002816 0.011588 0.213737
0.003367 0.012139 0.272555
0.003924 0.012696 0.332084
0.004487 0.013259 0.392206
0.005055 0.013827 0.452841
0.005627 0.014399 0.513925
0.006203 0.014975 0.575411
0.006783 0.015554 0.637259
0.007365 0.016137 0.699439
0.007950 0.016722 0.761923
0.008538 0.017310 0.824690
0.009128 0.017900 0.887720
0.009182 0.017953 0.893392
0.005699 0.066553 0.005699
0.006105 0.066959 0.049025
0.006619 0.067473 0.103937
0.007151 0.068004 0.160682
0.007694 0.068547 0.218614
0.008244 0.069098 0.277433
0.008802 0.069655 0.336961
0.009365 0.070219 0.397084
0.009933 0.070786 0.457719
0.010505 0.071359 0.518803
0.011081 0.071934 0.580289
0.011660 0.072514 0.642137
0.012243 0.073096 0.704317
0.012828 0.073681 0.766801
0.013416 0.074269 0.829568
0.014006 0.074860 0.892597
0.014059 0.074913 0.898270
0.010862 0.126838 0.010862
0.011268 0.127244 0.054188
0.011782 0.127758 0.109100
0.012314 0.128289 0.165845
0.012856 0.128832 0.223777
0.013407 0.129383 0.282595
0.013965 0.129941 0.342124
0.014528 0.130504 0.402247
0.015096 0.131072 0.462881
0.015668 0.131644 0.523966
0.016244 0.132220 0.585451
0.016823 0.132799 0.647300
0.017405 0.133381 0.709479
0.017991 0.133966 0.771964
0.018578 0.134554 0.834730
0.019169 0.135145 0.897760
0.019222 0.135198 0.903432
0.016168 0.188797 0.016168
0.016574 0.189203 0.059494
0.017088 0.189718 0.114406
0.017620 0.190249 0.171151
0.018162 0.190792 0.229083
0.018713 0.191343 0.287901
0.019271 0.191900 0.347430
0.019834 0.192463 0.407553
0.020402 0.193031 0.468187
0.020974 0.193603 0.529272
0.021550 0.194179 0.590757
0.022129 0.194758 0.652606
0.022711 0.195341 0.714785
0.023297 0.195926 0.777270
0.023885 0.196514 0.840036
0.024475 0.197104 0.903066
0.024528 0.197157 0.908739
0.021573 0.251910 0.021573
0.021979 0.252316 0.064899
0.022493 0.252831 0.119810
0.023024 0.253362 0.176556
0.023567 0.253905 0.234488
0.024118 0.254456 0.293306
0.024675 0.255013 0.352835
0.025239 0.255576 0.412958
0.025806 0.256144 0.473592
0.026379 0.256716 0.534676
0.026954 0.257292 0.596162
0.027534 0.257871 0.658010
0.028116 0.258454 0.720190
0.028701 0.259039 0.782674
0.029289 0.259627 0.845441
0.029880 0.260217 0.908471
0.029933 0.260270 0.914143
0.027053 0.315910 0.027053
0.027459 0.316316 0.070379
0.027974 0.316830 0.125291
0.028505 0.317361 0.182037
0.029048 0.317904 0.239969
0.029599 0.318455 0.298787
0.030156 0.319012 0.358315
0.030719 0.319576 0.418438
0.031287 0.320143 0.479073
0.031859 0.320716 0.540157
0.032435 0.321291 0.601643
0.033014 0.321871 0.663491
0.033597 0.322453 0.725671
0.034182 0.323038 0.788155
0.034770 0.323626 0.850922
0.035360 0.324217 0.913952
0.035413 0.324270 0.919624
0.032596 0.380631 0.032596
0.033002 0.381037 0.075922
0.033516 0.381551 0.130834
0.034048 0.382083 0.187579
0.034590 0.382625 0.245511
0.035141 0.383176 0.304329
0.035699 0.383734 0.363858
0.036262 0.384297 0.423981
0.036830 0.384865 0.484615
0.037402 0.385437 0.545700
0.037978 0.386013 0.607185
0.038557 0.386592 0.669034
0.039139 0.387175 0.731213
0.039725 0.387760 0.793698
0.040313 0.388348 0.856464
0.040903 0.388938 0.919494
0.040956 0.388991 0.925167
0.038191 0.445963 0.038191
0.038597 0.446369 0.081517
0.039111 0.446883 0.136428
0.039642 0.447415 0.193174
0.040185 0.447958 0.251106
0.040736 0.448508 0.309924
0.041293 0.449066 0.369453
0.041857 0.449629 0.429576
0.042425 0.450197 0.490210
0.042997 0.450769 0.551294
0.043573 0.451345 0.612780
0.044152 0.451924 0.674628
0.044734 0.452507 0.736808
0.045319 0.453092 0.799292
0.045907 0.453680 0.862059
0.046498 0.454270 0.925089
0.046551 0.454323 0.930761
0.043831 0.511825 0.043831
0.044237 0.512231 0.087157
0.044751 0.512745 0.142069
0.045283 0.513277 0.198814
0.045825 0.513819 0.256746
0.046376 0.514370 0.315564
0.046934 0.514928 0.375093
0.047497 0.515491 0.435216
0.048065 0.516059 0.495850
0.048637 0.516631 0.556935
0.049213 0.517207 0.618420
0.049792 0.517786 0.680269
0.050374 0.518369 0.742448
0.050960 0.518954 0.804933
0.051548 0.519542 0.867699
0.052138 0.520132 0.930729
0.052191 0.520185 0.936402
0.049511 0.578156 0.049511
0.049917 0.578561 0.092837
0.050431 0.579076 0.147749
0.050963 0.579607 0.204494
0.051506 0.580150 0.262426
0.052056 0.580701 0.321245
0.052614 0.581258 0.380773
0.053177 0.581821 0.440896
0.053745 0.582389 0.501531
0.054317 0.582961 0.562615
0.054893 0.583537 0.624100
0.055472 0.584117 0.685949
0.056055 0.584699 0.748129
0.056640 0.585284 0.810613
0.057228 0.585872 0.873380
0.057818 0.586462 0.936409
0.057871 0.586516 0.942082
0.055228 0.644906 0.055228
0.055633 0.645312 0.098554
0.056148 0.645826 0.153465
0.056679 0.646357 0.210211
0.057222 0.646900 0.268143
0.057773 0.647451 0.326961
0.058330 0.648008 0.386490
0.058893 0.648572 0.446612
0.059461 0.649139 0.507247
0.060033 0.649712 0.568331
0.060609 0.650287 0.629817
0.061189 0.650867 0.691665
0.061771 0.651449 0.753845
0.062356 0.652034 0.816329
0.062944 0.652622 0.879096
0.063534 0.653213 0.942126
0.063588 0.653266 0.947798
0.060976 0.712037 0.060976
0.061382 0.712443 0.104302
0.061897 0.712957 0.159214
0.062428 0.713488 0.215960
0.062971 0.714031 0.273892
0.063522 0.714582 0.332710
0.064079 0.715140 0.392238
0.064642 0.715703 0.452361
0.065210 0.716271 0.512996
0.065782 0.716843 0.574080
0.066358 0.717419 0.635566
0.066937 0.717998 0.697414
0.067520 0.718580 0.759594
0.068105 0.719165 0.822078
0.068693 0.719753 0.884845
0.069283 0.720344 0.947875
0.069336 0.720397 0.953547
0.066755 0.779517 0.066755
0.067161 0.779922 0.110081
0.067675 0.780437 0.164993
0.068207 0.780968 0.221738
0.068749 0.781511 0.279670
0.069300 0.782062 0.338489
0.069858 0.782619 0.398017
0.070421 0.783182 0.458140
0.070989 0.783750 0.518775
0.071561 0.784322 0.579859
0.072137 0.784898 0.641344
0.072716 0.785478 0.703193
0.073299 0.786060 0.765373
0.073884 0.786645 0.827857
0.074472 0.787233 0.890624
0.075062 0.787823 0.953653
0.075115 0.787877 0.959326
0.072561 0.847318 0.072561
0.072967 0.847724 0.115887
0.073482 0.848238 0.170799
0.074013 0.848770 0.227545
0.074556 0.849312 0.285477
0.075107 0.849863 0.344295
0.075664 0.850421 0.403823
0.076227 0.850984 0.463946
0.076795 0.851552 0.524581
0.077367 0.852124 0.585665
0.077943 0.852700 0.647151
0.078522 0.853279 0.708999
0.079105 0.853861 0.771179
0.079690 0.854447 0.833663
0.080278 0.855034 0.896430
0.080868 0.855625 0.959460
0.080921 0.855678 0.965132
0.078393 0.915418 0.078393
0.078799 0.915824 0.121719
0.079313 0.916338 0.176631
0.079845 0.916869 0.233376
0.080388 0.917412 0.291308
0.080938 0.917963 0.350127
0.081496 0.918520 0.409655
0.082059 0.919084 0.469778
0.082627 0.919651 0.530413
0.083199 0.920224 0.591497
0.083775 0.920799 0.652982
0.084354 0.921379 0.714831
0.084937 0.921961 0.777011
0.085522 0.922546 0.839495
0.086110 0.923134 0.902262
0.086700 0.923725 0.965291
0.086753 0.923778 0.970964
0.082813 0.967023 0.082813
0.083218 0.967429 0.126139
0.083733 0.967943 0.181050
0.084264 0.968475 0.237796
0.084807 0.969017 0.295728
0.085358 0.969568 0.354546
0.085915 0.970126 0.414075
0.086478 0.970689 0.474197
0.087046 0.971257 0.534832
0.087618 0.971829 0.595916
0.088194 0.972405 0.657402
0.088774 0.972984 0.719250
0.089356 0.973567 0.781430
0.089941 0.974152 0.843914
0.090529 0.974740 0.906681
0.091120 0.975330 0.969711
0.091173 0.975383 0.975383
0.026329 0.000713 0.000713
0.026735 0.001119 0.044039
0.027249 0.001633 0.098951
0.027781 0.002165 0.155696
0.028323 0.002707 0.213628
0.028874 0.003258 0.272447
0.029432 0.003816 0.331975
0.029995 0.004379 0.392098
0.030563 0.004947 0.452733
0.031135 0.005519 0.513817
0.031711 0.006095 0.575302
0.032290 0.006674 0.637151
0.032872 0.007257 0.699330
0.033458 0.007842 0.761815
0.034046 0.008430 0.824582
0.034636 0.009020 0.887611
0.034689 0.009073 0.893284
0.027151 0.010307 0.001535
0.027556 0.010712 0.044861
0.028071 0.011227 0.099772
0.028602 0.011758 0.156518
0.029145 0.012301 0.214450
0.029696 0.012852 0.273268
0.030253 0.013409 0.332797
0.030816 0.013972 0.392920
0.031384 0.014540 0.453554
0.031956 0.015112 0.514638
0.032532 0.015688 0.576124
0.033112 0.016268 0.637972
0.033694 0.016850 0.700152
0.034279 0.017435 0.762636
0.034867 0.018023 0.825403
0.035457 0.018613 0.888433
0.035511 0.018667 0.894105
0.032028 0.067266 0.006413
0.032434 0.067672 0.049739
0.032949 0.068186 0.104650
0.033480 0.068718 0.161396
0.034023 0.069260 0.219328
0.034574 0.069811 0.278146
0.035131 0.070369 0.337674
0.035694 0.070932 0.397797
0.036262 0.071500 0.458432
0.036834 0.072072 0.519516
0.037410 0.072648 0.581002
0.037989 0.073227 0.642850
0.038572 0.073809 0.705030
0.039157 0.074395 0.767514
0.039745 0.074982 0.830281
0.040335 0.075573 0.893311
0.040388 0.075626 0.898983
0.037191 0.127551 0.011575
0.037597 0.127957 0.054901
0.038111 0.128471 0.109813
0.038643 0.129003 0.166558
0.039185 0.129545 0.224490
0.039736 0.130096 0.283308
0.040294 0.130654 0.342837
0.040857 0.131217 0.402960
0.041425 0.131785 0.463594
0.041997 0.132357 0.524679
0.042573 0.132933 0.586164
0.043152 0.133512 0.648013
0.043734 0.134094 0.710192
0.044320 0.134680 0.772677
0.044908 0.135268 0.835443
0.045498 0.135858 0.898473
0.045551 0.135911 0.904146
0.042497 0.189511 0.016881
0.042903 0.189916 0.060207
0.043417 0.190431 0.115119
0.043949 0.190962 0.171864
0.044491 0.191505 0.229796
0.045042 0.192056 0.288614
0.045600 0.192613 0.348143
0.046163 0.193176 0.408266
0.046731 0.193744 0.468900
0.047303 0.194316 0.529985
0.047879 0.194892 0.591470
0.048458 0.195472 0.653319
0.049040 0.196054 0.715498
0.049626 0.196639 0.777983
0.050214 0.197227 0.840750
0.050804 0.197817 0.903779
0.050857 0.197871 0.909452
0.047902 0.252624 0.022286
0.048308 0.253029 0.065612
0.048822 0.253544 0.120523
0.049353 0.254075 0.177269
0.049896 0.254618 0.235201
0.050447 0.255169 0.294019
0.051004 0.255726 0.353548
0.051568 0.256289 0.413671
0.052136 0.256857 0.474305
0.052708 0.257429 0.535389
0.053284 0.258005 0.596875
0.053863 0.258585 0.658724
0.054445 0.259167 0.720903
0.055030 0.259752 0.783388
0.055618 0.260340 0.846154
0.056209 0.260930 0.909184
0.056262 0.260984 0.914856
0.053383 0.316623 0.027767
0.053788 0.317029 0.071093
0.054303 0.317543 0.126004
0.054834 0.318074 0.182750
0.055377 0.318617 0.240682
0.055928 0.319168 0.299500
0.056485 0.319726 0.359029
0.057048 0.320289 0.419151
0.057616 0.320857 0.479786
0.058188 0.321429 0.540870
0.058764 0.322005 0.602356
0.059344 0.322584 0.664204
0.059926 0.323166 0.726384
0.060511 0.323752 0.788868
0.061099 0.324339 0.851635
0.061689 0.324930 0.914665
0.061743 0.324983 0.920337
0.058925 0.381344 0.033309
0.059331 0.381750 0.076635
0.059845 0.382264 0.131547
0.060377 0.382796 0.188292
0.060919 0.383339 0.246224
0.061470 0.383889 0.305042
0.062028 0.384447 0.364571
0.062591 0.385010 0.424694
0.063159 0.385578 0.485328
0.063731 0.386150 0.546413
0.064307 0.386726 0.607898
0.064886 0.387305 0.669747
0.065468 0.387888 0.731926
0.066054 0.388473 0.794411
0.066642 0.389061 0.857178
0.067232 0.389651 0.920207
0.067285 0.389704 0.925880
0.064520 0.446676 0.038904
0.064926 0.447082 0.082230
0.065440 0.447597 0.137142
0.065971 0.448128 0.193887
0.066514 0.448671 0.251819
0.067065 0.449222 0.310637
0.067623 0.449779 0.370166
0.068186 0.450342 0.430289
0.068754 0.450910 0.490923
0.069326 0.451482 0.552008
0.069902 0.452058 0.613493
0.070481 0.452637 0.675342
0.071063 0.453220 0.737521
0.071648 0.453805 0.800006
0.072236 0.454393 0.862772
0.072827 0.454983 0.925802
0.072880 0.455036 0.931474
0.070160 0.512538 0.044544
0.070566 0.512944 0.087870
0.071080 0.513459 0.142782
0.071612 0.513990 0.199527
0.072154 0.514533 0.257459
0.072705 0.515084 0.316278
0.073263 0.515641 0.375806
0.073826 0.516204 0.435929
0.074394 0.516772 0.496564
0.074966 0.517344 0.557648
0.075542 0.517920 0.619133
0.076121 0.518499 0.680982
0.076703 0.519082 0.743161
0.077289 0.519667 0.805646
0.077877 0.520255 0.868413
0.078467 0.520845 0.931442
0.078520 0.520898 0.937115
0.075840 0.578869 0.050224
0.076246 0.579274 0.093550
0.076760 0.579789 0.148462
0.077292 0.580320 0.205208
0.077835 0.580863 0.263140
0.078385 0.581414 0.321958
0.078943 0.581971 0.381486
0.079506 0.582534 0.441609
0.080074 0.583102 0.502244
0.080646 0.583675 0.563328
0.081222 0.584250 0.624814
0.081801 0.584830 0.686662
0.082384 0.585412 0.748842
0.082969 0.585997 0.811326
0.083557 0.586585 0.874093
0.084147 0.587176 0.937123
0.084200 0.587229 0.942795
0.081557 0.645619 0.055941
0.081962 0.646025 0.099267
0.082477 0.646539 0.154178
0.083008 0.647071 0.210924
0.083551 0.647613 0.268856
0.084102 0.648164 0.327674
0.084659 0.648722 0.387203
0.085222 0.649285 0.447326
0.085790 0.649853 0.507960
0.086362 0.650425 0.569044
0.086938 0.651001 0.630530
0.087518 0.651580 0.692378
0.088100 0.652162 0.754558
0.088685 0.652748 0.817042
0.089273 0.653335 0.879809
0.089863 0.653926 0.942839
0.089917 0.653979 0.948511
0.087306 0.712750 0.061690
0.087711 0.713156 0.105016
0.088226 0.713670 0.159927
0.088757 0.714202 0.216673
0.089300 0.714744 0.274605
0.089851 0.715295 0.333423
0.090408 0.715853 0.392952
0.090971 0.716416 0.453074
0.091539 0.716984 0.513709
0.092111 0.717556 0.574793
0.092687 0.718132 0.636279
0.093267 0.718711 0.698127
0.093849 0.719293 0.760307
0.094434 0.719879 0.822791
0.095022 0.720467 0.885558
0.095612 0.721057 0.948588
0.095666 0.721110 0.954260
0.093084 0.780230 0.067468
0.093490 0.780636 0.110794
0.094004 0.781150 0.165706
0.094536 0.781681 0.222451
0.095078 0.782224 0.280383
0.095629 0.782775 0.339202
0.096187 0.783332 0.398730
0.096750 0.783896 0.458853
0.097318 0.784463 0.519488
0.097890 0.785036 0.580572
0.098466 0.785611 0.642058
0.099045 0.786191 0.703906
0.099628 0.786773 0.766086
0.100213 0.787358 0.828570
0.100801 0.787946 0.891337
0.101391 0.788537 0.954366
0.101444 0.788590 0.960039
0.098891 0.848031 0.073275
0.099296 0.848437 0.116601
0.099811 0.848951 0.171512
0.100342 0.849483 0.228258
0.100885 0.850025 0.286190
0.101436 0.850576 0.345008
0.101993 0.851134 0.404537
0.102556 0.851697 0.464659
0.103124 0.852265 0.525294
0.103696 0.852837 0.586378
0.104272 0.853413 0.647864
0.104852 0.853992 0.709712
0.105434 0.854574 0.771892
0.106019 0.855160 0.834376
0.106607 0.855748 0.897143
0.107197 0.856338 0.960173
0.107251 0.856391 0.965845
0.104722 0.916131 0.079106
0.105128 0.916537 0.122432
0.105642 0.917051 0.177344
0.106174 0.917583 0.234090
0.106717 0.918125 0.292022
0.107267 0.918676 0.350840
0.107825 0.919234 0.410368
0.108388 0.919797 0.470491
0.108956 0.920365 0.531126
0.109528 0.920937 0.592210
0.110104 0.921513 0.653696
0.110683 0.922092 0.715544
0.111266 0.922674 0.777724
0.111851 0.923260 0.840208
0.112439 0.923847 0.902975
0.113029 0.924438 0.966005
0.113082 0.924491 0.971677
0.109142 0.967736 0.083526
0.109547 0.968142 0.126852
0.110062 0.968656 0.181763
0.110593 0.969188 0.238509
0.111136 0.969731 0.296441
0.111687 0.970281 0.355259
0.112244 0.970839 0.414788
0.112807 0.971402 0.474911
0.113375 0.971970 0.535545
0.113948 0.972542 0.596629
0.114523 0.973118 0.658115
0.115103 0.973697 0.719963
0.115685 0.974280 0.782143
0.116270 0.974865 0.844627
0.116858 0.975453 0.907394
0.117449 0.976043 0.970424
0.117502 0.976096 0.976096
0.081286 0.002202 0.002202
0.081692 0.002608 0.045528
0.082207 0.003122 0.100439
0.082738 0.003653 0.157185
0.083281 0.004196 0.215117
0.083832 0.004747 0.273935
0.084389 0.005304 0.333464
0.084952 0.005868 0.393587
0.085520 0.006435 0.454221
0.086092 0.007008 0.515305
0.086668 0.007583 0.576791
0.087247 0.008163 0.638639
0.087830 0.008745 0.700819
0.088415 0.009330 0.763303
0.089003 0.009918 0.826070
0.089593 0.010509 0.889100
0.089646 0.010562 0.894772
0.082108 0.011795 0.003023
