skills/editops-orchestrator/assets/grade/luts/moody_teal_v07.cube
TITLE "moody_teal_v07"
LUT_3D_SIZE 9
DOMAIN_MIN 0.0 0.0 0.0
DOMAIN_MAX 1.0 1.0 1.0
0.000000 0.000000 0.000000
0.000638 0.000638 0.105305
0.001353 0.001353 0.223225
0.002083 0.002083 0.343650
0.002823 0.002823 0.465712
0.003571 0.003571 0.588998
0.004324 0.004324 0.713266
0.005082 0.005082 0.838356
0.005624 0.005624 0.927729
0.004892 0.085866 0.004892
0.005531 0.086504 0.110197
0.006245 0.087219 0.228117
0.006975 0.087949 0.348542
0.007715 0.088689 0.470604
0.008463 0.089437 0.593890
0.009216 0.090190 0.718159
0.009974 0.090948 0.843248
0.010516 0.091490 0.932621
0.011929 0.209371 0.011929
0.012567 0.210009 0.117234
0.013282 0.210724 0.235154
0.014012 0.211454 0.355579
0.014752 0.212194 0.477640
0.015499 0.212941 0.600927
0.016253 0.213695 0.725195
0.017011 0.214453 0.850285
0.017553 0.214995 0.939658
0.019135 0.335855 0.019135
0.019773 0.336494 0.124440
0.020488 0.337208 0.242360
0.021218 0.337938 0.362785
0.021958 0.338678 0.484847
0.022706 0.339426 0.608133
0.023459 0.340179 0.732402
0.024217 0.340937 0.857491
0.024759 0.341479 0.946864
0.026447 0.464195 0.026447
0.027086 0.464833 0.131752
0.027800 0.465548 0.249672
0.028530 0.466278 0.370097
0.029270 0.467018 0.492159
0.030018 0.467766 0.615445
0.030771 0.468519 0.739714
0.031529 0.469277 0.864803
0.032071 0.469819 0.954176
0.033837 0.593896 0.033837
0.034475 0.594535 0.139142
0.035190 0.595249 0.257062
0.035920 0.595979 0.377487
0.036660 0.596719 0.499548
0.037407 0.597467 0.622835
0.038161 0.598220 0.747103
0.038919 0.598978 0.872193
0.039461 0.599520 0.961566
0.041288 0.724676 0.041288
0.041926 0.725314 0.146593
0.042641 0.726029 0.264513
0.043371 0.726759 0.384938
0.044111 0.727499 0.506999
0.044858 0.728247 0.630286
0.045612 0.729000 0.754554
0.046370 0.729758 0.879644
0.046912 0.730300 0.969017
0.048790 0.856352 0.048790
0.049428 0.856990 0.154095
0.050143 0.857705 0.272015
0.050873 0.858435 0.392440
0.051613 0.859175 0.514502
0.052361 0.859922 0.637788
0.053114 0.860675 0.762056
0.053872 0.861434 0.887146
0.054414 0.861976 0.976519
0.055710 0.977816 0.055710
0.056349 0.978454 0.161015
0.057064 0.979169 0.278935
0.057794 0.979899 0.399360
0.058534 0.980639 0.521422
0.059281 0.981386 0.644708
0.060034 0.982139 0.768977
0.060793 0.982898 0.894066
0.061334 0.983440 0.983440
0.058575 0.001033 0.001033
0.059213 0.001672 0.106338
0.059928 0.002387 0.224258
0.060658 0.003117 0.344683
0.061398 0.003857 0.466745
0.062146 0.004604 0.590031
0.062899 0.005357 0.714300
0.063657 0.006116 0.839389
0.064199 0.006657 0.928763
0.063467 0.086899 0.005926
0.064106 0.087538 0.111231
0.064820 0.088253 0.229150
0.065551 0.088983 0.349576
0.066290 0.089723 0.471637
0.067038 0.090470 0.594924
0.067791 0.091223 0.719192
0.068549 0.091982 0.844282
0.069091 0.092523 0.933655
0.070504 0.210404 0.012962
0.071142 0.211042 0.118267
0.071857 0.211757 0.236187
0.072587 0.212487 0.356612
0.073327 0.213227 0.478674
0.074074 0.213975 0.601960
0.074828 0.214728 0.726229
0.075586 0.215486 0.851318
0.076128 0.216028 0.940691
0.077710 0.336889 0.020169
0.078349 0.337527 0.125474
0.079063 0.338242 0.243393
0.079793 0.338972 0.363818
0.080533 0.339712 0.485880
0.081281 0.340459 0.609167
0.082034 0.341213 0.733435
0.082792 0.341971 0.858524
0.083334 0.342513 0.947898
0.085022 0.465229 0.027481
0.085661 0.465867 0.132786
0.086375 0.466582 0.250705
0.087106 0.467312 0.371131
0.087845 0.468052 0.493192
0.088593 0.468799 0.616479
0.089346 0.469552 0.740747
0.090104 0.470311 0.865837
0.090646 0.470853 0.955210
0.092412 0.594930 0.034870
0.093050 0.595568 0.140175
0.093765 0.596283 0.258095
0.094495 0.597013 0.378520
0.095235 0.597753 0.500582
0.095982 0.598500 0.623868
0.096736 0.599253 0.748137
0.097494 0.600012 0.873226
0.098036 0.600554 0.962599
0.099863 0.725710 0.042321
0.100501 0.726348 0.147626
0.101216 0.727063 0.265546
0.101946 0.727793 0.385971
0.102686 0.728533 0.508033
0.103434 0.729280 0.631319
0.104187 0.730033 0.755588
0.104945 0.730792 0.880677
0.105487 0.731334 0.970051
0.107365 0.857385 0.049823
0.108003 0.858023 0.155128
0.108718 0.858738 0.273048
0.109448 0.859468 0.393473
0.110188 0.860208 0.515535
0.110936 0.860956 0.638821
0.111689 0.861709 0.763090
0.112447 0.862467 0.888179
0.112989 0.863009 0.977553
0.114285 0.978849 0.056744
0.114924 0.979487 0.162049
0.115639 0.980202 0.279969
0.116369 0.980932 0.400394
0.117109 0.981672 0.522455
0.117856 0.982420 0.645742
0.118609 0.983173 0.770010
0.119368 0.983931 0.895100
0.119909 0.984473 0.984473
0.176235 0.003109 0.003109
0.176873 0.003748 0.108414
0.177588 0.004462 0.226334
0.178318 0.005192 0.346759
0.179058 0.005932 0.468821
0.179805 0.006680 0.592107
0.180558 0.007433 0.716376
0.181317 0.008191 0.841465
0.181859 0.008733 0.930838
0.181127 0.088975 0.008001
0.181765 0.089614 0.113306
0.182480 0.090329 0.231226
0.183210 0.091059 0.351651
0.183950 0.091798 0.473713
0.184697 0.092546 0.596999
0.185451 0.093299 0.721268
0.186209 0.094057 0.846357
0.186751 0.094599 0.935731
0.188163 0.212480 0.015038
0.188802 0.213118 0.120343
0.189516 0.213833 0.238263
0.190247 0.214563 0.358688
0.190986 0.215303 0.480749
0.191734 0.216050 0.604036
0.192487 0.216804 0.728304
0.193245 0.217562 0.853394
0.193787 0.218104 0.942767
0.195370 0.338964 0.022244
0.196008 0.339603 0.127549
0.196723 0.340318 0.245469
0.197453 0.341048 0.365894
0.198193 0.341788 0.487956
0.198940 0.342535 0.611242
0.199694 0.343288 0.735511
0.200452 0.344047 0.860600
0.200994 0.344588 0.949974
0.202682 0.467304 0.029556
0.203320 0.467943 0.134861
0.204035 0.468658 0.252781
0.204765 0.469388 0.373206
0.205505 0.470128 0.495268
0.206252 0.470875 0.618554
0.207006 0.471628 0.742823
0.207764 0.472387 0.867912
0.208306 0.472928 0.957286
0.210071 0.597005 0.036946
0.210710 0.597644 0.142251
0.211425 0.598359 0.260171
0.212155 0.599089 0.380596
0.212895 0.599829 0.502658
0.213642 0.600576 0.625944
0.214395 0.601329 0.750213
0.215154 0.602088 0.875302
0.215695 0.602629 0.964675
0.217522 0.727785 0.044397
0.218161 0.728424 0.149702
0.218876 0.729139 0.267622
0.219606 0.729869 0.388047
0.220346 0.730609 0.510109
0.221093 0.731356 0.633395
0.221846 0.732109 0.757664
0.222605 0.732868 0.882753
0.223146 0.733409 0.972126
0.225025 0.859461 0.051899
0.225663 0.860099 0.157204
0.226378 0.860814 0.275124
0.227108 0.861544 0.395549
0.227848 0.862284 0.517611
0.228595 0.863031 0.640897
0.229348 0.863785 0.765166
0.230107 0.864543 0.890255
0.230649 0.865085 0.979628
0.231945 0.980925 0.058820
0.232583 0.981563 0.164125
0.233298 0.982278 0.282044
0.234028 0.983008 0.402469
0.234768 0.983748 0.524531
0.235515 0.984495 0.647818
0.236269 0.985249 0.772086
0.237027 0.986007 0.897175
0.237569 0.986549 0.986549
0.297190 0.005243 0.005243
0.297828 0.005882 0.110548
0.298543 0.006596 0.228468
0.299273 0.007326 0.348893
0.300013 0.008066 0.470955
0.300760 0.008814 0.594241
0.301514 0.009567 0.718510
0.302272 0.010325 0.843599
0.302814 0.010867 0.932972
0.302082 0.091109 0.010135
0.302720 0.091748 0.115440
0.303435 0.092462 0.233360
0.304165 0.093192 0.353785
0.304905 0.093932 0.475847
0.305652 0.094680 0.599133
0.306406 0.095433 0.723402
0.307164 0.096191 0.848491
0.307706 0.096733 0.937865
0.309118 0.214614 0.017172
0.309757 0.215252 0.122477
0.310472 0.215967 0.240397
0.311202 0.216697 0.360822
0.311942 0.217437 0.482883
0.312689 0.218184 0.606170
0.313442 0.218938 0.730438
0.314201 0.219696 0.855528
0.314742 0.220238 0.944901
0.316325 0.341098 0.024378
0.316963 0.341737 0.129683
0.317678 0.342452 0.247603
0.318408 0.343182 0.368028
0.319148 0.343922 0.490090
0.319895 0.344669 0.613376
0.320649 0.345422 0.737645
0.321407 0.346181 0.862734
0.321949 0.346722 0.952108
0.323637 0.469438 0.031690
0.324275 0.470077 0.136995
0.324990 0.470792 0.254915
0.325720 0.471522 0.375340
0.326460 0.472261 0.497402
0.327207 0.473009 0.620688
0.327961 0.473762 0.744957
0.328719 0.474521 0.870046
0.329261 0.475062 0.959420
0.331026 0.599139 0.039080
0.331665 0.599778 0.144385
0.332380 0.600493 0.262305
0.333110 0.601223 0.382730
0.333850 0.601963 0.504791
0.334597 0.602710 0.628078
0.335350 0.603463 0.752346
0.336109 0.604222 0.877436
0.336650 0.604763 0.966809
0.338478 0.729919 0.046531
0.339116 0.730558 0.151836
0.339831 0.731272 0.269756
0.340561 0.732003 0.390181
0.341301 0.732742 0.512243
0.342048 0.733490 0.635529
0.342801 0.734243 0.759798
0.343560 0.735001 0.884887
0.344102 0.735543 0.974260
0.345980 0.861595 0.054033
0.346618 0.862233 0.159338
0.347333 0.862948 0.277258
0.348063 0.863678 0.397683
0.348803 0.864418 0.519745
0.349550 0.865165 0.643031
0.350304 0.865919 0.767300
0.351062 0.866677 0.892389
0.351604 0.867219 0.981762
0.352900 0.983059 0.060953
0.353538 0.983697 0.166259
0.354253 0.984412 0.284178
0.354983 0.985142 0.404603
0.355723 0.985882 0.526665
0.356471 0.986629 0.649951
0.357224 0.987383 0.774220
0.357982 0.988141 0.899309
0.358524 0.988683 0.988683
0.420073 0.007411 0.007411
0.420711 0.008050 0.112716
0.421426 0.008764 0.230636
0.422156 0.009494 0.351061
0.422896 0.010234 0.473123
0.423643 0.010982 0.596409
0.424397 0.011735 0.720678
0.425155 0.012493 0.845767
0.425697 0.013035 0.935140
0.424965 0.093277 0.012303
0.425603 0.093916 0.117608
0.426318 0.094630 0.235528
0.427048 0.095360 0.355953
0.427788 0.096100 0.478015
0.428535 0.096848 0.601301
0.429289 0.097601 0.725570
0.430047 0.098359 0.850659
0.430589 0.098901 0.940033
0.432001 0.216782 0.019340
0.432640 0.217420 0.124645
0.433355 0.218135 0.242565
0.434085 0.218865 0.362990
0.434825 0.219605 0.485051
0.435572 0.220352 0.608338
0.436325 0.221106 0.732606
0.437084 0.221864 0.857696
0.437625 0.222406 0.947069
0.439208 0.343266 0.026546
0.439846 0.343905 0.131851
0.440561 0.344620 0.249771
0.441291 0.345350 0.370196
0.442031 0.346090 0.492258
0.442778 0.346837 0.615544
0.443532 0.347590 0.739813
0.444290 0.348349 0.864902
0.444832 0.348890 0.954276
0.446520 0.471606 0.033858
0.447158 0.472245 0.139163
0.447873 0.472959 0.257083
0.448603 0.473690 0.377508
0.449343 0.474429 0.499570
0.450091 0.475177 0.622856
0.450844 0.475930 0.747125
0.451602 0.476688 0.872214
0.452144 0.477230 0.961588
0.453910 0.601307 0.041248
0.454548 0.601946 0.146553
0.455263 0.602660 0.264473
0.455993 0.603391 0.384898
0.456733 0.604130 0.506959
0.457480 0.604878 0.630246
0.458233 0.605631 0.754514
0.458992 0.606389 0.879604
0.459534 0.606931 0.968977
0.461361 0.732087 0.048699
0.461999 0.732726 0.154004
0.462714 0.733440 0.271924
0.463444 0.734170 0.392349
0.464184 0.734910 0.514411
0.464931 0.735658 0.637697
0.465685 0.736411 0.761966
0.466443 0.737169 0.887055
0.466985 0.737711 0.976428
0.468863 0.863763 0.056201
0.469501 0.864401 0.161506
0.470216 0.865116 0.279426
0.470946 0.865846 0.399851
0.471686 0.866586 0.521913
0.472433 0.867333 0.645199
0.473187 0.868087 0.769468
0.473945 0.868845 0.894557
0.474487 0.869387 0.983930
0.475783 0.985227 0.063121
0.476421 0.985865 0.168427
0.477136 0.986580 0.286346
0.477866 0.987310 0.406771
0.478606 0.988050 0.528833
0.479354 0.988797 0.652119
0.480107 0.989551 0.776388
0.480865 0.990309 0.901477
0.481407 0.990851 0.990851
0.544338 0.009603 0.009603
0.544976 0.010242 0.114909
0.545691 0.010957 0.232828
0.546421 0.011687 0.353253
0.547161 0.012427 0.475315
0.547908 0.013174 0.598601
0.548662 0.013927 0.722870
0.549420 0.014686 0.847959
0.549962 0.015227 0.937333
0.549230 0.095470 0.014496
0.549868 0.096108 0.119801
0.550583 0.096823 0.237720
0.551313 0.097553 0.358146
0.552053 0.098293 0.480207
0.552800 0.099040 0.603494
0.553554 0.099793 0.727762
0.554312 0.100552 0.852852
0.554854 0.101094 0.942225
0.556267 0.218974 0.021532
0.556905 0.219613 0.126837
0.557620 0.220327 0.244757
0.558350 0.221057 0.365182
0.559090 0.221797 0.487244
0.559837 0.222545 0.610530
0.560590 0.223298 0.734799
0.561349 0.224056 0.859888
0.561891 0.224598 0.949261
0.563473 0.345459 0.028739
0.564111 0.346097 0.134044
0.564826 0.346812 0.251963
0.565556 0.347542 0.372389
0.566296 0.348282 0.494450
0.567043 0.349029 0.617737
0.567797 0.349783 0.742005
0.568555 0.350541 0.867095
0.569097 0.351083 0.956468
0.570785 0.473799 0.036051
0.571423 0.474437 0.141356
0.572138 0.475152 0.259276
0.572868 0.475882 0.379701
0.573608 0.476622 0.501762
0.574356 0.477369 0.625049
0.575109 0.478123 0.749317
0.575867 0.478881 0.874407
0.576409 0.479423 0.963780
0.578175 0.603500 0.043440
0.578813 0.604138 0.148745
0.579528 0.604853 0.266665
0.580258 0.605583 0.387090
0.580998 0.606323 0.509152
0.581745 0.607070 0.632438
0.582498 0.607824 0.756707
0.583257 0.608582 0.881796
0.583799 0.609124 0.971170
0.585626 0.734280 0.050891
0.586264 0.734918 0.156196
0.586979 0.735633 0.274116
0.587709 0.736363 0.394541
0.588449 0.737103 0.516603
0.589196 0.737850 0.639889
0.589950 0.738603 0.764158
0.590708 0.739362 0.889247
0.591250 0.739904 0.978621
0.593128 0.865955 0.058393
0.593766 0.866593 0.163699
0.594481 0.867308 0.281618
0.595211 0.868038 0.402043
0.595951 0.868778 0.524105
0.596698 0.869526 0.647391
0.597452 0.870279 0.771660
0.598210 0.871037 0.896749
0.598752 0.871579 0.986123
0.600048 0.987419 0.065314
0.600686 0.988057 0.170619
0.601401 0.988772 0.288539
0.602131 0.989502 0.408964
0.602871 0.990242 0.531025
0.603619 0.990990 0.654312
0.604372 0.991743 0.778580
0.605130 0.992501 0.903670
0.605672 0.993043 0.993043
0.669685 0.011815 0.011815
0.670323 0.012453 0.117120
0.671038 0.013168 0.235040
0.671768 0.013898 0.355465
0.672508 0.014638 0.477526
0.673255 0.015385 0.600813
0.674008 0.016139 0.725081
0.674767 0.016897 0.850171
0.675309 0.017439 0.939544
0.674577 0.097681 0.016707
0.675215 0.098319 0.122012
0.675930 0.099034 0.239932
0.676660 0.099764 0.360357
0.677400 0.100504 0.482419
0.678147 0.101252 0.605705
0.678901 0.102005 0.729974
0.679659 0.102763 0.855063
0.680201 0.103305 0.944436
0.681613 0.221186 0.023744
0.682252 0.221824 0.129049
0.682966 0.222539 0.246969
0.683697 0.223269 0.367394
0.684436 0.224009 0.489455
0.685184 0.224756 0.612742
0.685937 0.225509 0.737010
0.686695 0.226268 0.862100
0.687237 0.226810 0.951473
0.688820 0.347670 0.030950
0.689458 0.348309 0.136255
0.690173 0.349023 0.254175
0.690903 0.349753 0.374600
0.691643 0.350493 0.496662
0.692390 0.351241 0.619948
0.693144 0.351994 0.744217
0.693902 0.352752 0.869306
0.694444 0.353294 0.958679
0.696132 0.476010 0.038262
0.696770 0.476648 0.143567
0.697485 0.477363 0.261487
0.698215 0.478093 0.381912
0.698955 0.478833 0.503974
0.699702 0.479581 0.627260
0.700456 0.480334 0.751529
0.701214 0.481092 0.876618
0.701756 0.481634 0.965991
0.703521 0.605711 0.045652
0.704160 0.606349 0.150957
0.704875 0.607064 0.268877
0.705605 0.607794 0.389302
0.706345 0.608534 0.511363
0.707092 0.609282 0.634650
0.707845 0.610035 0.758918
0.708604 0.610793 0.884008
0.709145 0.611335 0.973381
0.710972 0.736491 0.053103
0.711611 0.737129 0.158408
0.712326 0.737844 0.276328
0.713056 0.738574 0.396753
0.713796 0.739314 0.518814
0.714543 0.740062 0.642101
0.715296 0.740815 0.766369
0.716055 0.741573 0.891459
0.716596 0.742115 0.980832
0.718475 0.868166 0.060605
0.719113 0.868805 0.165910
0.719828 0.869520 0.283830
0.720558 0.870250 0.404255
0.721298 0.870990 0.526316
0.722045 0.871737 0.649603
0.722798 0.872490 0.773871
0.723557 0.873249 0.898961
0.724099 0.873790 0.988334
0.725395 0.989630 0.067525
0.726033 0.990269 0.172830
0.726748 0.990984 0.290750
0.727478 0.991714 0.411175
0.728218 0.992454 0.533237
0.728965 0.993201 0.656523
0.729719 0.993954 0.780792
0.730477 0.994713 0.905881
0.731019 0.995254 0.995254
0.795922 0.014042 0.014042
0.796560 0.014680 0.119347
0.797275 0.015395 0.237267
0.798005 0.016125 0.357692
0.798745 0.016865 0.479754
0.799493 0.017613 0.603040
0.800246 0.018366 0.727309
0.801004 0.019124 0.852398
0.801546 0.019666 0.941771
0.800814 0.099908 0.018934
0.801453 0.100547 0.124239
0.802167 0.101261 0.242159
0.802897 0.101991 0.362584
0.803637 0.102731 0.484646
0.804385 0.103479 0.607932
0.805138 0.104232 0.732201
0.805896 0.104990 0.857290
0.806438 0.105532 0.946663
0.807851 0.223413 0.025971
0.808489 0.224051 0.131276
0.809204 0.224766 0.249196
0.809934 0.225496 0.369621
0.810674 0.226236 0.491682
0.811421 0.226983 0.614969
0.812175 0.227737 0.739237
0.812933 0.228495 0.864327
0.813475 0.229037 0.953700
0.815057 0.349897 0.033177
0.815696 0.350536 0.138482
0.816410 0.351251 0.256402
0.817140 0.351981 0.376827
0.817880 0.352720 0.498889
0.818628 0.353468 0.622175
0.819381 0.354221 0.746444
0.820139 0.354979 0.871533
0.820681 0.355521 0.960906
0.822369 0.478237 0.040489
0.823008 0.478876 0.145794
0.823722 0.479590 0.263714
0.824452 0.480320 0.384139
0.825192 0.481060 0.506201
0.825940 0.481808 0.629487
0.826693 0.482561 0.753756
0.827451 0.483319 0.878845
0.827993 0.483861 0.968218
0.829759 0.607938 0.047879
0.830397 0.608577 0.153184
0.831112 0.609291 0.271104
0.831842 0.610021 0.391529
0.832582 0.610761 0.513590
0.833329 0.611509 0.636877
0.834083 0.612262 0.761145
0.834841 0.613020 0.886235
0.835383 0.613562 0.975608
0.837210 0.738718 0.055330
0.837848 0.739357 0.160635
0.838563 0.740071 0.278555
0.839293 0.740801 0.398980
0.840033 0.741541 0.521041
0.840781 0.742289 0.644328
0.841534 0.743042 0.768596
0.842292 0.743800 0.893686
0.842834 0.744342 0.983059
0.844712 0.870394 0.062832
0.845350 0.871032 0.168137
0.846065 0.871747 0.286057
0.846795 0.872477 0.406482
0.847535 0.873217 0.528544
0.848283 0.873964 0.651830
0.849036 0.874717 0.776099
0.849794 0.875476 0.901188
0.850336 0.876018 0.990561
0.851632 0.991858 0.069752
0.852271 0.992496 0.175057
0.852986 0.993211 0.292977
0.853716 0.993941 0.413402
0.854456 0.994681 0.535464
0.855203 0.995428 0.658750
0.855956 0.996182 0.783019
0.856715 0.996940 0.908108
0.857256 0.997482 0.997482
0.922918 0.016283 0.016283
0.923556 0.016921 0.121588
0.924271 0.017636 0.239507
0.925001 0.018366 0.359933
0.925741 0.019106 0.481994
0.926488 0.019853 0.605281
0.927242 0.020606 0.729549
0.928000 0.021365 0.854639
0.928542 0.021907 0.944012
0.927810 0.102149 0.021175
0.928448 0.102787 0.126480
0.929163 0.103502 0.244400
0.929893 0.104232 0.364825
0.930633 0.104972 0.486886
0.931380 0.105719 0.610173
0.932134 0.106473 0.734441
0.932892 0.107231 0.859531
0.933434 0.107773 0.948904
0.934846 0.225653 0.028211
0.935485 0.226292 0.133516
0.936200 0.227006 0.251436
0.936930 0.227737 0.371861
0.937670 0.228476 0.493923
0.938417 0.229224 0.617209
0.939170 0.229977 0.741478
0.939929 0.230735 0.866567
0.940470 0.231277 0.955941
0.942053 0.352138 0.035418
0.942691 0.352776 0.140723
0.943406 0.353491 0.258643
0.944136 0.354221 0.379068
0.944876 0.354961 0.501129
0.945623 0.355708 0.624416
0.946377 0.356462 0.748684
0.947135 0.357220 0.873774
0.947677 0.357762 0.963147
0.949365 0.480478 0.042730
0.950003 0.481116 0.148035
0.950718 0.481831 0.265955
0.951448 0.482561 0.386380
0.952188 0.483301 0.508441
0.952935 0.484048 0.631728
0.953689 0.484802 0.755996
0.954447 0.485560 0.881086
0.954989 0.486102 0.970459
0.956754 0.610179 0.050119
0.957393 0.610817 0.155424
0.958108 0.611532 0.273344
0.958838 0.612262 0.393769
0.959578 0.613002 0.515831
0.960325 0.613749 0.639117
0.961078 0.614503 0.763386
0.961837 0.615261 0.888475
0.962378 0.615803 0.977849
0.964206 0.740959 0.057570
0.964844 0.741597 0.162876
0.965559 0.742312 0.280795
0.966289 0.743042 0.401220
0.967029 0.743782 0.523282
0.967776 0.744529 0.646568
0.968529 0.745283 0.770837
0.969288 0.746041 0.895926
0.969830 0.746583 0.985300
0.971708 0.872634 0.065073
0.972346 0.873272 0.170378
0.973061 0.873987 0.288297
0.973791 0.874717 0.408723
0.974531 0.875457 0.530784
0.975278 0.876205 0.654071
0.976032 0.876958 0.778339
0.976790 0.877716 0.903429
0.977332 0.878258 0.992802
0.978628 0.994098 0.071993
0.979266 0.994737 0.177298
0.979981 0.995451 0.295218
0.980711 0.996181 0.415643
0.981451 0.996921 0.537704
0.982199 0.997669 0.660991
0.982952 0.998422 0.785259
0.983710 0.999180 0.910349
0.984252 0.999722 0.999722
