skills/editops-orchestrator/assets/grade/luts/moody_teal_v14.cube
TITLE "moody_teal_v14"
LUT_3D_SIZE 5
DOMAIN_MIN 0.0 0.0 0.0
DOMAIN_MAX 1.0 1.0 1.0
0.000000 0.000000 0.000000
0.002100 0.002100 0.211260
0.004472 0.004472 0.449767
0.006922 0.006922 0.696168
0.008816 0.008816 0.886711
0.016777 0.185426 0.016777
0.018877 0.187526 0.228036
0.021248 0.189897 0.466544
0.023698 0.192347 0.712944
0.025593 0.194242 0.903487
0.040074 0.442926 0.040074
0.042175 0.445026 0.251334
0.044546 0.447398 0.489841
0.046996 0.449847 0.736242
0.048890 0.451742 0.926785
0.064230 0.709909 0.064230
0.066330 0.712010 0.275490
0.068702 0.714381 0.513997
0.071151 0.716831 0.760398
0.073046 0.718725 0.950941
0.087330 0.965224 0.087330
0.089430 0.967325 0.298589
0.091801 0.969696 0.537097
0.094251 0.972146 0.783498
0.096146 0.974040 0.974040
0.132501 0.003806 0.003806
0.134602 0.005906 0.215065
0.136973 0.008277 0.453573
0.139423 0.010727 0.699973
0.141317 0.012622 0.890516
0.149278 0.189231 0.020582
0.151378 0.191332 0.231842
0.153750 0.193703 0.470349
0.156200 0.196153 0.716750
0.158094 0.198047 0.907293
0.172576 0.446731 0.043880
0.174676 0.448832 0.255140
0.177047 0.451203 0.493647
0.179497 0.453653 0.740048
0.181392 0.455547 0.930590
0.196731 0.713715 0.068035
0.198832 0.715815 0.279295
0.201203 0.718187 0.517803
0.203653 0.720637 0.764203
0.205547 0.722531 0.954746
0.219831 0.969030 0.091135
0.221931 0.971130 0.302395
0.224303 0.973502 0.540902
0.226753 0.975952 0.787303
0.228647 0.977846 0.977846
0.371329 0.010665 0.010665
0.373430 0.012765 0.221925
0.375801 0.015137 0.460432
0.378251 0.017586 0.706833
0.380145 0.019481 0.897376
0.388106 0.196091 0.027442
0.390206 0.198191 0.238701
0.392577 0.200562 0.477209
0.395027 0.203012 0.723609
0.396922 0.204907 0.914152
0.411403 0.453591 0.050739
0.413504 0.455691 0.261999
0.415875 0.458063 0.500506
0.418325 0.460512 0.746907
0.420219 0.462407 0.937450
0.435559 0.720574 0.074895
0.437659 0.722675 0.286155
0.440031 0.725046 0.524662
0.442480 0.727496 0.771063
0.444375 0.729390 0.961605
0.458659 0.975889 0.097995
0.460759 0.977990 0.309254
0.463131 0.980361 0.547762
0.465580 0.982811 0.794163
0.467475 0.984705 0.984705
0.620091 0.017810 0.017810
0.622192 0.019910 0.229069
0.624563 0.022281 0.467577
0.627013 0.024731 0.713978
0.628907 0.026626 0.904520
0.636868 0.203235 0.034586
0.638968 0.205336 0.245846
0.641340 0.207707 0.484353
0.643789 0.210157 0.730754
0.645684 0.212051 0.921297
0.660165 0.460736 0.057884
0.662266 0.462836 0.269144
0.664637 0.465207 0.507651
0.667087 0.467657 0.754052
0.668981 0.469552 0.944595
0.684321 0.727719 0.082039
0.686421 0.729820 0.293299
0.688793 0.732191 0.531807
0.691243 0.734641 0.778207
0.693137 0.736535 0.968750
0.707421 0.983034 0.105139
0.709521 0.985134 0.316399
0.711893 0.987506 0.554907
0.714342 0.989956 0.801307
0.716237 0.991850 0.991850
0.874893 0.025128 0.025128
0.876993 0.027228 0.236388
0.879364 0.029600 0.474895
0.881814 0.032049 0.721296
0.883709 0.033944 0.911839
0.891669 0.210553 0.041904
0.893770 0.212654 0.253164
0.896141 0.215025 0.491672
0.898591 0.217475 0.738072
0.900485 0.219369 0.928615
0.914967 0.468054 0.065202
0.917067 0.470154 0.276462
0.919439 0.472525 0.514969
0.921888 0.474975 0.761370
0.923783 0.476870 0.951913
0.939122 0.735037 0.089358
0.941223 0.737138 0.300617
0.943594 0.739509 0.539125
0.946044 0.741959 0.785525
0.947938 0.743853 0.976068
0.962222 0.990352 0.112457
0.964323 0.992453 0.323717
0.966694 0.994824 0.562225
0.969144 0.997274 0.808625
0.971038 0.999168 0.999168
