skills/editops-orchestrator/assets/grade/luts/moody_teal_v16.cube
TITLE "moody_teal_v16"
LUT_3D_SIZE 17
DOMAIN_MIN 0.0 0.0 0.0
DOMAIN_MAX 1.0 1.0 1.0
0.000000 0.000000 0.000000
0.000459 0.000459 0.041266
0.001056 0.001056 0.094984
0.001677 0.001677 0.150809
0.002313 0.002313 0.208000
0.002960 0.002960 0.266214
0.003616 0.003616 0.325249
0.004280 0.004280 0.384971
0.004951 0.004951 0.445286
0.005627 0.005627 0.506123
0.006309 0.006309 0.567425
0.006995 0.006995 0.629150
0.007685 0.007685 0.691259
0.008380 0.008380 0.753723
0.009078 0.009078 0.816516
0.009728 0.009728 0.874991
0.009728 0.009728 0.874991
0.000237 0.002370 0.000237
0.000696 0.002829 0.041503
0.001293 0.003426 0.095221
0.001914 0.004046 0.151046
0.002550 0.004682 0.208238
0.003197 0.005329 0.266451
0.003854 0.005986 0.325486
0.004518 0.006650 0.385208
0.005188 0.007320 0.445523
0.005864 0.007997 0.506360
0.006546 0.008678 0.567663
0.007232 0.009365 0.629387
0.007923 0.010055 0.691497
0.008617 0.010749 0.753961
0.009315 0.011448 0.816754
0.009965 0.012098 0.875229
0.009965 0.012098 0.875229
0.005751 0.057387 0.005751
0.006209 0.057846 0.047016
0.006807 0.058443 0.100734
0.007427 0.059064 0.156560
0.008063 0.059700 0.213751
0.008710 0.060347 0.271965
0.009367 0.061003 0.330999
0.010031 0.061667 0.390722
0.010701 0.062338 0.451037
0.011378 0.063014 0.511873
0.012059 0.063696 0.573176
0.012745 0.064382 0.634900
0.013436 0.065072 0.697010
0.014130 0.065767 0.759474
0.014829 0.066465 0.822267
0.015479 0.067115 0.880742
0.015479 0.067115 0.880742
0.011727 0.117023 0.011727
0.012186 0.117482 0.052993
0.012783 0.118079 0.106710
0.013403 0.118699 0.162536
0.014039 0.119335 0.219727
0.014686 0.119983 0.277941
0.015343 0.120639 0.336975
0.016007 0.121303 0.396698
0.016677 0.121973 0.457013
0.017354 0.122650 0.517849
0.018035 0.123331 0.579152
0.018722 0.124018 0.640876
0.019412 0.124708 0.702986
0.020107 0.125403 0.765450
0.020805 0.126101 0.828243
0.021455 0.126751 0.886718
0.021455 0.126751 0.886718
0.017911 0.178733 0.017911
0.018369 0.179192 0.059176
0.018967 0.179789 0.112894
0.019587 0.180410 0.168720
0.020223 0.181046 0.225911
0.020870 0.181693 0.284125
0.021527 0.182349 0.343159
0.022191 0.183013 0.402882
0.022861 0.183684 0.463197
0.023538 0.184360 0.524033
0.024219 0.185042 0.585336
0.024905 0.185728 0.647060
0.025596 0.186419 0.709170
0.026290 0.187113 0.771634
0.026989 0.187811 0.834427
0.027639 0.188461 0.892902
0.027639 0.188461 0.892902
0.024235 0.241845 0.024235
0.024694 0.242304 0.065501
0.025291 0.242902 0.119219
0.025912 0.243522 0.175044
0.026548 0.244158 0.232235
0.027195 0.244805 0.290449
0.027851 0.245462 0.349484
0.028515 0.246126 0.409206
0.029186 0.246796 0.469521
0.029862 0.247472 0.530358
0.030544 0.248154 0.591660
0.031230 0.248840 0.653385
0.031920 0.249531 0.715494
0.032615 0.250225 0.777959
0.033313 0.250923 0.840752
0.033963 0.251573 0.899226
0.033963 0.251573 0.899226
0.030667 0.306026 0.030667
0.031125 0.306485 0.071932
0.031723 0.307082 0.125650
0.032343 0.307703 0.181475
0.032979 0.308339 0.238667
0.033626 0.308986 0.296881
0.034283 0.309642 0.355915
0.034947 0.310306 0.415637
0.035617 0.310977 0.475953
0.036294 0.311653 0.536789
0.036975 0.312335 0.598092
0.037661 0.313021 0.659816
0.038352 0.313712 0.721926
0.039046 0.314406 0.784390
0.039745 0.315104 0.847183
0.040395 0.315754 0.905658
0.040395 0.315754 0.905658
0.037185 0.371074 0.037185
0.037644 0.371533 0.078451
0.038241 0.372130 0.132169
0.038862 0.372751 0.187994
0.039498 0.373386 0.245185
0.040145 0.374034 0.303399
0.040801 0.374690 0.362434
0.041465 0.375354 0.422156
0.042136 0.376025 0.482471
0.042812 0.376701 0.543308
0.043494 0.377382 0.604610
0.044180 0.378069 0.666335
0.044870 0.378759 0.728444
0.045565 0.379454 0.790908
0.046263 0.380152 0.853701
0.046913 0.380802 0.912176
0.046913 0.380802 0.912176
0.043777 0.436853 0.043777
0.044235 0.437312 0.085042
0.044833 0.437909 0.138760
0.045453 0.438530 0.194585
0.046089 0.439165 0.251777
0.046736 0.439813 0.309991
0.047393 0.440469 0.369025
0.048057 0.441133 0.428747
0.048727 0.441803 0.489063
0.049404 0.442480 0.549899
0.050085 0.443161 0.611202
0.050771 0.443848 0.672926
0.051462 0.444538 0.735036
0.052156 0.445233 0.797500
0.052855 0.445931 0.860293
0.053505 0.446581 0.918768
0.053505 0.446581 0.918768
0.050432 0.503265 0.050432
0.050891 0.503724 0.091698
0.051488 0.504321 0.145415
0.052108 0.504942 0.201241
0.052744 0.505578 0.258432
0.053391 0.506225 0.316646
0.054048 0.506881 0.375680
0.054712 0.507545 0.435403
0.055382 0.508216 0.495718
0.056059 0.508892 0.556554
0.056740 0.509574 0.617857
0.057427 0.510260 0.679581
0.058117 0.510950 0.741691
0.058812 0.511645 0.804155
0.059510 0.512343 0.866948
0.060160 0.512993 0.925423
0.060160 0.512993 0.925423
0.057143 0.570237 0.057143
0.057602 0.570696 0.098409
0.058199 0.571293 0.152126
0.058820 0.571913 0.207952
0.059455 0.572549 0.265143
0.060103 0.573196 0.323357
0.060759 0.573853 0.382391
0.061423 0.574517 0.442114
0.062094 0.575187 0.502429
0.062770 0.575864 0.563265
0.063451 0.576545 0.624568
0.064138 0.577232 0.686293
0.064828 0.577922 0.748402
0.065523 0.578617 0.810866
0.066221 0.579315 0.873659
0.066871 0.579965 0.932134
0.066871 0.579965 0.932134
0.063904 0.637710 0.063904
0.064363 0.638168 0.105170
0.064960 0.638766 0.158888
0.065581 0.639386 0.214713
0.066217 0.640022 0.271905
0.066864 0.640669 0.330118
0.067520 0.641326 0.389153
0.068184 0.641990 0.448875
0.068855 0.642660 0.509190
0.069531 0.643337 0.570027
0.070213 0.644018 0.631330
0.070899 0.644704 0.693054
0.071590 0.645395 0.755163
0.072284 0.646089 0.817628
0.072982 0.646787 0.880421
0.073632 0.647438 0.938895
0.073632 0.647438 0.938895
0.070711 0.705637 0.070711
0.071170 0.706096 0.111977
0.071767 0.706693 0.165695
0.072388 0.707313 0.221520
0.073024 0.707949 0.278711
0.073671 0.708596 0.336925
0.074327 0.709253 0.395960
0.074991 0.709917 0.455682
0.075662 0.710587 0.515997
0.076338 0.711264 0.576834
0.077020 0.711945 0.638136
0.077706 0.712632 0.699861
0.078397 0.713322 0.761970
0.079091 0.714017 0.824435
0.079789 0.714715 0.887228
0.080439 0.715365 0.945702
0.080439 0.715365 0.945702
0.077560 0.773980 0.077560
0.078019 0.774439 0.118826
0.078616 0.775036 0.172543
0.079237 0.775656 0.228369
0.079872 0.776292 0.285560
0.080520 0.776940 0.343774
0.081176 0.777596 0.402808
0.081840 0.778260 0.462531
0.082510 0.778930 0.522846
0.083187 0.779607 0.583682
0.083868 0.780288 0.644985
0.084555 0.780975 0.706709
0.085245 0.781665 0.768819
0.085940 0.782360 0.831283
0.086638 0.783058 0.894076
0.087288 0.783708 0.952551
0.087288 0.783708 0.952551
0.084447 0.842706 0.084447
0.084906 0.843165 0.125713
0.085503 0.843762 0.179430
0.086124 0.844383 0.235256
0.086759 0.845019 0.292447
0.087407 0.845666 0.350661
0.088063 0.846322 0.409695
0.088727 0.846986 0.469418
0.089397 0.847657 0.529733
0.090074 0.848333 0.590569
0.090755 0.849015 0.651872
0.091442 0.849701 0.713596
0.092132 0.850392 0.775706
0.092827 0.851086 0.838170
0.093525 0.851784 0.900963
0.094175 0.852434 0.959438
0.094175 0.852434 0.959438
0.091370 0.911789 0.091370
0.091828 0.912248 0.132635
0.092426 0.912845 0.186353
0.093046 0.913465 0.242178
0.093682 0.914101 0.299370
0.094329 0.914749 0.357583
0.094986 0.915405 0.416618
0.095650 0.916069 0.476340
0.096320 0.916739 0.536655
0.096997 0.917416 0.597492
0.097678 0.918097 0.658795
0.098364 0.918784 0.720519
0.099055 0.919474 0.782629
0.099749 0.920169 0.845093
0.100447 0.920867 0.907886
0.101098 0.921517 0.966361
0.101098 0.921517 0.966361
0.096364 0.961627 0.096364
0.096823 0.962086 0.137630
0.097420 0.962683 0.191347
0.098040 0.963304 0.247173
0.098676 0.963939 0.304364
0.099324 0.964587 0.362578
0.099980 0.965243 0.421612
0.100644 0.965907 0.481335
0.101314 0.966578 0.541650
0.101991 0.967254 0.602486
0.102672 0.967935 0.663789
0.103359 0.968622 0.725513
0.104049 0.969312 0.787623
0.104744 0.970007 0.850087
0.105442 0.970705 0.912880
0.106092 0.971355 0.971355
0.106092 0.971355 0.971355
0.000000 0.000000 0.000000
0.000459 0.000459 0.041266
0.001056 0.001056 0.094984
0.001677 0.001677 0.150809
0.002313 0.002313 0.208000
0.002960 0.002960 0.266214
0.003616 0.003616 0.325249
0.004280 0.004280 0.384971
0.004951 0.004951 0.445286
0.005627 0.005627 0.506123
0.006309 0.006309 0.567425
0.006995 0.006995 0.629150
0.007685 0.007685 0.691259
0.008380 0.008380 0.753723
0.009078 0.009078 0.816516
0.009728 0.009728 0.874991
0.009728 0.009728 0.874991
0.000237 0.002370 0.000237
0.000696 0.002829 0.041503
0.001293 0.003426 0.095221
0.001914 0.004046 0.151046
0.002550 0.004682 0.208238
0.003197 0.005329 0.266451
0.003854 0.005986 0.325486
0.004518 0.006650 0.385208
0.005188 0.007320 0.445523
0.005864 0.007997 0.506360
0.006546 0.008678 0.567663
0.007232 0.009365 0.629387
0.007923 0.010055 0.691497
0.008617 0.010749 0.753961
0.009315 0.011448 0.816754
0.009965 0.012098 0.875229
0.009965 0.012098 0.875229
0.005751 0.057387 0.005751
0.006209 0.057846 0.047016
0.006807 0.058443 0.100734
0.007427 0.059064 0.156560
0.008063 0.059700 0.213751
0.008710 0.060347 0.271965
0.009367 0.061003 0.330999
0.010031 0.061667 0.390722
0.010701 0.062338 0.451037
0.011378 0.063014 0.511873
0.012059 0.063696 0.573176
0.012745 0.064382 0.634900
0.013436 0.065072 0.697010
0.014130 0.065767 0.759474
0.014829 0.066465 0.822267
0.015479 0.067115 0.880742
0.015479 0.067115 0.880742
0.011727 0.117023 0.011727
0.012186 0.117482 0.052993
0.012783 0.118079 0.106710
0.013403 0.118699 0.162536
0.014039 0.119335 0.219727
0.014686 0.119983 0.277941
0.015343 0.120639 0.336975
0.016007 0.121303 0.396698
0.016677 0.121973 0.457013
0.017354 0.122650 0.517849
0.018035 0.123331 0.579152
0.018722 0.124018 0.640876
0.019412 0.124708 0.702986
0.020107 0.125403 0.765450
0.020805 0.126101 0.828243
0.021455 0.126751 0.886718
0.021455 0.126751 0.886718
0.017911 0.178733 0.017911
0.018369 0.179192 0.059176
0.018967 0.179789 0.112894
0.019587 0.180410 0.168720
0.020223 0.181046 0.225911
0.020870 0.181693 0.284125
0.021527 0.182349 0.343159
0.022191 0.183013 0.402882
0.022861 0.183684 0.463197
0.023538 0.184360 0.524033
0.024219 0.185042 0.585336
0.024905 0.185728 0.647060
0.025596 0.186419 0.709170
0.026290 0.187113 0.771634
0.026989 0.187811 0.834427
0.027639 0.188461 0.892902
0.027639 0.188461 0.892902
0.024235 0.241845 0.024235
0.024694 0.242304 0.065501
0.025291 0.242902 0.119219
0.025912 0.243522 0.175044
0.026548 0.244158 0.232235
0.027195 0.244805 0.290449
0.027851 0.245462 0.349484
0.028515 0.246126 0.409206
0.029186 0.246796 0.469521
0.029862 0.247472 0.530358
0.030544 0.248154 0.591660
0.031230 0.248840 0.653385
0.031920 0.249531 0.715494
0.032615 0.250225 0.777959
0.033313 0.250923 0.840752
0.033963 0.251573 0.899226
0.033963 0.251573 0.899226
0.030667 0.306026 0.030667
0.031125 0.306485 0.071932
0.031723 0.307082 0.125650
0.032343 0.307703 0.181475
0.032979 0.308339 0.238667
0.033626 0.308986 0.296881
0.034283 0.309642 0.355915
0.034947 0.310306 0.415637
0.035617 0.310977 0.475953
0.036294 0.311653 0.536789
0.036975 0.312335 0.598092
0.037661 0.313021 0.659816
0.038352 0.313712 0.721926
0.039046 0.314406 0.784390
0.039745 0.315104 0.847183
0.040395 0.315754 0.905658
0.040395 0.315754 0.905658
0.037185 0.371074 0.037185
0.037644 0.371533 0.078451
0.038241 0.372130 0.132169
0.038862 0.372751 0.187994
0.039498 0.373386 0.245185
0.040145 0.374034 0.303399
0.040801 0.374690 0.362434
0.041465 0.375354 0.422156
0.042136 0.376025 0.482471
0.042812 0.376701 0.543308
0.043494 0.377382 0.604610
0.044180 0.378069 0.666335
0.044870 0.378759 0.728444
0.045565 0.379454 0.790908
0.046263 0.380152 0.853701
0.046913 0.380802 0.912176
0.046913 0.380802 0.912176
0.043777 0.436853 0.043777
0.044235 0.437312 0.085042
0.044833 0.437909 0.138760
0.045453 0.438530 0.194585
0.046089 0.439165 0.251777
0.046736 0.439813 0.309991
0.047393 0.440469 0.369025
0.048057 0.441133 0.428747
0.048727 0.441803 0.489063
0.049404 0.442480 0.549899
0.050085 0.443161 0.611202
0.050771 0.443848 0.672926
0.051462 0.444538 0.735036
0.052156 0.445233 0.797500
0.052855 0.445931 0.860293
0.053505 0.446581 0.918768
0.053505 0.446581 0.918768
0.050432 0.503265 0.050432
0.050891 0.503724 0.091698
0.051488 0.504321 0.145415
0.052108 0.504942 0.201241
0.052744 0.505578 0.258432
0.053391 0.506225 0.316646
0.054048 0.506881 0.375680
0.054712 0.507545 0.435403
0.055382 0.508216 0.495718
0.056059 0.508892 0.556554
0.056740 0.509574 0.617857
0.057427 0.510260 0.679581
0.058117 0.510950 0.741691
0.058812 0.511645 0.804155
0.059510 0.512343 0.866948
0.060160 0.512993 0.925423
0.060160 0.512993 0.925423
0.057143 0.570237 0.057143
0.057602 0.570696 0.098409
0.058199 0.571293 0.152126
0.058820 0.571913 0.207952
0.059455 0.572549 0.265143
0.060103 0.573196 0.323357
0.060759 0.573853 0.382391
0.061423 0.574517 0.442114
0.062094 0.575187 0.502429
0.062770 0.575864 0.563265
0.063451 0.576545 0.624568
0.064138 0.577232 0.686293
0.064828 0.577922 0.748402
0.065523 0.578617 0.810866
0.066221 0.579315 0.873659
0.066871 0.579965 0.932134
0.066871 0.579965 0.932134
0.063904 0.637710 0.063904
0.064363 0.638168 0.105170
0.064960 0.638766 0.158888
0.065581 0.639386 0.214713
0.066217 0.640022 0.271905
0.066864 0.640669 0.330118
0.067520 0.641326 0.389153
0.068184 0.641990 0.448875
0.068855 0.642660 0.509190
0.069531 0.643337 0.570027
0.070213 0.644018 0.631330
0.070899 0.644704 0.693054
0.071590 0.645395 0.755163
0.072284 0.646089 0.817628
0.072982 0.646787 0.880421
0.073632 0.647438 0.938895
0.073632 0.647438 0.938895
0.070711 0.705637 0.070711
0.071170 0.706096 0.111977
0.071767 0.706693 0.165695
0.072388 0.707313 0.221520
0.073024 0.707949 0.278711
0.073671 0.708596 0.336925
0.074327 0.709253 0.395960
0.074991 0.709917 0.455682
0.075662 0.710587 0.515997
0.076338 0.711264 0.576834
0.077020 0.711945 0.638136
0.077706 0.712632 0.699861
0.078397 0.713322 0.761970
0.079091 0.714017 0.824435
0.079789 0.714715 0.887228
0.080439 0.715365 0.945702
0.080439 0.715365 0.945702
0.077560 0.773980 0.077560
0.078019 0.774439 0.118826
0.078616 0.775036 0.172543
0.079237 0.775656 0.228369
0.079872 0.776292 0.285560
0.080520 0.776940 0.343774
0.081176 0.777596 0.402808
0.081840 0.778260 0.462531
0.082510 0.778930 0.522846
0.083187 0.779607 0.583682
0.083868 0.780288 0.644985
0.084555 0.780975 0.706709
0.085245 0.781665 0.768819
0.085940 0.782360 0.831283
0.086638 0.783058 0.894076
0.087288 0.783708 0.952551
0.087288 0.783708 0.952551
0.084447 0.842706 0.084447
0.084906 0.843165 0.125713
0.085503 0.843762 0.179430
0.086124 0.844383 0.235256
0.086759 0.845019 0.292447
0.087407 0.845666 0.350661
0.088063 0.846322 0.409695
0.088727 0.846986 0.469418
0.089397 0.847657 0.529733
0.090074 0.848333 0.590569
0.090755 0.849015 0.651872
0.091442 0.849701 0.713596
0.092132 0.850392 0.775706
0.092827 0.851086 0.838170
0.093525 0.851784 0.900963
0.094175 0.852434 0.959438
0.094175 0.852434 0.959438
0.091370 0.911789 0.091370
0.091828 0.912248 0.132635
0.092426 0.912845 0.186353
0.093046 0.913465 0.242178
0.093682 0.914101 0.299370
0.094329 0.914749 0.357583
0.094986 0.915405 0.416618
0.095650 0.916069 0.476340
0.096320 0.916739 0.536655
0.096997 0.917416 0.597492
0.097678 0.918097 0.658795
0.098364 0.918784 0.720519
0.099055 0.919474 0.782629
0.099749 0.920169 0.845093
0.100447 0.920867 0.907886
0.101098 0.921517 0.966361
0.101098 0.921517 0.966361
0.096364 0.961627 0.096364
0.096823 0.962086 0.137630
0.097420 0.962683 0.191347
0.098040 0.963304 0.247173
0.098676 0.963939 0.304364
0.099324 0.964587 0.362578
0.099980 0.965243 0.421612
0.100644 0.965907 0.481335
0.101314 0.966578 0.541650
0.101991 0.967254 0.602486
0.102672 0.967935 0.663789
0.103359 0.968622 0.725513
0.104049 0.969312 0.787623
0.104744 0.970007 0.850087
0.105442 0.970705 0.912880
0.106092 0.971355 0.971355
0.106092 0.971355 0.971355
0.012064 0.000387 0.000387
0.012523 0.000845 0.041652
0.013120 0.001443 0.095370
0.013741 0.002063 0.151195
0.014376 0.002699 0.208387
0.015024 0.003346 0.266601
0.015680 0.004003 0.325635
0.016344 0.004667 0.385357
0.017015 0.005337 0.445672
0.017691 0.006014 0.506509
0.018372 0.006695 0.567812
0.019059 0.007381 0.629536
0.019749 0.008072 0.691646
0.020444 0.008766 0.754110
0.021142 0.009464 0.816903
0.021792 0.010115 0.875378
0.021792 0.010115 0.875378
0.012301 0.002756 0.000624
0.012760 0.003215 0.041890
0.013357 0.003812 0.095608
0.013978 0.004433 0.151433
0.014614 0.005069 0.208624
0.015261 0.005716 0.266838
0.015917 0.006372 0.325873
0.016581 0.007036 0.385595
0.017252 0.007707 0.445910
0.017928 0.008383 0.506747
0.018610 0.009065 0.568049
0.019296 0.009751 0.629774
0.019987 0.010442 0.691883
0.020681 0.011136 0.754347
0.021379 0.011834 0.817140
0.022029 0.012484 0.875615
0.022029 0.012484 0.875615
0.017815 0.057774 0.006137
0.018273 0.058232 0.047403
0.018871 0.058830 0.101121
0.019491 0.059450 0.156946
0.020127 0.060086 0.214137
0.020774 0.060733 0.272351
0.021431 0.061390 0.331386
0.022095 0.062054 0.391108
0.022765 0.062724 0.451423
0.023442 0.063401 0.512260
0.024123 0.064082 0.573563
0.024809 0.064768 0.635287
0.025500 0.065459 0.697396
0.026194 0.066153 0.759861
0.026893 0.066852 0.822654
0.027543 0.067502 0.881128
0.027543 0.067502 0.881128
0.023791 0.117409 0.012113
0.024249 0.117868 0.053379
0.024847 0.118465 0.107097
0.025467 0.119086 0.162922
0.026103 0.119722 0.220114
0.026750 0.120369 0.278327
0.027407 0.121025 0.337362
0.028071 0.121689 0.397084
0.028741 0.122360 0.457399
0.029418 0.123036 0.518236
0.030099 0.123718 0.579539
0.030785 0.124404 0.641263
0.031476 0.125095 0.703373
0.032170 0.125789 0.765837
0.032869 0.126487 0.828630
0.033519 0.127137 0.887104
0.033519 0.127137 0.887104
0.029975 0.179120 0.018297
0.030433 0.179579 0.059563
0.031031 0.180176 0.113281
0.031651 0.180796 0.169106
0.032287 0.181432 0.226297
0.032934 0.182080 0.284511
0.033591 0.182736 0.343546
0.034255 0.183400 0.403268
0.034925 0.184070 0.463583
0.035602 0.184747 0.524420
0.036283 0.185428 0.585723
0.036969 0.186115 0.647447
0.037660 0.186805 0.709556
0.038354 0.187500 0.772021
0.039053 0.188198 0.834814
0.039703 0.188848 0.893288
0.039703 0.188848 0.893288
0.036299 0.242232 0.024622
0.036758 0.242691 0.065887
0.037355 0.243288 0.119605
0.037976 0.243909 0.175431
0.038612 0.244545 0.232622
0.039259 0.245192 0.290836
0.039915 0.245848 0.349870
0.040579 0.246512 0.409593
0.041250 0.247183 0.469908
0.041926 0.247859 0.530744
0.042608 0.248541 0.592047
0.043294 0.249227 0.653771
0.043984 0.249917 0.715881
0.044679 0.250612 0.778345
0.045377 0.251310 0.841138
0.046027 0.251960 0.899613
0.046027 0.251960 0.899613
0.042731 0.306413 0.031053
0.043189 0.306872 0.072319
0.043787 0.307469 0.126037
0.044407 0.308090 0.181862
0.045043 0.308725 0.239053
0.045690 0.309373 0.297267
0.046347 0.310029 0.356302
0.047011 0.310693 0.416024
0.047681 0.311363 0.476339
0.048358 0.312040 0.537176
0.049039 0.312721 0.598478
0.049725 0.313408 0.660203
0.050416 0.314098 0.722312
0.051110 0.314793 0.784777
0.051808 0.315491 0.847570
0.052459 0.316141 0.906044
0.052459 0.316141 0.906044
0.049249 0.371461 0.037572
0.049708 0.371919 0.078837
0.050305 0.372517 0.132555
0.050926 0.373137 0.188380
0.051561 0.373773 0.245572
0.052209 0.374420 0.303786
0.052865 0.375077 0.362820
0.053529 0.375741 0.422542
0.054200 0.376411 0.482857
0.054876 0.377088 0.543694
0.055557 0.377769 0.604997
0.056244 0.378455 0.666721
0.056934 0.379146 0.728831
0.057629 0.379840 0.791295
0.058327 0.380538 0.854088
0.058977 0.381189 0.912563
0.058977 0.381189 0.912563
0.055841 0.437239 0.044163
0.056299 0.437698 0.085429
0.056897 0.438295 0.139147
0.057517 0.438916 0.194972
0.058153 0.439552 0.252163
0.058800 0.440199 0.310377
0.059457 0.440856 0.369412
0.060121 0.441519 0.429134
0.060791 0.442190 0.489449
0.061468 0.442866 0.550286
0.062149 0.443548 0.611588
0.062835 0.444234 0.673313
0.063526 0.444925 0.735422
0.064220 0.445619 0.797887
0.064918 0.446317 0.860680
0.065569 0.446967 0.919154
0.065569 0.446967 0.919154
0.062496 0.503652 0.050818
0.062954 0.504111 0.092084
0.063552 0.504708 0.145802
0.064172 0.505328 0.201627
0.064808 0.505964 0.258819
0.065455 0.506611 0.317032
0.066112 0.507268 0.376067
0.066776 0.507932 0.435789
0.067446 0.508602 0.496104
0.068123 0.509279 0.556941
0.068804 0.509960 0.618244
0.069490 0.510647 0.679968
0.070181 0.511337 0.742078
0.070875 0.512032 0.804542
0.071574 0.512730 0.867335
0.072224 0.513380 0.925810
0.072224 0.513380 0.925810
0.069207 0.570623 0.057530
0.069666 0.571082 0.098795
0.070263 0.571679 0.152513
0.070884 0.572300 0.208338
0.071519 0.572936 0.265530
0.072167 0.573583 0.323743
0.072823 0.574239 0.382778
0.073487 0.574903 0.442500
0.074157 0.575574 0.502815
0.074834 0.576250 0.563652
0.075515 0.576932 0.624955
0.076202 0.577618 0.686679
0.076892 0.578309 0.748789
0.077587 0.579003 0.811253
0.078285 0.579701 0.874046
0.078935 0.580351 0.932521
0.078935 0.580351 0.932521
0.075968 0.638096 0.064291
0.076427 0.638555 0.105557
0.077024 0.639152 0.159274
0.077645 0.639773 0.215100
0.078281 0.640409 0.272291
0.078928 0.641056 0.330505
0.079584 0.641712 0.389539
0.080248 0.642376 0.449262
0.080919 0.643047 0.509577
0.081595 0.643723 0.570413
0.082277 0.644405 0.631716
0.082963 0.645091 0.693441
0.083654 0.645781 0.755550
0.084348 0.646476 0.818014
0.085046 0.647174 0.880807
0.085696 0.647824 0.939282
0.085696 0.647824 0.939282
0.082775 0.706023 0.071098
0.083234 0.706482 0.112364
0.083831 0.707079 0.166081
0.084452 0.707700 0.221907
0.085088 0.708336 0.279098
0.085735 0.708983 0.337312
0.086391 0.709639 0.396346
0.087055 0.710303 0.456069
0.087726 0.710974 0.516384
0.088402 0.711650 0.577220
0.089084 0.712332 0.638523
0.089770 0.713018 0.700247
0.090460 0.713709 0.762357
0.091155 0.714403 0.824821
0.091853 0.715101 0.887614
0.092503 0.715751 0.946089
0.092503 0.715751 0.946089
0.089624 0.774366 0.077946
0.090083 0.774825 0.119212
0.090680 0.775422 0.172930
0.091300 0.776043 0.228755
0.091936 0.776679 0.285947
0.092583 0.777326 0.344160
0.093240 0.777982 0.403195
0.093904 0.778646 0.462917
0.094574 0.779317 0.523232
0.095251 0.779993 0.584069
0.095932 0.780675 0.645372
0.096619 0.781361 0.707096
0.097309 0.782052 0.769206
0.098004 0.782746 0.831670
0.098702 0.783444 0.894463
0.099352 0.784094 0.952938
0.099352 0.784094 0.952938
0.096511 0.843093 0.084833
0.096970 0.843552 0.126099
0.097567 0.844149 0.179817
0.098187 0.844770 0.235642
0.098823 0.845405 0.292834
0.099471 0.846053 0.351047
0.100127 0.846709 0.410082
0.100791 0.847373 0.469804
0.101461 0.848044 0.530119
0.102138 0.848720 0.590956
0.102819 0.849401 0.652259
0.103506 0.850088 0.713983
0.104196 0.850778 0.776093
0.104891 0.851473 0.838557
0.105589 0.852171 0.901350
0.106239 0.852821 0.959825
0.106239 0.852821 0.959825
0.103433 0.912175 0.091756
0.103892 0.912634 0.133022
0.104489 0.913231 0.186740
0.105110 0.913852 0.242565
0.105746 0.914488 0.299756
0.106393 0.915135 0.357970
0.107050 0.915791 0.417005
0.107714 0.916455 0.476727
0.108384 0.917126 0.537042
0.109060 0.917802 0.597879
0.109742 0.918484 0.659181
0.110428 0.919170 0.720906
0.111119 0.919861 0.783015
0.111813 0.920555 0.845480
0.112511 0.921253 0.908273
0.113161 0.921903 0.966747
0.113161 0.921903 0.966747
0.108428 0.962014 0.096750
0.108887 0.962472 0.138016
0.109484 0.963070 0.191734
0.110104 0.963690 0.247559
0.110740 0.964326 0.304751
0.111387 0.964973 0.362964
0.112044 0.965630 0.421999
0.112708 0.966294 0.481721
0.113378 0.966964 0.542036
0.114055 0.967641 0.602873
0.114736 0.968322 0.664176
0.115422 0.969008 0.725900
0.116113 0.969699 0.788010
0.116807 0.970393 0.850474
0.117506 0.971091 0.913267
0.118156 0.971742 0.971742
0.118156 0.971742 0.971742
0.064685 0.002073 0.002073
0.065144 0.002532 0.043339
0.065741 0.003129 0.097056
0.066362 0.003749 0.152882
0.066997 0.004385 0.210073
0.067645 0.005033 0.268287
0.068301 0.005689 0.327321
0.068965 0.006353 0.387044
0.069636 0.007023 0.447359
0.070312 0.007700 0.508195
0.070993 0.008381 0.569498
0.071680 0.009068 0.631222
0.072370 0.009758 0.693332
0.073065 0.010453 0.755796
0.073763 0.011151 0.818589
0.074413 0.011801 0.877064
0.074413 0.011801 0.877064
0.064922 0.004443 0.002310
