skills/editops-orchestrator/assets/grade/luts/moody_teal_v13.cube
TITLE "moody_teal_v13"
LUT_3D_SIZE 5
DOMAIN_MIN 0.0 0.0 0.0
DOMAIN_MAX 1.0 1.0 1.0
0.000000 0.000000 0.000000
0.001994 0.001994 0.212915
0.004234 0.004234 0.452019
0.006543 0.006543 0.698617
0.008360 0.008360 0.892571
0.016168 0.188797 0.016168
0.018162 0.190792 0.229083
0.020402 0.193031 0.468187
0.022711 0.195341 0.714785
0.024528 0.197157 0.908739
0.038191 0.445963 0.038191
0.040185 0.447958 0.251106
0.042425 0.450197 0.490210
0.044734 0.452507 0.736808
0.046551 0.454323 0.930761
0.060976 0.712037 0.060976
0.062971 0.714031 0.273892
0.065210 0.716271 0.512996
0.067520 0.718580 0.759594
0.069336 0.720397 0.953547
0.082813 0.967023 0.082813
0.084807 0.969017 0.295728
0.087046 0.971257 0.534832
0.089356 0.973567 0.781430
0.091173 0.975383 0.975383
0.138554 0.003753 0.003753
0.140548 0.005747 0.216668
0.142787 0.007987 0.455772
0.145097 0.010296 0.702370
0.146914 0.012113 0.896323
0.154722 0.192550 0.019921
0.156716 0.194545 0.232836
0.158955 0.196784 0.471940
0.161265 0.199094 0.718538
0.163082 0.200910 0.912491
0.176744 0.449716 0.041944
0.178739 0.451710 0.254859
0.180978 0.453950 0.493963
0.183288 0.456260 0.740561
0.185104 0.458076 0.934514
0.199530 0.715790 0.064729
0.201524 0.717784 0.277644
0.203764 0.720023 0.516749
0.206073 0.722333 0.763347
0.207890 0.724150 0.957300
0.221366 0.970776 0.086566
0.223360 0.972770 0.299481
0.225600 0.975010 0.538585
0.227910 0.977319 0.785183
0.229726 0.979136 0.979136
0.378218 0.010245 0.010245
0.380212 0.012239 0.223160
0.382452 0.014478 0.462264
0.384761 0.016788 0.708862
0.386578 0.018605 0.902815
0.394386 0.199042 0.026413
0.396380 0.201036 0.239328
0.398620 0.203276 0.478432
0.400929 0.205585 0.725030
0.402746 0.207402 0.918983
0.416409 0.456208 0.048435
0.418403 0.458202 0.261350
0.420642 0.460442 0.500455
0.422952 0.462751 0.747053
0.424769 0.464568 0.941006
0.439194 0.722281 0.071221
0.441189 0.724276 0.284136
0.443428 0.726515 0.523240
0.445738 0.728825 0.769838
0.447554 0.730641 0.963792
0.461031 0.977268 0.093057
0.463025 0.979262 0.305972
0.465264 0.981501 0.545077
0.467574 0.983811 0.791674
0.469391 0.985628 0.985628
0.627176 0.016988 0.016988
0.629170 0.018982 0.229903
0.631409 0.021222 0.469007
0.633719 0.023531 0.715605
0.635536 0.025348 0.909558
0.643344 0.205785 0.033156
0.645338 0.207780 0.246071
0.647577 0.210019 0.485175
0.649887 0.212329 0.731773
0.651704 0.214145 0.925726
0.665367 0.462951 0.055179
0.667361 0.464945 0.268094
0.669600 0.467185 0.507198
0.671910 0.469495 0.753796
0.673727 0.471311 0.947749
0.688152 0.729025 0.077964
0.690146 0.731019 0.290880
0.692386 0.733258 0.529984
0.694696 0.735568 0.776582
0.696512 0.737385 0.970535
0.709988 0.984011 0.099801
0.711983 0.986005 0.312716
0.714222 0.988245 0.551820
0.716532 0.990554 0.798418
0.718348 0.992371 0.992371
0.881811 0.023885 0.023885
0.883805 0.025879 0.236800
0.886044 0.028119 0.475904
0.888354 0.030428 0.722502
0.890171 0.032245 0.916456
0.897979 0.212683 0.040053
0.899973 0.214677 0.252968
0.902212 0.216916 0.492072
0.904522 0.219226 0.738670
0.906339 0.221043 0.932624
0.920001 0.469848 0.062076
0.921996 0.471843 0.274991
0.924235 0.474082 0.514095
0.926545 0.476392 0.760693
0.928361 0.478208 0.954646
0.942787 0.735922 0.084862
0.944781 0.737916 0.297777
0.947021 0.740156 0.536881
0.949330 0.742465 0.783479
0.951147 0.744282 0.977432
0.964623 0.990908 0.106698
0.966617 0.992902 0.319613
0.968857 0.995142 0.558717
0.971167 0.997452 0.805315
0.972983 0.999268 0.999268
