skills/editops-orchestrator/assets/grade/luts/moody_teal_v12.cube
TITLE "moody_teal_v12"
LUT_3D_SIZE 17
DOMAIN_MIN 0.0 0.0 0.0
DOMAIN_MAX 1.0 1.0 1.0
0.000000 0.000000 0.000000
0.000388 0.000388 0.044053
0.000874 0.000874 0.099362
0.001376 0.001376 0.156412
0.001888 0.001888 0.214588
0.002407 0.002407 0.273604
0.002932 0.002932 0.333292
0.003462 0.003462 0.393544
0.003997 0.003997 0.454280
0.004535 0.004535 0.515441
0.005076 0.005076 0.576982
0.005620 0.005620 0.638866
0.006168 0.006168 0.701064
0.006717 0.006717 0.763549
0.007269 0.007269 0.826302
0.007824 0.007824 0.889302
0.007904 0.007904 0.898430
0.000986 0.012205 0.000986
0.001374 0.012593 0.045039
0.001861 0.013079 0.100349
0.002362 0.013581 0.157399
0.002874 0.014093 0.215574
0.003393 0.014612 0.274590
0.003919 0.015137 0.334279
0.004449 0.015667 0.394530
0.004983 0.016202 0.455266
0.005521 0.016740 0.516427
0.006062 0.017281 0.577968
0.006607 0.017826 0.639853
0.007154 0.018373 0.702050
0.007704 0.018923 0.764536
0.008256 0.019475 0.827288
0.008810 0.020029 0.890289
0.008890 0.020109 0.899417
0.005631 0.069683 0.005631
0.006019 0.070071 0.049684
0.006506 0.070557 0.104994
0.007008 0.071059 0.162044
0.007519 0.071571 0.220219
0.008039 0.072090 0.279235
0.008564 0.072615 0.338924
0.009094 0.073145 0.399175
0.009628 0.073680 0.459911
0.010166 0.074218 0.521072
0.010708 0.074759 0.582614
0.011252 0.075304 0.644498
0.011799 0.075851 0.706695
0.012349 0.076401 0.769181
0.012901 0.076953 0.831933
0.013455 0.077507 0.894934
0.013535 0.077587 0.904062
0.010519 0.130159 0.010519
0.010906 0.130546 0.054572
0.011393 0.131033 0.109881
0.011895 0.131535 0.166931
0.012407 0.132047 0.225107
0.012926 0.132566 0.284122
0.013451 0.133091 0.343811
0.013981 0.133621 0.404063
0.014515 0.134155 0.464798
0.015053 0.134694 0.525960
0.015595 0.135235 0.587501
0.016139 0.135779 0.649385
0.016686 0.136327 0.711583
0.017236 0.136876 0.774068
0.017788 0.137428 0.836821
0.018343 0.137983 0.899821
0.018423 0.138063 0.908949
0.015532 0.192186 0.015532
0.015919 0.192574 0.059584
0.016406 0.193060 0.114894
0.016908 0.193562 0.171944
0.017419 0.194074 0.230119
0.017939 0.194593 0.289135
0.018464 0.195118 0.348824
0.018994 0.195648 0.409075
0.019528 0.196183 0.469811
0.020066 0.196721 0.530973
0.020608 0.197262 0.592514
0.021152 0.197806 0.654398
0.021699 0.198354 0.716595
0.022249 0.198903 0.779081
0.022801 0.199455 0.841833
0.023355 0.200010 0.904834
0.023436 0.200090 0.913962
0.020631 0.255288 0.020631
0.021019 0.255675 0.064684
0.021505 0.256162 0.119993
0.022007 0.256664 0.177044
0.022519 0.257176 0.235219
0.023038 0.257695 0.294235
0.023563 0.258220 0.353923
0.024093 0.258750 0.414175
0.024628 0.259284 0.474911
0.025166 0.259823 0.536072
0.025707 0.260364 0.597613
0.026252 0.260908 0.659498
0.026799 0.261456 0.721695
0.027349 0.262005 0.784181
0.027901 0.262557 0.846933
0.028455 0.263112 0.909934
0.028535 0.263192 0.919061
0.025798 0.319218 0.025798
0.026185 0.319605 0.069850
0.026672 0.320092 0.125160
0.027174 0.320594 0.182210
0.027686 0.321106 0.240386
0.028205 0.321625 0.299401
0.028730 0.322150 0.359090
0.029260 0.322680 0.419341
0.029794 0.323214 0.480077
0.030332 0.323753 0.541239
0.030874 0.324294 0.602780
0.031418 0.324838 0.664664
0.031965 0.325386 0.726862
0.032515 0.325935 0.789347
0.033067 0.326487 0.852099
0.033621 0.327042 0.915100
0.033702 0.327122 0.924228
0.031019 0.383824 0.031019
0.031406 0.384211 0.075072
0.031893 0.384698 0.130381
0.032395 0.385200 0.187431
0.032907 0.385711 0.245607
0.033426 0.386231 0.304622
0.033951 0.386756 0.364311
0.034481 0.387286 0.424563
0.035015 0.387820 0.485298
0.035553 0.388358 0.546460
0.036095 0.388900 0.608001
0.036639 0.389444 0.669885
0.037186 0.389991 0.732083
0.037736 0.390541 0.794568
0.038288 0.391093 0.857320
0.038842 0.391647 0.920321
0.038923 0.391728 0.929449
0.036286 0.449001 0.036286
0.036674 0.449389 0.080339
0.037160 0.449875 0.135648
0.037662 0.450377 0.192699
0.038174 0.450889 0.250874
0.038693 0.451408 0.309890
0.039218 0.451933 0.369578
0.039748 0.452463 0.429830
0.040283 0.452998 0.490566
0.040821 0.453536 0.551727
0.041362 0.454077 0.613268
0.041907 0.454622 0.675153
0.042454 0.455169 0.737350
0.043004 0.455719 0.799836
0.043556 0.456271 0.862588
0.044110 0.456825 0.925589
0.044190 0.456905 0.934716
0.041594 0.514675 0.041594
0.041981 0.515063 0.085646
0.042468 0.515549 0.140956
0.042970 0.516051 0.198006
0.043481 0.516563 0.256181
0.044001 0.517082 0.315197
0.044526 0.517607 0.374886
0.045056 0.518137 0.435137
0.045590 0.518672 0.495873
0.046128 0.519210 0.557035
0.046670 0.519751 0.618576
0.047214 0.520296 0.680460
0.047761 0.520843 0.742658
0.048311 0.521393 0.805143
0.048863 0.521945 0.867895
0.049417 0.522499 0.930896
0.049498 0.522579 0.940024
0.046937 0.580788 0.046937
0.047324 0.581176 0.090989
0.047811 0.581662 0.146299
0.048313 0.582164 0.203349
0.048824 0.582676 0.261524
0.049344 0.583195 0.320540
0.049869 0.583720 0.380229
0.050399 0.584250 0.440480
0.050933 0.584785 0.501216
0.051471 0.585323 0.562377
0.052013 0.585864 0.623919
0.052557 0.586409 0.685803
0.053104 0.586956 0.748000
0.053654 0.587505 0.810486
0.054206 0.588057 0.873238
0.054760 0.588612 0.936239
0.054841 0.588692 0.945367
0.052311 0.647295 0.052311
0.052699 0.647682 0.096364
0.053185 0.648169 0.151674
0.053687 0.648671 0.208724
0.054199 0.649182 0.266899
0.054718 0.649702 0.325915
0.055243 0.650227 0.385603
0.055773 0.650757 0.445855
0.056308 0.651291 0.506591
0.056846 0.651829 0.567752
0.057387 0.652371 0.629293
0.057932 0.652915 0.691178
0.058479 0.653462 0.753375
0.059029 0.654012 0.815861
0.059581 0.654564 0.878613
0.060135 0.655118 0.941614
0.060215 0.655199 0.950742
0.057715 0.714158 0.057715
0.058102 0.714546 0.101768
0.058589 0.715032 0.157077
0.059091 0.715534 0.214127
0.059603 0.716046 0.272303
0.060122 0.716565 0.331318
0.060647 0.717090 0.391007
0.061177 0.717620 0.451259
0.061711 0.718155 0.511994
0.062250 0.718693 0.573156
0.062791 0.719234 0.634697
0.063335 0.719779 0.696581
0.063883 0.720326 0.758779
0.064432 0.720876 0.821264
0.064984 0.721428 0.884017
0.065539 0.721982 0.947017
0.065619 0.722062 0.956145
0.063145 0.781349 0.063145
0.063532 0.781736 0.107198
0.064019 0.782223 0.162507
0.064521 0.782725 0.219557
0.065033 0.783237 0.277733
0.065552 0.783756 0.336748
0.066077 0.784281 0.396437
0.066607 0.784811 0.456689
0.067141 0.785345 0.517424
0.067680 0.785883 0.578586
0.068221 0.786425 0.640127
0.068765 0.786969 0.702011
0.069313 0.787517 0.764209
0.069862 0.788066 0.826694
0.070414 0.788618 0.889447
0.070969 0.789173 0.952447
0.071049 0.789253 0.961575
0.068599 0.848841 0.068599
0.068987 0.849229 0.112652
0.069473 0.849715 0.167962
0.069975 0.850217 0.225012
0.070487 0.850729 0.283187
0.071006 0.851248 0.342203
0.071531 0.851773 0.401892
0.072062 0.852303 0.462143
0.072596 0.852838 0.522879
0.073134 0.853376 0.584040
0.073675 0.853917 0.645581
0.074220 0.854461 0.707466
0.074767 0.855009 0.769663
0.075317 0.855558 0.832149
0.075869 0.856110 0.894901
0.076423 0.856665 0.957902
0.076503 0.856745 0.967030
0.074076 0.916613 0.074076
0.074464 0.917001 0.118129
0.074950 0.917487 0.173439
0.075452 0.917989 0.230489
0.075964 0.918501 0.288664
0.076483 0.919020 0.347680
0.077008 0.919545 0.407369
0.077539 0.920075 0.467620
0.078073 0.920610 0.528356
0.078611 0.921148 0.589517
0.079152 0.921689 0.651058
0.079697 0.922233 0.712943
0.080244 0.922781 0.775140
0.080794 0.923330 0.837626
0.081346 0.923882 0.900378
0.081900 0.924437 0.963379
0.081980 0.924517 0.972507
0.078296 0.968822 0.078296
0.078683 0.969209 0.122348
0.079170 0.969696 0.177658
0.079672 0.970198 0.234708
0.080183 0.970710 0.292883
0.080703 0.971229 0.351899
0.081228 0.971754 0.411588
0.081758 0.972284 0.471839
0.082292 0.972818 0.532575
0.082830 0.973357 0.593737
0.083372 0.973898 0.655278
0.083916 0.974442 0.717162
0.084463 0.974990 0.779359
0.085013 0.975539 0.841845
0.085565 0.976091 0.904597
0.086119 0.976646 0.967598
0.086200 0.976726 0.976726
0.000000 0.000000 0.000000
0.000388 0.000388 0.044053
0.000874 0.000874 0.099362
0.001376 0.001376 0.156412
0.001888 0.001888 0.214588
0.002407 0.002407 0.273604
0.002932 0.002932 0.333292
0.003462 0.003462 0.393544
0.003997 0.003997 0.454280
0.004535 0.004535 0.515441
0.005076 0.005076 0.576982
0.005620 0.005620 0.638866
0.006168 0.006168 0.701064
0.006717 0.006717 0.763549
0.007269 0.007269 0.826302
0.007824 0.007824 0.889302
0.007904 0.007904 0.898430
0.000986 0.012205 0.000986
0.001374 0.012593 0.045039
0.001861 0.013079 0.100349
0.002362 0.013581 0.157399
0.002874 0.014093 0.215574
0.003393 0.014612 0.274590
0.003919 0.015137 0.334279
0.004449 0.015667 0.394530
0.004983 0.016202 0.455266
0.005521 0.016740 0.516427
0.006062 0.017281 0.577968
0.006607 0.017826 0.639853
0.007154 0.018373 0.702050
0.007704 0.018923 0.764536
0.008256 0.019475 0.827288
0.008810 0.020029 0.890289
0.008890 0.020109 0.899417
0.005631 0.069683 0.005631
0.006019 0.070071 0.049684
0.006506 0.070557 0.104994
0.007008 0.071059 0.162044
0.007519 0.071571 0.220219
0.008039 0.072090 0.279235
0.008564 0.072615 0.338924
0.009094 0.073145 0.399175
0.009628 0.073680 0.459911
0.010166 0.074218 0.521072
0.010708 0.074759 0.582614
0.011252 0.075304 0.644498
0.011799 0.075851 0.706695
0.012349 0.076401 0.769181
0.012901 0.076953 0.831933
0.013455 0.077507 0.894934
0.013535 0.077587 0.904062
0.010519 0.130159 0.010519
0.010906 0.130546 0.054572
0.011393 0.131033 0.109881
0.011895 0.131535 0.166931
0.012407 0.132047 0.225107
0.012926 0.132566 0.284122
0.013451 0.133091 0.343811
0.013981 0.133621 0.404063
0.014515 0.134155 0.464798
0.015053 0.134694 0.525960
0.015595 0.135235 0.587501
0.016139 0.135779 0.649385
0.016686 0.136327 0.711583
0.017236 0.136876 0.774068
0.017788 0.137428 0.836821
0.018343 0.137983 0.899821
0.018423 0.138063 0.908949
0.015532 0.192186 0.015532
0.015919 0.192574 0.059584
0.016406 0.193060 0.114894
0.016908 0.193562 0.171944
0.017419 0.194074 0.230119
0.017939 0.194593 0.289135
0.018464 0.195118 0.348824
0.018994 0.195648 0.409075
0.019528 0.196183 0.469811
0.020066 0.196721 0.530973
0.020608 0.197262 0.592514
0.021152 0.197806 0.654398
0.021699 0.198354 0.716595
0.022249 0.198903 0.779081
0.022801 0.199455 0.841833
0.023355 0.200010 0.904834
0.023436 0.200090 0.913962
0.020631 0.255288 0.020631
0.021019 0.255675 0.064684
0.021505 0.256162 0.119993
0.022007 0.256664 0.177044
0.022519 0.257176 0.235219
0.023038 0.257695 0.294235
0.023563 0.258220 0.353923
0.024093 0.258750 0.414175
0.024628 0.259284 0.474911
0.025166 0.259823 0.536072
0.025707 0.260364 0.597613
0.026252 0.260908 0.659498
0.026799 0.261456 0.721695
0.027349 0.262005 0.784181
0.027901 0.262557 0.846933
0.028455 0.263112 0.909934
0.028535 0.263192 0.919061
0.025798 0.319218 0.025798
0.026185 0.319605 0.069850
0.026672 0.320092 0.125160
0.027174 0.320594 0.182210
0.027686 0.321106 0.240386
0.028205 0.321625 0.299401
0.028730 0.322150 0.359090
0.029260 0.322680 0.419341
0.029794 0.323214 0.480077
0.030332 0.323753 0.541239
0.030874 0.324294 0.602780
0.031418 0.324838 0.664664
0.031965 0.325386 0.726862
0.032515 0.325935 0.789347
0.033067 0.326487 0.852099
0.033621 0.327042 0.915100
0.033702 0.327122 0.924228
0.031019 0.383824 0.031019
0.031406 0.384211 0.075072
0.031893 0.384698 0.130381
0.032395 0.385200 0.187431
0.032907 0.385711 0.245607
0.033426 0.386231 0.304622
0.033951 0.386756 0.364311
0.034481 0.387286 0.424563
0.035015 0.387820 0.485298
0.035553 0.388358 0.546460
0.036095 0.388900 0.608001
0.036639 0.389444 0.669885
0.037186 0.389991 0.732083
0.037736 0.390541 0.794568
0.038288 0.391093 0.857320
0.038842 0.391647 0.920321
0.038923 0.391728 0.929449
0.036286 0.449001 0.036286
0.036674 0.449389 0.080339
0.037160 0.449875 0.135648
0.037662 0.450377 0.192699
0.038174 0.450889 0.250874
0.038693 0.451408 0.309890
0.039218 0.451933 0.369578
0.039748 0.452463 0.429830
0.040283 0.452998 0.490566
0.040821 0.453536 0.551727
0.041362 0.454077 0.613268
0.041907 0.454622 0.675153
0.042454 0.455169 0.737350
0.043004 0.455719 0.799836
0.043556 0.456271 0.862588
0.044110 0.456825 0.925589
0.044190 0.456905 0.934716
0.041594 0.514675 0.041594
0.041981 0.515063 0.085646
0.042468 0.515549 0.140956
0.042970 0.516051 0.198006
0.043481 0.516563 0.256181
0.044001 0.517082 0.315197
0.044526 0.517607 0.374886
0.045056 0.518137 0.435137
0.045590 0.518672 0.495873
0.046128 0.519210 0.557035
0.046670 0.519751 0.618576
0.047214 0.520296 0.680460
0.047761 0.520843 0.742658
0.048311 0.521393 0.805143
0.048863 0.521945 0.867895
0.049417 0.522499 0.930896
0.049498 0.522579 0.940024
0.046937 0.580788 0.046937
0.047324 0.581176 0.090989
0.047811 0.581662 0.146299
0.048313 0.582164 0.203349
0.048824 0.582676 0.261524
0.049344 0.583195 0.320540
0.049869 0.583720 0.380229
0.050399 0.584250 0.440480
0.050933 0.584785 0.501216
0.051471 0.585323 0.562377
0.052013 0.585864 0.623919
0.052557 0.586409 0.685803
0.053104 0.586956 0.748000
0.053654 0.587505 0.810486
0.054206 0.588057 0.873238
0.054760 0.588612 0.936239
0.054841 0.588692 0.945367
0.052311 0.647295 0.052311
0.052699 0.647682 0.096364
0.053185 0.648169 0.151674
0.053687 0.648671 0.208724
0.054199 0.649182 0.266899
0.054718 0.649702 0.325915
0.055243 0.650227 0.385603
0.055773 0.650757 0.445855
0.056308 0.651291 0.506591
0.056846 0.651829 0.567752
0.057387 0.652371 0.629293
0.057932 0.652915 0.691178
0.058479 0.653462 0.753375
0.059029 0.654012 0.815861
0.059581 0.654564 0.878613
0.060135 0.655118 0.941614
0.060215 0.655199 0.950742
0.057715 0.714158 0.057715
0.058102 0.714546 0.101768
0.058589 0.715032 0.157077
0.059091 0.715534 0.214127
0.059603 0.716046 0.272303
0.060122 0.716565 0.331318
0.060647 0.717090 0.391007
0.061177 0.717620 0.451259
0.061711 0.718155 0.511994
0.062250 0.718693 0.573156
0.062791 0.719234 0.634697
0.063335 0.719779 0.696581
0.063883 0.720326 0.758779
0.064432 0.720876 0.821264
0.064984 0.721428 0.884017
0.065539 0.721982 0.947017
0.065619 0.722062 0.956145
0.063145 0.781349 0.063145
0.063532 0.781736 0.107198
0.064019 0.782223 0.162507
0.064521 0.782725 0.219557
0.065033 0.783237 0.277733
0.065552 0.783756 0.336748
0.066077 0.784281 0.396437
0.066607 0.784811 0.456689
0.067141 0.785345 0.517424
0.067680 0.785883 0.578586
0.068221 0.786425 0.640127
0.068765 0.786969 0.702011
0.069313 0.787517 0.764209
0.069862 0.788066 0.826694
0.070414 0.788618 0.889447
0.070969 0.789173 0.952447
0.071049 0.789253 0.961575
0.068599 0.848841 0.068599
0.068987 0.849229 0.112652
0.069473 0.849715 0.167962
0.069975 0.850217 0.225012
0.070487 0.850729 0.283187
0.071006 0.851248 0.342203
0.071531 0.851773 0.401892
0.072062 0.852303 0.462143
0.072596 0.852838 0.522879
0.073134 0.853376 0.584040
0.073675 0.853917 0.645581
0.074220 0.854461 0.707466
0.074767 0.855009 0.769663
0.075317 0.855558 0.832149
0.075869 0.856110 0.894901
0.076423 0.856665 0.957902
0.076503 0.856745 0.967030
0.074076 0.916613 0.074076
0.074464 0.917001 0.118129
0.074950 0.917487 0.173439
0.075452 0.917989 0.230489
0.075964 0.918501 0.288664
0.076483 0.919020 0.347680
0.077008 0.919545 0.407369
0.077539 0.920075 0.467620
0.078073 0.920610 0.528356
0.078611 0.921148 0.589517
0.079152 0.921689 0.651058
0.079697 0.922233 0.712943
0.080244 0.922781 0.775140
0.080794 0.923330 0.837626
0.081346 0.923882 0.900378
0.081900 0.924437 0.963379
0.081980 0.924517 0.972507
0.078296 0.968822 0.078296
0.078683 0.969209 0.122348
0.079170 0.969696 0.177658
0.079672 0.970198 0.234708
0.080183 0.970710 0.292883
0.080703 0.971229 0.351899
0.081228 0.971754 0.411588
0.081758 0.972284 0.471839
0.082292 0.972818 0.532575
0.082830 0.973357 0.593737
0.083372 0.973898 0.655278
0.083916 0.974442 0.717162
0.084463 0.974990 0.779359
0.085013 0.975539 0.841845
0.085565 0.976091 0.904597
0.086119 0.976646 0.967598
0.086200 0.976726 0.976726
0.031394 0.000800 0.000800
0.031781 0.001187 0.044852
0.032268 0.001674 0.100162
0.032770 0.002176 0.157212
0.033282 0.002687 0.215387
0.033801 0.003207 0.274403
0.034326 0.003732 0.334092
0.034856 0.004262 0.394343
0.035390 0.004796 0.455079
0.035928 0.005334 0.516241
0.036470 0.005876 0.577782
0.037014 0.006420 0.639666
0.037561 0.006967 0.701863
0.038111 0.007517 0.764349
0.038663 0.008069 0.827101
0.039217 0.008623 0.890102
0.039298 0.008704 0.899230
0.032380 0.013005 0.001786
0.032768 0.013392 0.045839
0.033254 0.013879 0.101148
0.033756 0.014381 0.158198
0.034268 0.014893 0.216374
0.034787 0.015412 0.275389
0.035312 0.015937 0.335078
0.035842 0.016467 0.395330
0.036377 0.017001 0.456066
0.036915 0.017539 0.517227
0.037456 0.018081 0.578768
0.038001 0.018625 0.640652
0.038548 0.019172 0.702850
0.039097 0.019722 0.765335
0.039649 0.020274 0.828088
0.040204 0.020829 0.891088
0.040284 0.020909 0.900216
0.037025 0.070483 0.006431
0.037413 0.070870 0.050484
0.037899 0.071357 0.105793
0.038401 0.071859 0.162843
0.038913 0.072371 0.221019
0.039432 0.072890 0.280035
0.039957 0.073415 0.339723
0.040487 0.073945 0.399975
0.041022 0.074479 0.460711
0.041560 0.075017 0.521872
0.042101 0.075559 0.583413
0.042646 0.076103 0.645298
0.043193 0.076650 0.707495
0.043743 0.077200 0.769980
0.044295 0.077752 0.832733
0.044849 0.078306 0.895734
0.044929 0.078387 0.904861
0.041913 0.130959 0.011318
0.042300 0.131346 0.055371
0.042787 0.131833 0.110681
0.043289 0.132335 0.167731
0.043800 0.132846 0.225906
0.044320 0.133366 0.284922
0.044845 0.133891 0.344611
0.045375 0.134421 0.404862
0.045909 0.134955 0.465598
0.046447 0.135493 0.526759
0.046989 0.136035 0.588301
0.047533 0.136579 0.650185
0.048080 0.137126 0.712382
0.048630 0.137676 0.774868
0.049182 0.138228 0.837620
0.049736 0.138782 0.900621
0.049817 0.138863 0.909749
0.046925 0.192986 0.016331
0.047313 0.193373 0.060384
0.047799 0.193860 0.115693
0.048301 0.194362 0.172743
0.048813 0.194873 0.230919
0.049332 0.195393 0.289935
0.049857 0.195918 0.349623
0.050387 0.196448 0.409875
0.050922 0.196982 0.470611
0.051460 0.197520 0.531772
0.052001 0.198062 0.593313
0.052546 0.198606 0.655198
0.053093 0.199153 0.717395
0.053643 0.199703 0.779881
0.054195 0.200255 0.842633
0.054749 0.200809 0.905634
0.054829 0.200890 0.914761
0.052025 0.256088 0.021431
0.052412 0.256475 0.065484
0.052899 0.256962 0.120793
0.053401 0.257464 0.177843
0.053913 0.257975 0.236019
0.054432 0.258495 0.295034
0.054957 0.259020 0.354723
0.055487 0.259550 0.414974
0.056021 0.260084 0.475710
0.056559 0.260622 0.536872
0.057101 0.261164 0.598413
0.057645 0.261708 0.660297
0.058192 0.262255 0.722495
0.058742 0.262805 0.784980
0.059294 0.263357 0.847732
0.059849 0.263911 0.910733
0.059929 0.263992 0.919861
0.057191 0.320017 0.026597
0.057579 0.320405 0.070650
0.058065 0.320892 0.125960
0.058567 0.321394 0.183010
0.059079 0.321905 0.241185
0.059598 0.322425 0.300201
0.060124 0.322950 0.359889
0.060654 0.323480 0.420141
0.061188 0.324014 0.480877
0.061726 0.324552 0.542038
0.062267 0.325094 0.603579
0.062812 0.325638 0.665464
0.063359 0.326185 0.727661
0.063909 0.326735 0.790147
0.064461 0.327287 0.852899
0.065015 0.327841 0.915900
0.065095 0.327921 0.925028
0.062412 0.384623 0.031818
0.062800 0.385011 0.075871
0.063287 0.385497 0.131181
0.063789 0.385999 0.188231
0.064300 0.386511 0.246406
0.064820 0.387030 0.305422
0.065345 0.387555 0.365111
0.065875 0.388085 0.425362
0.066409 0.388620 0.486098
0.066947 0.389158 0.547259
0.067489 0.389699 0.608801
0.068033 0.390244 0.670685
0.068580 0.390791 0.732882
0.069130 0.391341 0.795368
0.069682 0.391893 0.858120
0.070236 0.392447 0.921121
0.070316 0.392527 0.930249
0.067680 0.449801 0.037086
0.068067 0.450188 0.081138
0.068554 0.450675 0.136448
0.069056 0.451177 0.193498
0.069568 0.451689 0.251674
0.070087 0.452208 0.310689
0.070612 0.452733 0.370378
0.071142 0.453263 0.430629
0.071676 0.453797 0.491365
0.072214 0.454335 0.552527
0.072756 0.454877 0.614068
0.073300 0.455421 0.675952
0.073847 0.455968 0.738150
0.074397 0.456518 0.800635
0.074949 0.457070 0.863387
0.075504 0.457624 0.926388
0.075584 0.457705 0.935516
0.072987 0.515475 0.042393
0.073375 0.515862 0.086446
0.073861 0.516349 0.141755
0.074363 0.516851 0.198806
0.074875 0.517363 0.256981
0.075394 0.517882 0.315997
0.075919 0.518407 0.375685
0.076450 0.518937 0.435937
0.076984 0.519471 0.496673
0.077522 0.520009 0.557834
0.078063 0.520551 0.619375
0.078608 0.521095 0.681260
0.079155 0.521642 0.743457
0.079705 0.522192 0.805943
0.080257 0.522744 0.868695
0.080811 0.523298 0.931696
0.080891 0.523379 0.940823
0.078330 0.581588 0.047736
0.078718 0.581975 0.091789
0.079204 0.582462 0.147098
0.079706 0.582964 0.204148
0.080218 0.583475 0.262324
0.080737 0.583995 0.321340
0.081262 0.584520 0.381028
0.081792 0.585050 0.441280
0.082327 0.585584 0.502016
0.082865 0.586122 0.563177
0.083406 0.586664 0.624718
0.083951 0.587208 0.686603
0.084498 0.587755 0.748800
0.085048 0.588305 0.811286
0.085600 0.588857 0.874038
0.086154 0.589411 0.937039
0.086234 0.589492 0.946166
0.083705 0.648094 0.053111
0.084093 0.648482 0.097164
0.084579 0.648968 0.152473
0.085081 0.649470 0.209523
0.085593 0.649982 0.267699
0.086112 0.650501 0.326714
0.086637 0.651026 0.386403
0.087167 0.651556 0.446655
0.087702 0.652091 0.507390
0.088240 0.652629 0.568552
0.088781 0.653170 0.630093
0.089325 0.653715 0.691977
0.089873 0.654262 0.754175
0.090422 0.654812 0.816660
0.090974 0.655364 0.879413
0.091529 0.655918 0.942413
0.091609 0.655998 0.951541
0.089109 0.714958 0.058514
0.089496 0.715345 0.102567
0.089983 0.715832 0.157877
0.090485 0.716334 0.214927
0.090996 0.716846 0.273102
0.091516 0.717365 0.332118
0.092041 0.717890 0.391807
0.092571 0.718420 0.452058
0.093105 0.718954 0.512794
0.093643 0.719492 0.573955
0.094185 0.720034 0.635497
0.094729 0.720578 0.697381
0.095276 0.721126 0.759578
0.095826 0.721675 0.822064
0.096378 0.722227 0.884816
0.096932 0.722782 0.947817
0.097013 0.722862 0.956945
0.094539 0.782148 0.063944
0.094926 0.782536 0.107997
0.095413 0.783023 0.163307
0.095915 0.783524 0.220357
0.096426 0.784036 0.278532
0.096946 0.784555 0.337548
0.097471 0.785081 0.397237
0.098001 0.785611 0.457488
0.098535 0.786145 0.518224
0.099073 0.786683 0.579385
0.099615 0.787224 0.640927
0.100159 0.787769 0.702811
0.100706 0.788316 0.765008
0.101256 0.788866 0.827494
0.101808 0.789418 0.890246
0.102362 0.789972 0.953247
0.102443 0.790052 0.962375
0.099993 0.849641 0.069399
0.100381 0.850028 0.113452
0.100867 0.850515 0.168761
0.101369 0.851017 0.225811
0.101881 0.851528 0.283987
0.102400 0.852048 0.343002
0.102925 0.852573 0.402691
0.103455 0.853103 0.462943
0.103990 0.853637 0.523678
0.104528 0.854175 0.584840
0.105069 0.854717 0.646381
0.105613 0.855261 0.708265
0.106161 0.855808 0.770463
0.106710 0.856358 0.832948
0.107262 0.856910 0.895701
0.107817 0.857464 0.958701
0.107897 0.857545 0.967829
0.105470 0.917413 0.074876
0.105858 0.917800 0.118929
0.106344 0.918287 0.174238
0.106846 0.918789 0.231288
0.107358 0.919300 0.289464
0.107877 0.919820 0.348479
0.108402 0.920345 0.408168
0.108932 0.920875 0.468420
0.109467 0.921409 0.529155
0.110005 0.921947 0.590317
0.110546 0.922489 0.651858
0.111090 0.923033 0.713742
0.111638 0.923580 0.775940
0.112187 0.924130 0.838425
0.112739 0.924682 0.901178
0.113294 0.925236 0.964178
0.113374 0.925317 0.973306
0.109689 0.969621 0.079095
0.110077 0.970009 0.123148
0.110563 0.970496 0.178457
0.111065 0.970998 0.235508
0.111577 0.971509 0.293683
0.112096 0.972029 0.352699
0.112621 0.972554 0.412387
0.113151 0.973084 0.472639
0.113686 0.973618 0.533375
0.114224 0.974156 0.594536
0.114765 0.974698 0.656077
0.115310 0.975242 0.717962
0.115857 0.975789 0.780159
0.116407 0.976339 0.842645
0.116959 0.976891 0.905397
0.117513 0.977445 0.968398
0.117593 0.977525 0.977525
0.087002 0.002216 0.002216
0.087390 0.002603 0.046269
0.087876 0.003090 0.101578
0.088378 0.003592 0.158628
0.088890 0.004104 0.216804
0.089409 0.004623 0.275819
0.089934 0.005148 0.335508
0.090465 0.005678 0.395760
0.090999 0.006212 0.456495
0.091537 0.006751 0.517657
0.092078 0.007292 0.579198
0.092623 0.007836 0.641082
0.093170 0.008384 0.703280
0.093720 0.008933 0.765765
0.094272 0.009485 0.828518
0.094826 0.010040 0.891518
0.094906 0.010120 0.900646
0.087989 0.014421 0.003202
