skills/editops-orchestrator/assets/grade/luts/night_blue_v13.cube
TITLE "night_blue_v13"
LUT_3D_SIZE 5
DOMAIN_MIN 0.0 0.0 0.0
DOMAIN_MAX 1.0 1.0 1.0
0.000000 0.000000 0.000000
0.002253 0.002253 0.189059
0.004979 0.004979 0.417764
0.007818 0.007818 0.655956
0.010336 0.010336 0.867178
0.016320 0.152902 0.016320
0.018574 0.155155 0.205379
0.021300 0.157881 0.434085
0.024139 0.160720 0.672277
0.026656 0.163238 0.883499
0.042950 0.402386 0.042950
0.045203 0.404639 0.232009
0.047929 0.407365 0.460714
0.050768 0.410204 0.698906
0.053286 0.412722 0.910128
0.070860 0.663869 0.070860
0.073114 0.666122 0.259919
0.075840 0.668848 0.488625
0.078679 0.671687 0.726816
0.081196 0.674205 0.938038
0.099572 0.932857 0.099572
0.101825 0.935110 0.288630
0.104551 0.937836 0.517336
0.107390 0.940675 0.755528
0.109908 0.943193 0.966750
0.090739 0.003113 0.003113
0.092993 0.005366 0.192171
0.095719 0.008092 0.420877
0.098558 0.010931 0.659069
0.101075 0.013449 0.870291
0.107060 0.156014 0.019433
0.109313 0.158268 0.208492
0.112039 0.160994 0.437198
0.114878 0.163833 0.675389
0.117396 0.166350 0.886611
0.133689 0.405498 0.046063
0.135943 0.407752 0.235121
0.138669 0.410478 0.463827
0.141508 0.413317 0.702019
0.144025 0.415834 0.913241
0.161600 0.666981 0.073973
0.163853 0.669235 0.263032
0.166579 0.671961 0.491737
0.169418 0.674800 0.729929
0.171936 0.677317 0.941151
0.190311 0.935970 0.102684
0.192564 0.938223 0.291743
0.195290 0.940949 0.520449
0.198129 0.943788 0.758640
0.200647 0.946306 0.969862
0.317521 0.010892 0.010892
0.319774 0.013145 0.199950
0.322500 0.015871 0.428656
0.325339 0.018710 0.666848
0.327857 0.021228 0.878070
0.333842 0.163793 0.027212
0.336095 0.166047 0.216271
0.338821 0.168773 0.444977
0.341660 0.171612 0.683168
0.344178 0.174129 0.894390
0.360471 0.413277 0.053842
0.362724 0.415531 0.242900
0.365450 0.418257 0.471606
0.368289 0.421096 0.709798
0.370807 0.423613 0.921020
0.388381 0.674760 0.081752
0.390635 0.677014 0.270811
0.393361 0.679740 0.499516
0.396200 0.682579 0.737708
0.398717 0.685096 0.948930
0.417093 0.943749 0.110463
0.419346 0.946002 0.299522
0.422072 0.948728 0.528228
0.424911 0.951567 0.766419
0.427429 0.954085 0.977641
0.557350 0.019118 0.019118
0.559603 0.021372 0.208177
0.562329 0.024098 0.436883
0.565168 0.026937 0.675074
0.567686 0.029454 0.886296
0.573670 0.172020 0.035439
0.575924 0.174273 0.224497
0.578650 0.176999 0.453203
0.581489 0.179838 0.691395
0.584006 0.182356 0.902617
0.600300 0.421504 0.062068
0.602553 0.423757 0.251127
0.605279 0.426483 0.479833
0.608118 0.429322 0.718024
0.610636 0.431840 0.929246
0.628210 0.682987 0.089978
0.630463 0.685240 0.279037
0.633189 0.687966 0.507743
0.636028 0.690805 0.745935
0.638546 0.693323 0.957157
0.656921 0.951975 0.118690
0.659175 0.954229 0.307749
0.661901 0.956955 0.536454
0.664740 0.959794 0.774646
0.667257 0.962311 0.985868
0.804759 0.027605 0.027605
0.807013 0.029858 0.216664
0.809739 0.032584 0.445369
0.812578 0.035423 0.683561
0.815095 0.037941 0.894783
0.821080 0.180507 0.043925
0.823333 0.182760 0.232984
0.826059 0.185486 0.461690
0.828898 0.188325 0.699881
0.831416 0.190843 0.911103
0.847709 0.429990 0.070555
0.849963 0.432244 0.259614
0.852689 0.434970 0.488319
0.855528 0.437809 0.726511
0.858045 0.440326 0.937733
0.875620 0.691474 0.098465
0.877873 0.693727 0.287524
0.880599 0.696453 0.516230
0.883438 0.699292 0.754421
0.885956 0.701810 0.965643
0.904331 0.960462 0.127177
0.906585 0.962715 0.316235
0.909311 0.965441 0.544941
0.912150 0.968280 0.783133
0.914667 0.970798 0.994355
