skills/editops-orchestrator/assets/grade/luts/night_blue_v03.cube
TITLE "night_blue_v03"
LUT_3D_SIZE 9
DOMAIN_MIN 0.0 0.0 0.0
DOMAIN_MAX 1.0 1.0 1.0
0.000000 0.000000 0.000000
0.000701 0.000701 0.098225
0.001516 0.001516 0.212482
0.002348 0.002348 0.329118
0.003192 0.003192 0.447294
0.004043 0.004043 0.566619
0.004901 0.004901 0.686863
0.005764 0.005764 0.807874
0.006536 0.006536 0.916010
0.005277 0.079399 0.005277
0.005978 0.080100 0.103501
0.006793 0.080915 0.217759
0.007625 0.081748 0.334395
0.008468 0.082591 0.452571
0.009320 0.083442 0.571896
0.010178 0.084300 0.692140
0.011041 0.085164 0.813150
0.011813 0.085935 0.921286
0.013301 0.200144 0.013301
0.014002 0.200845 0.111526
0.014817 0.201660 0.225783
0.015650 0.202493 0.342419
0.016493 0.203336 0.460596
0.017344 0.204187 0.579920
0.018202 0.205045 0.700164
0.019066 0.205909 0.821175
0.019837 0.206680 0.929311
0.021516 0.323761 0.021516
0.022217 0.324462 0.119741
0.023033 0.325278 0.233999
0.023865 0.326110 0.350634
0.024708 0.326953 0.468811
0.025559 0.327804 0.588136
0.026417 0.328662 0.708380
0.027281 0.329526 0.829390
0.028052 0.330297 0.937526
0.029849 0.449146 0.029849
0.030550 0.449847 0.128074
0.031365 0.450662 0.242331
0.032198 0.451494 0.358967
0.033041 0.452337 0.477144
0.033892 0.453189 0.596469
0.034750 0.454047 0.716712
0.035614 0.454910 0.837723
0.036385 0.455682 0.945859
0.038268 0.575820 0.038268
0.038969 0.576521 0.136492
0.039784 0.577336 0.250750
0.040616 0.578169 0.367386
0.041459 0.579012 0.485562
0.042311 0.579863 0.604887
0.043169 0.580721 0.725131
0.044032 0.581585 0.846141
0.044804 0.582356 0.954277
0.046754 0.703515 0.046754
0.047455 0.704216 0.144979
0.048270 0.705031 0.259236
0.049102 0.705863 0.375872
0.049946 0.706706 0.494048
0.050797 0.707558 0.613373
0.051655 0.708416 0.733617
0.052518 0.709279 0.854628
0.053290 0.710051 0.962764
0.055297 0.832054 0.055297
0.055997 0.832755 0.153521
0.056813 0.833570 0.267779
0.057645 0.834402 0.384415
0.058488 0.835246 0.502591
0.059340 0.836097 0.621916
0.060197 0.836955 0.742160
0.061061 0.837818 0.863170
0.061833 0.838590 0.971306
0.063887 0.961315 0.063887
0.064588 0.962016 0.162112
0.065403 0.962832 0.276369
0.066235 0.963664 0.393005
0.067079 0.964507 0.511181
0.067930 0.965358 0.630506
0.068788 0.966216 0.750750
0.069651 0.967080 0.871761
0.070423 0.967851 0.979897
0.052068 0.001079 0.001079
0.052768 0.001780 0.099304
0.053584 0.002595 0.213561
0.054416 0.003427 0.330197
0.055259 0.004271 0.448373
0.056110 0.005122 0.567698
0.056968 0.005980 0.687942
0.057832 0.006843 0.808953
0.058604 0.007615 0.917089
0.057344 0.080478 0.006356
0.058045 0.081179 0.104580
0.058860 0.081994 0.218838
0.059693 0.082827 0.335474
0.060536 0.083670 0.453650
0.061387 0.084521 0.572975
0.062245 0.085379 0.693219
0.063109 0.086243 0.814229
0.063880 0.087014 0.922365
0.065369 0.201223 0.014380
0.066070 0.201924 0.112605
0.066885 0.202739 0.226862
0.067717 0.203572 0.343498
0.068560 0.204415 0.461675
0.069412 0.205266 0.580999
0.070270 0.206124 0.701243
0.071133 0.206988 0.822254
0.071905 0.207759 0.930390
0.073584 0.324840 0.022595
0.074285 0.325541 0.120820
0.075100 0.326357 0.235078
0.075932 0.327189 0.351713
0.076776 0.328032 0.469890
0.077627 0.328883 0.589215
0.078485 0.329741 0.709459
0.079348 0.330605 0.830469
0.080120 0.331376 0.938605
0.081917 0.450225 0.030928
0.082618 0.450926 0.129153
0.083433 0.451741 0.243410
0.084265 0.452573 0.360046
0.085108 0.453416 0.478223
0.085960 0.454268 0.597548
0.086818 0.455126 0.717791
0.087681 0.455989 0.838802
0.088453 0.456761 0.946938
0.090335 0.576899 0.039347
0.091036 0.577600 0.137571
0.091851 0.578415 0.251829
0.092684 0.579248 0.368465
0.093527 0.580091 0.486641
0.094378 0.580942 0.605966
0.095236 0.581800 0.726210
0.096100 0.582664 0.847220
0.096871 0.583435 0.955356
0.098822 0.704594 0.047833
0.099522 0.705295 0.146058
0.100338 0.706110 0.260315
0.101170 0.706942 0.376951
0.102013 0.707785 0.495127
0.102865 0.708637 0.614452
0.103723 0.709495 0.734696
0.104586 0.710358 0.855707
0.105358 0.711130 0.963843
0.107364 0.833133 0.056376
0.108065 0.833834 0.154600
0.108880 0.834649 0.268858
0.109712 0.835481 0.385494
0.110556 0.836325 0.503670
0.111407 0.837176 0.622995
0.112265 0.838034 0.743239
0.113128 0.838897 0.864249
0.113900 0.839669 0.972385
0.115954 0.962394 0.064966
0.116655 0.963095 0.163191
0.117471 0.963911 0.277448
0.118303 0.964743 0.394084
0.119146 0.965586 0.512260
0.119997 0.966437 0.631585
0.120855 0.967295 0.751829
0.121719 0.968159 0.872840
0.122490 0.968930 0.980976
0.166278 0.003446 0.003446
0.166979 0.004147 0.101670
0.167794 0.004962 0.215928
0.168626 0.005794 0.332564
0.169469 0.006637 0.450740
0.170321 0.007489 0.570065
0.171179 0.008347 0.690309
0.172042 0.009210 0.811319
0.172814 0.009982 0.919455
0.171555 0.082845 0.008722
0.172255 0.083546 0.106947
0.173071 0.084361 0.221205
0.173903 0.085193 0.337840
0.174746 0.086037 0.456017
0.175598 0.086888 0.575342
0.176456 0.087746 0.695586
0.177319 0.088609 0.816596
0.178091 0.089381 0.924732
0.179579 0.203590 0.016747
0.180280 0.204291 0.114972
0.181095 0.205106 0.229229
0.181927 0.205938 0.345865
0.182771 0.206782 0.464041
0.183622 0.207633 0.583366
0.184480 0.208491 0.703610
0.185343 0.209354 0.824621
0.186115 0.210126 0.932757
0.187794 0.327207 0.024962
0.188495 0.327908 0.123187
0.189310 0.328723 0.237444
0.190143 0.329556 0.354080
0.190986 0.330399 0.472257
0.191837 0.331250 0.591582
0.192695 0.332108 0.711825
0.193559 0.332972 0.832836
0.194330 0.333743 0.940972
0.196127 0.452592 0.033295
0.196828 0.453292 0.131520
0.197643 0.454108 0.245777
0.198475 0.454940 0.362413
0.199319 0.455783 0.480589
0.200170 0.456635 0.599914
0.201028 0.457493 0.720158
0.201892 0.458356 0.841169
0.202663 0.459128 0.949305
0.204546 0.579266 0.041714
0.205246 0.579967 0.139938
0.206062 0.580782 0.254196
0.206894 0.581614 0.370832
0.207737 0.582458 0.489008
0.208589 0.583309 0.608333
0.209447 0.584167 0.728577
0.210310 0.585031 0.849587
0.211082 0.585802 0.957723
0.213032 0.706961 0.050200
0.213733 0.707661 0.148425
0.214548 0.708477 0.262682
0.215380 0.709309 0.379318
0.216223 0.710152 0.497494
0.217075 0.711004 0.616819
0.217933 0.711862 0.737063
0.218796 0.712725 0.858073
0.219568 0.713497 0.966210
0.221574 0.835500 0.058742
0.222275 0.836201 0.156967
0.223090 0.837016 0.271224
0.223923 0.837848 0.387860
0.224766 0.838691 0.506037
0.225617 0.839543 0.625362
0.226475 0.840401 0.745605
0.227339 0.841264 0.866616
0.228110 0.842036 0.974752
0.230165 0.964761 0.067333
0.230866 0.965462 0.165557
0.231681 0.966277 0.279815
0.232513 0.967110 0.396451
0.233356 0.967953 0.514627
0.234208 0.968804 0.633952
0.235066 0.969662 0.754196
0.235929 0.970526 0.875206
0.236701 0.971297 0.983342
0.283670 0.005879 0.005879
0.284371 0.006579 0.104103
0.285186 0.007395 0.218361
0.286019 0.008227 0.334997
0.286862 0.009070 0.453173
0.287713 0.009922 0.572498
0.288571 0.010779 0.692742
0.289435 0.011643 0.813752
0.290206 0.012415 0.921888
0.288947 0.085278 0.011155
0.289648 0.085979 0.109380
0.290463 0.086794 0.223637
0.291295 0.087626 0.340273
0.292139 0.088469 0.458450
0.292990 0.089321 0.577775
0.293848 0.090179 0.698018
0.294711 0.091042 0.819029
0.295483 0.091814 0.927165
0.296971 0.206023 0.019180
0.297672 0.206724 0.117404
0.298488 0.207539 0.231662
0.299320 0.208371 0.348298
0.300163 0.209214 0.466474
0.301014 0.210066 0.585799
0.301872 0.210924 0.706043
0.302736 0.211787 0.827053
0.303507 0.212559 0.935189
0.305187 0.329640 0.027395
0.305888 0.330341 0.125620
0.306703 0.331156 0.239877
0.307535 0.331988 0.356513
0.308378 0.332831 0.474689
0.309230 0.333683 0.594014
0.310088 0.334541 0.714258
0.310951 0.335404 0.835269
0.311723 0.336176 0.943405
0.313519 0.455024 0.035728
0.314220 0.455725 0.133952
0.315036 0.456540 0.248210
0.315868 0.457373 0.364846
0.316711 0.458216 0.483022
0.317562 0.459067 0.602347
0.318420 0.459925 0.722591
0.319284 0.460789 0.843601
0.320055 0.461560 0.951737
0.321938 0.581699 0.044146
0.322639 0.582400 0.142371
0.323454 0.583215 0.256628
0.324286 0.584047 0.373264
0.325130 0.584890 0.491441
0.325981 0.585742 0.610766
0.326839 0.586600 0.731009
0.327702 0.587463 0.852020
0.328474 0.588235 0.960156
0.330424 0.709393 0.052633
0.331125 0.710094 0.150857
0.331940 0.710909 0.265115
0.332773 0.711742 0.381751
0.333616 0.712585 0.499927
0.334467 0.713436 0.619252
0.335325 0.714294 0.739496
0.336189 0.715158 0.860506
0.336960 0.715929 0.968642
0.338967 0.837933 0.061175
0.339668 0.838633 0.159400
0.340483 0.839449 0.273657
0.341315 0.840281 0.390293
0.342158 0.841124 0.508469
0.343010 0.841976 0.627794
0.343868 0.842834 0.748038
0.344731 0.843697 0.869049
0.345503 0.844469 0.977185
0.347557 0.967194 0.069765
0.348258 0.967895 0.167990
0.349073 0.968710 0.282248
0.349906 0.969542 0.398883
0.350749 0.970386 0.517060
0.351600 0.971237 0.636385
0.352458 0.972095 0.756628
0.353322 0.972958 0.877639
0.354093 0.973730 0.985775
0.402892 0.008349 0.008349
0.403593 0.009050 0.106574
0.404408 0.009865 0.220831
0.405241 0.010698 0.337467
0.406084 0.011541 0.455644
0.406935 0.012392 0.574969
0.407793 0.013250 0.695212
0.408657 0.014114 0.816223
0.409428 0.014885 0.924359
0.408169 0.087748 0.013626
0.408870 0.088449 0.111851
0.409685 0.089264 0.226108
0.410517 0.090097 0.342744
0.411360 0.090940 0.460920
0.412212 0.091791 0.580245
0.413070 0.092649 0.700489
0.413933 0.093513 0.821499
0.414705 0.094284 0.929636
0.416193 0.208493 0.021650
0.416894 0.209194 0.119875
0.417709 0.210009 0.234132
0.418542 0.210842 0.350768
0.419385 0.211685 0.468945
0.420236 0.212536 0.588270
0.421094 0.213394 0.708513
0.421958 0.214258 0.829524
0.422729 0.215029 0.937660
0.424409 0.332111 0.029866
0.425110 0.332811 0.128090
0.425925 0.333627 0.242348
0.426757 0.334459 0.358984
0.427600 0.335302 0.477160
0.428452 0.336154 0.596485
0.429310 0.337012 0.716729
0.430173 0.337875 0.837739
0.430945 0.338647 0.945875
0.432741 0.457495 0.038198
0.433442 0.458196 0.136423
0.434258 0.459011 0.250681
0.435090 0.459843 0.367316
0.435933 0.460687 0.485493
0.436784 0.461538 0.604818
0.437642 0.462396 0.725061
0.438506 0.463259 0.846072
0.439277 0.464031 0.954208
0.441160 0.584170 0.046617
0.441861 0.584870 0.144842
0.442676 0.585686 0.259099
0.443508 0.586518 0.375735
0.444352 0.587361 0.493911
0.445203 0.588213 0.613236
0.446061 0.589070 0.733480
0.446924 0.589934 0.854491
0.447696 0.590706 0.962627
0.449646 0.711864 0.055103
0.450347 0.712565 0.153328
0.451162 0.713380 0.267585
0.451995 0.714212 0.384221
0.452838 0.715055 0.502398
0.453689 0.715907 0.621723
0.454547 0.716765 0.741966
0.455411 0.717628 0.862977
0.456182 0.718400 0.971113
0.458189 0.840403 0.063646
0.458890 0.841104 0.161870
0.459705 0.841919 0.276128
0.460537 0.842752 0.392764
0.461380 0.843595 0.510940
0.462232 0.844446 0.630265
0.463090 0.845304 0.750509
0.463953 0.846168 0.871519
0.464725 0.846939 0.979655
0.466779 0.969665 0.072236
0.467480 0.970365 0.170461
0.468295 0.971181 0.284718
0.469128 0.972013 0.401354
0.469971 0.972856 0.519530
0.470822 0.973708 0.638855
0.471680 0.974566 0.759099
0.472544 0.975429 0.880110
0.473315 0.976201 0.988246
0.523418 0.010847 0.010847
0.524118 0.011548 0.109071
0.524934 0.012363 0.223329
0.525766 0.013195 0.339965
0.526609 0.014038 0.458141
0.527461 0.014890 0.577466
0.528318 0.015748 0.697710
0.529182 0.016611 0.818720
0.529954 0.017383 0.926856
0.528694 0.090246 0.016124
0.529395 0.090947 0.114348
0.530210 0.091762 0.228606
0.531043 0.092594 0.345242
0.531886 0.093438 0.463418
0.532737 0.094289 0.582743
0.533595 0.095147 0.702987
0.534459 0.096010 0.823997
0.535230 0.096782 0.932133
0.536719 0.210991 0.024148
0.537420 0.211692 0.122373
0.538235 0.212507 0.236630
0.539067 0.213339 0.353266
0.539910 0.214183 0.471442
0.540762 0.215034 0.590767
0.541620 0.215892 0.711011
0.542483 0.216755 0.832022
0.543255 0.217527 0.940158
0.544934 0.334608 0.032363
0.545635 0.335309 0.130588
0.546450 0.336124 0.244845
0.547282 0.336957 0.361481
0.548126 0.337800 0.479658
0.548977 0.338651 0.598983
0.549835 0.339509 0.719226
0.550698 0.340373 0.840237
0.551470 0.341144 0.948373
0.553267 0.459993 0.040696
0.553968 0.460693 0.138921
0.554783 0.461509 0.253178
0.555615 0.462341 0.369814
0.556458 0.463184 0.487990
0.557310 0.464036 0.607315
0.558168 0.464894 0.727559
0.559031 0.465757 0.848570
0.559803 0.466529 0.956706
0.561685 0.586667 0.049115
0.562386 0.587368 0.147339
0.563201 0.588183 0.261597
0.564034 0.589016 0.378233
0.564877 0.589859 0.496409
0.565728 0.590710 0.615734
0.566586 0.591568 0.735978
0.567450 0.592432 0.856988
0.568221 0.593203 0.965124
0.570172 0.714362 0.057601
0.570872 0.715062 0.155826
0.571688 0.715878 0.270083
0.572520 0.716710 0.386719
0.573363 0.717553 0.504895
0.574215 0.718405 0.624220
0.575073 0.719263 0.744464
0.575936 0.720126 0.865474
0.576708 0.720898 0.973611
0.578714 0.842901 0.066143
0.579415 0.843602 0.164368
0.580230 0.844417 0.278625
0.581062 0.845249 0.395261
0.581906 0.846092 0.513438
0.582757 0.846944 0.632763
0.583615 0.847802 0.753006
0.584478 0.848665 0.874017
0.585250 0.849437 0.982153
0.587304 0.972162 0.074734
0.588005 0.972863 0.172958
0.588821 0.973678 0.287216
0.589653 0.974511 0.403852
0.590496 0.975354 0.522028
0.591347 0.976205 0.641353
0.592205 0.977063 0.761597
0.593069 0.977927 0.882607
0.593840 0.978698 0.990743
0.644960 0.013366 0.013366
0.645661 0.014066 0.111590
0.646476 0.014882 0.225848
0.647308 0.015714 0.342484
0.648151 0.016557 0.460660
0.649003 0.017409 0.579985
0.649861 0.018266 0.700229
0.650724 0.019130 0.821239
0.651496 0.019902 0.929375
0.650236 0.092765 0.018642
0.650937 0.093466 0.116867
0.651752 0.094281 0.231124
0.652585 0.095113 0.347760
0.653428 0.095956 0.465937
0.654279 0.096808 0.585262
0.655137 0.097666 0.705505
0.656001 0.098529 0.826516
0.656772 0.099301 0.934652
0.658261 0.213510 0.026667
0.658962 0.214211 0.124891
0.659777 0.215026 0.239149
0.660609 0.215858 0.355785
0.661452 0.216701 0.473961
0.662304 0.217553 0.593286
0.663162 0.218411 0.713530
0.664025 0.219274 0.834540
0.664797 0.220046 0.942676
0.666476 0.337127 0.034882
0.667177 0.337828 0.133107
0.667992 0.338643 0.247364
0.668824 0.339475 0.364000
0.669668 0.340319 0.482176
0.670519 0.341170 0.601501
0.671377 0.342028 0.721745
0.672241 0.342891 0.842756
0.673012 0.343663 0.950892
0.674809 0.462511 0.043215
0.675510 0.463212 0.141439
0.676325 0.464027 0.255697
0.677157 0.464860 0.372333
0.678000 0.465703 0.490509
0.678852 0.466554 0.609834
0.679710 0.467412 0.730078
0.680573 0.468276 0.851088
0.681345 0.469047 0.959224
0.683227 0.589186 0.051633
0.683928 0.589887 0.149858
0.684744 0.590702 0.264115
0.685576 0.591534 0.380751
0.686419 0.592377 0.498928
0.687270 0.593229 0.618253
0.688128 0.594087 0.738496
0.688992 0.594950 0.859507
0.689763 0.595722 0.967643
0.691714 0.716880 0.060120
0.692415 0.717581 0.158344
0.693230 0.718396 0.272602
0.694062 0.719229 0.389238
0.694905 0.720072 0.507414
0.695757 0.720923 0.626739
0.696615 0.721781 0.746983
0.697478 0.722645 0.867993
0.698250 0.723416 0.976129
0.700256 0.845420 0.068662
0.700957 0.846120 0.166887
0.701772 0.846936 0.281144
0.702605 0.847768 0.397780
0.703448 0.848611 0.515956
0.704299 0.849463 0.635281
0.705157 0.850321 0.755525
0.706021 0.851184 0.876536
0.706792 0.851956 0.984672
0.708847 0.974681 0.077252
0.709547 0.975382 0.175477
0.710363 0.976197 0.289735
0.711195 0.977029 0.406370
0.712038 0.977873 0.524547
0.712890 0.978724 0.643872
0.713748 0.979582 0.764115
0.714611 0.980445 0.885126
0.715383 0.981217 0.993262
0.767337 0.015902 0.015902
0.768038 0.016602 0.114126
0.768853 0.017418 0.228384
0.769686 0.018250 0.345020
0.770529 0.019093 0.463196
0.771380 0.019945 0.582521
0.772238 0.020803 0.702765
0.773102 0.021666 0.823775
0.773873 0.022438 0.931911
0.772614 0.095301 0.021178
0.773315 0.096002 0.119403
0.774130 0.096817 0.233660
0.774962 0.097649 0.350296
0.775806 0.098492 0.468473
0.776657 0.099344 0.587798
0.777515 0.100202 0.708041
0.778378 0.101065 0.829052
0.779150 0.101837 0.937188
0.780638 0.216046 0.029203
0.781339 0.216747 0.127427
0.782155 0.217562 0.241685
0.782987 0.218394 0.358321
0.783830 0.219237 0.476497
0.784681 0.220089 0.595822
0.785539 0.220947 0.716066
0.786403 0.221810 0.837076
0.787174 0.222582 0.945212
0.788854 0.339663 0.037418
0.789555 0.340364 0.135643
0.790370 0.341179 0.249900
0.791202 0.342011 0.366536
0.792045 0.342855 0.484712
0.792897 0.343706 0.604037
0.793755 0.344564 0.724281
0.794618 0.345427 0.845292
0.795390 0.346199 0.953428
0.797187 0.465047 0.045751
0.797887 0.465748 0.143975
0.798703 0.466563 0.258233
0.799535 0.467396 0.374869
0.800378 0.468239 0.493045
0.801230 0.469090 0.612370
0.802088 0.469948 0.732614
0.802951 0.470812 0.853624
0.803723 0.471583 0.961761
0.805605 0.591722 0.054169
0.806306 0.592423 0.152394
0.807121 0.593238 0.266651
0.807953 0.594070 0.383287
0.808797 0.594913 0.501464
0.809648 0.595765 0.620789
0.810506 0.596623 0.741032
0.811369 0.597486 0.862043
0.812141 0.598258 0.970179
0.814091 0.719416 0.062656
0.814792 0.720117 0.160880
0.815607 0.720932 0.275138
0.816440 0.721765 0.391774
0.817283 0.722608 0.509950
0.818134 0.723459 0.629275
0.818992 0.724317 0.749519
0.819856 0.725181 0.870529
0.820627 0.725952 0.978665
0.822634 0.847956 0.071198
0.823335 0.848657 0.169423
0.824150 0.849472 0.283680
0.824982 0.850304 0.400316
0.825825 0.851147 0.518492
0.826677 0.851999 0.637817
0.827535 0.852857 0.758061
0.828398 0.853720 0.879072
0.829170 0.854492 0.987208
0.831224 0.977217 0.079789
0.831925 0.977918 0.178013
0.832740 0.978733 0.292271
0.833573 0.979565 0.408907
0.834416 0.980409 0.527083
0.835267 0.981260 0.646408
0.836125 0.982118 0.766652
0.836989 0.982981 0.887662
0.837760 0.983753 0.995798
0.890425 0.018452 0.018452
0.891126 0.019153 0.116677
0.891941 0.019968 0.230934
0.892773 0.020801 0.347570
0.893617 0.021644 0.465747
0.894468 0.022495 0.585072
0.895326 0.023353 0.705315
0.896189 0.024217 0.826326
0.896961 0.024988 0.934462
0.895702 0.097851 0.023729
0.896403 0.098552 0.121954
0.897218 0.099368 0.236211
0.898050 0.100200 0.352847
0.898893 0.101043 0.471023
0.899745 0.101894 0.590348
0.900603 0.102752 0.710592
0.901466 0.103616 0.831603
0.902238 0.104387 0.939739
0.903726 0.218597 0.031753
0.904427 0.219297 0.129978
0.905242 0.220113 0.244236
0.906074 0.220945 0.360871
0.906918 0.221788 0.479048
0.907769 0.222640 0.598373
0.908627 0.223497 0.718616
0.909491 0.224361 0.839627
0.910262 0.225133 0.947763
0.911941 0.342214 0.039969
0.912642 0.342915 0.138193
0.913458 0.343730 0.252451
0.914290 0.344562 0.369087
0.915133 0.345405 0.487263
0.915984 0.346257 0.606588
0.916842 0.347115 0.726832
0.917706 0.347978 0.847842
0.918477 0.348750 0.955978
0.920274 0.467598 0.048302
0.920975 0.468299 0.146526
0.921790 0.469114 0.260784
0.922623 0.469946 0.377420
0.923466 0.470790 0.495596
0.924317 0.471641 0.614921
0.925175 0.472499 0.735165
0.926039 0.473363 0.856175
0.926810 0.474134 0.964311
0.928693 0.594273 0.056720
0.929394 0.594974 0.154945
0.930209 0.595789 0.269202
0.931041 0.596621 0.385838
0.931884 0.597464 0.504014
0.932736 0.598316 0.623339
0.933594 0.599174 0.743583
0.934457 0.600037 0.864594
0.935229 0.600809 0.972730
0.937179 0.721967 0.065206
0.937880 0.722668 0.163431
0.938695 0.723483 0.277689
0.939527 0.724315 0.394324
0.940371 0.725159 0.512501
0.941222 0.726010 0.631826
0.942080 0.726868 0.752069
0.942943 0.727731 0.873080
0.943715 0.728503 0.981216
0.945721 0.850506 0.073749
0.946422 0.851207 0.171973
0.947238 0.852023 0.286231
0.948070 0.852855 0.402867
0.948913 0.853698 0.521043
0.949764 0.854549 0.640368
0.950622 0.855407 0.760612
0.951486 0.856271 0.881622
0.952257 0.857042 0.989759
0.954312 0.979768 0.082339
0.955013 0.980469 0.180564
0.955828 0.981284 0.294821
0.956660 0.982116 0.411457
0.957503 0.982959 0.529634
0.958355 0.983811 0.648959
0.959213 0.984669 0.769202
0.960076 0.985532 0.890213
0.960848 0.986304 0.998349
