skills/editops-orchestrator/assets/grade/luts/night_blue_v08.cube
TITLE "night_blue_v08"
LUT_3D_SIZE 9
DOMAIN_MIN 0.0 0.0 0.0
DOMAIN_MAX 1.0 1.0 1.0
0.000000 0.000000 0.000000
0.000844 0.000844 0.089252
0.001897 0.001897 0.200487
0.002983 0.002983 0.315275
0.004091 0.004091 0.432365
0.005215 0.005215 0.551175
0.006352 0.006352 0.671363
0.007500 0.007500 0.792706
0.008436 0.008436 0.891594
0.004980 0.057612 0.004980
0.005825 0.058456 0.094232
0.006877 0.059509 0.205467
0.007963 0.060595 0.320255
0.009071 0.061703 0.437345
0.010195 0.062827 0.556155
0.011332 0.063964 0.676344
0.012480 0.065112 0.797686
0.013416 0.066048 0.896574
0.015232 0.176214 0.015232
0.016077 0.177058 0.104485
0.017129 0.178111 0.215720
0.018215 0.179197 0.330507
0.019323 0.180305 0.447597
0.020447 0.181429 0.566407
0.021585 0.182566 0.686596
0.022733 0.183714 0.807938
0.023668 0.184650 0.906826
0.025898 0.299595 0.025898
0.026742 0.300439 0.115150
0.027795 0.301492 0.226385
0.028881 0.302578 0.341173
0.029988 0.303686 0.458262
0.031113 0.304810 0.577072
0.032250 0.305947 0.697261
0.033398 0.307095 0.818604
0.034334 0.308031 0.917491
0.036807 0.425801 0.036807
0.037652 0.426646 0.126059
0.038704 0.427698 0.237294
0.039790 0.428784 0.352082
0.040898 0.429892 0.469172
0.042022 0.431016 0.587982
0.043159 0.432153 0.708171
0.044307 0.433301 0.829513
0.045243 0.434237 0.928401
0.047893 0.554044 0.047893
0.048737 0.554889 0.137145
0.049790 0.555941 0.248380
0.050876 0.557027 0.363168
0.051984 0.558135 0.480257
0.053108 0.559259 0.599067
0.054245 0.560397 0.719256
0.055393 0.561545 0.840599
0.056329 0.562480 0.939487
0.059117 0.683889 0.059117
0.059961 0.684734 0.148369
0.061014 0.685786 0.259604
0.062100 0.686872 0.374392
0.063208 0.687980 0.491481
0.064332 0.689104 0.610291
0.065469 0.690241 0.730480
0.066617 0.691390 0.851823
0.067553 0.692325 0.950711
0.070455 0.815057 0.070455
0.071300 0.815902 0.159708
0.072352 0.816954 0.270943
0.073438 0.818041 0.385730
0.074546 0.819148 0.502820
0.075670 0.820273 0.621630
0.076807 0.821410 0.741819
0.077956 0.822558 0.863161
0.078891 0.823493 0.962049
0.081891 0.947355 0.081891
0.082736 0.948200 0.171144
0.083788 0.949252 0.282379
0.084874 0.950338 0.397166
0.085982 0.951446 0.514256
0.087106 0.952570 0.633066
0.088244 0.953708 0.753255
0.089392 0.954856 0.874597
0.090327 0.955791 0.973485
0.018707 0.000512 0.000512
0.019551 0.001356 0.089764
0.020604 0.002409 0.200999
0.021690 0.003495 0.315787
0.022798 0.004603 0.432876
0.023922 0.005727 0.551686
0.025059 0.006864 0.671875
0.026207 0.008012 0.793218
0.027143 0.008948 0.892106
0.023687 0.058124 0.005492
0.024531 0.058968 0.094744
0.025584 0.060020 0.205979
0.026670 0.061107 0.320767
0.027778 0.062214 0.437857
0.028902 0.063339 0.556666
0.030039 0.064476 0.676855
0.031187 0.065624 0.798198
0.032123 0.066560 0.897086
0.033939 0.176725 0.015744
0.034784 0.177570 0.104996
0.035836 0.178622 0.216231
0.036922 0.179709 0.331019
0.038030 0.180816 0.448109
0.039154 0.181941 0.566919
0.040291 0.183078 0.687107
0.041439 0.184226 0.808450
0.042375 0.185161 0.907338
0.044604 0.300107 0.026409
0.045449 0.300951 0.115662
0.046501 0.302004 0.226897
0.047587 0.303090 0.341684
0.048695 0.304198 0.458774
0.049820 0.305322 0.577584
0.050957 0.306459 0.697773
0.052105 0.307607 0.819115
0.053040 0.308543 0.918003
0.055514 0.426313 0.037319
0.056358 0.427157 0.126571
0.057411 0.428210 0.237806
0.058497 0.429296 0.352594
0.059605 0.430404 0.469684
0.060729 0.431528 0.588493
0.061866 0.432665 0.708682
0.063014 0.433813 0.830025
0.063950 0.434749 0.928913
0.066600 0.554556 0.048404
0.067444 0.555401 0.137657
0.068497 0.556453 0.248892
0.069583 0.557539 0.363679
0.070690 0.558647 0.480769
0.071815 0.559771 0.599579
0.072952 0.560908 0.719768
0.074100 0.562056 0.841110
0.075036 0.562992 0.939998
0.077824 0.684401 0.059629
0.078668 0.685245 0.148881
0.079721 0.686298 0.260116
0.080807 0.687384 0.374903
0.081915 0.688492 0.491993
0.083039 0.689616 0.610803
0.084176 0.690753 0.730992
0.085324 0.691901 0.852335
0.086260 0.692837 0.951222
0.089162 0.815569 0.070967
0.090007 0.816414 0.160219
0.091059 0.817466 0.271454
0.092145 0.818552 0.386242
0.093253 0.819660 0.503332
0.094377 0.820784 0.622141
0.095514 0.821921 0.742330
0.096662 0.823070 0.863673
0.097598 0.824005 0.962561
0.100598 0.947867 0.082403
0.101443 0.948712 0.171655
0.102495 0.949764 0.282890
0.103581 0.950850 0.397678
0.104689 0.951958 0.514768
0.105813 0.953082 0.633578
0.106950 0.954219 0.753766
0.108098 0.955367 0.875109
0.109034 0.956303 0.973997
0.127318 0.003483 0.003483
0.128163 0.004328 0.092735
0.129215 0.005380 0.203970
0.130301 0.006466 0.318758
0.131409 0.007574 0.435848
0.132533 0.008698 0.554658
0.133670 0.009835 0.674847
0.134818 0.010983 0.796189
0.135754 0.011919 0.895077
0.132298 0.061095 0.008463
0.133143 0.061939 0.097716
0.134195 0.062992 0.208951
0.135281 0.064078 0.323738
0.136389 0.065186 0.440828
0.137513 0.066310 0.559638
0.138650 0.067447 0.679827
0.139798 0.068595 0.801169
0.140734 0.069531 0.900057
0.142550 0.179697 0.018715
0.143395 0.180541 0.107968
0.144447 0.181594 0.219203
0.145533 0.182680 0.333990
0.146641 0.183788 0.451080
0.147765 0.184912 0.569890
0.148903 0.186049 0.690079
0.150051 0.187197 0.811421
0.150986 0.188133 0.910309
0.153216 0.303078 0.029381
0.154060 0.303923 0.118633
0.155113 0.304975 0.229868
0.156199 0.306061 0.344656
0.157307 0.307169 0.461745
0.158431 0.308293 0.580555
0.159568 0.309430 0.700744
0.160716 0.310578 0.822087
0.161652 0.311514 0.920975
0.164125 0.429284 0.040290
0.164970 0.430129 0.129543
0.166022 0.431181 0.240778
0.167108 0.432267 0.355565
0.168216 0.433375 0.472655
0.169340 0.434499 0.591465
0.170477 0.435637 0.711654
0.171626 0.436785 0.832996
0.172561 0.437720 0.931884
0.175211 0.557527 0.051376
0.176055 0.558372 0.140628
0.177108 0.559424 0.251863
0.178194 0.560510 0.366651
0.179302 0.561618 0.483740
0.180426 0.562743 0.602550
0.181563 0.563880 0.722739
0.182711 0.565028 0.844082
0.183647 0.565963 0.942970
0.186435 0.687372 0.062600
0.187279 0.688217 0.151852
0.188332 0.689269 0.263087
0.189418 0.690355 0.377875
0.190526 0.691463 0.494965
0.191650 0.692587 0.613774
0.192787 0.693725 0.733963
0.193935 0.694873 0.855306
0.194871 0.695808 0.954194
0.197773 0.818541 0.073938
0.198618 0.819385 0.163191
0.199670 0.820438 0.274426
0.200756 0.821524 0.389213
0.201864 0.822631 0.506303
0.202988 0.823756 0.625113
0.204125 0.824893 0.745302
0.205274 0.826041 0.866644
0.206209 0.826977 0.965532
0.209209 0.950838 0.085374
0.210054 0.951683 0.174627
0.211106 0.952735 0.285862
0.212192 0.953822 0.400649
0.213300 0.954929 0.517739
0.214424 0.956054 0.636549
0.215562 0.957191 0.756738
0.216710 0.958339 0.878080
0.217645 0.959274 0.976968
0.242010 0.006621 0.006621
0.242855 0.007465 0.095873
0.243907 0.008518 0.207108
0.244993 0.009604 0.321896
0.246101 0.010712 0.438985
0.247225 0.011836 0.557795
0.248362 0.012973 0.677984
0.249510 0.014121 0.799327
0.250446 0.015057 0.898215
0.246990 0.064233 0.011601
0.247835 0.065077 0.100853
0.248887 0.066130 0.212088
0.249973 0.067216 0.326876
0.251081 0.068323 0.443966
0.252205 0.069448 0.562775
0.253342 0.070585 0.682964
0.254490 0.071733 0.804307
0.255426 0.072669 0.903195
0.257242 0.182835 0.021853
0.258087 0.183679 0.111105
0.259139 0.184731 0.222340
0.260225 0.185818 0.337128
0.261333 0.186925 0.454218
0.262457 0.188050 0.573028
0.263595 0.189187 0.693216
0.264743 0.190335 0.814559
0.265678 0.191271 0.913447
0.267908 0.306216 0.032518
0.268752 0.307060 0.121771
0.269805 0.308113 0.233006
0.270891 0.309199 0.347793
0.271999 0.310307 0.464883
0.273123 0.311431 0.583693
0.274260 0.312568 0.703882
0.275408 0.313716 0.825224
0.276344 0.314652 0.924112
0.278817 0.432422 0.043428
0.279662 0.433266 0.132680
0.280714 0.434319 0.243915
0.281800 0.435405 0.358703
0.282908 0.436513 0.475793
0.284032 0.437637 0.594602
0.285169 0.438774 0.714791
0.286317 0.439922 0.836134
0.287253 0.440858 0.935022
0.289903 0.560665 0.054513
0.290747 0.561510 0.143766
0.291800 0.562562 0.255001
0.292886 0.563648 0.369788
0.293994 0.564756 0.486878
0.295118 0.565880 0.605688
0.296255 0.567017 0.725877
0.297403 0.568166 0.847219
0.298339 0.569101 0.946107
0.301127 0.690510 0.065738
0.301971 0.691354 0.154990
0.303024 0.692407 0.266225
0.304110 0.693493 0.381013
0.305218 0.694601 0.498102
0.306342 0.695725 0.616912
0.307479 0.696862 0.737101
0.308627 0.698010 0.858444
0.309563 0.698946 0.957331
0.312465 0.821678 0.077076
0.313310 0.822523 0.166328
0.314362 0.823575 0.277563
0.315448 0.824661 0.392351
0.316556 0.825769 0.509441
0.317680 0.826893 0.628250
0.318817 0.828031 0.748439
0.319966 0.829179 0.869782
0.320901 0.830114 0.968670
0.323901 0.953976 0.088512
0.324746 0.954821 0.177764
0.325798 0.955873 0.288999
0.326884 0.956959 0.403787
0.327992 0.958067 0.520877
0.329116 0.959191 0.639687
0.330254 0.960328 0.759876
0.331402 0.961477 0.881218
0.332337 0.962412 0.980106
0.359765 0.009842 0.009842
0.360610 0.010687 0.099095
0.361662 0.011739 0.210330
0.362749 0.012825 0.325117
0.363856 0.013933 0.442207
0.364981 0.015057 0.561017
0.366118 0.016195 0.681206
0.367266 0.017343 0.802548
0.368201 0.018278 0.901436
0.364746 0.067454 0.014822
0.365590 0.068299 0.104075
0.366642 0.069351 0.215310
0.367729 0.070437 0.330097
0.368836 0.071545 0.447187
0.369961 0.072669 0.565997
0.371098 0.073806 0.686186
0.372246 0.074954 0.807528
0.373182 0.075890 0.906416
0.374998 0.186056 0.025075
0.375842 0.186900 0.114327
0.376895 0.187953 0.225562
0.377981 0.189039 0.340350
0.379089 0.190147 0.457439
0.380213 0.191271 0.576249
0.381350 0.192408 0.696438
0.382498 0.193556 0.817781
0.383434 0.194492 0.916668
0.385663 0.309437 0.035740
0.386508 0.310282 0.124992
0.387560 0.311334 0.236227
0.388646 0.312420 0.351015
0.389754 0.313528 0.468105
0.390878 0.314652 0.586914
0.392015 0.315790 0.707103
0.393163 0.316938 0.828446
0.394099 0.317873 0.927334
0.396573 0.435643 0.046649
0.397417 0.436488 0.135902
0.398470 0.437540 0.247137
0.399556 0.438626 0.361924
0.400663 0.439734 0.479014
0.401788 0.440859 0.597824
0.402925 0.441996 0.718013
0.404073 0.443144 0.839355
0.405009 0.444079 0.938243
0.407658 0.563887 0.057735
0.408503 0.564731 0.146987
0.409555 0.565784 0.258222
0.410641 0.566870 0.373010
0.411749 0.567978 0.490100
0.412873 0.569102 0.608910
0.414010 0.570239 0.729098
0.415159 0.571387 0.850441
0.416094 0.572323 0.949329
0.418882 0.693732 0.068959
0.419727 0.694576 0.158211
0.420779 0.695628 0.269446
0.421865 0.696715 0.384234
0.422973 0.697822 0.501324
0.424097 0.698947 0.620134
0.425234 0.700084 0.740322
0.426383 0.701232 0.861665
0.427318 0.702168 0.960553
0.430221 0.824900 0.080297
0.431065 0.825744 0.169550
0.432118 0.826797 0.280785
0.433204 0.827883 0.395572
0.434312 0.828991 0.512662
0.435436 0.830115 0.631472
0.436573 0.831252 0.751661
0.437721 0.832400 0.873003
0.438657 0.833336 0.971891
0.441657 0.957198 0.091734
0.442501 0.958042 0.180986
0.443554 0.959095 0.292221
0.444640 0.960181 0.407009
0.445748 0.961289 0.524098
0.446872 0.962413 0.642908
0.448009 0.963550 0.763097
0.449157 0.964698 0.884440
0.450093 0.965634 0.983327
0.479630 0.013122 0.013122
0.480475 0.013966 0.102374
0.481527 0.015018 0.213609
0.482613 0.016105 0.328397
0.483721 0.017212 0.445486
0.484845 0.018337 0.564296
0.485983 0.019474 0.684485
0.487131 0.020622 0.805828
0.488066 0.021558 0.904715
0.484610 0.070733 0.018102
0.485455 0.071578 0.107354
0.486507 0.072630 0.218589
0.487593 0.073716 0.333377
0.488701 0.074824 0.450466
0.489825 0.075948 0.569276
0.490963 0.077086 0.689465
0.492111 0.078234 0.810808
0.493046 0.079169 0.909695
0.494863 0.189335 0.028354
0.495707 0.190180 0.117606
0.496759 0.191232 0.228841
0.497846 0.192318 0.343629
0.498953 0.193426 0.460718
0.500078 0.194550 0.579528
0.501215 0.195687 0.699717
0.502363 0.196836 0.821060
0.503299 0.197771 0.919948
0.505528 0.312717 0.039019
0.506372 0.313561 0.128271
0.507425 0.314613 0.239506
0.508511 0.315700 0.354294
0.509619 0.316807 0.471384
0.510743 0.317932 0.590194
0.511880 0.319069 0.710383
0.513028 0.320217 0.831725
0.513964 0.321153 0.930613
0.516437 0.438923 0.049929
0.517282 0.439767 0.139181
0.518334 0.440820 0.250416
0.519420 0.441906 0.365204
0.520528 0.443014 0.482293
0.521652 0.444138 0.601103
0.522790 0.445275 0.721292
0.523938 0.446423 0.842635
0.524873 0.447359 0.941523
0.527523 0.567166 0.061014
0.528367 0.568010 0.150267
0.529420 0.569063 0.261502
0.530506 0.570149 0.376289
0.531614 0.571257 0.493379
0.532738 0.572381 0.612189
0.533875 0.573518 0.732378
0.535023 0.574666 0.853720
0.535959 0.575602 0.952608
0.538747 0.697011 0.072238
0.539591 0.697855 0.161491
0.540644 0.698908 0.272726
0.541730 0.699994 0.387513
0.542838 0.701102 0.504603
0.543962 0.702226 0.623413
0.545099 0.703363 0.743602
0.546247 0.704511 0.864944
0.547183 0.705447 0.963832
0.550085 0.828179 0.083577
0.550930 0.829023 0.172829
0.551982 0.830076 0.284064
0.553068 0.831162 0.398852
0.554176 0.832270 0.515941
0.555301 0.833394 0.634751
0.556438 0.834531 0.754940
0.557586 0.835679 0.876283
0.558521 0.836615 0.975171
0.561522 0.960477 0.095013
0.562366 0.961321 0.184265
0.563418 0.962374 0.295500
0.564505 0.963460 0.410288
0.565612 0.964568 0.527377
0.566737 0.965692 0.646187
0.567874 0.966829 0.766376
0.569022 0.967977 0.887719
0.569958 0.968913 0.986607
0.601115 0.016445 0.016445
0.601960 0.017290 0.105697
0.603012 0.018342 0.216932
0.604098 0.019428 0.331720
0.605206 0.020536 0.448810
0.606330 0.021660 0.567620
0.607468 0.022797 0.687808
0.608616 0.023945 0.809151
0.609551 0.024881 0.908039
0.606095 0.074057 0.021425
0.606940 0.074901 0.110677
0.607992 0.075954 0.221912
0.609078 0.077040 0.336700
0.610186 0.078148 0.453790
0.611310 0.079272 0.572600
0.612448 0.080409 0.692789
0.613596 0.081557 0.814131
0.614531 0.082493 0.913019
0.616348 0.192659 0.031677
0.617192 0.193503 0.120930
0.618245 0.194556 0.232165
0.619331 0.195642 0.346952
0.620439 0.196750 0.464042
0.621563 0.197874 0.582852
0.622700 0.199011 0.703041
0.623848 0.200159 0.824383
0.624784 0.201095 0.923271
0.627013 0.316040 0.042343
0.627857 0.316885 0.131595
0.628910 0.317937 0.242830
0.629996 0.319023 0.357618
0.631104 0.320131 0.474707
0.632228 0.321255 0.593517
0.633365 0.322392 0.713706
0.634513 0.323540 0.835049
0.635449 0.324476 0.933937
0.637922 0.442246 0.053252
0.638767 0.443091 0.142504
0.639819 0.444143 0.253739
0.640905 0.445229 0.368527
0.642013 0.446337 0.485617
0.643138 0.447461 0.604427
0.644275 0.448598 0.724616
0.645423 0.449747 0.845958
0.646358 0.450682 0.944846
0.649008 0.570489 0.064338
0.649853 0.571334 0.153590
0.650905 0.572386 0.264825
0.651991 0.573472 0.379613
0.653099 0.574580 0.496702
0.654223 0.575704 0.615512
0.655360 0.576842 0.735701
0.656508 0.577990 0.857044
0.657444 0.578925 0.955932
0.660232 0.700334 0.075562
0.661077 0.701179 0.164814
0.662129 0.702231 0.276049
0.663215 0.703317 0.390837
0.664323 0.704425 0.507926
0.665447 0.705549 0.626736
0.666584 0.706686 0.746925
0.667732 0.707835 0.868268
0.668668 0.708770 0.967156
0.671571 0.831503 0.086900
0.672415 0.832347 0.176153
0.673467 0.833399 0.287388
0.674554 0.834486 0.402175
0.675661 0.835593 0.519265
0.676786 0.836718 0.638075
0.677923 0.837855 0.758264
0.679071 0.839003 0.879606
0.680007 0.839939 0.978494
0.683007 0.963800 0.098336
0.683851 0.964645 0.187589
0.684904 0.965697 0.298824
0.685990 0.966783 0.413611
0.687098 0.967891 0.530701
0.688222 0.969015 0.649511
0.689359 0.970153 0.769700
0.690507 0.971301 0.891042
0.691443 0.972236 0.989930
0.723920 0.019805 0.019805
0.724765 0.020649 0.109057
0.725817 0.021702 0.220292
0.726903 0.022788 0.335080
0.728011 0.023896 0.452169
0.729135 0.025020 0.570979
0.730273 0.026157 0.691168
0.731421 0.027305 0.812511
0.732356 0.028241 0.911399
0.728900 0.077416 0.024785
0.729745 0.078261 0.114037
0.730797 0.079313 0.225272
0.731883 0.080400 0.340060
0.732991 0.081507 0.457149
0.734115 0.082632 0.575959
0.735253 0.083769 0.696148
0.736401 0.084917 0.817491
0.737336 0.085852 0.916379
0.739153 0.196018 0.035037
0.739997 0.196863 0.124289
0.741050 0.197915 0.235524
0.742136 0.199001 0.350312
0.743244 0.200109 0.467402
0.744368 0.201233 0.586211
0.745505 0.202371 0.706400
0.746653 0.203519 0.827743
0.747589 0.204454 0.926631
0.749818 0.319400 0.045702
0.750662 0.320244 0.134955
0.751715 0.321297 0.246190
0.752801 0.322383 0.360977
0.753909 0.323491 0.478067
0.755033 0.324615 0.596877
0.756170 0.325752 0.717066
0.757318 0.326900 0.838408
0.758254 0.327836 0.937296
0.760727 0.445606 0.056612
0.761572 0.446450 0.145864
0.762624 0.447503 0.257099
0.763710 0.448589 0.371887
0.764818 0.449697 0.488976
0.765943 0.450821 0.607786
0.767080 0.451958 0.727975
0.768228 0.453106 0.849318
0.769163 0.454042 0.948206
0.771813 0.573849 0.067697
0.772658 0.574694 0.156950
0.773710 0.575746 0.268185
0.774796 0.576832 0.382972
0.775904 0.577940 0.500062
0.777028 0.579064 0.618872
0.778165 0.580201 0.739061
0.779313 0.581349 0.860403
0.780249 0.582285 0.959291
0.783037 0.703694 0.078921
0.783882 0.704538 0.168174
0.784934 0.705591 0.279409
0.786020 0.706677 0.394196
0.787128 0.707785 0.511286
0.788252 0.708909 0.630096
0.789389 0.710046 0.750285
0.790537 0.711194 0.871627
0.791473 0.712130 0.970515
0.794376 0.834862 0.090260
0.795220 0.835707 0.179512
0.796272 0.836759 0.290747
0.797359 0.837845 0.405535
0.798466 0.838953 0.522625
0.799591 0.840077 0.641434
0.800728 0.841214 0.761623
0.801876 0.842363 0.882966
0.802812 0.843298 0.981854
0.805812 0.967160 0.101696
0.806656 0.968005 0.190948
0.807709 0.969057 0.302183
0.808795 0.970143 0.416971
0.809903 0.971251 0.534061
0.811027 0.972375 0.652870
0.812164 0.973512 0.773059
0.813312 0.974660 0.894402
0.814248 0.975596 0.993290
0.847841 0.023195 0.023195
0.848686 0.024039 0.112447
0.849738 0.025092 0.223682
0.850824 0.026178 0.338470
0.851932 0.027286 0.455560
0.853056 0.028410 0.574369
0.854193 0.029547 0.694558
0.855342 0.030695 0.815901
0.856277 0.031631 0.914789
0.852821 0.080807 0.028175
0.853666 0.081651 0.117427
0.854718 0.082704 0.228662
0.855804 0.083790 0.343450
0.856912 0.084898 0.460540
0.858036 0.086022 0.579349
0.859174 0.087159 0.699538
0.860322 0.088307 0.820881
0.861257 0.089243 0.919769
0.863073 0.199409 0.038427
0.863918 0.200253 0.127679
0.864970 0.201306 0.238914
0.866057 0.202392 0.353702
0.867164 0.203499 0.470792
0.868289 0.204624 0.589602
0.869426 0.205761 0.709791
0.870574 0.206909 0.831133
0.871509 0.207845 0.930021
0.873739 0.322790 0.049092
0.874583 0.323634 0.138345
0.875636 0.324687 0.249580
0.876722 0.325773 0.364367
0.877830 0.326881 0.481457
0.878954 0.328005 0.600267
0.880091 0.329142 0.720456
0.881239 0.330290 0.841798
0.882175 0.331226 0.940686
0.884648 0.448996 0.060002
0.885493 0.449840 0.149254
0.886545 0.450893 0.260489
0.887631 0.451979 0.375277
0.888739 0.453087 0.492367
0.889863 0.454211 0.611176
0.891001 0.455348 0.731365
0.892149 0.456496 0.852708
0.893084 0.457432 0.951596
0.895734 0.577239 0.071088
0.896578 0.578084 0.160340
0.897631 0.579136 0.271575
0.898717 0.580222 0.386363
0.899825 0.581330 0.503452
0.900949 0.582454 0.622262
0.902086 0.583591 0.742451
0.903234 0.584740 0.863794
0.904170 0.585675 0.962681
0.906958 0.707084 0.082312
0.907802 0.707929 0.171564
0.908855 0.708981 0.282799
0.909941 0.710067 0.397587
0.911049 0.711175 0.514676
0.912173 0.712299 0.633486
0.913310 0.713436 0.753675
0.914458 0.714584 0.875018
0.915394 0.715520 0.973905
0.918296 0.838252 0.093650
0.919141 0.839097 0.182902
0.920193 0.840149 0.294137
0.921279 0.841235 0.408925
0.922387 0.842343 0.526015
0.923511 0.843467 0.644825
0.924649 0.844605 0.765013
0.925797 0.845753 0.886356
0.926732 0.846688 0.985244
0.929732 0.970550 0.105086
0.930577 0.971395 0.194338
0.931629 0.972447 0.305573
0.932716 0.973533 0.420361
0.933823 0.974641 0.537451
0.934948 0.975765 0.656261
0.936085 0.976902 0.776450
0.937233 0.978051 0.897792
0.938168 0.978986 0.996680
