skills/editops-orchestrator/assets/grade/luts/night_blue_v04.cube
TITLE "night_blue_v04"
LUT_3D_SIZE 5
DOMAIN_MIN 0.0 0.0 0.0
DOMAIN_MAX 1.0 1.0 1.0
0.000000 0.000000 0.000000
0.001594 0.001594 0.210037
0.003372 0.003372 0.444281
0.005190 0.005190 0.683755
0.006916 0.006916 0.911127
0.013756 0.195314 0.013756
0.015350 0.196908 0.223793
0.017128 0.198686 0.458037
0.018946 0.200504 0.697511
0.020672 0.202230 0.924882
0.031305 0.444485 0.031305
0.032899 0.446079 0.241342
0.034677 0.447857 0.475586
0.036495 0.449675 0.715060
0.038221 0.451401 0.942432
0.049274 0.699622 0.049274
0.050869 0.701216 0.259311
0.052647 0.702994 0.493556
0.054465 0.704812 0.733029
0.056190 0.706538 0.960401
0.067512 0.958566 0.067512
0.069106 0.960161 0.277549
0.070884 0.961939 0.511793
0.072702 0.963756 0.751267
0.074428 0.965482 0.978638
0.158317 0.003487 0.003487
0.159911 0.005081 0.213524
0.161689 0.006859 0.447768
0.163507 0.008677 0.687242
0.165233 0.010403 0.914614
0.172073 0.198801 0.017243
0.173667 0.200395 0.227280
0.175445 0.202173 0.461524
0.177263 0.203991 0.700998
0.178989 0.205717 0.928370
0.189622 0.447972 0.034792
0.191216 0.449566 0.244829
0.192994 0.451344 0.479074
0.194812 0.453162 0.718547
0.196538 0.454888 0.945919
0.207591 0.703109 0.052761
0.209185 0.704703 0.262798
0.210963 0.706481 0.497043
0.212781 0.708299 0.736516
0.214507 0.710025 0.963888
0.225829 0.962053 0.070999
0.227423 0.963648 0.281036
0.229201 0.965426 0.515280
0.231019 0.967244 0.754754
0.232745 0.968969 0.982125
0.394206 0.008683 0.008683
0.395800 0.010277 0.218720
0.397579 0.012055 0.452964
0.399396 0.013873 0.692438
0.401122 0.015599 0.919809
0.407962 0.203997 0.022439
0.409556 0.205591 0.232476
0.411334 0.207369 0.466720
0.413152 0.209187 0.706194
0.414878 0.210913 0.933565
0.425511 0.453167 0.039988
0.427106 0.454762 0.250025
0.428884 0.456540 0.484269
0.430701 0.458358 0.723743
0.432427 0.460083 0.951114
0.443481 0.708305 0.057957
0.445075 0.709899 0.267994
0.446853 0.711677 0.502239
0.448671 0.713495 0.741712
0.450397 0.715221 0.969084
0.461718 0.967249 0.076195
0.463312 0.968843 0.286231
0.465090 0.970622 0.520476
0.466908 0.972439 0.759950
0.468634 0.974165 0.987321
0.636191 0.014013 0.014013
0.637786 0.015607 0.224050
0.639564 0.017385 0.458294
0.641382 0.019203 0.697768
0.643107 0.020929 0.925139
0.649947 0.209327 0.027769
0.651542 0.210921 0.237806
0.653320 0.212699 0.472050
0.655137 0.214517 0.711524
0.656863 0.216243 0.938895
0.667496 0.458497 0.045318
0.669091 0.460092 0.255355
0.670869 0.461870 0.489599
0.672687 0.463688 0.729073
0.674412 0.465413 0.956444
0.685466 0.713635 0.063287
0.687060 0.715229 0.273324
0.688838 0.717007 0.507569
0.690656 0.718825 0.747042
0.692382 0.720551 0.974414
0.703703 0.972579 0.081525
0.705298 0.974173 0.291561
0.707076 0.975952 0.525806
0.708893 0.977769 0.765280
0.710619 0.979495 0.992651
0.881953 0.019426 0.019426
0.883547 0.021020 0.229463
0.885325 0.022798 0.463707
0.887143 0.024616 0.703181
0.888869 0.026342 0.930553
0.895709 0.214740 0.033182
0.897303 0.216334 0.243219
0.899081 0.218112 0.477463
0.900899 0.219930 0.716937
0.902625 0.221656 0.944309
0.913258 0.463911 0.050731
0.914852 0.465505 0.260768
0.916630 0.467283 0.495012
0.918448 0.469101 0.734486
0.920174 0.470827 0.961858
0.931227 0.719048 0.068700
0.932822 0.720642 0.278737
0.934600 0.722420 0.512982
0.936417 0.724238 0.752455
0.938143 0.725964 0.979827
0.949465 0.977992 0.086938
0.951059 0.979587 0.296975
0.952837 0.981365 0.531219
0.954655 0.983182 0.770693
0.956381 0.984908 0.998064
