skills/editops-orchestrator/assets/grade/luts/night_blue_v07.cube
TITLE "night_blue_v07"
LUT_3D_SIZE 5
DOMAIN_MIN 0.0 0.0 0.0
DOMAIN_MAX 1.0 1.0 1.0
0.000000 0.000000 0.000000
0.001823 0.001823 0.202840
0.003912 0.003912 0.435324
0.006061 0.006061 0.674455
0.008056 0.008056 0.896477
0.014914 0.180954 0.014914
0.016737 0.182777 0.217755
0.018826 0.184866 0.450238
0.020975 0.187015 0.689370
0.022970 0.189010 0.911391
0.035480 0.430477 0.035480
0.037303 0.432300 0.238320
0.039392 0.434389 0.470804
0.041541 0.436538 0.709936
0.043536 0.438533 0.931957
0.056693 0.687846 0.056693
0.058515 0.689669 0.259533
0.060605 0.691758 0.492016
0.062753 0.693907 0.731148
0.064749 0.695902 0.953170
0.078315 0.950190 0.078315
0.080138 0.952013 0.281155
0.082227 0.954102 0.513639
0.084376 0.956251 0.752770
0.086371 0.958246 0.974792
0.134934 0.003509 0.003509
0.136757 0.005332 0.206349
0.138846 0.007421 0.438833
0.140995 0.009570 0.677965
0.142990 0.011565 0.899986
0.149849 0.184463 0.018423
0.151671 0.186286 0.221264
0.153760 0.188375 0.453747
0.155909 0.190524 0.692879
0.157905 0.192519 0.914901
0.170414 0.433986 0.038989
0.172237 0.435809 0.241830
0.174326 0.437898 0.474313
0.176475 0.440047 0.713445
0.178470 0.442042 0.935466
0.191627 0.691356 0.060202
0.193450 0.693178 0.263042
0.195539 0.695268 0.495525
0.197688 0.697416 0.734657
0.199683 0.699412 0.956679
0.213249 0.953699 0.081824
0.215072 0.955522 0.284664
0.217161 0.957611 0.517148
0.219310 0.959760 0.756280
0.221305 0.961755 0.978301
0.368327 0.009579 0.009579
0.370150 0.011402 0.212419
0.372239 0.013491 0.444903
0.374388 0.015640 0.684034
0.376383 0.017635 0.906056
0.383241 0.190533 0.024493
0.385064 0.192355 0.227333
0.387153 0.194445 0.459817
0.389302 0.196593 0.698949
0.391297 0.198589 0.920970
0.403807 0.440056 0.045059
0.405630 0.441879 0.247899
0.407719 0.443968 0.480383
0.409868 0.446117 0.719514
0.411863 0.448112 0.941536
0.425019 0.697425 0.066271
0.426842 0.699248 0.269112
0.428931 0.701337 0.501595
0.431080 0.703486 0.740727
0.433075 0.705481 0.962749
0.446642 0.959769 0.087894
0.448465 0.961592 0.290734
0.450554 0.963681 0.523218
0.452703 0.965830 0.762349
0.454698 0.967825 0.984371
0.609883 0.015861 0.015861
0.611705 0.017684 0.218701
0.613795 0.019773 0.451185
0.615943 0.021922 0.690316
0.617939 0.023917 0.912338
0.624797 0.196815 0.030775
0.626620 0.198637 0.233615
0.628709 0.200727 0.466099
0.630858 0.202876 0.705231
0.632853 0.204871 0.927252
0.645363 0.446338 0.051341
0.647185 0.448161 0.254181
0.649275 0.450250 0.486665
0.651424 0.452399 0.725796
0.653419 0.454394 0.947818
0.666575 0.703707 0.072554
0.668398 0.705530 0.275394
0.670487 0.707619 0.507877
0.672636 0.709768 0.747009
0.674631 0.711763 0.969031
0.688198 0.966051 0.094176
0.690020 0.967874 0.297016
0.692110 0.969963 0.529500
0.694258 0.972112 0.768631
0.696254 0.974107 0.990653
0.856401 0.022272 0.022272
0.858224 0.024095 0.225112
0.860313 0.026184 0.457596
0.862462 0.028333 0.696727
0.864457 0.030328 0.918749
0.871315 0.203226 0.037186
0.873138 0.205049 0.240027
0.875227 0.207138 0.472510
0.877376 0.209287 0.711642
0.879371 0.211282 0.933663
0.891881 0.452749 0.057752
0.893704 0.454572 0.260592
0.895793 0.456661 0.493076
0.897942 0.458810 0.732208
0.899937 0.460805 0.954229
0.913094 0.710118 0.078965
0.914916 0.711941 0.281805
0.917006 0.714030 0.514288
0.919155 0.716179 0.753420
0.921150 0.718174 0.975442
0.934716 0.972462 0.100587
0.936539 0.974285 0.303427
0.938628 0.976374 0.535911
0.940777 0.978523 0.775043
0.942772 0.980518 0.997064
