skills/editops-orchestrator/assets/grade/luts/night_blue_v08.cube
TITLE "night_blue_v08"
LUT_3D_SIZE 17
DOMAIN_MIN 0.0 0.0 0.0
DOMAIN_MAX 1.0 1.0 1.0
0.000000 0.000000 0.000000
0.000341 0.000341 0.036062
0.000844 0.000844 0.089252
0.001365 0.001365 0.144290
0.001897 0.001897 0.200487
0.002437 0.002437 0.257541
0.002983 0.002983 0.315275
0.003535 0.003535 0.373576
0.004091 0.004091 0.432365
0.004651 0.004651 0.491579
0.005215 0.005215 0.551175
0.005782 0.005782 0.611113
0.006352 0.006352 0.671363
0.006925 0.006925 0.731902
0.007500 0.007500 0.792706
0.008078 0.008078 0.853758
0.008436 0.008436 0.891594
0.000248 0.002872 0.000248
0.000589 0.003213 0.036311
0.001093 0.003716 0.089501
0.001613 0.004237 0.144538
0.002145 0.004769 0.200736
0.002685 0.005309 0.257789
0.003231 0.005855 0.315523
0.003783 0.006407 0.373825
0.004339 0.006963 0.432613
0.004899 0.007523 0.491828
0.005463 0.008087 0.551423
0.006030 0.008654 0.611361
0.006600 0.009224 0.671612
0.007173 0.009797 0.732150
0.007749 0.010372 0.792954
0.008326 0.010950 0.854006
0.008684 0.011308 0.891842
0.004980 0.057612 0.004980
0.005321 0.057953 0.041042
0.005825 0.058456 0.094232
0.006345 0.058977 0.149270
0.006877 0.059509 0.205467
0.007417 0.060049 0.262521
0.007963 0.060595 0.320255
0.008515 0.061146 0.378557
0.009071 0.061703 0.437345
0.009631 0.062263 0.496560
0.010195 0.062827 0.556155
0.010762 0.063394 0.616093
0.011332 0.063964 0.676344
0.011905 0.064537 0.736882
0.012480 0.065112 0.797686
0.013058 0.065690 0.858738
0.013416 0.066048 0.896574
0.010034 0.116077 0.010034
0.010375 0.116418 0.046096
0.010878 0.116921 0.099286
0.011399 0.117442 0.154324
0.011931 0.117974 0.210521
0.012471 0.118514 0.267575
0.013017 0.119060 0.325309
0.013569 0.119611 0.383610
0.014125 0.120168 0.442399
0.014685 0.120728 0.501613
0.015249 0.121292 0.561208
0.015816 0.121859 0.621147
0.016386 0.122429 0.681397
0.016959 0.123002 0.741936
0.017534 0.123577 0.802740
0.018112 0.124155 0.863792
0.018470 0.124513 0.901628
0.015232 0.176214 0.015232
0.015573 0.176555 0.051295
0.016077 0.177058 0.104485
0.016597 0.177579 0.159522
0.017129 0.178111 0.215720
0.017669 0.178650 0.272773
0.018215 0.179197 0.330507
0.018767 0.179748 0.388809
0.019323 0.180305 0.447597
0.019883 0.180865 0.506812
0.020447 0.181429 0.566407
0.021014 0.181996 0.626345
0.021585 0.182566 0.686596
0.022157 0.183139 0.747134
0.022733 0.183714 0.807938
0.023310 0.184292 0.868990
0.023668 0.184650 0.906826
0.020528 0.237476 0.020528
0.020869 0.237818 0.056590
0.021372 0.238321 0.109780
0.021893 0.238842 0.164818
0.022425 0.239373 0.221015
0.022965 0.239913 0.278069
0.023511 0.240459 0.335803
0.024063 0.241011 0.394104
0.024619 0.241567 0.452893
0.025179 0.242128 0.512107
0.025743 0.242692 0.571702
0.026310 0.243259 0.631641
0.026880 0.243829 0.691891
0.027453 0.244401 0.752430
0.028028 0.244977 0.813234
0.028606 0.245554 0.874286
0.028964 0.245912 0.912122
0.025898 0.299595 0.025898
0.026239 0.299936 0.061960
0.026742 0.300439 0.115150
0.027263 0.300960 0.170187
0.027795 0.301492 0.226385
0.028334 0.302032 0.283438
0.028881 0.302578 0.341173
0.029432 0.303130 0.399474
0.029988 0.303686 0.458262
0.030549 0.304246 0.517477
0.031113 0.304810 0.577072
0.031680 0.305377 0.637010
0.032250 0.305947 0.697261
0.032823 0.306520 0.757799
0.033398 0.307095 0.818604
0.033976 0.307673 0.879656
0.034334 0.308031 0.917491
0.031327 0.362406 0.031327
0.031668 0.362748 0.067389
0.032172 0.363251 0.120579
0.032692 0.363772 0.175617
0.033224 0.364303 0.231814
0.033764 0.364843 0.288868
0.034310 0.365389 0.346602
0.034862 0.365941 0.404904
0.035418 0.366497 0.463692
0.035978 0.367058 0.522907
0.036542 0.367621 0.582502
0.037109 0.368189 0.642440
0.037679 0.368759 0.702691
0.038252 0.369331 0.763229
0.038827 0.369907 0.824033
0.039405 0.370484 0.885085
0.039763 0.370842 0.922921
0.036807 0.425801 0.036807
0.037148 0.426142 0.072869
0.037652 0.426646 0.126059
0.038172 0.427166 0.181097
0.038704 0.427698 0.237294
0.039244 0.428238 0.294348
0.039790 0.428784 0.352082
0.040342 0.429336 0.410384
0.040898 0.429892 0.469172
0.041458 0.430452 0.528387
0.042022 0.431016 0.587982
0.042589 0.431583 0.647920
0.043159 0.432153 0.708171
0.043732 0.432726 0.768709
0.044307 0.433301 0.829513
0.044885 0.433879 0.890565
0.045243 0.434237 0.928401
0.042331 0.489700 0.042331
0.042672 0.490042 0.078393
0.043175 0.490545 0.131583
0.043696 0.491066 0.186620
0.044228 0.491597 0.242818
0.044767 0.492137 0.299871
0.045314 0.492683 0.357606
0.045865 0.493235 0.415907
0.046422 0.493791 0.474695
0.046982 0.494352 0.533910
0.047546 0.494915 0.593505
0.048113 0.495482 0.653443
0.048683 0.496053 0.713694
0.049256 0.496625 0.774232
0.049831 0.497201 0.835037
0.050409 0.497778 0.896089
0.050767 0.498136 0.933925
0.047893 0.554044 0.047893
0.048234 0.554386 0.083955
0.048737 0.554889 0.137145
0.049258 0.555410 0.192182
0.049790 0.555941 0.248380
0.050329 0.556481 0.305433
0.050876 0.557027 0.363168
0.051427 0.557579 0.421469
0.051984 0.558135 0.480257
0.052544 0.558696 0.539472
0.053108 0.559259 0.599067
0.053675 0.559827 0.659005
0.054245 0.560397 0.719256
0.054818 0.560969 0.779794
0.055393 0.561545 0.840599
0.055971 0.562122 0.901651
0.056329 0.562480 0.939487
0.053489 0.618786 0.053489
0.053830 0.619128 0.089551
0.054334 0.619631 0.142741
0.054854 0.620152 0.197779
0.055386 0.620683 0.253976
0.055926 0.621223 0.311030
0.056472 0.621770 0.368764
0.057024 0.622321 0.427066
0.057580 0.622877 0.485854
0.058140 0.623438 0.545069
0.058704 0.624002 0.604664
0.059271 0.624569 0.664602
0.059841 0.625139 0.724853
0.060414 0.625712 0.785391
0.060989 0.626287 0.846195
0.061567 0.626865 0.907247
0.061925 0.627222 0.945083
0.059117 0.683889 0.059117
0.059458 0.684230 0.095179
0.059961 0.684734 0.148369
0.060482 0.685254 0.203407
0.061014 0.685786 0.259604
0.061554 0.686326 0.316657
0.062100 0.686872 0.374392
0.062651 0.687424 0.432693
0.063208 0.687980 0.491481
0.063768 0.688540 0.550696
0.064332 0.689104 0.610291
0.064899 0.689671 0.670229
0.065469 0.690241 0.730480
0.066042 0.690814 0.791018
0.066617 0.691390 0.851823
0.067195 0.691967 0.912875
0.067553 0.692325 0.950711
0.064773 0.749321 0.064773
0.065114 0.749663 0.100835
0.065617 0.750166 0.154025
0.066138 0.750687 0.209063
0.066670 0.751218 0.265260
0.067210 0.751758 0.322313
0.067756 0.752305 0.380048
0.068307 0.752856 0.438349
0.068864 0.753412 0.497137
0.069424 0.753973 0.556352
0.069988 0.754537 0.615947
0.070555 0.755104 0.675885
0.071125 0.755674 0.736136
0.071698 0.756247 0.796675
0.072273 0.756822 0.857479
0.072851 0.757400 0.918531
0.073209 0.757757 0.956367
0.070455 0.815057 0.070455
0.070796 0.815399 0.106518
0.071300 0.815902 0.159708
0.071820 0.816423 0.214745
0.072352 0.816954 0.270943
0.072892 0.817494 0.327996
0.073438 0.818041 0.385730
0.073990 0.818592 0.444032
0.074546 0.819148 0.502820
0.075106 0.819709 0.562035
0.075670 0.820273 0.621630
0.076237 0.820840 0.681568
0.076807 0.821410 0.741819
0.077380 0.821983 0.802357
0.077956 0.822558 0.863161
0.078533 0.823135 0.924213
0.078891 0.823493 0.962049
0.076162 0.881075 0.076162
0.076503 0.881416 0.112224
0.077006 0.881920 0.165414
0.077527 0.882440 0.220452
0.078059 0.882972 0.276649
0.078599 0.883512 0.333702
0.079145 0.884058 0.391437
0.079697 0.884610 0.449738
0.080253 0.885166 0.508527
0.080813 0.885726 0.567741
0.081377 0.886290 0.627336
0.081944 0.886857 0.687274
0.082514 0.887427 0.747525
0.083087 0.888000 0.808064
0.083662 0.888575 0.868868
0.084240 0.889153 0.929920
0.084598 0.889511 0.967756
0.081891 0.947355 0.081891
0.082232 0.947697 0.117954
0.082736 0.948200 0.171144
0.083256 0.948721 0.226181
0.083788 0.949252 0.282379
0.084328 0.949792 0.339432
0.084874 0.950338 0.397166
0.085426 0.950890 0.455468
0.085982 0.951446 0.514256
0.086542 0.952007 0.573471
0.087106 0.952570 0.633066
0.087673 0.953138 0.693004
0.088244 0.953708 0.753255
0.088816 0.954280 0.813793
0.089392 0.954856 0.874597
0.089969 0.955433 0.935649
0.090327 0.955791 0.973485
0.000000 0.000000 0.000000
0.000341 0.000341 0.036062
0.000844 0.000844 0.089252
0.001365 0.001365 0.144290
0.001897 0.001897 0.200487
0.002437 0.002437 0.257541
0.002983 0.002983 0.315275
0.003535 0.003535 0.373576
0.004091 0.004091 0.432365
0.004651 0.004651 0.491579
0.005215 0.005215 0.551175
0.005782 0.005782 0.611113
0.006352 0.006352 0.671363
0.006925 0.006925 0.731902
0.007500 0.007500 0.792706
0.008078 0.008078 0.853758
0.008436 0.008436 0.891594
0.000248 0.002872 0.000248
0.000589 0.003213 0.036311
0.001093 0.003716 0.089501
0.001613 0.004237 0.144538
0.002145 0.004769 0.200736
0.002685 0.005309 0.257789
0.003231 0.005855 0.315523
0.003783 0.006407 0.373825
0.004339 0.006963 0.432613
0.004899 0.007523 0.491828
0.005463 0.008087 0.551423
0.006030 0.008654 0.611361
0.006600 0.009224 0.671612
0.007173 0.009797 0.732150
0.007749 0.010372 0.792954
0.008326 0.010950 0.854006
0.008684 0.011308 0.891842
0.004980 0.057612 0.004980
0.005321 0.057953 0.041042
0.005825 0.058456 0.094232
0.006345 0.058977 0.149270
0.006877 0.059509 0.205467
0.007417 0.060049 0.262521
0.007963 0.060595 0.320255
0.008515 0.061146 0.378557
0.009071 0.061703 0.437345
0.009631 0.062263 0.496560
0.010195 0.062827 0.556155
0.010762 0.063394 0.616093
0.011332 0.063964 0.676344
0.011905 0.064537 0.736882
0.012480 0.065112 0.797686
0.013058 0.065690 0.858738
0.013416 0.066048 0.896574
0.010034 0.116077 0.010034
0.010375 0.116418 0.046096
0.010878 0.116921 0.099286
0.011399 0.117442 0.154324
0.011931 0.117974 0.210521
0.012471 0.118514 0.267575
0.013017 0.119060 0.325309
0.013569 0.119611 0.383610
0.014125 0.120168 0.442399
0.014685 0.120728 0.501613
0.015249 0.121292 0.561208
0.015816 0.121859 0.621147
0.016386 0.122429 0.681397
0.016959 0.123002 0.741936
0.017534 0.123577 0.802740
0.018112 0.124155 0.863792
0.018470 0.124513 0.901628
0.015232 0.176214 0.015232
0.015573 0.176555 0.051295
0.016077 0.177058 0.104485
0.016597 0.177579 0.159522
0.017129 0.178111 0.215720
0.017669 0.178650 0.272773
0.018215 0.179197 0.330507
0.018767 0.179748 0.388809
0.019323 0.180305 0.447597
0.019883 0.180865 0.506812
0.020447 0.181429 0.566407
0.021014 0.181996 0.626345
0.021585 0.182566 0.686596
0.022157 0.183139 0.747134
0.022733 0.183714 0.807938
0.023310 0.184292 0.868990
0.023668 0.184650 0.906826
0.020528 0.237476 0.020528
0.020869 0.237818 0.056590
0.021372 0.238321 0.109780
0.021893 0.238842 0.164818
0.022425 0.239373 0.221015
0.022965 0.239913 0.278069
0.023511 0.240459 0.335803
0.024063 0.241011 0.394104
0.024619 0.241567 0.452893
0.025179 0.242128 0.512107
0.025743 0.242692 0.571702
0.026310 0.243259 0.631641
0.026880 0.243829 0.691891
0.027453 0.244401 0.752430
0.028028 0.244977 0.813234
0.028606 0.245554 0.874286
0.028964 0.245912 0.912122
0.025898 0.299595 0.025898
0.026239 0.299936 0.061960
0.026742 0.300439 0.115150
0.027263 0.300960 0.170187
0.027795 0.301492 0.226385
0.028334 0.302032 0.283438
0.028881 0.302578 0.341173
0.029432 0.303130 0.399474
0.029988 0.303686 0.458262
0.030549 0.304246 0.517477
0.031113 0.304810 0.577072
0.031680 0.305377 0.637010
0.032250 0.305947 0.697261
0.032823 0.306520 0.757799
0.033398 0.307095 0.818604
0.033976 0.307673 0.879656
0.034334 0.308031 0.917491
0.031327 0.362406 0.031327
0.031668 0.362748 0.067389
0.032172 0.363251 0.120579
0.032692 0.363772 0.175617
0.033224 0.364303 0.231814
0.033764 0.364843 0.288868
0.034310 0.365389 0.346602
0.034862 0.365941 0.404904
0.035418 0.366497 0.463692
0.035978 0.367058 0.522907
0.036542 0.367621 0.582502
0.037109 0.368189 0.642440
0.037679 0.368759 0.702691
0.038252 0.369331 0.763229
0.038827 0.369907 0.824033
0.039405 0.370484 0.885085
0.039763 0.370842 0.922921
0.036807 0.425801 0.036807
0.037148 0.426142 0.072869
0.037652 0.426646 0.126059
0.038172 0.427166 0.181097
0.038704 0.427698 0.237294
0.039244 0.428238 0.294348
0.039790 0.428784 0.352082
0.040342 0.429336 0.410384
0.040898 0.429892 0.469172
0.041458 0.430452 0.528387
0.042022 0.431016 0.587982
0.042589 0.431583 0.647920
0.043159 0.432153 0.708171
0.043732 0.432726 0.768709
0.044307 0.433301 0.829513
0.044885 0.433879 0.890565
0.045243 0.434237 0.928401
0.042331 0.489700 0.042331
0.042672 0.490042 0.078393
0.043175 0.490545 0.131583
0.043696 0.491066 0.186620
0.044228 0.491597 0.242818
0.044767 0.492137 0.299871
0.045314 0.492683 0.357606
0.045865 0.493235 0.415907
0.046422 0.493791 0.474695
0.046982 0.494352 0.533910
0.047546 0.494915 0.593505
0.048113 0.495482 0.653443
0.048683 0.496053 0.713694
0.049256 0.496625 0.774232
0.049831 0.497201 0.835037
0.050409 0.497778 0.896089
0.050767 0.498136 0.933925
0.047893 0.554044 0.047893
0.048234 0.554386 0.083955
0.048737 0.554889 0.137145
0.049258 0.555410 0.192182
0.049790 0.555941 0.248380
0.050329 0.556481 0.305433
0.050876 0.557027 0.363168
0.051427 0.557579 0.421469
0.051984 0.558135 0.480257
0.052544 0.558696 0.539472
0.053108 0.559259 0.599067
0.053675 0.559827 0.659005
0.054245 0.560397 0.719256
0.054818 0.560969 0.779794
0.055393 0.561545 0.840599
0.055971 0.562122 0.901651
0.056329 0.562480 0.939487
0.053489 0.618786 0.053489
0.053830 0.619128 0.089551
0.054334 0.619631 0.142741
0.054854 0.620152 0.197779
0.055386 0.620683 0.253976
0.055926 0.621223 0.311030
0.056472 0.621770 0.368764
0.057024 0.622321 0.427066
0.057580 0.622877 0.485854
0.058140 0.623438 0.545069
0.058704 0.624002 0.604664
0.059271 0.624569 0.664602
0.059841 0.625139 0.724853
0.060414 0.625712 0.785391
0.060989 0.626287 0.846195
0.061567 0.626865 0.907247
0.061925 0.627222 0.945083
0.059117 0.683889 0.059117
0.059458 0.684230 0.095179
0.059961 0.684734 0.148369
0.060482 0.685254 0.203407
0.061014 0.685786 0.259604
0.061554 0.686326 0.316657
0.062100 0.686872 0.374392
0.062651 0.687424 0.432693
0.063208 0.687980 0.491481
0.063768 0.688540 0.550696
0.064332 0.689104 0.610291
0.064899 0.689671 0.670229
0.065469 0.690241 0.730480
0.066042 0.690814 0.791018
0.066617 0.691390 0.851823
0.067195 0.691967 0.912875
0.067553 0.692325 0.950711
0.064773 0.749321 0.064773
0.065114 0.749663 0.100835
0.065617 0.750166 0.154025
0.066138 0.750687 0.209063
0.066670 0.751218 0.265260
0.067210 0.751758 0.322313
0.067756 0.752305 0.380048
0.068307 0.752856 0.438349
0.068864 0.753412 0.497137
0.069424 0.753973 0.556352
0.069988 0.754537 0.615947
0.070555 0.755104 0.675885
0.071125 0.755674 0.736136
0.071698 0.756247 0.796675
0.072273 0.756822 0.857479
0.072851 0.757400 0.918531
0.073209 0.757757 0.956367
0.070455 0.815057 0.070455
0.070796 0.815399 0.106518
0.071300 0.815902 0.159708
0.071820 0.816423 0.214745
0.072352 0.816954 0.270943
0.072892 0.817494 0.327996
0.073438 0.818041 0.385730
0.073990 0.818592 0.444032
0.074546 0.819148 0.502820
0.075106 0.819709 0.562035
0.075670 0.820273 0.621630
0.076237 0.820840 0.681568
0.076807 0.821410 0.741819
0.077380 0.821983 0.802357
0.077956 0.822558 0.863161
0.078533 0.823135 0.924213
0.078891 0.823493 0.962049
0.076162 0.881075 0.076162
0.076503 0.881416 0.112224
0.077006 0.881920 0.165414
0.077527 0.882440 0.220452
0.078059 0.882972 0.276649
0.078599 0.883512 0.333702
0.079145 0.884058 0.391437
0.079697 0.884610 0.449738
0.080253 0.885166 0.508527
0.080813 0.885726 0.567741
0.081377 0.886290 0.627336
0.081944 0.886857 0.687274
0.082514 0.887427 0.747525
0.083087 0.888000 0.808064
0.083662 0.888575 0.868868
0.084240 0.889153 0.929920
0.084598 0.889511 0.967756
0.081891 0.947355 0.081891
0.082232 0.947697 0.117954
0.082736 0.948200 0.171144
0.083256 0.948721 0.226181
0.083788 0.949252 0.282379
0.084328 0.949792 0.339432
0.084874 0.950338 0.397166
0.085426 0.950890 0.455468
0.085982 0.951446 0.514256
0.086542 0.952007 0.573471
0.087106 0.952570 0.633066
0.087673 0.953138 0.693004
0.088244 0.953708 0.753255
0.088816 0.954280 0.813793
0.089392 0.954856 0.874597
0.089969 0.955433 0.935649
0.090327 0.955791 0.973485
0.018707 0.000512 0.000512
0.019048 0.000853 0.036574
0.019551 0.001356 0.089764
0.020072 0.001877 0.144802
0.020604 0.002409 0.200999
0.021144 0.002949 0.258052
0.021690 0.003495 0.315787
0.022242 0.004046 0.374088
0.022798 0.004603 0.432876
0.023358 0.005163 0.492091
0.023922 0.005727 0.551686
0.024489 0.006294 0.611624
0.025059 0.006864 0.671875
0.025632 0.007437 0.732413
0.026207 0.008012 0.793218
0.026785 0.008590 0.854270
0.027143 0.008948 0.892106
0.018955 0.003384 0.000760
0.019296 0.003725 0.036822
0.019800 0.004228 0.090012
0.020320 0.004749 0.145050
0.020852 0.005281 0.201247
0.021392 0.005820 0.258301
0.021938 0.006367 0.316035
0.022490 0.006918 0.374337
0.023046 0.007475 0.433125
0.023606 0.008035 0.492340
0.024170 0.008599 0.551935
0.024737 0.009166 0.611873
0.025307 0.009736 0.672123
0.025880 0.010309 0.732662
0.026455 0.010884 0.793466
0.027033 0.011462 0.854518
0.027391 0.011820 0.892354
0.023687 0.058124 0.005492
0.024028 0.058465 0.041554
0.024531 0.058968 0.094744
0.025052 0.059489 0.149782
0.025584 0.060020 0.205979
0.026124 0.060560 0.263032
0.026670 0.061107 0.320767
0.027222 0.061658 0.379068
0.027778 0.062214 0.437857
0.028338 0.062775 0.497071
0.028902 0.063339 0.556666
0.029469 0.063906 0.616604
0.030039 0.064476 0.676855
0.030612 0.065049 0.737394
0.031187 0.065624 0.798198
0.031765 0.066202 0.859250
0.032123 0.066560 0.897086
0.028741 0.116589 0.010546
0.029082 0.116930 0.046608
0.029585 0.117433 0.099798
0.030106 0.117954 0.154835
0.030638 0.118486 0.211033
0.031178 0.119025 0.268086
0.031724 0.119572 0.325821
0.032275 0.120123 0.384122
0.032832 0.120679 0.442910
0.033392 0.121240 0.502125
0.033956 0.121804 0.561720
0.034523 0.122371 0.621658
0.035093 0.122941 0.681909
0.035666 0.123514 0.742447
0.036241 0.124089 0.803252
0.036819 0.124667 0.864304
0.037177 0.125025 0.902140
0.033939 0.176725 0.015744
0.034280 0.177067 0.051806
0.034784 0.177570 0.104996
0.035304 0.178091 0.160034
0.035836 0.178622 0.216231
0.036376 0.179162 0.273285
0.036922 0.179709 0.331019
0.037474 0.180260 0.389321
0.038030 0.180816 0.448109
0.038590 0.181377 0.507324
0.039154 0.181941 0.566919
0.039721 0.182508 0.626857
0.040291 0.183078 0.687107
0.040864 0.183651 0.747646
0.041439 0.184226 0.808450
0.042017 0.184803 0.869502
0.042375 0.185161 0.907338
0.039235 0.237988 0.021040
0.039576 0.238329 0.057102
0.040079 0.238833 0.110292
0.040600 0.239353 0.165329
0.041132 0.239885 0.221527
0.041672 0.240425 0.278580
0.042218 0.240971 0.336315
0.042769 0.241523 0.394616
0.043326 0.242079 0.453404
0.043886 0.242639 0.512619
0.044450 0.243203 0.572214
0.045017 0.243770 0.632152
0.045587 0.244340 0.692403
0.046160 0.244913 0.752941
0.046735 0.245489 0.813746
0.047313 0.246066 0.874798
0.047671 0.246424 0.912634
0.044604 0.300107 0.026409
0.044946 0.300448 0.062472
0.045449 0.300951 0.115662
0.045970 0.301472 0.170699
0.046501 0.302004 0.226897
0.047041 0.302544 0.283950
0.047587 0.303090 0.341684
0.048139 0.303641 0.399986
0.048695 0.304198 0.458774
0.049256 0.304758 0.517989
0.049820 0.305322 0.577584
0.050387 0.305889 0.637522
0.050957 0.306459 0.697773
0.051529 0.307032 0.758311
0.052105 0.307607 0.819115
0.052682 0.308185 0.880167
0.053040 0.308543 0.918003
0.050034 0.362918 0.031839
0.050375 0.363259 0.067901
0.050878 0.363763 0.121091
0.051399 0.364283 0.176129
0.051931 0.364815 0.232326
0.052471 0.365355 0.289380
0.053017 0.365901 0.347114
0.053569 0.366453 0.405415
0.054125 0.367009 0.464204
0.054685 0.367569 0.523418
0.055249 0.368133 0.583013
0.055816 0.368700 0.642952
0.056386 0.369270 0.703202
0.056959 0.369843 0.763741
0.057534 0.370419 0.824545
0.058112 0.370996 0.885597
0.058470 0.371354 0.923433
0.055514 0.426313 0.037319
0.055855 0.426654 0.073381
0.056358 0.427157 0.126571
0.056879 0.427678 0.181609
0.057411 0.428210 0.237806
0.057951 0.428750 0.294859
0.058497 0.429296 0.352594
0.059049 0.429848 0.410895
0.059605 0.430404 0.469684
0.060165 0.430964 0.528898
0.060729 0.431528 0.588493
0.061296 0.432095 0.648431
0.061866 0.432665 0.708682
0.062439 0.433238 0.769221
0.063014 0.433813 0.830025
0.063592 0.434391 0.891077
0.063950 0.434749 0.928913
0.061038 0.490212 0.042842
0.061379 0.490553 0.078905
0.061882 0.491057 0.132095
0.062403 0.491577 0.187132
0.062934 0.492109 0.243330
0.063474 0.492649 0.300383
0.064021 0.493195 0.358117
0.064572 0.493747 0.416419
0.065128 0.494303 0.475207
0.065689 0.494863 0.534422
0.066253 0.495427 0.594017
0.066820 0.495994 0.653955
0.067390 0.496564 0.714206
0.067963 0.497137 0.774744
0.068538 0.497712 0.835548
0.069116 0.498290 0.896600
0.069474 0.498648 0.934436
0.066600 0.554556 0.048404
0.066941 0.554897 0.084467
0.067444 0.555401 0.137657
0.067965 0.555921 0.192694
0.068497 0.556453 0.248892
0.069036 0.556993 0.305945
0.069583 0.557539 0.363679
0.070134 0.558091 0.421981
0.070690 0.558647 0.480769
0.071251 0.559207 0.539984
0.071815 0.559771 0.599579
0.072382 0.560338 0.659517
0.072952 0.560908 0.719768
0.073525 0.561481 0.780306
0.074100 0.562056 0.841110
0.074678 0.562634 0.902162
0.075036 0.562992 0.939998
0.072196 0.619298 0.054001
0.072537 0.619639 0.090063
0.073040 0.620143 0.143253
0.073561 0.620664 0.198291
0.074093 0.621195 0.254488
0.074633 0.621735 0.311542
0.075179 0.622281 0.369276
0.075731 0.622833 0.427577
0.076287 0.623389 0.486366
0.076847 0.623949 0.545580
0.077411 0.624513 0.605175
0.077978 0.625080 0.665114
0.078548 0.625651 0.725364
0.079121 0.626223 0.785903
0.079696 0.626799 0.846707
0.080274 0.627376 0.907759
0.080632 0.627734 0.945595
0.077824 0.684401 0.059629
0.078165 0.684742 0.095691
0.078668 0.685245 0.148881
0.079189 0.685766 0.203918
0.079721 0.686298 0.260116
0.080260 0.686838 0.317169
0.080807 0.687384 0.374903
0.081358 0.687936 0.433205
0.081915 0.688492 0.491993
0.082475 0.689052 0.551208
0.083039 0.689616 0.610803
0.083606 0.690183 0.670741
0.084176 0.690753 0.730992
0.084749 0.691326 0.791530
0.085324 0.691901 0.852335
0.085902 0.692479 0.913386
0.086260 0.692837 0.951222
0.083480 0.749833 0.065285
0.083821 0.750174 0.101347
0.084324 0.750678 0.154537
0.084845 0.751199 0.209574
0.085377 0.751730 0.265772
0.085916 0.752270 0.322825
0.086463 0.752816 0.380560
0.087014 0.753368 0.438861
0.087571 0.753924 0.497649
0.088131 0.754484 0.556864
0.088695 0.755048 0.616459
0.089262 0.755615 0.676397
0.089832 0.756186 0.736648
0.090405 0.756758 0.797186
0.090980 0.757334 0.857991
0.091558 0.757911 0.919043
0.091916 0.758269 0.956878
0.089162 0.815569 0.070967
0.089503 0.815910 0.107029
0.090007 0.816414 0.160219
0.090527 0.816934 0.215257
0.091059 0.817466 0.271454
0.091599 0.818006 0.328508
0.092145 0.818552 0.386242
0.092697 0.819104 0.444543
0.093253 0.819660 0.503332
0.093813 0.820220 0.562546
0.094377 0.820784 0.622141
0.094944 0.821351 0.682080
0.095514 0.821921 0.742330
0.096087 0.822494 0.802869
0.096662 0.823070 0.863673
0.097240 0.823647 0.924725
0.097598 0.824005 0.962561
0.094869 0.881587 0.076674
0.095210 0.881928 0.112736
0.095713 0.882431 0.165926
0.096234 0.882952 0.220963
0.096766 0.883484 0.277161
0.097306 0.884024 0.334214
0.097852 0.884570 0.391949
0.098403 0.885122 0.450250
0.098960 0.885678 0.509038
0.099520 0.886238 0.568253
0.100084 0.886802 0.627848
0.100651 0.887369 0.687786
0.101221 0.887939 0.748037
0.101794 0.888512 0.808575
0.102369 0.889087 0.869380
0.102947 0.889665 0.930432
0.103305 0.890023 0.968268
0.100598 0.947867 0.082403
0.100939 0.948208 0.118465
0.101443 0.948712 0.171655
0.101963 0.949232 0.226693
0.102495 0.949764 0.282890
0.103035 0.950304 0.339944
0.103581 0.950850 0.397678
0.104133 0.951402 0.455980
0.104689 0.951958 0.514768
0.105249 0.952518 0.573983
0.105813 0.953082 0.633578
0.106380 0.953649 0.693516
0.106950 0.954219 0.753766
0.107523 0.954792 0.814305
0.108098 0.955367 0.875109
0.108676 0.955945 0.936161
0.109034 0.956303 0.973997
0.071804 0.001964 0.001964
0.072145 0.002306 0.038027
0.072648 0.002809 0.091217
0.073169 0.003330 0.146254
0.073701 0.003861 0.202452
0.074240 0.004401 0.259505
0.074787 0.004947 0.317239
0.075338 0.005499 0.375541
0.075895 0.006055 0.434329
0.076455 0.006616 0.493544
0.077019 0.007179 0.553139
0.077586 0.007747 0.613077
0.078156 0.008317 0.673328
0.078729 0.008889 0.733866
0.079304 0.009465 0.794670
0.079882 0.010042 0.855722
0.080240 0.010400 0.893558
0.072052 0.004836 0.002213
