skills/editops-orchestrator/assets/grade/luts/night_blue_v15.cube
TITLE "night_blue_v15"
LUT_3D_SIZE 9
DOMAIN_MIN 0.0 0.0 0.0
DOMAIN_MAX 1.0 1.0 1.0
0.000000 0.000000 0.000000
0.001007 0.001007 0.077815
0.002389 0.002389 0.184641
0.003839 0.003839 0.296646
0.005332 0.005332 0.412013
0.006858 0.006858 0.529900
0.008409 0.008409 0.649815
0.009983 0.009983 0.771431
0.011096 0.011096 0.857412
0.003420 0.029757 0.003420
0.004428 0.030764 0.081236
0.005810 0.032147 0.188061
0.007259 0.033596 0.300067
0.008752 0.035089 0.415434
0.010278 0.036615 0.533321
0.011830 0.038167 0.653236
0.013404 0.039741 0.774852
0.014516 0.040853 0.860832
0.016526 0.143775 0.016526
0.017533 0.144782 0.094342
0.018916 0.146165 0.201167
0.020365 0.147614 0.313173
0.021858 0.149107 0.428540
0.023384 0.150633 0.546427
0.024936 0.152185 0.666341
0.026510 0.153759 0.787958
0.027622 0.154871 0.873938
0.030589 0.266115 0.030589
0.031596 0.267122 0.108404
0.032978 0.268504 0.215229
0.034428 0.269954 0.327235
0.035921 0.271447 0.442602
0.037446 0.272972 0.560489
0.038998 0.274524 0.680404
0.040572 0.276098 0.802020
0.041685 0.277211 0.888001
0.045175 0.393010 0.045175
0.046182 0.394017 0.122990
0.047564 0.395399 0.229816
0.049014 0.396849 0.341821
0.050507 0.398342 0.457188
0.052032 0.399867 0.575075
0.053584 0.401419 0.694990
0.055158 0.402993 0.816606
0.056271 0.404106 0.902587
0.060131 0.523126 0.060131
0.061138 0.524133 0.137947
0.062521 0.525515 0.244772
0.063970 0.526965 0.356778
0.065463 0.528458 0.472145
0.066989 0.529983 0.590032
0.068541 0.531535 0.709946
0.070115 0.533109 0.831562
0.071227 0.534222 0.917543
0.075376 0.655754 0.075376
0.076383 0.656761 0.153192
0.077766 0.658143 0.260017
0.079215 0.659593 0.372023
0.080708 0.661086 0.487390
0.082234 0.662611 0.605277
0.083786 0.664163 0.725191
0.085360 0.665737 0.846808
0.086472 0.666850 0.932788
0.090859 0.790449 0.090859
0.091866 0.791456 0.168675
0.093248 0.792839 0.275500
0.094698 0.794288 0.387505
0.096191 0.795781 0.502872
0.097717 0.797307 0.620760
0.099268 0.798859 0.740674
0.100842 0.800432 0.862290
0.101955 0.801545 0.948271
0.106544 0.926906 0.106544
0.107551 0.927913 0.184360
0.108934 0.929296 0.291185
0.110383 0.930745 0.403191
0.111876 0.932238 0.518558
0.113402 0.933764 0.636445
0.114954 0.935316 0.756359
0.116528 0.936890 0.877975
0.117640 0.938002 0.963956
0.000000 0.000000 0.000000
0.001007 0.001007 0.077815
0.002389 0.002389 0.184641
0.003839 0.003839 0.296646
0.005332 0.005332 0.412013
0.006858 0.006858 0.529900
0.008409 0.008409 0.649815
0.009983 0.009983 0.771431
0.011096 0.011096 0.857412
0.003420 0.029757 0.003420
0.004428 0.030764 0.081236
0.005810 0.032147 0.188061
0.007259 0.033596 0.300067
0.008752 0.035089 0.415434
0.010278 0.036615 0.533321
0.011830 0.038167 0.653236
0.013404 0.039741 0.774852
0.014516 0.040853 0.860832
0.016526 0.143775 0.016526
0.017533 0.144782 0.094342
0.018916 0.146165 0.201167
0.020365 0.147614 0.313173
0.021858 0.149107 0.428540
0.023384 0.150633 0.546427
0.024936 0.152185 0.666341
0.026510 0.153759 0.787958
0.027622 0.154871 0.873938
0.030589 0.266115 0.030589
0.031596 0.267122 0.108404
0.032978 0.268504 0.215229
0.034428 0.269954 0.327235
0.035921 0.271447 0.442602
0.037446 0.272972 0.560489
0.038998 0.274524 0.680404
0.040572 0.276098 0.802020
0.041685 0.277211 0.888001
0.045175 0.393010 0.045175
0.046182 0.394017 0.122990
0.047564 0.395399 0.229816
0.049014 0.396849 0.341821
0.050507 0.398342 0.457188
0.052032 0.399867 0.575075
0.053584 0.401419 0.694990
0.055158 0.402993 0.816606
0.056271 0.404106 0.902587
0.060131 0.523126 0.060131
0.061138 0.524133 0.137947
0.062521 0.525515 0.244772
0.063970 0.526965 0.356778
0.065463 0.528458 0.472145
0.066989 0.529983 0.590032
0.068541 0.531535 0.709946
0.070115 0.533109 0.831562
0.071227 0.534222 0.917543
0.075376 0.655754 0.075376
0.076383 0.656761 0.153192
0.077766 0.658143 0.260017
0.079215 0.659593 0.372023
0.080708 0.661086 0.487390
0.082234 0.662611 0.605277
0.083786 0.664163 0.725191
0.085360 0.665737 0.846808
0.086472 0.666850 0.932788
0.090859 0.790449 0.090859
0.091866 0.791456 0.168675
0.093248 0.792839 0.275500
0.094698 0.794288 0.387505
0.096191 0.795781 0.502872
0.097717 0.797307 0.620760
0.099268 0.798859 0.740674
0.100842 0.800432 0.862290
0.101955 0.801545 0.948271
0.106544 0.926906 0.106544
0.107551 0.927913 0.184360
0.108934 0.929296 0.291185
0.110383 0.930745 0.403191
0.111876 0.932238 0.518558
0.113402 0.933764 0.636445
0.114954 0.935316 0.756359
0.116528 0.936890 0.877975
0.117640 0.938002 0.963956
0.076890 0.002858 0.002858
0.077897 0.003865 0.080674
0.079279 0.005248 0.187499
0.080729 0.006697 0.299505
0.082222 0.008190 0.414871
0.083747 0.009716 0.532759
0.085299 0.011268 0.652673
0.086873 0.012841 0.774289
0.087986 0.013954 0.860270
0.080310 0.032615 0.006279
0.081317 0.033622 0.084094
0.082700 0.035005 0.190919
0.084149 0.036454 0.302925
0.085642 0.037947 0.418292
0.087168 0.039473 0.536179
0.088719 0.041025 0.656094
0.090293 0.042599 0.777710
0.091406 0.043711 0.863690
0.093416 0.146633 0.019384
0.094423 0.147640 0.097200
0.095805 0.149023 0.204025
0.097255 0.150472 0.316031
0.098748 0.151965 0.431398
0.100274 0.153491 0.549285
0.101825 0.155043 0.669200
0.103399 0.156617 0.790816
0.104512 0.157729 0.876796
0.107478 0.268973 0.033447
0.108485 0.269980 0.111262
0.109868 0.271362 0.218088
0.111317 0.272812 0.330093
0.112810 0.274305 0.445460
0.114336 0.275830 0.563347
0.115888 0.277382 0.683262
0.117462 0.278956 0.804878
0.118574 0.280069 0.890859
0.122064 0.395868 0.048033
0.123071 0.396875 0.125848
0.124454 0.398257 0.232674
0.125903 0.399707 0.344679
0.127396 0.401200 0.460046
0.128922 0.402725 0.577933
0.130474 0.404277 0.697848
0.132048 0.405851 0.819464
0.133160 0.406964 0.905445
0.137021 0.525984 0.062989
0.138028 0.526991 0.140805
0.139410 0.528373 0.247630
0.140860 0.529823 0.359636
0.142353 0.531316 0.475003
0.143878 0.532841 0.592890
0.145430 0.534393 0.712804
0.147004 0.535967 0.834421
0.148117 0.537080 0.920401
0.152266 0.658612 0.078234
0.153273 0.659619 0.156050
0.154655 0.661001 0.262875
0.156105 0.662451 0.374881
0.157598 0.663944 0.490248
0.159123 0.665469 0.608135
0.160675 0.667021 0.728049
0.162249 0.668595 0.849666
0.163362 0.669708 0.935646
0.167749 0.793307 0.093717
0.168756 0.794314 0.171533
0.170138 0.795697 0.278358
0.171588 0.797146 0.390364
0.173081 0.798639 0.505730
0.174606 0.800165 0.623618
0.176158 0.801717 0.743532
0.177732 0.803291 0.865148
0.178845 0.804403 0.951129
0.183434 0.929764 0.109402
0.184441 0.930772 0.187218
0.185823 0.932154 0.294043
0.187273 0.933603 0.406049
0.188766 0.935096 0.521416
0.190291 0.936622 0.639303
0.191843 0.938174 0.759217
0.193417 0.939748 0.880834
0.194530 0.940860 0.966814
0.186206 0.006922 0.006922
0.187213 0.007929 0.084737
0.188596 0.009311 0.191562
0.190045 0.010761 0.303568
0.191538 0.012254 0.418935
0.193064 0.013779 0.536822
0.194616 0.015331 0.656737
0.196190 0.016905 0.778353
0.197302 0.018018 0.864333
0.189627 0.036679 0.010342
0.190634 0.037686 0.088158
0.192016 0.039068 0.194983
0.193466 0.040518 0.306988
0.194959 0.042011 0.422355
0.196484 0.043536 0.540243
0.198036 0.045088 0.660157
0.199610 0.046662 0.781773
0.200723 0.047775 0.867754
0.202733 0.150697 0.023448
0.203740 0.151704 0.101263
0.205122 0.153086 0.208089
0.206572 0.154536 0.320094
0.208065 0.156029 0.435461
0.209590 0.157554 0.553348
0.211142 0.159106 0.673263
0.212716 0.160680 0.794879
0.213829 0.161793 0.880860
0.216795 0.273036 0.037510
0.217802 0.274043 0.115326
0.219185 0.275426 0.222151
0.220634 0.276875 0.334157
0.222127 0.278368 0.449524
0.223653 0.279894 0.567411
0.225205 0.281446 0.687325
0.226779 0.283019 0.808942
0.227891 0.284132 0.894922
0.231381 0.399931 0.052096
0.232388 0.400938 0.129912
0.233771 0.402321 0.236737
0.235220 0.403770 0.348743
0.236713 0.405263 0.464110
0.238239 0.406789 0.581997
0.239791 0.408341 0.701912
0.241365 0.409914 0.823528
0.242477 0.411027 0.909508
0.246338 0.530047 0.067053
0.247345 0.531054 0.144868
0.248727 0.532437 0.251693
0.250177 0.533886 0.363699
0.251670 0.535379 0.479066
0.253195 0.536905 0.596953
0.254747 0.538457 0.716868
0.256321 0.540030 0.838484
0.257434 0.541143 0.924465
0.261583 0.662675 0.082298
0.262590 0.663682 0.160113
0.263972 0.665065 0.266938
0.265422 0.666514 0.378944
0.266915 0.668007 0.494311
0.268440 0.669533 0.612198
0.269992 0.671085 0.732113
0.271566 0.672658 0.853729
0.272679 0.673771 0.939710
0.277065 0.797371 0.097781
0.278072 0.798378 0.175596
0.279455 0.799760 0.282421
0.280904 0.801210 0.394427
0.282397 0.802703 0.509794
0.283923 0.804228 0.627681
0.285475 0.805780 0.747596
0.287049 0.807354 0.869212
0.288161 0.808467 0.955192
0.292751 0.933828 0.113466
0.293758 0.934835 0.191281
0.295140 0.936217 0.298106
0.296590 0.937667 0.410112
0.298083 0.939160 0.525479
0.299608 0.940686 0.643366
0.301160 0.942237 0.763281
0.302734 0.943811 0.884897
0.303847 0.944924 0.970878
0.300918 0.011186 0.011186
0.301925 0.012193 0.089001
0.303308 0.013575 0.195826
0.304757 0.015025 0.307832
0.306250 0.016518 0.423199
0.307776 0.018043 0.541086
0.309327 0.019595 0.661001
0.310901 0.021169 0.782617
0.312014 0.022282 0.868597
0.304339 0.040943 0.014606
0.305346 0.041950 0.092422
0.306728 0.043332 0.199247
0.308178 0.044782 0.311252
0.309671 0.046275 0.426619
0.311196 0.047800 0.544507
0.312748 0.049352 0.664421
0.314322 0.050926 0.786037
0.315435 0.052039 0.872018
0.317444 0.154961 0.027712
0.318451 0.155968 0.105527
0.319834 0.157350 0.212353
0.321283 0.158800 0.324358
0.322776 0.160293 0.439725
0.324302 0.161818 0.557612
0.325854 0.163370 0.677527
0.327428 0.164944 0.799143
0.328540 0.166057 0.885124
0.331507 0.277300 0.041774
0.332514 0.278307 0.119590
0.333896 0.279690 0.226415
0.335346 0.281139 0.338421
0.336839 0.282632 0.453788
0.338364 0.284158 0.571675
0.339916 0.285710 0.691589
0.341490 0.287283 0.813206
0.342603 0.288396 0.899186
0.346093 0.404195 0.056360
0.347100 0.405202 0.134176
0.348482 0.406585 0.241001
0.349932 0.408034 0.353007
0.351425 0.409527 0.468374
0.352951 0.411053 0.586261
0.354502 0.412605 0.706176
0.356076 0.414178 0.827792
0.357189 0.415291 0.913772
0.361049 0.534311 0.071317
0.362056 0.535318 0.149132
0.363439 0.536701 0.255957
0.364888 0.538150 0.367963
0.366381 0.539643 0.483330
0.367907 0.541169 0.601217
0.369459 0.542721 0.721132
0.371033 0.544294 0.842748
0.372145 0.545407 0.928729
0.376294 0.666939 0.086562
0.377301 0.667946 0.164377
0.378684 0.669329 0.271202
0.380133 0.670778 0.383208
0.381626 0.672271 0.498575
0.383152 0.673797 0.616462
0.384704 0.675349 0.736377
0.386278 0.676922 0.857993
0.387390 0.678035 0.943974
0.391777 0.801635 0.102045
0.392784 0.802642 0.179860
0.394167 0.804024 0.286685
0.395616 0.805474 0.398691
0.397109 0.806967 0.514058
0.398635 0.808492 0.631945
0.400187 0.810044 0.751860
0.401760 0.811618 0.873476
0.402873 0.812731 0.959456
0.407462 0.938092 0.117730
0.408469 0.939099 0.195545
0.409852 0.940481 0.302370
0.411301 0.941931 0.414376
0.412794 0.943424 0.529743
0.414320 0.944950 0.647630
0.415872 0.946501 0.767545
0.417446 0.948075 0.889161
0.418558 0.949188 0.975142
0.419108 0.015579 0.015579
0.420115 0.016586 0.093394
0.421497 0.017968 0.200219
0.422947 0.019418 0.312225
0.424440 0.020911 0.427592
0.425965 0.022436 0.545479
0.427517 0.023988 0.665394
0.429091 0.025562 0.787010
0.430204 0.026675 0.872991
0.422528 0.045336 0.018999
0.423535 0.046343 0.096815
0.424918 0.047726 0.203640
0.426367 0.049175 0.315646
0.427860 0.050668 0.431013
0.429386 0.052194 0.548900
0.430938 0.053745 0.668814
0.432512 0.055319 0.790431
0.433624 0.056432 0.876411
0.435634 0.159354 0.032105
0.436641 0.160361 0.109921
0.438024 0.161744 0.216746
0.439473 0.163193 0.328752
0.440966 0.164686 0.444119
0.442492 0.166212 0.562006
0.444044 0.167764 0.681920
0.445617 0.169337 0.803536
0.446730 0.170450 0.889517
0.449697 0.281693 0.046168
0.450704 0.282700 0.123983
0.452086 0.284083 0.230808
0.453536 0.285532 0.342814
0.455029 0.287025 0.458181
0.456554 0.288551 0.576068
0.458106 0.290103 0.695983
0.459680 0.291677 0.817599
0.460793 0.292789 0.903579
0.464283 0.408588 0.060754
0.465290 0.409595 0.138569
0.466672 0.410978 0.245394
0.468122 0.412427 0.357400
0.469615 0.413920 0.472767
0.471140 0.415446 0.590654
0.472692 0.416998 0.710569
0.474266 0.418572 0.832185
0.475379 0.419684 0.918166
0.479239 0.538704 0.075710
0.480246 0.539711 0.153526
0.481628 0.541094 0.260351
0.483078 0.542543 0.372356
0.484571 0.544036 0.487723
0.486097 0.545562 0.605611
0.487648 0.547114 0.725525
0.489222 0.548688 0.847141
0.490335 0.549800 0.933122
0.494484 0.671332 0.090955
0.495491 0.672339 0.168771
0.496874 0.673722 0.275596
0.498323 0.675171 0.387602
0.499816 0.676664 0.502968
0.501342 0.678190 0.620856
0.502894 0.679742 0.740770
0.504467 0.681316 0.862386
0.505580 0.682428 0.948367
0.509967 0.806028 0.106438
0.510974 0.807035 0.184253
0.512356 0.808417 0.291078
0.513806 0.809867 0.403084
0.515299 0.811360 0.518451
0.516824 0.812886 0.636338
0.518376 0.814437 0.756253
0.519950 0.816011 0.877869
0.521063 0.817124 0.963850
0.525652 0.942485 0.122123
0.526659 0.943492 0.199939
0.528042 0.944875 0.306764
0.529491 0.946324 0.418770
0.530984 0.947817 0.534136
0.532510 0.949343 0.652024
0.534061 0.950895 0.771938
0.535635 0.952469 0.893554
0.536748 0.953581 0.979535
0.539899 0.020069 0.020069
0.540906 0.021076 0.097884
0.542288 0.022458 0.204709
0.543738 0.023908 0.316715
0.545231 0.025401 0.432082
0.546756 0.026926 0.549969
0.548308 0.028478 0.669884
0.549882 0.030052 0.791500
0.550995 0.031165 0.877481
0.543319 0.049826 0.023489
0.544326 0.050833 0.101305
0.545709 0.052215 0.208130
0.547158 0.053665 0.320136
0.548651 0.055158 0.435503
0.550177 0.056684 0.553390
0.551729 0.058235 0.673304
0.553302 0.059809 0.794920
0.554415 0.060922 0.880901
0.556425 0.163844 0.036595
0.557432 0.164851 0.114411
0.558815 0.166234 0.221236
0.560264 0.167683 0.333242
0.561757 0.169176 0.448609
0.563283 0.170702 0.566496
0.564835 0.172254 0.686410
0.566408 0.173827 0.808026
0.567521 0.174940 0.894007
0.570488 0.286183 0.050658
0.571495 0.287190 0.128473
0.572877 0.288573 0.235298
0.574326 0.290022 0.347304
0.575819 0.291515 0.462671
0.577345 0.293041 0.580558
0.578897 0.294593 0.700473
0.580471 0.296167 0.822089
0.581584 0.297279 0.908069
0.585074 0.413078 0.065244
0.586081 0.414085 0.143059
0.587463 0.415468 0.249884
0.588913 0.416917 0.361890
0.590406 0.418410 0.477257
0.591931 0.419936 0.595144
0.593483 0.421488 0.715059
0.595057 0.423062 0.836675
0.596170 0.424174 0.922655
0.600030 0.543194 0.080200
0.601037 0.544201 0.158016
0.602419 0.545584 0.264841
0.603869 0.547033 0.376846
0.605362 0.548526 0.492213
0.606887 0.550052 0.610101
0.608439 0.551604 0.730015
0.610013 0.553178 0.851631
0.611126 0.554290 0.937612
0.615275 0.675822 0.095445
0.616282 0.676829 0.173261
0.617664 0.678212 0.280086
0.619114 0.679661 0.392092
0.620607 0.681154 0.507458
0.622133 0.682680 0.625346
0.623684 0.684232 0.745260
0.625258 0.685806 0.866876
0.626371 0.686918 0.952857
0.630758 0.810518 0.110928
0.631765 0.811525 0.188743
0.633147 0.812907 0.295568
0.634597 0.814357 0.407574
0.636090 0.815850 0.522941
0.637615 0.817376 0.640828
0.639167 0.818927 0.760743
0.640741 0.820501 0.882359
0.641854 0.821614 0.968340
0.646443 0.946975 0.126613
0.647450 0.947982 0.204429
0.648832 0.949365 0.311254
0.650282 0.950814 0.423259
0.651775 0.952307 0.538626
0.653300 0.953833 0.656514
0.654852 0.955385 0.776428
0.656426 0.956958 0.898044
0.657539 0.958071 0.984025
0.662779 0.024636 0.024636
0.663786 0.025643 0.102452
0.665169 0.027026 0.209277
0.666618 0.028475 0.321283
0.668111 0.029968 0.436650
0.669637 0.031494 0.554537
0.671189 0.033046 0.674452
0.672762 0.034620 0.796068
0.673875 0.035732 0.882048
0.666200 0.054394 0.028057
0.667207 0.055401 0.105872
0.668589 0.056783 0.212698
0.670039 0.058233 0.324703
0.671532 0.059726 0.440070
0.673057 0.061251 0.557957
0.674609 0.062803 0.677872
0.676183 0.064377 0.799488
0.677296 0.065490 0.885469
0.679306 0.168412 0.041163
0.680313 0.169419 0.118978
0.681695 0.170801 0.225803
0.683145 0.172251 0.337809
0.684638 0.173744 0.453176
0.686163 0.175269 0.571063
0.687715 0.176821 0.690978
0.689289 0.178395 0.812594
0.690402 0.179508 0.898575
0.693368 0.290751 0.055225
0.694375 0.291758 0.133041
0.695757 0.293141 0.239866
0.697207 0.294590 0.351872
0.698700 0.296083 0.467239
0.700226 0.297609 0.585126
0.701777 0.299160 0.705040
0.703351 0.300734 0.826656
0.704464 0.301847 0.912637
0.707954 0.417646 0.069811
0.708961 0.418653 0.147627
0.710344 0.420035 0.254452
0.711793 0.421485 0.366458
0.713286 0.422978 0.481825
0.714812 0.424504 0.599712
0.716363 0.426055 0.719626
0.717937 0.427629 0.841243
0.719050 0.428742 0.927223
0.722910 0.547762 0.084768
0.723917 0.548769 0.162583
0.725300 0.550151 0.269408
0.726749 0.551601 0.381414
0.728242 0.553094 0.496781
0.729768 0.554620 0.614668
0.731320 0.556171 0.734583
0.732894 0.557745 0.856199
0.734006 0.558858 0.942179
0.738155 0.680390 0.100013
0.739162 0.681397 0.177828
0.740545 0.682779 0.284653
0.741994 0.684229 0.396659
0.743487 0.685722 0.512026
0.745013 0.687248 0.629913
0.746565 0.688799 0.749828
0.748139 0.690373 0.871444
0.749251 0.691486 0.957425
0.753638 0.815086 0.115495
0.754645 0.816093 0.193311
0.756028 0.817475 0.300136
0.757477 0.818925 0.412142
0.758970 0.820418 0.527509
0.760496 0.821943 0.645396
0.762048 0.823495 0.765311
0.763621 0.825069 0.886927
0.764734 0.826182 0.972907
0.769323 0.951543 0.131181
0.770330 0.952550 0.208996
0.771713 0.953932 0.315821
0.773162 0.955382 0.427827
0.774655 0.956875 0.543194
0.776181 0.958400 0.661081
0.777733 0.959952 0.780996
0.779307 0.961526 0.902612
0.780419 0.962639 0.988592
0.787412 0.029269 0.029269
0.788419 0.030276 0.107085
0.789801 0.031659 0.213910
0.791251 0.033108 0.325916
0.792744 0.034601 0.441283
0.794269 0.036127 0.559170
0.795821 0.037679 0.679084
0.797395 0.039253 0.800700
0.798508 0.040365 0.886681
0.790832 0.059026 0.032690
0.791839 0.060033 0.110505
0.793222 0.061416 0.217330
0.794671 0.062865 0.329336
0.796164 0.064358 0.444703
0.797690 0.065884 0.562590
0.799241 0.067436 0.682505
0.800815 0.069010 0.804121
0.801928 0.070122 0.890101
0.803938 0.173044 0.045796
0.804945 0.174052 0.123611
0.806327 0.175434 0.230436
0.807777 0.176883 0.342442
0.809270 0.178376 0.457809
0.810796 0.179902 0.575696
0.812347 0.181454 0.695611
0.813921 0.183028 0.817227
0.815034 0.184140 0.903207
0.818000 0.295384 0.059858
0.819007 0.296391 0.137674
0.820390 0.297773 0.244499
0.821839 0.299223 0.356504
0.823332 0.300716 0.471871
0.824858 0.302241 0.589759
0.826410 0.303793 0.709673
0.827984 0.305367 0.831289
0.829096 0.306480 0.917270
0.832586 0.422279 0.074444
0.833593 0.423286 0.152260
0.834976 0.424668 0.259085
0.836425 0.426118 0.371091
0.837918 0.427611 0.486457
0.839444 0.429136 0.604345
0.840996 0.430688 0.724259
0.842570 0.432262 0.845875
0.843682 0.433375 0.931856
0.847543 0.552395 0.089400
0.848550 0.553402 0.167216
0.849932 0.554784 0.274041
0.851382 0.556234 0.386047
0.852875 0.557727 0.501414
0.854400 0.559252 0.619301
0.855952 0.560804 0.739216
0.857526 0.562378 0.860832
0.858639 0.563491 0.946812
0.862788 0.685023 0.104645
0.863795 0.686030 0.182461
0.865177 0.687412 0.289286
0.866627 0.688862 0.401292
0.868120 0.690355 0.516659
0.869645 0.691880 0.634546
0.871197 0.693432 0.754461
0.872771 0.695006 0.876077
0.873884 0.696119 0.962057
0.878271 0.819718 0.120128
0.879278 0.820725 0.197944
0.880660 0.822108 0.304769
0.882110 0.823557 0.416775
0.883603 0.825050 0.532142
0.885128 0.826576 0.650029
0.886680 0.828128 0.769943
0.888254 0.829702 0.891559
0.889367 0.830814 0.977540
0.893956 0.956176 0.135813
0.894963 0.957183 0.213629
0.896345 0.958565 0.320454
0.897795 0.960015 0.432460
0.899288 0.961508 0.547827
0.900813 0.963033 0.665714
0.902365 0.964585 0.785629
0.903939 0.966159 0.907245
0.905052 0.967272 0.993225
