skills/editops-orchestrator/assets/grade/luts/night_blue_v19.cube
TITLE "night_blue_v19"
LUT_3D_SIZE 17
DOMAIN_MIN 0.0 0.0 0.0
DOMAIN_MAX 1.0 1.0 1.0
0.000000 0.000000 0.000000
0.000361 0.000361 0.023964
0.001082 0.001082 0.071835
0.001851 0.001851 0.122951
0.002651 0.002651 0.176059
0.003473 0.003473 0.230635
0.004312 0.004312 0.286379
0.005166 0.005166 0.343099
0.006033 0.006033 0.400658
0.006911 0.006911 0.458956
0.007798 0.007798 0.517912
0.008695 0.008695 0.577466
0.009600 0.009600 0.637564
0.010512 0.010512 0.698166
0.011432 0.011432 0.759233
0.012358 0.012358 0.820736
0.012616 0.012616 0.837879
0.000000 0.000000 0.000000
0.000361 0.000361 0.023964
0.001082 0.001082 0.071835
0.001851 0.001851 0.122951
0.002651 0.002651 0.176059
0.003473 0.003473 0.230635
0.004312 0.004312 0.286379
0.005166 0.005166 0.343099
0.006033 0.006033 0.400658
0.006911 0.006911 0.458956
0.007798 0.007798 0.517912
0.008695 0.008695 0.577466
0.009600 0.009600 0.637564
0.010512 0.010512 0.698166
0.011432 0.011432 0.759233
0.012358 0.012358 0.820736
0.012616 0.012616 0.837879
0.002060 0.015661 0.002060
0.002420 0.016022 0.026024
0.003141 0.016743 0.073895
0.003911 0.017512 0.125010
0.004711 0.018312 0.178119
0.005532 0.019134 0.232695
0.006372 0.019973 0.288439
0.007226 0.020827 0.345159
0.008092 0.021694 0.402718
0.008970 0.022571 0.461015
0.009858 0.023459 0.519972
0.010755 0.024356 0.579525
0.011660 0.025261 0.639624
0.012572 0.026173 0.700225
0.013491 0.027093 0.761293
0.014418 0.028019 0.822795
0.014676 0.028277 0.839939
0.009022 0.068597 0.009022
0.009383 0.068958 0.032986
0.010103 0.069679 0.080857
0.010873 0.070448 0.131972
0.011673 0.071248 0.185081
0.012494 0.072070 0.239657
0.013334 0.072909 0.295401
0.014188 0.073763 0.352121
0.015054 0.074630 0.409680
0.015932 0.075508 0.467977
0.016820 0.076395 0.526934
0.017717 0.077292 0.586487
0.018622 0.078197 0.646586
0.019534 0.079110 0.707187
0.020454 0.080029 0.768255
0.021380 0.080955 0.829757
0.021638 0.081213 0.846901
0.016559 0.125905 0.016559
0.016919 0.126265 0.040523
0.017640 0.126986 0.088394
0.018410 0.127756 0.139509
0.019210 0.128556 0.192618
0.020031 0.129377 0.247194
0.020871 0.130217 0.302938
0.021725 0.131071 0.359658
0.022591 0.131937 0.417217
0.023469 0.132815 0.475514
0.024357 0.133703 0.534471
0.025254 0.134600 0.594024
0.026158 0.135505 0.654123
0.027071 0.136417 0.714724
0.027990 0.137336 0.775792
0.028916 0.138263 0.837294
0.029175 0.138521 0.854438
0.024421 0.185684 0.024421
0.024781 0.186045 0.048385
0.025502 0.186766 0.096256
0.026272 0.187535 0.147371
0.027071 0.188335 0.200480
0.027893 0.189157 0.255056
0.028733 0.189996 0.310800
0.029587 0.190850 0.367520
0.030453 0.191717 0.425079
0.031331 0.192595 0.483376
0.032219 0.193482 0.542333
0.033115 0.194379 0.601886
0.034020 0.195284 0.661985
0.034933 0.196196 0.722586
0.035852 0.197116 0.783654
0.036778 0.198042 0.845156
0.037037 0.198300 0.862300
0.032515 0.247232 0.032515
0.032876 0.247593 0.056479
0.033597 0.248314 0.104351
0.034366 0.249083 0.155466
0.035166 0.249883 0.208575
0.035988 0.250705 0.263150
0.036827 0.251544 0.318895
0.037681 0.252398 0.375614
0.038548 0.253265 0.433174
0.039426 0.254143 0.491471
0.040313 0.255030 0.550427
0.041210 0.255927 0.609981
0.042115 0.256832 0.670080
0.043027 0.257745 0.730681
0.043947 0.258664 0.791748
0.044873 0.259590 0.853251
0.045131 0.259848 0.870394
0.040793 0.310170 0.040793
0.041153 0.310531 0.064756
0.041874 0.311252 0.112628
0.042644 0.312021 0.163743
0.043443 0.312821 0.216852
0.044265 0.313643 0.271428
0.045105 0.314482 0.327172
0.045959 0.315336 0.383892
0.046825 0.316203 0.441451
0.047703 0.317080 0.499748
0.048591 0.317968 0.558705
0.049487 0.318865 0.618258
0.050392 0.319770 0.678357
0.051305 0.320682 0.738958
0.052224 0.321602 0.800026
0.053150 0.322528 0.861528
0.053409 0.322786 0.878672
0.049221 0.374257 0.049221
0.049582 0.374618 0.073185
0.050303 0.375339 0.121057
0.051072 0.376108 0.172172
0.051872 0.376908 0.225281
0.052694 0.377730 0.279856
0.053533 0.378569 0.335600
0.054387 0.379423 0.392320
0.055254 0.380290 0.449879
0.056132 0.381168 0.508177
0.057019 0.382055 0.567133
0.057916 0.382952 0.626687
0.058821 0.383857 0.686785
0.059733 0.384770 0.747387
0.060653 0.385689 0.808454
0.061579 0.386615 0.869957
0.061837 0.386873 0.887100
0.057779 0.439328 0.057779
0.058140 0.439688 0.081743
0.058861 0.440409 0.129614
0.059630 0.441179 0.180729
0.060430 0.441979 0.233838
0.061252 0.442800 0.288414
0.062091 0.443640 0.344158
0.062945 0.444494 0.400878
0.063812 0.445360 0.458437
0.064689 0.446238 0.516734
0.065577 0.447126 0.575691
0.066474 0.448023 0.635245
0.067379 0.448927 0.695343
0.068291 0.449840 0.755945
0.069211 0.450759 0.817012
0.070137 0.451686 0.878515
0.070395 0.451944 0.895658
0.066450 0.505259 0.066450
0.066811 0.505620 0.090414
0.067532 0.506340 0.138285
0.068301 0.507110 0.189401
0.069101 0.507910 0.242509
0.069923 0.508731 0.297085
0.070762 0.509571 0.352829
0.071616 0.510425 0.409549
0.072483 0.511292 0.467108
0.073361 0.512169 0.525406
0.074248 0.513057 0.584362
0.075145 0.513954 0.643916
0.076050 0.514859 0.704014
0.076962 0.515771 0.764616
0.077882 0.516691 0.825683
0.078808 0.517617 0.887186
0.079066 0.517875 0.904329
0.075222 0.571957 0.075222
0.075583 0.572317 0.099186
0.076303 0.573038 0.147057
0.077073 0.573808 0.198172
0.077873 0.574607 0.251281
0.078695 0.575429 0.305857
0.079534 0.576269 0.361601
0.080388 0.577123 0.418321
0.081255 0.577989 0.475880
0.082132 0.578867 0.534177
0.083020 0.579755 0.593134
0.083917 0.580651 0.652687
0.084822 0.581556 0.712786
0.085734 0.582469 0.773388
0.086654 0.583388 0.834455
0.087580 0.584314 0.895958
0.087838 0.584573 0.913101
0.084085 0.639346 0.084085
0.084446 0.639707 0.108049
0.085166 0.640428 0.155920
0.085936 0.641197 0.207035
0.086736 0.641997 0.260144
0.087557 0.642819 0.314720
0.088397 0.643658 0.370464
0.089251 0.644512 0.427184
0.090117 0.645379 0.484743
0.090995 0.646257 0.543040
0.091883 0.647144 0.601997
0.092780 0.648041 0.661550
0.093685 0.648946 0.721649
0.094597 0.649858 0.782250
0.095517 0.650778 0.843318
0.096443 0.651704 0.904820
0.096701 0.651962 0.921964
0.093031 0.707366 0.093031
0.093391 0.707727 0.116994
0.094112 0.708448 0.164866
0.094882 0.709218 0.215981
0.095681 0.710017 0.269090
0.096503 0.710839 0.323666
0.097343 0.711678 0.379410
0.098197 0.712533 0.436130
0.099063 0.713399 0.493689
0.099941 0.714277 0.551986
0.100829 0.715165 0.610943
0.101725 0.716061 0.670496
0.102630 0.716966 0.730595
0.103543 0.717879 0.791196
0.104462 0.718798 0.852264
0.105388 0.719724 0.913766
0.105647 0.719982 0.930910
0.102053 0.775967 0.102053
0.102413 0.776328 0.126017
0.103134 0.777049 0.173888
0.103904 0.777818 0.225003
0.104704 0.778618 0.278112
0.105525 0.779440 0.332688
0.106365 0.780279 0.388432
0.107219 0.781133 0.445152
0.108085 0.782000 0.502711
0.108963 0.782878 0.561008
0.109851 0.783765 0.619965
0.110748 0.784662 0.679518
0.111653 0.785567 0.739617
0.112565 0.786480 0.800218
0.113484 0.787399 0.861286
0.114411 0.788325 0.922788
0.114669 0.788583 0.939932
0.111146 0.845106 0.111146
0.111506 0.845466 0.135109
0.112227 0.846187 0.182981
0.112997 0.846957 0.234096
0.113796 0.847757 0.287205
0.114618 0.848578 0.341781
0.115458 0.849418 0.397525
0.116312 0.850272 0.454245
0.117178 0.851138 0.511804
0.118056 0.852016 0.570101
0.118944 0.852904 0.629058
0.119840 0.853801 0.688611
0.120745 0.854705 0.748710
0.121658 0.855618 0.809311
0.122577 0.856537 0.870379
0.123503 0.857463 0.931881
0.123762 0.857722 0.949025
0.120304 0.914745 0.120304
0.120665 0.915106 0.144268
0.121386 0.915827 0.192140
0.122156 0.916596 0.243255
0.122955 0.917396 0.296364
0.123777 0.918218 0.350939
0.124616 0.919057 0.406684
0.125470 0.919911 0.463403
0.126337 0.920778 0.520963
0.127215 0.921655 0.579260
0.128102 0.922543 0.638216
0.128999 0.923440 0.697770
0.129904 0.924345 0.757869
0.130817 0.925257 0.818470
0.131736 0.926177 0.879537
0.132662 0.927103 0.941040
0.132920 0.927361 0.958183
0.000000 0.000000 0.000000
0.000361 0.000361 0.023964
0.001082 0.001082 0.071835
0.001851 0.001851 0.122951
0.002651 0.002651 0.176059
0.003473 0.003473 0.230635
0.004312 0.004312 0.286379
0.005166 0.005166 0.343099
0.006033 0.006033 0.400658
0.006911 0.006911 0.458956
0.007798 0.007798 0.517912
0.008695 0.008695 0.577466
0.009600 0.009600 0.637564
0.010512 0.010512 0.698166
0.011432 0.011432 0.759233
0.012358 0.012358 0.820736
0.012616 0.012616 0.837879
0.000000 0.000000 0.000000
0.000361 0.000361 0.023964
0.001082 0.001082 0.071835
0.001851 0.001851 0.122951
0.002651 0.002651 0.176059
0.003473 0.003473 0.230635
0.004312 0.004312 0.286379
0.005166 0.005166 0.343099
0.006033 0.006033 0.400658
0.006911 0.006911 0.458956
0.007798 0.007798 0.517912
0.008695 0.008695 0.577466
0.009600 0.009600 0.637564
0.010512 0.010512 0.698166
0.011432 0.011432 0.759233
0.012358 0.012358 0.820736
0.012616 0.012616 0.837879
0.002060 0.015661 0.002060
0.002420 0.016022 0.026024
0.003141 0.016743 0.073895
0.003911 0.017512 0.125010
0.004711 0.018312 0.178119
0.005532 0.019134 0.232695
0.006372 0.019973 0.288439
0.007226 0.020827 0.345159
0.008092 0.021694 0.402718
0.008970 0.022571 0.461015
0.009858 0.023459 0.519972
0.010755 0.024356 0.579525
0.011660 0.025261 0.639624
0.012572 0.026173 0.700225
0.013491 0.027093 0.761293
0.014418 0.028019 0.822795
0.014676 0.028277 0.839939
0.009022 0.068597 0.009022
0.009383 0.068958 0.032986
0.010103 0.069679 0.080857
0.010873 0.070448 0.131972
0.011673 0.071248 0.185081
0.012494 0.072070 0.239657
0.013334 0.072909 0.295401
0.014188 0.073763 0.352121
0.015054 0.074630 0.409680
0.015932 0.075508 0.467977
0.016820 0.076395 0.526934
0.017717 0.077292 0.586487
0.018622 0.078197 0.646586
0.019534 0.079110 0.707187
0.020454 0.080029 0.768255
0.021380 0.080955 0.829757
0.021638 0.081213 0.846901
0.016559 0.125905 0.016559
0.016919 0.126265 0.040523
0.017640 0.126986 0.088394
0.018410 0.127756 0.139509
0.019210 0.128556 0.192618
0.020031 0.129377 0.247194
0.020871 0.130217 0.302938
0.021725 0.131071 0.359658
0.022591 0.131937 0.417217
0.023469 0.132815 0.475514
0.024357 0.133703 0.534471
0.025254 0.134600 0.594024
0.026158 0.135505 0.654123
0.027071 0.136417 0.714724
0.027990 0.137336 0.775792
0.028916 0.138263 0.837294
0.029175 0.138521 0.854438
0.024421 0.185684 0.024421
0.024781 0.186045 0.048385
0.025502 0.186766 0.096256
0.026272 0.187535 0.147371
0.027071 0.188335 0.200480
0.027893 0.189157 0.255056
0.028733 0.189996 0.310800
0.029587 0.190850 0.367520
0.030453 0.191717 0.425079
0.031331 0.192595 0.483376
0.032219 0.193482 0.542333
0.033115 0.194379 0.601886
0.034020 0.195284 0.661985
0.034933 0.196196 0.722586
0.035852 0.197116 0.783654
0.036778 0.198042 0.845156
0.037037 0.198300 0.862300
0.032515 0.247232 0.032515
0.032876 0.247593 0.056479
0.033597 0.248314 0.104351
0.034366 0.249083 0.155466
0.035166 0.249883 0.208575
0.035988 0.250705 0.263150
0.036827 0.251544 0.318895
0.037681 0.252398 0.375614
0.038548 0.253265 0.433174
0.039426 0.254143 0.491471
0.040313 0.255030 0.550427
0.041210 0.255927 0.609981
0.042115 0.256832 0.670080
0.043027 0.257745 0.730681
0.043947 0.258664 0.791748
0.044873 0.259590 0.853251
0.045131 0.259848 0.870394
0.040793 0.310170 0.040793
0.041153 0.310531 0.064756
0.041874 0.311252 0.112628
0.042644 0.312021 0.163743
0.043443 0.312821 0.216852
0.044265 0.313643 0.271428
0.045105 0.314482 0.327172
0.045959 0.315336 0.383892
0.046825 0.316203 0.441451
0.047703 0.317080 0.499748
0.048591 0.317968 0.558705
0.049487 0.318865 0.618258
0.050392 0.319770 0.678357
0.051305 0.320682 0.738958
0.052224 0.321602 0.800026
0.053150 0.322528 0.861528
0.053409 0.322786 0.878672
0.049221 0.374257 0.049221
0.049582 0.374618 0.073185
0.050303 0.375339 0.121057
0.051072 0.376108 0.172172
0.051872 0.376908 0.225281
0.052694 0.377730 0.279856
0.053533 0.378569 0.335600
0.054387 0.379423 0.392320
0.055254 0.380290 0.449879
0.056132 0.381168 0.508177
0.057019 0.382055 0.567133
0.057916 0.382952 0.626687
0.058821 0.383857 0.686785
0.059733 0.384770 0.747387
0.060653 0.385689 0.808454
0.061579 0.386615 0.869957
0.061837 0.386873 0.887100
0.057779 0.439328 0.057779
0.058140 0.439688 0.081743
0.058861 0.440409 0.129614
0.059630 0.441179 0.180729
0.060430 0.441979 0.233838
0.061252 0.442800 0.288414
0.062091 0.443640 0.344158
0.062945 0.444494 0.400878
0.063812 0.445360 0.458437
0.064689 0.446238 0.516734
0.065577 0.447126 0.575691
0.066474 0.448023 0.635245
0.067379 0.448927 0.695343
0.068291 0.449840 0.755945
0.069211 0.450759 0.817012
0.070137 0.451686 0.878515
0.070395 0.451944 0.895658
0.066450 0.505259 0.066450
0.066811 0.505620 0.090414
0.067532 0.506340 0.138285
0.068301 0.507110 0.189401
0.069101 0.507910 0.242509
0.069923 0.508731 0.297085
0.070762 0.509571 0.352829
0.071616 0.510425 0.409549
0.072483 0.511292 0.467108
0.073361 0.512169 0.525406
0.074248 0.513057 0.584362
0.075145 0.513954 0.643916
0.076050 0.514859 0.704014
0.076962 0.515771 0.764616
0.077882 0.516691 0.825683
0.078808 0.517617 0.887186
0.079066 0.517875 0.904329
0.075222 0.571957 0.075222
0.075583 0.572317 0.099186
0.076303 0.573038 0.147057
0.077073 0.573808 0.198172
0.077873 0.574607 0.251281
0.078695 0.575429 0.305857
0.079534 0.576269 0.361601
0.080388 0.577123 0.418321
0.081255 0.577989 0.475880
0.082132 0.578867 0.534177
0.083020 0.579755 0.593134
0.083917 0.580651 0.652687
0.084822 0.581556 0.712786
0.085734 0.582469 0.773388
0.086654 0.583388 0.834455
0.087580 0.584314 0.895958
0.087838 0.584573 0.913101
0.084085 0.639346 0.084085
0.084446 0.639707 0.108049
0.085166 0.640428 0.155920
0.085936 0.641197 0.207035
0.086736 0.641997 0.260144
0.087557 0.642819 0.314720
0.088397 0.643658 0.370464
0.089251 0.644512 0.427184
0.090117 0.645379 0.484743
0.090995 0.646257 0.543040
0.091883 0.647144 0.601997
0.092780 0.648041 0.661550
0.093685 0.648946 0.721649
0.094597 0.649858 0.782250
0.095517 0.650778 0.843318
0.096443 0.651704 0.904820
0.096701 0.651962 0.921964
0.093031 0.707366 0.093031
0.093391 0.707727 0.116994
0.094112 0.708448 0.164866
0.094882 0.709218 0.215981
0.095681 0.710017 0.269090
0.096503 0.710839 0.323666
0.097343 0.711678 0.379410
0.098197 0.712533 0.436130
0.099063 0.713399 0.493689
0.099941 0.714277 0.551986
0.100829 0.715165 0.610943
0.101725 0.716061 0.670496
0.102630 0.716966 0.730595
0.103543 0.717879 0.791196
0.104462 0.718798 0.852264
0.105388 0.719724 0.913766
0.105647 0.719982 0.930910
0.102053 0.775967 0.102053
0.102413 0.776328 0.126017
0.103134 0.777049 0.173888
0.103904 0.777818 0.225003
0.104704 0.778618 0.278112
0.105525 0.779440 0.332688
0.106365 0.780279 0.388432
0.107219 0.781133 0.445152
0.108085 0.782000 0.502711
0.108963 0.782878 0.561008
0.109851 0.783765 0.619965
0.110748 0.784662 0.679518
0.111653 0.785567 0.739617
0.112565 0.786480 0.800218
0.113484 0.787399 0.861286
0.114411 0.788325 0.922788
0.114669 0.788583 0.939932
0.111146 0.845106 0.111146
0.111506 0.845466 0.135109
0.112227 0.846187 0.182981
0.112997 0.846957 0.234096
0.113796 0.847757 0.287205
0.114618 0.848578 0.341781
0.115458 0.849418 0.397525
0.116312 0.850272 0.454245
0.117178 0.851138 0.511804
0.118056 0.852016 0.570101
0.118944 0.852904 0.629058
0.119840 0.853801 0.688611
0.120745 0.854705 0.748710
0.121658 0.855618 0.809311
0.122577 0.856537 0.870379
0.123503 0.857463 0.931881
0.123762 0.857722 0.949025
0.120304 0.914745 0.120304
0.120665 0.915106 0.144268
0.121386 0.915827 0.192140
0.122156 0.916596 0.243255
0.122955 0.917396 0.296364
0.123777 0.918218 0.350939
0.124616 0.919057 0.406684
0.125470 0.919911 0.463403
0.126337 0.920778 0.520963
0.127215 0.921655 0.579260
0.128102 0.922543 0.638216
0.128999 0.923440 0.697770
0.129904 0.924345 0.757869
0.130817 0.925257 0.818470
0.131736 0.926177 0.879537
0.132662 0.927103 0.941040
0.132920 0.927361 0.958183
0.000000 0.000000 0.000000
0.000361 0.000361 0.023964
0.001082 0.001082 0.071835
0.001851 0.001851 0.122951
0.002651 0.002651 0.176059
0.003473 0.003473 0.230635
0.004312 0.004312 0.286379
0.005166 0.005166 0.343099
0.006033 0.006033 0.400658
0.006911 0.006911 0.458956
0.007798 0.007798 0.517912
0.008695 0.008695 0.577466
0.009600 0.009600 0.637564
0.010512 0.010512 0.698166
0.011432 0.011432 0.759233
0.012358 0.012358 0.820736
0.012616 0.012616 0.837879
0.000000 0.000000 0.000000
0.000361 0.000361 0.023964
0.001082 0.001082 0.071835
0.001851 0.001851 0.122951
0.002651 0.002651 0.176059
0.003473 0.003473 0.230635
0.004312 0.004312 0.286379
0.005166 0.005166 0.343099
0.006033 0.006033 0.400658
0.006911 0.006911 0.458956
0.007798 0.007798 0.517912
0.008695 0.008695 0.577466
0.009600 0.009600 0.637564
0.010512 0.010512 0.698166
0.011432 0.011432 0.759233
0.012358 0.012358 0.820736
0.012616 0.012616 0.837879
0.002060 0.015661 0.002060
0.002420 0.016022 0.026024
0.003141 0.016743 0.073895
0.003911 0.017512 0.125010
0.004711 0.018312 0.178119
0.005532 0.019134 0.232695
0.006372 0.019973 0.288439
0.007226 0.020827 0.345159
0.008092 0.021694 0.402718
0.008970 0.022571 0.461015
0.009858 0.023459 0.519972
0.010755 0.024356 0.579525
0.011660 0.025261 0.639624
0.012572 0.026173 0.700225
0.013491 0.027093 0.761293
0.014418 0.028019 0.822795
0.014676 0.028277 0.839939
0.009022 0.068597 0.009022
0.009383 0.068958 0.032986
0.010103 0.069679 0.080857
0.010873 0.070448 0.131972
0.011673 0.071248 0.185081
0.012494 0.072070 0.239657
0.013334 0.072909 0.295401
0.014188 0.073763 0.352121
0.015054 0.074630 0.409680
0.015932 0.075508 0.467977
0.016820 0.076395 0.526934
0.017717 0.077292 0.586487
0.018622 0.078197 0.646586
0.019534 0.079110 0.707187
0.020454 0.080029 0.768255
0.021380 0.080955 0.829757
0.021638 0.081213 0.846901
0.016559 0.125905 0.016559
0.016919 0.126265 0.040523
0.017640 0.126986 0.088394
0.018410 0.127756 0.139509
0.019210 0.128556 0.192618
0.020031 0.129377 0.247194
0.020871 0.130217 0.302938
0.021725 0.131071 0.359658
0.022591 0.131937 0.417217
0.023469 0.132815 0.475514
0.024357 0.133703 0.534471
0.025254 0.134600 0.594024
0.026158 0.135505 0.654123
0.027071 0.136417 0.714724
0.027990 0.137336 0.775792
0.028916 0.138263 0.837294
0.029175 0.138521 0.854438
0.024421 0.185684 0.024421
0.024781 0.186045 0.048385
0.025502 0.186766 0.096256
0.026272 0.187535 0.147371
0.027071 0.188335 0.200480
0.027893 0.189157 0.255056
0.028733 0.189996 0.310800
0.029587 0.190850 0.367520
0.030453 0.191717 0.425079
0.031331 0.192595 0.483376
0.032219 0.193482 0.542333
0.033115 0.194379 0.601886
0.034020 0.195284 0.661985
0.034933 0.196196 0.722586
0.035852 0.197116 0.783654
0.036778 0.198042 0.845156
0.037037 0.198300 0.862300
0.032515 0.247232 0.032515
0.032876 0.247593 0.056479
0.033597 0.248314 0.104351
0.034366 0.249083 0.155466
0.035166 0.249883 0.208575
0.035988 0.250705 0.263150
0.036827 0.251544 0.318895
0.037681 0.252398 0.375614
0.038548 0.253265 0.433174
0.039426 0.254143 0.491471
0.040313 0.255030 0.550427
0.041210 0.255927 0.609981
0.042115 0.256832 0.670080
0.043027 0.257745 0.730681
0.043947 0.258664 0.791748
0.044873 0.259590 0.853251
0.045131 0.259848 0.870394
0.040793 0.310170 0.040793
0.041153 0.310531 0.064756
0.041874 0.311252 0.112628
0.042644 0.312021 0.163743
0.043443 0.312821 0.216852
0.044265 0.313643 0.271428
0.045105 0.314482 0.327172
0.045959 0.315336 0.383892
0.046825 0.316203 0.441451
0.047703 0.317080 0.499748
0.048591 0.317968 0.558705
0.049487 0.318865 0.618258
0.050392 0.319770 0.678357
0.051305 0.320682 0.738958
0.052224 0.321602 0.800026
0.053150 0.322528 0.861528
0.053409 0.322786 0.878672
0.049221 0.374257 0.049221
0.049582 0.374618 0.073185
0.050303 0.375339 0.121057
0.051072 0.376108 0.172172
0.051872 0.376908 0.225281
0.052694 0.377730 0.279856
0.053533 0.378569 0.335600
0.054387 0.379423 0.392320
0.055254 0.380290 0.449879
0.056132 0.381168 0.508177
0.057019 0.382055 0.567133
0.057916 0.382952 0.626687
0.058821 0.383857 0.686785
0.059733 0.384770 0.747387
0.060653 0.385689 0.808454
0.061579 0.386615 0.869957
0.061837 0.386873 0.887100
0.057779 0.439328 0.057779
0.058140 0.439688 0.081743
0.058861 0.440409 0.129614
0.059630 0.441179 0.180729
0.060430 0.441979 0.233838
0.061252 0.442800 0.288414
0.062091 0.443640 0.344158
0.062945 0.444494 0.400878
0.063812 0.445360 0.458437
0.064689 0.446238 0.516734
0.065577 0.447126 0.575691
0.066474 0.448023 0.635245
0.067379 0.448927 0.695343
0.068291 0.449840 0.755945
0.069211 0.450759 0.817012
0.070137 0.451686 0.878515
0.070395 0.451944 0.895658
0.066450 0.505259 0.066450
0.066811 0.505620 0.090414
0.067532 0.506340 0.138285
0.068301 0.507110 0.189401
0.069101 0.507910 0.242509
0.069923 0.508731 0.297085
0.070762 0.509571 0.352829
0.071616 0.510425 0.409549
0.072483 0.511292 0.467108
0.073361 0.512169 0.525406
0.074248 0.513057 0.584362
0.075145 0.513954 0.643916
0.076050 0.514859 0.704014
0.076962 0.515771 0.764616
0.077882 0.516691 0.825683
0.078808 0.517617 0.887186
0.079066 0.517875 0.904329
0.075222 0.571957 0.075222
0.075583 0.572317 0.099186
0.076303 0.573038 0.147057
0.077073 0.573808 0.198172
0.077873 0.574607 0.251281
0.078695 0.575429 0.305857
0.079534 0.576269 0.361601
0.080388 0.577123 0.418321
0.081255 0.577989 0.475880
0.082132 0.578867 0.534177
0.083020 0.579755 0.593134
0.083917 0.580651 0.652687
0.084822 0.581556 0.712786
0.085734 0.582469 0.773388
0.086654 0.583388 0.834455
0.087580 0.584314 0.895958
0.087838 0.584573 0.913101
0.084085 0.639346 0.084085
0.084446 0.639707 0.108049
0.085166 0.640428 0.155920
0.085936 0.641197 0.207035
0.086736 0.641997 0.260144
0.087557 0.642819 0.314720
0.088397 0.643658 0.370464
0.089251 0.644512 0.427184
0.090117 0.645379 0.484743
0.090995 0.646257 0.543040
0.091883 0.647144 0.601997
0.092780 0.648041 0.661550
0.093685 0.648946 0.721649
0.094597 0.649858 0.782250
0.095517 0.650778 0.843318
0.096443 0.651704 0.904820
0.096701 0.651962 0.921964
0.093031 0.707366 0.093031
0.093391 0.707727 0.116994
0.094112 0.708448 0.164866
0.094882 0.709218 0.215981
0.095681 0.710017 0.269090
0.096503 0.710839 0.323666
0.097343 0.711678 0.379410
0.098197 0.712533 0.436130
0.099063 0.713399 0.493689
0.099941 0.714277 0.551986
0.100829 0.715165 0.610943
0.101725 0.716061 0.670496
0.102630 0.716966 0.730595
0.103543 0.717879 0.791196
0.104462 0.718798 0.852264
0.105388 0.719724 0.913766
0.105647 0.719982 0.930910
0.102053 0.775967 0.102053
0.102413 0.776328 0.126017
0.103134 0.777049 0.173888
0.103904 0.777818 0.225003
0.104704 0.778618 0.278112
0.105525 0.779440 0.332688
0.106365 0.780279 0.388432
0.107219 0.781133 0.445152
0.108085 0.782000 0.502711
0.108963 0.782878 0.561008
0.109851 0.783765 0.619965
0.110748 0.784662 0.679518
0.111653 0.785567 0.739617
0.112565 0.786480 0.800218
0.113484 0.787399 0.861286
0.114411 0.788325 0.922788
0.114669 0.788583 0.939932
0.111146 0.845106 0.111146
0.111506 0.845466 0.135109
0.112227 0.846187 0.182981
0.112997 0.846957 0.234096
0.113796 0.847757 0.287205
0.114618 0.848578 0.341781
0.115458 0.849418 0.397525
0.116312 0.850272 0.454245
0.117178 0.851138 0.511804
0.118056 0.852016 0.570101
0.118944 0.852904 0.629058
0.119840 0.853801 0.688611
0.120745 0.854705 0.748710
0.121658 0.855618 0.809311
0.122577 0.856537 0.870379
0.123503 0.857463 0.931881
0.123762 0.857722 0.949025
0.120304 0.914745 0.120304
0.120665 0.915106 0.144268
0.121386 0.915827 0.192140
0.122156 0.916596 0.243255
0.122955 0.917396 0.296364
0.123777 0.918218 0.350939
0.124616 0.919057 0.406684
0.125470 0.919911 0.463403
0.126337 0.920778 0.520963
0.127215 0.921655 0.579260
0.128102 0.922543 0.638216
0.128999 0.923440 0.697770
0.129904 0.924345 0.757869
0.130817 0.925257 0.818470
0.131736 0.926177 0.879537
0.132662 0.927103 0.941040
0.132920 0.927361 0.958183
0.004449 0.000192 0.000192
0.004810 0.000552 0.024156
0.005531 0.001273 0.072027
0.006301 0.002043 0.123142
0.007100 0.002843 0.176251
0.007922 0.003664 0.230827
0.008761 0.004504 0.286571
0.009615 0.005358 0.343291
0.010482 0.006224 0.400850
0.011360 0.007102 0.459147
0.012248 0.007990 0.518104
0.013144 0.008887 0.577657
0.014049 0.009792 0.637756
0.014962 0.010704 0.698357
0.015881 0.011623 0.759425
0.016807 0.012550 0.820927
0.017065 0.012808 0.838071
0.004449 0.000192 0.000192
