skills/editops-orchestrator/assets/grade/luts/night_blue_v03.cube
TITLE "night_blue_v03"
LUT_3D_SIZE 5
DOMAIN_MIN 0.0 0.0 0.0
DOMAIN_MAX 1.0 1.0 1.0
0.000000 0.000000 0.000000
0.001516 0.001516 0.212482
0.003192 0.003192 0.447294
0.004901 0.004901 0.686863
0.006536 0.006536 0.916010
0.013301 0.200144 0.013301
0.014817 0.201660 0.225783
0.016493 0.203336 0.460596
0.018202 0.205045 0.700164
0.019837 0.206680 0.929311
0.029849 0.449146 0.029849
0.031365 0.450662 0.242331
0.033041 0.452337 0.477144
0.034750 0.454047 0.716712
0.036385 0.455682 0.945859
0.046754 0.703515 0.046754
0.048270 0.705031 0.259236
0.049946 0.706706 0.494048
0.051655 0.708416 0.733617
0.053290 0.710051 0.962764
0.063887 0.961315 0.063887
0.065403 0.962832 0.276369
0.067079 0.964507 0.511181
0.068788 0.966216 0.750750
0.070423 0.967851 0.979897
0.166278 0.003446 0.003446
0.167794 0.004962 0.215928
0.169469 0.006637 0.450740
0.171179 0.008347 0.690309
0.172814 0.009982 0.919455
0.179579 0.203590 0.016747
0.181095 0.205106 0.229229
0.182771 0.206782 0.464041
0.184480 0.208491 0.703610
0.186115 0.210126 0.932757
0.196127 0.452592 0.033295
0.197643 0.454108 0.245777
0.199319 0.455783 0.480589
0.201028 0.457493 0.720158
0.202663 0.459128 0.949305
0.213032 0.706961 0.050200
0.214548 0.708477 0.262682
0.216223 0.710152 0.497494
0.217933 0.711862 0.737063
0.219568 0.713497 0.966210
0.230165 0.964761 0.067333
0.231681 0.966277 0.279815
0.233356 0.967953 0.514627
0.235066 0.969662 0.754196
0.236701 0.971297 0.983342
0.402892 0.008349 0.008349
0.404408 0.009865 0.220831
0.406084 0.011541 0.455644
0.407793 0.013250 0.695212
0.409428 0.014885 0.924359
0.416193 0.208493 0.021650
0.417709 0.210009 0.234132
0.419385 0.211685 0.468945
0.421094 0.213394 0.708513
0.422729 0.215029 0.937660
0.432741 0.457495 0.038198
0.434258 0.459011 0.250681
0.435933 0.460687 0.485493
0.437642 0.462396 0.725061
0.439277 0.464031 0.954208
0.449646 0.711864 0.055103
0.451162 0.713380 0.267585
0.452838 0.715055 0.502398
0.454547 0.716765 0.741966
0.456182 0.718400 0.971113
0.466779 0.969665 0.072236
0.468295 0.971181 0.284718
0.469971 0.972856 0.519530
0.471680 0.974566 0.759099
0.473315 0.976201 0.988246
0.644960 0.013366 0.013366
0.646476 0.014882 0.225848
0.648151 0.016557 0.460660
0.649861 0.018266 0.700229
0.651496 0.019902 0.929375
0.658261 0.213510 0.026667
0.659777 0.215026 0.239149
0.661452 0.216701 0.473961
0.663162 0.218411 0.713530
0.664797 0.220046 0.942676
0.674809 0.462511 0.043215
0.676325 0.464027 0.255697
0.678000 0.465703 0.490509
0.679710 0.467412 0.730078
0.681345 0.469047 0.959224
0.691714 0.716880 0.060120
0.693230 0.718396 0.272602
0.694905 0.720072 0.507414
0.696615 0.721781 0.746983
0.698250 0.723416 0.976129
0.708847 0.974681 0.077252
0.710363 0.976197 0.289735
0.712038 0.977873 0.524547
0.713748 0.979582 0.764115
0.715383 0.981217 0.993262
0.890425 0.018452 0.018452
0.891941 0.019968 0.230934
0.893617 0.021644 0.465747
0.895326 0.023353 0.705315
0.896961 0.024988 0.934462
0.903726 0.218597 0.031753
0.905242 0.220113 0.244236
0.906918 0.221788 0.479048
0.908627 0.223497 0.718616
0.910262 0.225133 0.947763
0.920274 0.467598 0.048302
0.921790 0.469114 0.260784
0.923466 0.470790 0.495596
0.925175 0.472499 0.735165
0.926810 0.474134 0.964311
0.937179 0.721967 0.065206
0.938695 0.723483 0.277689
0.940371 0.725159 0.512501
0.942080 0.726868 0.752069
0.943715 0.728503 0.981216
0.954312 0.979768 0.082339
0.955828 0.981284 0.294821
0.957503 0.982959 0.529634
0.959213 0.984669 0.769202
0.960848 0.986304 0.998349
