skills/editops-orchestrator/assets/grade/luts/night_blue_v06.cube
TITLE "night_blue_v06"
LUT_3D_SIZE 17
DOMAIN_MIN 0.0 0.0 0.0
DOMAIN_MAX 1.0 1.0 1.0
0.000000 0.000000 0.000000
0.000329 0.000329 0.038629
0.000790 0.000790 0.092758
0.001264 0.001264 0.148484
0.001748 0.001748 0.205216
0.002237 0.002237 0.262691
0.002732 0.002732 0.320757
0.003230 0.003230 0.379316
0.003733 0.003733 0.438296
0.004238 0.004238 0.497647
0.004746 0.004746 0.557326
0.005257 0.005257 0.617303
0.005770 0.005770 0.677551
0.006285 0.006285 0.738048
0.006802 0.006802 0.798774
0.007321 0.007321 0.859715
0.007676 0.007676 0.901360
0.000769 0.009802 0.000769
0.001098 0.010131 0.039398
0.001559 0.010592 0.093527
0.002033 0.011067 0.149253
0.002516 0.011550 0.205985
0.003006 0.012039 0.263460
0.003500 0.012534 0.321526
0.003999 0.013032 0.380084
0.004501 0.013535 0.439065
0.005007 0.014040 0.498415
0.005515 0.014548 0.558095
0.006026 0.015059 0.618072
0.006539 0.015572 0.678320
0.007054 0.016087 0.738816
0.007571 0.016604 0.799543
0.008090 0.017123 0.860484
0.008445 0.017478 0.902129
0.005188 0.066161 0.005188
0.005517 0.066490 0.043817
0.005978 0.066951 0.097946
0.006452 0.067426 0.153672
0.006935 0.067909 0.210404
0.007425 0.068398 0.267879
0.007919 0.068893 0.325945
0.008418 0.069392 0.384503
0.008920 0.069894 0.443484
0.009426 0.070399 0.502834
0.009934 0.070908 0.562514
0.010445 0.071418 0.622491
0.010958 0.071931 0.682739
0.011473 0.072447 0.743236
0.011990 0.072964 0.803962
0.012509 0.073483 0.864903
0.012864 0.073837 0.906548
0.009821 0.125255 0.009821
0.010150 0.125584 0.048451
0.010611 0.126045 0.102580
0.011086 0.126520 0.158305
0.011569 0.127003 0.215037
0.012058 0.127492 0.272512
0.012553 0.127987 0.330579
0.013052 0.128485 0.389137
0.013554 0.128988 0.448118
0.014059 0.129493 0.507468
0.014568 0.130001 0.567148
0.015078 0.130512 0.627125
0.015591 0.131025 0.687373
0.016107 0.131540 0.747869
0.016624 0.132058 0.808596
0.017143 0.132577 0.869537
0.017497 0.132931 0.911182
0.014562 0.185718 0.014562
0.014891 0.186047 0.053192
0.015352 0.186508 0.107321
0.015827 0.186982 0.163046
0.016310 0.187465 0.219778
0.016799 0.187955 0.277253
0.017294 0.188449 0.335320
0.017793 0.188948 0.393878
0.018295 0.189450 0.452859
0.018800 0.189956 0.512209
0.019309 0.190464 0.571889
0.019819 0.190975 0.631866
0.020332 0.191488 0.692114
0.020848 0.192003 0.752610
0.021365 0.192520 0.813337
0.021884 0.193039 0.874278
0.022238 0.193394 0.915923
0.019377 0.247119 0.019377
0.019706 0.247448 0.058006
0.020167 0.247909 0.112135
0.020641 0.248384 0.167861
0.021125 0.248867 0.224593
0.021614 0.249356 0.282068
0.022109 0.249851 0.340134
0.022607 0.250350 0.398693
0.023109 0.250852 0.457673
0.023615 0.251357 0.517024
0.024123 0.251866 0.576703
0.024634 0.252376 0.636680
0.025147 0.252889 0.696928
0.025662 0.253405 0.757425
0.026179 0.253922 0.818151
0.026698 0.254441 0.879092
0.027053 0.254795 0.920737
0.024248 0.309241 0.024248
0.024577 0.309570 0.062877
0.025038 0.310031 0.117006
0.025512 0.310506 0.172732
0.025996 0.310989 0.229464
0.026485 0.311478 0.286939
0.026980 0.311973 0.345005
0.027478 0.312471 0.403564
0.027981 0.312974 0.462544
0.028486 0.313479 0.521895
0.028994 0.313987 0.581574
0.029505 0.314498 0.641551
0.030018 0.315011 0.701799
0.030533 0.315526 0.762296
0.031050 0.316043 0.823022
0.031569 0.316562 0.883963
0.031924 0.316917 0.925608
0.029165 0.371948 0.029165
0.029494 0.372277 0.067794
0.029955 0.372738 0.121923
0.030429 0.373213 0.177649
0.030913 0.373696 0.234381
0.031402 0.374185 0.291856
0.031897 0.374680 0.349922
0.032395 0.375179 0.408481
0.032897 0.375681 0.467461
0.033403 0.376186 0.526812
0.033911 0.376695 0.586491
0.034422 0.377205 0.646468
0.034935 0.377718 0.706716
0.035450 0.378234 0.767213
0.035967 0.378751 0.827939
0.036486 0.379270 0.888880
0.036841 0.379624 0.930525
0.034121 0.435150 0.034121
0.034450 0.435479 0.072750
0.034911 0.435940 0.126879
0.035385 0.436414 0.182605
0.035868 0.436898 0.239337
0.036358 0.437387 0.296812
0.036852 0.437881 0.354878
0.037351 0.438380 0.413436
0.037853 0.438882 0.472417
0.038359 0.439388 0.531767
0.038867 0.439896 0.591447
0.039378 0.440407 0.651424
0.039891 0.440920 0.711672
0.040406 0.441435 0.772168
0.040923 0.441952 0.832895
0.041442 0.442471 0.893836
0.041797 0.442826 0.935481
0.039110 0.498780 0.039110
0.039439 0.499109 0.077739
0.039900 0.499570 0.131868
0.040374 0.500044 0.187594
0.040858 0.500527 0.244326
0.041347 0.501017 0.301801
0.041842 0.501511 0.359867
0.042340 0.502010 0.418426
0.042842 0.502512 0.477406
0.043348 0.503018 0.536757
0.043856 0.503526 0.596436
0.044367 0.504037 0.656413
0.044880 0.504550 0.716661
0.045395 0.505065 0.777158
0.045912 0.505582 0.837884
0.046431 0.506101 0.898825
0.046786 0.506456 0.940470
0.044129 0.562788 0.044129
0.044458 0.563117 0.082758
0.044919 0.563578 0.136887
0.045393 0.564052 0.192613
0.045877 0.564535 0.249345
0.046366 0.565025 0.306820
0.046860 0.565519 0.364886
0.047359 0.566018 0.423445
0.047861 0.566520 0.482425
0.048367 0.567026 0.541775
0.048875 0.567534 0.601455
0.049386 0.568045 0.661432
0.049899 0.568558 0.721680
0.050414 0.569073 0.782177
0.050931 0.569590 0.842903
0.051450 0.570109 0.903844
0.051805 0.570464 0.945489
0.049174 0.627134 0.049174
0.049503 0.627463 0.087804
0.049964 0.627924 0.141933
0.050439 0.628399 0.197658
0.050922 0.628882 0.254390
0.051411 0.629371 0.311865
0.051906 0.629866 0.369932
0.052405 0.630364 0.428490
0.052907 0.630867 0.487471
0.053412 0.631372 0.546821
0.053921 0.631880 0.606501
0.054431 0.632391 0.666478
0.054944 0.632904 0.726726
0.055460 0.633419 0.787222
0.055977 0.633937 0.847949
0.056496 0.634456 0.908890
0.056850 0.634810 0.950535
0.054244 0.691788 0.054244
0.054573 0.692117 0.092873
0.055034 0.692578 0.147002
0.055508 0.693052 0.202728
0.055992 0.693535 0.259460
0.056481 0.694025 0.316935
0.056976 0.694519 0.375001
0.057474 0.695018 0.433560
0.057976 0.695520 0.492540
0.058482 0.696026 0.551890
0.058990 0.696534 0.611570
0.059501 0.697045 0.671547
0.060014 0.697558 0.731795
0.060529 0.698073 0.792292
0.061046 0.698590 0.853018
0.061565 0.699109 0.913959
0.061920 0.699464 0.955604
0.059335 0.756722 0.059335
0.059664 0.757051 0.097965
0.060125 0.757512 0.152094
0.060600 0.757986 0.207819
0.061083 0.758469 0.264552
0.061573 0.758959 0.322027
0.062067 0.759453 0.380093
0.062566 0.759952 0.438651
0.063068 0.760454 0.497632
0.063573 0.760960 0.556982
0.064082 0.761468 0.616662
0.064592 0.761979 0.676639
0.065106 0.762492 0.736887
0.065621 0.763007 0.797383
0.066138 0.763524 0.858110
0.066657 0.764043 0.919051
0.067011 0.764398 0.960696
0.064447 0.821915 0.064447
0.064776 0.822244 0.103077
0.065237 0.822704 0.157206
0.065712 0.823179 0.212931
0.066195 0.823662 0.269663
0.066684 0.824152 0.327138
0.067179 0.824646 0.385205
0.067678 0.825145 0.443763
0.068180 0.825647 0.502744
0.068685 0.826153 0.562094
0.069194 0.826661 0.621774
0.069704 0.827172 0.681751
0.070217 0.827685 0.741999
0.070733 0.828200 0.802495
0.071250 0.828717 0.863222
0.071769 0.829236 0.924163
0.072123 0.829591 0.965808
0.069578 0.887347 0.069578
0.069907 0.887676 0.108207
0.070368 0.888137 0.162336
0.070842 0.888612 0.218062
0.071326 0.889095 0.274794
0.071815 0.889584 0.332269
0.072310 0.890079 0.390335
0.072808 0.890578 0.448894
0.073311 0.891080 0.507874
0.073816 0.891585 0.567225
0.074324 0.892093 0.626904
0.074835 0.892604 0.686881
0.075348 0.893117 0.747129
0.075863 0.893632 0.807626
0.076380 0.894150 0.868352
0.076899 0.894669 0.929293
0.077254 0.895023 0.970938
0.074726 0.953004 0.074726
0.075055 0.953333 0.113356
0.075516 0.953794 0.167485
0.075991 0.954268 0.223210
0.076474 0.954751 0.279942
0.076963 0.955241 0.337417
0.077458 0.955735 0.395483
0.077956 0.956234 0.454042
0.078459 0.956736 0.513022
0.078964 0.957242 0.572373
0.079472 0.957750 0.632053
0.079983 0.958261 0.692030
0.080496 0.958774 0.752277
0.081011 0.959289 0.812774
0.081529 0.959806 0.873501
0.082048 0.960325 0.934441
0.082402 0.960680 0.976086
0.000000 0.000000 0.000000
0.000329 0.000329 0.038629
0.000790 0.000790 0.092758
0.001264 0.001264 0.148484
0.001748 0.001748 0.205216
0.002237 0.002237 0.262691
0.002732 0.002732 0.320757
0.003230 0.003230 0.379316
0.003733 0.003733 0.438296
0.004238 0.004238 0.497647
0.004746 0.004746 0.557326
0.005257 0.005257 0.617303
0.005770 0.005770 0.677551
0.006285 0.006285 0.738048
0.006802 0.006802 0.798774
0.007321 0.007321 0.859715
0.007676 0.007676 0.901360
0.000769 0.009802 0.000769
0.001098 0.010131 0.039398
0.001559 0.010592 0.093527
0.002033 0.011067 0.149253
0.002516 0.011550 0.205985
0.003006 0.012039 0.263460
0.003500 0.012534 0.321526
0.003999 0.013032 0.380084
0.004501 0.013535 0.439065
0.005007 0.014040 0.498415
0.005515 0.014548 0.558095
0.006026 0.015059 0.618072
0.006539 0.015572 0.678320
0.007054 0.016087 0.738816
0.007571 0.016604 0.799543
0.008090 0.017123 0.860484
0.008445 0.017478 0.902129
0.005188 0.066161 0.005188
0.005517 0.066490 0.043817
0.005978 0.066951 0.097946
0.006452 0.067426 0.153672
0.006935 0.067909 0.210404
0.007425 0.068398 0.267879
0.007919 0.068893 0.325945
0.008418 0.069392 0.384503
0.008920 0.069894 0.443484
0.009426 0.070399 0.502834
0.009934 0.070908 0.562514
0.010445 0.071418 0.622491
0.010958 0.071931 0.682739
0.011473 0.072447 0.743236
0.011990 0.072964 0.803962
0.012509 0.073483 0.864903
0.012864 0.073837 0.906548
0.009821 0.125255 0.009821
0.010150 0.125584 0.048451
0.010611 0.126045 0.102580
0.011086 0.126520 0.158305
0.011569 0.127003 0.215037
0.012058 0.127492 0.272512
0.012553 0.127987 0.330579
0.013052 0.128485 0.389137
0.013554 0.128988 0.448118
0.014059 0.129493 0.507468
0.014568 0.130001 0.567148
0.015078 0.130512 0.627125
0.015591 0.131025 0.687373
0.016107 0.131540 0.747869
0.016624 0.132058 0.808596
0.017143 0.132577 0.869537
0.017497 0.132931 0.911182
0.014562 0.185718 0.014562
0.014891 0.186047 0.053192
0.015352 0.186508 0.107321
0.015827 0.186982 0.163046
0.016310 0.187465 0.219778
0.016799 0.187955 0.277253
0.017294 0.188449 0.335320
0.017793 0.188948 0.393878
0.018295 0.189450 0.452859
0.018800 0.189956 0.512209
0.019309 0.190464 0.571889
0.019819 0.190975 0.631866
0.020332 0.191488 0.692114
0.020848 0.192003 0.752610
0.021365 0.192520 0.813337
0.021884 0.193039 0.874278
0.022238 0.193394 0.915923
0.019377 0.247119 0.019377
0.019706 0.247448 0.058006
0.020167 0.247909 0.112135
0.020641 0.248384 0.167861
0.021125 0.248867 0.224593
0.021614 0.249356 0.282068
0.022109 0.249851 0.340134
0.022607 0.250350 0.398693
0.023109 0.250852 0.457673
0.023615 0.251357 0.517024
0.024123 0.251866 0.576703
0.024634 0.252376 0.636680
0.025147 0.252889 0.696928
0.025662 0.253405 0.757425
0.026179 0.253922 0.818151
0.026698 0.254441 0.879092
0.027053 0.254795 0.920737
0.024248 0.309241 0.024248
0.024577 0.309570 0.062877
0.025038 0.310031 0.117006
0.025512 0.310506 0.172732
0.025996 0.310989 0.229464
0.026485 0.311478 0.286939
0.026980 0.311973 0.345005
0.027478 0.312471 0.403564
0.027981 0.312974 0.462544
0.028486 0.313479 0.521895
0.028994 0.313987 0.581574
0.029505 0.314498 0.641551
0.030018 0.315011 0.701799
0.030533 0.315526 0.762296
0.031050 0.316043 0.823022
0.031569 0.316562 0.883963
0.031924 0.316917 0.925608
0.029165 0.371948 0.029165
0.029494 0.372277 0.067794
0.029955 0.372738 0.121923
0.030429 0.373213 0.177649
0.030913 0.373696 0.234381
0.031402 0.374185 0.291856
0.031897 0.374680 0.349922
0.032395 0.375179 0.408481
0.032897 0.375681 0.467461
0.033403 0.376186 0.526812
0.033911 0.376695 0.586491
0.034422 0.377205 0.646468
0.034935 0.377718 0.706716
0.035450 0.378234 0.767213
0.035967 0.378751 0.827939
0.036486 0.379270 0.888880
0.036841 0.379624 0.930525
0.034121 0.435150 0.034121
0.034450 0.435479 0.072750
0.034911 0.435940 0.126879
0.035385 0.436414 0.182605
0.035868 0.436898 0.239337
0.036358 0.437387 0.296812
0.036852 0.437881 0.354878
0.037351 0.438380 0.413436
0.037853 0.438882 0.472417
0.038359 0.439388 0.531767
0.038867 0.439896 0.591447
0.039378 0.440407 0.651424
0.039891 0.440920 0.711672
0.040406 0.441435 0.772168
0.040923 0.441952 0.832895
0.041442 0.442471 0.893836
0.041797 0.442826 0.935481
0.039110 0.498780 0.039110
0.039439 0.499109 0.077739
0.039900 0.499570 0.131868
0.040374 0.500044 0.187594
0.040858 0.500527 0.244326
0.041347 0.501017 0.301801
0.041842 0.501511 0.359867
0.042340 0.502010 0.418426
0.042842 0.502512 0.477406
0.043348 0.503018 0.536757
0.043856 0.503526 0.596436
0.044367 0.504037 0.656413
0.044880 0.504550 0.716661
0.045395 0.505065 0.777158
0.045912 0.505582 0.837884
0.046431 0.506101 0.898825
0.046786 0.506456 0.940470
0.044129 0.562788 0.044129
0.044458 0.563117 0.082758
0.044919 0.563578 0.136887
0.045393 0.564052 0.192613
0.045877 0.564535 0.249345
0.046366 0.565025 0.306820
0.046860 0.565519 0.364886
0.047359 0.566018 0.423445
0.047861 0.566520 0.482425
0.048367 0.567026 0.541775
0.048875 0.567534 0.601455
0.049386 0.568045 0.661432
0.049899 0.568558 0.721680
0.050414 0.569073 0.782177
0.050931 0.569590 0.842903
0.051450 0.570109 0.903844
0.051805 0.570464 0.945489
0.049174 0.627134 0.049174
0.049503 0.627463 0.087804
0.049964 0.627924 0.141933
0.050439 0.628399 0.197658
0.050922 0.628882 0.254390
0.051411 0.629371 0.311865
0.051906 0.629866 0.369932
0.052405 0.630364 0.428490
0.052907 0.630867 0.487471
0.053412 0.631372 0.546821
0.053921 0.631880 0.606501
0.054431 0.632391 0.666478
0.054944 0.632904 0.726726
0.055460 0.633419 0.787222
0.055977 0.633937 0.847949
0.056496 0.634456 0.908890
0.056850 0.634810 0.950535
0.054244 0.691788 0.054244
0.054573 0.692117 0.092873
0.055034 0.692578 0.147002
0.055508 0.693052 0.202728
0.055992 0.693535 0.259460
0.056481 0.694025 0.316935
0.056976 0.694519 0.375001
0.057474 0.695018 0.433560
0.057976 0.695520 0.492540
0.058482 0.696026 0.551890
0.058990 0.696534 0.611570
0.059501 0.697045 0.671547
0.060014 0.697558 0.731795
0.060529 0.698073 0.792292
0.061046 0.698590 0.853018
0.061565 0.699109 0.913959
0.061920 0.699464 0.955604
0.059335 0.756722 0.059335
0.059664 0.757051 0.097965
0.060125 0.757512 0.152094
0.060600 0.757986 0.207819
0.061083 0.758469 0.264552
0.061573 0.758959 0.322027
0.062067 0.759453 0.380093
0.062566 0.759952 0.438651
0.063068 0.760454 0.497632
0.063573 0.760960 0.556982
0.064082 0.761468 0.616662
0.064592 0.761979 0.676639
0.065106 0.762492 0.736887
0.065621 0.763007 0.797383
0.066138 0.763524 0.858110
0.066657 0.764043 0.919051
0.067011 0.764398 0.960696
0.064447 0.821915 0.064447
0.064776 0.822244 0.103077
0.065237 0.822704 0.157206
0.065712 0.823179 0.212931
0.066195 0.823662 0.269663
0.066684 0.824152 0.327138
0.067179 0.824646 0.385205
0.067678 0.825145 0.443763
0.068180 0.825647 0.502744
0.068685 0.826153 0.562094
0.069194 0.826661 0.621774
0.069704 0.827172 0.681751
0.070217 0.827685 0.741999
0.070733 0.828200 0.802495
0.071250 0.828717 0.863222
0.071769 0.829236 0.924163
0.072123 0.829591 0.965808
0.069578 0.887347 0.069578
0.069907 0.887676 0.108207
0.070368 0.888137 0.162336
0.070842 0.888612 0.218062
0.071326 0.889095 0.274794
0.071815 0.889584 0.332269
0.072310 0.890079 0.390335
0.072808 0.890578 0.448894
0.073311 0.891080 0.507874
0.073816 0.891585 0.567225
0.074324 0.892093 0.626904
0.074835 0.892604 0.686881
0.075348 0.893117 0.747129
0.075863 0.893632 0.807626
0.076380 0.894150 0.868352
0.076899 0.894669 0.929293
0.077254 0.895023 0.970938
0.074726 0.953004 0.074726
0.075055 0.953333 0.113356
0.075516 0.953794 0.167485
0.075991 0.954268 0.223210
0.076474 0.954751 0.279942
0.076963 0.955241 0.337417
0.077458 0.955735 0.395483
0.077956 0.956234 0.454042
0.078459 0.956736 0.513022
0.078964 0.957242 0.572373
0.079472 0.957750 0.632053
0.079983 0.958261 0.692030
0.080496 0.958774 0.752277
0.081011 0.959289 0.812774
0.081529 0.959806 0.873501
0.082048 0.960325 0.934441
0.082402 0.960680 0.976086
0.031497 0.000777 0.000777
0.031826 0.001106 0.039406
0.032287 0.001567 0.093535
0.032761 0.002041 0.149261
0.033244 0.002525 0.205993
0.033734 0.003014 0.263468
0.034228 0.003509 0.321534
0.034727 0.004007 0.380093
0.035229 0.004509 0.439073
0.035735 0.005015 0.498424
0.036243 0.005523 0.558103
0.036754 0.006034 0.618080
0.037267 0.006547 0.678328
0.037782 0.007062 0.738825
0.038299 0.007579 0.799551
0.038818 0.008098 0.860492
0.039173 0.008453 0.902137
0.032265 0.010579 0.001546
0.032594 0.010908 0.040175
0.033055 0.011369 0.094304
0.033530 0.011843 0.150029
0.034013 0.012327 0.206762
0.034502 0.012816 0.264237
0.034997 0.013311 0.322303
0.035496 0.013809 0.380861
0.035998 0.014312 0.439842
0.036503 0.014817 0.499192
0.037011 0.015325 0.558872
0.037522 0.015836 0.618849
0.038035 0.016349 0.679097
0.038550 0.016864 0.739593
0.039068 0.017381 0.800320
0.039587 0.017900 0.861261
0.039941 0.018255 0.902906
0.036684 0.066938 0.005965
0.037013 0.067267 0.044594
0.037474 0.067728 0.098723
0.037949 0.068203 0.154449
0.038432 0.068686 0.211181
0.038922 0.069175 0.268656
0.039416 0.069670 0.326722
0.039915 0.070169 0.385280
0.040417 0.070671 0.444261
0.040922 0.071176 0.503611
0.041431 0.071684 0.563291
0.041941 0.072195 0.623268
0.042454 0.072708 0.683516
0.042970 0.073223 0.744012
0.043487 0.073741 0.804739
0.044006 0.074260 0.865680
0.044360 0.074614 0.907325
0.041318 0.126032 0.010598
0.041647 0.126361 0.049228
0.042108 0.126822 0.103357
0.042583 0.127297 0.159082
0.043066 0.127780 0.215814
0.043555 0.128269 0.273289
0.044050 0.128764 0.331356
0.044548 0.129262 0.389914
0.045051 0.129765 0.448895
0.045556 0.130270 0.508245
0.046064 0.130778 0.567925
0.046575 0.131289 0.627902
0.047088 0.131802 0.688150
0.047603 0.132317 0.748646
0.048120 0.132835 0.809373
0.048639 0.133354 0.870314
0.048994 0.133708 0.911959
0.046059 0.186495 0.015339
0.046388 0.186824 0.053969
0.046849 0.187285 0.108098
0.047324 0.187759 0.163823
0.047807 0.188242 0.220555
0.048296 0.188732 0.278030
0.048791 0.189226 0.336097
0.049289 0.189725 0.394655
0.049792 0.190227 0.453635
0.050297 0.190733 0.512986
0.050805 0.191241 0.572666
0.051316 0.191752 0.632643
0.051829 0.192265 0.692891
0.052344 0.192780 0.753387
0.052861 0.193297 0.814114
0.053380 0.193816 0.875055
0.053735 0.194171 0.916700
0.050874 0.247896 0.020154
0.051203 0.248225 0.058783
0.051664 0.248686 0.112912
0.052138 0.249161 0.168638
0.052621 0.249644 0.225370
0.053111 0.250133 0.282845
0.053605 0.250628 0.340911
0.054104 0.251127 0.399470
0.054606 0.251629 0.458450
0.055112 0.252134 0.517800
0.055620 0.252643 0.577480
0.056131 0.253153 0.637457
0.056644 0.253666 0.697705
0.057159 0.254182 0.758202
0.057676 0.254699 0.818928
0.058195 0.255218 0.879869
0.058550 0.255572 0.921514
0.055745 0.310018 0.025025
0.056074 0.310347 0.063654
0.056535 0.310808 0.117783
0.057009 0.311283 0.173509
0.057492 0.311766 0.230241
0.057982 0.312255 0.287716
0.058476 0.312750 0.345782
0.058975 0.313248 0.404341
0.059477 0.313751 0.463321
0.059983 0.314256 0.522671
0.060491 0.314764 0.582351
0.061002 0.315275 0.642328
0.061515 0.315788 0.702576
0.062030 0.316303 0.763073
0.062547 0.316820 0.823799
0.063066 0.317339 0.884740
0.063421 0.317694 0.926385
0.060662 0.372725 0.029942
0.060991 0.373054 0.068571
0.061452 0.373515 0.122700
0.061926 0.373990 0.178426
0.062409 0.374473 0.235158
0.062899 0.374962 0.292633
0.063393 0.375457 0.350699
0.063892 0.375956 0.409258
0.064394 0.376458 0.468238
0.064900 0.376963 0.527588
0.065408 0.377472 0.587268
0.065919 0.377982 0.647245
0.066432 0.378495 0.707493
0.066947 0.379011 0.767990
0.067464 0.379528 0.828716
0.067983 0.380047 0.889657
0.068338 0.380401 0.931302
0.065617 0.435927 0.034898
0.065946 0.436256 0.073527
0.066407 0.436717 0.127656
0.066882 0.437191 0.183382
0.067365 0.437674 0.240114
0.067854 0.438164 0.297589
0.068349 0.438658 0.355655
0.068848 0.439157 0.414213
0.069350 0.439659 0.473194
0.069855 0.440165 0.532544
0.070364 0.440673 0.592224
0.070874 0.441184 0.652201
0.071387 0.441697 0.712449
0.071903 0.442212 0.772945
0.072420 0.442729 0.833672
0.072939 0.443248 0.894613
0.073293 0.443603 0.936258
0.070607 0.499557 0.039887
0.070936 0.499886 0.078516
0.071397 0.500347 0.132645
0.071871 0.500821 0.188371
0.072354 0.501304 0.245103
0.072844 0.501794 0.302578
0.073338 0.502288 0.360644
0.073837 0.502787 0.419203
0.074339 0.503289 0.478183
0.074845 0.503795 0.537533
0.075353 0.504303 0.597213
0.075864 0.504814 0.657190
0.076377 0.505327 0.717438
0.076892 0.505842 0.777935
0.077409 0.506359 0.838661
0.077928 0.506878 0.899602
0.078283 0.507233 0.941247
0.075626 0.563565 0.044906
0.075955 0.563894 0.083535
0.076415 0.564354 0.137664
0.076890 0.564829 0.193390
0.077373 0.565312 0.250122
0.077863 0.565802 0.307597
0.078357 0.566296 0.365663
0.078856 0.566795 0.424221
0.079358 0.567297 0.483202
0.079864 0.567803 0.542552
0.080372 0.568311 0.602232
0.080883 0.568822 0.662209
0.081396 0.569335 0.722457
0.081911 0.569850 0.782954
0.082428 0.570367 0.843680
0.082947 0.570886 0.904621
0.083302 0.571241 0.946266
0.080671 0.627911 0.049951
0.081000 0.628240 0.088581
0.081461 0.628701 0.142710
0.081936 0.629176 0.198435
0.082419 0.629659 0.255167
0.082908 0.630148 0.312642
0.083403 0.630643 0.370709
0.083901 0.631141 0.429267
0.084404 0.631644 0.488247
0.084909 0.632149 0.547598
0.085417 0.632657 0.607278
0.085928 0.633168 0.667255
0.086441 0.633681 0.727503
0.086956 0.634196 0.787999
0.087473 0.634714 0.848726
0.087992 0.635232 0.909667
0.088347 0.635587 0.951312
0.085741 0.692565 0.055021
0.086070 0.692894 0.093650
0.086531 0.693355 0.147779
0.087005 0.693829 0.203505
0.087488 0.694312 0.260237
0.087978 0.694802 0.317712
0.088472 0.695296 0.375778
0.088971 0.695795 0.434337
0.089473 0.696297 0.493317
0.089979 0.696803 0.552667
0.090487 0.697311 0.612347
0.090998 0.697822 0.672324
0.091511 0.698335 0.732572
0.092026 0.698850 0.793069
0.092543 0.699367 0.853795
0.093062 0.699886 0.914736
0.093417 0.700241 0.956381
0.090832 0.757499 0.060112
0.091161 0.757828 0.098742
0.091622 0.758289 0.152871
0.092097 0.758763 0.208596
0.092580 0.759246 0.265328
0.093069 0.759736 0.322803
0.093564 0.760230 0.380870
0.094062 0.760729 0.439428
0.094565 0.761231 0.498409
0.095070 0.761737 0.557759
0.095578 0.762245 0.617439
0.096089 0.762756 0.677416
0.096602 0.763269 0.737664
0.097117 0.763784 0.798160
0.097635 0.764301 0.858887
0.098154 0.764820 0.919828
0.098508 0.765175 0.961473
0.095944 0.822692 0.065224
0.096273 0.823020 0.103854
0.096734 0.823481 0.157983
0.097209 0.823956 0.213708
0.097692 0.824439 0.270440
0.098181 0.824929 0.327915
0.098676 0.825423 0.385982
0.099174 0.825922 0.444540
0.099677 0.826424 0.503520
0.100182 0.826929 0.562871
0.100690 0.827438 0.622551
0.101201 0.827948 0.682528
0.101714 0.828462 0.742776
0.102229 0.828977 0.803272
0.102746 0.829494 0.863999
0.103265 0.830013 0.924940
0.103620 0.830368 0.966585
0.101075 0.888124 0.070355
0.101404 0.888453 0.108984
0.101865 0.888914 0.163113
0.102339 0.889389 0.218839
0.102822 0.889872 0.275571
0.103312 0.890361 0.333046
0.103806 0.890856 0.391112
0.104305 0.891354 0.449671
0.104807 0.891857 0.508651
0.105313 0.892362 0.568002
0.105821 0.892870 0.627681
0.106332 0.893381 0.687658
0.106845 0.893894 0.747906
0.107360 0.894409 0.808403
0.107877 0.894927 0.869129
0.108396 0.895446 0.930070
0.108751 0.895800 0.971715
0.106223 0.953781 0.075503
0.106552 0.954110 0.114133
0.107013 0.954571 0.168262
0.107487 0.955045 0.223987
0.107971 0.955528 0.280719
0.108460 0.956018 0.338194
0.108954 0.956512 0.396260
0.109453 0.957011 0.454819
0.109955 0.957513 0.513799
0.110461 0.958019 0.573150
0.110969 0.958527 0.632830
0.111480 0.959038 0.692807
0.111993 0.959551 0.753054
0.112508 0.960066 0.813551
0.113025 0.960583 0.874278
0.113544 0.961102 0.935218
0.113899 0.961457 0.976863
0.086178 0.002126 0.002126
0.086507 0.002455 0.040755
0.086968 0.002916 0.094884
0.087442 0.003390 0.150610
0.087925 0.003873 0.207342
0.088415 0.004363 0.264817
0.088909 0.004857 0.322883
0.089408 0.005356 0.381441
0.089910 0.005858 0.440422
0.090416 0.006364 0.499772
0.090924 0.006872 0.559452
0.091435 0.007383 0.619429
0.091948 0.007896 0.679677
0.092463 0.008411 0.740174
0.092980 0.008928 0.800900
0.093499 0.009447 0.861841
0.093854 0.009802 0.903486
0.086946 0.011928 0.002894
