skills/editops-orchestrator/assets/grade/luts/night_blue_v06.cube
TITLE "night_blue_v06"
LUT_3D_SIZE 5
DOMAIN_MIN 0.0 0.0 0.0
DOMAIN_MAX 1.0 1.0 1.0
0.000000 0.000000 0.000000
0.001748 0.001748 0.205216
0.003733 0.003733 0.438296
0.005770 0.005770 0.677551
0.007676 0.007676 0.901360
0.014562 0.185718 0.014562
0.016310 0.187465 0.219778
0.018295 0.189450 0.452859
0.020332 0.191488 0.692114
0.022238 0.193394 0.915923
0.034121 0.435150 0.034121
0.035868 0.436898 0.239337
0.037853 0.438882 0.472417
0.039891 0.440920 0.711672
0.041797 0.442826 0.935481
0.054244 0.691788 0.054244
0.055992 0.693535 0.259460
0.057976 0.695520 0.492540
0.060014 0.697558 0.731795
0.061920 0.699464 0.955604
0.074726 0.953004 0.074726
0.076474 0.954751 0.279942
0.078459 0.956736 0.513022
0.080496 0.958774 0.752277
0.082402 0.960680 0.976086
0.142642 0.003519 0.003519
0.144389 0.005266 0.208735
0.146374 0.007251 0.441815
0.148412 0.009289 0.681070
0.150318 0.011195 0.904879
0.157204 0.189236 0.018081
0.158952 0.190984 0.223297
0.160937 0.192969 0.456377
0.162974 0.195006 0.695632
0.164880 0.196912 0.919441
0.176762 0.438669 0.037639
0.178510 0.440416 0.242855
0.180495 0.442401 0.475935
0.182532 0.444439 0.715191
0.184438 0.446345 0.939000
0.196886 0.695306 0.057763
0.198633 0.697054 0.262979
0.200618 0.699039 0.496059
0.202656 0.701076 0.735314
0.204562 0.702982 0.959123
0.217368 0.956522 0.078245
0.219116 0.958270 0.283461
0.221100 0.960255 0.516541
0.223138 0.962292 0.755796
0.225044 0.964198 0.979605
0.376922 0.009298 0.009298
0.378670 0.011045 0.214514
0.380654 0.013030 0.447594
0.382692 0.015068 0.686849
0.384598 0.016974 0.910658
0.391484 0.195015 0.023860
0.393232 0.196763 0.229076
0.395217 0.198748 0.462156
0.397254 0.200785 0.701411
0.399160 0.202691 0.925220
0.411043 0.444448 0.043418
0.412790 0.446195 0.248634
0.414775 0.448180 0.481715
0.416813 0.450218 0.720970
0.418719 0.452124 0.944779
0.431166 0.701085 0.063542
0.432913 0.702833 0.268758
0.434898 0.704818 0.501838
0.436936 0.706856 0.741093
0.438842 0.708761 0.964902
0.451648 0.962302 0.084024
0.453396 0.964049 0.289240
0.455381 0.966034 0.522320
0.457418 0.968072 0.761575
0.459324 0.969978 0.985384
0.618652 0.015261 0.015261
0.620399 0.017008 0.220477
0.622384 0.018993 0.453557
0.624422 0.021031 0.692812
0.626328 0.022937 0.916621
0.633214 0.200978 0.029823
0.634962 0.202726 0.235039
0.636947 0.204711 0.468119
0.638984 0.206748 0.707374
0.640890 0.208654 0.931183
0.652772 0.450411 0.049381
0.654520 0.452158 0.254597
0.656505 0.454143 0.487678
0.658542 0.456181 0.726933
0.660448 0.458087 0.950742
0.672896 0.707048 0.069505
0.674643 0.708796 0.274721
0.676628 0.710781 0.507801
0.678666 0.712818 0.747056
0.680572 0.714724 0.970865
0.693378 0.968265 0.089987
0.695126 0.970012 0.295203
0.697110 0.971997 0.528283
0.699148 0.974035 0.767538
0.701054 0.975941 0.991347
0.864940 0.021336 0.021336
0.866688 0.023084 0.226552
0.868673 0.025069 0.459632
0.870710 0.027106 0.698887
0.872616 0.029012 0.922696
0.879503 0.207054 0.035898
0.881250 0.208801 0.241114
0.883235 0.210786 0.474195
0.885273 0.212824 0.713450
0.887179 0.214730 0.937259
0.899061 0.456486 0.055457
0.900809 0.458234 0.260673
0.902793 0.460219 0.493753
0.904831 0.462256 0.733008
0.906737 0.464162 0.956817
0.919184 0.713124 0.075580
0.920932 0.714871 0.280796
0.922917 0.716856 0.513876
0.924954 0.718894 0.753131
0.926860 0.720800 0.976940
0.939666 0.974340 0.096062
0.941414 0.976088 0.301278
0.943399 0.978072 0.534359
0.945437 0.980110 0.773614
0.947342 0.982016 0.997423
