skills/editops-orchestrator/assets/grade/luts/night_blue_v17.cube
TITLE "night_blue_v17"
LUT_3D_SIZE 9
DOMAIN_MIN 0.0 0.0 0.0
DOMAIN_MAX 1.0 1.0 1.0
0.000000 0.000000 0.000000
0.001046 0.001046 0.074777
0.002522 0.002522 0.180308
0.004077 0.004077 0.291479
0.005683 0.005683 0.406312
0.007328 0.007328 0.523892
0.009003 0.009003 0.643685
0.010705 0.010705 0.765337
0.011856 0.011856 0.847645
0.002773 0.022510 0.002773
0.003819 0.023556 0.077550
0.005295 0.025032 0.183081
0.006850 0.026587 0.294253
0.008456 0.028193 0.409085
0.010101 0.029838 0.526665
0.011777 0.031513 0.646458
0.013478 0.033215 0.768110
0.014629 0.034366 0.850419
0.016605 0.134774 0.016605
0.017651 0.135819 0.091382
0.019127 0.137295 0.196913
0.020682 0.138850 0.308084
0.022288 0.140457 0.422916
0.023932 0.142101 0.540497
0.025608 0.143777 0.660290
0.027310 0.145478 0.781942
0.028461 0.146630 0.864250
0.031620 0.256647 0.031620
0.032666 0.257693 0.106397
0.034142 0.259169 0.211928
0.035697 0.260724 0.323100
0.037303 0.262330 0.437932
0.038948 0.263975 0.555512
0.040624 0.265650 0.675305
0.042325 0.267352 0.796957
0.043476 0.268503 0.879266
0.047266 0.383632 0.047266
0.048311 0.384678 0.122042
0.049788 0.386154 0.227574
0.051342 0.387709 0.338745
0.052949 0.389315 0.453577
0.054593 0.390960 0.571157
0.056269 0.392636 0.690950
0.057970 0.394337 0.812603
0.059122 0.395488 0.894911
0.063353 0.514209 0.063353
0.064399 0.515255 0.138130
0.065875 0.516731 0.243661
0.067430 0.518286 0.354833
0.069036 0.519892 0.469665
0.070681 0.521536 0.587245
0.072356 0.523212 0.707038
0.074058 0.524914 0.828690
0.075209 0.526065 0.910999
0.079785 0.647579 0.079785
0.080831 0.648625 0.154562
0.082307 0.650101 0.260093
0.083862 0.651656 0.371265
0.085468 0.653262 0.486097
0.087113 0.654907 0.603677
0.088788 0.656582 0.723470
0.090490 0.658284 0.845122
0.091641 0.659435 0.927431
0.096500 0.783246 0.096500
0.097546 0.784292 0.171277
0.099022 0.785768 0.276808
0.100577 0.787323 0.387979
0.102183 0.788929 0.502812
0.103828 0.790574 0.620392
0.105503 0.792249 0.740185
0.107205 0.793951 0.861837
0.108356 0.795102 0.944146
0.113456 0.920869 0.113456
0.114502 0.921915 0.188233
0.115978 0.923391 0.293764
0.117533 0.924946 0.404935
0.119139 0.926552 0.519768
0.120784 0.928197 0.637348
0.122459 0.929872 0.757141
0.124161 0.931574 0.878793
0.125312 0.932725 0.961101
0.000000 0.000000 0.000000
0.001046 0.001046 0.074777
0.002522 0.002522 0.180308
0.004077 0.004077 0.291479
0.005683 0.005683 0.406312
0.007328 0.007328 0.523892
0.009003 0.009003 0.643685
0.010705 0.010705 0.765337
0.011856 0.011856 0.847645
0.002773 0.022510 0.002773
0.003819 0.023556 0.077550
0.005295 0.025032 0.183081
0.006850 0.026587 0.294253
0.008456 0.028193 0.409085
0.010101 0.029838 0.526665
0.011777 0.031513 0.646458
0.013478 0.033215 0.768110
0.014629 0.034366 0.850419
0.016605 0.134774 0.016605
0.017651 0.135819 0.091382
0.019127 0.137295 0.196913
0.020682 0.138850 0.308084
0.022288 0.140457 0.422916
0.023932 0.142101 0.540497
0.025608 0.143777 0.660290
0.027310 0.145478 0.781942
0.028461 0.146630 0.864250
0.031620 0.256647 0.031620
0.032666 0.257693 0.106397
0.034142 0.259169 0.211928
0.035697 0.260724 0.323100
0.037303 0.262330 0.437932
0.038948 0.263975 0.555512
0.040624 0.265650 0.675305
0.042325 0.267352 0.796957
0.043476 0.268503 0.879266
0.047266 0.383632 0.047266
0.048311 0.384678 0.122042
0.049788 0.386154 0.227574
0.051342 0.387709 0.338745
0.052949 0.389315 0.453577
0.054593 0.390960 0.571157
0.056269 0.392636 0.690950
0.057970 0.394337 0.812603
0.059122 0.395488 0.894911
0.063353 0.514209 0.063353
0.064399 0.515255 0.138130
0.065875 0.516731 0.243661
0.067430 0.518286 0.354833
0.069036 0.519892 0.469665
0.070681 0.521536 0.587245
0.072356 0.523212 0.707038
0.074058 0.524914 0.828690
0.075209 0.526065 0.910999
0.079785 0.647579 0.079785
0.080831 0.648625 0.154562
0.082307 0.650101 0.260093
0.083862 0.651656 0.371265
0.085468 0.653262 0.486097
0.087113 0.654907 0.603677
0.088788 0.656582 0.723470
0.090490 0.658284 0.845122
0.091641 0.659435 0.927431
0.096500 0.783246 0.096500
0.097546 0.784292 0.171277
0.099022 0.785768 0.276808
0.100577 0.787323 0.387979
0.102183 0.788929 0.502812
0.103828 0.790574 0.620392
0.105503 0.792249 0.740185
0.107205 0.793951 0.861837
0.108356 0.795102 0.944146
0.113456 0.920869 0.113456
0.114502 0.921915 0.188233
0.115978 0.923391 0.293764
0.117533 0.924946 0.404935
0.119139 0.926552 0.519768
0.120784 0.928197 0.637348
0.122459 0.929872 0.757141
0.124161 0.931574 0.878793
0.125312 0.932725 0.961101
0.063548 0.002548 0.002548
0.064594 0.003594 0.077325
0.066070 0.005070 0.182856
0.067625 0.006625 0.294027
0.069231 0.008231 0.408860
0.070876 0.009876 0.526440
0.072551 0.011551 0.646233
0.074253 0.013253 0.767885
0.075404 0.014404 0.850193
0.066321 0.025058 0.005321
0.067367 0.026104 0.080098
0.068843 0.027580 0.185629
0.070398 0.029135 0.296801
0.072004 0.030741 0.411633
0.073649 0.032386 0.529213
0.075325 0.034061 0.649006
0.077026 0.035763 0.770658
0.078177 0.036914 0.852967
0.080153 0.137322 0.019153
0.081199 0.138367 0.093930
0.082675 0.139843 0.199461
0.084230 0.141398 0.310632
0.085836 0.143005 0.425464
0.087480 0.144649 0.543045
0.089156 0.146325 0.662838
0.090857 0.148026 0.784490
0.092009 0.149178 0.866798
0.095168 0.259195 0.034168
0.096214 0.260241 0.108945
0.097690 0.261717 0.214476
0.099245 0.263272 0.325648
0.100851 0.264878 0.440480
0.102496 0.266523 0.558060
0.104171 0.268198 0.677853
0.105873 0.269900 0.799505
0.107024 0.271051 0.881814
0.110813 0.386180 0.049814
0.111859 0.387226 0.124590
0.113335 0.388702 0.230122
0.114890 0.390257 0.341293
0.116497 0.391863 0.456125
0.118141 0.393508 0.573705
0.119817 0.395184 0.693498
0.121518 0.396885 0.815150
0.122669 0.398036 0.897459
0.126901 0.516757 0.065901
0.127947 0.517803 0.140678
0.129423 0.519279 0.246209
0.130978 0.520834 0.357381
0.132584 0.522440 0.472213
0.134229 0.524084 0.589793
0.135904 0.525760 0.709586
0.137606 0.527462 0.831238
0.138757 0.528613 0.913547
0.143333 0.650127 0.082333
0.144379 0.651173 0.157110
0.145855 0.652649 0.262641
0.147410 0.654204 0.373813
0.149016 0.655810 0.488645
0.150661 0.657455 0.606225
0.152336 0.659130 0.726018
0.154038 0.660832 0.847670
0.155189 0.661983 0.929979
0.160048 0.785794 0.099048
0.161094 0.786840 0.173825
0.162570 0.788316 0.279356
0.164125 0.789871 0.390527
0.165731 0.791477 0.505360
0.167376 0.793122 0.622940
0.169051 0.794797 0.742733
0.170753 0.796499 0.864385
0.171904 0.797650 0.946694
0.177004 0.923417 0.116004
0.178050 0.924463 0.190781
0.179526 0.925939 0.296312
0.181081 0.927494 0.407483
0.182687 0.929100 0.522316
0.184332 0.930745 0.639896
0.186007 0.932420 0.759689
0.187709 0.934122 0.881341
0.188860 0.935273 0.963649
0.170900 0.006852 0.006852
0.171946 0.007898 0.081629
0.173422 0.009374 0.187160
0.174977 0.010929 0.298332
0.176583 0.012535 0.413164
0.178228 0.014180 0.530744
0.179903 0.015856 0.650537
0.181605 0.017557 0.772189
0.182756 0.018708 0.854498
0.173673 0.029363 0.009626
0.174719 0.030408 0.084402
0.176195 0.031885 0.189934
0.177750 0.033439 0.301105
0.179357 0.035046 0.415937
0.181001 0.036690 0.533517
0.182677 0.038366 0.653311
0.184378 0.040067 0.774963
0.185529 0.041219 0.857271
0.187505 0.141626 0.023457
0.188551 0.142672 0.098234
0.190027 0.144148 0.203765
0.191582 0.145703 0.314937
0.193188 0.147309 0.429769
0.194833 0.148954 0.547349
0.196508 0.150629 0.667142
0.198210 0.152331 0.788794
0.199361 0.153482 0.871103
0.202520 0.263500 0.038473
0.203566 0.264545 0.113249
0.205042 0.266022 0.218781
0.206597 0.267577 0.329952
0.208203 0.269183 0.444784
0.209848 0.270827 0.562364
0.211524 0.272503 0.682158
0.213225 0.274204 0.803810
0.214376 0.275356 0.886118
0.218166 0.390485 0.054118
0.219212 0.391531 0.128895
0.220688 0.393007 0.234426
0.222243 0.394562 0.345597
0.223849 0.396168 0.460429
0.225493 0.397812 0.578010
0.227169 0.399488 0.697803
0.228870 0.401189 0.819455
0.230022 0.402341 0.901763
0.234253 0.521061 0.070206
0.235299 0.522107 0.144982
0.236775 0.523583 0.250514
0.238330 0.525138 0.361685
0.239936 0.526744 0.476517
0.241581 0.528389 0.594097
0.243257 0.530064 0.713890
0.244958 0.531766 0.835543
0.246109 0.532917 0.917851
0.250685 0.654431 0.086637
0.251731 0.655477 0.161414
0.253207 0.656953 0.266946
0.254762 0.658508 0.378117
0.256368 0.660114 0.492949
0.258013 0.661759 0.610529
0.259688 0.663434 0.730322
0.261390 0.665136 0.851974
0.262541 0.666287 0.934283
0.267400 0.790098 0.103352
0.268446 0.791144 0.178129
0.269922 0.792620 0.283660
0.271477 0.794175 0.394832
0.273083 0.795781 0.509664
0.274728 0.797426 0.627244
0.276403 0.799102 0.747037
0.278105 0.800803 0.868689
0.279256 0.801954 0.950998
0.284356 0.927721 0.120308
0.285402 0.928767 0.195085
0.286878 0.930243 0.300616
0.288433 0.931798 0.411788
0.290039 0.933404 0.526620
0.291684 0.935049 0.644200
0.293359 0.936725 0.763993
0.295061 0.938426 0.885645
0.296212 0.939577 0.967954
0.284505 0.011407 0.011407
0.285551 0.012453 0.086184
0.287027 0.013929 0.191715
0.288582 0.015484 0.302887
0.290188 0.017090 0.417719
0.291833 0.018735 0.535299
0.293508 0.020411 0.655092
0.295210 0.022112 0.776744
0.296361 0.023263 0.859053
0.287278 0.033918 0.014181
0.288324 0.034963 0.088957
0.289800 0.036440 0.194489
0.291355 0.037995 0.305660
0.292962 0.039601 0.420492
0.294606 0.041245 0.538073
0.296282 0.042921 0.657866
0.297983 0.044622 0.779518
0.299134 0.045774 0.861826
0.301110 0.146181 0.028012
0.302156 0.147227 0.102789
0.303632 0.148703 0.208320
0.305187 0.150258 0.319492
0.306793 0.151864 0.434324
0.308438 0.153509 0.551904
0.310113 0.155184 0.671697
0.311815 0.156886 0.793349
0.312966 0.158037 0.875658
0.316125 0.268055 0.043028
0.317171 0.269101 0.117804
0.318647 0.270577 0.223336
0.320202 0.272132 0.334507
0.321808 0.273738 0.449339
0.323453 0.275382 0.566919
0.325129 0.277058 0.686713
0.326830 0.278759 0.808365
0.327981 0.279911 0.890673
0.331771 0.395040 0.058673
0.332817 0.396086 0.133450
0.334293 0.397562 0.238981
0.335848 0.399117 0.350152
0.337454 0.400723 0.464985
0.339098 0.402367 0.582565
0.340774 0.404043 0.702358
0.342475 0.405744 0.824010
0.343627 0.406896 0.906318
0.347858 0.525616 0.074761
0.348904 0.526662 0.149537
0.350380 0.528138 0.255069
0.351935 0.529693 0.366240
0.353541 0.531299 0.481072
0.355186 0.532944 0.598652
0.356862 0.534619 0.718446
0.358563 0.536321 0.840098
0.359714 0.537472 0.922406
0.364290 0.658986 0.091193
0.365336 0.660032 0.165969
0.366812 0.661508 0.271501
0.368367 0.663063 0.382672
0.369973 0.664669 0.497504
0.371618 0.666314 0.615084
0.373293 0.667989 0.734877
0.374995 0.669691 0.856530
0.376146 0.670842 0.938838
0.381005 0.794653 0.107907
0.382051 0.795699 0.182684
0.383527 0.797175 0.288215
0.385082 0.798730 0.399387
0.386688 0.800336 0.514219
0.388333 0.801981 0.631799
0.390008 0.803657 0.751592
0.391710 0.805358 0.873244
0.392861 0.806509 0.955553
0.397961 0.932276 0.124863
0.399007 0.933322 0.199640
0.400483 0.934798 0.305171
0.402038 0.936353 0.416343
0.403644 0.937959 0.531175
0.405289 0.939604 0.648755
0.406964 0.941280 0.768548
0.408666 0.942981 0.890200
0.409817 0.944132 0.972509
0.402042 0.016120 0.016120
0.403088 0.017166 0.090897
0.404564 0.018642 0.196428
0.406119 0.020197 0.307599
0.407725 0.021803 0.422432
0.409370 0.023448 0.540012
0.411046 0.025123 0.659805
0.412747 0.026825 0.781457
0.413898 0.027976 0.863766
0.404816 0.038630 0.018893
0.405862 0.039676 0.093670
0.407338 0.041152 0.199201
0.408893 0.042707 0.310373
0.410499 0.044313 0.425205
0.412143 0.045958 0.542785
0.413819 0.047634 0.662578
0.415520 0.049335 0.784230
0.416672 0.050486 0.866539
0.418647 0.150894 0.032725
0.419693 0.151940 0.107502
0.421169 0.153416 0.213033
0.422724 0.154971 0.324204
0.424330 0.156577 0.439037
0.425975 0.158221 0.556617
0.427650 0.159897 0.676410
0.429352 0.161598 0.798062
0.430503 0.162750 0.880370
0.433663 0.272767 0.047740
0.434709 0.273813 0.122517
0.436185 0.275289 0.228048
0.437740 0.276844 0.339220
0.439346 0.278450 0.454052
0.440990 0.280095 0.571632
0.442666 0.281771 0.691425
0.444367 0.283472 0.813077
0.445519 0.284623 0.895386
0.449308 0.399752 0.063386
0.450354 0.400798 0.138162
0.451830 0.402274 0.243694
0.453385 0.403829 0.354865
0.454991 0.405436 0.469697
0.456636 0.407080 0.587277
0.458311 0.408756 0.707071
0.460013 0.410457 0.828723
0.461164 0.411608 0.911031
0.465396 0.530329 0.079473
0.466442 0.531375 0.154250
0.467918 0.532851 0.259781
0.469473 0.534406 0.370953
0.471079 0.536012 0.485785
0.472723 0.537657 0.603365
0.474399 0.539332 0.723158
0.476100 0.541034 0.844810
0.477252 0.542185 0.927119
0.481828 0.663699 0.095905
0.482873 0.664745 0.170682
0.484350 0.666221 0.276213
0.485904 0.667776 0.387385
0.487511 0.669382 0.502217
0.489155 0.671027 0.619797
0.490831 0.672702 0.739590
0.492532 0.674404 0.861242
0.493684 0.675555 0.943551
0.498542 0.799366 0.112620
0.499588 0.800412 0.187397
0.501064 0.801888 0.292928
0.502619 0.803443 0.404100
0.504226 0.805049 0.518932
0.505870 0.806694 0.636512
0.507546 0.808369 0.756305
0.509247 0.810071 0.877957
0.510398 0.811222 0.960266
0.515498 0.936989 0.129576
0.516544 0.938035 0.204353
0.518020 0.939511 0.309884
0.519575 0.941066 0.421055
0.521181 0.942672 0.535888
0.522826 0.944317 0.653468
0.524502 0.945992 0.773261
0.526203 0.947694 0.894913
0.527354 0.948845 0.977222
0.522494 0.020950 0.020950
0.523540 0.021996 0.095726
0.525016 0.023472 0.201258
0.526571 0.025027 0.312429
0.528177 0.026633 0.427261
0.529822 0.028277 0.544841
0.531497 0.029953 0.664635
0.533199 0.031654 0.786287
0.534350 0.032806 0.868595
0.525268 0.043460 0.023723
0.526313 0.044506 0.098500
0.527790 0.045982 0.204031
0.529345 0.047537 0.315202
0.530951 0.049143 0.430035
0.532595 0.050788 0.547615
0.534271 0.052463 0.667408
0.535972 0.054165 0.789060
0.537124 0.055316 0.871369
0.539099 0.155723 0.037554
0.540145 0.156769 0.112331
0.541621 0.158245 0.217862
0.543176 0.159800 0.329034
0.544782 0.161406 0.443866
0.546427 0.163051 0.561446
0.548102 0.164726 0.681239
0.549804 0.166428 0.802891
0.550955 0.167579 0.885200
0.554115 0.277597 0.052570
0.555160 0.278643 0.127347
0.556636 0.280119 0.232878
0.558191 0.281674 0.344049
0.559798 0.283280 0.458882
0.561442 0.284925 0.576462
0.563118 0.286600 0.696255
0.564819 0.288302 0.817907
0.565971 0.289453 0.900215
0.569760 0.404582 0.068215
0.570806 0.405628 0.142992
0.572282 0.407104 0.248523
0.573837 0.408659 0.359695
0.575443 0.410265 0.474527
0.577087 0.411910 0.592107
0.578763 0.413585 0.711900
0.580465 0.415287 0.833552
0.581616 0.416438 0.915861
0.585847 0.535158 0.084303
0.586893 0.536204 0.159080
0.588369 0.537680 0.264611
0.589924 0.539235 0.375782
0.591531 0.540841 0.490615
0.593175 0.542486 0.608195
0.594851 0.544162 0.727988
0.596552 0.545863 0.849640
0.597703 0.547014 0.931948
0.602279 0.668529 0.100735
0.603325 0.669574 0.175512
0.604801 0.671051 0.281043
0.606356 0.672605 0.392214
0.607962 0.674212 0.507046
0.609607 0.675856 0.624627
0.611283 0.677532 0.744420
0.612984 0.679233 0.866072
0.614135 0.680385 0.948380
0.618994 0.804196 0.117450
0.620040 0.805242 0.192226
0.621516 0.806718 0.297758
0.623071 0.808273 0.408929
0.624677 0.809879 0.523761
0.626322 0.811523 0.641342
0.627998 0.813199 0.761135
0.629699 0.814900 0.882787
0.630850 0.816052 0.965095
0.635950 0.941819 0.134406
0.636996 0.942865 0.209182
0.638472 0.944341 0.314714
0.640027 0.945896 0.425885
0.641633 0.947502 0.540717
0.643278 0.949146 0.658297
0.644953 0.950822 0.778091
0.646655 0.952523 0.899743
0.647806 0.953675 0.982051
0.645277 0.025873 0.025873
0.646323 0.026919 0.100649
0.647799 0.028395 0.206181
0.649354 0.029950 0.317352
0.650960 0.031556 0.432184
0.652605 0.033200 0.549764
0.654280 0.034876 0.669558
0.655982 0.036577 0.791210
0.657133 0.037729 0.873518
0.648050 0.048383 0.028646
0.649096 0.049429 0.103423
0.650572 0.050905 0.208954
0.652127 0.052460 0.320125
0.653733 0.054066 0.434958
0.655378 0.055711 0.552538
0.657053 0.057386 0.672331
0.658755 0.059088 0.793983
0.659906 0.060239 0.876292
0.661882 0.160646 0.042478
0.662928 0.161692 0.117254
0.664404 0.163168 0.222786
0.665959 0.164723 0.333957
0.667565 0.166329 0.448789
0.669209 0.167974 0.566369
0.670885 0.169649 0.686162
0.672586 0.171351 0.807814
0.673738 0.172502 0.890123
0.676897 0.282520 0.057493
0.677943 0.283566 0.132270
0.679419 0.285042 0.237801
0.680974 0.286597 0.348972
0.682580 0.288203 0.463805
0.684225 0.289848 0.581385
0.685900 0.291523 0.701178
0.687602 0.293225 0.822830
0.688753 0.294376 0.905138
0.692542 0.409505 0.073138
0.693588 0.410551 0.147915
0.695064 0.412027 0.253446
0.696619 0.413582 0.364618
0.698225 0.415188 0.479450
0.699870 0.416833 0.597030
0.701546 0.418508 0.716823
0.703247 0.420210 0.838475
0.704398 0.421361 0.920784
0.708630 0.540081 0.089226
0.709676 0.541127 0.164003
0.711152 0.542603 0.269534
0.712707 0.544158 0.380705
0.714313 0.545765 0.495538
0.715958 0.547409 0.613118
0.717633 0.549085 0.732911
0.719335 0.550786 0.854563
0.720486 0.551937 0.936871
0.725062 0.673452 0.105658
0.726108 0.674498 0.180435
0.727584 0.675974 0.285966
0.729139 0.677529 0.397137
0.730745 0.679135 0.511969
0.732390 0.680779 0.629550
0.734065 0.682455 0.749343
0.735767 0.684156 0.870995
0.736918 0.685308 0.953303
0.741777 0.809119 0.122373
0.742823 0.810165 0.197149
0.744299 0.811641 0.302681
0.745854 0.813196 0.413852
0.747460 0.814802 0.528684
0.749105 0.816446 0.646265
0.750780 0.818122 0.766058
0.752482 0.819823 0.887710
0.753633 0.820975 0.970018
0.758733 0.946742 0.139329
0.759779 0.947788 0.214105
0.761255 0.949264 0.319637
0.762810 0.950819 0.430808
0.764416 0.952425 0.545640
0.766061 0.954069 0.663220
0.767736 0.955745 0.783014
0.769438 0.957446 0.904666
0.770589 0.958598 0.986974
0.770009 0.030874 0.030874
0.771055 0.031920 0.105651
0.772531 0.033396 0.211182
0.774086 0.034951 0.322353
0.775692 0.036557 0.437185
0.777336 0.038202 0.554766
0.779012 0.039877 0.674559
0.780713 0.041579 0.796211
0.781865 0.042730 0.878519
0.772782 0.053384 0.033647
0.773828 0.054430 0.108424
0.775304 0.055906 0.213955
0.776859 0.057461 0.325127
0.778465 0.059067 0.439959
0.780110 0.060712 0.557539
0.781785 0.062387 0.677332
0.783487 0.064089 0.798984
0.784638 0.065240 0.881293
0.786614 0.165647 0.047479
0.787659 0.166693 0.122255
0.789136 0.168169 0.227787
0.790690 0.169724 0.338958
0.792297 0.171330 0.453790
0.793941 0.172975 0.571370
0.795617 0.174651 0.691164
0.797318 0.176352 0.812816
0.798470 0.177503 0.895124
0.801629 0.287521 0.062494
0.802675 0.288567 0.137271
0.804151 0.290043 0.242802
0.805706 0.291598 0.353974
0.807312 0.293204 0.468806
0.808957 0.294849 0.586386
0.810632 0.296524 0.706179
0.812334 0.298226 0.827831
0.813485 0.299377 0.910140
0.817274 0.414506 0.078139
0.818320 0.415552 0.152916
0.819796 0.417028 0.258447
0.821351 0.418583 0.369619
0.822957 0.420189 0.484451
0.824602 0.421834 0.602031
0.826278 0.423509 0.721824
0.827979 0.425211 0.843476
0.829130 0.426362 0.925785
0.833362 0.545083 0.094227
0.834408 0.546129 0.169004
0.835884 0.547605 0.274535
0.837439 0.549160 0.385707
0.839045 0.550766 0.500539
0.840690 0.552410 0.618119
0.842365 0.554086 0.737912
0.844067 0.555787 0.859564
0.845218 0.556939 0.941873
0.849794 0.678453 0.110659
0.850840 0.679499 0.185436
0.852316 0.680975 0.290967
0.853871 0.682530 0.402138
0.855477 0.684136 0.516971
0.857122 0.685780 0.634551
0.858797 0.687456 0.754344
0.860499 0.689158 0.875996
0.861650 0.690309 0.958305
0.866509 0.814120 0.127374
0.867555 0.815166 0.202151
0.869031 0.816642 0.307682
0.870586 0.818197 0.418853
0.872192 0.819803 0.533686
0.873836 0.821448 0.651266
0.875512 0.823123 0.771059
0.877214 0.824825 0.892711
0.878365 0.825976 0.975019
0.883465 0.951743 0.144330
0.884511 0.952789 0.219107
0.885987 0.954265 0.324638
0.887542 0.955820 0.435809
0.889148 0.957426 0.550641
0.890792 0.959071 0.668222
0.892468 0.960746 0.788015
0.894169 0.962448 0.909667
0.895321 0.963599 0.991975
