skills/editops-orchestrator/assets/grade/luts/night_blue_v15.cube
TITLE "night_blue_v15"
LUT_3D_SIZE 5
DOMAIN_MIN 0.0 0.0 0.0
DOMAIN_MAX 1.0 1.0 1.0
0.000000 0.000000 0.000000
0.002389 0.002389 0.184641
0.005332 0.005332 0.412013
0.008409 0.008409 0.649815
0.011096 0.011096 0.857412
0.016526 0.143775 0.016526
0.018916 0.146165 0.201167
0.021858 0.149107 0.428540
0.024936 0.152185 0.666341
0.027622 0.154871 0.873938
0.045175 0.393010 0.045175
0.047564 0.395399 0.229816
0.050507 0.398342 0.457188
0.053584 0.401419 0.694990
0.056271 0.404106 0.902587
0.075376 0.655754 0.075376
0.077766 0.658143 0.260017
0.080708 0.661086 0.487390
0.083786 0.664163 0.725191
0.086472 0.666850 0.932788
0.106544 0.926906 0.106544
0.108934 0.929296 0.291185
0.111876 0.932238 0.518558
0.114954 0.935316 0.756359
0.117640 0.938002 0.963956
0.076890 0.002858 0.002858
0.079279 0.005248 0.187499
0.082222 0.008190 0.414871
0.085299 0.011268 0.652673
0.087986 0.013954 0.860270
0.093416 0.146633 0.019384
0.095805 0.149023 0.204025
0.098748 0.151965 0.431398
0.101825 0.155043 0.669200
0.104512 0.157729 0.876796
0.122064 0.395868 0.048033
0.124454 0.398257 0.232674
0.127396 0.401200 0.460046
0.130474 0.404277 0.697848
0.133160 0.406964 0.905445
0.152266 0.658612 0.078234
0.154655 0.661001 0.262875
0.157598 0.663944 0.490248
0.160675 0.667021 0.728049
0.163362 0.669708 0.935646
0.183434 0.929764 0.109402
0.185823 0.932154 0.294043
0.188766 0.935096 0.521416
0.191843 0.938174 0.759217
0.194530 0.940860 0.966814
0.300918 0.011186 0.011186
0.303308 0.013575 0.195826
0.306250 0.016518 0.423199
0.309327 0.019595 0.661001
0.312014 0.022282 0.868597
0.317444 0.154961 0.027712
0.319834 0.157350 0.212353
0.322776 0.160293 0.439725
0.325854 0.163370 0.677527
0.328540 0.166057 0.885124
0.346093 0.404195 0.056360
0.348482 0.406585 0.241001
0.351425 0.409527 0.468374
0.354502 0.412605 0.706176
0.357189 0.415291 0.913772
0.376294 0.666939 0.086562
0.378684 0.669329 0.271202
0.381626 0.672271 0.498575
0.384704 0.675349 0.736377
0.387390 0.678035 0.943974
0.407462 0.938092 0.117730
0.409852 0.940481 0.302370
0.412794 0.943424 0.529743
0.415872 0.946501 0.767545
0.418558 0.949188 0.975142
0.539899 0.020069 0.020069
0.542288 0.022458 0.204709
0.545231 0.025401 0.432082
0.548308 0.028478 0.669884
0.550995 0.031165 0.877481
0.556425 0.163844 0.036595
0.558815 0.166234 0.221236
0.561757 0.169176 0.448609
0.564835 0.172254 0.686410
0.567521 0.174940 0.894007
0.585074 0.413078 0.065244
0.587463 0.415468 0.249884
0.590406 0.418410 0.477257
0.593483 0.421488 0.715059
0.596170 0.424174 0.922655
0.615275 0.675822 0.095445
0.617664 0.678212 0.280086
0.620607 0.681154 0.507458
0.623684 0.684232 0.745260
0.626371 0.686918 0.952857
0.646443 0.946975 0.126613
0.648832 0.949365 0.311254
0.651775 0.952307 0.538626
0.654852 0.955385 0.776428
0.657539 0.958071 0.984025
0.787412 0.029269 0.029269
0.789801 0.031659 0.213910
0.792744 0.034601 0.441283
0.795821 0.037679 0.679084
0.798508 0.040365 0.886681
0.803938 0.173044 0.045796
0.806327 0.175434 0.230436
0.809270 0.178376 0.457809
0.812347 0.181454 0.695611
0.815034 0.184140 0.903207
0.832586 0.422279 0.074444
0.834976 0.424668 0.259085
0.837918 0.427611 0.486457
0.840996 0.430688 0.724259
0.843682 0.433375 0.931856
0.862788 0.685023 0.104645
0.865177 0.687412 0.289286
0.868120 0.690355 0.516659
0.871197 0.693432 0.754461
0.873884 0.696119 0.962057
0.893956 0.956176 0.135813
0.896345 0.958565 0.320454
0.899288 0.961508 0.547827
0.902365 0.964585 0.785629
0.905052 0.967272 0.993225
