skills/editops-orchestrator/assets/grade/luts/night_blue_v07.cube
TITLE "night_blue_v07"
LUT_3D_SIZE 17
DOMAIN_MIN 0.0 0.0 0.0
DOMAIN_MAX 1.0 1.0 1.0
0.000000 0.000000 0.000000
0.000335 0.000335 0.037331
0.000818 0.000818 0.090992
0.001315 0.001315 0.146374
0.001823 0.001823 0.202840
0.002337 0.002337 0.260106
0.002858 0.002858 0.318007
0.003383 0.003383 0.376438
0.003912 0.003912 0.435324
0.004445 0.004445 0.494608
0.004981 0.004981 0.554246
0.005519 0.005519 0.614205
0.006061 0.006061 0.674455
0.006605 0.006605 0.734974
0.007151 0.007151 0.795741
0.007699 0.007699 0.856738
0.008056 0.008056 0.896477
0.000515 0.006243 0.000515
0.000850 0.006578 0.037846
0.001332 0.007060 0.091506
0.001830 0.007558 0.146889
0.002337 0.008065 0.203355
0.002852 0.008580 0.260620
0.003372 0.009100 0.318522
0.003897 0.009625 0.376953
0.004426 0.010155 0.435838
0.004959 0.010687 0.495122
0.005495 0.011223 0.554761
0.006034 0.011762 0.614719
0.006575 0.012303 0.674970
0.007119 0.012847 0.735488
0.007665 0.013393 0.796255
0.008213 0.013942 0.857253
0.008571 0.014299 0.896992
0.005098 0.061857 0.005098
0.005434 0.062193 0.042429
0.005916 0.062675 0.096090
0.006414 0.063173 0.151473
0.006921 0.063680 0.207939
0.007436 0.064195 0.265204
0.007956 0.064715 0.323105
0.008481 0.065240 0.381537
0.009010 0.065769 0.440422
0.009543 0.066302 0.499706
0.010079 0.066838 0.559345
0.010618 0.067377 0.619303
0.011159 0.067918 0.679554
0.011703 0.068462 0.740072
0.012249 0.069008 0.800839
0.012797 0.069556 0.861836
0.013154 0.069913 0.901575
0.009944 0.120648 0.009944
0.010279 0.120983 0.047275
0.010762 0.121465 0.100936
0.011259 0.121963 0.156318
0.011767 0.122470 0.212784
0.012281 0.122985 0.270049
0.012802 0.123505 0.327951
0.013327 0.124030 0.386382
0.013856 0.124560 0.445268
0.014389 0.125092 0.504551
0.014924 0.125628 0.564190
0.015463 0.126167 0.624149
0.016005 0.126709 0.684399
0.016549 0.127252 0.744918
0.017095 0.127798 0.805684
0.017643 0.128347 0.866682
0.018000 0.128704 0.906421
0.014914 0.180954 0.014914
0.015250 0.181289 0.052245
0.015732 0.181771 0.105906
0.016230 0.182269 0.161289
0.016737 0.182777 0.217755
0.017252 0.183291 0.275020
0.017772 0.183811 0.332921
0.018297 0.184337 0.391352
0.018826 0.184866 0.450238
0.019359 0.185398 0.509522
0.019895 0.185934 0.569160
0.020434 0.186473 0.629119
0.020975 0.187015 0.689370
0.021519 0.187558 0.749888
0.022065 0.188104 0.810655
0.022613 0.188653 0.871652
0.022970 0.189010 0.911391
0.019970 0.242291 0.019970
0.020305 0.242626 0.057301
0.020787 0.243108 0.110961
0.021285 0.243606 0.166344
0.021792 0.244113 0.222810
0.022307 0.244628 0.280075
0.022827 0.245148 0.337977
0.023352 0.245673 0.396408
0.023882 0.246203 0.455293
0.024414 0.246735 0.514577
0.024950 0.247271 0.574216
0.025489 0.247810 0.634175
0.026031 0.248351 0.694425
0.026574 0.248895 0.754944
0.027120 0.249441 0.815710
0.027669 0.249989 0.876708
0.028026 0.250347 0.916447
0.025090 0.304414 0.025090
0.025425 0.304750 0.062421
0.025908 0.305232 0.116082
0.026405 0.305730 0.171464
0.026913 0.306237 0.227930
0.027427 0.306752 0.285196
0.027948 0.307272 0.343097
0.028473 0.307797 0.401528
0.029002 0.308326 0.460414
0.029535 0.308859 0.519698
0.030071 0.309395 0.579336
0.030609 0.309934 0.639295
0.031151 0.310475 0.699545
0.031695 0.311019 0.760064
0.032241 0.311565 0.820830
0.032789 0.312113 0.881828
0.033146 0.312470 0.921567
0.030263 0.367177 0.030263
0.030598 0.367512 0.067594
0.031081 0.367994 0.121255
0.031578 0.368492 0.176637
0.032086 0.368999 0.233103
0.032600 0.369514 0.290368
0.033121 0.370034 0.348270
0.033646 0.370559 0.406701
0.034175 0.371088 0.465587
0.034708 0.371621 0.524870
0.035243 0.372157 0.584509
0.035782 0.372696 0.644468
0.036324 0.373237 0.704718
0.036868 0.373781 0.765237
0.037414 0.374327 0.826003
0.037962 0.374875 0.887001
0.038319 0.375233 0.926740
0.035480 0.430477 0.035480
0.035816 0.430813 0.072811
0.036298 0.431295 0.126472
0.036795 0.431792 0.181854
0.037303 0.432300 0.238320
0.037817 0.432815 0.295586
0.038338 0.433335 0.353487
0.038863 0.433860 0.411918
0.039392 0.434389 0.470804
0.039925 0.434922 0.530088
0.040461 0.435458 0.589726
0.041000 0.435997 0.649685
0.041541 0.436538 0.709936
0.042085 0.437082 0.770454
0.042631 0.437628 0.831221
0.043179 0.438176 0.892218
0.043536 0.438533 0.931957
0.040736 0.494244 0.040736
0.041071 0.494579 0.078067
0.041553 0.495061 0.131727
0.042051 0.495559 0.187110
0.042559 0.496066 0.243576
0.043073 0.496581 0.300841
0.043593 0.497101 0.358743
0.044119 0.497626 0.417174
0.044648 0.498156 0.476060
0.045180 0.498688 0.535343
0.045716 0.499224 0.594982
0.046255 0.499763 0.654941
0.046797 0.500305 0.715191
0.047340 0.500848 0.775710
0.047887 0.501394 0.836476
0.048435 0.501943 0.897474
0.048792 0.502300 0.937213
0.046025 0.558421 0.046025
0.046361 0.558757 0.083356
0.046843 0.559239 0.137017
0.047341 0.559737 0.192400
0.047848 0.560244 0.248866
0.048363 0.560759 0.306131
0.048883 0.561279 0.364032
0.049408 0.561804 0.422464
0.049937 0.562333 0.481349
0.050470 0.562866 0.540633
0.051006 0.563402 0.600272
0.051545 0.563941 0.660230
0.052086 0.564482 0.720481
0.052630 0.565026 0.780999
0.053176 0.565572 0.841766
0.053724 0.566120 0.902763
0.054081 0.566477 0.942502
0.051345 0.622967 0.051345
0.051681 0.623303 0.088676
0.052163 0.623785 0.142337
0.052661 0.624282 0.197720
0.053168 0.624790 0.254185
0.053683 0.625304 0.311451
0.054203 0.625825 0.369352
0.054728 0.626350 0.427783
0.055257 0.626879 0.486669
0.055790 0.627412 0.545953
0.056326 0.627948 0.605591
0.056865 0.628487 0.665550
0.057406 0.629028 0.725801
0.057950 0.629572 0.786319
0.058496 0.630118 0.847086
0.059044 0.630666 0.908083
0.059401 0.631023 0.947822
0.056693 0.687846 0.056693
0.057028 0.688182 0.094024
0.057510 0.688664 0.147684
0.058008 0.689162 0.203067
0.058515 0.689669 0.259533
0.059030 0.690184 0.316798
0.059550 0.690704 0.374700
0.060075 0.691229 0.433131
0.060605 0.691758 0.492016
0.061137 0.692291 0.551300
0.061673 0.692827 0.610939
0.062212 0.693366 0.670898
0.062753 0.693907 0.731148
0.063297 0.694451 0.791667
0.063843 0.694997 0.852433
0.064391 0.695545 0.913431
0.064749 0.695902 0.953170
0.062065 0.753031 0.062065
0.062401 0.753366 0.099396
0.062883 0.753848 0.153057
0.063380 0.754346 0.208439
0.063888 0.754853 0.264905
0.064402 0.755368 0.322171
0.064923 0.755888 0.380072
0.065448 0.756413 0.438503
0.065977 0.756943 0.497389
0.066510 0.757475 0.556673
0.067046 0.758011 0.616311
0.067584 0.758550 0.676270
0.068126 0.759091 0.736520
0.068670 0.759635 0.797039
0.069216 0.760181 0.857806
0.069764 0.760729 0.918803
0.070121 0.761087 0.958542
0.067461 0.818496 0.067461
0.067796 0.818831 0.104792
0.068278 0.819313 0.158452
0.068776 0.819811 0.213835
0.069284 0.820319 0.270301
0.069798 0.820833 0.327566
0.070318 0.821353 0.385468
0.070844 0.821879 0.443899
0.071373 0.822408 0.502784
0.071905 0.822940 0.562068
0.072441 0.823476 0.621707
0.072980 0.824015 0.681666
0.073522 0.824557 0.741916
0.074065 0.825100 0.802435
0.074611 0.825646 0.863201
0.075160 0.826195 0.924199
0.075517 0.826552 0.963938
0.072878 0.884221 0.072878
0.073213 0.884557 0.110209
0.073696 0.885039 0.163870
0.074193 0.885537 0.219252
0.074701 0.886044 0.275718
0.075215 0.886559 0.332983
0.075736 0.887079 0.390885
0.076261 0.887604 0.449316
0.076790 0.888133 0.508202
0.077323 0.888666 0.567485
0.077858 0.889202 0.627124
0.078397 0.889741 0.687083
0.078939 0.890282 0.747333
0.079483 0.890826 0.807852
0.080029 0.891372 0.868618
0.080577 0.891920 0.929616
0.080934 0.892277 0.969355
0.078315 0.950190 0.078315
0.078651 0.950526 0.115646
0.079133 0.951008 0.169307
0.079630 0.951506 0.224689
0.080138 0.952013 0.281155
0.080652 0.952528 0.338421
0.081173 0.953048 0.396322
0.081698 0.953573 0.454753
0.082227 0.954102 0.513639
0.082760 0.954635 0.572923
0.083296 0.955171 0.632561
0.083834 0.955710 0.692520
0.084376 0.956251 0.752770
0.084920 0.956795 0.813289
0.085466 0.957341 0.874056
0.086014 0.957889 0.935053
0.086371 0.958246 0.974792
0.000000 0.000000 0.000000
0.000335 0.000335 0.037331
0.000818 0.000818 0.090992
0.001315 0.001315 0.146374
0.001823 0.001823 0.202840
0.002337 0.002337 0.260106
0.002858 0.002858 0.318007
0.003383 0.003383 0.376438
0.003912 0.003912 0.435324
0.004445 0.004445 0.494608
0.004981 0.004981 0.554246
0.005519 0.005519 0.614205
0.006061 0.006061 0.674455
0.006605 0.006605 0.734974
0.007151 0.007151 0.795741
0.007699 0.007699 0.856738
0.008056 0.008056 0.896477
0.000515 0.006243 0.000515
0.000850 0.006578 0.037846
0.001332 0.007060 0.091506
0.001830 0.007558 0.146889
0.002337 0.008065 0.203355
0.002852 0.008580 0.260620
0.003372 0.009100 0.318522
0.003897 0.009625 0.376953
0.004426 0.010155 0.435838
0.004959 0.010687 0.495122
0.005495 0.011223 0.554761
0.006034 0.011762 0.614719
0.006575 0.012303 0.674970
0.007119 0.012847 0.735488
0.007665 0.013393 0.796255
0.008213 0.013942 0.857253
0.008571 0.014299 0.896992
0.005098 0.061857 0.005098
0.005434 0.062193 0.042429
0.005916 0.062675 0.096090
0.006414 0.063173 0.151473
0.006921 0.063680 0.207939
0.007436 0.064195 0.265204
0.007956 0.064715 0.323105
0.008481 0.065240 0.381537
0.009010 0.065769 0.440422
0.009543 0.066302 0.499706
0.010079 0.066838 0.559345
0.010618 0.067377 0.619303
0.011159 0.067918 0.679554
0.011703 0.068462 0.740072
0.012249 0.069008 0.800839
0.012797 0.069556 0.861836
0.013154 0.069913 0.901575
0.009944 0.120648 0.009944
0.010279 0.120983 0.047275
0.010762 0.121465 0.100936
0.011259 0.121963 0.156318
0.011767 0.122470 0.212784
0.012281 0.122985 0.270049
0.012802 0.123505 0.327951
0.013327 0.124030 0.386382
0.013856 0.124560 0.445268
0.014389 0.125092 0.504551
0.014924 0.125628 0.564190
0.015463 0.126167 0.624149
0.016005 0.126709 0.684399
0.016549 0.127252 0.744918
0.017095 0.127798 0.805684
0.017643 0.128347 0.866682
0.018000 0.128704 0.906421
0.014914 0.180954 0.014914
0.015250 0.181289 0.052245
0.015732 0.181771 0.105906
0.016230 0.182269 0.161289
0.016737 0.182777 0.217755
0.017252 0.183291 0.275020
0.017772 0.183811 0.332921
0.018297 0.184337 0.391352
0.018826 0.184866 0.450238
0.019359 0.185398 0.509522
0.019895 0.185934 0.569160
0.020434 0.186473 0.629119
0.020975 0.187015 0.689370
0.021519 0.187558 0.749888
0.022065 0.188104 0.810655
0.022613 0.188653 0.871652
0.022970 0.189010 0.911391
0.019970 0.242291 0.019970
0.020305 0.242626 0.057301
0.020787 0.243108 0.110961
0.021285 0.243606 0.166344
0.021792 0.244113 0.222810
0.022307 0.244628 0.280075
0.022827 0.245148 0.337977
0.023352 0.245673 0.396408
0.023882 0.246203 0.455293
0.024414 0.246735 0.514577
0.024950 0.247271 0.574216
0.025489 0.247810 0.634175
0.026031 0.248351 0.694425
0.026574 0.248895 0.754944
0.027120 0.249441 0.815710
0.027669 0.249989 0.876708
0.028026 0.250347 0.916447
0.025090 0.304414 0.025090
0.025425 0.304750 0.062421
0.025908 0.305232 0.116082
0.026405 0.305730 0.171464
0.026913 0.306237 0.227930
0.027427 0.306752 0.285196
0.027948 0.307272 0.343097
0.028473 0.307797 0.401528
0.029002 0.308326 0.460414
0.029535 0.308859 0.519698
0.030071 0.309395 0.579336
0.030609 0.309934 0.639295
0.031151 0.310475 0.699545
0.031695 0.311019 0.760064
0.032241 0.311565 0.820830
0.032789 0.312113 0.881828
0.033146 0.312470 0.921567
0.030263 0.367177 0.030263
0.030598 0.367512 0.067594
0.031081 0.367994 0.121255
0.031578 0.368492 0.176637
0.032086 0.368999 0.233103
0.032600 0.369514 0.290368
0.033121 0.370034 0.348270
0.033646 0.370559 0.406701
0.034175 0.371088 0.465587
0.034708 0.371621 0.524870
0.035243 0.372157 0.584509
0.035782 0.372696 0.644468
0.036324 0.373237 0.704718
0.036868 0.373781 0.765237
0.037414 0.374327 0.826003
0.037962 0.374875 0.887001
0.038319 0.375233 0.926740
0.035480 0.430477 0.035480
0.035816 0.430813 0.072811
0.036298 0.431295 0.126472
0.036795 0.431792 0.181854
0.037303 0.432300 0.238320
0.037817 0.432815 0.295586
0.038338 0.433335 0.353487
0.038863 0.433860 0.411918
0.039392 0.434389 0.470804
0.039925 0.434922 0.530088
0.040461 0.435458 0.589726
0.041000 0.435997 0.649685
0.041541 0.436538 0.709936
0.042085 0.437082 0.770454
0.042631 0.437628 0.831221
0.043179 0.438176 0.892218
0.043536 0.438533 0.931957
0.040736 0.494244 0.040736
0.041071 0.494579 0.078067
0.041553 0.495061 0.131727
0.042051 0.495559 0.187110
0.042559 0.496066 0.243576
0.043073 0.496581 0.300841
0.043593 0.497101 0.358743
0.044119 0.497626 0.417174
0.044648 0.498156 0.476060
0.045180 0.498688 0.535343
0.045716 0.499224 0.594982
0.046255 0.499763 0.654941
0.046797 0.500305 0.715191
0.047340 0.500848 0.775710
0.047887 0.501394 0.836476
0.048435 0.501943 0.897474
0.048792 0.502300 0.937213
0.046025 0.558421 0.046025
0.046361 0.558757 0.083356
0.046843 0.559239 0.137017
0.047341 0.559737 0.192400
0.047848 0.560244 0.248866
0.048363 0.560759 0.306131
0.048883 0.561279 0.364032
0.049408 0.561804 0.422464
0.049937 0.562333 0.481349
0.050470 0.562866 0.540633
0.051006 0.563402 0.600272
0.051545 0.563941 0.660230
0.052086 0.564482 0.720481
0.052630 0.565026 0.780999
0.053176 0.565572 0.841766
0.053724 0.566120 0.902763
0.054081 0.566477 0.942502
0.051345 0.622967 0.051345
0.051681 0.623303 0.088676
0.052163 0.623785 0.142337
0.052661 0.624282 0.197720
0.053168 0.624790 0.254185
0.053683 0.625304 0.311451
0.054203 0.625825 0.369352
0.054728 0.626350 0.427783
0.055257 0.626879 0.486669
0.055790 0.627412 0.545953
0.056326 0.627948 0.605591
0.056865 0.628487 0.665550
0.057406 0.629028 0.725801
0.057950 0.629572 0.786319
0.058496 0.630118 0.847086
0.059044 0.630666 0.908083
0.059401 0.631023 0.947822
0.056693 0.687846 0.056693
0.057028 0.688182 0.094024
0.057510 0.688664 0.147684
0.058008 0.689162 0.203067
0.058515 0.689669 0.259533
0.059030 0.690184 0.316798
0.059550 0.690704 0.374700
0.060075 0.691229 0.433131
0.060605 0.691758 0.492016
0.061137 0.692291 0.551300
0.061673 0.692827 0.610939
0.062212 0.693366 0.670898
0.062753 0.693907 0.731148
0.063297 0.694451 0.791667
0.063843 0.694997 0.852433
0.064391 0.695545 0.913431
0.064749 0.695902 0.953170
0.062065 0.753031 0.062065
0.062401 0.753366 0.099396
0.062883 0.753848 0.153057
0.063380 0.754346 0.208439
0.063888 0.754853 0.264905
0.064402 0.755368 0.322171
0.064923 0.755888 0.380072
0.065448 0.756413 0.438503
0.065977 0.756943 0.497389
0.066510 0.757475 0.556673
0.067046 0.758011 0.616311
0.067584 0.758550 0.676270
0.068126 0.759091 0.736520
0.068670 0.759635 0.797039
0.069216 0.760181 0.857806
0.069764 0.760729 0.918803
0.070121 0.761087 0.958542
0.067461 0.818496 0.067461
0.067796 0.818831 0.104792
0.068278 0.819313 0.158452
0.068776 0.819811 0.213835
0.069284 0.820319 0.270301
0.069798 0.820833 0.327566
0.070318 0.821353 0.385468
0.070844 0.821879 0.443899
0.071373 0.822408 0.502784
0.071905 0.822940 0.562068
0.072441 0.823476 0.621707
0.072980 0.824015 0.681666
0.073522 0.824557 0.741916
0.074065 0.825100 0.802435
0.074611 0.825646 0.863201
0.075160 0.826195 0.924199
0.075517 0.826552 0.963938
0.072878 0.884221 0.072878
0.073213 0.884557 0.110209
0.073696 0.885039 0.163870
0.074193 0.885537 0.219252
0.074701 0.886044 0.275718
0.075215 0.886559 0.332983
0.075736 0.887079 0.390885
0.076261 0.887604 0.449316
0.076790 0.888133 0.508202
0.077323 0.888666 0.567485
0.077858 0.889202 0.627124
0.078397 0.889741 0.687083
0.078939 0.890282 0.747333
0.079483 0.890826 0.807852
0.080029 0.891372 0.868618
0.080577 0.891920 0.929616
0.080934 0.892277 0.969355
0.078315 0.950190 0.078315
0.078651 0.950526 0.115646
0.079133 0.951008 0.169307
0.079630 0.951506 0.224689
0.080138 0.952013 0.281155
0.080652 0.952528 0.338421
0.081173 0.953048 0.396322
0.081698 0.953573 0.454753
0.082227 0.954102 0.513639
0.082760 0.954635 0.572923
0.083296 0.955171 0.632561
0.083834 0.955710 0.692520
0.084376 0.956251 0.752770
0.084920 0.956795 0.813289
0.085466 0.957341 0.874056
0.086014 0.957889 0.935053
0.086371 0.958246 0.974792
0.024996 0.000650 0.000650
0.025331 0.000986 0.037981
0.025814 0.001468 0.091642
0.026311 0.001965 0.147024
0.026819 0.002473 0.203490
0.027333 0.002987 0.260756
0.027854 0.003508 0.318657
0.028379 0.004033 0.377088
0.028908 0.004562 0.435974
0.029441 0.005095 0.495258
0.029976 0.005631 0.554896
0.030515 0.006169 0.614855
0.031057 0.006711 0.675105
0.031601 0.007255 0.735624
0.032147 0.007801 0.796391
0.032695 0.008349 0.857388
0.033052 0.008706 0.897127
0.025510 0.006893 0.001165
0.025846 0.007228 0.038496
0.026328 0.007710 0.092156
0.026826 0.008208 0.147539
0.027333 0.008715 0.204005
0.027848 0.009230 0.261270
0.028368 0.009750 0.319172
0.028893 0.010275 0.377603
0.029422 0.010805 0.436488
0.029955 0.011337 0.495772
0.030491 0.011873 0.555411
0.031030 0.012412 0.615370
0.031571 0.012954 0.675620
0.032115 0.013497 0.736139
0.032661 0.014043 0.796905
0.033209 0.014592 0.857903
0.033566 0.014949 0.897642
0.030094 0.062508 0.005748
0.030430 0.062843 0.043079
0.030912 0.063325 0.096740
0.031410 0.063823 0.152123
0.031917 0.064330 0.208589
0.032432 0.064845 0.265854
0.032952 0.065365 0.323755
0.033477 0.065890 0.382187
0.034006 0.066419 0.441072
0.034539 0.066952 0.500356
0.035075 0.067488 0.559995
0.035614 0.068027 0.619953
0.036155 0.068568 0.680204
0.036699 0.069112 0.740722
0.037245 0.069658 0.801489
0.037793 0.070206 0.862486
0.038150 0.070564 0.902225
0.034940 0.121298 0.010594
0.035275 0.121633 0.047925
0.035757 0.122115 0.101586
0.036255 0.122613 0.156968
0.036762 0.123121 0.213434
0.037277 0.123635 0.270699
0.037797 0.124155 0.328601
0.038322 0.124681 0.387032
0.038852 0.125210 0.445918
0.039384 0.125742 0.505201
0.039920 0.126278 0.564840
0.040459 0.126817 0.624799
0.041001 0.127359 0.685049
0.041544 0.127902 0.745568
0.042090 0.128449 0.806334
0.042639 0.128997 0.867332
0.042996 0.129354 0.907071
0.039910 0.181604 0.015564
0.040246 0.181939 0.052895
0.040728 0.182421 0.106556
0.041226 0.182919 0.161939
0.041733 0.183427 0.218405
0.042248 0.183941 0.275670
0.042768 0.184461 0.333571
0.043293 0.184987 0.392003
0.043822 0.185516 0.450888
0.044355 0.186048 0.510172
0.044891 0.186584 0.569811
0.045430 0.187123 0.629769
0.045971 0.187665 0.690020
0.046515 0.188208 0.750538
0.047061 0.188755 0.811305
0.047609 0.189303 0.872302
0.047966 0.189660 0.912041
0.044966 0.242941 0.020620
0.045301 0.243276 0.057951
0.045783 0.243758 0.111611
0.046281 0.244256 0.166994
0.046788 0.244763 0.223460
0.047303 0.245278 0.280725
0.047823 0.245798 0.338627
0.048348 0.246323 0.397058
0.048877 0.246853 0.455943
0.049410 0.247385 0.515227
0.049946 0.247921 0.574866
0.050485 0.248460 0.634825
0.051026 0.249001 0.695075
0.051570 0.249545 0.755594
0.052116 0.250091 0.816360
0.052664 0.250640 0.877358
0.053022 0.250997 0.917097
0.050086 0.305064 0.025740
0.050421 0.305400 0.063071
0.050903 0.305882 0.116732
0.051401 0.306380 0.172114
0.051909 0.306887 0.228580
0.052423 0.307402 0.285846
0.052944 0.307922 0.343747
0.053469 0.308447 0.402178
0.053998 0.308976 0.461064
0.054531 0.309509 0.520348
0.055066 0.310045 0.579986
0.055605 0.310584 0.639945
0.056147 0.311125 0.700195
0.056691 0.311669 0.760714
0.057237 0.312215 0.821481
0.057785 0.312763 0.882478
0.058142 0.313120 0.922217
0.055259 0.367827 0.030913
0.055594 0.368162 0.068244
0.056076 0.368644 0.121905
0.056574 0.369142 0.177287
0.057081 0.369649 0.233753
0.057596 0.370164 0.291018
0.058116 0.370684 0.348920
0.058641 0.371209 0.407351
0.059171 0.371739 0.466237
0.059703 0.372271 0.525520
0.060239 0.372807 0.585159
0.060778 0.373346 0.645118
0.061320 0.373887 0.705368
0.061863 0.374431 0.765887
0.062409 0.374977 0.826653
0.062958 0.375526 0.887651
0.063315 0.375883 0.927390
0.060476 0.431127 0.036130
0.060811 0.431463 0.073461
0.061294 0.431945 0.127122
0.061791 0.432443 0.182504
0.062299 0.432950 0.238970
0.062813 0.433465 0.296236
0.063334 0.433985 0.354137
0.063859 0.434510 0.412568
0.064388 0.435039 0.471454
0.064921 0.435572 0.530738
0.065457 0.436108 0.590376
0.065995 0.436647 0.650335
0.066537 0.437188 0.710586
0.067081 0.437732 0.771104
0.067627 0.438278 0.831871
0.068175 0.438826 0.892868
0.068532 0.439183 0.932607
0.065732 0.494894 0.041386
0.066067 0.495229 0.078717
0.066549 0.495711 0.132378
0.067047 0.496209 0.187760
0.067554 0.496716 0.244226
0.068069 0.497231 0.301491
0.068589 0.497751 0.359393
0.069114 0.498276 0.417824
0.069644 0.498806 0.476710
0.070176 0.499338 0.535993
0.070712 0.499874 0.595632
0.071251 0.500413 0.655591
0.071792 0.500955 0.715841
0.072336 0.501498 0.776360
0.072882 0.502044 0.837126
0.073431 0.502593 0.898124
0.073788 0.502950 0.937863
0.071021 0.559071 0.046675
0.071357 0.559407 0.084006
0.071839 0.559889 0.137667
0.072337 0.560387 0.193050
0.072844 0.560894 0.249516
0.073359 0.561409 0.306781
0.073879 0.561929 0.364682
0.074404 0.562454 0.423114
0.074933 0.562983 0.481999
0.075466 0.563516 0.541283
0.076002 0.564052 0.600922
0.076541 0.564591 0.660880
0.077082 0.565132 0.721131
0.077626 0.565676 0.781649
0.078172 0.566222 0.842416
0.078720 0.566770 0.903413
0.079077 0.567127 0.943152
0.076341 0.623617 0.051995
0.076677 0.623953 0.089326
0.077159 0.624435 0.142987
0.077656 0.624933 0.198370
0.078164 0.625440 0.254836
0.078678 0.625955 0.312101
0.079199 0.626475 0.370002
0.079724 0.627000 0.428433
0.080253 0.627529 0.487319
0.080786 0.628062 0.546603
0.081322 0.628598 0.606241
0.081860 0.629137 0.666200
0.082402 0.629678 0.726451
0.082946 0.630222 0.786969
0.083492 0.630768 0.847736
0.084040 0.631316 0.908733
0.084397 0.631673 0.948472
0.081688 0.688496 0.057343
0.082024 0.688832 0.094674
0.082506 0.689314 0.148334
0.083004 0.689812 0.203717
0.083511 0.690319 0.260183
0.084026 0.690834 0.317448
0.084546 0.691354 0.375350
0.085071 0.691879 0.433781
0.085600 0.692408 0.492666
0.086133 0.692941 0.551950
0.086669 0.693477 0.611589
0.087208 0.694016 0.671548
0.087749 0.694557 0.731798
0.088293 0.695101 0.792317
0.088839 0.695647 0.853083
0.089387 0.696195 0.914081
0.089744 0.696552 0.953820
0.087061 0.753681 0.062715
0.087396 0.754016 0.100046
0.087879 0.754498 0.153707
0.088376 0.754996 0.209089
0.088884 0.755503 0.265555
0.089398 0.756018 0.322821
0.089919 0.756538 0.380722
0.090444 0.757063 0.439153
0.090973 0.757593 0.498039
0.091506 0.758125 0.557323
0.092042 0.758661 0.616961
0.092580 0.759200 0.676920
0.093122 0.759741 0.737171
0.093666 0.760285 0.797689
0.094212 0.760831 0.858456
0.094760 0.761380 0.919453
0.095117 0.761737 0.959192
0.092457 0.819146 0.068111
0.092792 0.819481 0.105442
0.093274 0.819963 0.159103
0.093772 0.820461 0.214485
0.094279 0.820969 0.270951
0.094794 0.821483 0.328216
0.095314 0.822003 0.386118
0.095839 0.822529 0.444549
0.096369 0.823058 0.503435
0.096901 0.823590 0.562718
0.097437 0.824126 0.622357
0.097976 0.824665 0.682316
0.098517 0.825207 0.742566
0.099061 0.825750 0.803085
0.099607 0.826297 0.863851
0.100156 0.826845 0.924849
0.100513 0.827202 0.964588
0.097874 0.884872 0.073528
0.098209 0.885207 0.110859
0.098691 0.885689 0.164520
0.099189 0.886187 0.219902
0.099697 0.886694 0.276368
0.100211 0.887209 0.333634
0.100731 0.887729 0.391535
0.101257 0.888254 0.449966
0.101786 0.888783 0.508852
0.102318 0.889316 0.568136
0.102854 0.889852 0.627774
0.103393 0.890391 0.687733
0.103935 0.890932 0.747983
0.104478 0.891476 0.808502
0.105025 0.892022 0.869268
0.105573 0.892570 0.930266
0.105930 0.892928 0.970005
0.103311 0.950840 0.078965
0.103646 0.951176 0.116296
0.104129 0.951658 0.169957
0.104626 0.952156 0.225339
0.105134 0.952663 0.281805
0.105648 0.953178 0.339071
0.106169 0.953698 0.396972
0.106694 0.954223 0.455403
0.107223 0.954752 0.514289
0.107756 0.955285 0.573573
0.108292 0.955821 0.633211
0.108830 0.956360 0.693170
0.109372 0.956901 0.753421
0.109916 0.957445 0.813939
0.110462 0.957991 0.874706
0.111010 0.958539 0.935703
0.111367 0.958896 0.975442
0.078929 0.002053 0.002053
0.079265 0.002388 0.039384
0.079747 0.002870 0.093044
0.080245 0.003368 0.148427
0.080752 0.003875 0.204893
0.081267 0.004390 0.262158
0.081787 0.004910 0.320060
0.082312 0.005435 0.378491
0.082841 0.005965 0.437376
0.083374 0.006497 0.496660
0.083910 0.007033 0.556299
0.084449 0.007572 0.616258
0.084990 0.008114 0.676508
0.085534 0.008657 0.737027
0.086080 0.009203 0.797793
0.086628 0.009752 0.858791
0.086985 0.010109 0.898530
0.079444 0.008295 0.002567
