skills/editops-orchestrator/assets/grade/luts/night_blue_v16.cube
TITLE "night_blue_v16"
LUT_3D_SIZE 17
DOMAIN_MIN 0.0 0.0 0.0
DOMAIN_MAX 1.0 1.0 1.0
0.000000 0.000000 0.000000
0.000363 0.000363 0.026940
0.001027 0.001027 0.076284
0.001730 0.001730 0.128489
0.002456 0.002456 0.182464
0.003200 0.003200 0.237740
0.003958 0.003958 0.294054
0.004728 0.004728 0.351234
0.005508 0.005508 0.409156
0.006296 0.006296 0.467733
0.007093 0.007093 0.526892
0.007896 0.007896 0.586580
0.008706 0.008706 0.646749
0.009522 0.009522 0.707361
0.010343 0.010343 0.768385
0.011170 0.011170 0.829793
0.011476 0.011476 0.852529
0.000000 0.000000 0.000000
0.000363 0.000363 0.026940
0.001027 0.001027 0.076284
0.001730 0.001730 0.128489
0.002456 0.002456 0.182464
0.003200 0.003200 0.237740
0.003958 0.003958 0.294054
0.004728 0.004728 0.351234
0.005508 0.005508 0.409156
0.006296 0.006296 0.467733
0.007093 0.007093 0.526892
0.007896 0.007896 0.586580
0.008706 0.008706 0.646749
0.009522 0.009522 0.707361
0.010343 0.010343 0.768385
0.011170 0.011170 0.829793
0.011476 0.011476 0.852529
0.003106 0.026088 0.003106
0.003469 0.026450 0.030046
0.004133 0.027115 0.079390
0.004836 0.027817 0.131595
0.005562 0.028544 0.185570
0.006306 0.029288 0.240847
0.007065 0.030046 0.297161
0.007834 0.030816 0.354340
0.008614 0.031595 0.412263
0.009402 0.032384 0.470839
0.010199 0.033180 0.529999
0.011002 0.033984 0.589686
0.011812 0.034794 0.649855
0.012628 0.035610 0.710468
0.013450 0.036431 0.771491
0.014276 0.037258 0.832899
0.014582 0.037564 0.855635
0.009643 0.080984 0.009643
0.010005 0.081347 0.036582
0.010670 0.082011 0.085926
0.011372 0.082714 0.138132
0.012099 0.083440 0.192106
0.012843 0.084184 0.247383
0.013601 0.084942 0.303697
0.014371 0.085712 0.360876
0.015150 0.086492 0.418799
0.015939 0.087280 0.477375
0.016735 0.088077 0.536535
0.017539 0.088880 0.596222
0.018349 0.089690 0.656391
0.019165 0.090506 0.717004
0.019986 0.091327 0.778028
0.020813 0.092154 0.839435
0.021119 0.092460 0.862171
0.016581 0.139258 0.016581
0.016944 0.139621 0.043521
0.017608 0.140285 0.092865
0.018311 0.140988 0.145071
0.019038 0.141714 0.199045
0.019782 0.142459 0.254322
0.020540 0.143217 0.310636
0.021309 0.143986 0.367815
0.022089 0.144766 0.425738
0.022878 0.145555 0.484314
0.023674 0.146351 0.543474
0.024477 0.147154 0.603161
0.025287 0.147964 0.663330
0.026103 0.148780 0.723943
0.026925 0.149602 0.784967
0.027751 0.150428 0.846374
0.028057 0.150734 0.869110
0.023763 0.199572 0.023763
0.024126 0.199935 0.050703
0.024790 0.200599 0.100047
0.025493 0.201302 0.152252
0.026219 0.202028 0.206227
0.026963 0.202773 0.261503
0.027721 0.203531 0.317817
0.028491 0.204300 0.374996
0.029271 0.205080 0.432919
0.030059 0.205869 0.491496
0.030855 0.206665 0.550655
0.031659 0.207468 0.610343
0.032469 0.208278 0.670512
0.033285 0.209094 0.731124
0.034106 0.209916 0.792148
0.034933 0.210742 0.853555
0.035239 0.211048 0.876292
0.031122 0.261375 0.031122
0.031484 0.261737 0.058061
0.032149 0.262402 0.107405
0.032851 0.263104 0.159611
0.033578 0.263831 0.213585
0.034322 0.264575 0.268862
0.035080 0.265333 0.325176
0.035850 0.266103 0.382355
0.036629 0.266882 0.440278
0.037418 0.267671 0.498854
0.038214 0.268467 0.558014
0.039018 0.269271 0.617701
0.039828 0.270081 0.677870
0.040644 0.270897 0.738483
0.041465 0.271718 0.799507
0.042292 0.272545 0.860914
0.042598 0.272851 0.883650
0.038621 0.324357 0.038621
0.038984 0.324720 0.065561
0.039648 0.325384 0.114905
0.040351 0.326087 0.167110
0.041077 0.326813 0.221085
0.041821 0.327557 0.276361
0.042579 0.328315 0.332675
0.043349 0.329085 0.389854
0.044129 0.329865 0.447777
0.044917 0.330653 0.506354
0.045714 0.331450 0.565513
0.046517 0.332253 0.625201
0.047327 0.333063 0.685370
0.048143 0.333879 0.745982
0.048964 0.334700 0.807006
0.049791 0.335527 0.868414
0.050097 0.335833 0.891150
0.046237 0.388321 0.046237
0.046600 0.388684 0.073177
0.047264 0.389348 0.122521
0.047967 0.390051 0.174726
0.048693 0.390777 0.228701
0.049437 0.391521 0.283978
0.050195 0.392279 0.340292
0.050965 0.393049 0.397471
0.051745 0.393829 0.455393
0.052533 0.394617 0.513970
0.053330 0.395413 0.573130
0.054133 0.396217 0.632817
0.054943 0.397027 0.692986
0.055759 0.397843 0.753598
0.056580 0.398664 0.814622
0.057407 0.399491 0.876030
0.057713 0.399797 0.898766
0.053953 0.453127 0.053953
0.054316 0.453489 0.080893
0.054980 0.454154 0.130237
0.055683 0.454856 0.182443
0.056410 0.455583 0.236417
0.057154 0.456327 0.291694
0.057912 0.457085 0.348008
0.058681 0.457855 0.405187
0.059461 0.458635 0.463110
0.060250 0.459423 0.521686
0.061046 0.460219 0.580846
0.061849 0.461023 0.640533
0.062659 0.461833 0.700702
0.063475 0.462649 0.761315
0.064297 0.463470 0.822339
0.065123 0.464297 0.883746
0.065429 0.464603 0.906482
0.061758 0.518671 0.061758
0.062120 0.519034 0.088697
0.062785 0.519698 0.138042
0.063487 0.520401 0.190247
0.064214 0.521128 0.244222
0.064958 0.521872 0.299498
0.065716 0.522630 0.355812
0.066486 0.523399 0.412991
0.067266 0.524179 0.470914
0.068054 0.524968 0.529490
0.068850 0.525764 0.588650
0.069654 0.526567 0.648337
0.070464 0.527377 0.708507
0.071280 0.528193 0.769119
0.072101 0.529015 0.830143
0.072928 0.529841 0.891550
0.073234 0.530147 0.914286
0.069641 0.584875 0.069641
0.070003 0.585238 0.096580
0.070667 0.585902 0.145924
0.071370 0.586605 0.198130
0.072097 0.587331 0.252104
0.072841 0.588075 0.307381
0.073599 0.588833 0.363695
0.074369 0.589603 0.420874
0.075148 0.590383 0.478797
0.075937 0.591171 0.537373
0.076733 0.591968 0.596533
0.077537 0.592771 0.656220
0.078347 0.593581 0.716389
0.079162 0.594397 0.777002
0.079984 0.595218 0.838026
0.080811 0.596045 0.899433
0.081117 0.596351 0.922169
0.077594 0.651674 0.077594
0.077957 0.652036 0.104534
0.078621 0.652700 0.153878
0.079324 0.653403 0.206083
0.080050 0.654130 0.260058
0.080795 0.654874 0.315335
0.081553 0.655632 0.371649
0.082322 0.656402 0.428828
0.083102 0.657181 0.486751
0.083890 0.657970 0.545327
0.084687 0.658766 0.604487
0.085490 0.659570 0.664174
0.086300 0.660380 0.724343
0.087116 0.661195 0.784956
0.087938 0.662017 0.845979
0.088764 0.662844 0.907387
0.089070 0.663150 0.930123
0.085613 0.719015 0.085613
0.085975 0.719378 0.112552
0.086639 0.720042 0.161896
0.087342 0.720745 0.214102
0.088069 0.721472 0.268076
0.088813 0.722216 0.323353
0.089571 0.722974 0.379667
0.090341 0.723743 0.436846
0.091120 0.724523 0.494769
0.091909 0.725312 0.553345
0.092705 0.726108 0.612505
0.093509 0.726911 0.672192
0.094319 0.727721 0.732361
0.095134 0.728537 0.792974
0.095956 0.729359 0.853998
0.096783 0.730185 0.915405
0.097089 0.730491 0.938141
0.093690 0.786857 0.093690
0.094053 0.787220 0.120630
0.094717 0.787884 0.169974
0.095420 0.788587 0.222180
0.096147 0.789313 0.276154
0.096891 0.790057 0.331431
0.097649 0.790815 0.387745
0.098418 0.791585 0.444924
0.099198 0.792365 0.502847
0.099987 0.793153 0.561423
0.100783 0.793950 0.620583
0.101586 0.794753 0.680270
0.102396 0.795563 0.740439
0.103212 0.796379 0.801052
0.104034 0.797200 0.862076
0.104860 0.798027 0.923483
0.105166 0.798333 0.946219
0.101823 0.855162 0.101823
0.102186 0.855525 0.128763
0.102850 0.856189 0.178107
0.103553 0.856892 0.230313
0.104280 0.857618 0.284287
0.105024 0.858362 0.339564
0.105782 0.859120 0.395878
0.106551 0.859890 0.453057
0.107331 0.860670 0.510980
0.108120 0.861458 0.569556
0.108916 0.862255 0.628716
0.109719 0.863058 0.688403
0.110529 0.863868 0.748572
0.111345 0.864684 0.809185
0.112167 0.865505 0.870209
0.112993 0.866332 0.931616
0.113299 0.866638 0.954352
0.110008 0.923899 0.110008
0.110371 0.924261 0.136948
0.111035 0.924925 0.186292
0.111737 0.925628 0.238497
0.112464 0.926355 0.292472
0.113208 0.927099 0.347748
0.113966 0.927857 0.404062
0.114736 0.928627 0.461241
0.115516 0.929406 0.519164
0.116304 0.930195 0.577741
0.117100 0.930991 0.636900
0.117904 0.931795 0.696588
0.118714 0.932605 0.756757
0.119530 0.933420 0.817369
0.120351 0.934242 0.878393
0.121178 0.935069 0.939800
0.121484 0.935375 0.962537
0.000000 0.000000 0.000000
0.000363 0.000363 0.026940
0.001027 0.001027 0.076284
0.001730 0.001730 0.128489
0.002456 0.002456 0.182464
0.003200 0.003200 0.237740
0.003958 0.003958 0.294054
0.004728 0.004728 0.351234
0.005508 0.005508 0.409156
0.006296 0.006296 0.467733
0.007093 0.007093 0.526892
0.007896 0.007896 0.586580
0.008706 0.008706 0.646749
0.009522 0.009522 0.707361
0.010343 0.010343 0.768385
0.011170 0.011170 0.829793
0.011476 0.011476 0.852529
0.000000 0.000000 0.000000
0.000363 0.000363 0.026940
0.001027 0.001027 0.076284
0.001730 0.001730 0.128489
0.002456 0.002456 0.182464
0.003200 0.003200 0.237740
0.003958 0.003958 0.294054
0.004728 0.004728 0.351234
0.005508 0.005508 0.409156
0.006296 0.006296 0.467733
0.007093 0.007093 0.526892
0.007896 0.007896 0.586580
0.008706 0.008706 0.646749
0.009522 0.009522 0.707361
0.010343 0.010343 0.768385
0.011170 0.011170 0.829793
0.011476 0.011476 0.852529
0.003106 0.026088 0.003106
0.003469 0.026450 0.030046
0.004133 0.027115 0.079390
0.004836 0.027817 0.131595
0.005562 0.028544 0.185570
0.006306 0.029288 0.240847
0.007065 0.030046 0.297161
0.007834 0.030816 0.354340
0.008614 0.031595 0.412263
0.009402 0.032384 0.470839
0.010199 0.033180 0.529999
0.011002 0.033984 0.589686
0.011812 0.034794 0.649855
0.012628 0.035610 0.710468
0.013450 0.036431 0.771491
0.014276 0.037258 0.832899
0.014582 0.037564 0.855635
0.009643 0.080984 0.009643
0.010005 0.081347 0.036582
0.010670 0.082011 0.085926
0.011372 0.082714 0.138132
0.012099 0.083440 0.192106
0.012843 0.084184 0.247383
0.013601 0.084942 0.303697
0.014371 0.085712 0.360876
0.015150 0.086492 0.418799
0.015939 0.087280 0.477375
0.016735 0.088077 0.536535
0.017539 0.088880 0.596222
0.018349 0.089690 0.656391
0.019165 0.090506 0.717004
0.019986 0.091327 0.778028
0.020813 0.092154 0.839435
0.021119 0.092460 0.862171
0.016581 0.139258 0.016581
0.016944 0.139621 0.043521
0.017608 0.140285 0.092865
0.018311 0.140988 0.145071
0.019038 0.141714 0.199045
0.019782 0.142459 0.254322
0.020540 0.143217 0.310636
0.021309 0.143986 0.367815
0.022089 0.144766 0.425738
0.022878 0.145555 0.484314
0.023674 0.146351 0.543474
0.024477 0.147154 0.603161
0.025287 0.147964 0.663330
0.026103 0.148780 0.723943
0.026925 0.149602 0.784967
0.027751 0.150428 0.846374
0.028057 0.150734 0.869110
0.023763 0.199572 0.023763
0.024126 0.199935 0.050703
0.024790 0.200599 0.100047
0.025493 0.201302 0.152252
0.026219 0.202028 0.206227
0.026963 0.202773 0.261503
0.027721 0.203531 0.317817
0.028491 0.204300 0.374996
0.029271 0.205080 0.432919
0.030059 0.205869 0.491496
0.030855 0.206665 0.550655
0.031659 0.207468 0.610343
0.032469 0.208278 0.670512
0.033285 0.209094 0.731124
0.034106 0.209916 0.792148
0.034933 0.210742 0.853555
0.035239 0.211048 0.876292
0.031122 0.261375 0.031122
0.031484 0.261737 0.058061
0.032149 0.262402 0.107405
0.032851 0.263104 0.159611
0.033578 0.263831 0.213585
0.034322 0.264575 0.268862
0.035080 0.265333 0.325176
0.035850 0.266103 0.382355
0.036629 0.266882 0.440278
0.037418 0.267671 0.498854
0.038214 0.268467 0.558014
0.039018 0.269271 0.617701
0.039828 0.270081 0.677870
0.040644 0.270897 0.738483
0.041465 0.271718 0.799507
0.042292 0.272545 0.860914
0.042598 0.272851 0.883650
0.038621 0.324357 0.038621
0.038984 0.324720 0.065561
0.039648 0.325384 0.114905
0.040351 0.326087 0.167110
0.041077 0.326813 0.221085
0.041821 0.327557 0.276361
0.042579 0.328315 0.332675
0.043349 0.329085 0.389854
0.044129 0.329865 0.447777
0.044917 0.330653 0.506354
0.045714 0.331450 0.565513
0.046517 0.332253 0.625201
0.047327 0.333063 0.685370
0.048143 0.333879 0.745982
0.048964 0.334700 0.807006
0.049791 0.335527 0.868414
0.050097 0.335833 0.891150
0.046237 0.388321 0.046237
0.046600 0.388684 0.073177
0.047264 0.389348 0.122521
0.047967 0.390051 0.174726
0.048693 0.390777 0.228701
0.049437 0.391521 0.283978
0.050195 0.392279 0.340292
0.050965 0.393049 0.397471
0.051745 0.393829 0.455393
0.052533 0.394617 0.513970
0.053330 0.395413 0.573130
0.054133 0.396217 0.632817
0.054943 0.397027 0.692986
0.055759 0.397843 0.753598
0.056580 0.398664 0.814622
0.057407 0.399491 0.876030
0.057713 0.399797 0.898766
0.053953 0.453127 0.053953
0.054316 0.453489 0.080893
0.054980 0.454154 0.130237
0.055683 0.454856 0.182443
0.056410 0.455583 0.236417
0.057154 0.456327 0.291694
0.057912 0.457085 0.348008
0.058681 0.457855 0.405187
0.059461 0.458635 0.463110
0.060250 0.459423 0.521686
0.061046 0.460219 0.580846
0.061849 0.461023 0.640533
0.062659 0.461833 0.700702
0.063475 0.462649 0.761315
0.064297 0.463470 0.822339
0.065123 0.464297 0.883746
0.065429 0.464603 0.906482
0.061758 0.518671 0.061758
0.062120 0.519034 0.088697
0.062785 0.519698 0.138042
0.063487 0.520401 0.190247
0.064214 0.521128 0.244222
0.064958 0.521872 0.299498
0.065716 0.522630 0.355812
0.066486 0.523399 0.412991
0.067266 0.524179 0.470914
0.068054 0.524968 0.529490
0.068850 0.525764 0.588650
0.069654 0.526567 0.648337
0.070464 0.527377 0.708507
0.071280 0.528193 0.769119
0.072101 0.529015 0.830143
0.072928 0.529841 0.891550
0.073234 0.530147 0.914286
0.069641 0.584875 0.069641
0.070003 0.585238 0.096580
0.070667 0.585902 0.145924
0.071370 0.586605 0.198130
0.072097 0.587331 0.252104
0.072841 0.588075 0.307381
0.073599 0.588833 0.363695
0.074369 0.589603 0.420874
0.075148 0.590383 0.478797
0.075937 0.591171 0.537373
0.076733 0.591968 0.596533
0.077537 0.592771 0.656220
0.078347 0.593581 0.716389
0.079162 0.594397 0.777002
0.079984 0.595218 0.838026
0.080811 0.596045 0.899433
0.081117 0.596351 0.922169
0.077594 0.651674 0.077594
0.077957 0.652036 0.104534
0.078621 0.652700 0.153878
0.079324 0.653403 0.206083
0.080050 0.654130 0.260058
0.080795 0.654874 0.315335
0.081553 0.655632 0.371649
0.082322 0.656402 0.428828
0.083102 0.657181 0.486751
0.083890 0.657970 0.545327
0.084687 0.658766 0.604487
0.085490 0.659570 0.664174
0.086300 0.660380 0.724343
0.087116 0.661195 0.784956
0.087938 0.662017 0.845979
0.088764 0.662844 0.907387
0.089070 0.663150 0.930123
0.085613 0.719015 0.085613
0.085975 0.719378 0.112552
0.086639 0.720042 0.161896
0.087342 0.720745 0.214102
0.088069 0.721472 0.268076
0.088813 0.722216 0.323353
0.089571 0.722974 0.379667
0.090341 0.723743 0.436846
0.091120 0.724523 0.494769
0.091909 0.725312 0.553345
0.092705 0.726108 0.612505
0.093509 0.726911 0.672192
0.094319 0.727721 0.732361
0.095134 0.728537 0.792974
0.095956 0.729359 0.853998
0.096783 0.730185 0.915405
0.097089 0.730491 0.938141
0.093690 0.786857 0.093690
0.094053 0.787220 0.120630
0.094717 0.787884 0.169974
0.095420 0.788587 0.222180
0.096147 0.789313 0.276154
0.096891 0.790057 0.331431
0.097649 0.790815 0.387745
0.098418 0.791585 0.444924
0.099198 0.792365 0.502847
0.099987 0.793153 0.561423
0.100783 0.793950 0.620583
0.101586 0.794753 0.680270
0.102396 0.795563 0.740439
0.103212 0.796379 0.801052
0.104034 0.797200 0.862076
0.104860 0.798027 0.923483
0.105166 0.798333 0.946219
0.101823 0.855162 0.101823
0.102186 0.855525 0.128763
0.102850 0.856189 0.178107
0.103553 0.856892 0.230313
0.104280 0.857618 0.284287
0.105024 0.858362 0.339564
0.105782 0.859120 0.395878
0.106551 0.859890 0.453057
0.107331 0.860670 0.510980
0.108120 0.861458 0.569556
0.108916 0.862255 0.628716
0.109719 0.863058 0.688403
0.110529 0.863868 0.748572
0.111345 0.864684 0.809185
0.112167 0.865505 0.870209
0.112993 0.866332 0.931616
0.113299 0.866638 0.954352
0.110008 0.923899 0.110008
0.110371 0.924261 0.136948
0.111035 0.924925 0.186292
0.111737 0.925628 0.238497
0.112464 0.926355 0.292472
0.113208 0.927099 0.347748
0.113966 0.927857 0.404062
0.114736 0.928627 0.461241
0.115516 0.929406 0.519164
0.116304 0.930195 0.577741
0.117100 0.930991 0.636900
0.117904 0.931795 0.696588
0.118714 0.932605 0.756757
0.119530 0.933420 0.817369
0.120351 0.934242 0.878393
0.121178 0.935069 0.939800
0.121484 0.935375 0.962537
0.000000 0.000000 0.000000
0.000363 0.000363 0.026940
0.001027 0.001027 0.076284
0.001730 0.001730 0.128489
0.002456 0.002456 0.182464
0.003200 0.003200 0.237740
0.003958 0.003958 0.294054
0.004728 0.004728 0.351234
0.005508 0.005508 0.409156
0.006296 0.006296 0.467733
0.007093 0.007093 0.526892
0.007896 0.007896 0.586580
0.008706 0.008706 0.646749
0.009522 0.009522 0.707361
0.010343 0.010343 0.768385
0.011170 0.011170 0.829793
0.011476 0.011476 0.852529
0.000000 0.000000 0.000000
0.000363 0.000363 0.026940
0.001027 0.001027 0.076284
0.001730 0.001730 0.128489
0.002456 0.002456 0.182464
0.003200 0.003200 0.237740
0.003958 0.003958 0.294054
0.004728 0.004728 0.351234
0.005508 0.005508 0.409156
0.006296 0.006296 0.467733
0.007093 0.007093 0.526892
0.007896 0.007896 0.586580
0.008706 0.008706 0.646749
0.009522 0.009522 0.707361
0.010343 0.010343 0.768385
0.011170 0.011170 0.829793
0.011476 0.011476 0.852529
0.003106 0.026088 0.003106
0.003469 0.026450 0.030046
0.004133 0.027115 0.079390
0.004836 0.027817 0.131595
0.005562 0.028544 0.185570
0.006306 0.029288 0.240847
0.007065 0.030046 0.297161
0.007834 0.030816 0.354340
0.008614 0.031595 0.412263
0.009402 0.032384 0.470839
0.010199 0.033180 0.529999
0.011002 0.033984 0.589686
0.011812 0.034794 0.649855
0.012628 0.035610 0.710468
0.013450 0.036431 0.771491
0.014276 0.037258 0.832899
0.014582 0.037564 0.855635
0.009643 0.080984 0.009643
0.010005 0.081347 0.036582
0.010670 0.082011 0.085926
0.011372 0.082714 0.138132
0.012099 0.083440 0.192106
0.012843 0.084184 0.247383
0.013601 0.084942 0.303697
0.014371 0.085712 0.360876
0.015150 0.086492 0.418799
0.015939 0.087280 0.477375
0.016735 0.088077 0.536535
0.017539 0.088880 0.596222
0.018349 0.089690 0.656391
0.019165 0.090506 0.717004
0.019986 0.091327 0.778028
0.020813 0.092154 0.839435
0.021119 0.092460 0.862171
0.016581 0.139258 0.016581
0.016944 0.139621 0.043521
0.017608 0.140285 0.092865
0.018311 0.140988 0.145071
0.019038 0.141714 0.199045
0.019782 0.142459 0.254322
0.020540 0.143217 0.310636
0.021309 0.143986 0.367815
0.022089 0.144766 0.425738
0.022878 0.145555 0.484314
0.023674 0.146351 0.543474
0.024477 0.147154 0.603161
0.025287 0.147964 0.663330
0.026103 0.148780 0.723943
0.026925 0.149602 0.784967
0.027751 0.150428 0.846374
0.028057 0.150734 0.869110
0.023763 0.199572 0.023763
0.024126 0.199935 0.050703
0.024790 0.200599 0.100047
0.025493 0.201302 0.152252
0.026219 0.202028 0.206227
0.026963 0.202773 0.261503
0.027721 0.203531 0.317817
0.028491 0.204300 0.374996
0.029271 0.205080 0.432919
0.030059 0.205869 0.491496
0.030855 0.206665 0.550655
0.031659 0.207468 0.610343
0.032469 0.208278 0.670512
0.033285 0.209094 0.731124
0.034106 0.209916 0.792148
0.034933 0.210742 0.853555
0.035239 0.211048 0.876292
0.031122 0.261375 0.031122
0.031484 0.261737 0.058061
0.032149 0.262402 0.107405
0.032851 0.263104 0.159611
0.033578 0.263831 0.213585
0.034322 0.264575 0.268862
0.035080 0.265333 0.325176
0.035850 0.266103 0.382355
0.036629 0.266882 0.440278
0.037418 0.267671 0.498854
0.038214 0.268467 0.558014
0.039018 0.269271 0.617701
0.039828 0.270081 0.677870
0.040644 0.270897 0.738483
0.041465 0.271718 0.799507
0.042292 0.272545 0.860914
0.042598 0.272851 0.883650
0.038621 0.324357 0.038621
0.038984 0.324720 0.065561
0.039648 0.325384 0.114905
0.040351 0.326087 0.167110
0.041077 0.326813 0.221085
0.041821 0.327557 0.276361
0.042579 0.328315 0.332675
0.043349 0.329085 0.389854
0.044129 0.329865 0.447777
0.044917 0.330653 0.506354
0.045714 0.331450 0.565513
0.046517 0.332253 0.625201
0.047327 0.333063 0.685370
0.048143 0.333879 0.745982
0.048964 0.334700 0.807006
0.049791 0.335527 0.868414
0.050097 0.335833 0.891150
0.046237 0.388321 0.046237
0.046600 0.388684 0.073177
0.047264 0.389348 0.122521
0.047967 0.390051 0.174726
0.048693 0.390777 0.228701
0.049437 0.391521 0.283978
0.050195 0.392279 0.340292
0.050965 0.393049 0.397471
0.051745 0.393829 0.455393
0.052533 0.394617 0.513970
0.053330 0.395413 0.573130
0.054133 0.396217 0.632817
0.054943 0.397027 0.692986
0.055759 0.397843 0.753598
0.056580 0.398664 0.814622
0.057407 0.399491 0.876030
0.057713 0.399797 0.898766
0.053953 0.453127 0.053953
0.054316 0.453489 0.080893
0.054980 0.454154 0.130237
0.055683 0.454856 0.182443
0.056410 0.455583 0.236417
0.057154 0.456327 0.291694
0.057912 0.457085 0.348008
0.058681 0.457855 0.405187
0.059461 0.458635 0.463110
0.060250 0.459423 0.521686
0.061046 0.460219 0.580846
0.061849 0.461023 0.640533
0.062659 0.461833 0.700702
0.063475 0.462649 0.761315
0.064297 0.463470 0.822339
0.065123 0.464297 0.883746
0.065429 0.464603 0.906482
0.061758 0.518671 0.061758
0.062120 0.519034 0.088697
0.062785 0.519698 0.138042
0.063487 0.520401 0.190247
0.064214 0.521128 0.244222
0.064958 0.521872 0.299498
0.065716 0.522630 0.355812
0.066486 0.523399 0.412991
0.067266 0.524179 0.470914
0.068054 0.524968 0.529490
0.068850 0.525764 0.588650
0.069654 0.526567 0.648337
0.070464 0.527377 0.708507
0.071280 0.528193 0.769119
0.072101 0.529015 0.830143
0.072928 0.529841 0.891550
0.073234 0.530147 0.914286
0.069641 0.584875 0.069641
0.070003 0.585238 0.096580
0.070667 0.585902 0.145924
0.071370 0.586605 0.198130
0.072097 0.587331 0.252104
0.072841 0.588075 0.307381
0.073599 0.588833 0.363695
0.074369 0.589603 0.420874
0.075148 0.590383 0.478797
0.075937 0.591171 0.537373
0.076733 0.591968 0.596533
0.077537 0.592771 0.656220
0.078347 0.593581 0.716389
0.079162 0.594397 0.777002
0.079984 0.595218 0.838026
0.080811 0.596045 0.899433
0.081117 0.596351 0.922169
0.077594 0.651674 0.077594
0.077957 0.652036 0.104534
0.078621 0.652700 0.153878
0.079324 0.653403 0.206083
0.080050 0.654130 0.260058
0.080795 0.654874 0.315335
0.081553 0.655632 0.371649
0.082322 0.656402 0.428828
0.083102 0.657181 0.486751
0.083890 0.657970 0.545327
0.084687 0.658766 0.604487
0.085490 0.659570 0.664174
0.086300 0.660380 0.724343
0.087116 0.661195 0.784956
0.087938 0.662017 0.845979
0.088764 0.662844 0.907387
0.089070 0.663150 0.930123
0.085613 0.719015 0.085613
0.085975 0.719378 0.112552
0.086639 0.720042 0.161896
0.087342 0.720745 0.214102
0.088069 0.721472 0.268076
0.088813 0.722216 0.323353
0.089571 0.722974 0.379667
0.090341 0.723743 0.436846
0.091120 0.724523 0.494769
0.091909 0.725312 0.553345
0.092705 0.726108 0.612505
0.093509 0.726911 0.672192
0.094319 0.727721 0.732361
0.095134 0.728537 0.792974
0.095956 0.729359 0.853998
0.096783 0.730185 0.915405
0.097089 0.730491 0.938141
0.093690 0.786857 0.093690
0.094053 0.787220 0.120630
0.094717 0.787884 0.169974
0.095420 0.788587 0.222180
0.096147 0.789313 0.276154
0.096891 0.790057 0.331431
0.097649 0.790815 0.387745
0.098418 0.791585 0.444924
0.099198 0.792365 0.502847
0.099987 0.793153 0.561423
0.100783 0.793950 0.620583
0.101586 0.794753 0.680270
0.102396 0.795563 0.740439
0.103212 0.796379 0.801052
0.104034 0.797200 0.862076
0.104860 0.798027 0.923483
0.105166 0.798333 0.946219
0.101823 0.855162 0.101823
0.102186 0.855525 0.128763
0.102850 0.856189 0.178107
0.103553 0.856892 0.230313
0.104280 0.857618 0.284287
0.105024 0.858362 0.339564
0.105782 0.859120 0.395878
0.106551 0.859890 0.453057
0.107331 0.860670 0.510980
0.108120 0.861458 0.569556
0.108916 0.862255 0.628716
0.109719 0.863058 0.688403
0.110529 0.863868 0.748572
0.111345 0.864684 0.809185
0.112167 0.865505 0.870209
0.112993 0.866332 0.931616
0.113299 0.866638 0.954352
0.110008 0.923899 0.110008
0.110371 0.924261 0.136948
0.111035 0.924925 0.186292
0.111737 0.925628 0.238497
0.112464 0.926355 0.292472
0.113208 0.927099 0.347748
0.113966 0.927857 0.404062
0.114736 0.928627 0.461241
0.115516 0.929406 0.519164
0.116304 0.930195 0.577741
0.117100 0.930991 0.636900
0.117904 0.931795 0.696588
0.118714 0.932605 0.756757
0.119530 0.933420 0.817369
0.120351 0.934242 0.878393
0.121178 0.935069 0.939800
0.121484 0.935375 0.962537
0.020210 0.000781 0.000781
0.020573 0.001143 0.027720
0.021237 0.001808 0.077064
0.021940 0.002510 0.129270
0.022667 0.003237 0.183244
0.023411 0.003981 0.238521
0.024169 0.004739 0.294835
0.024938 0.005509 0.352014
0.025718 0.006288 0.409937
0.026507 0.007077 0.468513
0.027303 0.007873 0.527673
0.028106 0.008677 0.587360
0.028916 0.009487 0.647529
0.029732 0.010303 0.708142
0.030554 0.011124 0.769166
0.031380 0.011951 0.830573
0.031686 0.012257 0.853309
0.020210 0.000781 0.000781
