skills/editops-orchestrator/assets/grade/luts/night_blue_v02.cube
TITLE "night_blue_v02"
LUT_3D_SIZE 9
DOMAIN_MIN 0.0 0.0 0.0
DOMAIN_MAX 1.0 1.0 1.0
0.000000 0.000000 0.000000
0.000669 0.000669 0.100103
0.001437 0.001437 0.214951
0.002219 0.002219 0.331942
0.003010 0.003010 0.450321
0.003809 0.003809 0.569735
0.004612 0.004612 0.689976
0.005421 0.005421 0.810906
0.006156 0.006156 0.920893
0.005244 0.083914 0.005244
0.005914 0.084583 0.105348
0.006681 0.085351 0.220196
0.007463 0.086133 0.337187
0.008255 0.086924 0.455566
0.009053 0.087722 0.574979
0.009857 0.088526 0.695220
0.010665 0.089335 0.816151
0.011400 0.090070 0.926137
0.012812 0.204995 0.012812
0.013481 0.205664 0.112915
0.014249 0.206432 0.227763
0.015031 0.207214 0.344754
0.015822 0.208006 0.463133
0.016620 0.208804 0.582547
0.017424 0.209608 0.702787
0.018233 0.210416 0.823718
0.018968 0.211151 0.933705
0.020538 0.328613 0.020538
0.021207 0.329282 0.120641
0.021975 0.330050 0.235489
0.022757 0.330832 0.352480
0.023548 0.331623 0.470859
0.024346 0.332422 0.590272
0.025150 0.333225 0.710513
0.025958 0.334034 0.831444
0.026694 0.334769 0.941430
0.028362 0.453802 0.028362
0.029031 0.454472 0.128465
0.029799 0.455239 0.243313
0.030581 0.456021 0.360304
0.031372 0.456813 0.478683
0.032170 0.457611 0.598096
0.032974 0.458415 0.718337
0.033782 0.459223 0.839268
0.034518 0.459958 0.949255
0.036258 0.580142 0.036258
0.036927 0.580811 0.136361
0.037695 0.581579 0.251209
0.038477 0.582361 0.368200
0.039268 0.583152 0.486579
0.040066 0.583950 0.605992
0.040870 0.584754 0.726233
0.041678 0.585563 0.847164
0.042414 0.586298 0.957150
0.044210 0.707391 0.044210
0.044880 0.708060 0.144314
0.045647 0.708828 0.259162
0.046429 0.709610 0.376153
0.047221 0.710402 0.494532
0.048019 0.711200 0.613945
0.048823 0.712004 0.734186
0.049631 0.712812 0.855117
0.050366 0.713547 0.965103
0.052210 0.835395 0.052210
0.052880 0.836064 0.152314
0.053647 0.836832 0.267161
0.054429 0.837614 0.384152
0.055221 0.838405 0.502532
0.056019 0.839203 0.621945
0.056823 0.840007 0.742186
0.057631 0.840816 0.863117
0.058366 0.841551 0.973103
0.060251 0.964043 0.060251
0.060920 0.964712 0.160354
0.061688 0.965480 0.275202
0.062470 0.966262 0.392193
0.063261 0.967054 0.510572
0.064059 0.967852 0.629985
0.064863 0.968656 0.750226
0.065671 0.969464 0.871157
0.066407 0.970199 0.981143
0.059235 0.001151 0.001151
0.059904 0.001820 0.101254
0.060672 0.002588 0.216102
0.061454 0.003370 0.333093
0.062245 0.004161 0.451472
0.063043 0.004960 0.570886
0.063847 0.005763 0.691127
0.064655 0.006572 0.812057
0.065391 0.007307 0.922044
0.064479 0.085065 0.006395
0.065148 0.085734 0.106499
0.065916 0.086502 0.221347
0.066698 0.087284 0.338338
0.067489 0.088075 0.456717
0.068288 0.088873 0.576130
0.069091 0.089677 0.696371
0.069900 0.090486 0.817302
0.070635 0.091221 0.927288
0.072046 0.206146 0.013963
0.072716 0.206816 0.114066
0.073483 0.207583 0.228914
0.074265 0.208365 0.345905
0.075057 0.209157 0.464284
0.075855 0.209955 0.583698
0.076659 0.210759 0.703938
0.077467 0.211567 0.824869
0.078202 0.212302 0.934856
0.079772 0.329764 0.021689
0.080441 0.330433 0.121792
0.081209 0.331201 0.236640
0.081991 0.331983 0.353631
0.082783 0.332774 0.472010
0.083581 0.333573 0.591423
0.084385 0.334377 0.711664
0.085193 0.335185 0.832595
0.085928 0.335920 0.942581
0.087596 0.454954 0.029513
0.088266 0.455623 0.129616
0.089033 0.456390 0.244464
0.089815 0.457172 0.361455
0.090607 0.457964 0.479834
0.091405 0.458762 0.599248
0.092209 0.459566 0.719488
0.093017 0.460374 0.840419
0.093752 0.461110 0.950406
0.095492 0.581293 0.037409
0.096161 0.581962 0.137512
0.096929 0.582730 0.252360
0.097711 0.583512 0.369351
0.098503 0.584303 0.487730
0.099301 0.585101 0.607143
0.100105 0.585905 0.727384
0.100913 0.586714 0.848315
0.101648 0.587449 0.958301
0.103445 0.708542 0.045361
0.104114 0.709211 0.145465
0.104882 0.709979 0.260313
0.105664 0.710761 0.377304
0.106455 0.711553 0.495683
0.107254 0.712351 0.615096
0.108057 0.713155 0.735337
0.108866 0.713963 0.856268
0.109601 0.714698 0.966254
0.111445 0.836546 0.053361
0.112114 0.837215 0.153465
0.112882 0.837983 0.268312
0.113664 0.838765 0.385303
0.114455 0.839556 0.503683
0.115254 0.840354 0.623096
0.116057 0.841158 0.743337
0.116866 0.841967 0.864268
0.117601 0.842702 0.974254
0.119485 0.965194 0.061402
0.120154 0.965863 0.161505
0.120922 0.966631 0.276353
0.121704 0.967413 0.393344
0.122496 0.968205 0.511723
0.123294 0.969003 0.631136
0.124098 0.969807 0.751377
0.124906 0.970615 0.872308
0.125641 0.971350 0.982294
0.174317 0.003387 0.003387
0.174986 0.004056 0.103490
0.175754 0.004824 0.218338
0.176536 0.005606 0.335329
0.177328 0.006398 0.453708
0.178126 0.007196 0.573122
0.178930 0.008000 0.693363
0.179738 0.008808 0.814294
0.180473 0.009543 0.924280
0.179562 0.087301 0.008632
0.180231 0.087970 0.108735
0.180999 0.088738 0.223583
0.181781 0.089520 0.340574
0.182572 0.090311 0.458953
0.183370 0.091110 0.578366
0.184174 0.091913 0.698607
0.184982 0.092722 0.819538
0.185718 0.093457 0.929525
0.187129 0.208383 0.016199
0.187798 0.209052 0.116302
0.188566 0.209819 0.231150
0.189348 0.210602 0.348141
0.190139 0.211393 0.466520
0.190938 0.212191 0.585934
0.191741 0.212995 0.706175
0.192550 0.213803 0.827105
0.193285 0.214539 0.937092
0.194855 0.332000 0.023925
0.195524 0.332670 0.124028
0.196292 0.333437 0.238876
0.197074 0.334219 0.355867
0.197865 0.335011 0.474246
0.198663 0.335809 0.593660
0.199467 0.336613 0.713900
0.200276 0.337421 0.834831
0.201011 0.338156 0.944818
0.202679 0.457190 0.031749
0.203348 0.457859 0.131852
0.204116 0.458627 0.246700
0.204898 0.459409 0.363691
0.205689 0.460200 0.482070
0.206487 0.460998 0.601484
0.207291 0.461802 0.721724
0.208100 0.462611 0.842655
0.208835 0.463346 0.952642
0.210575 0.583529 0.039645
0.211244 0.584198 0.139748
0.212012 0.584966 0.254596
0.212794 0.585748 0.371587
0.213585 0.586539 0.489966
0.214383 0.587338 0.609380
0.215187 0.588141 0.729620
0.215996 0.588950 0.850551
0.216731 0.589685 0.960538
0.218528 0.710778 0.047598
0.219197 0.711448 0.147701
0.219965 0.712215 0.262549
0.220747 0.712997 0.379540
0.221538 0.713789 0.497919
0.222336 0.714587 0.617332
0.223140 0.715391 0.737573
0.223948 0.716199 0.858504
0.224684 0.716934 0.968491
0.226528 0.838782 0.055598
0.227197 0.839451 0.155701
0.227964 0.840219 0.270549
0.228747 0.841001 0.387540
0.229538 0.841792 0.505919
0.230336 0.842591 0.625332
0.231140 0.843394 0.745573
0.231948 0.844203 0.866504
0.232684 0.844938 0.976490
0.234568 0.967430 0.063638
0.235237 0.968100 0.163741
0.236005 0.968867 0.278589
0.236787 0.969649 0.395580
0.237578 0.970441 0.513959
0.238376 0.971239 0.633373
0.239180 0.972043 0.753613
0.239989 0.972851 0.874544
0.240724 0.973586 0.984531
0.292154 0.005677 0.005677
0.292824 0.006346 0.105780
0.293591 0.007114 0.220628
0.294373 0.007896 0.337619
0.295165 0.008687 0.455998
0.295963 0.009486 0.575412
0.296767 0.010289 0.695653
0.297575 0.011098 0.816583
0.298310 0.011833 0.926570
0.297399 0.089591 0.010921
0.298068 0.090260 0.111025
0.298836 0.091028 0.225873
0.299618 0.091810 0.342864
0.300409 0.092601 0.461243
0.301207 0.093399 0.580656
0.302011 0.094203 0.700897
0.302820 0.095012 0.821828
0.303555 0.095747 0.931814
0.304966 0.210672 0.018489
0.305635 0.211341 0.118592
0.306403 0.212109 0.233440
0.307185 0.212891 0.350431
0.307976 0.213683 0.468810
0.308775 0.214481 0.588224
0.309579 0.215285 0.708464
0.310387 0.216093 0.829395
0.311122 0.216828 0.939382
0.312692 0.334290 0.026215
0.313361 0.334959 0.126318
0.314129 0.335727 0.241166
0.314911 0.336509 0.358157
0.315702 0.337300 0.476536
0.316501 0.338099 0.595949
0.317304 0.338902 0.716190
0.318113 0.339711 0.837121
0.318848 0.340446 0.947107
0.320516 0.459479 0.034039
0.321185 0.460149 0.134142
0.321953 0.460916 0.248990
0.322735 0.461698 0.365981
0.323526 0.462490 0.484360
0.324325 0.463288 0.603773
0.325128 0.464092 0.724014
0.325937 0.464900 0.844945
0.326672 0.465635 0.954932
0.328412 0.585819 0.041935
0.329081 0.586488 0.142038
0.329849 0.587256 0.256886
0.330631 0.588038 0.373877
0.331422 0.588829 0.492256
0.332221 0.589627 0.611669
0.333024 0.590431 0.731910
0.333833 0.591240 0.852841
0.334568 0.591975 0.962827
0.336365 0.713068 0.049887
0.337034 0.713737 0.149991
0.337802 0.714505 0.264839
0.338584 0.715287 0.381830
0.339375 0.716079 0.500209
0.340173 0.716877 0.619622
0.340977 0.717681 0.739863
0.341786 0.718489 0.860794
0.342521 0.719224 0.970780
0.344365 0.841072 0.057887
0.345034 0.841741 0.157991
0.345802 0.842509 0.272838
0.346584 0.843291 0.389829
0.347375 0.844082 0.508209
0.348173 0.844880 0.627622
0.348977 0.845684 0.747863
0.349786 0.846493 0.868794
0.350521 0.847228 0.978780
0.352405 0.969720 0.065928
0.353074 0.970389 0.166031
0.353842 0.971157 0.280879
0.354624 0.971939 0.397870
0.355415 0.972731 0.516249
0.356214 0.973529 0.635662
0.357017 0.974333 0.755903
0.357826 0.975141 0.876834
0.358561 0.975876 0.986820
0.411605 0.007998 0.007998
0.412275 0.008667 0.108101
0.413042 0.009435 0.222949
0.413824 0.010217 0.339940
0.414616 0.011008 0.458319
0.415414 0.011807 0.577733
0.416218 0.012610 0.697974
0.417026 0.013419 0.818905
0.417761 0.014154 0.928891
0.416850 0.091912 0.013243
0.417519 0.092581 0.113346
0.418287 0.093349 0.228194
0.419069 0.094131 0.345185
0.419860 0.094922 0.463564
0.420658 0.095720 0.582977
0.421462 0.096524 0.703218
0.422271 0.097333 0.824149
0.423006 0.098068 0.934135
0.424417 0.212993 0.020810
0.425086 0.213663 0.120913
0.425854 0.214430 0.235761
0.426636 0.215212 0.352752
0.427428 0.216004 0.471131
0.428226 0.216802 0.590545
0.429030 0.217606 0.710785
0.429838 0.218414 0.831716
0.430573 0.219149 0.941703
0.432143 0.336611 0.028536
0.432812 0.337280 0.128639
0.433580 0.338048 0.243487
0.434362 0.338830 0.360478
0.435153 0.339622 0.478857
0.435952 0.340420 0.598271
0.436755 0.341224 0.718511
0.437564 0.342032 0.839442
0.438299 0.342767 0.949429
0.439967 0.461801 0.036360
0.440636 0.462470 0.136463
0.441404 0.463238 0.251311
0.442186 0.464020 0.368302
0.442977 0.464811 0.486681
0.443776 0.465609 0.606095
0.444580 0.466413 0.726335
0.445388 0.467221 0.847266
0.446123 0.467957 0.957253
0.447863 0.588140 0.044256
0.448532 0.588809 0.144359
0.449300 0.589577 0.259207
0.450082 0.590359 0.376198
0.450873 0.591150 0.494577
0.451672 0.591949 0.613991
0.452475 0.592752 0.734231
0.453284 0.593561 0.855162
0.454019 0.594296 0.965149
0.455816 0.715389 0.052209
0.456485 0.716059 0.152312
0.457253 0.716826 0.267160
0.458035 0.717608 0.384151
0.458826 0.718400 0.502530
0.459624 0.719198 0.621943
0.460428 0.720002 0.742184
0.461237 0.720810 0.863115
0.461972 0.721545 0.973101
0.463816 0.843393 0.060208
0.464485 0.844062 0.160312
0.465253 0.844830 0.275160
0.466035 0.845612 0.392151
0.466826 0.846403 0.510530
0.467624 0.847202 0.629943
0.468428 0.848005 0.750184
0.469237 0.848814 0.871115
0.469972 0.849549 0.981101
0.471856 0.972041 0.068249
0.472525 0.972711 0.168352
0.473293 0.973478 0.283200
0.474075 0.974260 0.400191
0.474866 0.975052 0.518570
0.475665 0.975850 0.637984
0.476468 0.976654 0.758224
0.477277 0.977462 0.879155
0.478012 0.978197 0.989142
0.532213 0.010342 0.010342
0.532882 0.011011 0.110445
0.533650 0.011779 0.225293
0.534432 0.012561 0.342284
0.535223 0.013352 0.460663
0.536022 0.014150 0.580077
0.536825 0.014954 0.700317
0.537634 0.015762 0.821248
0.538369 0.016498 0.931235
0.537457 0.094255 0.015586
0.538127 0.094925 0.115689
0.538894 0.095692 0.230537
0.539676 0.096474 0.347528
0.540468 0.097266 0.465907
0.541266 0.098064 0.585321
0.542070 0.098868 0.705562
0.542878 0.099676 0.826493
0.543613 0.100411 0.936479
0.545025 0.215337 0.023153
0.545694 0.216006 0.123257
0.546462 0.216774 0.238105
0.547244 0.217556 0.355096
0.548035 0.218347 0.473475
0.548833 0.219146 0.592888
0.549637 0.219949 0.713129
0.550446 0.220758 0.834060
0.551181 0.221493 0.944046
0.552751 0.338955 0.030879
0.553420 0.339624 0.130983
0.554188 0.340392 0.245830
0.554970 0.341174 0.362821
0.555761 0.341965 0.481200
0.556559 0.342763 0.600614
0.557363 0.343567 0.720855
0.558171 0.344376 0.841786
0.558907 0.345111 0.951772
0.560575 0.464144 0.038703
0.561244 0.464813 0.138807
0.562012 0.465581 0.253654
0.562794 0.466363 0.370645
0.563585 0.467155 0.489025
0.564383 0.467953 0.608438
0.565187 0.468757 0.728679
0.565995 0.469565 0.849610
0.566731 0.470300 0.959596
0.568471 0.590484 0.046599
0.569140 0.591153 0.146703
0.569908 0.591920 0.261550
0.570690 0.592703 0.378541
0.571481 0.593494 0.496920
0.572279 0.594292 0.616334
0.573083 0.595096 0.736575
0.573891 0.595904 0.857506
0.574627 0.596640 0.967492
0.576423 0.717733 0.054552
0.577093 0.718402 0.154655
0.577860 0.719170 0.269503
0.578642 0.719952 0.386494
0.579434 0.720743 0.504873
0.580232 0.721541 0.624287
0.581036 0.722345 0.744528
0.581844 0.723154 0.865459
0.582579 0.723889 0.975445
0.584423 0.845737 0.062552
0.585093 0.846406 0.162655
0.585860 0.847173 0.277503
0.586642 0.847956 0.394494
0.587434 0.848747 0.512873
0.588232 0.849545 0.632287
0.589036 0.850349 0.752528
0.589844 0.851157 0.873458
0.590579 0.851893 0.983445
0.592464 0.974385 0.070592
0.593133 0.975054 0.170696
0.593901 0.975822 0.285543
0.594683 0.976604 0.402534
0.595474 0.977395 0.520914
0.596272 0.978194 0.640327
0.597076 0.978997 0.760568
0.597884 0.979806 0.881499
0.598620 0.980541 0.991485
0.653725 0.012703 0.012703
0.654395 0.013372 0.112806
0.655162 0.014140 0.227654
0.655944 0.014922 0.344645
0.656736 0.015713 0.463024
0.657534 0.016511 0.582438
0.658338 0.017315 0.702678
0.659146 0.018124 0.823609
0.659881 0.018859 0.933596
0.658970 0.096617 0.017947
0.659639 0.097286 0.118051
0.660407 0.098054 0.232898
0.661189 0.098836 0.349889
0.661980 0.099627 0.468268
0.662778 0.100425 0.587682
0.663582 0.101229 0.707923
0.664391 0.102037 0.828854
0.665126 0.102773 0.938840
0.666537 0.217698 0.025515
0.667206 0.218367 0.125618
0.667974 0.219135 0.240466
0.668756 0.219917 0.357457
0.669547 0.220709 0.475836
0.670346 0.221507 0.595249
0.671150 0.222311 0.715490
0.671958 0.223119 0.836421
0.672693 0.223854 0.946407
0.674263 0.341316 0.033240
0.674932 0.341985 0.133344
0.675700 0.342753 0.248192
0.676482 0.343535 0.365183
0.677273 0.344326 0.483562
0.678072 0.345125 0.602975
0.678875 0.345928 0.723216
0.679684 0.346737 0.844147
0.680419 0.347472 0.954133
0.682087 0.466505 0.041065
0.682756 0.467175 0.141168
0.683524 0.467942 0.256016
0.684306 0.468724 0.373007
0.685097 0.469516 0.491386
0.685896 0.470314 0.610799
0.686699 0.471118 0.731040
0.687508 0.471926 0.851971
0.688243 0.472661 0.961957
0.689983 0.592845 0.048960
0.690652 0.593514 0.149064
0.691420 0.594282 0.263912
0.692202 0.595064 0.380903
0.692993 0.595855 0.499282
0.693792 0.596653 0.618695
0.694595 0.597457 0.738936
0.695404 0.598265 0.859867
0.696139 0.599001 0.969853
0.697936 0.720094 0.056913
0.698605 0.720763 0.157017
0.699373 0.721531 0.271864
0.700155 0.722313 0.388855
0.700946 0.723104 0.507234
0.701744 0.723903 0.626648
0.702548 0.724706 0.746889
0.703357 0.725515 0.867820
0.704092 0.726250 0.977806
0.705936 0.848098 0.064913
0.706605 0.848767 0.165016
0.707373 0.849535 0.279864
0.708155 0.850317 0.396855
0.708946 0.851108 0.515234
0.709744 0.851906 0.634648
0.710548 0.852710 0.754889
0.711357 0.853518 0.875820
0.712092 0.854254 0.985806
0.713976 0.976746 0.072953
0.714645 0.977415 0.173057
0.715413 0.978183 0.287905
0.716195 0.978965 0.404896
0.716986 0.979756 0.523275
0.717785 0.980555 0.642688
0.718588 0.981358 0.762929
0.719397 0.982167 0.883860
0.720132 0.982902 0.993846
0.775982 0.015079 0.015079
0.776652 0.015748 0.115182
0.777419 0.016515 0.230030
0.778201 0.017297 0.347021
0.778993 0.018089 0.465400
0.779791 0.018887 0.584813
0.780595 0.019691 0.705054
0.781403 0.020499 0.825985
0.782138 0.021235 0.935971
0.781227 0.098992 0.020323
0.781896 0.099661 0.120426
0.782664 0.100429 0.235274
0.783446 0.101211 0.352265
0.784237 0.102003 0.470644
0.785035 0.102801 0.590058
0.785839 0.103605 0.710299
0.786648 0.104413 0.831229
0.787383 0.105148 0.941216
0.788794 0.220074 0.027890
0.789463 0.220743 0.127994
0.790231 0.221511 0.242841
0.791013 0.222293 0.359832
0.791805 0.223084 0.478211
0.792603 0.223882 0.597625
0.793407 0.224686 0.717866
0.794215 0.225495 0.838797
0.794950 0.226230 0.948783
0.796520 0.343692 0.035616
0.797189 0.344361 0.135719
0.797957 0.345129 0.250567
0.798739 0.345911 0.367558
0.799530 0.346702 0.485937
0.800329 0.347500 0.605351
0.801132 0.348304 0.725592
0.801941 0.349112 0.846523
0.802676 0.349848 0.956509
0.804344 0.468881 0.043440
0.805013 0.469550 0.143543
0.805781 0.470318 0.258391
0.806563 0.471100 0.375382
0.807354 0.471891 0.493761
0.808153 0.472690 0.613175
0.808956 0.473493 0.733416
0.809765 0.474302 0.854347
0.810500 0.475037 0.964333
0.812240 0.595220 0.051336
0.812909 0.595890 0.151439
0.813677 0.596657 0.266287
0.814459 0.597439 0.383278
0.815250 0.598231 0.501657
0.816049 0.599029 0.621071
0.816852 0.599833 0.741312
0.817661 0.600641 0.862243
0.818396 0.601376 0.972229
0.820193 0.722470 0.059289
0.820862 0.723139 0.159392
0.821630 0.723907 0.274240
0.822412 0.724689 0.391231
0.823203 0.725480 0.509610
0.824001 0.726278 0.629024
0.824805 0.727082 0.749264
0.825614 0.727890 0.870195
0.826349 0.728626 0.980182
0.828193 0.850473 0.067289
0.828862 0.851143 0.167392
0.829630 0.851910 0.282240
0.830412 0.852692 0.399231
0.831203 0.853484 0.517610
0.832001 0.854282 0.637024
0.832805 0.855086 0.757264
0.833614 0.855894 0.878195
0.834349 0.856629 0.988182
0.836233 0.979122 0.075329
0.836902 0.979791 0.175432
0.837670 0.980559 0.290280
0.838452 0.981341 0.407271
0.839243 0.982132 0.525650
0.840042 0.982930 0.645064
0.840845 0.983734 0.765305
0.841654 0.984543 0.886236
0.842389 0.985278 0.996222
0.898873 0.017466 0.017466
0.899542 0.018136 0.117570
0.900310 0.018903 0.232418
0.901092 0.019685 0.349409
0.901883 0.020477 0.467788
0.902682 0.021275 0.587201
0.903485 0.022079 0.707442
0.904294 0.022887 0.828373
0.905029 0.023622 0.938359
0.904117 0.101380 0.022711
0.904787 0.102049 0.122814
0.905554 0.102817 0.237662
0.906336 0.103599 0.354653
0.907128 0.104391 0.473032
0.907926 0.105189 0.592446
0.908730 0.105993 0.712686
0.909538 0.106801 0.833617
0.910273 0.107536 0.943604
0.911685 0.222462 0.030278
0.912354 0.223131 0.130381
0.913122 0.223899 0.245229
0.913904 0.224681 0.362220
0.914695 0.225472 0.480599
0.915493 0.226270 0.600013
0.916297 0.227074 0.720254
0.917105 0.227883 0.841185
0.917841 0.228618 0.951171
0.919411 0.346080 0.038004
0.920080 0.346749 0.138107
0.920847 0.347516 0.252955
0.921630 0.348299 0.369946
0.922421 0.349090 0.488325
0.923219 0.349888 0.607739
0.924023 0.350692 0.727980
0.924831 0.351500 0.848910
0.925567 0.352236 0.958897
0.927235 0.471269 0.045828
0.927904 0.471938 0.145931
0.928672 0.472706 0.260779
0.929454 0.473488 0.377770
0.930245 0.474279 0.496149
0.931043 0.475078 0.615563
0.931847 0.475881 0.735804
0.932655 0.476690 0.856735
0.933391 0.477425 0.966721
0.935131 0.597608 0.053724
0.935800 0.598277 0.153827
0.936567 0.599045 0.268675
0.937350 0.599827 0.385666
0.938141 0.600619 0.504045
0.938939 0.601417 0.623459
0.939743 0.602221 0.743700
0.940551 0.603029 0.864630
0.941287 0.603764 0.974617
0.943083 0.724858 0.061677
0.943753 0.725527 0.161780
0.944520 0.726295 0.276628
0.945302 0.727077 0.393619
0.946094 0.727868 0.511998
0.946892 0.728666 0.631412
0.947696 0.729470 0.751652
0.948504 0.730278 0.872583
0.949239 0.731014 0.982570
0.951083 0.852861 0.069677
0.951753 0.853530 0.169780
0.952520 0.854298 0.284628
0.953302 0.855080 0.401619
0.954094 0.855872 0.519998
0.954892 0.856670 0.639412
0.955696 0.857474 0.759652
0.956504 0.858282 0.880583
0.957239 0.859017 0.990570
0.959124 0.981510 0.077717
0.959793 0.982179 0.177820
0.960560 0.982947 0.292668
0.961343 0.983729 0.409659
0.962134 0.984520 0.528038
0.962932 0.985318 0.647452
0.963736 0.986122 0.767693
0.964544 0.986930 0.888623
0.965280 0.987666 0.998610
