skills/editops-orchestrator/assets/grade/luts/night_blue_v11.cube
TITLE "night_blue_v11"
LUT_3D_SIZE 17
DOMAIN_MIN 0.0 0.0 0.0
DOMAIN_MAX 1.0 1.0 1.0
0.000000 0.000000 0.000000
0.000354 0.000354 0.032431
0.000919 0.000919 0.084195
0.001509 0.001509 0.138184
0.002114 0.002114 0.193564
0.002730 0.002730 0.249967
0.003354 0.003354 0.307186
0.003987 0.003987 0.365084
0.004625 0.004625 0.423566
0.005269 0.005269 0.482559
0.005919 0.005919 0.542009
0.006572 0.006572 0.601871
0.007230 0.007230 0.662109
0.007892 0.007892 0.722693
0.008557 0.008557 0.783597
0.009225 0.009225 0.844799
0.009576 0.009576 0.876944
0.000000 0.000000 0.000000
0.000354 0.000354 0.032431
0.000919 0.000919 0.084195
0.001509 0.001509 0.138184
0.002114 0.002114 0.193564
0.002730 0.002730 0.249967
0.003354 0.003354 0.307186
0.003987 0.003987 0.365084
0.004625 0.004625 0.423566
0.005269 0.005269 0.482559
0.005919 0.005919 0.542009
0.006572 0.006572 0.601871
0.007230 0.007230 0.662109
0.007892 0.007892 0.722693
0.008557 0.008557 0.783597
0.009225 0.009225 0.844799
0.009576 0.009576 0.876944
0.004461 0.045249 0.004461
0.004815 0.045603 0.036892
0.005380 0.046169 0.088656
0.005970 0.046758 0.142645
0.006574 0.047363 0.198024
0.007190 0.047979 0.254428
0.007815 0.048604 0.311647
0.008447 0.049236 0.369545
0.009086 0.049874 0.428027
0.009730 0.050519 0.487020
0.010379 0.051168 0.546470
0.011033 0.051822 0.606332
0.011691 0.052479 0.666570
0.012352 0.053141 0.727154
0.013017 0.053806 0.788057
0.013686 0.054474 0.849260
0.014037 0.054825 0.881405
0.010114 0.102596 0.010114
0.010468 0.102950 0.042545
0.011034 0.103516 0.094309
0.011623 0.104105 0.148298
0.012228 0.104710 0.203678
0.012844 0.105326 0.260081
0.013469 0.105951 0.317300
0.014101 0.106583 0.375198
0.014739 0.107221 0.433680
0.015384 0.107866 0.492674
0.016033 0.108515 0.552123
0.016686 0.109168 0.611985
0.017344 0.109826 0.672223
0.018006 0.110488 0.732807
0.018671 0.111153 0.793711
0.019339 0.111821 0.854913
0.019690 0.112172 0.887059
0.015985 0.162145 0.015985
0.016339 0.162499 0.048416
0.016904 0.163065 0.100179
0.017494 0.163654 0.154169
0.018098 0.164259 0.209548
0.018714 0.164875 0.265952
0.019339 0.165500 0.323171
0.019971 0.166132 0.381069
0.020610 0.166771 0.439551
0.021254 0.167415 0.498544
0.021903 0.168064 0.557994
0.022557 0.168718 0.617856
0.023215 0.169375 0.678094
0.023876 0.170037 0.738677
0.024541 0.170702 0.799581
0.025210 0.171370 0.860783
0.025561 0.171721 0.892929
0.021996 0.223129 0.021996
0.022351 0.223483 0.054428
0.022916 0.224048 0.106191
0.023505 0.224638 0.160181
0.024110 0.225242 0.215560
0.024726 0.225858 0.271964
0.025351 0.226483 0.329183
0.025983 0.227115 0.387081
0.026622 0.227754 0.445562
0.027266 0.228398 0.504556
0.027915 0.229047 0.564006
0.028569 0.229701 0.623868
0.029227 0.230359 0.684106
0.029888 0.231020 0.744689
0.030553 0.231685 0.805593
0.031221 0.232354 0.866795
0.031572 0.232705 0.898941
0.028114 0.285187 0.028114
0.028468 0.285541 0.060546
0.029034 0.286107 0.112309
0.029623 0.286696 0.166299
0.030228 0.287301 0.221678
0.030844 0.287917 0.278082
0.031469 0.288542 0.335300
0.032101 0.289174 0.393199
0.032740 0.289813 0.451680
0.033384 0.290457 0.510674
0.034033 0.291106 0.570124
0.034687 0.291760 0.629985
0.035344 0.292417 0.690223
0.036006 0.293079 0.750807
0.036671 0.293744 0.811711
0.037339 0.294412 0.872913
0.037690 0.294763 0.905059
0.034317 0.348110 0.034317
0.034672 0.348464 0.066749
0.035237 0.349030 0.118512
0.035826 0.349619 0.172502
0.036431 0.350224 0.227881
0.037047 0.350840 0.284285
0.037672 0.351465 0.341503
0.038304 0.352097 0.399402
0.038943 0.352735 0.457883
0.039587 0.353380 0.516877
0.040236 0.354029 0.576327
0.040890 0.354682 0.636189
0.041547 0.355340 0.696426
0.042209 0.356002 0.757010
0.042874 0.356667 0.817914
0.043542 0.357335 0.879116
0.043893 0.357686 0.911262
0.040592 0.411758 0.040592
0.040946 0.412112 0.073023
0.041511 0.412677 0.124787
0.042101 0.413266 0.178776
0.042705 0.413871 0.234156
0.043321 0.414487 0.290559
0.043946 0.415112 0.347778
0.044578 0.415744 0.405676
0.045217 0.416383 0.464158
0.045861 0.417027 0.523151
0.046510 0.417676 0.582601
0.047164 0.418330 0.642463
0.047822 0.418988 0.702701
0.048483 0.419649 0.763285
0.049149 0.420314 0.824189
0.049817 0.420983 0.885391
0.050168 0.421334 0.917536
0.046928 0.476030 0.046928
0.047282 0.476384 0.079359
0.047847 0.476949 0.131123
0.048437 0.477539 0.185112
0.049042 0.478143 0.240492
0.049657 0.478759 0.296895
0.050282 0.479384 0.354114
0.050915 0.480016 0.412012
0.051553 0.480655 0.470494
0.052197 0.481299 0.529487
0.052846 0.481948 0.588937
0.053500 0.482602 0.648799
0.054158 0.483260 0.709037
0.054820 0.483921 0.769621
0.055485 0.484586 0.830525
0.056153 0.485255 0.891727
0.056504 0.485606 0.923872
0.053318 0.540852 0.053318
0.053672 0.541206 0.085749
0.054238 0.541771 0.137513
0.054827 0.542361 0.191503
0.055432 0.542965 0.246882
0.056048 0.543581 0.303285
0.056673 0.544206 0.360504
0.057305 0.544838 0.418403
0.057943 0.545477 0.476884
0.058588 0.546121 0.535878
0.059237 0.546770 0.595327
0.059890 0.547424 0.655189
0.060548 0.548082 0.715427
0.061210 0.548743 0.776011
0.061875 0.549408 0.836915
0.062543 0.550077 0.898117
0.062894 0.550428 0.930263
0.059757 0.606165 0.059757
0.060111 0.606519 0.092188
0.060676 0.607084 0.143952
0.061266 0.607674 0.197941
0.061871 0.608279 0.253321
0.062486 0.608895 0.309724
0.063111 0.609519 0.366943
0.063744 0.610152 0.424841
0.064382 0.610790 0.483323
0.065026 0.611435 0.542316
0.065675 0.612084 0.601766
0.066329 0.612737 0.661628
0.066987 0.613395 0.721866
0.067649 0.614057 0.782450
0.068314 0.614722 0.843354
0.068982 0.615390 0.904556
0.069333 0.615741 0.936701
0.066239 0.671923 0.066239
0.066594 0.672277 0.098671
0.067159 0.672843 0.150434
0.067748 0.673432 0.204424
0.068353 0.674037 0.259803
0.068969 0.674653 0.316207
0.069594 0.675278 0.373426
0.070226 0.675910 0.431324
0.070865 0.676549 0.489805
0.071509 0.677193 0.548799
0.072158 0.677842 0.608249
0.072812 0.678496 0.668111
0.073470 0.679153 0.728349
0.074131 0.679815 0.788932
0.074796 0.680480 0.849836
0.075464 0.681148 0.911038
0.075815 0.681499 0.943184
0.072762 0.738088 0.072762
0.073116 0.738442 0.105193
0.073681 0.739007 0.156957
0.074271 0.739597 0.210946
0.074876 0.740201 0.266326
0.075492 0.740817 0.322729
0.076116 0.741442 0.379948
0.076749 0.742074 0.437846
0.077387 0.742713 0.496328
0.078032 0.743357 0.555321
0.078681 0.744006 0.614771
0.079334 0.744660 0.674633
0.079992 0.745318 0.734871
0.080654 0.745979 0.795455
0.081319 0.746644 0.856359
0.081987 0.747313 0.917561
0.082338 0.747664 0.949707
0.079322 0.804627 0.079322
0.079676 0.804981 0.111753
0.080241 0.805546 0.163516
0.080831 0.806135 0.217506
0.081435 0.806740 0.272885
0.082051 0.807356 0.329289
0.082676 0.807981 0.386508
0.083308 0.808613 0.444406
0.083947 0.809252 0.502888
0.084591 0.809896 0.561881
0.085240 0.810545 0.621331
0.085894 0.811199 0.681193
0.086552 0.811857 0.741431
0.087213 0.812518 0.802014
0.087878 0.813183 0.862918
0.088547 0.813851 0.924121
0.088898 0.814203 0.956266
0.085915 0.871512 0.085915
0.086269 0.871866 0.118347
0.086835 0.872432 0.170110
0.087424 0.873021 0.224100
0.088029 0.873626 0.279479
0.088645 0.874242 0.335883
0.089270 0.874867 0.393101
0.089902 0.875499 0.451000
0.090541 0.876137 0.509481
0.091185 0.876782 0.568475
0.091834 0.877431 0.627925
0.092488 0.878084 0.687786
0.093145 0.878742 0.748024
0.093807 0.879404 0.808608
0.094472 0.880069 0.869512
0.095140 0.880737 0.930714
0.095491 0.881088 0.962860
0.092541 0.938721 0.092541
0.092895 0.939075 0.124972
0.093460 0.939641 0.176736
0.094050 0.940230 0.230725
0.094655 0.940835 0.286105
0.095270 0.941451 0.342508
0.095895 0.942076 0.399727
0.096528 0.942708 0.457625
0.097166 0.943346 0.516107
0.097810 0.943991 0.575100
0.098460 0.944640 0.634550
0.099113 0.945293 0.694412
0.099771 0.945951 0.754650
0.100433 0.946613 0.815234
0.101098 0.947278 0.876138
0.101766 0.947946 0.937340
0.102117 0.948297 0.969485
0.000000 0.000000 0.000000
0.000354 0.000354 0.032431
0.000919 0.000919 0.084195
0.001509 0.001509 0.138184
0.002114 0.002114 0.193564
0.002730 0.002730 0.249967
0.003354 0.003354 0.307186
0.003987 0.003987 0.365084
0.004625 0.004625 0.423566
0.005269 0.005269 0.482559
0.005919 0.005919 0.542009
0.006572 0.006572 0.601871
0.007230 0.007230 0.662109
0.007892 0.007892 0.722693
0.008557 0.008557 0.783597
0.009225 0.009225 0.844799
0.009576 0.009576 0.876944
0.000000 0.000000 0.000000
0.000354 0.000354 0.032431
0.000919 0.000919 0.084195
0.001509 0.001509 0.138184
0.002114 0.002114 0.193564
0.002730 0.002730 0.249967
0.003354 0.003354 0.307186
0.003987 0.003987 0.365084
0.004625 0.004625 0.423566
0.005269 0.005269 0.482559
0.005919 0.005919 0.542009
0.006572 0.006572 0.601871
0.007230 0.007230 0.662109
0.007892 0.007892 0.722693
0.008557 0.008557 0.783597
0.009225 0.009225 0.844799
0.009576 0.009576 0.876944
0.004461 0.045249 0.004461
0.004815 0.045603 0.036892
0.005380 0.046169 0.088656
0.005970 0.046758 0.142645
0.006574 0.047363 0.198024
0.007190 0.047979 0.254428
0.007815 0.048604 0.311647
0.008447 0.049236 0.369545
0.009086 0.049874 0.428027
0.009730 0.050519 0.487020
0.010379 0.051168 0.546470
0.011033 0.051822 0.606332
0.011691 0.052479 0.666570
0.012352 0.053141 0.727154
0.013017 0.053806 0.788057
0.013686 0.054474 0.849260
0.014037 0.054825 0.881405
0.010114 0.102596 0.010114
0.010468 0.102950 0.042545
0.011034 0.103516 0.094309
0.011623 0.104105 0.148298
0.012228 0.104710 0.203678
0.012844 0.105326 0.260081
0.013469 0.105951 0.317300
0.014101 0.106583 0.375198
0.014739 0.107221 0.433680
0.015384 0.107866 0.492674
0.016033 0.108515 0.552123
0.016686 0.109168 0.611985
0.017344 0.109826 0.672223
0.018006 0.110488 0.732807
0.018671 0.111153 0.793711
0.019339 0.111821 0.854913
0.019690 0.112172 0.887059
0.015985 0.162145 0.015985
0.016339 0.162499 0.048416
0.016904 0.163065 0.100179
0.017494 0.163654 0.154169
0.018098 0.164259 0.209548
0.018714 0.164875 0.265952
0.019339 0.165500 0.323171
0.019971 0.166132 0.381069
0.020610 0.166771 0.439551
0.021254 0.167415 0.498544
0.021903 0.168064 0.557994
0.022557 0.168718 0.617856
0.023215 0.169375 0.678094
0.023876 0.170037 0.738677
0.024541 0.170702 0.799581
0.025210 0.171370 0.860783
0.025561 0.171721 0.892929
0.021996 0.223129 0.021996
0.022351 0.223483 0.054428
0.022916 0.224048 0.106191
0.023505 0.224638 0.160181
0.024110 0.225242 0.215560
0.024726 0.225858 0.271964
0.025351 0.226483 0.329183
0.025983 0.227115 0.387081
0.026622 0.227754 0.445562
0.027266 0.228398 0.504556
0.027915 0.229047 0.564006
0.028569 0.229701 0.623868
0.029227 0.230359 0.684106
0.029888 0.231020 0.744689
0.030553 0.231685 0.805593
0.031221 0.232354 0.866795
0.031572 0.232705 0.898941
0.028114 0.285187 0.028114
0.028468 0.285541 0.060546
0.029034 0.286107 0.112309
0.029623 0.286696 0.166299
0.030228 0.287301 0.221678
0.030844 0.287917 0.278082
0.031469 0.288542 0.335300
0.032101 0.289174 0.393199
0.032740 0.289813 0.451680
0.033384 0.290457 0.510674
0.034033 0.291106 0.570124
0.034687 0.291760 0.629985
0.035344 0.292417 0.690223
0.036006 0.293079 0.750807
0.036671 0.293744 0.811711
0.037339 0.294412 0.872913
0.037690 0.294763 0.905059
0.034317 0.348110 0.034317
0.034672 0.348464 0.066749
0.035237 0.349030 0.118512
0.035826 0.349619 0.172502
0.036431 0.350224 0.227881
0.037047 0.350840 0.284285
0.037672 0.351465 0.341503
0.038304 0.352097 0.399402
0.038943 0.352735 0.457883
0.039587 0.353380 0.516877
0.040236 0.354029 0.576327
0.040890 0.354682 0.636189
0.041547 0.355340 0.696426
0.042209 0.356002 0.757010
0.042874 0.356667 0.817914
0.043542 0.357335 0.879116
0.043893 0.357686 0.911262
0.040592 0.411758 0.040592
0.040946 0.412112 0.073023
0.041511 0.412677 0.124787
0.042101 0.413266 0.178776
0.042705 0.413871 0.234156
0.043321 0.414487 0.290559
0.043946 0.415112 0.347778
0.044578 0.415744 0.405676
0.045217 0.416383 0.464158
0.045861 0.417027 0.523151
0.046510 0.417676 0.582601
0.047164 0.418330 0.642463
0.047822 0.418988 0.702701
0.048483 0.419649 0.763285
0.049149 0.420314 0.824189
0.049817 0.420983 0.885391
0.050168 0.421334 0.917536
0.046928 0.476030 0.046928
0.047282 0.476384 0.079359
0.047847 0.476949 0.131123
0.048437 0.477539 0.185112
0.049042 0.478143 0.240492
0.049657 0.478759 0.296895
0.050282 0.479384 0.354114
0.050915 0.480016 0.412012
0.051553 0.480655 0.470494
0.052197 0.481299 0.529487
0.052846 0.481948 0.588937
0.053500 0.482602 0.648799
0.054158 0.483260 0.709037
0.054820 0.483921 0.769621
0.055485 0.484586 0.830525
0.056153 0.485255 0.891727
0.056504 0.485606 0.923872
0.053318 0.540852 0.053318
0.053672 0.541206 0.085749
0.054238 0.541771 0.137513
0.054827 0.542361 0.191503
0.055432 0.542965 0.246882
0.056048 0.543581 0.303285
0.056673 0.544206 0.360504
0.057305 0.544838 0.418403
0.057943 0.545477 0.476884
0.058588 0.546121 0.535878
0.059237 0.546770 0.595327
0.059890 0.547424 0.655189
0.060548 0.548082 0.715427
0.061210 0.548743 0.776011
0.061875 0.549408 0.836915
0.062543 0.550077 0.898117
0.062894 0.550428 0.930263
0.059757 0.606165 0.059757
0.060111 0.606519 0.092188
0.060676 0.607084 0.143952
0.061266 0.607674 0.197941
0.061871 0.608279 0.253321
0.062486 0.608895 0.309724
0.063111 0.609519 0.366943
0.063744 0.610152 0.424841
0.064382 0.610790 0.483323
0.065026 0.611435 0.542316
0.065675 0.612084 0.601766
0.066329 0.612737 0.661628
0.066987 0.613395 0.721866
0.067649 0.614057 0.782450
0.068314 0.614722 0.843354
0.068982 0.615390 0.904556
0.069333 0.615741 0.936701
0.066239 0.671923 0.066239
0.066594 0.672277 0.098671
0.067159 0.672843 0.150434
0.067748 0.673432 0.204424
0.068353 0.674037 0.259803
0.068969 0.674653 0.316207
0.069594 0.675278 0.373426
0.070226 0.675910 0.431324
0.070865 0.676549 0.489805
0.071509 0.677193 0.548799
0.072158 0.677842 0.608249
0.072812 0.678496 0.668111
0.073470 0.679153 0.728349
0.074131 0.679815 0.788932
0.074796 0.680480 0.849836
0.075464 0.681148 0.911038
0.075815 0.681499 0.943184
0.072762 0.738088 0.072762
0.073116 0.738442 0.105193
0.073681 0.739007 0.156957
0.074271 0.739597 0.210946
0.074876 0.740201 0.266326
0.075492 0.740817 0.322729
0.076116 0.741442 0.379948
0.076749 0.742074 0.437846
0.077387 0.742713 0.496328
0.078032 0.743357 0.555321
0.078681 0.744006 0.614771
0.079334 0.744660 0.674633
0.079992 0.745318 0.734871
0.080654 0.745979 0.795455
0.081319 0.746644 0.856359
0.081987 0.747313 0.917561
0.082338 0.747664 0.949707
0.079322 0.804627 0.079322
0.079676 0.804981 0.111753
0.080241 0.805546 0.163516
0.080831 0.806135 0.217506
0.081435 0.806740 0.272885
0.082051 0.807356 0.329289
0.082676 0.807981 0.386508
0.083308 0.808613 0.444406
0.083947 0.809252 0.502888
0.084591 0.809896 0.561881
0.085240 0.810545 0.621331
0.085894 0.811199 0.681193
0.086552 0.811857 0.741431
0.087213 0.812518 0.802014
0.087878 0.813183 0.862918
0.088547 0.813851 0.924121
0.088898 0.814203 0.956266
0.085915 0.871512 0.085915
0.086269 0.871866 0.118347
0.086835 0.872432 0.170110
0.087424 0.873021 0.224100
0.088029 0.873626 0.279479
0.088645 0.874242 0.335883
0.089270 0.874867 0.393101
0.089902 0.875499 0.451000
0.090541 0.876137 0.509481
0.091185 0.876782 0.568475
0.091834 0.877431 0.627925
0.092488 0.878084 0.687786
0.093145 0.878742 0.748024
0.093807 0.879404 0.808608
0.094472 0.880069 0.869512
0.095140 0.880737 0.930714
0.095491 0.881088 0.962860
0.092541 0.938721 0.092541
0.092895 0.939075 0.124972
0.093460 0.939641 0.176736
0.094050 0.940230 0.230725
0.094655 0.940835 0.286105
0.095270 0.941451 0.342508
0.095895 0.942076 0.399727
0.096528 0.942708 0.457625
0.097166 0.943346 0.516107
0.097810 0.943991 0.575100
0.098460 0.944640 0.634550
0.099113 0.945293 0.694412
0.099771 0.945951 0.754650
0.100433 0.946613 0.815234
0.101098 0.947278 0.876138
0.101766 0.947946 0.937340
0.102117 0.948297 0.969485
0.001637 0.000052 0.000052
0.001991 0.000406 0.032483
0.002557 0.000971 0.084246
0.003146 0.001560 0.138236
0.003751 0.002165 0.193615
0.004367 0.002781 0.250019
0.004992 0.003406 0.307238
0.005624 0.004038 0.365136
0.006263 0.004677 0.423618
0.006907 0.005321 0.482611
0.007556 0.005970 0.542061
0.008210 0.006624 0.601923
0.008867 0.007282 0.662161
0.009529 0.007943 0.722744
0.010194 0.008608 0.783648
0.010862 0.009277 0.844850
0.011213 0.009628 0.876996
0.001637 0.000052 0.000052
0.001991 0.000406 0.032483
0.002557 0.000971 0.084246
0.003146 0.001560 0.138236
0.003751 0.002165 0.193615
0.004367 0.002781 0.250019
0.004992 0.003406 0.307238
0.005624 0.004038 0.365136
0.006263 0.004677 0.423618
0.006907 0.005321 0.482611
0.007556 0.005970 0.542061
0.008210 0.006624 0.601923
0.008867 0.007282 0.662161
0.009529 0.007943 0.722744
0.010194 0.008608 0.783648
0.010862 0.009277 0.844850
0.011213 0.009628 0.876996
0.006098 0.045301 0.004512
0.006452 0.045655 0.036944
0.007017 0.046220 0.088707
0.007607 0.046810 0.142697
0.008212 0.047414 0.198076
0.008828 0.048030 0.254480
0.009452 0.048655 0.311698
0.010085 0.049287 0.369597
0.010723 0.049926 0.428078
0.011368 0.050570 0.487072
0.012017 0.051219 0.546522
0.012670 0.051873 0.606383
0.013328 0.052531 0.666621
0.013990 0.053192 0.727205
0.014655 0.053857 0.788109
0.015323 0.054526 0.849311
0.015674 0.054877 0.881457
0.011751 0.102648 0.010166
0.012106 0.103002 0.042597
0.012671 0.103567 0.094360
0.013260 0.104157 0.148350
0.013865 0.104761 0.203729
0.014481 0.105377 0.260133
0.015106 0.106002 0.317352
0.015738 0.106634 0.375250
0.016377 0.107273 0.433732
0.017021 0.107917 0.492725
0.017670 0.108566 0.552175
0.018324 0.109220 0.612037
0.018982 0.109878 0.672275
0.019643 0.110539 0.732858
0.020308 0.111204 0.793762
0.020976 0.111873 0.854965
0.021327 0.112224 0.887110
0.017622 0.162197 0.016036
0.017976 0.162551 0.048467
0.018541 0.163116 0.100231
0.019131 0.163706 0.154221
0.019736 0.164311 0.209600
0.020352 0.164926 0.266003
0.020976 0.165551 0.323222
0.021609 0.166184 0.381121
0.022247 0.166822 0.439602
0.022891 0.167466 0.498596
0.023541 0.168115 0.558045
0.024194 0.168769 0.617907
0.024852 0.169427 0.678145
0.025514 0.170089 0.738729
0.026179 0.170754 0.799633
0.026847 0.171422 0.860835
0.027198 0.171773 0.892981
0.023634 0.223180 0.022048
0.023988 0.223534 0.054479
0.024553 0.224100 0.106243
0.025143 0.224689 0.160232
0.025747 0.225294 0.215612
0.026363 0.225910 0.272015
0.026988 0.226535 0.329234
0.027620 0.227167 0.387132
0.028259 0.227805 0.445614
0.028903 0.228450 0.504607
0.029552 0.229099 0.564057
0.030206 0.229753 0.623919
0.030864 0.230410 0.684157
0.031525 0.231072 0.744741
0.032190 0.231737 0.805645
0.032859 0.232405 0.866847
0.033210 0.232756 0.898992
0.029752 0.285239 0.028166
0.030106 0.285593 0.060597
0.030671 0.286158 0.112361
0.031261 0.286748 0.166350
0.031865 0.287353 0.221730
0.032481 0.287968 0.278133
0.033106 0.288593 0.335352
0.033738 0.289226 0.393250
0.034377 0.289864 0.451732
0.035021 0.290508 0.510725
0.035670 0.291157 0.570175
0.036324 0.291811 0.630037
0.036982 0.292469 0.690275
0.037643 0.293131 0.750859
0.038308 0.293796 0.811763
0.038977 0.294464 0.872965
0.039328 0.294815 0.905110
0.035955 0.348162 0.034369
0.036309 0.348516 0.066800
0.036874 0.349081 0.118564
0.037464 0.349671 0.172553
0.038068 0.350275 0.227933
0.038684 0.350891 0.284336
0.039309 0.351516 0.341555
0.039941 0.352148 0.399453
0.040580 0.352787 0.457935
0.041224 0.353431 0.516928
0.041873 0.354080 0.576378
0.042527 0.354734 0.636240
0.043185 0.355392 0.696478
0.043846 0.356053 0.757062
0.044511 0.356718 0.817966
0.045180 0.357387 0.879168
0.045531 0.357738 0.911313
0.042229 0.411809 0.040643
0.042583 0.412163 0.073075
0.043149 0.412728 0.124838
0.043738 0.413318 0.178828
0.044343 0.413923 0.234207
0.044959 0.414539 0.290611
0.045584 0.415163 0.347830
0.046216 0.415796 0.405728
0.046854 0.416434 0.464209
0.047499 0.417079 0.523203
0.048148 0.417728 0.582653
0.048801 0.418381 0.642515
0.049459 0.419039 0.702752
0.050121 0.419701 0.763336
0.050786 0.420366 0.824240
0.051454 0.421034 0.885442
0.051805 0.421385 0.917588
0.048565 0.476081 0.046979
0.048919 0.476435 0.079411
0.049485 0.477001 0.131174
0.050074 0.477590 0.185164
0.050679 0.478195 0.240543
0.051295 0.478811 0.296947
0.051920 0.479436 0.354166
0.052552 0.480068 0.412064
0.053190 0.480706 0.470545
0.053835 0.481351 0.529539
0.054484 0.482000 0.588989
0.055138 0.482653 0.648851
0.055795 0.483311 0.709089
0.056457 0.483973 0.769672
0.057122 0.484638 0.830576
0.057790 0.485306 0.891778
0.058141 0.485657 0.923924
0.054956 0.540903 0.053370
0.055310 0.541257 0.085801
0.055875 0.541823 0.137565
0.056464 0.542412 0.191554
0.057069 0.543017 0.246933
0.057685 0.543633 0.303337
0.058310 0.544258 0.360556
0.058942 0.544890 0.418454
0.059581 0.545528 0.476936
0.060225 0.546173 0.535929
0.060874 0.546822 0.595379
0.061528 0.547475 0.655241
0.062186 0.548133 0.715479
0.062847 0.548795 0.776062
0.063512 0.549460 0.836966
0.064180 0.550128 0.898169
0.064532 0.550479 0.930314
0.061394 0.606217 0.059808
0.061748 0.606571 0.092240
0.062314 0.607136 0.144003
0.062903 0.607726 0.197993
0.063508 0.608330 0.253372
0.064124 0.608946 0.309776
0.064749 0.609571 0.366995
0.065381 0.610203 0.424893
0.066019 0.610842 0.483374
0.066664 0.611486 0.542368
0.067313 0.612135 0.601818
0.067967 0.612789 0.661680
0.068624 0.613447 0.721918
0.069286 0.614108 0.782501
0.069951 0.614773 0.843405
0.070619 0.615442 0.904607
0.070970 0.615793 0.936753
0.067877 0.671975 0.066291
0.068231 0.672329 0.098722
0.068796 0.672894 0.150486
0.069386 0.673484 0.204475
0.069990 0.674089 0.259855
0.070606 0.674704 0.316258
0.071231 0.675329 0.373477
0.071863 0.675961 0.431375
0.072502 0.676600 0.489857
0.073146 0.677244 0.548850
0.073795 0.677893 0.608300
0.074449 0.678547 0.668162
0.075107 0.679205 0.728400
0.075768 0.679866 0.788984
0.076433 0.680532 0.849888
0.077102 0.681200 0.911090
0.077453 0.681551 0.943235
0.074399 0.738139 0.072814
0.074754 0.738494 0.105245
0.075319 0.739059 0.157008
0.075908 0.739648 0.210998
0.076513 0.740253 0.266377
0.077129 0.740869 0.322781
0.077754 0.741494 0.380000
0.078386 0.742126 0.437898
0.079025 0.742765 0.496380
0.079669 0.743409 0.555373
0.080318 0.744058 0.614823
0.080972 0.744712 0.674685
0.081629 0.745369 0.734923
0.082291 0.746031 0.795506
0.082956 0.746696 0.856410
0.083624 0.747364 0.917613
0.083975 0.747715 0.949758
0.080959 0.804678 0.079373
0.081313 0.805032 0.111804
0.081878 0.805597 0.163568
0.082468 0.806187 0.217558
0.083073 0.806792 0.272937
0.083689 0.807408 0.329340
0.084313 0.808032 0.386559
0.084946 0.808665 0.444458
0.085584 0.809303 0.502939
0.086228 0.809947 0.561933
0.086878 0.810597 0.621382
0.087531 0.811250 0.681244
0.088189 0.811908 0.741482
0.088851 0.812570 0.802066
0.089516 0.813235 0.862970
0.090184 0.813903 0.924172
0.090535 0.814254 0.956318
0.087553 0.871564 0.085967
0.087907 0.871918 0.118398
0.088472 0.872483 0.170162
0.089062 0.873073 0.224151
0.089666 0.873677 0.279531
0.090282 0.874293 0.335934
0.090907 0.874918 0.393153
0.091539 0.875550 0.451051
0.092178 0.876189 0.509533
0.092822 0.876833 0.568526
0.093471 0.877482 0.627976
0.094125 0.878136 0.687838
0.094783 0.878794 0.748076
0.095444 0.879455 0.808660
0.096109 0.880120 0.869564
0.096778 0.880789 0.930766
0.097129 0.881140 0.962911
0.094178 0.938773 0.092592
0.094532 0.939127 0.125024
0.095098 0.939692 0.176787
0.095687 0.940282 0.230777
0.096292 0.940886 0.286156
0.096908 0.941502 0.342560
0.097533 0.942127 0.399779
0.098165 0.942759 0.457677
0.098803 0.943398 0.516158
0.099448 0.944042 0.575152
0.100097 0.944691 0.634602
0.100751 0.945345 0.694464
0.101408 0.946003 0.754702
0.102070 0.946664 0.815285
0.102735 0.947329 0.876189
0.103403 0.947998 0.937391
0.103754 0.948349 0.969537
0.051232 0.001613 0.001613
0.051586 0.001967 0.034044
0.052151 0.002532 0.085808
0.052741 0.003122 0.139797
0.053346 0.003727 0.195177
0.053961 0.004343 0.251580
0.054586 0.004967 0.308799
0.055219 0.005600 0.366697
0.055857 0.006238 0.425179
0.056501 0.006882 0.484172
0.057151 0.007532 0.543622
0.057804 0.008185 0.603484
0.058462 0.008843 0.663722
0.059124 0.009505 0.724306
0.059789 0.010170 0.785210
0.060457 0.010838 0.846412
0.060808 0.011189 0.878557
0.051232 0.001613 0.001613
