skills/editops-orchestrator/assets/grade/luts/night_blue_v10.cube
TITLE "night_blue_v10"
LUT_3D_SIZE 5
DOMAIN_MIN 0.0 0.0 0.0
DOMAIN_MAX 1.0 1.0 1.0
0.000000 0.000000 0.000000
0.002042 0.002042 0.195849
0.004448 0.004448 0.426486
0.006937 0.006937 0.665190
0.009196 0.009196 0.881828
0.015767 0.166809 0.015767
0.017810 0.168851 0.211616
0.020215 0.171256 0.442253
0.022704 0.173745 0.680958
0.024963 0.176005 0.897595
0.039363 0.416441 0.039363
0.041405 0.418483 0.235212
0.043811 0.420889 0.465849
0.046300 0.423378 0.704554
0.048559 0.425637 0.921191
0.063890 0.675928 0.063890
0.065933 0.677970 0.259740
0.068338 0.680375 0.490376
0.070827 0.682864 0.729081
0.073086 0.685124 0.945718
0.089005 0.941621 0.089005
0.091047 0.943663 0.284854
0.093452 0.946068 0.515490
0.095941 0.948558 0.754195
0.098201 0.950817 0.970832
0.112374 0.003382 0.003382
0.114417 0.005425 0.199231
0.116822 0.007830 0.429868
0.119311 0.010319 0.668573
0.121570 0.012578 0.885210
0.128141 0.170191 0.019149
0.130184 0.172233 0.214999
0.132589 0.174638 0.445635
0.135078 0.177128 0.684340
0.137337 0.179387 0.900977
0.151737 0.419823 0.042745
0.153780 0.421866 0.238594
0.156185 0.424271 0.469231
0.158674 0.426760 0.707936
0.160933 0.429019 0.924573
0.176265 0.679310 0.067273
0.178307 0.681352 0.263122
0.180712 0.683757 0.493758
0.183201 0.686246 0.732463
0.185461 0.688506 0.949100
0.201379 0.945003 0.092387
0.203421 0.947045 0.288236
0.205826 0.949450 0.518873
0.208315 0.951940 0.757577
0.210575 0.954199 0.974214
0.342750 0.010316 0.010316
0.344792 0.012358 0.206165
0.347198 0.014763 0.436802
0.349687 0.017253 0.675506
0.351946 0.019512 0.892143
0.358517 0.177124 0.026083
0.360560 0.179167 0.221932
0.362965 0.181572 0.452569
0.365454 0.184061 0.691273
0.367713 0.186320 0.907911
0.382113 0.426757 0.049679
0.384156 0.428799 0.245528
0.386561 0.431204 0.476165
0.389050 0.433694 0.714869
0.391309 0.435953 0.931506
0.406641 0.686243 0.074206
0.408683 0.688286 0.270055
0.411088 0.690691 0.500692
0.413577 0.693180 0.739397
0.415837 0.695439 0.956034
0.431755 0.951937 0.099320
0.433797 0.953979 0.295169
0.436202 0.956384 0.525806
0.438691 0.958873 0.764511
0.440951 0.961133 0.981148
0.583591 0.017564 0.017564
0.585634 0.019607 0.213414
0.588039 0.022012 0.444050
0.590528 0.024501 0.682755
0.592787 0.026760 0.899392
0.599359 0.184373 0.033332
0.601401 0.186415 0.229181
0.603806 0.188820 0.459817
0.606295 0.191310 0.698522
0.608555 0.193569 0.915159
0.622955 0.434005 0.056927
0.624997 0.436048 0.252777
0.627402 0.438453 0.483413
0.629891 0.440942 0.722118
0.632151 0.443201 0.938755
0.647482 0.693492 0.081455
0.649524 0.695534 0.277304
0.651929 0.697939 0.507941
0.654419 0.700429 0.746645
0.656678 0.702688 0.963282
0.672596 0.959185 0.106569
0.674638 0.961228 0.302418
0.677044 0.963633 0.533055
0.679533 0.966122 0.771759
0.681792 0.968381 0.988396
0.830662 0.025000 0.025000
0.832705 0.027043 0.220850
0.835110 0.029448 0.451486
0.837599 0.031937 0.690191
0.839858 0.034196 0.906828
0.846430 0.191809 0.040768
0.848472 0.193851 0.236617
0.850877 0.196257 0.467253
0.853366 0.198746 0.705958
0.855626 0.201005 0.922595
0.870025 0.441441 0.064364
0.872068 0.443484 0.260213
0.874473 0.445889 0.490849
0.876962 0.448378 0.729554
0.879221 0.450637 0.946191
0.894553 0.700928 0.088891
0.896595 0.702970 0.284740
0.899000 0.705375 0.515377
0.901490 0.707865 0.754081
0.903749 0.710124 0.970718
0.919667 0.966621 0.114005
0.921709 0.968664 0.309854
0.924114 0.971069 0.540491
0.926604 0.973558 0.779195
0.928863 0.975817 0.995832
