skills/editops-orchestrator/assets/grade/luts/night_blue_v15.cube
TITLE "night_blue_v15"
LUT_3D_SIZE 17
DOMAIN_MIN 0.0 0.0 0.0
DOMAIN_MAX 1.0 1.0 1.0
0.000000 0.000000 0.000000
0.000362 0.000362 0.027984
0.001007 0.001007 0.077815
0.001687 0.001687 0.130381
0.002389 0.002389 0.184641
0.003108 0.003108 0.240147
0.003839 0.003839 0.296646
0.004581 0.004581 0.353974
0.005332 0.005332 0.412013
0.006091 0.006091 0.470678
0.006858 0.006858 0.529900
0.007631 0.007631 0.589628
0.008409 0.008409 0.649815
0.009194 0.009194 0.710427
0.009983 0.009983 0.771431
0.010778 0.010778 0.832802
0.011096 0.011096 0.857412
0.000000 0.000000 0.000000
0.000362 0.000362 0.027984
0.001007 0.001007 0.077815
0.001687 0.001687 0.130381
0.002389 0.002389 0.184641
0.003108 0.003108 0.240147
0.003839 0.003839 0.296646
0.004581 0.004581 0.353974
0.005332 0.005332 0.412013
0.006091 0.006091 0.470678
0.006858 0.006858 0.529900
0.007631 0.007631 0.589628
0.008409 0.008409 0.649815
0.009194 0.009194 0.710427
0.009983 0.009983 0.771431
0.010778 0.010778 0.832802
0.011096 0.011096 0.857412
0.003420 0.029757 0.003420
0.003783 0.030119 0.031404
0.004428 0.030764 0.081236
0.005108 0.031445 0.133802
0.005810 0.032147 0.188061
0.006528 0.032865 0.243567
0.007259 0.033596 0.300067
0.008001 0.034338 0.357394
0.008752 0.035089 0.415434
0.009512 0.035848 0.474098
0.010278 0.036615 0.533321
0.011051 0.037388 0.593048
0.011830 0.038167 0.653236
0.012614 0.038951 0.713847
0.013404 0.039741 0.774852
0.014198 0.040535 0.836223
0.014516 0.040853 0.860832
0.009795 0.085214 0.009795
0.010157 0.085576 0.037779
0.010802 0.086221 0.087611
0.011482 0.086901 0.140176
0.012184 0.087603 0.194436
0.012903 0.088322 0.249942
0.013634 0.089053 0.306441
0.014376 0.089795 0.363769
0.015127 0.090546 0.421808
0.015886 0.091305 0.480473
0.016653 0.092072 0.539696
0.017426 0.092845 0.599423
0.018204 0.093623 0.659610
0.018989 0.094408 0.720222
0.019778 0.095197 0.781226
0.020573 0.095992 0.842597
0.020891 0.096310 0.867207
0.016526 0.143775 0.016526
0.016889 0.144137 0.044510
0.017533 0.144782 0.094342
0.018214 0.145463 0.146908
0.018916 0.146165 0.201167
0.019634 0.146883 0.256673
0.020365 0.147614 0.313173
0.021107 0.148356 0.370500
0.021858 0.149107 0.428540
0.022618 0.149866 0.487204
0.023384 0.150633 0.546427
0.024157 0.151406 0.606154
0.024936 0.152185 0.666341
0.025720 0.152969 0.726953
0.026510 0.153759 0.787958
0.027304 0.154553 0.849329
0.027622 0.154871 0.873938
0.023477 0.204245 0.023477
0.023839 0.204607 0.051461
0.024484 0.205252 0.101293
0.025164 0.205932 0.153858
0.025867 0.206634 0.208118
0.026585 0.207352 0.263624
0.027316 0.208084 0.320124
0.028058 0.208826 0.377451
0.028809 0.209577 0.435490
0.029568 0.210336 0.494155
0.030335 0.211102 0.553378
0.031108 0.211875 0.613105
0.031887 0.212654 0.673292
0.032671 0.213438 0.733904
0.033460 0.214228 0.794908
0.034255 0.215022 0.856279
0.034573 0.215341 0.880889
0.030589 0.266115 0.030589
0.030951 0.266477 0.058573
0.031596 0.267122 0.108404
0.032276 0.267802 0.160970
0.032978 0.268504 0.215229
0.033697 0.269222 0.270736
0.034428 0.269954 0.327235
0.035170 0.270695 0.384563
0.035921 0.271447 0.442602
0.036680 0.272206 0.501267
0.037446 0.272972 0.560489
0.038219 0.273745 0.620216
0.038998 0.274524 0.680404
0.039783 0.275308 0.741015
0.040572 0.276098 0.802020
0.041366 0.276892 0.863391
0.041685 0.277211 0.888001
0.037829 0.329098 0.037829
0.038191 0.329460 0.065812
0.038836 0.330105 0.115644
0.039516 0.330786 0.168210
0.040218 0.331488 0.222469
0.040936 0.332206 0.277976
0.041668 0.332937 0.334475
0.042409 0.333679 0.391803
0.043161 0.334430 0.449842
0.043920 0.335189 0.508506
0.044686 0.335956 0.567729
0.045459 0.336729 0.627456
0.046238 0.337508 0.687644
0.047022 0.338292 0.748255
0.047812 0.339082 0.809260
0.048606 0.339876 0.870631
0.048925 0.340194 0.895240
0.045175 0.393010 0.045175
0.045537 0.393372 0.073159
0.046182 0.394017 0.122990
0.046862 0.394697 0.175556
0.047564 0.395399 0.229816
0.048283 0.396117 0.285322
0.049014 0.396849 0.341821
0.049756 0.397590 0.399149
0.050507 0.398342 0.457188
0.051266 0.399101 0.515853
0.052032 0.399867 0.575075
0.052805 0.400640 0.634802
0.053584 0.401419 0.694990
0.054369 0.402203 0.755602
0.055158 0.402993 0.816606
0.055952 0.403787 0.877977
0.056271 0.404106 0.902587
0.052613 0.457718 0.052613
0.052975 0.458080 0.080597
0.053620 0.458725 0.130428
0.054300 0.459405 0.182994
0.055002 0.460107 0.237253
0.055721 0.460826 0.292760
0.056452 0.461557 0.349259
0.057194 0.462299 0.406587
0.057945 0.463050 0.464626
0.058704 0.463809 0.523291
0.059470 0.464575 0.582513
0.060243 0.465348 0.642240
0.061022 0.466127 0.702428
0.061807 0.466912 0.763040
0.062596 0.467701 0.824044
0.063390 0.468495 0.885415
0.063709 0.468814 0.910025
0.060131 0.523126 0.060131
0.060493 0.523488 0.088115
0.061138 0.524133 0.137947
0.061819 0.524813 0.190512
0.062521 0.525515 0.244772
0.063239 0.526233 0.300278
0.063970 0.526965 0.356778
0.064712 0.527706 0.414105
0.065463 0.528458 0.472145
0.066222 0.529217 0.530809
0.066989 0.529983 0.590032
0.067762 0.530756 0.649759
0.068541 0.531535 0.709946
0.069325 0.532319 0.770558
0.070115 0.533109 0.831562
0.070909 0.533903 0.892933
0.071227 0.534222 0.917543
0.067721 0.589158 0.067721
0.068083 0.589520 0.095705
0.068728 0.590165 0.145537
0.069409 0.590845 0.198103
0.070111 0.591547 0.252362
0.070829 0.592265 0.307868
0.071560 0.592997 0.364368
0.072302 0.593738 0.421695
0.073053 0.594490 0.479735
0.073813 0.595249 0.538399
0.074579 0.596015 0.597622
0.075352 0.596788 0.657349
0.076131 0.597567 0.717536
0.076915 0.598351 0.778148
0.077705 0.599141 0.839153
0.078499 0.599935 0.900524
0.078817 0.600254 0.925133
0.075376 0.655754 0.075376
0.075738 0.656116 0.103360
0.076383 0.656761 0.153192
0.077064 0.657441 0.205757
0.077766 0.658143 0.260017
0.078484 0.658861 0.315523
0.079215 0.659593 0.372023
0.079957 0.660334 0.429350
0.080708 0.661086 0.487390
0.081467 0.661845 0.546054
0.082234 0.662611 0.605277
0.083007 0.663384 0.665004
0.083786 0.664163 0.725191
0.084570 0.664947 0.785803
0.085360 0.665737 0.846808
0.086154 0.666531 0.908178
0.086472 0.666850 0.932788
0.083090 0.722864 0.083090
0.083453 0.723227 0.111074
0.084097 0.723871 0.160906
0.084778 0.724552 0.213472
0.085480 0.725254 0.267731
0.086198 0.725972 0.323237
0.086929 0.726703 0.379737
0.087671 0.727445 0.437064
0.088422 0.728196 0.495104
0.089182 0.728956 0.553768
0.089948 0.729722 0.612991
0.090721 0.730495 0.672718
0.091500 0.731274 0.732906
0.092284 0.732058 0.793517
0.093074 0.732848 0.854522
0.093868 0.733642 0.915893
0.094186 0.733960 0.940502
0.090859 0.790449 0.090859
0.091221 0.790811 0.118843
0.091866 0.791456 0.168675
0.092546 0.792136 0.221240
0.093248 0.792839 0.275500
0.093967 0.793557 0.331006
0.094698 0.794288 0.387505
0.095440 0.795030 0.444833
0.096191 0.795781 0.502872
0.096950 0.796540 0.561537
0.097717 0.797307 0.620760
0.098490 0.798080 0.680487
0.099268 0.798859 0.740674
0.100053 0.799643 0.801286
0.100842 0.800432 0.862290
0.101637 0.801227 0.923661
0.101955 0.801545 0.948271
0.098678 0.858473 0.098678
0.099040 0.858835 0.126662
0.099685 0.859480 0.176494
0.100365 0.860160 0.229059
0.101068 0.860863 0.283319
0.101786 0.861581 0.338825
0.102517 0.862312 0.395325
0.103259 0.863054 0.452652
0.104010 0.863805 0.510691
0.104769 0.864564 0.569356
0.105536 0.865331 0.628579
0.106309 0.866104 0.688306
0.107088 0.866883 0.748493
0.107872 0.867667 0.809105
0.108661 0.868456 0.870109
0.109456 0.869251 0.931480
0.109774 0.869569 0.956090
0.106544 0.926906 0.106544
0.106906 0.927269 0.134528
0.107551 0.927913 0.184360
0.108232 0.928594 0.236925
0.108934 0.929296 0.291185
0.109652 0.930014 0.346691
0.110383 0.930745 0.403191
0.111125 0.931487 0.460518
0.111876 0.932238 0.518558
0.112635 0.932998 0.577222
0.113402 0.933764 0.636445
0.114175 0.934537 0.696172
0.114954 0.935316 0.756359
0.115738 0.936100 0.816971
0.116528 0.936890 0.877975
0.117322 0.937684 0.939346
0.117640 0.938002 0.963956
0.000000 0.000000 0.000000
0.000362 0.000362 0.027984
0.001007 0.001007 0.077815
0.001687 0.001687 0.130381
0.002389 0.002389 0.184641
0.003108 0.003108 0.240147
0.003839 0.003839 0.296646
0.004581 0.004581 0.353974
0.005332 0.005332 0.412013
0.006091 0.006091 0.470678
0.006858 0.006858 0.529900
0.007631 0.007631 0.589628
0.008409 0.008409 0.649815
0.009194 0.009194 0.710427
0.009983 0.009983 0.771431
0.010778 0.010778 0.832802
0.011096 0.011096 0.857412
0.000000 0.000000 0.000000
0.000362 0.000362 0.027984
0.001007 0.001007 0.077815
0.001687 0.001687 0.130381
0.002389 0.002389 0.184641
0.003108 0.003108 0.240147
0.003839 0.003839 0.296646
0.004581 0.004581 0.353974
0.005332 0.005332 0.412013
0.006091 0.006091 0.470678
0.006858 0.006858 0.529900
0.007631 0.007631 0.589628
0.008409 0.008409 0.649815
0.009194 0.009194 0.710427
0.009983 0.009983 0.771431
0.010778 0.010778 0.832802
0.011096 0.011096 0.857412
0.003420 0.029757 0.003420
0.003783 0.030119 0.031404
0.004428 0.030764 0.081236
0.005108 0.031445 0.133802
0.005810 0.032147 0.188061
0.006528 0.032865 0.243567
0.007259 0.033596 0.300067
0.008001 0.034338 0.357394
0.008752 0.035089 0.415434
0.009512 0.035848 0.474098
0.010278 0.036615 0.533321
0.011051 0.037388 0.593048
0.011830 0.038167 0.653236
0.012614 0.038951 0.713847
0.013404 0.039741 0.774852
0.014198 0.040535 0.836223
0.014516 0.040853 0.860832
0.009795 0.085214 0.009795
0.010157 0.085576 0.037779
0.010802 0.086221 0.087611
0.011482 0.086901 0.140176
0.012184 0.087603 0.194436
0.012903 0.088322 0.249942
0.013634 0.089053 0.306441
0.014376 0.089795 0.363769
0.015127 0.090546 0.421808
0.015886 0.091305 0.480473
0.016653 0.092072 0.539696
0.017426 0.092845 0.599423
0.018204 0.093623 0.659610
0.018989 0.094408 0.720222
0.019778 0.095197 0.781226
0.020573 0.095992 0.842597
0.020891 0.096310 0.867207
0.016526 0.143775 0.016526
0.016889 0.144137 0.044510
0.017533 0.144782 0.094342
0.018214 0.145463 0.146908
0.018916 0.146165 0.201167
0.019634 0.146883 0.256673
0.020365 0.147614 0.313173
0.021107 0.148356 0.370500
0.021858 0.149107 0.428540
0.022618 0.149866 0.487204
0.023384 0.150633 0.546427
0.024157 0.151406 0.606154
0.024936 0.152185 0.666341
0.025720 0.152969 0.726953
0.026510 0.153759 0.787958
0.027304 0.154553 0.849329
0.027622 0.154871 0.873938
0.023477 0.204245 0.023477
0.023839 0.204607 0.051461
0.024484 0.205252 0.101293
0.025164 0.205932 0.153858
0.025867 0.206634 0.208118
0.026585 0.207352 0.263624
0.027316 0.208084 0.320124
0.028058 0.208826 0.377451
0.028809 0.209577 0.435490
0.029568 0.210336 0.494155
0.030335 0.211102 0.553378
0.031108 0.211875 0.613105
0.031887 0.212654 0.673292
0.032671 0.213438 0.733904
0.033460 0.214228 0.794908
0.034255 0.215022 0.856279
0.034573 0.215341 0.880889
0.030589 0.266115 0.030589
0.030951 0.266477 0.058573
0.031596 0.267122 0.108404
0.032276 0.267802 0.160970
0.032978 0.268504 0.215229
0.033697 0.269222 0.270736
0.034428 0.269954 0.327235
0.035170 0.270695 0.384563
0.035921 0.271447 0.442602
0.036680 0.272206 0.501267
0.037446 0.272972 0.560489
0.038219 0.273745 0.620216
0.038998 0.274524 0.680404
0.039783 0.275308 0.741015
0.040572 0.276098 0.802020
0.041366 0.276892 0.863391
0.041685 0.277211 0.888001
0.037829 0.329098 0.037829
0.038191 0.329460 0.065812
0.038836 0.330105 0.115644
0.039516 0.330786 0.168210
0.040218 0.331488 0.222469
0.040936 0.332206 0.277976
0.041668 0.332937 0.334475
0.042409 0.333679 0.391803
0.043161 0.334430 0.449842
0.043920 0.335189 0.508506
0.044686 0.335956 0.567729
0.045459 0.336729 0.627456
0.046238 0.337508 0.687644
0.047022 0.338292 0.748255
0.047812 0.339082 0.809260
0.048606 0.339876 0.870631
0.048925 0.340194 0.895240
0.045175 0.393010 0.045175
0.045537 0.393372 0.073159
0.046182 0.394017 0.122990
0.046862 0.394697 0.175556
0.047564 0.395399 0.229816
0.048283 0.396117 0.285322
0.049014 0.396849 0.341821
0.049756 0.397590 0.399149
0.050507 0.398342 0.457188
0.051266 0.399101 0.515853
0.052032 0.399867 0.575075
0.052805 0.400640 0.634802
0.053584 0.401419 0.694990
0.054369 0.402203 0.755602
0.055158 0.402993 0.816606
0.055952 0.403787 0.877977
0.056271 0.404106 0.902587
0.052613 0.457718 0.052613
0.052975 0.458080 0.080597
0.053620 0.458725 0.130428
0.054300 0.459405 0.182994
0.055002 0.460107 0.237253
0.055721 0.460826 0.292760
0.056452 0.461557 0.349259
0.057194 0.462299 0.406587
0.057945 0.463050 0.464626
0.058704 0.463809 0.523291
0.059470 0.464575 0.582513
0.060243 0.465348 0.642240
0.061022 0.466127 0.702428
0.061807 0.466912 0.763040
0.062596 0.467701 0.824044
0.063390 0.468495 0.885415
0.063709 0.468814 0.910025
0.060131 0.523126 0.060131
0.060493 0.523488 0.088115
0.061138 0.524133 0.137947
0.061819 0.524813 0.190512
0.062521 0.525515 0.244772
0.063239 0.526233 0.300278
0.063970 0.526965 0.356778
0.064712 0.527706 0.414105
0.065463 0.528458 0.472145
0.066222 0.529217 0.530809
0.066989 0.529983 0.590032
0.067762 0.530756 0.649759
0.068541 0.531535 0.709946
0.069325 0.532319 0.770558
0.070115 0.533109 0.831562
0.070909 0.533903 0.892933
0.071227 0.534222 0.917543
0.067721 0.589158 0.067721
0.068083 0.589520 0.095705
0.068728 0.590165 0.145537
0.069409 0.590845 0.198103
0.070111 0.591547 0.252362
0.070829 0.592265 0.307868
0.071560 0.592997 0.364368
0.072302 0.593738 0.421695
0.073053 0.594490 0.479735
0.073813 0.595249 0.538399
0.074579 0.596015 0.597622
0.075352 0.596788 0.657349
0.076131 0.597567 0.717536
0.076915 0.598351 0.778148
0.077705 0.599141 0.839153
0.078499 0.599935 0.900524
0.078817 0.600254 0.925133
0.075376 0.655754 0.075376
0.075738 0.656116 0.103360
0.076383 0.656761 0.153192
0.077064 0.657441 0.205757
0.077766 0.658143 0.260017
0.078484 0.658861 0.315523
0.079215 0.659593 0.372023
0.079957 0.660334 0.429350
0.080708 0.661086 0.487390
0.081467 0.661845 0.546054
0.082234 0.662611 0.605277
0.083007 0.663384 0.665004
0.083786 0.664163 0.725191
0.084570 0.664947 0.785803
0.085360 0.665737 0.846808
0.086154 0.666531 0.908178
0.086472 0.666850 0.932788
0.083090 0.722864 0.083090
0.083453 0.723227 0.111074
0.084097 0.723871 0.160906
0.084778 0.724552 0.213472
0.085480 0.725254 0.267731
0.086198 0.725972 0.323237
0.086929 0.726703 0.379737
0.087671 0.727445 0.437064
0.088422 0.728196 0.495104
0.089182 0.728956 0.553768
0.089948 0.729722 0.612991
0.090721 0.730495 0.672718
0.091500 0.731274 0.732906
0.092284 0.732058 0.793517
0.093074 0.732848 0.854522
0.093868 0.733642 0.915893
0.094186 0.733960 0.940502
0.090859 0.790449 0.090859
0.091221 0.790811 0.118843
0.091866 0.791456 0.168675
0.092546 0.792136 0.221240
0.093248 0.792839 0.275500
0.093967 0.793557 0.331006
0.094698 0.794288 0.387505
0.095440 0.795030 0.444833
0.096191 0.795781 0.502872
0.096950 0.796540 0.561537
0.097717 0.797307 0.620760
0.098490 0.798080 0.680487
0.099268 0.798859 0.740674
0.100053 0.799643 0.801286
0.100842 0.800432 0.862290
0.101637 0.801227 0.923661
0.101955 0.801545 0.948271
0.098678 0.858473 0.098678
0.099040 0.858835 0.126662
0.099685 0.859480 0.176494
0.100365 0.860160 0.229059
0.101068 0.860863 0.283319
0.101786 0.861581 0.338825
0.102517 0.862312 0.395325
0.103259 0.863054 0.452652
0.104010 0.863805 0.510691
0.104769 0.864564 0.569356
0.105536 0.865331 0.628579
0.106309 0.866104 0.688306
0.107088 0.866883 0.748493
0.107872 0.867667 0.809105
0.108661 0.868456 0.870109
0.109456 0.869251 0.931480
0.109774 0.869569 0.956090
0.106544 0.926906 0.106544
0.106906 0.927269 0.134528
0.107551 0.927913 0.184360
0.108232 0.928594 0.236925
0.108934 0.929296 0.291185
0.109652 0.930014 0.346691
0.110383 0.930745 0.403191
0.111125 0.931487 0.460518
0.111876 0.932238 0.518558
0.112635 0.932998 0.577222
0.113402 0.933764 0.636445
0.114175 0.934537 0.696172
0.114954 0.935316 0.756359
0.115738 0.936100 0.816971
0.116528 0.936890 0.877975
0.117322 0.937684 0.939346
0.117640 0.938002 0.963956
0.000000 0.000000 0.000000
0.000362 0.000362 0.027984
0.001007 0.001007 0.077815
0.001687 0.001687 0.130381
0.002389 0.002389 0.184641
0.003108 0.003108 0.240147
0.003839 0.003839 0.296646
0.004581 0.004581 0.353974
0.005332 0.005332 0.412013
0.006091 0.006091 0.470678
0.006858 0.006858 0.529900
0.007631 0.007631 0.589628
0.008409 0.008409 0.649815
0.009194 0.009194 0.710427
0.009983 0.009983 0.771431
0.010778 0.010778 0.832802
0.011096 0.011096 0.857412
0.000000 0.000000 0.000000
0.000362 0.000362 0.027984
0.001007 0.001007 0.077815
0.001687 0.001687 0.130381
0.002389 0.002389 0.184641
0.003108 0.003108 0.240147
0.003839 0.003839 0.296646
0.004581 0.004581 0.353974
0.005332 0.005332 0.412013
0.006091 0.006091 0.470678
0.006858 0.006858 0.529900
0.007631 0.007631 0.589628
0.008409 0.008409 0.649815
0.009194 0.009194 0.710427
0.009983 0.009983 0.771431
0.010778 0.010778 0.832802
0.011096 0.011096 0.857412
0.003420 0.029757 0.003420
0.003783 0.030119 0.031404
0.004428 0.030764 0.081236
0.005108 0.031445 0.133802
0.005810 0.032147 0.188061
0.006528 0.032865 0.243567
0.007259 0.033596 0.300067
0.008001 0.034338 0.357394
0.008752 0.035089 0.415434
0.009512 0.035848 0.474098
0.010278 0.036615 0.533321
0.011051 0.037388 0.593048
0.011830 0.038167 0.653236
0.012614 0.038951 0.713847
0.013404 0.039741 0.774852
0.014198 0.040535 0.836223
0.014516 0.040853 0.860832
0.009795 0.085214 0.009795
0.010157 0.085576 0.037779
0.010802 0.086221 0.087611
0.011482 0.086901 0.140176
0.012184 0.087603 0.194436
0.012903 0.088322 0.249942
0.013634 0.089053 0.306441
0.014376 0.089795 0.363769
0.015127 0.090546 0.421808
0.015886 0.091305 0.480473
0.016653 0.092072 0.539696
0.017426 0.092845 0.599423
0.018204 0.093623 0.659610
0.018989 0.094408 0.720222
0.019778 0.095197 0.781226
0.020573 0.095992 0.842597
0.020891 0.096310 0.867207
0.016526 0.143775 0.016526
0.016889 0.144137 0.044510
0.017533 0.144782 0.094342
0.018214 0.145463 0.146908
0.018916 0.146165 0.201167
0.019634 0.146883 0.256673
0.020365 0.147614 0.313173
0.021107 0.148356 0.370500
0.021858 0.149107 0.428540
0.022618 0.149866 0.487204
0.023384 0.150633 0.546427
0.024157 0.151406 0.606154
0.024936 0.152185 0.666341
0.025720 0.152969 0.726953
0.026510 0.153759 0.787958
0.027304 0.154553 0.849329
0.027622 0.154871 0.873938
0.023477 0.204245 0.023477
0.023839 0.204607 0.051461
0.024484 0.205252 0.101293
0.025164 0.205932 0.153858
0.025867 0.206634 0.208118
0.026585 0.207352 0.263624
0.027316 0.208084 0.320124
0.028058 0.208826 0.377451
0.028809 0.209577 0.435490
0.029568 0.210336 0.494155
0.030335 0.211102 0.553378
0.031108 0.211875 0.613105
0.031887 0.212654 0.673292
0.032671 0.213438 0.733904
0.033460 0.214228 0.794908
0.034255 0.215022 0.856279
0.034573 0.215341 0.880889
0.030589 0.266115 0.030589
0.030951 0.266477 0.058573
0.031596 0.267122 0.108404
0.032276 0.267802 0.160970
0.032978 0.268504 0.215229
0.033697 0.269222 0.270736
0.034428 0.269954 0.327235
0.035170 0.270695 0.384563
0.035921 0.271447 0.442602
0.036680 0.272206 0.501267
0.037446 0.272972 0.560489
0.038219 0.273745 0.620216
0.038998 0.274524 0.680404
0.039783 0.275308 0.741015
0.040572 0.276098 0.802020
0.041366 0.276892 0.863391
0.041685 0.277211 0.888001
0.037829 0.329098 0.037829
0.038191 0.329460 0.065812
0.038836 0.330105 0.115644
0.039516 0.330786 0.168210
0.040218 0.331488 0.222469
0.040936 0.332206 0.277976
0.041668 0.332937 0.334475
0.042409 0.333679 0.391803
0.043161 0.334430 0.449842
0.043920 0.335189 0.508506
0.044686 0.335956 0.567729
0.045459 0.336729 0.627456
0.046238 0.337508 0.687644
0.047022 0.338292 0.748255
0.047812 0.339082 0.809260
0.048606 0.339876 0.870631
0.048925 0.340194 0.895240
0.045175 0.393010 0.045175
0.045537 0.393372 0.073159
0.046182 0.394017 0.122990
0.046862 0.394697 0.175556
0.047564 0.395399 0.229816
0.048283 0.396117 0.285322
0.049014 0.396849 0.341821
0.049756 0.397590 0.399149
0.050507 0.398342 0.457188
0.051266 0.399101 0.515853
0.052032 0.399867 0.575075
0.052805 0.400640 0.634802
0.053584 0.401419 0.694990
0.054369 0.402203 0.755602
0.055158 0.402993 0.816606
0.055952 0.403787 0.877977
0.056271 0.404106 0.902587
0.052613 0.457718 0.052613
0.052975 0.458080 0.080597
0.053620 0.458725 0.130428
0.054300 0.459405 0.182994
0.055002 0.460107 0.237253
0.055721 0.460826 0.292760
0.056452 0.461557 0.349259
0.057194 0.462299 0.406587
0.057945 0.463050 0.464626
0.058704 0.463809 0.523291
0.059470 0.464575 0.582513
0.060243 0.465348 0.642240
0.061022 0.466127 0.702428
0.061807 0.466912 0.763040
0.062596 0.467701 0.824044
0.063390 0.468495 0.885415
0.063709 0.468814 0.910025
0.060131 0.523126 0.060131
0.060493 0.523488 0.088115
0.061138 0.524133 0.137947
0.061819 0.524813 0.190512
0.062521 0.525515 0.244772
0.063239 0.526233 0.300278
0.063970 0.526965 0.356778
0.064712 0.527706 0.414105
0.065463 0.528458 0.472145
0.066222 0.529217 0.530809
0.066989 0.529983 0.590032
0.067762 0.530756 0.649759
0.068541 0.531535 0.709946
0.069325 0.532319 0.770558
0.070115 0.533109 0.831562
0.070909 0.533903 0.892933
0.071227 0.534222 0.917543
0.067721 0.589158 0.067721
0.068083 0.589520 0.095705
0.068728 0.590165 0.145537
0.069409 0.590845 0.198103
0.070111 0.591547 0.252362
0.070829 0.592265 0.307868
0.071560 0.592997 0.364368
0.072302 0.593738 0.421695
0.073053 0.594490 0.479735
0.073813 0.595249 0.538399
0.074579 0.596015 0.597622
0.075352 0.596788 0.657349
0.076131 0.597567 0.717536
0.076915 0.598351 0.778148
0.077705 0.599141 0.839153
0.078499 0.599935 0.900524
0.078817 0.600254 0.925133
0.075376 0.655754 0.075376
0.075738 0.656116 0.103360
0.076383 0.656761 0.153192
0.077064 0.657441 0.205757
0.077766 0.658143 0.260017
0.078484 0.658861 0.315523
0.079215 0.659593 0.372023
0.079957 0.660334 0.429350
0.080708 0.661086 0.487390
0.081467 0.661845 0.546054
0.082234 0.662611 0.605277
0.083007 0.663384 0.665004
0.083786 0.664163 0.725191
0.084570 0.664947 0.785803
0.085360 0.665737 0.846808
0.086154 0.666531 0.908178
0.086472 0.666850 0.932788
0.083090 0.722864 0.083090
0.083453 0.723227 0.111074
0.084097 0.723871 0.160906
0.084778 0.724552 0.213472
0.085480 0.725254 0.267731
0.086198 0.725972 0.323237
0.086929 0.726703 0.379737
0.087671 0.727445 0.437064
0.088422 0.728196 0.495104
0.089182 0.728956 0.553768
0.089948 0.729722 0.612991
0.090721 0.730495 0.672718
0.091500 0.731274 0.732906
0.092284 0.732058 0.793517
0.093074 0.732848 0.854522
0.093868 0.733642 0.915893
0.094186 0.733960 0.940502
0.090859 0.790449 0.090859
0.091221 0.790811 0.118843
0.091866 0.791456 0.168675
0.092546 0.792136 0.221240
0.093248 0.792839 0.275500
0.093967 0.793557 0.331006
0.094698 0.794288 0.387505
0.095440 0.795030 0.444833
0.096191 0.795781 0.502872
0.096950 0.796540 0.561537
0.097717 0.797307 0.620760
0.098490 0.798080 0.680487
0.099268 0.798859 0.740674
0.100053 0.799643 0.801286
0.100842 0.800432 0.862290
0.101637 0.801227 0.923661
0.101955 0.801545 0.948271
0.098678 0.858473 0.098678
0.099040 0.858835 0.126662
0.099685 0.859480 0.176494
0.100365 0.860160 0.229059
0.101068 0.860863 0.283319
0.101786 0.861581 0.338825
0.102517 0.862312 0.395325
0.103259 0.863054 0.452652
0.104010 0.863805 0.510691
0.104769 0.864564 0.569356
0.105536 0.865331 0.628579
0.106309 0.866104 0.688306
0.107088 0.866883 0.748493
0.107872 0.867667 0.809105
0.108661 0.868456 0.870109
0.109456 0.869251 0.931480
0.109774 0.869569 0.956090
0.106544 0.926906 0.106544
0.106906 0.927269 0.134528
0.107551 0.927913 0.184360
0.108232 0.928594 0.236925
0.108934 0.929296 0.291185
0.109652 0.930014 0.346691
0.110383 0.930745 0.403191
0.111125 0.931487 0.460518
0.111876 0.932238 0.518558
0.112635 0.932998 0.577222
0.113402 0.933764 0.636445
0.114175 0.934537 0.696172
0.114954 0.935316 0.756359
0.115738 0.936100 0.816971
0.116528 0.936890 0.877975
0.117322 0.937684 0.939346
0.117640 0.938002 0.963956
0.026024 0.000967 0.000967
0.026386 0.001329 0.028951
0.027031 0.001974 0.078783
0.027711 0.002655 0.131349
0.028413 0.003357 0.185608
0.029132 0.004075 0.241114
0.029863 0.004806 0.297614
0.030605 0.005548 0.354941
0.031356 0.006299 0.412981
0.032115 0.007059 0.471645
0.032881 0.007825 0.530868
0.033654 0.008598 0.590595
0.034433 0.009377 0.650782
0.035218 0.010161 0.711394
0.036007 0.010951 0.772399
0.036801 0.011745 0.833770
0.037120 0.012063 0.858379
0.026024 0.000967 0.000967
