skills/editops-orchestrator/assets/grade/luts/night_blue_v13.cube
TITLE "night_blue_v13"
LUT_3D_SIZE 9
DOMAIN_MIN 0.0 0.0 0.0
DOMAIN_MAX 1.0 1.0 1.0
0.000000 0.000000 0.000000
0.000965 0.000965 0.080954
0.002253 0.002253 0.189059
0.003598 0.003598 0.301882
0.004979 0.004979 0.417764
0.006388 0.006388 0.535939
0.007818 0.007818 0.655956
0.009267 0.009267 0.777517
0.010336 0.010336 0.867178
0.003987 0.037350 0.003987
0.004952 0.038314 0.084941
0.006240 0.039603 0.193045
0.007585 0.040948 0.305868
0.008966 0.042329 0.421751
0.010375 0.043737 0.539926
0.011805 0.045168 0.659943
0.013254 0.046617 0.781504
0.014323 0.047686 0.871165
0.016320 0.152902 0.016320
0.017285 0.153867 0.097275
0.018574 0.155155 0.205379
0.019919 0.156500 0.318202
0.021300 0.157881 0.434085
0.022708 0.159290 0.552260
0.024139 0.160720 0.672277
0.025588 0.162169 0.793838
0.026656 0.163238 0.883499
0.029420 0.275629 0.029420
0.030385 0.276594 0.110374
0.031674 0.277883 0.218479
0.033018 0.279228 0.331302
0.034400 0.280609 0.447185
0.035808 0.282017 0.565360
0.037239 0.283448 0.685376
0.038688 0.284897 0.806938
0.039756 0.285965 0.896598
0.042950 0.402386 0.042950
0.043915 0.403351 0.123904
0.045203 0.404639 0.232009
0.046548 0.405984 0.344832
0.047929 0.407365 0.460714
0.049338 0.408774 0.578889
0.050768 0.410204 0.698906
0.052217 0.411653 0.820467
0.053286 0.412722 0.910128
0.056786 0.532007 0.056786
0.057750 0.532972 0.137740
0.059039 0.534261 0.245844
0.060384 0.535605 0.358667
0.061765 0.536987 0.474550
0.063174 0.538395 0.592725
0.064604 0.539826 0.712742
0.066053 0.541274 0.834303
0.067122 0.542343 0.923964
0.070860 0.663869 0.070860
0.071825 0.664834 0.151814
0.073114 0.666122 0.259919
0.074458 0.667467 0.372742
0.075840 0.668848 0.488625
0.077248 0.670257 0.606800
0.078679 0.671687 0.726816
0.080128 0.673136 0.848378
0.081196 0.674205 0.938038
0.085132 0.797576 0.085132
0.086097 0.798541 0.166086
0.087385 0.799830 0.274191
0.088730 0.801174 0.387014
0.090111 0.802556 0.502896
0.091520 0.803964 0.621071
0.092950 0.805395 0.741088
0.094399 0.806843 0.862649
0.095468 0.807912 0.952310
0.099572 0.932857 0.099572
0.100537 0.933822 0.180526
0.101825 0.935110 0.288630
0.103170 0.936455 0.401453
0.104551 0.937836 0.517336
0.105960 0.939245 0.635511
0.107390 0.940675 0.755528
0.108839 0.942124 0.877089
0.109908 0.943193 0.966750
0.000000 0.000000 0.000000
0.000965 0.000965 0.080954
0.002253 0.002253 0.189059
0.003598 0.003598 0.301882
0.004979 0.004979 0.417764
0.006388 0.006388 0.535939
0.007818 0.007818 0.655956
0.009267 0.009267 0.777517
0.010336 0.010336 0.867178
0.003987 0.037350 0.003987
0.004952 0.038314 0.084941
0.006240 0.039603 0.193045
0.007585 0.040948 0.305868
0.008966 0.042329 0.421751
0.010375 0.043737 0.539926
0.011805 0.045168 0.659943
0.013254 0.046617 0.781504
0.014323 0.047686 0.871165
0.016320 0.152902 0.016320
0.017285 0.153867 0.097275
0.018574 0.155155 0.205379
0.019919 0.156500 0.318202
0.021300 0.157881 0.434085
0.022708 0.159290 0.552260
0.024139 0.160720 0.672277
0.025588 0.162169 0.793838
0.026656 0.163238 0.883499
0.029420 0.275629 0.029420
0.030385 0.276594 0.110374
0.031674 0.277883 0.218479
0.033018 0.279228 0.331302
0.034400 0.280609 0.447185
0.035808 0.282017 0.565360
0.037239 0.283448 0.685376
0.038688 0.284897 0.806938
0.039756 0.285965 0.896598
0.042950 0.402386 0.042950
0.043915 0.403351 0.123904
0.045203 0.404639 0.232009
0.046548 0.405984 0.344832
0.047929 0.407365 0.460714
0.049338 0.408774 0.578889
0.050768 0.410204 0.698906
0.052217 0.411653 0.820467
0.053286 0.412722 0.910128
0.056786 0.532007 0.056786
0.057750 0.532972 0.137740
0.059039 0.534261 0.245844
0.060384 0.535605 0.358667
0.061765 0.536987 0.474550
0.063174 0.538395 0.592725
0.064604 0.539826 0.712742
0.066053 0.541274 0.834303
0.067122 0.542343 0.923964
0.070860 0.663869 0.070860
0.071825 0.664834 0.151814
0.073114 0.666122 0.259919
0.074458 0.667467 0.372742
0.075840 0.668848 0.488625
0.077248 0.670257 0.606800
0.078679 0.671687 0.726816
0.080128 0.673136 0.848378
0.081196 0.674205 0.938038
0.085132 0.797576 0.085132
0.086097 0.798541 0.166086
0.087385 0.799830 0.274191
0.088730 0.801174 0.387014
0.090111 0.802556 0.502896
0.091520 0.803964 0.621071
0.092950 0.805395 0.741088
0.094399 0.806843 0.862649
0.095468 0.807912 0.952310
0.099572 0.932857 0.099572
0.100537 0.933822 0.180526
0.101825 0.935110 0.288630
0.103170 0.936455 0.401453
0.104551 0.937836 0.517336
0.105960 0.939245 0.635511
0.107390 0.940675 0.755528
0.108839 0.942124 0.877089
0.109908 0.943193 0.966750
0.090739 0.003113 0.003113
0.091704 0.004077 0.084067
0.092993 0.005366 0.192171
0.094338 0.006711 0.304994
0.095719 0.008092 0.420877
0.097127 0.009500 0.539052
0.098558 0.010931 0.659069
0.100007 0.012380 0.780630
0.101075 0.013449 0.870291
0.094726 0.040462 0.007099
0.095691 0.041427 0.088053
0.096979 0.042716 0.196158
0.098324 0.044060 0.308981
0.099705 0.045441 0.424864
0.101114 0.046850 0.543038
0.102544 0.048281 0.663055
0.103993 0.049729 0.784617
0.105062 0.050798 0.874277
0.107060 0.156014 0.019433
0.108025 0.156979 0.100387
0.109313 0.158268 0.208492
0.110658 0.159613 0.321315
0.112039 0.160994 0.437198
0.113448 0.162402 0.555372
0.114878 0.163833 0.675389
0.116327 0.165282 0.796950
0.117396 0.166350 0.886611
0.120160 0.278742 0.032533
0.121125 0.279707 0.113487
0.122413 0.280995 0.221591
0.123758 0.282340 0.334414
0.125139 0.283721 0.450297
0.126548 0.285130 0.568472
0.127978 0.286560 0.688489
0.129427 0.288009 0.810050
0.130496 0.289078 0.899711
0.133689 0.405498 0.046063
0.134654 0.406463 0.127017
0.135943 0.407752 0.235121
0.137288 0.409096 0.347944
0.138669 0.410478 0.463827
0.140077 0.411886 0.582002
0.141508 0.413317 0.702019
0.142957 0.414765 0.823580
0.144025 0.415834 0.913241
0.147525 0.535120 0.059898
0.148490 0.536085 0.140852
0.149778 0.537373 0.248957
0.151123 0.538718 0.361780
0.152504 0.540099 0.477663
0.153913 0.541508 0.595837
0.155343 0.542938 0.715854
0.156792 0.544387 0.837415
0.157861 0.545456 0.927076
0.161600 0.666981 0.073973
0.162565 0.667946 0.154927
0.163853 0.669235 0.263032
0.165198 0.670579 0.375854
0.166579 0.671961 0.491737
0.167988 0.673369 0.609912
0.169418 0.674800 0.729929
0.170867 0.676249 0.851490
0.171936 0.677317 0.941151
0.175871 0.800689 0.088245
0.176836 0.801654 0.169199
0.178125 0.802942 0.277303
0.179470 0.804287 0.390126
0.180851 0.805668 0.506009
0.182259 0.807077 0.624184
0.183690 0.808507 0.744201
0.185139 0.809956 0.865762
0.186207 0.811025 0.955423
0.190311 0.935970 0.102684
0.191276 0.936935 0.183638
0.192564 0.938223 0.291743
0.193909 0.939568 0.404566
0.195290 0.940949 0.520449
0.196699 0.942358 0.638624
0.198129 0.943788 0.758640
0.199578 0.945237 0.880202
0.200647 0.946306 0.969862
0.201812 0.006923 0.006923
0.202777 0.007887 0.087877
0.204066 0.009176 0.195981
0.205411 0.010521 0.308804
0.206792 0.011902 0.424687
0.208200 0.013310 0.542862
0.209631 0.014741 0.662879
0.211080 0.016190 0.784440
0.212148 0.017259 0.874101
0.205799 0.044272 0.010909
0.206764 0.045237 0.091863
0.208052 0.046526 0.199968
0.209397 0.047870 0.312791
0.210778 0.049252 0.428674
0.212187 0.050660 0.546849
0.213617 0.052091 0.666865
0.215066 0.053539 0.788427
0.216135 0.054608 0.878087
0.218133 0.159824 0.023243
0.219098 0.160789 0.104197
0.220386 0.162078 0.212302
0.221731 0.163423 0.325125
0.223112 0.164804 0.441008
0.224521 0.166212 0.559182
0.225951 0.167643 0.679199
0.227400 0.169092 0.800760
0.228469 0.170160 0.890421
0.231233 0.282552 0.036343
0.232198 0.283517 0.117297
0.233486 0.284805 0.225401
0.234831 0.286150 0.338224
0.236212 0.287531 0.454107
0.237621 0.288940 0.572282
0.239051 0.290370 0.692299
0.240500 0.291819 0.813860
0.241569 0.292888 0.903521
0.244762 0.409308 0.049873
0.245727 0.410273 0.130827
0.247016 0.411562 0.238931
0.248361 0.412906 0.351754
0.249742 0.414288 0.467637
0.251150 0.415696 0.585812
0.252581 0.417127 0.705829
0.254030 0.418576 0.827390
0.255098 0.419644 0.917051
0.258598 0.538930 0.063708
0.259563 0.539895 0.144662
0.260851 0.541183 0.252767
0.262196 0.542528 0.365590
0.263577 0.543909 0.481473
0.264986 0.545318 0.599647
0.266416 0.546748 0.719664
0.267865 0.548197 0.841225
0.268934 0.549266 0.930886
0.272673 0.670791 0.077783
0.273638 0.671756 0.158737
0.274926 0.673045 0.266842
0.276271 0.674389 0.379665
0.277652 0.675771 0.495547
0.279061 0.677179 0.613722
0.280491 0.678610 0.733739
0.281940 0.680059 0.855300
0.283009 0.681127 0.944961
0.286944 0.804499 0.092055
0.287909 0.805464 0.173009
0.289198 0.806752 0.281113
0.290543 0.808097 0.393936
0.291924 0.809478 0.509819
0.293332 0.810887 0.627994
0.294763 0.812317 0.748011
0.296212 0.813766 0.869572
0.297280 0.814835 0.959233
0.301384 0.939780 0.106494
0.302349 0.940745 0.187448
0.303637 0.942033 0.295553
0.304982 0.943378 0.408376
0.306363 0.944759 0.524259
0.307772 0.946168 0.642434
0.309202 0.947598 0.762450
0.310651 0.949047 0.884012
0.311720 0.950116 0.973672
0.317521 0.010892 0.010892
0.318486 0.011856 0.091846
0.319774 0.013145 0.199950
0.321119 0.014490 0.312773
0.322500 0.015871 0.428656
0.323909 0.017280 0.546831
0.325339 0.018710 0.666848
0.326788 0.020159 0.788409
0.327857 0.021228 0.878070
0.321508 0.048241 0.014878
0.322473 0.049206 0.095832
0.323761 0.050495 0.203937
0.325106 0.051839 0.316760
0.326487 0.053221 0.432643
0.327896 0.054629 0.550818
0.329326 0.056060 0.670834
0.330775 0.057508 0.792396
0.331844 0.058577 0.882056
0.333842 0.163793 0.027212
0.334806 0.164758 0.108166
0.336095 0.166047 0.216271
0.337440 0.167392 0.329094
0.338821 0.168773 0.444977
0.340229 0.170181 0.563151
0.341660 0.171612 0.683168
0.343109 0.173061 0.804729
0.344178 0.174129 0.894390
0.346941 0.286521 0.040312
0.347906 0.287486 0.121266
0.349195 0.288774 0.229371
0.350539 0.290119 0.342194
0.351921 0.291500 0.458076
0.353329 0.292909 0.576251
0.354760 0.294339 0.696268
0.356209 0.295788 0.817829
0.357277 0.296857 0.907490
0.360471 0.413277 0.053842
0.361436 0.414242 0.134796
0.362724 0.415531 0.242900
0.364069 0.416875 0.355723
0.365450 0.418257 0.471606
0.366859 0.419665 0.589781
0.368289 0.421096 0.709798
0.369738 0.422545 0.831359
0.370807 0.423613 0.921020
0.374307 0.542899 0.067677
0.375272 0.543864 0.148631
0.376560 0.545152 0.256736
0.377905 0.546497 0.369559
0.379286 0.547878 0.485442
0.380695 0.549287 0.603617
0.382125 0.550717 0.723633
0.383574 0.552166 0.845195
0.384643 0.553235 0.934855
0.388381 0.674760 0.081752
0.389346 0.675725 0.162706
0.390635 0.677014 0.270811
0.391979 0.678358 0.383634
0.393361 0.679740 0.499516
0.394769 0.681148 0.617691
0.396200 0.682579 0.737708
0.397649 0.684028 0.859269
0.398717 0.685096 0.948930
0.402653 0.808468 0.096024
0.403618 0.809433 0.176978
0.404906 0.810721 0.285082
0.406251 0.812066 0.397905
0.407632 0.813447 0.513788
0.409041 0.814856 0.631963
0.410471 0.816286 0.751980
0.411920 0.817735 0.873541
0.412989 0.818804 0.963202
0.417093 0.943749 0.110463
0.418058 0.944714 0.191417
0.419346 0.946002 0.299522
0.420691 0.947347 0.412345
0.422072 0.948728 0.528228
0.423481 0.950137 0.646403
0.424911 0.951567 0.766419
0.426360 0.953016 0.887981
0.427429 0.954085 0.977641
0.436284 0.014965 0.014965
0.437249 0.015930 0.095919
0.438537 0.017219 0.204024
0.439882 0.018564 0.316847
0.441263 0.019945 0.432730
0.442672 0.021353 0.550905
0.444102 0.022784 0.670922
0.445551 0.024233 0.792483
0.446620 0.025301 0.882143
0.440270 0.052315 0.018952
0.441235 0.053280 0.099906
0.442524 0.054568 0.208011
0.443869 0.055913 0.320834
0.445250 0.057294 0.436717
0.446658 0.058703 0.554891
0.448089 0.060133 0.674908
0.449538 0.061582 0.796469
0.450606 0.062651 0.886130
0.452604 0.167867 0.031286
0.453569 0.168832 0.112240
0.454858 0.170121 0.220345
0.456202 0.171465 0.333168
0.457584 0.172847 0.449050
0.458992 0.174255 0.567225
0.460423 0.175686 0.687242
0.461872 0.177135 0.808803
0.462940 0.178203 0.898464
0.465704 0.290595 0.044386
0.466669 0.291560 0.125340
0.467957 0.292848 0.233444
0.469302 0.294193 0.346267
0.470683 0.295574 0.462150
0.472092 0.296983 0.580325
0.473522 0.298413 0.700342
0.474971 0.299862 0.821903
0.476040 0.300931 0.911564
0.479234 0.417351 0.057915
0.480199 0.418316 0.138869
0.481487 0.419604 0.246974
0.482832 0.420949 0.359797
0.484213 0.422330 0.475680
0.485622 0.423739 0.593855
0.487052 0.425169 0.713872
0.488501 0.426618 0.835433
0.489570 0.427687 0.925093
0.493069 0.546973 0.071751
0.494034 0.547937 0.152705
0.495323 0.549226 0.260810
0.496667 0.550571 0.373633
0.498049 0.551952 0.489515
0.499457 0.553360 0.607690
0.500888 0.554791 0.727707
0.502337 0.556240 0.849268
0.503405 0.557309 0.938929
0.507144 0.678834 0.085826
0.508109 0.679799 0.166780
0.509397 0.681088 0.274884
0.510742 0.682432 0.387707
0.512123 0.683814 0.503590
0.513532 0.685222 0.621765
0.514962 0.686653 0.741782
0.516411 0.688101 0.863343
0.517480 0.689170 0.953004
0.521416 0.812542 0.100097
0.522381 0.813506 0.181051
0.523669 0.814795 0.289156
0.525014 0.816140 0.401979
0.526395 0.817521 0.517862
0.527804 0.818929 0.636037
0.529234 0.820360 0.756054
0.530683 0.821809 0.877615
0.531752 0.822878 0.967275
0.535855 0.947822 0.114537
0.536820 0.948787 0.195491
0.538109 0.950076 0.303596
0.539454 0.951421 0.416419
0.540835 0.952802 0.532302
0.542243 0.954210 0.650476
0.543674 0.955641 0.770493
0.545123 0.957090 0.892054
0.546191 0.958158 0.981715
0.557350 0.019118 0.019118
0.558315 0.020083 0.100072
0.559603 0.021372 0.208177
0.560948 0.022716 0.321000
0.562329 0.024098 0.436883
0.563738 0.025506 0.555058
0.565168 0.026937 0.675074
0.566617 0.028386 0.796636
0.567686 0.029454 0.886296
0.561336 0.056468 0.023105
0.562301 0.057433 0.104059
0.563590 0.058721 0.212164
0.564934 0.060066 0.324986
0.566316 0.061447 0.440869
0.567724 0.062856 0.559044
0.569155 0.064286 0.679061
0.570604 0.065735 0.800622
0.571672 0.066804 0.890283
0.573670 0.172020 0.035439
0.574635 0.172985 0.116393
0.575924 0.174273 0.224497
0.577268 0.175618 0.337320
0.578650 0.176999 0.453203
0.580058 0.178408 0.571378
0.581489 0.179838 0.691395
0.582937 0.181287 0.812956
0.584006 0.182356 0.902617
0.586770 0.294748 0.048538
0.587735 0.295713 0.129493
0.589023 0.297001 0.237597
0.590368 0.298346 0.350420
0.591749 0.299727 0.466303
0.593158 0.301136 0.584478
0.594588 0.302566 0.704495
0.596037 0.304015 0.826056
0.597106 0.305084 0.915717
0.600300 0.421504 0.062068
0.601265 0.422469 0.143022
0.602553 0.423757 0.251127
0.603898 0.425102 0.363950
0.605279 0.426483 0.479833
0.606688 0.427892 0.598008
0.608118 0.429322 0.718024
0.609567 0.430771 0.839586
0.610636 0.431840 0.929246
0.614135 0.551125 0.075904
0.615100 0.552090 0.156858
0.616389 0.553379 0.264962
0.617733 0.554724 0.377785
0.619115 0.556105 0.493668
0.620523 0.557513 0.611843
0.621954 0.558944 0.731860
0.623403 0.560393 0.853421
0.624471 0.561461 0.943082
0.628210 0.682987 0.089978
0.629175 0.683952 0.170933
0.630463 0.685240 0.279037
0.631808 0.686585 0.391860
0.633189 0.687966 0.507743
0.634598 0.689375 0.625918
0.636028 0.690805 0.745935
0.637477 0.692254 0.867496
0.638546 0.693323 0.957157
0.642482 0.816694 0.104250
0.643447 0.817659 0.185204
0.644735 0.818948 0.293309
0.646080 0.820293 0.406132
0.647461 0.821674 0.522015
0.648870 0.823082 0.640190
0.650300 0.824513 0.760206
0.651749 0.825962 0.881768
0.652818 0.827030 0.971428
0.656921 0.951975 0.118690
0.657886 0.952940 0.199644
0.659175 0.954229 0.307749
0.660519 0.955573 0.420572
0.661901 0.956955 0.536454
0.663309 0.958363 0.654629
0.664740 0.959794 0.774646
0.666189 0.961243 0.896207
0.667257 0.962311 0.985868
0.680274 0.023335 0.023335
0.681239 0.024300 0.104289
0.682527 0.025588 0.212393
0.683872 0.026933 0.325216
0.685253 0.028314 0.441099
0.686662 0.029723 0.559274
0.688092 0.031153 0.679291
0.689541 0.032602 0.800852
0.690610 0.033671 0.890513
0.684260 0.060684 0.027321
0.685225 0.061649 0.108275
0.686514 0.062938 0.216380
0.687858 0.064282 0.329203
0.689240 0.065664 0.445086
0.690648 0.067072 0.563261
0.692079 0.068503 0.683277
0.693528 0.069952 0.804839
0.694596 0.071020 0.894499
0.696594 0.176237 0.039655
0.697559 0.177201 0.120609
0.698848 0.178490 0.228714
0.700192 0.179835 0.341537
0.701574 0.181216 0.457420
0.702982 0.182624 0.575595
0.704413 0.184055 0.695611
0.705861 0.185504 0.817173
0.706930 0.186573 0.906833
0.709694 0.298964 0.052755
0.710659 0.299929 0.133709
0.711947 0.301218 0.241814
0.713292 0.302562 0.354637
0.714673 0.303944 0.470519
0.716082 0.305352 0.588694
0.717512 0.306783 0.708711
0.718961 0.308232 0.830272
0.720030 0.309300 0.919933
0.723224 0.425720 0.066285
0.724189 0.426685 0.147239
0.725477 0.427974 0.255343
0.726822 0.429319 0.368166
0.728203 0.430700 0.484049
0.729612 0.432108 0.602224
0.731042 0.433539 0.722241
0.732491 0.434988 0.843802
0.733560 0.436056 0.933463
0.737059 0.555342 0.080120
0.738024 0.556307 0.161074
0.739313 0.557595 0.269179
0.740657 0.558940 0.382002
0.742039 0.560321 0.497885
0.743447 0.561730 0.616060
0.744878 0.563160 0.736076
0.746327 0.564609 0.857638
0.747395 0.565678 0.947298
0.751134 0.687203 0.094195
0.752099 0.688168 0.175149
0.753387 0.689457 0.283254
0.754732 0.690802 0.396077
0.756113 0.692183 0.511960
0.757522 0.693591 0.630134
0.758952 0.695022 0.750151
0.760401 0.696471 0.871712
0.761470 0.697539 0.961373
0.765406 0.820911 0.108467
0.766371 0.821876 0.189421
0.767659 0.823164 0.297525
0.769004 0.824509 0.410348
0.770385 0.825890 0.526231
0.771794 0.827299 0.644406
0.773224 0.828729 0.764423
0.774673 0.830178 0.885984
0.775742 0.831247 0.975645
0.779845 0.956192 0.122906
0.780810 0.957157 0.203861
0.782099 0.958445 0.311965
0.783444 0.959790 0.424788
0.784825 0.961171 0.540671
0.786233 0.962580 0.658846
0.787664 0.964010 0.778863
0.789113 0.965459 0.900424
0.790181 0.966528 0.990085
0.804759 0.027605 0.027605
0.805724 0.028570 0.108559
0.807013 0.029858 0.216664
0.808358 0.031203 0.329487
0.809739 0.032584 0.445369
0.811147 0.033993 0.563544
0.812578 0.035423 0.683561
0.814027 0.036872 0.805122
0.815095 0.037941 0.894783
0.808746 0.064954 0.031591
0.809711 0.065919 0.112546
0.811000 0.067208 0.220650
0.812344 0.068553 0.333473
0.813725 0.069934 0.449356
0.815134 0.071342 0.567531
0.816565 0.072773 0.687548
0.818013 0.074222 0.809109
0.819082 0.075290 0.898770
0.821080 0.180507 0.043925
0.822045 0.181472 0.124879
0.823333 0.182760 0.232984
0.824678 0.184105 0.345807
0.826059 0.185486 0.461690
0.827468 0.186895 0.579865
0.828898 0.188325 0.699881
0.830347 0.189774 0.821443
0.831416 0.190843 0.911103
0.834180 0.303234 0.057025
0.835145 0.304199 0.137979
0.836433 0.305488 0.246084
0.837778 0.306832 0.358907
0.839159 0.308214 0.474790
0.840568 0.309622 0.592964
0.841998 0.311053 0.712981
0.843447 0.312502 0.834542
0.844516 0.313570 0.924203
0.847709 0.429990 0.070555
0.848674 0.430955 0.151509
0.849963 0.432244 0.259614
0.851308 0.433589 0.372437
0.852689 0.434970 0.488319
0.854097 0.436378 0.606494
0.855528 0.437809 0.726511
0.856977 0.439258 0.848072
0.858045 0.440326 0.937733
0.861545 0.559612 0.084390
0.862510 0.560577 0.165345
0.863798 0.561865 0.273449
0.865143 0.563210 0.386272
0.866524 0.564591 0.502155
0.867933 0.566000 0.620330
0.869363 0.567430 0.740347
0.870812 0.568879 0.861908
0.871881 0.569948 0.951569
0.875620 0.691474 0.098465
0.876585 0.692438 0.179419
0.877873 0.693727 0.287524
0.879218 0.695072 0.400347
0.880599 0.696453 0.516230
0.882008 0.697861 0.634404
0.883438 0.699292 0.754421
0.884887 0.700741 0.875982
0.885956 0.701810 0.965643
0.889891 0.825181 0.112737
0.890856 0.826146 0.193691
0.892145 0.827434 0.301796
0.893490 0.828779 0.414619
0.894871 0.830160 0.530501
0.896279 0.831569 0.648676
0.897710 0.832999 0.768693
0.899159 0.834448 0.890254
0.900227 0.835517 0.979915
0.904331 0.960462 0.127177
0.905296 0.961427 0.208131
0.906585 0.962715 0.316235
0.907929 0.964060 0.429058
0.909311 0.965441 0.544941
0.910719 0.966850 0.663116
0.912150 0.968280 0.783133
0.913598 0.969729 0.904694
0.914667 0.970798 0.994355
