skills/editops-orchestrator/assets/grade/luts/night_blue_v11.cube
TITLE "night_blue_v11"
LUT_3D_SIZE 5
DOMAIN_MIN 0.0 0.0 0.0
DOMAIN_MAX 1.0 1.0 1.0
0.000000 0.000000 0.000000
0.002114 0.002114 0.193564
0.004625 0.004625 0.423566
0.007230 0.007230 0.662109
0.009576 0.009576 0.876944
0.015985 0.162145 0.015985
0.018098 0.164259 0.209548
0.020610 0.166771 0.439551
0.023215 0.169375 0.678094
0.025561 0.171721 0.892929
0.040592 0.411758 0.040592
0.042705 0.413871 0.234156
0.045217 0.416383 0.464158
0.047822 0.418988 0.702701
0.050168 0.421334 0.917536
0.066239 0.671923 0.066239
0.068353 0.674037 0.259803
0.070865 0.676549 0.489805
0.073470 0.679153 0.728349
0.075815 0.681499 0.943184
0.092541 0.938721 0.092541
0.094655 0.940835 0.286105
0.097166 0.943346 0.516107
0.099771 0.945951 0.754650
0.102117 0.948297 0.969485
0.105054 0.003308 0.003308
0.107168 0.005421 0.196871
0.109679 0.007933 0.426874
0.112284 0.010538 0.665417
0.114630 0.012884 0.880252
0.121039 0.165453 0.019292
0.123152 0.167567 0.212856
0.125664 0.170078 0.442858
0.128269 0.172683 0.681401
0.130615 0.175029 0.896237
0.145646 0.415065 0.043900
0.147760 0.417179 0.237463
0.150271 0.419690 0.467466
0.152876 0.422295 0.706009
0.155222 0.424641 0.920844
0.171294 0.675231 0.069547
0.173407 0.677345 0.263111
0.175919 0.679856 0.493113
0.178524 0.682461 0.731656
0.180870 0.684807 0.946492
0.197595 0.942029 0.095849
0.199709 0.944143 0.289412
0.202220 0.946654 0.519415
0.204825 0.949259 0.757958
0.207171 0.951605 0.972793
0.334299 0.010526 0.010526
0.336413 0.012639 0.204089
0.338925 0.015151 0.434092
0.341530 0.017756 0.672635
0.343875 0.020102 0.887470
0.350284 0.172671 0.026510
0.352398 0.174785 0.220074
0.354909 0.177296 0.450076
0.357514 0.179901 0.688619
0.359860 0.182247 0.903455
0.374891 0.422283 0.051117
0.377005 0.424397 0.244681
0.379517 0.426908 0.474683
0.382121 0.429513 0.713227
0.384467 0.431859 0.928062
0.400539 0.682449 0.076765
0.402653 0.684563 0.270329
0.405164 0.687074 0.500331
0.407769 0.689679 0.738874
0.410115 0.692025 0.953710
0.426840 0.949247 0.103067
0.428954 0.951360 0.296630
0.431466 0.953872 0.526633
0.434070 0.956477 0.765176
0.436416 0.958823 0.980011
0.574837 0.018099 0.018099
0.576951 0.020213 0.211663
0.579462 0.022724 0.441665
0.582067 0.025329 0.680208
0.584413 0.027675 0.895044
0.590822 0.180244 0.034084
0.592935 0.182358 0.227647
0.595447 0.184870 0.457650
0.598052 0.187475 0.696193
0.600398 0.189820 0.911028
0.615429 0.429857 0.058691
0.617543 0.431970 0.252255
0.620054 0.434482 0.482257
0.622659 0.437087 0.720800
0.625005 0.439433 0.935635
0.641077 0.690022 0.084339
0.643190 0.692136 0.277902
0.645702 0.694648 0.507905
0.648307 0.697252 0.746448
0.650653 0.699598 0.961283
0.667378 0.956820 0.110640
0.669492 0.958934 0.304204
0.672003 0.961446 0.534206
0.674608 0.964050 0.772749
0.676954 0.966396 0.987584
0.822045 0.025883 0.025883
0.824159 0.027996 0.219446
0.826670 0.030508 0.449449
0.829275 0.033113 0.687992
0.831621 0.035459 0.902827
0.838030 0.188028 0.041867
0.840143 0.190142 0.235431
0.842655 0.192653 0.465433
0.845260 0.195258 0.703976
0.847606 0.197604 0.918812
0.862637 0.437640 0.066474
0.864751 0.439754 0.260038
0.867262 0.442265 0.490040
0.869867 0.444870 0.728584
0.872213 0.447216 0.943419
0.888285 0.697806 0.092122
0.890398 0.699920 0.285686
0.892910 0.702431 0.515688
0.895515 0.705036 0.754231
0.897861 0.707382 0.969067
0.914586 0.964604 0.118424
0.916700 0.966717 0.311987
0.919211 0.969229 0.541990
0.921816 0.971834 0.780533
0.924162 0.974180 0.995368
