skills/editops-orchestrator/assets/grade/luts/night_blue_v08.cube
TITLE "night_blue_v08"
LUT_3D_SIZE 5
DOMAIN_MIN 0.0 0.0 0.0
DOMAIN_MAX 1.0 1.0 1.0
0.000000 0.000000 0.000000
0.001897 0.001897 0.200487
0.004091 0.004091 0.432365
0.006352 0.006352 0.671363
0.008436 0.008436 0.891594
0.015232 0.176214 0.015232
0.017129 0.178111 0.215720
0.019323 0.180305 0.447597
0.021585 0.182566 0.686596
0.023668 0.184650 0.906826
0.036807 0.425801 0.036807
0.038704 0.427698 0.237294
0.040898 0.429892 0.469172
0.043159 0.432153 0.708171
0.045243 0.434237 0.928401
0.059117 0.683889 0.059117
0.061014 0.685786 0.259604
0.063208 0.687980 0.491481
0.065469 0.690241 0.730480
0.067553 0.692325 0.950711
0.081891 0.947355 0.081891
0.083788 0.949252 0.282379
0.085982 0.951446 0.514256
0.088244 0.953708 0.753255
0.090327 0.955791 0.973485
0.127318 0.003483 0.003483
0.129215 0.005380 0.203970
0.131409 0.007574 0.435848
0.133670 0.009835 0.674847
0.135754 0.011919 0.895077
0.142550 0.179697 0.018715
0.144447 0.181594 0.219203
0.146641 0.183788 0.451080
0.148903 0.186049 0.690079
0.150986 0.188133 0.910309
0.164125 0.429284 0.040290
0.166022 0.431181 0.240778
0.168216 0.433375 0.472655
0.170477 0.435637 0.711654
0.172561 0.437720 0.931884
0.186435 0.687372 0.062600
0.188332 0.689269 0.263087
0.190526 0.691463 0.494965
0.192787 0.693725 0.733963
0.194871 0.695808 0.954194
0.209209 0.950838 0.085374
0.211106 0.952735 0.285862
0.213300 0.954929 0.517739
0.215562 0.957191 0.756738
0.217645 0.959274 0.976968
0.359765 0.009842 0.009842
0.361662 0.011739 0.210330
0.363856 0.013933 0.442207
0.366118 0.016195 0.681206
0.368201 0.018278 0.901436
0.374998 0.186056 0.025075
0.376895 0.187953 0.225562
0.379089 0.190147 0.457439
0.381350 0.192408 0.696438
0.383434 0.194492 0.916668
0.396573 0.435643 0.046649
0.398470 0.437540 0.247137
0.400663 0.439734 0.479014
0.402925 0.441996 0.718013
0.405009 0.444079 0.938243
0.418882 0.693732 0.068959
0.420779 0.695628 0.269446
0.422973 0.697822 0.501324
0.425234 0.700084 0.740322
0.427318 0.702168 0.960553
0.441657 0.957198 0.091734
0.443554 0.959095 0.292221
0.445748 0.961289 0.524098
0.448009 0.963550 0.763097
0.450093 0.965634 0.983327
0.601115 0.016445 0.016445
0.603012 0.018342 0.216932
0.605206 0.020536 0.448810
0.607468 0.022797 0.687808
0.609551 0.024881 0.908039
0.616348 0.192659 0.031677
0.618245 0.194556 0.232165
0.620439 0.196750 0.464042
0.622700 0.199011 0.703041
0.624784 0.201095 0.923271
0.637922 0.442246 0.053252
0.639819 0.444143 0.253739
0.642013 0.446337 0.485617
0.644275 0.448598 0.724616
0.646358 0.450682 0.944846
0.660232 0.700334 0.075562
0.662129 0.702231 0.276049
0.664323 0.704425 0.507926
0.666584 0.706686 0.746925
0.668668 0.708770 0.967156
0.683007 0.963800 0.098336
0.684904 0.965697 0.298824
0.687098 0.967891 0.530701
0.689359 0.970153 0.769700
0.691443 0.972236 0.989930
0.847841 0.023195 0.023195
0.849738 0.025092 0.223682
0.851932 0.027286 0.455560
0.854193 0.029547 0.694558
0.856277 0.031631 0.914789
0.863073 0.199409 0.038427
0.864970 0.201306 0.238914
0.867164 0.203499 0.470792
0.869426 0.205761 0.709791
0.871509 0.207845 0.930021
0.884648 0.448996 0.060002
0.886545 0.450893 0.260489
0.888739 0.453087 0.492367
0.891001 0.455348 0.731365
0.893084 0.457432 0.951596
0.906958 0.707084 0.082312
0.908855 0.708981 0.282799
0.911049 0.711175 0.514676
0.913310 0.713436 0.753675
0.915394 0.715520 0.973905
0.929732 0.970550 0.105086
0.931629 0.972447 0.305573
0.933823 0.974641 0.537451
0.936085 0.976902 0.776450
0.938168 0.978986 0.996680
