skills/editops-orchestrator/assets/grade/luts/night_blue_v03.cube
TITLE "night_blue_v03"
LUT_3D_SIZE 17
DOMAIN_MIN 0.0 0.0 0.0
DOMAIN_MAX 1.0 1.0 1.0
0.000000 0.000000 0.000000
0.000305 0.000305 0.042707
0.000701 0.000701 0.098225
0.001106 0.001106 0.154966
0.001516 0.001516 0.212482
0.001931 0.001931 0.270572
0.002348 0.002348 0.329118
0.002769 0.002769 0.388044
0.003192 0.003192 0.447294
0.003616 0.003616 0.506830
0.004043 0.004043 0.566619
0.004471 0.004471 0.626637
0.004901 0.004901 0.686863
0.005332 0.005332 0.747280
0.005764 0.005764 0.807874
0.006198 0.006198 0.868631
0.006536 0.006536 0.916010
0.001414 0.021271 0.001414
0.001718 0.021576 0.044121
0.002114 0.021972 0.099638
0.002519 0.022377 0.156379
0.002930 0.022787 0.213896
0.003344 0.023202 0.271986
0.003762 0.023619 0.330532
0.004182 0.024040 0.389457
0.004605 0.024463 0.448708
0.005030 0.024887 0.508244
0.005457 0.025314 0.568033
0.005885 0.025742 0.628051
0.006315 0.026172 0.688277
0.006746 0.026603 0.748694
0.007178 0.027035 0.809287
0.007612 0.027469 0.870045
0.007950 0.027807 0.917423
0.005277 0.079399 0.005277
0.005581 0.079704 0.047984
0.005978 0.080100 0.103501
0.006382 0.080505 0.160242
0.006793 0.080915 0.217759
0.007207 0.081330 0.275849
0.007625 0.081748 0.334395
0.008046 0.082168 0.393320
0.008468 0.082591 0.452571
0.008893 0.083016 0.512107
0.009320 0.083442 0.571896
0.009748 0.083870 0.631914
0.010178 0.084300 0.692140
0.010609 0.084731 0.752557
0.011041 0.085164 0.813150
0.011475 0.085597 0.873908
0.011813 0.085935 0.921286
0.009257 0.139285 0.009257
0.009561 0.139590 0.051964
0.009957 0.139986 0.107481
0.010362 0.140391 0.164222
0.010773 0.140801 0.221739
0.011187 0.141216 0.279829
0.011605 0.141634 0.338375
0.012025 0.142054 0.397300
0.012448 0.142477 0.456551
0.012873 0.142902 0.516087
0.013300 0.143328 0.575876
0.013728 0.143757 0.635894
0.014158 0.144186 0.696120
0.014589 0.144617 0.756537
0.015021 0.145050 0.817130
0.015455 0.145483 0.877888
0.015793 0.145821 0.925266
0.013301 0.200144 0.013301
0.013606 0.200449 0.056009
0.014002 0.200845 0.111526
0.014407 0.201250 0.168267
0.014817 0.201660 0.225783
0.015232 0.202075 0.283873
0.015650 0.202493 0.342419
0.016070 0.202913 0.401345
0.016493 0.203336 0.460596
0.016918 0.203761 0.520131
0.017344 0.204187 0.579920
0.017772 0.204615 0.639938
0.018202 0.205045 0.700164
0.018633 0.205476 0.760581
0.019066 0.205909 0.821175
0.019499 0.206342 0.881933
0.019837 0.206680 0.929311
0.017391 0.261687 0.017391
0.017696 0.261992 0.060099
0.018092 0.262388 0.115616
0.018497 0.262793 0.172357
0.018907 0.263204 0.229873
0.019322 0.263618 0.287963
0.019740 0.264036 0.346509
0.020160 0.264456 0.405435
0.020583 0.264879 0.464686
0.021008 0.265304 0.524221
0.021434 0.265730 0.584011
0.021862 0.266159 0.644028
0.022292 0.266588 0.704254
0.022723 0.267020 0.764671
0.023156 0.267452 0.825265
0.023589 0.267885 0.886023
0.023927 0.268223 0.933401
0.021516 0.323761 0.021516
0.021821 0.324066 0.064224
0.022217 0.324462 0.119741
0.022622 0.324867 0.176482
0.023033 0.325278 0.233999
0.023447 0.325692 0.292088
0.023865 0.326110 0.350634
0.024285 0.326530 0.409560
0.024708 0.326953 0.468811
0.025133 0.327378 0.528347
0.025559 0.327804 0.588136
0.025988 0.328233 0.648154
0.026417 0.328662 0.708380
0.026849 0.329093 0.768796
0.027281 0.329526 0.829390
0.027714 0.329959 0.890148
0.028052 0.330297 0.937526
0.025671 0.386270 0.025671
0.025975 0.386574 0.068378
0.026371 0.386970 0.123895
0.026776 0.387375 0.180636
0.027187 0.387786 0.238153
0.027601 0.388200 0.296243
0.028019 0.388618 0.354789
0.028439 0.389038 0.413714
0.028862 0.389461 0.472965
0.029287 0.389886 0.532501
0.029714 0.390313 0.592290
0.030142 0.390741 0.652308
0.030572 0.391171 0.712534
0.031003 0.391602 0.772951
0.031435 0.392034 0.833544
0.031869 0.392468 0.894302
0.032207 0.392806 0.941680
0.029849 0.449146 0.029849
0.030154 0.449451 0.072557
0.030550 0.449847 0.128074
0.030955 0.450252 0.184815
0.031365 0.450662 0.242331
0.031780 0.451076 0.300421
0.032198 0.451494 0.358967
0.032618 0.451915 0.417893
0.033041 0.452337 0.477144
0.033466 0.452762 0.536679
0.033892 0.453189 0.596469
0.034320 0.453617 0.656486
0.034750 0.454047 0.716712
0.035181 0.454478 0.777129
0.035614 0.454910 0.837723
0.036047 0.455344 0.898481
0.036385 0.455682 0.945859
0.034049 0.512342 0.034049
0.034354 0.512646 0.076757
0.034750 0.513043 0.132274
0.035155 0.513447 0.189015
0.035565 0.513858 0.246531
0.035980 0.514272 0.304621
0.036397 0.514690 0.363167
0.036818 0.515111 0.422093
0.037241 0.515533 0.481343
0.037666 0.515958 0.540879
0.038092 0.516385 0.600668
0.038520 0.516813 0.660686
0.038950 0.517243 0.720912
0.039381 0.517674 0.781329
0.039814 0.518106 0.841923
0.040247 0.518540 0.902681
0.040585 0.518878 0.950059
0.038268 0.575820 0.038268
0.038573 0.576125 0.080975
0.038969 0.576521 0.136492
0.039373 0.576926 0.193233
0.039784 0.577336 0.250750
0.040198 0.577751 0.308840
0.040616 0.578169 0.367386
0.041037 0.578589 0.426311
0.041459 0.579012 0.485562
0.041884 0.579437 0.545098
0.042311 0.579863 0.604887
0.042739 0.580292 0.664905
0.043169 0.580721 0.725131
0.043600 0.581152 0.785548
0.044032 0.581585 0.846141
0.044466 0.582018 0.906899
0.044804 0.582356 0.954277
0.042503 0.639553 0.042503
0.042808 0.639857 0.085211
0.043204 0.640253 0.140728
0.043609 0.640658 0.197469
0.044019 0.641069 0.254985
0.044434 0.641483 0.313075
0.044852 0.641901 0.371621
0.045272 0.642321 0.430547
0.045695 0.642744 0.489798
0.046120 0.643169 0.549333
0.046546 0.643596 0.609123
0.046975 0.644024 0.669140
0.047404 0.644454 0.729366
0.047835 0.644885 0.789783
0.048268 0.645317 0.850377
0.048701 0.645751 0.911135
0.049039 0.646089 0.958513
0.046754 0.703515 0.046754
0.047059 0.703819 0.089462
0.047455 0.704216 0.144979
0.047860 0.704620 0.201720
0.048270 0.705031 0.259236
0.048685 0.705445 0.317326
0.049102 0.705863 0.375872
0.049523 0.706284 0.434798
0.049946 0.706706 0.494048
0.050370 0.707131 0.553584
0.050797 0.707558 0.613373
0.051225 0.707986 0.673391
0.051655 0.708416 0.733617
0.052086 0.708847 0.794034
0.052518 0.709279 0.854628
0.052952 0.709713 0.915386
0.053290 0.710051 0.962764
0.051019 0.767687 0.051019
0.051324 0.767992 0.093726
0.051720 0.768388 0.149244
0.052125 0.768793 0.205984
0.052535 0.769204 0.263501
0.052949 0.769618 0.321591
0.053367 0.770036 0.380137
0.053788 0.770456 0.439062
0.054210 0.770879 0.498313
0.054635 0.771304 0.557849
0.055062 0.771730 0.617638
0.055490 0.772159 0.677656
0.055920 0.772588 0.737882
0.056351 0.773019 0.798299
0.056783 0.773452 0.858892
0.057217 0.773885 0.919650
0.057555 0.774223 0.967029
0.055297 0.832054 0.055297
0.055601 0.832359 0.098004
0.055997 0.832755 0.153521
0.056402 0.833160 0.210262
0.056813 0.833570 0.267779
0.057227 0.833985 0.325869
0.057645 0.834402 0.384415
0.058065 0.834823 0.443340
0.058488 0.835246 0.502591
0.058913 0.835670 0.562127
0.059340 0.836097 0.621916
0.059768 0.836525 0.681934
0.060197 0.836955 0.742160
0.060629 0.837386 0.802576
0.061061 0.837818 0.863170
0.061494 0.838252 0.923928
0.061833 0.838590 0.971306
0.059586 0.896601 0.059586
0.059891 0.896906 0.102294
0.060287 0.897302 0.157811
0.060692 0.897707 0.214552
0.061102 0.898117 0.272068
0.061517 0.898531 0.330158
0.061934 0.898949 0.388704
0.062355 0.899370 0.447630
0.062778 0.899792 0.506881
0.063203 0.900217 0.566416
0.063629 0.900644 0.626205
0.064057 0.901072 0.686223
0.064487 0.901502 0.746449
0.064918 0.901933 0.806866
0.065351 0.902365 0.867460
0.065784 0.902799 0.928218
0.066122 0.903137 0.975596
0.063887 0.961315 0.063887
0.064192 0.961620 0.106594
0.064588 0.962016 0.162112
0.064993 0.962421 0.218852
0.065403 0.962832 0.276369
0.065818 0.963246 0.334459
0.066235 0.963664 0.393005
0.066656 0.964084 0.451930
0.067079 0.964507 0.511181
0.067503 0.964932 0.570717
0.067930 0.965358 0.630506
0.068358 0.965787 0.690524
0.068788 0.966216 0.750750
0.069219 0.966648 0.811167
0.069651 0.967080 0.871761
0.070085 0.967513 0.932518
0.070423 0.967851 0.979897
0.000000 0.000000 0.000000
0.000305 0.000305 0.042707
0.000701 0.000701 0.098225
0.001106 0.001106 0.154966
0.001516 0.001516 0.212482
0.001931 0.001931 0.270572
0.002348 0.002348 0.329118
0.002769 0.002769 0.388044
0.003192 0.003192 0.447294
0.003616 0.003616 0.506830
0.004043 0.004043 0.566619
0.004471 0.004471 0.626637
0.004901 0.004901 0.686863
0.005332 0.005332 0.747280
0.005764 0.005764 0.807874
0.006198 0.006198 0.868631
0.006536 0.006536 0.916010
0.001414 0.021271 0.001414
0.001718 0.021576 0.044121
0.002114 0.021972 0.099638
0.002519 0.022377 0.156379
0.002930 0.022787 0.213896
0.003344 0.023202 0.271986
0.003762 0.023619 0.330532
0.004182 0.024040 0.389457
0.004605 0.024463 0.448708
0.005030 0.024887 0.508244
0.005457 0.025314 0.568033
0.005885 0.025742 0.628051
0.006315 0.026172 0.688277
0.006746 0.026603 0.748694
0.007178 0.027035 0.809287
0.007612 0.027469 0.870045
0.007950 0.027807 0.917423
0.005277 0.079399 0.005277
0.005581 0.079704 0.047984
0.005978 0.080100 0.103501
0.006382 0.080505 0.160242
0.006793 0.080915 0.217759
0.007207 0.081330 0.275849
0.007625 0.081748 0.334395
0.008046 0.082168 0.393320
0.008468 0.082591 0.452571
0.008893 0.083016 0.512107
0.009320 0.083442 0.571896
0.009748 0.083870 0.631914
0.010178 0.084300 0.692140
0.010609 0.084731 0.752557
0.011041 0.085164 0.813150
0.011475 0.085597 0.873908
0.011813 0.085935 0.921286
0.009257 0.139285 0.009257
0.009561 0.139590 0.051964
0.009957 0.139986 0.107481
0.010362 0.140391 0.164222
0.010773 0.140801 0.221739
0.011187 0.141216 0.279829
0.011605 0.141634 0.338375
0.012025 0.142054 0.397300
0.012448 0.142477 0.456551
0.012873 0.142902 0.516087
0.013300 0.143328 0.575876
0.013728 0.143757 0.635894
0.014158 0.144186 0.696120
0.014589 0.144617 0.756537
0.015021 0.145050 0.817130
0.015455 0.145483 0.877888
0.015793 0.145821 0.925266
0.013301 0.200144 0.013301
0.013606 0.200449 0.056009
0.014002 0.200845 0.111526
0.014407 0.201250 0.168267
0.014817 0.201660 0.225783
0.015232 0.202075 0.283873
0.015650 0.202493 0.342419
0.016070 0.202913 0.401345
0.016493 0.203336 0.460596
0.016918 0.203761 0.520131
0.017344 0.204187 0.579920
0.017772 0.204615 0.639938
0.018202 0.205045 0.700164
0.018633 0.205476 0.760581
0.019066 0.205909 0.821175
0.019499 0.206342 0.881933
0.019837 0.206680 0.929311
0.017391 0.261687 0.017391
0.017696 0.261992 0.060099
0.018092 0.262388 0.115616
0.018497 0.262793 0.172357
0.018907 0.263204 0.229873
0.019322 0.263618 0.287963
0.019740 0.264036 0.346509
0.020160 0.264456 0.405435
0.020583 0.264879 0.464686
0.021008 0.265304 0.524221
0.021434 0.265730 0.584011
0.021862 0.266159 0.644028
0.022292 0.266588 0.704254
0.022723 0.267020 0.764671
0.023156 0.267452 0.825265
0.023589 0.267885 0.886023
0.023927 0.268223 0.933401
0.021516 0.323761 0.021516
0.021821 0.324066 0.064224
0.022217 0.324462 0.119741
0.022622 0.324867 0.176482
0.023033 0.325278 0.233999
0.023447 0.325692 0.292088
0.023865 0.326110 0.350634
0.024285 0.326530 0.409560
0.024708 0.326953 0.468811
0.025133 0.327378 0.528347
0.025559 0.327804 0.588136
0.025988 0.328233 0.648154
0.026417 0.328662 0.708380
0.026849 0.329093 0.768796
0.027281 0.329526 0.829390
0.027714 0.329959 0.890148
0.028052 0.330297 0.937526
0.025671 0.386270 0.025671
0.025975 0.386574 0.068378
0.026371 0.386970 0.123895
0.026776 0.387375 0.180636
0.027187 0.387786 0.238153
0.027601 0.388200 0.296243
0.028019 0.388618 0.354789
0.028439 0.389038 0.413714
0.028862 0.389461 0.472965
0.029287 0.389886 0.532501
0.029714 0.390313 0.592290
0.030142 0.390741 0.652308
0.030572 0.391171 0.712534
0.031003 0.391602 0.772951
0.031435 0.392034 0.833544
0.031869 0.392468 0.894302
0.032207 0.392806 0.941680
0.029849 0.449146 0.029849
0.030154 0.449451 0.072557
0.030550 0.449847 0.128074
0.030955 0.450252 0.184815
0.031365 0.450662 0.242331
0.031780 0.451076 0.300421
0.032198 0.451494 0.358967
0.032618 0.451915 0.417893
0.033041 0.452337 0.477144
0.033466 0.452762 0.536679
0.033892 0.453189 0.596469
0.034320 0.453617 0.656486
0.034750 0.454047 0.716712
0.035181 0.454478 0.777129
0.035614 0.454910 0.837723
0.036047 0.455344 0.898481
0.036385 0.455682 0.945859
0.034049 0.512342 0.034049
0.034354 0.512646 0.076757
0.034750 0.513043 0.132274
0.035155 0.513447 0.189015
0.035565 0.513858 0.246531
0.035980 0.514272 0.304621
0.036397 0.514690 0.363167
0.036818 0.515111 0.422093
0.037241 0.515533 0.481343
0.037666 0.515958 0.540879
0.038092 0.516385 0.600668
0.038520 0.516813 0.660686
0.038950 0.517243 0.720912
0.039381 0.517674 0.781329
0.039814 0.518106 0.841923
0.040247 0.518540 0.902681
0.040585 0.518878 0.950059
0.038268 0.575820 0.038268
0.038573 0.576125 0.080975
0.038969 0.576521 0.136492
0.039373 0.576926 0.193233
0.039784 0.577336 0.250750
0.040198 0.577751 0.308840
0.040616 0.578169 0.367386
0.041037 0.578589 0.426311
0.041459 0.579012 0.485562
0.041884 0.579437 0.545098
0.042311 0.579863 0.604887
0.042739 0.580292 0.664905
0.043169 0.580721 0.725131
0.043600 0.581152 0.785548
0.044032 0.581585 0.846141
0.044466 0.582018 0.906899
0.044804 0.582356 0.954277
0.042503 0.639553 0.042503
0.042808 0.639857 0.085211
0.043204 0.640253 0.140728
0.043609 0.640658 0.197469
0.044019 0.641069 0.254985
0.044434 0.641483 0.313075
0.044852 0.641901 0.371621
0.045272 0.642321 0.430547
0.045695 0.642744 0.489798
0.046120 0.643169 0.549333
0.046546 0.643596 0.609123
0.046975 0.644024 0.669140
0.047404 0.644454 0.729366
0.047835 0.644885 0.789783
0.048268 0.645317 0.850377
0.048701 0.645751 0.911135
0.049039 0.646089 0.958513
0.046754 0.703515 0.046754
0.047059 0.703819 0.089462
0.047455 0.704216 0.144979
0.047860 0.704620 0.201720
0.048270 0.705031 0.259236
0.048685 0.705445 0.317326
0.049102 0.705863 0.375872
0.049523 0.706284 0.434798
0.049946 0.706706 0.494048
0.050370 0.707131 0.553584
0.050797 0.707558 0.613373
0.051225 0.707986 0.673391
0.051655 0.708416 0.733617
0.052086 0.708847 0.794034
0.052518 0.709279 0.854628
0.052952 0.709713 0.915386
0.053290 0.710051 0.962764
0.051019 0.767687 0.051019
0.051324 0.767992 0.093726
0.051720 0.768388 0.149244
0.052125 0.768793 0.205984
0.052535 0.769204 0.263501
0.052949 0.769618 0.321591
0.053367 0.770036 0.380137
0.053788 0.770456 0.439062
0.054210 0.770879 0.498313
0.054635 0.771304 0.557849
0.055062 0.771730 0.617638
0.055490 0.772159 0.677656
0.055920 0.772588 0.737882
0.056351 0.773019 0.798299
0.056783 0.773452 0.858892
0.057217 0.773885 0.919650
0.057555 0.774223 0.967029
0.055297 0.832054 0.055297
0.055601 0.832359 0.098004
0.055997 0.832755 0.153521
0.056402 0.833160 0.210262
0.056813 0.833570 0.267779
0.057227 0.833985 0.325869
0.057645 0.834402 0.384415
0.058065 0.834823 0.443340
0.058488 0.835246 0.502591
0.058913 0.835670 0.562127
0.059340 0.836097 0.621916
0.059768 0.836525 0.681934
0.060197 0.836955 0.742160
0.060629 0.837386 0.802576
0.061061 0.837818 0.863170
0.061494 0.838252 0.923928
0.061833 0.838590 0.971306
0.059586 0.896601 0.059586
0.059891 0.896906 0.102294
0.060287 0.897302 0.157811
0.060692 0.897707 0.214552
0.061102 0.898117 0.272068
0.061517 0.898531 0.330158
0.061934 0.898949 0.388704
0.062355 0.899370 0.447630
0.062778 0.899792 0.506881
0.063203 0.900217 0.566416
0.063629 0.900644 0.626205
0.064057 0.901072 0.686223
0.064487 0.901502 0.746449
0.064918 0.901933 0.806866
0.065351 0.902365 0.867460
0.065784 0.902799 0.928218
0.066122 0.903137 0.975596
0.063887 0.961315 0.063887
0.064192 0.961620 0.106594
0.064588 0.962016 0.162112
0.064993 0.962421 0.218852
0.065403 0.962832 0.276369
0.065818 0.963246 0.334459
0.066235 0.963664 0.393005
0.066656 0.964084 0.451930
0.067079 0.964507 0.511181
0.067503 0.964932 0.570717
0.067930 0.965358 0.630506
0.068358 0.965787 0.690524
0.068788 0.966216 0.750750
0.069219 0.966648 0.811167
0.069651 0.967080 0.871761
0.070085 0.967513 0.932518
0.070423 0.967851 0.979897
0.052068 0.001079 0.001079
0.052372 0.001384 0.043786
0.052768 0.001780 0.099304
0.053173 0.002185 0.156045
0.053584 0.002595 0.213561
0.053998 0.003010 0.271651
0.054416 0.003427 0.330197
0.054836 0.003848 0.389123
0.055259 0.004271 0.448373
0.055684 0.004695 0.507909
0.056110 0.005122 0.567698
0.056539 0.005550 0.627716
0.056968 0.005980 0.687942
0.057400 0.006411 0.748359
0.057832 0.006843 0.808953
0.058265 0.007277 0.869710
0.058604 0.007615 0.917089
0.053481 0.022350 0.002493
0.053786 0.022655 0.045200
0.054182 0.023051 0.100717
0.054587 0.023456 0.157458
0.054997 0.023866 0.214975
0.055412 0.024281 0.273065
0.055829 0.024698 0.331611
0.056250 0.025119 0.390536
0.056673 0.025542 0.449787
0.057098 0.025966 0.509323
0.057524 0.026393 0.569112
0.057952 0.026821 0.629130
0.058382 0.027251 0.689356
0.058813 0.027682 0.749773
0.059246 0.028114 0.810366
0.059679 0.028548 0.871124
0.060017 0.028886 0.918502
0.057344 0.080478 0.006356
0.057649 0.080783 0.049063
0.058045 0.081179 0.104580
0.058450 0.081584 0.161321
0.058860 0.081994 0.218838
0.059275 0.082409 0.276928
0.059693 0.082827 0.335474
0.060113 0.083247 0.394399
0.060536 0.083670 0.453650
0.060961 0.084095 0.513186
0.061387 0.084521 0.572975
0.061815 0.084949 0.632993
0.062245 0.085379 0.693219
0.062676 0.085810 0.753636
0.063109 0.086243 0.814229
0.063542 0.086676 0.874987
0.063880 0.087014 0.922365
0.061324 0.140364 0.010336
0.061629 0.140669 0.053043
0.062025 0.141065 0.108560
0.062430 0.141470 0.165301
0.062840 0.141880 0.222818
0.063255 0.142295 0.280908
0.063672 0.142713 0.339454
0.064093 0.143133 0.398379
0.064516 0.143556 0.457630
0.064940 0.143981 0.517166
0.065367 0.144407 0.576955
0.065795 0.144836 0.636973
0.066225 0.145265 0.697199
0.066656 0.145696 0.757616
0.067089 0.146129 0.818209
0.067522 0.146562 0.878967
0.067860 0.146900 0.926345
0.065369 0.201223 0.014380
0.065673 0.201528 0.057088
0.066070 0.201924 0.112605
0.066474 0.202329 0.169346
0.066885 0.202739 0.226862
0.067299 0.203154 0.284952
0.067717 0.203572 0.343498
0.068137 0.203992 0.402424
0.068560 0.204415 0.461675
0.068985 0.204840 0.521210
0.069412 0.205266 0.580999
0.069840 0.205694 0.641017
0.070270 0.206124 0.701243
0.070701 0.206555 0.761660
0.071133 0.206988 0.822254
0.071567 0.207421 0.883012
0.071905 0.207759 0.930390
0.069459 0.262766 0.018470
0.069763 0.263071 0.061178
0.070160 0.263467 0.116695
0.070564 0.263872 0.173436
0.070975 0.264283 0.230952
0.071389 0.264697 0.289042
0.071807 0.265115 0.347588
0.072227 0.265535 0.406514
0.072650 0.265958 0.465765
0.073075 0.266383 0.525300
0.073502 0.266809 0.585090
0.073930 0.267238 0.645107
0.074360 0.267667 0.705333
0.074791 0.268099 0.765750
0.075223 0.268531 0.826344
0.075657 0.268964 0.887102
0.075995 0.269302 0.934480
0.073584 0.324840 0.022595
0.073889 0.325145 0.065303
0.074285 0.325541 0.120820
0.074690 0.325946 0.177561
0.075100 0.326357 0.235078
0.075515 0.326771 0.293167
0.075932 0.327189 0.351713
0.076353 0.327609 0.410639
0.076776 0.328032 0.469890
0.077200 0.328457 0.529426
0.077627 0.328883 0.589215
0.078055 0.329312 0.649233
0.078485 0.329741 0.709459
0.078916 0.330172 0.769875
0.079348 0.330605 0.830469
0.079782 0.331038 0.891227
0.080120 0.331376 0.938605
0.077738 0.387349 0.026750
0.078043 0.387653 0.069457
0.078439 0.388049 0.124974
0.078844 0.388454 0.181715
0.079254 0.388865 0.239232
0.079669 0.389279 0.297322
0.080086 0.389697 0.355868
0.080507 0.390117 0.414793
0.080930 0.390540 0.474044
0.081355 0.390965 0.533580
0.081781 0.391392 0.593369
0.082209 0.391820 0.653387
0.082639 0.392250 0.713613
0.083070 0.392681 0.774030
0.083503 0.393113 0.834623
0.083936 0.393547 0.895381
0.084274 0.393885 0.942759
0.081917 0.450225 0.030928
0.082221 0.450530 0.073636
0.082618 0.450926 0.129153
0.083022 0.451331 0.185894
0.083433 0.451741 0.243410
0.083847 0.452155 0.301500
0.084265 0.452573 0.360046
0.084686 0.452994 0.418972
0.085108 0.453416 0.478223
0.085533 0.453841 0.537758
0.085960 0.454268 0.597548
0.086388 0.454696 0.657565
0.086818 0.455126 0.717791
0.087249 0.455557 0.778208
0.087681 0.455989 0.838802
0.088115 0.456423 0.899560
0.088453 0.456761 0.946938
0.086117 0.513421 0.035128
0.086421 0.513725 0.077836
0.086817 0.514122 0.133353
0.087222 0.514526 0.190094
0.087633 0.514937 0.247610
0.088047 0.515351 0.305700
0.088465 0.515769 0.364246
0.088885 0.516190 0.423172
0.089308 0.516612 0.482422
0.089733 0.517037 0.541958
0.090160 0.517464 0.601747
0.090588 0.517892 0.661765
0.091018 0.518322 0.721991
0.091449 0.518753 0.782408
0.091881 0.519185 0.843002
0.092315 0.519619 0.903760
0.092653 0.519957 0.951138
0.090335 0.576899 0.039347
0.090640 0.577204 0.082054
0.091036 0.577600 0.137571
0.091441 0.578005 0.194312
0.091851 0.578415 0.251829
0.092266 0.578830 0.309919
0.092684 0.579248 0.368465
0.093104 0.579668 0.427390
0.093527 0.580091 0.486641
0.093952 0.580516 0.546177
0.094378 0.580942 0.605966
0.094807 0.581371 0.665984
0.095236 0.581800 0.726210
0.095667 0.582231 0.786627
0.096100 0.582664 0.847220
0.096533 0.583097 0.907978
0.096871 0.583435 0.955356
0.094571 0.640632 0.043582
0.094876 0.640936 0.086290
0.095272 0.641332 0.141807
0.095677 0.641737 0.198548
0.096087 0.642148 0.256064
0.096501 0.642562 0.314154
0.096919 0.642980 0.372700
0.097340 0.643400 0.431626
0.097762 0.643823 0.490877
0.098187 0.644248 0.550412
0.098614 0.644675 0.610202
0.099042 0.645103 0.670219
0.099472 0.645533 0.730445
0.099903 0.645964 0.790862
0.100335 0.646396 0.851456
0.100769 0.646830 0.912214
0.101107 0.647168 0.959592
0.098822 0.704594 0.047833
0.099126 0.704898 0.090541
0.099522 0.705295 0.146058
0.099927 0.705699 0.202799
0.100338 0.706110 0.260315
0.100752 0.706524 0.318405
0.101170 0.706942 0.376951
0.101590 0.707363 0.435877
0.102013 0.707785 0.495127
0.102438 0.708210 0.554663
0.102865 0.708637 0.614452
0.103293 0.709065 0.674470
0.103723 0.709495 0.734696
0.104154 0.709926 0.795113
0.104586 0.710358 0.855707
0.105020 0.710792 0.916465
0.105358 0.711130 0.963843
0.103086 0.768766 0.052098
0.103391 0.769071 0.094805
0.103787 0.769467 0.150323
0.104192 0.769872 0.207063
0.104602 0.770283 0.264580
0.105017 0.770697 0.322670
0.105435 0.771115 0.381216
0.105855 0.771535 0.440141
0.106278 0.771958 0.499392
0.106703 0.772383 0.558928
0.107129 0.772809 0.618717
0.107558 0.773238 0.678735
0.107987 0.773667 0.738961
0.108418 0.774098 0.799378
0.108851 0.774531 0.859971
0.109284 0.774964 0.920729
0.109622 0.775302 0.968108
0.107364 0.833133 0.056376
0.107669 0.833438 0.099083
0.108065 0.833834 0.154600
0.108470 0.834239 0.211341
0.108880 0.834649 0.268858
0.109295 0.835064 0.326948
0.109712 0.835481 0.385494
0.110133 0.835902 0.444419
0.110556 0.836325 0.503670
0.110980 0.836749 0.563206
0.111407 0.837176 0.622995
0.111835 0.837604 0.683013
0.112265 0.838034 0.743239
0.112696 0.838465 0.803655
0.113128 0.838897 0.864249
0.113562 0.839331 0.925007
0.113900 0.839669 0.972385
0.111654 0.897680 0.060665
0.111958 0.897985 0.103373
0.112355 0.898381 0.158890
0.112759 0.898786 0.215631
0.113170 0.899196 0.273147
0.113584 0.899610 0.331237
0.114002 0.900028 0.389783
0.114422 0.900449 0.448709
0.114845 0.900871 0.507960
0.115270 0.901296 0.567495
0.115697 0.901723 0.627284
0.116125 0.902151 0.687302
0.116555 0.902581 0.747528
0.116986 0.903012 0.807945
0.117418 0.903444 0.868539
0.117852 0.903878 0.929297
0.118190 0.904216 0.976675
0.115954 0.962394 0.064966
0.116259 0.962699 0.107673
0.116655 0.963095 0.163191
0.117060 0.963500 0.219931
0.117471 0.963911 0.277448
0.117885 0.964325 0.335538
0.118303 0.964743 0.394084
0.118723 0.965163 0.453009
0.119146 0.965586 0.512260
0.119571 0.966011 0.571796
0.119997 0.966437 0.631585
0.120426 0.966866 0.691603
0.120855 0.967295 0.751829
0.121287 0.967727 0.812246
0.121719 0.968159 0.872840
0.122152 0.968592 0.933597
0.122490 0.968930 0.980976
0.108605 0.002251 0.002251
0.108910 0.002555 0.044958
0.109306 0.002951 0.100475
0.109711 0.003356 0.157216
0.110122 0.003767 0.214733
0.110536 0.004181 0.272823
0.110954 0.004599 0.331369
0.111374 0.005019 0.390294
0.111797 0.005442 0.449545
0.112222 0.005867 0.509081
0.112648 0.006294 0.568870
0.113077 0.006722 0.628888
0.113506 0.007152 0.689114
0.113938 0.007583 0.749531
0.114370 0.008015 0.810124
0.114803 0.008449 0.870882
0.115141 0.008787 0.918260
0.110019 0.023522 0.003664
