skills/editops-orchestrator/assets/grade/luts/night_blue_v17.cube
TITLE "night_blue_v17"
LUT_3D_SIZE 5
DOMAIN_MIN 0.0 0.0 0.0
DOMAIN_MAX 1.0 1.0 1.0
0.000000 0.000000 0.000000
0.002522 0.002522 0.180308
0.005683 0.005683 0.406312
0.009003 0.009003 0.643685
0.011856 0.011856 0.847645
0.016605 0.134774 0.016605
0.019127 0.137295 0.196913
0.022288 0.140457 0.422916
0.025608 0.143777 0.660290
0.028461 0.146630 0.864250
0.047266 0.383632 0.047266
0.049788 0.386154 0.227574
0.052949 0.389315 0.453577
0.056269 0.392636 0.690950
0.059122 0.395488 0.894911
0.079785 0.647579 0.079785
0.082307 0.650101 0.260093
0.085468 0.653262 0.486097
0.088788 0.656582 0.723470
0.091641 0.659435 0.927431
0.113456 0.920869 0.113456
0.115978 0.923391 0.293764
0.119139 0.926552 0.519768
0.122459 0.929872 0.757141
0.125312 0.932725 0.961101
0.063548 0.002548 0.002548
0.066070 0.005070 0.182856
0.069231 0.008231 0.408860
0.072551 0.011551 0.646233
0.075404 0.014404 0.850193
0.080153 0.137322 0.019153
0.082675 0.139843 0.199461
0.085836 0.143005 0.425464
0.089156 0.146325 0.662838
0.092009 0.149178 0.866798
0.110813 0.386180 0.049814
0.113335 0.388702 0.230122
0.116497 0.391863 0.456125
0.119817 0.395184 0.693498
0.122669 0.398036 0.897459
0.143333 0.650127 0.082333
0.145855 0.652649 0.262641
0.149016 0.655810 0.488645
0.152336 0.659130 0.726018
0.155189 0.661983 0.929979
0.177004 0.923417 0.116004
0.179526 0.925939 0.296312
0.182687 0.929100 0.522316
0.186007 0.932420 0.759689
0.188860 0.935273 0.963649
0.284505 0.011407 0.011407
0.287027 0.013929 0.191715
0.290188 0.017090 0.417719
0.293508 0.020411 0.655092
0.296361 0.023263 0.859053
0.301110 0.146181 0.028012
0.303632 0.148703 0.208320
0.306793 0.151864 0.434324
0.310113 0.155184 0.671697
0.312966 0.158037 0.875658
0.331771 0.395040 0.058673
0.334293 0.397562 0.238981
0.337454 0.400723 0.464985
0.340774 0.404043 0.702358
0.343627 0.406896 0.906318
0.364290 0.658986 0.091193
0.366812 0.661508 0.271501
0.369973 0.664669 0.497504
0.373293 0.667989 0.734877
0.376146 0.670842 0.938838
0.397961 0.932276 0.124863
0.400483 0.934798 0.305171
0.403644 0.937959 0.531175
0.406964 0.941280 0.768548
0.409817 0.944132 0.972509
0.522494 0.020950 0.020950
0.525016 0.023472 0.201258
0.528177 0.026633 0.427261
0.531497 0.029953 0.664635
0.534350 0.032806 0.868595
0.539099 0.155723 0.037554
0.541621 0.158245 0.217862
0.544782 0.161406 0.443866
0.548102 0.164726 0.681239
0.550955 0.167579 0.885200
0.569760 0.404582 0.068215
0.572282 0.407104 0.248523
0.575443 0.410265 0.474527
0.578763 0.413585 0.711900
0.581616 0.416438 0.915861
0.602279 0.668529 0.100735
0.604801 0.671051 0.281043
0.607962 0.674212 0.507046
0.611283 0.677532 0.744420
0.614135 0.680385 0.948380
0.635950 0.941819 0.134406
0.638472 0.944341 0.314714
0.641633 0.947502 0.540717
0.644953 0.950822 0.778091
0.647806 0.953675 0.982051
0.770009 0.030874 0.030874
0.772531 0.033396 0.211182
0.775692 0.036557 0.437185
0.779012 0.039877 0.674559
0.781865 0.042730 0.878519
0.786614 0.165647 0.047479
0.789136 0.168169 0.227787
0.792297 0.171330 0.453790
0.795617 0.174651 0.691164
0.798470 0.177503 0.895124
0.817274 0.414506 0.078139
0.819796 0.417028 0.258447
0.822957 0.420189 0.484451
0.826278 0.423509 0.721824
0.829130 0.426362 0.925785
0.849794 0.678453 0.110659
0.852316 0.680975 0.290967
0.855477 0.684136 0.516971
0.858797 0.687456 0.754344
0.861650 0.690309 0.958305
0.883465 0.951743 0.144330
0.885987 0.954265 0.324638
0.889148 0.957426 0.550641
0.892468 0.960746 0.788015
0.895321 0.963599 0.991975
