skills/editops-orchestrator/assets/grade/luts/night_blue_v10.cube
TITLE "night_blue_v10"
LUT_3D_SIZE 9
DOMAIN_MIN 0.0 0.0 0.0
DOMAIN_MAX 1.0 1.0 1.0
0.000000 0.000000 0.000000
0.000895 0.000895 0.085854
0.002042 0.002042 0.195849
0.003231 0.003231 0.309865
0.004448 0.004448 0.426486
0.005684 0.005684 0.545056
0.006937 0.006937 0.665190
0.008203 0.008203 0.786634
0.009196 0.009196 0.881828
0.004660 0.049305 0.004660
0.005556 0.050200 0.090515
0.006703 0.051347 0.200510
0.007892 0.052536 0.314525
0.009108 0.053752 0.431146
0.010344 0.054989 0.549717
0.011597 0.056242 0.669851
0.012864 0.057508 0.791295
0.013856 0.058501 0.886488
0.015767 0.166809 0.015767
0.016663 0.167704 0.101621
0.017810 0.168851 0.211616
0.018999 0.170040 0.325632
0.020215 0.171256 0.442253
0.021451 0.172493 0.560823
0.022704 0.173745 0.680958
0.023970 0.175012 0.802401
0.024963 0.176005 0.897595
0.027410 0.289981 0.027410
0.028305 0.290876 0.113264
0.029452 0.292023 0.223259
0.030641 0.293212 0.337274
0.031857 0.294429 0.453896
0.033094 0.295665 0.572466
0.034347 0.296918 0.692600
0.035613 0.298184 0.814044
0.036606 0.299177 0.909237
0.039363 0.416441 0.039363
0.040258 0.417336 0.125217
0.041405 0.418483 0.235212
0.042594 0.419672 0.349228
0.043811 0.420889 0.465849
0.045047 0.422125 0.584419
0.046300 0.423378 0.704554
0.047566 0.424644 0.825997
0.048559 0.425637 0.921191
0.051539 0.545259 0.051539
0.052435 0.546155 0.137394
0.053582 0.547302 0.247389
0.054771 0.548491 0.361404
0.055987 0.549707 0.478025
0.057223 0.550943 0.596595
0.058476 0.552196 0.716730
0.059743 0.553463 0.838174
0.060735 0.554455 0.933367
0.063890 0.675928 0.063890
0.064786 0.676823 0.149745
0.065933 0.677970 0.259740
0.067122 0.679159 0.373755
0.068338 0.680375 0.490376
0.069575 0.681612 0.608947
0.070827 0.682864 0.729081
0.072094 0.684131 0.850525
0.073086 0.685124 0.945718
0.076386 0.808123 0.076386
0.077281 0.809018 0.162240
0.078428 0.810165 0.272235
0.079617 0.811354 0.386251
0.080833 0.812570 0.502872
0.082070 0.813807 0.621442
0.083323 0.815060 0.741576
0.084589 0.816326 0.863020
0.085582 0.817319 0.958213
0.089005 0.941621 0.089005
0.089900 0.942516 0.174859
0.091047 0.943663 0.284854
0.092236 0.944852 0.398869
0.093452 0.946068 0.515490
0.094689 0.947305 0.634061
0.095941 0.948558 0.754195
0.097208 0.949824 0.875639
0.098201 0.950817 0.970832
0.006925 0.000208 0.000208
0.007820 0.001104 0.086063
0.008967 0.002251 0.196058
0.010156 0.003440 0.310073
0.011372 0.004656 0.426694
0.012609 0.005892 0.545265
0.013862 0.007145 0.665399
0.015128 0.008412 0.786843
0.016121 0.009404 0.882036
0.011585 0.049513 0.004869
0.012480 0.050409 0.090723
0.013628 0.051556 0.200718
0.014817 0.052745 0.314733
0.016033 0.053961 0.431355
0.017269 0.055197 0.549925
0.018522 0.056450 0.670059
0.019788 0.057717 0.791503
0.020781 0.058709 0.886696
0.022692 0.167017 0.015976
0.023587 0.167912 0.101830
0.024734 0.169059 0.211825
0.025923 0.170248 0.325840
0.027139 0.171465 0.442461
0.028376 0.172701 0.561032
0.029629 0.173954 0.681166
0.030895 0.175220 0.802610
0.031888 0.176213 0.897803
0.034335 0.290189 0.027618
0.035230 0.291085 0.113472
0.036377 0.292232 0.223467
0.037566 0.293421 0.337483
0.038782 0.294637 0.454104
0.040019 0.295873 0.572674
0.041271 0.297126 0.692809
0.042538 0.298393 0.814252
0.043531 0.299385 0.909446
0.046288 0.416649 0.039572
0.047183 0.417545 0.125426
0.048330 0.418692 0.235421
0.049519 0.419881 0.349436
0.050735 0.421097 0.466057
0.051972 0.422333 0.584628
0.053225 0.423586 0.704762
0.054491 0.424853 0.826206
0.055484 0.425845 0.921399
0.058464 0.545468 0.051748
0.059359 0.546363 0.137602
0.060506 0.547510 0.247597
0.061695 0.548699 0.361612
0.062912 0.549915 0.478234
0.064148 0.551152 0.596804
0.065401 0.552405 0.716938
0.066667 0.553671 0.838382
0.067660 0.554664 0.933575
0.070815 0.676136 0.064099
0.071711 0.677031 0.149953
0.072858 0.678178 0.259948
0.074047 0.679367 0.373964
0.075263 0.680583 0.490585
0.076499 0.681820 0.609155
0.077752 0.683073 0.729289
0.079018 0.684339 0.850733
0.080011 0.685332 0.945926
0.083311 0.808331 0.076594
0.084206 0.809227 0.162449
0.085353 0.810374 0.272444
0.086542 0.811563 0.386459
0.087758 0.812779 0.503080
0.088995 0.814015 0.621650
0.090247 0.815268 0.741785
0.091514 0.816535 0.863229
0.092507 0.817527 0.958422
0.095929 0.941829 0.089213
0.096825 0.942725 0.175067
0.097972 0.943872 0.285062
0.099161 0.945061 0.399078
0.100377 0.946277 0.515699
0.101613 0.947513 0.634269
0.102866 0.948766 0.754403
0.104133 0.950033 0.875847
0.105125 0.951025 0.971040
0.112374 0.003382 0.003382
0.113269 0.004277 0.089236
0.114417 0.005425 0.199231
0.115606 0.006613 0.313247
0.116822 0.007830 0.429868
0.118058 0.009066 0.548438
0.119311 0.010319 0.668573
0.120577 0.011585 0.790016
0.121570 0.012578 0.885210
0.117035 0.052687 0.008043
0.117930 0.053582 0.093897
0.119077 0.054729 0.203892
0.120266 0.055918 0.317907
0.121482 0.057135 0.434528
0.122719 0.058371 0.553099
0.123971 0.059624 0.673233
0.125238 0.060890 0.794677
0.126231 0.061883 0.889870
0.128141 0.170191 0.019149
0.129037 0.171086 0.105003
0.130184 0.172233 0.214999
0.131373 0.173422 0.329014
0.132589 0.174638 0.445635
0.133825 0.175875 0.564205
0.135078 0.177128 0.684340
0.136345 0.178394 0.805784
0.137337 0.179387 0.900977
0.139784 0.293363 0.030792
0.140679 0.294258 0.116646
0.141826 0.295405 0.226641
0.143015 0.296594 0.340657
0.144231 0.297811 0.457278
0.145468 0.299047 0.575848
0.146721 0.300300 0.695982
0.147987 0.301566 0.817426
0.148980 0.302559 0.912619
0.151737 0.419823 0.042745
0.152633 0.420718 0.128599
0.153780 0.421866 0.238594
0.154969 0.423054 0.352610
0.156185 0.424271 0.469231
0.157421 0.425507 0.587801
0.158674 0.426760 0.707936
0.159941 0.428026 0.829379
0.160933 0.429019 0.924573
0.163913 0.548641 0.054921
0.164809 0.549537 0.140776
0.165956 0.550684 0.250771
0.167145 0.551873 0.364786
0.168361 0.553089 0.481407
0.169598 0.554325 0.599978
0.170850 0.555578 0.720112
0.172117 0.556845 0.841556
0.173109 0.557837 0.936749
0.176265 0.679310 0.067273
0.177160 0.680205 0.153127
0.178307 0.681352 0.263122
0.179496 0.682541 0.377137
0.180712 0.683757 0.493758
0.181949 0.684994 0.612329
0.183201 0.686246 0.732463
0.184468 0.687513 0.853907
0.185461 0.688506 0.949100
0.188760 0.811505 0.079768
0.189655 0.812400 0.165622
0.190802 0.813547 0.275617
0.191991 0.814736 0.389633
0.193208 0.815952 0.506254
0.194444 0.817189 0.624824
0.195697 0.818442 0.744958
0.196963 0.819708 0.866402
0.197956 0.820701 0.961596
0.201379 0.945003 0.092387
0.202274 0.945898 0.178241
0.203421 0.947045 0.288236
0.204610 0.948234 0.402251
0.205826 0.949450 0.518873
0.207063 0.950687 0.637443
0.208315 0.951940 0.757577
0.209582 0.953206 0.879021
0.210575 0.954199 0.974214
0.225740 0.006794 0.006794
0.226635 0.007689 0.092648
0.227782 0.008836 0.202643
0.228971 0.010025 0.316659
0.230188 0.011242 0.433280
0.231424 0.012478 0.551850
0.232677 0.013731 0.671984
0.233943 0.014997 0.793428
0.234936 0.015990 0.888622
0.230400 0.056099 0.011455
0.231296 0.056994 0.097309
0.232443 0.058141 0.207304
0.233632 0.059330 0.321319
0.234848 0.060547 0.437940
0.236084 0.061783 0.556511
0.237337 0.063036 0.676645
0.238604 0.064302 0.798089
0.239596 0.065295 0.893282
0.241507 0.173603 0.022561
0.242403 0.174498 0.108415
0.243550 0.175645 0.218410
0.244739 0.176834 0.332426
0.245955 0.178050 0.449047
0.247191 0.179287 0.567617
0.248444 0.180540 0.687752
0.249710 0.181806 0.809196
0.250703 0.182799 0.904389
0.253150 0.296775 0.034204
0.254045 0.297670 0.120058
0.255192 0.298817 0.230053
0.256381 0.300006 0.344069
0.257597 0.301223 0.460690
0.258834 0.302459 0.579260
0.260087 0.303712 0.699394
0.261353 0.304978 0.820838
0.262346 0.305971 0.916031
0.265103 0.423235 0.046157
0.265998 0.424130 0.132011
0.267145 0.425277 0.242006
0.268334 0.426466 0.356022
0.269551 0.427683 0.472643
0.270787 0.428919 0.591213
0.272040 0.430172 0.711348
0.273306 0.431438 0.832791
0.274299 0.432431 0.927985
0.277279 0.552053 0.058333
0.278175 0.552949 0.144188
0.279322 0.554096 0.254183
0.280511 0.555285 0.368198
0.281727 0.556501 0.484819
0.282963 0.557737 0.603390
0.284216 0.558990 0.723524
0.285483 0.560257 0.844968
0.286475 0.561249 0.940161
0.289630 0.682722 0.070685
0.290526 0.683617 0.156539
0.291673 0.684764 0.266534
0.292862 0.685953 0.380549
0.294078 0.687169 0.497170
0.295315 0.688406 0.615741
0.296567 0.689658 0.735875
0.297834 0.690925 0.857319
0.298826 0.691918 0.952512
0.302126 0.814917 0.083180
0.303021 0.815812 0.169034
0.304168 0.816959 0.279029
0.305357 0.818148 0.393045
0.306573 0.819364 0.509666
0.307810 0.820601 0.628236
0.309063 0.821854 0.748370
0.310329 0.823120 0.869814
0.311322 0.824113 0.965008
0.314745 0.948415 0.095799
0.315640 0.949310 0.181653
0.316787 0.950457 0.291648
0.317976 0.951646 0.405663
0.319192 0.952862 0.522284
0.320429 0.954099 0.640855
0.321681 0.955352 0.760989
0.322948 0.956618 0.882433
0.323941 0.957611 0.977626
0.342750 0.010316 0.010316
0.343645 0.011211 0.096170
0.344792 0.012358 0.206165
0.345981 0.013547 0.320180
0.347198 0.014763 0.436802
0.348434 0.016000 0.555372
0.349687 0.017253 0.675506
0.350953 0.018519 0.796950
0.351946 0.019512 0.892143
0.347410 0.059621 0.014976
0.348306 0.060516 0.100830
0.349453 0.061663 0.210825
0.350642 0.062852 0.324841
0.351858 0.064068 0.441462
0.353095 0.065305 0.560032
0.354347 0.066557 0.680167
0.355614 0.067824 0.801610
0.356606 0.068817 0.896804
0.358517 0.177124 0.026083
0.359413 0.178020 0.111937
0.360560 0.179167 0.221932
0.361749 0.180356 0.335948
0.362965 0.181572 0.452569
0.364201 0.182808 0.571139
0.365454 0.184061 0.691273
0.366721 0.185328 0.812717
0.367713 0.186320 0.907911
0.370160 0.300297 0.037726
0.371055 0.301192 0.123580
0.372202 0.302339 0.233575
0.373391 0.303528 0.347590
0.374607 0.304744 0.464211
0.375844 0.305981 0.582782
0.377097 0.307234 0.702916
0.378363 0.308500 0.824360
0.379356 0.309493 0.919553
0.382113 0.426757 0.049679
0.383008 0.427652 0.135533
0.384156 0.428799 0.245528
0.385345 0.429988 0.359543
0.386561 0.431204 0.476165
0.387797 0.432441 0.594735
0.389050 0.433694 0.714869
0.390316 0.434960 0.836313
0.391309 0.435953 0.931506
0.394289 0.555575 0.061855
0.395185 0.556470 0.147709
0.396332 0.557617 0.257704
0.397521 0.558806 0.371720
0.398737 0.560023 0.488341
0.399973 0.561259 0.606911
0.401226 0.562512 0.727045
0.402493 0.563778 0.848489
0.403485 0.564771 0.943683
0.406641 0.686243 0.074206
0.407536 0.687139 0.160060
0.408683 0.688286 0.270055
0.409872 0.689475 0.384071
0.411088 0.690691 0.500692
0.412325 0.691927 0.619262
0.413577 0.693180 0.739397
0.414844 0.694447 0.860840
0.415837 0.695439 0.956034
0.419136 0.818439 0.086702
0.420031 0.819334 0.172556
0.421178 0.820481 0.282551
0.422367 0.821670 0.396566
0.423584 0.822886 0.513188
0.424820 0.824123 0.631758
0.426073 0.825375 0.751892
0.427339 0.826642 0.873336
0.428332 0.827635 0.968529
0.431755 0.951937 0.099320
0.432650 0.952832 0.185174
0.433797 0.953979 0.295169
0.434986 0.955168 0.409185
0.436202 0.956384 0.525806
0.437439 0.957621 0.644376
0.438691 0.958873 0.764511
0.439958 0.960140 0.885954
0.440951 0.961133 0.981148
0.462229 0.013912 0.013912
0.463124 0.014807 0.099766
0.464271 0.015954 0.209761
0.465460 0.017143 0.323776
0.466677 0.018359 0.440398
0.467913 0.019596 0.558968
0.469166 0.020849 0.679102
0.470432 0.022115 0.800546
0.471425 0.023108 0.895739
0.466890 0.063217 0.018572
0.467785 0.064112 0.104426
0.468932 0.065259 0.214421
0.470121 0.066448 0.328437
0.471337 0.067664 0.445058
0.472574 0.068901 0.563628
0.473826 0.070153 0.683763
0.475093 0.071420 0.805206
0.476086 0.072413 0.900400
0.477996 0.180720 0.029679
0.478892 0.181616 0.115533
0.480039 0.182763 0.225528
0.481228 0.183952 0.339544
0.482444 0.185168 0.456165
0.483680 0.186404 0.574735
0.484933 0.187657 0.694869
0.486200 0.188924 0.816313
0.487192 0.189916 0.911506
0.489639 0.303893 0.041321
0.490534 0.304788 0.127176
0.491681 0.305935 0.237171
0.492870 0.307124 0.351186
0.494086 0.308340 0.467807
0.495323 0.309577 0.586378
0.496576 0.310830 0.706512
0.497842 0.312096 0.827956
0.498835 0.313089 0.923149
0.501592 0.430353 0.053275
0.502488 0.431248 0.139129
0.503635 0.432395 0.249124
0.504824 0.433584 0.363139
0.506040 0.434800 0.479761
0.507276 0.436037 0.598331
0.508529 0.437290 0.718465
0.509796 0.438556 0.839909
0.510788 0.439549 0.935102
0.513768 0.559171 0.065451
0.514664 0.560066 0.151305
0.515811 0.561213 0.261300
0.517000 0.562402 0.375316
0.518216 0.563618 0.491937
0.519452 0.564855 0.610507
0.520705 0.566108 0.730641
0.521972 0.567374 0.852085
0.522964 0.568367 0.947279
0.526120 0.689839 0.077802
0.527015 0.690735 0.163656
0.528162 0.691882 0.273651
0.529351 0.693071 0.387667
0.530567 0.694287 0.504288
0.531804 0.695523 0.622858
0.533056 0.696776 0.742993
0.534323 0.698043 0.864436
0.535316 0.699035 0.959630
0.538615 0.822035 0.090298
0.539510 0.822930 0.176152
0.540657 0.824077 0.286147
0.541846 0.825266 0.400162
0.543063 0.826482 0.516783
0.544299 0.827719 0.635354
0.545552 0.828971 0.755488
0.546818 0.830238 0.876932
0.547811 0.831231 0.972125
0.551234 0.955532 0.102916
0.552129 0.956428 0.188770
0.553276 0.957575 0.298765
0.554465 0.958764 0.412781
0.555681 0.959980 0.529402
0.556918 0.961217 0.647972
0.558170 0.962469 0.768107
0.559437 0.963736 0.889550
0.560430 0.964728 0.984744
0.583591 0.017564 0.017564
0.584487 0.018460 0.103418
0.585634 0.019607 0.213414
0.586823 0.020796 0.327429
0.588039 0.022012 0.444050
0.589275 0.023248 0.562620
0.590528 0.024501 0.682755
0.591795 0.025768 0.804199
0.592787 0.026760 0.899392
0.588252 0.066869 0.022225
0.589147 0.067765 0.108079
0.590294 0.068912 0.218074
0.591483 0.070101 0.332089
0.592699 0.071317 0.448711
0.593936 0.072553 0.567281
0.595189 0.073806 0.687415
0.596455 0.075072 0.808859
0.597448 0.076065 0.904052
0.599359 0.184373 0.033332
0.600254 0.185268 0.119186
0.601401 0.186415 0.229181
0.602590 0.187604 0.343196
0.603806 0.188820 0.459817
0.605043 0.190057 0.578388
0.606295 0.191310 0.698522
0.607562 0.192576 0.819966
0.608555 0.193569 0.915159
0.611001 0.307545 0.044974
0.611897 0.308441 0.130828
0.613044 0.309588 0.240823
0.614233 0.310777 0.354839
0.615449 0.311993 0.471460
0.616685 0.313229 0.590030
0.617938 0.314482 0.710165
0.619205 0.315749 0.831608
0.620197 0.316741 0.926802
0.622955 0.434005 0.056927
0.623850 0.434901 0.142782
0.624997 0.436048 0.252777
0.626186 0.437237 0.366792
0.627402 0.438453 0.483413
0.628639 0.439689 0.601984
0.629891 0.440942 0.722118
0.631158 0.442209 0.843562
0.632151 0.443201 0.938755
0.635131 0.562824 0.069104
0.636026 0.563719 0.154958
0.637173 0.564866 0.264953
0.638362 0.566055 0.378968
0.639578 0.567271 0.495590
0.640815 0.568508 0.614160
0.642068 0.569760 0.734294
0.643334 0.571027 0.855738
0.644327 0.572020 0.950931
0.647482 0.693492 0.081455
0.648377 0.694387 0.167309
0.649524 0.695534 0.277304
0.650713 0.696723 0.391319
0.651929 0.697939 0.507941
0.653166 0.699176 0.626511
0.654419 0.700429 0.746645
0.655685 0.701695 0.868089
0.656678 0.702688 0.963282
0.659977 0.825687 0.093950
0.660873 0.826582 0.179804
0.662020 0.827730 0.289799
0.663209 0.828919 0.403815
0.664425 0.830135 0.520436
0.665661 0.831371 0.639006
0.666914 0.832624 0.759141
0.668181 0.833890 0.880584
0.669173 0.834883 0.975778
0.672596 0.959185 0.106569
0.673491 0.960080 0.192423
0.674638 0.961228 0.302418
0.675827 0.962417 0.416433
0.677044 0.963633 0.533055
0.678280 0.964869 0.651625
0.679533 0.966122 0.771759
0.680799 0.967388 0.893203
0.681792 0.968381 0.988396
0.706482 0.021263 0.021263
0.707378 0.022158 0.107117
0.708525 0.023305 0.217112
0.709714 0.024494 0.331128
0.710930 0.025710 0.447749
0.712166 0.026947 0.566319
0.713419 0.028200 0.686453
0.714686 0.029466 0.807897
0.715678 0.030459 0.903091
0.711143 0.070568 0.025923
0.712038 0.071463 0.111778
0.713185 0.072610 0.221773
0.714374 0.073799 0.335788
0.715590 0.075015 0.452409
0.716827 0.076252 0.570980
0.718080 0.077505 0.691114
0.719346 0.078771 0.812558
0.720339 0.079764 0.907751
0.722249 0.188072 0.037030
0.723145 0.188967 0.122884
0.724292 0.190114 0.232879
0.725481 0.191303 0.346895
0.726697 0.192519 0.463516
0.727934 0.193756 0.582086
0.729186 0.195008 0.702221
0.730453 0.196275 0.823664
0.731445 0.197268 0.918858
0.733892 0.311244 0.048673
0.734787 0.312139 0.134527
0.735934 0.313286 0.244522
0.737123 0.314475 0.358537
0.738340 0.315691 0.475159
0.739576 0.316928 0.593729
0.740829 0.318181 0.713863
0.742095 0.319447 0.835307
0.743088 0.320440 0.930500
0.745845 0.437704 0.060626
0.746741 0.438599 0.146480
0.747888 0.439746 0.256475
0.749077 0.440935 0.370491
0.750293 0.442152 0.487112
0.751529 0.443388 0.605682
0.752782 0.444641 0.725816
0.754049 0.445907 0.847260
0.755041 0.446900 0.942454
0.758022 0.566522 0.072802
0.758917 0.567418 0.158656
0.760064 0.568565 0.268652
0.761253 0.569754 0.382667
0.762469 0.570970 0.499288
0.763706 0.572206 0.617858
0.764958 0.573459 0.737993
0.766225 0.574726 0.859437
0.767218 0.575718 0.954630
0.770373 0.697190 0.085153
0.771268 0.698086 0.171008
0.772415 0.699233 0.281003
0.773604 0.700422 0.395018
0.774820 0.701638 0.511639
0.776057 0.702875 0.630210
0.777310 0.704127 0.750344
0.778576 0.705394 0.871788
0.779569 0.706386 0.966981
0.782868 0.829386 0.097649
0.783764 0.830281 0.183503
0.784911 0.831428 0.293498
0.786100 0.832617 0.407514
0.787316 0.833833 0.524135
0.788552 0.835070 0.642705
0.789805 0.836323 0.762839
0.791071 0.837589 0.884283
0.792064 0.838582 0.979476
0.795487 0.962884 0.110267
0.796382 0.963779 0.196122
0.797529 0.964926 0.306117
0.798718 0.966115 0.420132
0.799934 0.967331 0.536753
0.801171 0.968568 0.655324
0.802424 0.969821 0.775458
0.803690 0.971087 0.896902
0.804683 0.972080 0.992095
0.830662 0.025000 0.025000
0.831558 0.025896 0.110855
0.832705 0.027043 0.220850
0.833894 0.028232 0.334865
0.835110 0.029448 0.451486
0.836346 0.030684 0.570057
0.837599 0.031937 0.690191
0.838866 0.033204 0.811635
0.839858 0.034196 0.906828
0.835323 0.074305 0.029661
0.836218 0.075201 0.115515
0.837365 0.076348 0.225510
0.838554 0.077537 0.339525
0.839770 0.078753 0.456147
0.841007 0.079989 0.574717
0.842260 0.081242 0.694851
0.843526 0.082509 0.816295
0.844519 0.083501 0.911488
0.846430 0.191809 0.040768
0.847325 0.192704 0.126622
0.848472 0.193851 0.236617
0.849661 0.195040 0.350632
0.850877 0.196257 0.467253
0.852114 0.197493 0.585824
0.853366 0.198746 0.705958
0.854633 0.200012 0.827402
0.855626 0.201005 0.922595
0.858072 0.314981 0.052410
0.858967 0.315877 0.138264
0.860115 0.317024 0.248259
0.861303 0.318213 0.362275
0.862520 0.319429 0.478896
0.863756 0.320665 0.597466
0.865009 0.321918 0.717601
0.866275 0.323185 0.839044
0.867268 0.324177 0.934238
0.870025 0.441441 0.064364
0.870921 0.442337 0.150218
0.872068 0.443484 0.260213
0.873257 0.444673 0.374228
0.874473 0.445889 0.490849
0.875709 0.447125 0.609420
0.876962 0.448378 0.729554
0.878229 0.449645 0.850998
0.879221 0.450637 0.946191
0.882202 0.570260 0.076540
0.883097 0.571155 0.162394
0.884244 0.572302 0.272389
0.885433 0.573491 0.386404
0.886649 0.574707 0.503026
0.887886 0.575944 0.621596
0.889139 0.577196 0.741730
0.890405 0.578463 0.863174
0.891398 0.579456 0.958367
0.894553 0.700928 0.088891
0.895448 0.701823 0.174745
0.896595 0.702970 0.284740
0.897784 0.704159 0.398756
0.899000 0.705375 0.515377
0.900237 0.706612 0.633947
0.901490 0.707865 0.754081
0.902756 0.709131 0.875525
0.903749 0.710124 0.970718
0.907048 0.833123 0.101386
0.907944 0.834019 0.187240
0.909091 0.835166 0.297236
0.910280 0.836355 0.411251
0.911496 0.837571 0.527872
0.912732 0.838807 0.646442
0.913985 0.840060 0.766577
0.915252 0.841327 0.888021
0.916244 0.842319 0.983214
0.919667 0.966621 0.114005
0.920562 0.967517 0.199859
0.921709 0.968664 0.309854
0.922898 0.969853 0.423870
0.924114 0.971069 0.540491
0.925351 0.972305 0.659061
0.926604 0.973558 0.779195
0.927870 0.974825 0.900639
0.928863 0.975817 0.995832
