skills/editops-orchestrator/assets/grade/luts/night_blue_v20.cube
TITLE "night_blue_v20"
LUT_3D_SIZE 17
DOMAIN_MIN 0.0 0.0 0.0
DOMAIN_MAX 1.0 1.0 1.0
0.000000 0.000000 0.000000
0.000359 0.000359 0.023023
0.001098 0.001098 0.070401
0.001890 0.001890 0.121149
0.002714 0.002714 0.173966
0.003562 0.003562 0.228304
0.004429 0.004429 0.283854
0.005311 0.005311 0.340416
0.006207 0.006207 0.397850
0.007115 0.007115 0.456049
0.008034 0.008034 0.514933
0.008962 0.008962 0.574437
0.009899 0.009899 0.634507
0.010845 0.010845 0.695100
0.011798 0.011798 0.756177
0.012757 0.012757 0.817707
0.012996 0.012996 0.832996
0.000000 0.000000 0.000000
0.000359 0.000359 0.023023
0.001098 0.001098 0.070401
0.001890 0.001890 0.121149
0.002714 0.002714 0.173966
0.003562 0.003562 0.228304
0.004429 0.004429 0.283854
0.005311 0.005311 0.340416
0.006207 0.006207 0.397850
0.007115 0.007115 0.456049
0.008034 0.008034 0.514933
0.008962 0.008962 0.574437
0.009899 0.009899 0.634507
0.010845 0.010845 0.695100
0.011798 0.011798 0.756177
0.012757 0.012757 0.817707
0.012996 0.012996 0.832996
0.001684 0.012409 0.001684
0.002043 0.012768 0.024707
0.002782 0.013507 0.072084
0.003574 0.014299 0.122833
0.004398 0.015123 0.175650
0.005246 0.015971 0.229988
0.006112 0.016837 0.285538
0.006995 0.017720 0.342100
0.007891 0.018616 0.399533
0.008799 0.019524 0.457733
0.009718 0.020442 0.516617
0.010646 0.021371 0.576121
0.011583 0.022308 0.636191
0.012528 0.023253 0.696784
0.013481 0.024206 0.757861
0.014441 0.025166 0.819390
0.014680 0.025405 0.834680
0.008762 0.064575 0.008762
0.009122 0.064935 0.031785
0.009861 0.065674 0.079163
0.010652 0.066466 0.129912
0.011477 0.067290 0.182729
0.012324 0.068137 0.237067
0.013191 0.069004 0.292617
0.014073 0.069886 0.349179
0.014969 0.070782 0.406612
0.015877 0.071690 0.464811
0.016796 0.072609 0.523695
0.017724 0.073537 0.583199
0.018662 0.074475 0.643270
0.019607 0.075420 0.703862
0.020560 0.076373 0.764940
0.021520 0.077333 0.826469
0.021758 0.077571 0.841758
0.016490 0.121523 0.016490
0.016849 0.121882 0.039513
0.017588 0.122621 0.086890
0.018380 0.123413 0.137639
0.019204 0.124237 0.190456
0.020052 0.125085 0.244794
0.020918 0.125951 0.300344
0.021801 0.126834 0.356906
0.022697 0.127730 0.414339
0.023605 0.128638 0.472539
0.024523 0.129556 0.531423
0.025452 0.130485 0.590927
0.026389 0.131422 0.650997
0.027334 0.132367 0.711590
0.028287 0.133320 0.772667
0.029247 0.134280 0.834196
0.029486 0.134519 0.849486
0.024574 0.181100 0.024574
0.024933 0.181459 0.047597
0.025672 0.182198 0.094975
0.026464 0.182990 0.145723
0.027288 0.183814 0.198540
0.028136 0.184662 0.252878
0.029002 0.185529 0.308428
0.029885 0.186411 0.364990
0.030781 0.187307 0.422423
0.031689 0.188215 0.480623
0.032608 0.189134 0.539507
0.033536 0.190062 0.599011
0.034473 0.190999 0.659081
0.035418 0.191945 0.719674
0.036371 0.192897 0.780751
0.037331 0.193857 0.842281
0.037570 0.194096 0.857570
0.032912 0.242546 0.032912
0.033271 0.242905 0.055935
0.034010 0.243644 0.103312
0.034802 0.244436 0.154061
0.035626 0.245260 0.206878
0.036473 0.246108 0.261216
0.037340 0.246974 0.316766
0.038223 0.247857 0.373328
0.039119 0.248753 0.430761
0.040027 0.249661 0.488960
0.040945 0.250580 0.547845
0.041874 0.251508 0.607348
0.042811 0.252445 0.667419
0.043756 0.253390 0.728012
0.044709 0.254343 0.789089
0.045669 0.255303 0.850618
0.045908 0.255542 0.865908
0.041448 0.305455 0.041448
0.041807 0.305814 0.064471
0.042546 0.306553 0.111849
0.043338 0.307345 0.162597
0.044162 0.308169 0.215414
0.045010 0.309016 0.269752
0.045876 0.309883 0.325302
0.046759 0.310766 0.381864
0.047655 0.311662 0.439297
0.048563 0.312570 0.497497
0.049482 0.313488 0.556381
0.050410 0.314417 0.615885
0.051347 0.315354 0.675955
0.052292 0.316299 0.736548
0.053245 0.317252 0.797625
0.054205 0.318212 0.859154
0.054444 0.318451 0.874444
0.050148 0.369571 0.050148
0.050507 0.369931 0.073171
0.051246 0.370670 0.120549
0.052038 0.371461 0.171297
0.052862 0.372285 0.224114
0.053710 0.373133 0.278452
0.054576 0.374000 0.334002
0.055459 0.374882 0.390564
0.056355 0.375778 0.447997
0.057263 0.376686 0.506197
0.058182 0.377605 0.565081
0.059110 0.378533 0.624585
0.060047 0.379471 0.684655
0.060993 0.380416 0.745248
0.061945 0.381369 0.806325
0.062905 0.382329 0.867855
0.063144 0.382567 0.883144
0.058988 0.434720 0.058988
0.059347 0.435079 0.082011
0.060086 0.435819 0.129389
0.060878 0.436610 0.180138
0.061702 0.437434 0.232954
0.062550 0.438282 0.287292
0.063417 0.439149 0.342842
0.064299 0.440031 0.399404
0.065195 0.440927 0.456838
0.066103 0.441835 0.515037
0.067022 0.442754 0.573921
0.067950 0.443682 0.633425
0.068887 0.444620 0.693496
0.069833 0.445565 0.754088
0.070786 0.446518 0.815165
0.071746 0.447478 0.876695
0.071984 0.447716 0.891984
0.067951 0.500772 0.067951
0.068310 0.501131 0.090974
0.069049 0.501870 0.138352
0.069841 0.502662 0.189100
0.070665 0.503486 0.241917
0.071513 0.504334 0.296255
0.072379 0.505201 0.351805
0.073262 0.506083 0.408367
0.074158 0.506979 0.465800
0.075066 0.507887 0.524000
0.075985 0.508806 0.582884
0.076913 0.509734 0.642388
0.077850 0.510671 0.702458
0.078795 0.511617 0.763051
0.079748 0.512570 0.824128
0.080708 0.513530 0.885658
0.080947 0.513768 0.900947
0.077023 0.567628 0.077023
0.077382 0.567987 0.100046
0.078121 0.568726 0.147423
0.078913 0.569518 0.198172
0.079737 0.570342 0.250989
0.080584 0.571189 0.305327
0.081451 0.572056 0.360877
0.082334 0.572939 0.417439
0.083230 0.573835 0.474872
0.084138 0.574743 0.533072
0.085056 0.575661 0.591956
0.085985 0.576590 0.651460
0.086922 0.577527 0.711530
0.087867 0.578472 0.772123
0.088820 0.579425 0.833200
0.089780 0.580385 0.894729
0.090019 0.580624 0.910019
0.086193 0.635208 0.086193
0.086552 0.635567 0.109216
0.087291 0.636307 0.156593
0.088083 0.637098 0.207342
0.088907 0.637922 0.260159
0.089755 0.638770 0.314497
0.090621 0.639637 0.370047
0.091504 0.640519 0.426609
0.092400 0.641415 0.484042
0.093308 0.642323 0.542242
0.094226 0.643242 0.601126
0.095155 0.644170 0.660630
0.096092 0.645107 0.720700
0.097037 0.646053 0.781293
0.097990 0.647006 0.842370
0.098950 0.647966 0.903899
0.099189 0.648204 0.919189
0.095453 0.703450 0.095453
0.095812 0.703809 0.118476
0.096551 0.704548 0.165853
0.097343 0.705340 0.216602
0.098167 0.706164 0.269419
0.099014 0.707012 0.323757
0.099881 0.707878 0.379307
0.100764 0.708761 0.435869
0.101660 0.709657 0.493302
0.102568 0.710565 0.551502
0.103486 0.711484 0.610386
0.104415 0.712412 0.669890
0.105352 0.713349 0.729960
0.106297 0.714294 0.790553
0.107250 0.715247 0.851630
0.108210 0.716207 0.913159
0.108449 0.716446 0.928449
0.104795 0.772300 0.104795
0.105154 0.772659 0.127818
0.105893 0.773398 0.175196
0.106685 0.774190 0.225944
0.107509 0.775014 0.278761
0.108357 0.775861 0.333099
0.109224 0.776728 0.388649
0.110106 0.777611 0.445211
0.111002 0.778507 0.502645
0.111910 0.779415 0.560844
0.112829 0.780333 0.619728
0.113757 0.781262 0.679232
0.114694 0.782199 0.739302
0.115640 0.783144 0.799895
0.116592 0.784097 0.860972
0.117552 0.785057 0.922502
0.117791 0.785296 0.937791
0.114214 0.841713 0.114214
0.114573 0.842072 0.137237
0.115312 0.842811 0.184614
0.116104 0.843603 0.235363
0.116928 0.844427 0.288180
0.117776 0.845274 0.342518
0.118642 0.846141 0.398068
0.119525 0.847024 0.454630
0.120421 0.847920 0.512063
0.121329 0.848828 0.570263
0.122247 0.849746 0.629147
0.123176 0.850675 0.688651
0.124113 0.851612 0.748721
0.125058 0.852557 0.809314
0.126011 0.853510 0.870391
0.126971 0.854470 0.931920
0.127210 0.854709 0.947210
0.123704 0.911650 0.123704
0.124063 0.912010 0.146727
0.124802 0.912749 0.194104
0.125594 0.913540 0.244853
0.126418 0.914364 0.297670
0.127266 0.915212 0.352008
0.128132 0.916079 0.407558
0.129015 0.916961 0.464120
0.129911 0.917857 0.521553
0.130819 0.918765 0.579753
0.131738 0.919684 0.638637
0.132666 0.920612 0.698141
0.133603 0.921550 0.758211
0.134548 0.922495 0.818804
0.135501 0.923448 0.879881
0.136461 0.924408 0.941410
0.136700 0.924646 0.956700
0.000000 0.000000 0.000000
0.000359 0.000359 0.023023
0.001098 0.001098 0.070401
0.001890 0.001890 0.121149
0.002714 0.002714 0.173966
0.003562 0.003562 0.228304
0.004429 0.004429 0.283854
0.005311 0.005311 0.340416
0.006207 0.006207 0.397850
0.007115 0.007115 0.456049
0.008034 0.008034 0.514933
0.008962 0.008962 0.574437
0.009899 0.009899 0.634507
0.010845 0.010845 0.695100
0.011798 0.011798 0.756177
0.012757 0.012757 0.817707
0.012996 0.012996 0.832996
0.000000 0.000000 0.000000
0.000359 0.000359 0.023023
0.001098 0.001098 0.070401
0.001890 0.001890 0.121149
0.002714 0.002714 0.173966
0.003562 0.003562 0.228304
0.004429 0.004429 0.283854
0.005311 0.005311 0.340416
0.006207 0.006207 0.397850
0.007115 0.007115 0.456049
0.008034 0.008034 0.514933
0.008962 0.008962 0.574437
0.009899 0.009899 0.634507
0.010845 0.010845 0.695100
0.011798 0.011798 0.756177
0.012757 0.012757 0.817707
0.012996 0.012996 0.832996
0.001684 0.012409 0.001684
0.002043 0.012768 0.024707
0.002782 0.013507 0.072084
0.003574 0.014299 0.122833
0.004398 0.015123 0.175650
0.005246 0.015971 0.229988
0.006112 0.016837 0.285538
0.006995 0.017720 0.342100
0.007891 0.018616 0.399533
0.008799 0.019524 0.457733
0.009718 0.020442 0.516617
0.010646 0.021371 0.576121
0.011583 0.022308 0.636191
0.012528 0.023253 0.696784
0.013481 0.024206 0.757861
0.014441 0.025166 0.819390
0.014680 0.025405 0.834680
0.008762 0.064575 0.008762
0.009122 0.064935 0.031785
0.009861 0.065674 0.079163
0.010652 0.066466 0.129912
0.011477 0.067290 0.182729
0.012324 0.068137 0.237067
0.013191 0.069004 0.292617
0.014073 0.069886 0.349179
0.014969 0.070782 0.406612
0.015877 0.071690 0.464811
0.016796 0.072609 0.523695
0.017724 0.073537 0.583199
0.018662 0.074475 0.643270
0.019607 0.075420 0.703862
0.020560 0.076373 0.764940
0.021520 0.077333 0.826469
0.021758 0.077571 0.841758
0.016490 0.121523 0.016490
0.016849 0.121882 0.039513
0.017588 0.122621 0.086890
0.018380 0.123413 0.137639
0.019204 0.124237 0.190456
0.020052 0.125085 0.244794
0.020918 0.125951 0.300344
0.021801 0.126834 0.356906
0.022697 0.127730 0.414339
0.023605 0.128638 0.472539
0.024523 0.129556 0.531423
0.025452 0.130485 0.590927
0.026389 0.131422 0.650997
0.027334 0.132367 0.711590
0.028287 0.133320 0.772667
0.029247 0.134280 0.834196
0.029486 0.134519 0.849486
0.024574 0.181100 0.024574
0.024933 0.181459 0.047597
0.025672 0.182198 0.094975
0.026464 0.182990 0.145723
0.027288 0.183814 0.198540
0.028136 0.184662 0.252878
0.029002 0.185529 0.308428
0.029885 0.186411 0.364990
0.030781 0.187307 0.422423
0.031689 0.188215 0.480623
0.032608 0.189134 0.539507
0.033536 0.190062 0.599011
0.034473 0.190999 0.659081
0.035418 0.191945 0.719674
0.036371 0.192897 0.780751
0.037331 0.193857 0.842281
0.037570 0.194096 0.857570
0.032912 0.242546 0.032912
0.033271 0.242905 0.055935
0.034010 0.243644 0.103312
0.034802 0.244436 0.154061
0.035626 0.245260 0.206878
0.036473 0.246108 0.261216
0.037340 0.246974 0.316766
0.038223 0.247857 0.373328
0.039119 0.248753 0.430761
0.040027 0.249661 0.488960
0.040945 0.250580 0.547845
0.041874 0.251508 0.607348
0.042811 0.252445 0.667419
0.043756 0.253390 0.728012
0.044709 0.254343 0.789089
0.045669 0.255303 0.850618
0.045908 0.255542 0.865908
0.041448 0.305455 0.041448
0.041807 0.305814 0.064471
0.042546 0.306553 0.111849
0.043338 0.307345 0.162597
0.044162 0.308169 0.215414
0.045010 0.309016 0.269752
0.045876 0.309883 0.325302
0.046759 0.310766 0.381864
0.047655 0.311662 0.439297
0.048563 0.312570 0.497497
0.049482 0.313488 0.556381
0.050410 0.314417 0.615885
0.051347 0.315354 0.675955
0.052292 0.316299 0.736548
0.053245 0.317252 0.797625
0.054205 0.318212 0.859154
0.054444 0.318451 0.874444
0.050148 0.369571 0.050148
0.050507 0.369931 0.073171
0.051246 0.370670 0.120549
0.052038 0.371461 0.171297
0.052862 0.372285 0.224114
0.053710 0.373133 0.278452
0.054576 0.374000 0.334002
0.055459 0.374882 0.390564
0.056355 0.375778 0.447997
0.057263 0.376686 0.506197
0.058182 0.377605 0.565081
0.059110 0.378533 0.624585
0.060047 0.379471 0.684655
0.060993 0.380416 0.745248
0.061945 0.381369 0.806325
0.062905 0.382329 0.867855
0.063144 0.382567 0.883144
0.058988 0.434720 0.058988
0.059347 0.435079 0.082011
0.060086 0.435819 0.129389
0.060878 0.436610 0.180138
0.061702 0.437434 0.232954
0.062550 0.438282 0.287292
0.063417 0.439149 0.342842
0.064299 0.440031 0.399404
0.065195 0.440927 0.456838
0.066103 0.441835 0.515037
0.067022 0.442754 0.573921
0.067950 0.443682 0.633425
0.068887 0.444620 0.693496
0.069833 0.445565 0.754088
0.070786 0.446518 0.815165
0.071746 0.447478 0.876695
0.071984 0.447716 0.891984
0.067951 0.500772 0.067951
0.068310 0.501131 0.090974
0.069049 0.501870 0.138352
0.069841 0.502662 0.189100
0.070665 0.503486 0.241917
0.071513 0.504334 0.296255
0.072379 0.505201 0.351805
0.073262 0.506083 0.408367
0.074158 0.506979 0.465800
0.075066 0.507887 0.524000
0.075985 0.508806 0.582884
0.076913 0.509734 0.642388
0.077850 0.510671 0.702458
0.078795 0.511617 0.763051
0.079748 0.512570 0.824128
0.080708 0.513530 0.885658
0.080947 0.513768 0.900947
0.077023 0.567628 0.077023
0.077382 0.567987 0.100046
0.078121 0.568726 0.147423
0.078913 0.569518 0.198172
0.079737 0.570342 0.250989
0.080584 0.571189 0.305327
0.081451 0.572056 0.360877
0.082334 0.572939 0.417439
0.083230 0.573835 0.474872
0.084138 0.574743 0.533072
0.085056 0.575661 0.591956
0.085985 0.576590 0.651460
0.086922 0.577527 0.711530
0.087867 0.578472 0.772123
0.088820 0.579425 0.833200
0.089780 0.580385 0.894729
0.090019 0.580624 0.910019
0.086193 0.635208 0.086193
0.086552 0.635567 0.109216
0.087291 0.636307 0.156593
0.088083 0.637098 0.207342
0.088907 0.637922 0.260159
0.089755 0.638770 0.314497
0.090621 0.639637 0.370047
0.091504 0.640519 0.426609
0.092400 0.641415 0.484042
0.093308 0.642323 0.542242
0.094226 0.643242 0.601126
0.095155 0.644170 0.660630
0.096092 0.645107 0.720700
0.097037 0.646053 0.781293
0.097990 0.647006 0.842370
0.098950 0.647966 0.903899
0.099189 0.648204 0.919189
0.095453 0.703450 0.095453
0.095812 0.703809 0.118476
0.096551 0.704548 0.165853
0.097343 0.705340 0.216602
0.098167 0.706164 0.269419
0.099014 0.707012 0.323757
0.099881 0.707878 0.379307
0.100764 0.708761 0.435869
0.101660 0.709657 0.493302
0.102568 0.710565 0.551502
0.103486 0.711484 0.610386
0.104415 0.712412 0.669890
0.105352 0.713349 0.729960
0.106297 0.714294 0.790553
0.107250 0.715247 0.851630
0.108210 0.716207 0.913159
0.108449 0.716446 0.928449
0.104795 0.772300 0.104795
0.105154 0.772659 0.127818
0.105893 0.773398 0.175196
0.106685 0.774190 0.225944
0.107509 0.775014 0.278761
0.108357 0.775861 0.333099
0.109224 0.776728 0.388649
0.110106 0.777611 0.445211
0.111002 0.778507 0.502645
0.111910 0.779415 0.560844
0.112829 0.780333 0.619728
0.113757 0.781262 0.679232
0.114694 0.782199 0.739302
0.115640 0.783144 0.799895
0.116592 0.784097 0.860972
0.117552 0.785057 0.922502
0.117791 0.785296 0.937791
0.114214 0.841713 0.114214
0.114573 0.842072 0.137237
0.115312 0.842811 0.184614
0.116104 0.843603 0.235363
0.116928 0.844427 0.288180
0.117776 0.845274 0.342518
0.118642 0.846141 0.398068
0.119525 0.847024 0.454630
0.120421 0.847920 0.512063
0.121329 0.848828 0.570263
0.122247 0.849746 0.629147
0.123176 0.850675 0.688651
0.124113 0.851612 0.748721
0.125058 0.852557 0.809314
0.126011 0.853510 0.870391
0.126971 0.854470 0.931920
0.127210 0.854709 0.947210
0.123704 0.911650 0.123704
0.124063 0.912010 0.146727
0.124802 0.912749 0.194104
0.125594 0.913540 0.244853
0.126418 0.914364 0.297670
0.127266 0.915212 0.352008
0.128132 0.916079 0.407558
0.129015 0.916961 0.464120
0.129911 0.917857 0.521553
0.130819 0.918765 0.579753
0.131738 0.919684 0.638637
0.132666 0.920612 0.698141
0.133603 0.921550 0.758211
0.134548 0.922495 0.818804
0.135501 0.923448 0.879881
0.136461 0.924408 0.941410
0.136700 0.924646 0.956700
0.000000 0.000000 0.000000
0.000359 0.000359 0.023023
0.001098 0.001098 0.070401
0.001890 0.001890 0.121149
0.002714 0.002714 0.173966
0.003562 0.003562 0.228304
0.004429 0.004429 0.283854
0.005311 0.005311 0.340416
0.006207 0.006207 0.397850
0.007115 0.007115 0.456049
0.008034 0.008034 0.514933
0.008962 0.008962 0.574437
0.009899 0.009899 0.634507
0.010845 0.010845 0.695100
0.011798 0.011798 0.756177
0.012757 0.012757 0.817707
0.012996 0.012996 0.832996
0.000000 0.000000 0.000000
0.000359 0.000359 0.023023
0.001098 0.001098 0.070401
0.001890 0.001890 0.121149
0.002714 0.002714 0.173966
0.003562 0.003562 0.228304
0.004429 0.004429 0.283854
0.005311 0.005311 0.340416
0.006207 0.006207 0.397850
0.007115 0.007115 0.456049
0.008034 0.008034 0.514933
0.008962 0.008962 0.574437
0.009899 0.009899 0.634507
0.010845 0.010845 0.695100
0.011798 0.011798 0.756177
0.012757 0.012757 0.817707
0.012996 0.012996 0.832996
0.001684 0.012409 0.001684
0.002043 0.012768 0.024707
0.002782 0.013507 0.072084
0.003574 0.014299 0.122833
0.004398 0.015123 0.175650
0.005246 0.015971 0.229988
0.006112 0.016837 0.285538
0.006995 0.017720 0.342100
0.007891 0.018616 0.399533
0.008799 0.019524 0.457733
0.009718 0.020442 0.516617
0.010646 0.021371 0.576121
0.011583 0.022308 0.636191
0.012528 0.023253 0.696784
0.013481 0.024206 0.757861
0.014441 0.025166 0.819390
0.014680 0.025405 0.834680
0.008762 0.064575 0.008762
0.009122 0.064935 0.031785
0.009861 0.065674 0.079163
0.010652 0.066466 0.129912
0.011477 0.067290 0.182729
0.012324 0.068137 0.237067
0.013191 0.069004 0.292617
0.014073 0.069886 0.349179
0.014969 0.070782 0.406612
0.015877 0.071690 0.464811
0.016796 0.072609 0.523695
0.017724 0.073537 0.583199
0.018662 0.074475 0.643270
0.019607 0.075420 0.703862
0.020560 0.076373 0.764940
0.021520 0.077333 0.826469
0.021758 0.077571 0.841758
0.016490 0.121523 0.016490
0.016849 0.121882 0.039513
0.017588 0.122621 0.086890
0.018380 0.123413 0.137639
0.019204 0.124237 0.190456
0.020052 0.125085 0.244794
0.020918 0.125951 0.300344
0.021801 0.126834 0.356906
0.022697 0.127730 0.414339
0.023605 0.128638 0.472539
0.024523 0.129556 0.531423
0.025452 0.130485 0.590927
0.026389 0.131422 0.650997
0.027334 0.132367 0.711590
0.028287 0.133320 0.772667
0.029247 0.134280 0.834196
0.029486 0.134519 0.849486
0.024574 0.181100 0.024574
0.024933 0.181459 0.047597
0.025672 0.182198 0.094975
0.026464 0.182990 0.145723
0.027288 0.183814 0.198540
0.028136 0.184662 0.252878
0.029002 0.185529 0.308428
0.029885 0.186411 0.364990
0.030781 0.187307 0.422423
0.031689 0.188215 0.480623
0.032608 0.189134 0.539507
0.033536 0.190062 0.599011
0.034473 0.190999 0.659081
0.035418 0.191945 0.719674
0.036371 0.192897 0.780751
0.037331 0.193857 0.842281
0.037570 0.194096 0.857570
0.032912 0.242546 0.032912
0.033271 0.242905 0.055935
0.034010 0.243644 0.103312
0.034802 0.244436 0.154061
0.035626 0.245260 0.206878
0.036473 0.246108 0.261216
0.037340 0.246974 0.316766
0.038223 0.247857 0.373328
0.039119 0.248753 0.430761
0.040027 0.249661 0.488960
0.040945 0.250580 0.547845
0.041874 0.251508 0.607348
0.042811 0.252445 0.667419
0.043756 0.253390 0.728012
0.044709 0.254343 0.789089
0.045669 0.255303 0.850618
0.045908 0.255542 0.865908
0.041448 0.305455 0.041448
0.041807 0.305814 0.064471
0.042546 0.306553 0.111849
0.043338 0.307345 0.162597
0.044162 0.308169 0.215414
0.045010 0.309016 0.269752
0.045876 0.309883 0.325302
0.046759 0.310766 0.381864
0.047655 0.311662 0.439297
0.048563 0.312570 0.497497
0.049482 0.313488 0.556381
0.050410 0.314417 0.615885
0.051347 0.315354 0.675955
0.052292 0.316299 0.736548
0.053245 0.317252 0.797625
0.054205 0.318212 0.859154
0.054444 0.318451 0.874444
0.050148 0.369571 0.050148
0.050507 0.369931 0.073171
0.051246 0.370670 0.120549
0.052038 0.371461 0.171297
0.052862 0.372285 0.224114
0.053710 0.373133 0.278452
0.054576 0.374000 0.334002
0.055459 0.374882 0.390564
0.056355 0.375778 0.447997
0.057263 0.376686 0.506197
0.058182 0.377605 0.565081
0.059110 0.378533 0.624585
0.060047 0.379471 0.684655
0.060993 0.380416 0.745248
0.061945 0.381369 0.806325
0.062905 0.382329 0.867855
0.063144 0.382567 0.883144
0.058988 0.434720 0.058988
0.059347 0.435079 0.082011
0.060086 0.435819 0.129389
0.060878 0.436610 0.180138
0.061702 0.437434 0.232954
0.062550 0.438282 0.287292
0.063417 0.439149 0.342842
0.064299 0.440031 0.399404
0.065195 0.440927 0.456838
0.066103 0.441835 0.515037
0.067022 0.442754 0.573921
0.067950 0.443682 0.633425
0.068887 0.444620 0.693496
0.069833 0.445565 0.754088
0.070786 0.446518 0.815165
0.071746 0.447478 0.876695
0.071984 0.447716 0.891984
0.067951 0.500772 0.067951
0.068310 0.501131 0.090974
0.069049 0.501870 0.138352
0.069841 0.502662 0.189100
0.070665 0.503486 0.241917
0.071513 0.504334 0.296255
0.072379 0.505201 0.351805
0.073262 0.506083 0.408367
0.074158 0.506979 0.465800
0.075066 0.507887 0.524000
0.075985 0.508806 0.582884
0.076913 0.509734 0.642388
0.077850 0.510671 0.702458
0.078795 0.511617 0.763051
0.079748 0.512570 0.824128
0.080708 0.513530 0.885658
0.080947 0.513768 0.900947
0.077023 0.567628 0.077023
0.077382 0.567987 0.100046
0.078121 0.568726 0.147423
0.078913 0.569518 0.198172
0.079737 0.570342 0.250989
0.080584 0.571189 0.305327
0.081451 0.572056 0.360877
0.082334 0.572939 0.417439
0.083230 0.573835 0.474872
0.084138 0.574743 0.533072
0.085056 0.575661 0.591956
0.085985 0.576590 0.651460
0.086922 0.577527 0.711530
0.087867 0.578472 0.772123
0.088820 0.579425 0.833200
0.089780 0.580385 0.894729
0.090019 0.580624 0.910019
0.086193 0.635208 0.086193
0.086552 0.635567 0.109216
0.087291 0.636307 0.156593
0.088083 0.637098 0.207342
0.088907 0.637922 0.260159
0.089755 0.638770 0.314497
0.090621 0.639637 0.370047
0.091504 0.640519 0.426609
0.092400 0.641415 0.484042
0.093308 0.642323 0.542242
0.094226 0.643242 0.601126
0.095155 0.644170 0.660630
0.096092 0.645107 0.720700
0.097037 0.646053 0.781293
0.097990 0.647006 0.842370
0.098950 0.647966 0.903899
0.099189 0.648204 0.919189
0.095453 0.703450 0.095453
0.095812 0.703809 0.118476
0.096551 0.704548 0.165853
0.097343 0.705340 0.216602
0.098167 0.706164 0.269419
0.099014 0.707012 0.323757
0.099881 0.707878 0.379307
0.100764 0.708761 0.435869
0.101660 0.709657 0.493302
0.102568 0.710565 0.551502
0.103486 0.711484 0.610386
0.104415 0.712412 0.669890
0.105352 0.713349 0.729960
0.106297 0.714294 0.790553
0.107250 0.715247 0.851630
0.108210 0.716207 0.913159
0.108449 0.716446 0.928449
0.104795 0.772300 0.104795
0.105154 0.772659 0.127818
0.105893 0.773398 0.175196
0.106685 0.774190 0.225944
0.107509 0.775014 0.278761
0.108357 0.775861 0.333099
0.109224 0.776728 0.388649
0.110106 0.777611 0.445211
0.111002 0.778507 0.502645
0.111910 0.779415 0.560844
0.112829 0.780333 0.619728
0.113757 0.781262 0.679232
0.114694 0.782199 0.739302
0.115640 0.783144 0.799895
0.116592 0.784097 0.860972
0.117552 0.785057 0.922502
0.117791 0.785296 0.937791
0.114214 0.841713 0.114214
0.114573 0.842072 0.137237
0.115312 0.842811 0.184614
0.116104 0.843603 0.235363
0.116928 0.844427 0.288180
0.117776 0.845274 0.342518
0.118642 0.846141 0.398068
0.119525 0.847024 0.454630
0.120421 0.847920 0.512063
0.121329 0.848828 0.570263
0.122247 0.849746 0.629147
0.123176 0.850675 0.688651
0.124113 0.851612 0.748721
0.125058 0.852557 0.809314
0.126011 0.853510 0.870391
0.126971 0.854470 0.931920
0.127210 0.854709 0.947210
0.123704 0.911650 0.123704
0.124063 0.912010 0.146727
0.124802 0.912749 0.194104
0.125594 0.913540 0.244853
0.126418 0.914364 0.297670
0.127266 0.915212 0.352008
0.128132 0.916079 0.407558
0.129015 0.916961 0.464120
0.129911 0.917857 0.521553
0.130819 0.918765 0.579753
0.131738 0.919684 0.638637
0.132666 0.920612 0.698141
0.133603 0.921550 0.758211
0.134548 0.922495 0.818804
0.135501 0.923448 0.879881
0.136461 0.924408 0.941410
0.136700 0.924646 0.956700
0.000201 0.000009 0.000009
0.000560 0.000368 0.023032
0.001299 0.001107 0.070410
0.002091 0.001899 0.121158
0.002915 0.002723 0.173975
0.003763 0.003571 0.228313
0.004629 0.004438 0.283863
0.005512 0.005320 0.340425
0.006408 0.006216 0.397859
0.007316 0.007124 0.456058
0.008234 0.008043 0.514942
0.009163 0.008971 0.574446
0.010100 0.009908 0.634516
0.011045 0.010854 0.695109
0.011998 0.011806 0.756186
0.012958 0.012766 0.817716
0.013197 0.013005 0.833005
0.000201 0.000009 0.000009
