skills/editops-orchestrator/assets/grade/luts/night_blue_v10.cube
TITLE "night_blue_v10"
LUT_3D_SIZE 17
DOMAIN_MIN 0.0 0.0 0.0
DOMAIN_MAX 1.0 1.0 1.0
0.000000 0.000000 0.000000
0.000351 0.000351 0.033613
0.000895 0.000895 0.085854
0.001462 0.001462 0.140195
0.002042 0.002042 0.195849
0.002633 0.002633 0.252472
0.003231 0.003231 0.309865
0.003837 0.003837 0.367900
0.004448 0.004448 0.426486
0.005064 0.005064 0.485556
0.005684 0.005684 0.545056
0.006309 0.006309 0.604946
0.006937 0.006937 0.665190
0.007568 0.007568 0.725761
0.008203 0.008203 0.786634
0.008841 0.008841 0.847789
0.009196 0.009196 0.881828
0.000000 0.000000 0.000000
0.000351 0.000351 0.033613
0.000895 0.000895 0.085854
0.001462 0.001462 0.140195
0.002042 0.002042 0.195849
0.002633 0.002633 0.252472
0.003231 0.003231 0.309865
0.003837 0.003837 0.367900
0.004448 0.004448 0.426486
0.005064 0.005064 0.485556
0.005684 0.005684 0.545056
0.006309 0.006309 0.604946
0.006937 0.006937 0.665190
0.007568 0.007568 0.725761
0.008203 0.008203 0.786634
0.008841 0.008841 0.847789
0.009196 0.009196 0.881828
0.004660 0.049305 0.004660
0.005011 0.049655 0.038273
0.005556 0.050200 0.090515
0.006122 0.050767 0.144855
0.006703 0.051347 0.200510
0.007293 0.051938 0.257132
0.007892 0.052536 0.314525
0.008497 0.053141 0.372560
0.009108 0.053752 0.431146
0.009724 0.054368 0.490216
0.010344 0.054989 0.549717
0.010969 0.055613 0.609606
0.011597 0.056242 0.669851
0.012229 0.056873 0.730422
0.012864 0.057508 0.791295
0.013501 0.058146 0.852449
0.013856 0.058501 0.886488
0.010119 0.107050 0.010119
0.010469 0.107400 0.043732
0.011014 0.107945 0.095973
0.011581 0.108512 0.150314
0.012161 0.109092 0.205968
0.012751 0.109683 0.262590
0.013350 0.110281 0.319983
0.013955 0.110886 0.378018
0.014566 0.111497 0.436605
0.015182 0.112113 0.495674
0.015803 0.112734 0.555175
0.016427 0.113358 0.615064
0.017055 0.113987 0.675309
0.017687 0.114618 0.735880
0.018322 0.115253 0.796753
0.018960 0.115891 0.857907
0.019315 0.116246 0.891946
0.015767 0.166809 0.015767
0.016118 0.167159 0.049380
0.016663 0.167704 0.101621
0.017229 0.168271 0.155962
0.017810 0.168851 0.211616
0.018400 0.169441 0.268239
0.018999 0.170040 0.325632
0.019604 0.170645 0.383667
0.020215 0.171256 0.442253
0.020831 0.171872 0.501323
0.021451 0.172493 0.560823
0.022076 0.173117 0.620713
0.022704 0.173745 0.680958
0.023336 0.174377 0.741528
0.023970 0.175012 0.802401
0.024608 0.175650 0.863556
0.024963 0.176005 0.897595
0.021541 0.227895 0.021541
0.021892 0.228245 0.055154
0.022437 0.228790 0.107395
0.023003 0.229357 0.161736
0.023584 0.229937 0.217390
0.024174 0.230528 0.274013
0.024773 0.231126 0.331406
0.025378 0.231731 0.389441
0.025989 0.232342 0.448027
0.026605 0.232958 0.507097
0.027225 0.233579 0.566597
0.027850 0.234203 0.626487
0.028478 0.234832 0.686732
0.029110 0.235463 0.747302
0.029745 0.236098 0.808175
0.030382 0.236736 0.869330
0.030737 0.237091 0.903369
0.027410 0.289981 0.027410
0.027760 0.290332 0.061023
0.028305 0.290876 0.113264
0.028872 0.291443 0.167605
0.029452 0.292023 0.223259
0.030043 0.292614 0.279881
0.030641 0.293212 0.337274
0.031246 0.293818 0.395309
0.031857 0.294429 0.453896
0.032473 0.295045 0.512965
0.033094 0.295665 0.572466
0.033718 0.296290 0.632356
0.034347 0.296918 0.692600
0.034978 0.297549 0.753171
0.035613 0.298184 0.814044
0.036251 0.298822 0.875198
0.036606 0.299177 0.909237
0.033354 0.352873 0.033354
0.033705 0.353223 0.066967
0.034250 0.353768 0.119209
0.034816 0.354335 0.173550
0.035397 0.354915 0.229204
0.035987 0.355506 0.285826
0.036586 0.356104 0.343219
0.037191 0.356709 0.401254
0.037802 0.357320 0.459840
0.038418 0.357936 0.518910
0.039039 0.358557 0.578411
0.039663 0.359181 0.638300
0.040291 0.359810 0.698545
0.040923 0.360441 0.759116
0.041558 0.361076 0.819989
0.042196 0.361714 0.881143
0.042550 0.362069 0.915182
0.039363 0.416441 0.039363
0.039714 0.416792 0.072976
0.040258 0.417336 0.125217
0.040825 0.417903 0.179558
0.041405 0.418483 0.235212
0.041996 0.419074 0.291835
0.042594 0.419672 0.349228
0.043200 0.420278 0.407263
0.043811 0.420889 0.465849
0.044427 0.421505 0.524919
0.045047 0.422125 0.584419
0.045672 0.422750 0.644309
0.046300 0.423378 0.704554
0.046932 0.424009 0.765124
0.047566 0.424644 0.825997
0.048204 0.425282 0.887152
0.048559 0.425637 0.921191
0.045427 0.480593 0.045427
0.045777 0.480944 0.079040
0.046322 0.481488 0.131281
0.046889 0.482055 0.185622
0.047469 0.482635 0.241276
0.048060 0.483226 0.297899
0.048658 0.483824 0.355292
0.049264 0.484430 0.413327
0.049874 0.485041 0.471913
0.050490 0.485657 0.530982
0.051111 0.486277 0.590483
0.051736 0.486902 0.650373
0.052364 0.487530 0.710617
0.052995 0.488162 0.771188
0.053630 0.488796 0.832061
0.054268 0.489434 0.893216
0.054623 0.489789 0.927255
0.051539 0.545259 0.051539
0.051890 0.545610 0.085152
0.052435 0.546155 0.137394
0.053001 0.546721 0.191734
0.053582 0.547302 0.247389
0.054172 0.547892 0.304011
0.054771 0.548491 0.361404
0.055376 0.549096 0.419439
0.055987 0.549707 0.478025
0.056603 0.550323 0.537095
0.057223 0.550943 0.596595
0.057848 0.551568 0.656485
0.058476 0.552196 0.716730
0.059108 0.552828 0.777301
0.059743 0.553463 0.838174
0.060380 0.554100 0.899328
0.060735 0.554455 0.933367
0.057695 0.610385 0.057695
0.058046 0.610736 0.091308
0.058591 0.611281 0.143549
0.059157 0.611847 0.197890
0.059738 0.612428 0.253544
0.060328 0.613018 0.310167
0.060927 0.613617 0.367560
0.061532 0.614222 0.425595
0.062143 0.614833 0.484181
0.062759 0.615449 0.543251
0.063379 0.616069 0.602751
0.064004 0.616694 0.662641
0.064632 0.617322 0.722886
0.065264 0.617954 0.783457
0.065899 0.618589 0.844329
0.066536 0.619226 0.905484
0.066891 0.619581 0.939523
0.063890 0.675928 0.063890
0.064241 0.676278 0.097503
0.064786 0.676823 0.149745
0.065352 0.677390 0.204085
0.065933 0.677970 0.259740
0.066523 0.678560 0.316362
0.067122 0.679159 0.373755
0.067727 0.679764 0.431790
0.068338 0.680375 0.490376
0.068954 0.680991 0.549446
0.069575 0.681612 0.608947
0.070199 0.682236 0.668836
0.070827 0.682864 0.729081
0.071459 0.683496 0.789652
0.072094 0.684131 0.850525
0.072731 0.684769 0.911679
0.073086 0.685124 0.945718
0.070122 0.741850 0.070122
0.070472 0.742201 0.103735
0.071017 0.742745 0.155976
0.071584 0.743312 0.210317
0.072164 0.743892 0.265971
0.072754 0.744483 0.322593
0.073353 0.745081 0.379986
0.073958 0.745687 0.438021
0.074569 0.746298 0.496608
0.075185 0.746914 0.555677
0.075806 0.747534 0.615178
0.076430 0.748159 0.675067
0.077058 0.748787 0.735312
0.077690 0.749419 0.795883
0.078325 0.750053 0.856756
0.078963 0.750691 0.917910
0.079318 0.751046 0.951949
0.076386 0.808123 0.076386
0.076736 0.808473 0.109999
0.077281 0.809018 0.162240
0.077848 0.809585 0.216581
0.078428 0.810165 0.272235
0.079019 0.810756 0.328858
0.079617 0.811354 0.386251
0.080223 0.811959 0.444286
0.080833 0.812570 0.502872
0.081449 0.813186 0.561941
0.082070 0.813807 0.621442
0.082695 0.814431 0.681332
0.083323 0.815060 0.741576
0.083954 0.815691 0.802147
0.084589 0.816326 0.863020
0.085227 0.816964 0.924175
0.085582 0.817319 0.958213
0.082681 0.874720 0.082681
0.083031 0.875071 0.116294
0.083576 0.875616 0.168535
0.084143 0.876182 0.222876
0.084723 0.876763 0.278530
0.085314 0.877353 0.335152
0.085912 0.877952 0.392546
0.086517 0.878557 0.450581
0.087128 0.879168 0.509167
0.087744 0.879784 0.568236
0.088365 0.880404 0.627737
0.088989 0.881029 0.687627
0.089618 0.881657 0.747871
0.090249 0.882289 0.808442
0.090884 0.882924 0.869315
0.091522 0.883561 0.930470
0.091877 0.883916 0.964508
0.089005 0.941621 0.089005
0.089355 0.941971 0.122617
0.089900 0.942516 0.174859
0.090467 0.943083 0.229200
0.091047 0.943663 0.284854
0.091637 0.944254 0.341476
0.092236 0.944852 0.398869
0.092841 0.945457 0.456904
0.093452 0.946068 0.515490
0.094068 0.946684 0.574560
0.094689 0.947305 0.634061
0.095313 0.947929 0.693950
0.095941 0.948558 0.754195
0.096573 0.949189 0.814766
0.097208 0.949824 0.875639
0.097846 0.950462 0.936793
0.098201 0.950817 0.970832
0.000000 0.000000 0.000000
0.000351 0.000351 0.033613
0.000895 0.000895 0.085854
0.001462 0.001462 0.140195
0.002042 0.002042 0.195849
0.002633 0.002633 0.252472
0.003231 0.003231 0.309865
0.003837 0.003837 0.367900
0.004448 0.004448 0.426486
0.005064 0.005064 0.485556
0.005684 0.005684 0.545056
0.006309 0.006309 0.604946
0.006937 0.006937 0.665190
0.007568 0.007568 0.725761
0.008203 0.008203 0.786634
0.008841 0.008841 0.847789
0.009196 0.009196 0.881828
0.000000 0.000000 0.000000
0.000351 0.000351 0.033613
0.000895 0.000895 0.085854
0.001462 0.001462 0.140195
0.002042 0.002042 0.195849
0.002633 0.002633 0.252472
0.003231 0.003231 0.309865
0.003837 0.003837 0.367900
0.004448 0.004448 0.426486
0.005064 0.005064 0.485556
0.005684 0.005684 0.545056
0.006309 0.006309 0.604946
0.006937 0.006937 0.665190
0.007568 0.007568 0.725761
0.008203 0.008203 0.786634
0.008841 0.008841 0.847789
0.009196 0.009196 0.881828
0.004660 0.049305 0.004660
0.005011 0.049655 0.038273
0.005556 0.050200 0.090515
0.006122 0.050767 0.144855
0.006703 0.051347 0.200510
0.007293 0.051938 0.257132
0.007892 0.052536 0.314525
0.008497 0.053141 0.372560
0.009108 0.053752 0.431146
0.009724 0.054368 0.490216
0.010344 0.054989 0.549717
0.010969 0.055613 0.609606
0.011597 0.056242 0.669851
0.012229 0.056873 0.730422
0.012864 0.057508 0.791295
0.013501 0.058146 0.852449
0.013856 0.058501 0.886488
0.010119 0.107050 0.010119
0.010469 0.107400 0.043732
0.011014 0.107945 0.095973
0.011581 0.108512 0.150314
0.012161 0.109092 0.205968
0.012751 0.109683 0.262590
0.013350 0.110281 0.319983
0.013955 0.110886 0.378018
0.014566 0.111497 0.436605
0.015182 0.112113 0.495674
0.015803 0.112734 0.555175
0.016427 0.113358 0.615064
0.017055 0.113987 0.675309
0.017687 0.114618 0.735880
0.018322 0.115253 0.796753
0.018960 0.115891 0.857907
0.019315 0.116246 0.891946
0.015767 0.166809 0.015767
0.016118 0.167159 0.049380
0.016663 0.167704 0.101621
0.017229 0.168271 0.155962
0.017810 0.168851 0.211616
0.018400 0.169441 0.268239
0.018999 0.170040 0.325632
0.019604 0.170645 0.383667
0.020215 0.171256 0.442253
0.020831 0.171872 0.501323
0.021451 0.172493 0.560823
0.022076 0.173117 0.620713
0.022704 0.173745 0.680958
0.023336 0.174377 0.741528
0.023970 0.175012 0.802401
0.024608 0.175650 0.863556
0.024963 0.176005 0.897595
0.021541 0.227895 0.021541
0.021892 0.228245 0.055154
0.022437 0.228790 0.107395
0.023003 0.229357 0.161736
0.023584 0.229937 0.217390
0.024174 0.230528 0.274013
0.024773 0.231126 0.331406
0.025378 0.231731 0.389441
0.025989 0.232342 0.448027
0.026605 0.232958 0.507097
0.027225 0.233579 0.566597
0.027850 0.234203 0.626487
0.028478 0.234832 0.686732
0.029110 0.235463 0.747302
0.029745 0.236098 0.808175
0.030382 0.236736 0.869330
0.030737 0.237091 0.903369
0.027410 0.289981 0.027410
0.027760 0.290332 0.061023
0.028305 0.290876 0.113264
0.028872 0.291443 0.167605
0.029452 0.292023 0.223259
0.030043 0.292614 0.279881
0.030641 0.293212 0.337274
0.031246 0.293818 0.395309
0.031857 0.294429 0.453896
0.032473 0.295045 0.512965
0.033094 0.295665 0.572466
0.033718 0.296290 0.632356
0.034347 0.296918 0.692600
0.034978 0.297549 0.753171
0.035613 0.298184 0.814044
0.036251 0.298822 0.875198
0.036606 0.299177 0.909237
0.033354 0.352873 0.033354
0.033705 0.353223 0.066967
0.034250 0.353768 0.119209
0.034816 0.354335 0.173550
0.035397 0.354915 0.229204
0.035987 0.355506 0.285826
0.036586 0.356104 0.343219
0.037191 0.356709 0.401254
0.037802 0.357320 0.459840
0.038418 0.357936 0.518910
0.039039 0.358557 0.578411
0.039663 0.359181 0.638300
0.040291 0.359810 0.698545
0.040923 0.360441 0.759116
0.041558 0.361076 0.819989
0.042196 0.361714 0.881143
0.042550 0.362069 0.915182
0.039363 0.416441 0.039363
0.039714 0.416792 0.072976
0.040258 0.417336 0.125217
0.040825 0.417903 0.179558
0.041405 0.418483 0.235212
0.041996 0.419074 0.291835
0.042594 0.419672 0.349228
0.043200 0.420278 0.407263
0.043811 0.420889 0.465849
0.044427 0.421505 0.524919
0.045047 0.422125 0.584419
0.045672 0.422750 0.644309
0.046300 0.423378 0.704554
0.046932 0.424009 0.765124
0.047566 0.424644 0.825997
0.048204 0.425282 0.887152
0.048559 0.425637 0.921191
0.045427 0.480593 0.045427
0.045777 0.480944 0.079040
0.046322 0.481488 0.131281
0.046889 0.482055 0.185622
0.047469 0.482635 0.241276
0.048060 0.483226 0.297899
0.048658 0.483824 0.355292
0.049264 0.484430 0.413327
0.049874 0.485041 0.471913
0.050490 0.485657 0.530982
0.051111 0.486277 0.590483
0.051736 0.486902 0.650373
0.052364 0.487530 0.710617
0.052995 0.488162 0.771188
0.053630 0.488796 0.832061
0.054268 0.489434 0.893216
0.054623 0.489789 0.927255
0.051539 0.545259 0.051539
0.051890 0.545610 0.085152
0.052435 0.546155 0.137394
0.053001 0.546721 0.191734
0.053582 0.547302 0.247389
0.054172 0.547892 0.304011
0.054771 0.548491 0.361404
0.055376 0.549096 0.419439
0.055987 0.549707 0.478025
0.056603 0.550323 0.537095
0.057223 0.550943 0.596595
0.057848 0.551568 0.656485
0.058476 0.552196 0.716730
0.059108 0.552828 0.777301
0.059743 0.553463 0.838174
0.060380 0.554100 0.899328
0.060735 0.554455 0.933367
0.057695 0.610385 0.057695
0.058046 0.610736 0.091308
0.058591 0.611281 0.143549
0.059157 0.611847 0.197890
0.059738 0.612428 0.253544
0.060328 0.613018 0.310167
0.060927 0.613617 0.367560
0.061532 0.614222 0.425595
0.062143 0.614833 0.484181
0.062759 0.615449 0.543251
0.063379 0.616069 0.602751
0.064004 0.616694 0.662641
0.064632 0.617322 0.722886
0.065264 0.617954 0.783457
0.065899 0.618589 0.844329
0.066536 0.619226 0.905484
0.066891 0.619581 0.939523
0.063890 0.675928 0.063890
0.064241 0.676278 0.097503
0.064786 0.676823 0.149745
0.065352 0.677390 0.204085
0.065933 0.677970 0.259740
0.066523 0.678560 0.316362
0.067122 0.679159 0.373755
0.067727 0.679764 0.431790
0.068338 0.680375 0.490376
0.068954 0.680991 0.549446
0.069575 0.681612 0.608947
0.070199 0.682236 0.668836
0.070827 0.682864 0.729081
0.071459 0.683496 0.789652
0.072094 0.684131 0.850525
0.072731 0.684769 0.911679
0.073086 0.685124 0.945718
0.070122 0.741850 0.070122
0.070472 0.742201 0.103735
0.071017 0.742745 0.155976
0.071584 0.743312 0.210317
0.072164 0.743892 0.265971
0.072754 0.744483 0.322593
0.073353 0.745081 0.379986
0.073958 0.745687 0.438021
0.074569 0.746298 0.496608
0.075185 0.746914 0.555677
0.075806 0.747534 0.615178
0.076430 0.748159 0.675067
0.077058 0.748787 0.735312
0.077690 0.749419 0.795883
0.078325 0.750053 0.856756
0.078963 0.750691 0.917910
0.079318 0.751046 0.951949
0.076386 0.808123 0.076386
0.076736 0.808473 0.109999
0.077281 0.809018 0.162240
0.077848 0.809585 0.216581
0.078428 0.810165 0.272235
0.079019 0.810756 0.328858
0.079617 0.811354 0.386251
0.080223 0.811959 0.444286
0.080833 0.812570 0.502872
0.081449 0.813186 0.561941
0.082070 0.813807 0.621442
0.082695 0.814431 0.681332
0.083323 0.815060 0.741576
0.083954 0.815691 0.802147
0.084589 0.816326 0.863020
0.085227 0.816964 0.924175
0.085582 0.817319 0.958213
0.082681 0.874720 0.082681
0.083031 0.875071 0.116294
0.083576 0.875616 0.168535
0.084143 0.876182 0.222876
0.084723 0.876763 0.278530
0.085314 0.877353 0.335152
0.085912 0.877952 0.392546
0.086517 0.878557 0.450581
0.087128 0.879168 0.509167
0.087744 0.879784 0.568236
0.088365 0.880404 0.627737
0.088989 0.881029 0.687627
0.089618 0.881657 0.747871
0.090249 0.882289 0.808442
0.090884 0.882924 0.869315
0.091522 0.883561 0.930470
0.091877 0.883916 0.964508
0.089005 0.941621 0.089005
0.089355 0.941971 0.122617
0.089900 0.942516 0.174859
0.090467 0.943083 0.229200
0.091047 0.943663 0.284854
0.091637 0.944254 0.341476
0.092236 0.944852 0.398869
0.092841 0.945457 0.456904
0.093452 0.946068 0.515490
0.094068 0.946684 0.574560
0.094689 0.947305 0.634061
0.095313 0.947929 0.693950
0.095941 0.948558 0.754195
0.096573 0.949189 0.814766
0.097208 0.949824 0.875639
0.097846 0.950462 0.936793
0.098201 0.950817 0.970832
0.006925 0.000208 0.000208
0.007275 0.000559 0.033821
0.007820 0.001104 0.086063
0.008387 0.001670 0.140403
0.008967 0.002251 0.196058
0.009558 0.002841 0.252680
0.010156 0.003440 0.310073
0.010761 0.004045 0.368108
0.011372 0.004656 0.426694
0.011988 0.005272 0.485764
0.012609 0.005892 0.545265
0.013233 0.006517 0.605154
0.013862 0.007145 0.665399
0.014493 0.007777 0.725970
0.015128 0.008412 0.786843
0.015766 0.009049 0.847997
0.016121 0.009404 0.882036
0.006925 0.000208 0.000208
0.007275 0.000559 0.033821
0.007820 0.001104 0.086063
0.008387 0.001670 0.140403
0.008967 0.002251 0.196058
0.009558 0.002841 0.252680
0.010156 0.003440 0.310073
0.010761 0.004045 0.368108
0.011372 0.004656 0.426694
0.011988 0.005272 0.485764
0.012609 0.005892 0.545265
0.013233 0.006517 0.605154
0.013862 0.007145 0.665399
0.014493 0.007777 0.725970
0.015128 0.008412 0.786843
0.015766 0.009049 0.847997
0.016121 0.009404 0.882036
0.011585 0.049513 0.004869
0.011936 0.049864 0.038482
0.012480 0.050409 0.090723
0.013047 0.050975 0.145064
0.013628 0.051556 0.200718
0.014218 0.052146 0.257340
0.014817 0.052745 0.314733
0.015422 0.053350 0.372769
0.016033 0.053961 0.431355
0.016649 0.054577 0.490424
0.017269 0.055197 0.549925
0.017894 0.055822 0.609815
0.018522 0.056450 0.670059
0.019154 0.057082 0.730630
0.019788 0.057717 0.791503
0.020426 0.058354 0.852657
0.020781 0.058709 0.886696
0.017043 0.107258 0.010327
0.017394 0.107609 0.043940
0.017939 0.108153 0.096181
0.018505 0.108720 0.150522
0.019086 0.109301 0.206176
0.019676 0.109891 0.262799
0.020275 0.110489 0.320192
0.020880 0.111095 0.378227
0.021491 0.111706 0.436813
0.022107 0.112322 0.495883
0.022727 0.112942 0.555383
0.023352 0.113567 0.615273
0.023980 0.114195 0.675517
0.024612 0.114827 0.736088
0.025247 0.115461 0.796961
0.025884 0.116099 0.858116
0.026239 0.116454 0.892155
0.022692 0.167017 0.015976
0.023042 0.167368 0.049589
0.023587 0.167912 0.101830
0.024154 0.168479 0.156171
0.024734 0.169059 0.211825
0.025325 0.169650 0.268447
0.025923 0.170248 0.325840
0.026529 0.170854 0.383875
0.027139 0.171465 0.442461
0.027755 0.172081 0.501531
0.028376 0.172701 0.561032
0.029001 0.173326 0.620921
0.029629 0.173954 0.681166
0.030260 0.174586 0.741737
0.030895 0.175220 0.802610
0.031533 0.175858 0.863764
0.031888 0.176213 0.897803
0.028466 0.228103 0.021750
0.028816 0.228454 0.055363
0.029361 0.228999 0.107604
0.029928 0.229565 0.161945
0.030508 0.230146 0.217599
0.031099 0.230736 0.274221
0.031697 0.231335 0.331614
0.032303 0.231940 0.389649
0.032914 0.232551 0.448236
0.033529 0.233167 0.507305
0.034150 0.233787 0.566806
0.034775 0.234412 0.626695
0.035403 0.235040 0.686940
0.036034 0.235672 0.747511
0.036669 0.236307 0.808384
0.037307 0.236944 0.869538
0.037662 0.237299 0.903577
0.034335 0.290189 0.027618
0.034685 0.290540 0.061231
0.035230 0.291085 0.113472
0.035797 0.291651 0.167813
0.036377 0.292232 0.223467
0.036967 0.292822 0.280090
0.037566 0.293421 0.337483
0.038171 0.294026 0.395518
0.038782 0.294637 0.454104
0.039398 0.295253 0.513174
0.040019 0.295873 0.572674
0.040643 0.296498 0.632564
0.041271 0.297126 0.692809
0.041903 0.297758 0.753379
0.042538 0.298393 0.814252
0.043176 0.299030 0.875407
0.043531 0.299385 0.909446
0.040279 0.353081 0.033563
0.040630 0.353432 0.067176
0.041175 0.353977 0.119417
0.041741 0.354543 0.173758
0.042322 0.355124 0.229412
0.042912 0.355714 0.286034
0.043511 0.356313 0.343428
0.044116 0.356918 0.401463
0.044727 0.357529 0.460049
0.045343 0.358145 0.519118
0.045963 0.358765 0.578619
0.046588 0.359390 0.638509
0.047216 0.360018 0.698753
0.047848 0.360650 0.759324
0.048483 0.361285 0.820197
0.049120 0.361922 0.881352
0.049475 0.362277 0.915390
0.046288 0.416649 0.039572
0.046638 0.417000 0.073184
0.047183 0.417545 0.125426
0.047750 0.418111 0.179767
0.048330 0.418692 0.235421
0.048921 0.419282 0.292043
0.049519 0.419881 0.349436
0.050124 0.420486 0.407471
0.050735 0.421097 0.466057
0.051351 0.421713 0.525127
0.051972 0.422333 0.584628
0.052596 0.422958 0.644517
0.053225 0.423586 0.704762
0.053856 0.424218 0.765333
0.054491 0.424853 0.826206
0.055129 0.425490 0.887360
0.055484 0.425845 0.921399
0.052352 0.480801 0.045635
0.052702 0.481152 0.079248
0.053247 0.481697 0.131490
0.053814 0.482263 0.185830
0.054394 0.482844 0.241485
0.054985 0.483434 0.298107
0.055583 0.484033 0.355500
0.056188 0.484638 0.413535
0.056799 0.485249 0.472121
0.057415 0.485865 0.531191
0.058036 0.486485 0.590691
0.058660 0.487110 0.650581
0.059288 0.487738 0.710826
0.059920 0.488370 0.771397
0.060555 0.489005 0.832270
0.061193 0.489642 0.893424
0.061548 0.489997 0.927463
0.058464 0.545468 0.051748
0.058815 0.545818 0.085361
0.059359 0.546363 0.137602
0.059926 0.546930 0.191943
0.060506 0.547510 0.247597
0.061097 0.548101 0.304219
0.061695 0.548699 0.361612
0.062301 0.549304 0.419647
0.062912 0.549915 0.478234
0.063528 0.550531 0.537303
0.064148 0.551152 0.596804
0.064773 0.551776 0.656694
0.065401 0.552405 0.716938
0.066033 0.553036 0.777509
0.066667 0.553671 0.838382
0.067305 0.554309 0.899536
0.067660 0.554664 0.933575
0.064620 0.610594 0.057904
0.064971 0.610944 0.091517
0.065515 0.611489 0.143758
0.066082 0.612056 0.198099
0.066662 0.612636 0.253753
0.067253 0.613227 0.310375
0.067851 0.613825 0.367768
0.068457 0.614430 0.425803
0.069068 0.615041 0.484390
0.069684 0.615657 0.543459
0.070304 0.616278 0.602960
0.070929 0.616902 0.662850
0.071557 0.617531 0.723094
0.072188 0.618162 0.783665
0.072823 0.618797 0.844538
0.073461 0.619435 0.905692
0.073816 0.619790 0.939731
0.070815 0.676136 0.064099
0.071166 0.676486 0.097712
0.071711 0.677031 0.149953
0.072277 0.677598 0.204294
0.072858 0.678178 0.259948
0.073448 0.678769 0.316570
0.074047 0.679367 0.373964
0.074652 0.679973 0.431999
0.075263 0.680583 0.490585
0.075879 0.681199 0.549654
0.076499 0.681820 0.609155
0.077124 0.682445 0.669045
0.077752 0.683073 0.729289
0.078384 0.683704 0.789860
0.079018 0.684339 0.850733
0.079656 0.684977 0.911887
0.080011 0.685332 0.945926
0.077046 0.742058 0.070330
0.077397 0.742409 0.103943
0.077942 0.742954 0.156184
0.078508 0.743520 0.210525
0.079089 0.744101 0.266179
0.079679 0.744691 0.322802
0.080278 0.745290 0.380195
0.080883 0.745895 0.438230
0.081494 0.746506 0.496816
0.082110 0.747122 0.555886
0.082730 0.747742 0.615386
0.083355 0.748367 0.675276
0.083983 0.748995 0.735520
0.084615 0.749627 0.796091
0.085250 0.750262 0.856964
0.085887 0.750899 0.918119
0.086242 0.751254 0.952158
0.083311 0.808331 0.076594
0.083661 0.808682 0.110207
0.084206 0.809227 0.162449
0.084773 0.809793 0.216789
0.085353 0.810374 0.272444
0.085944 0.810964 0.329066
0.086542 0.811563 0.386459
0.087147 0.812168 0.444494
0.087758 0.812779 0.503080
0.088374 0.813395 0.562150
0.088995 0.814015 0.621650
0.089619 0.814640 0.681540
0.090247 0.815268 0.741785
0.090879 0.815900 0.802356
0.091514 0.816535 0.863229
0.092152 0.817172 0.924383
0.092507 0.817527 0.958422
0.089606 0.874929 0.082889
0.089956 0.875279 0.116502
0.090501 0.875824 0.168743
0.091068 0.876391 0.223084
0.091648 0.876971 0.278739
0.092238 0.877562 0.335361
0.092837 0.878160 0.392754
0.093442 0.878765 0.450789
0.094053 0.879376 0.509375
0.094669 0.879992 0.568445
0.095290 0.880613 0.627945
0.095914 0.881237 0.687835
0.096542 0.881866 0.748080
0.097174 0.882497 0.808651
0.097809 0.883132 0.869524
0.098447 0.883770 0.930678
0.098802 0.884125 0.964717
0.095929 0.941829 0.089213
0.096280 0.942180 0.122826
0.096825 0.942725 0.175067
0.097391 0.943291 0.229408
0.097972 0.943872 0.285062
0.098562 0.944462 0.341685
0.099161 0.945061 0.399078
0.099766 0.945666 0.457113
0.100377 0.946277 0.515699
0.100993 0.946893 0.574768
0.101613 0.947513 0.634269
0.102238 0.948138 0.694159
0.102866 0.948766 0.754403
0.103498 0.949398 0.814974
0.104133 0.950033 0.875847
0.104770 0.950670 0.937002
0.105125 0.951025 0.971040
0.057947 0.001744 0.001744
0.058298 0.002095 0.035357
0.058843 0.002639 0.087598
0.059409 0.003206 0.141939
0.059990 0.003786 0.197593
0.060580 0.004377 0.254216
0.061179 0.004975 0.311609
0.061784 0.005581 0.369644
0.062395 0.006192 0.428230
0.063011 0.006808 0.487300
0.063631 0.007428 0.546800
0.064256 0.008053 0.606690
0.064884 0.008681 0.666934
0.065516 0.009313 0.727505
0.066151 0.009947 0.788378
0.066788 0.010585 0.849533
0.067143 0.010940 0.883572
0.057947 0.001744 0.001744
