skills/editops-orchestrator/assets/grade/luts/night_blue_v19.cube
TITLE "night_blue_v19"
LUT_3D_SIZE 5
DOMAIN_MIN 0.0 0.0 0.0
DOMAIN_MAX 1.0 1.0 1.0
0.000000 0.000000 0.000000
0.002651 0.002651 0.176059
0.006033 0.006033 0.400658
0.009600 0.009600 0.637564
0.012616 0.012616 0.837879
0.016559 0.125905 0.016559
0.019210 0.128556 0.192618
0.022591 0.131937 0.417217
0.026158 0.135505 0.654123
0.029175 0.138521 0.854438
0.049221 0.374257 0.049221
0.051872 0.376908 0.225281
0.055254 0.380290 0.449879
0.058821 0.383857 0.686785
0.061837 0.386873 0.887100
0.084085 0.639346 0.084085
0.086736 0.641997 0.260144
0.090117 0.645379 0.484743
0.093685 0.648946 0.721649
0.096701 0.651962 0.921964
0.120304 0.914745 0.120304
0.122955 0.917396 0.296364
0.126337 0.920778 0.520963
0.129904 0.924345 0.757869
0.132920 0.927361 0.958183
0.050766 0.002187 0.002187
0.053417 0.004838 0.178246
0.056799 0.008220 0.402845
0.060366 0.011787 0.639751
0.063382 0.014803 0.840066
0.067325 0.128091 0.018745
0.069976 0.130742 0.194805
0.073358 0.134124 0.419404
0.076925 0.137691 0.656310
0.079941 0.140707 0.856625
0.099987 0.376444 0.051408
0.102638 0.379095 0.227467
0.106020 0.382477 0.452066
0.109587 0.386044 0.688972
0.112603 0.389060 0.889287
0.134851 0.641533 0.086271
0.137502 0.644184 0.262331
0.140884 0.647566 0.486930
0.144451 0.651133 0.723836
0.147467 0.654149 0.924151
0.171070 0.916932 0.122491
0.173721 0.919583 0.298551
0.177103 0.922964 0.523149
0.180670 0.926532 0.760055
0.183686 0.929548 0.960370
0.268297 0.011557 0.011557
0.270948 0.014208 0.187617
0.274330 0.017590 0.412215
0.277897 0.021157 0.649121
0.280913 0.024173 0.849436
0.284855 0.137462 0.028116
0.287506 0.140113 0.204175
0.290888 0.143494 0.428774
0.294455 0.147062 0.665680
0.297471 0.150078 0.865995
0.317518 0.385814 0.060778
0.320169 0.388465 0.236838
0.323551 0.391847 0.461437
0.327118 0.395414 0.698343
0.330134 0.398430 0.898657
0.352382 0.650903 0.095642
0.355032 0.653554 0.271701
0.358414 0.656936 0.496300
0.361981 0.660503 0.733206
0.364998 0.663519 0.933521
0.388601 0.926302 0.131861
0.391252 0.928953 0.307921
0.394634 0.932335 0.532520
0.398201 0.935902 0.769426
0.401217 0.938918 0.969741
0.505147 0.021760 0.021760
0.507797 0.024411 0.197819
0.511179 0.027792 0.422418
0.514746 0.031359 0.659324
0.517763 0.034376 0.859639
0.521705 0.147664 0.038318
0.524356 0.150315 0.214378
0.527738 0.153697 0.438976
0.531305 0.157264 0.675883
0.534321 0.160280 0.876197
0.554368 0.396017 0.070981
0.557019 0.398668 0.247040
0.560400 0.402049 0.471639
0.563967 0.405617 0.708545
0.566984 0.408633 0.908860
0.589231 0.661106 0.105844
0.591882 0.663757 0.281904
0.595264 0.667138 0.506503
0.598831 0.670705 0.743409
0.601847 0.673722 0.943723
0.625451 0.936505 0.142064
0.628102 0.939155 0.318123
0.631484 0.942537 0.542722
0.635051 0.946104 0.779628
0.638067 0.949121 0.979943
0.752559 0.032417 0.032417
0.755210 0.035068 0.208477
0.758591 0.038450 0.433075
0.762159 0.042017 0.669981
0.765175 0.045033 0.870296
0.769117 0.158322 0.048976
0.771768 0.160973 0.225035
0.775150 0.164354 0.449634
0.778717 0.167922 0.686540
0.781733 0.170938 0.886855
0.801780 0.406674 0.081638
0.804431 0.409325 0.257698
0.807812 0.412707 0.482296
0.811380 0.416274 0.719202
0.814396 0.419290 0.919517
0.836643 0.671763 0.116502
0.839294 0.674414 0.292561
0.842676 0.677796 0.517160
0.846243 0.681363 0.754066
0.849259 0.684379 0.954381
0.872863 0.947162 0.152721
0.875514 0.949813 0.328781
0.878896 0.953195 0.553380
0.882463 0.956762 0.790286
0.885479 0.959778 0.990600
