skills/editops-orchestrator/assets/grade/luts/night_blue_v20.cube
TITLE "night_blue_v20"
LUT_3D_SIZE 9
DOMAIN_MIN 0.0 0.0 0.0
DOMAIN_MAX 1.0 1.0 1.0
0.000000 0.000000 0.000000
0.001098 0.001098 0.070401
0.002714 0.002714 0.173966
0.004429 0.004429 0.283854
0.006207 0.006207 0.397850
0.008034 0.008034 0.514933
0.009899 0.009899 0.634507
0.011798 0.011798 0.756177
0.012996 0.012996 0.832996
0.001684 0.012409 0.001684
0.002782 0.013507 0.072084
0.004398 0.015123 0.175650
0.006112 0.016837 0.285538
0.007891 0.018616 0.399533
0.009718 0.020442 0.516617
0.011583 0.022308 0.636191
0.013481 0.024206 0.757861
0.014680 0.025405 0.834680
0.016490 0.121523 0.016490
0.017588 0.122621 0.086890
0.019204 0.124237 0.190456
0.020918 0.125951 0.300344
0.022697 0.127730 0.414339
0.024523 0.129556 0.531423
0.026389 0.131422 0.650997
0.028287 0.133320 0.772667
0.029486 0.134519 0.849486
0.032912 0.242546 0.032912
0.034010 0.243644 0.103312
0.035626 0.245260 0.206878
0.037340 0.246974 0.316766
0.039119 0.248753 0.430761
0.040945 0.250580 0.547845
0.042811 0.252445 0.667419
0.044709 0.254343 0.789089
0.045908 0.255542 0.865908
0.050148 0.369571 0.050148
0.051246 0.370670 0.120549
0.052862 0.372285 0.224114
0.054576 0.374000 0.334002
0.056355 0.375778 0.447997
0.058182 0.377605 0.565081
0.060047 0.379471 0.684655
0.061945 0.381369 0.806325
0.063144 0.382567 0.883144
0.067951 0.500772 0.067951
0.069049 0.501870 0.138352
0.070665 0.503486 0.241917
0.072379 0.505201 0.351805
0.074158 0.506979 0.465800
0.075985 0.508806 0.582884
0.077850 0.510671 0.702458
0.079748 0.512570 0.824128
0.080947 0.513768 0.900947
0.086193 0.635208 0.086193
0.087291 0.636307 0.156593
0.088907 0.637922 0.260159
0.090621 0.639637 0.370047
0.092400 0.641415 0.484042
0.094226 0.643242 0.601126
0.096092 0.645107 0.720700
0.097990 0.647006 0.842370
0.099189 0.648204 0.919189
0.104795 0.772300 0.104795
0.105893 0.773398 0.175196
0.107509 0.775014 0.278761
0.109224 0.776728 0.388649
0.111002 0.778507 0.502645
0.112829 0.780333 0.619728
0.114694 0.782199 0.739302
0.116592 0.784097 0.860972
0.117791 0.785296 0.937791
0.123704 0.911650 0.123704
0.124802 0.912749 0.194104
0.126418 0.914364 0.297670
0.128132 0.916079 0.407558
0.129911 0.917857 0.521553
0.131738 0.919684 0.638637
0.133603 0.921550 0.758211
0.135501 0.923448 0.879881
0.136700 0.924646 0.956700
0.000000 0.000000 0.000000
0.001098 0.001098 0.070401
0.002714 0.002714 0.173966
0.004429 0.004429 0.283854
0.006207 0.006207 0.397850
0.008034 0.008034 0.514933
0.009899 0.009899 0.634507
0.011798 0.011798 0.756177
0.012996 0.012996 0.832996
0.001684 0.012409 0.001684
0.002782 0.013507 0.072084
0.004398 0.015123 0.175650
0.006112 0.016837 0.285538
0.007891 0.018616 0.399533
0.009718 0.020442 0.516617
0.011583 0.022308 0.636191
0.013481 0.024206 0.757861
0.014680 0.025405 0.834680
0.016490 0.121523 0.016490
0.017588 0.122621 0.086890
0.019204 0.124237 0.190456
0.020918 0.125951 0.300344
0.022697 0.127730 0.414339
0.024523 0.129556 0.531423
0.026389 0.131422 0.650997
0.028287 0.133320 0.772667
0.029486 0.134519 0.849486
0.032912 0.242546 0.032912
0.034010 0.243644 0.103312
0.035626 0.245260 0.206878
0.037340 0.246974 0.316766
0.039119 0.248753 0.430761
0.040945 0.250580 0.547845
0.042811 0.252445 0.667419
0.044709 0.254343 0.789089
0.045908 0.255542 0.865908
0.050148 0.369571 0.050148
0.051246 0.370670 0.120549
0.052862 0.372285 0.224114
0.054576 0.374000 0.334002
0.056355 0.375778 0.447997
0.058182 0.377605 0.565081
0.060047 0.379471 0.684655
0.061945 0.381369 0.806325
0.063144 0.382567 0.883144
0.067951 0.500772 0.067951
0.069049 0.501870 0.138352
0.070665 0.503486 0.241917
0.072379 0.505201 0.351805
0.074158 0.506979 0.465800
0.075985 0.508806 0.582884
0.077850 0.510671 0.702458
0.079748 0.512570 0.824128
0.080947 0.513768 0.900947
0.086193 0.635208 0.086193
0.087291 0.636307 0.156593
0.088907 0.637922 0.260159
0.090621 0.639637 0.370047
0.092400 0.641415 0.484042
0.094226 0.643242 0.601126
0.096092 0.645107 0.720700
0.097990 0.647006 0.842370
0.099189 0.648204 0.919189
0.104795 0.772300 0.104795
0.105893 0.773398 0.175196
0.107509 0.775014 0.278761
0.109224 0.776728 0.388649
0.111002 0.778507 0.502645
0.112829 0.780333 0.619728
0.114694 0.782199 0.739302
0.116592 0.784097 0.860972
0.117791 0.785296 0.937791
0.123704 0.911650 0.123704
0.124802 0.912749 0.194104
0.126418 0.914364 0.297670
0.128132 0.916079 0.407558
0.129911 0.917857 0.521553
0.131738 0.919684 0.638637
0.133603 0.921550 0.758211
0.135501 0.923448 0.879881
0.136700 0.924646 0.956700
0.044605 0.001989 0.001989
0.045703 0.003087 0.072390
0.047319 0.004703 0.175955
0.049033 0.006417 0.285843
0.050812 0.008196 0.399838
0.052639 0.010023 0.516922
0.054504 0.011888 0.636496
0.056402 0.013786 0.758166
0.057601 0.014985 0.834985
0.046289 0.014398 0.003673
0.047387 0.015496 0.074073
0.049003 0.017112 0.177639
0.050717 0.018826 0.287527
0.052496 0.020605 0.401522
0.054322 0.022431 0.518606
0.056188 0.024297 0.638180
0.058086 0.026195 0.759850
0.059285 0.027394 0.836669
0.061095 0.123512 0.018478
0.062193 0.124610 0.088879
0.063809 0.126226 0.192445
0.065523 0.127940 0.302333
0.067302 0.129719 0.416328
0.069128 0.131545 0.533412
0.070994 0.133411 0.652986
0.072892 0.135309 0.774656
0.074091 0.136508 0.851474
0.077516 0.244535 0.034900
0.078615 0.245633 0.105301
0.080231 0.247249 0.208867
0.081945 0.248963 0.318755
0.083724 0.250742 0.432750
0.085550 0.252568 0.549833
0.087416 0.254434 0.669408
0.089314 0.256332 0.791078
0.090512 0.257531 0.867896
0.094753 0.371560 0.052137
0.095851 0.372659 0.122537
0.097467 0.374274 0.226103
0.099181 0.375989 0.335991
0.100960 0.377767 0.449986
0.102787 0.379594 0.567070
0.104652 0.381459 0.686644
0.106550 0.383358 0.808314
0.107749 0.384556 0.885133
0.112556 0.502761 0.069940
0.113654 0.503859 0.140340
0.115270 0.505475 0.243906
0.116984 0.507189 0.353794
0.118763 0.508968 0.467789
0.120589 0.510795 0.584873
0.122455 0.512660 0.704447
0.124353 0.514558 0.826117
0.125552 0.515757 0.902936
0.130798 0.637197 0.088182
0.131896 0.638295 0.158582
0.133512 0.639911 0.262148
0.135226 0.641626 0.372036
0.137005 0.643404 0.486031
0.138831 0.645231 0.603115
0.140697 0.647096 0.722689
0.142595 0.648994 0.844359
0.143794 0.650193 0.921178
0.149400 0.774288 0.106784
0.150498 0.775387 0.177185
0.152114 0.777003 0.280750
0.153828 0.778717 0.390638
0.155607 0.780495 0.504633
0.157434 0.782322 0.621717
0.159299 0.784188 0.741291
0.161197 0.786086 0.862961
0.162396 0.787284 0.939780
0.168309 0.913639 0.125693
0.169407 0.914738 0.196093
0.171023 0.916353 0.299659
0.172737 0.918068 0.409547
0.174516 0.919846 0.523542
0.176342 0.921673 0.640626
0.178208 0.923538 0.760200
0.180106 0.925437 0.881870
0.181305 0.926635 0.958689
0.148549 0.006623 0.006623
0.149647 0.007722 0.077024
0.151263 0.009338 0.180590
0.152977 0.011052 0.290478
0.154756 0.012830 0.404473
0.156582 0.014657 0.521556
0.158448 0.016523 0.641131
0.160346 0.018421 0.762801
0.161545 0.019619 0.839619
0.150232 0.019032 0.008307
0.151331 0.020130 0.078708
0.152947 0.021746 0.182273
0.154661 0.023461 0.292161
0.156439 0.025239 0.406157
0.158266 0.027066 0.523240
0.160132 0.028931 0.642815
0.162030 0.030830 0.764484
0.163228 0.032028 0.841303
0.165038 0.128146 0.023113
0.166137 0.129244 0.093514
0.167752 0.130860 0.197079
0.169467 0.132575 0.306967
0.171245 0.134353 0.420963
0.173072 0.136180 0.538046
0.174938 0.138045 0.657620
0.176836 0.139944 0.779290
0.178034 0.141142 0.856109
0.181460 0.249169 0.039535
0.182559 0.250268 0.109936
0.184174 0.251883 0.213501
0.185889 0.253598 0.323389
0.187667 0.255376 0.437385
0.189494 0.257203 0.554468
0.191359 0.259068 0.674042
0.193258 0.260967 0.795712
0.194456 0.262165 0.872531
0.198697 0.376195 0.056771
0.199795 0.377293 0.127172
0.201411 0.378909 0.230738
0.203125 0.380623 0.340626
0.204904 0.382402 0.454621
0.206730 0.384228 0.571704
0.208596 0.386094 0.691279
0.210494 0.387992 0.812949
0.211693 0.389191 0.889767
0.216499 0.507395 0.074574
0.217598 0.508494 0.144975
0.219214 0.510110 0.248540
0.220928 0.511824 0.358428
0.222706 0.513603 0.472424
0.224533 0.515429 0.589507
0.226399 0.517295 0.709082
0.228297 0.519193 0.830751
0.229495 0.520391 0.907570
0.234741 0.641832 0.092816
0.235840 0.642930 0.163217
0.237455 0.644546 0.266782
0.239170 0.646260 0.376670
0.240948 0.648039 0.490666
0.242775 0.649865 0.607749
0.244641 0.651731 0.727324
0.246539 0.653629 0.848993
0.247737 0.654828 0.925812
0.253344 0.778923 0.111418
0.254442 0.780021 0.181819
0.256058 0.781637 0.285385
0.257772 0.783352 0.395273
0.259551 0.785130 0.509268
0.261377 0.786957 0.626351
0.263243 0.788822 0.745926
0.265141 0.790721 0.867596
0.266340 0.791919 0.944414
0.272252 0.918274 0.130327
0.273351 0.919372 0.200728
0.274967 0.920988 0.304293
0.276681 0.922702 0.414181
0.278459 0.924481 0.528177
0.280286 0.926307 0.645260
0.282152 0.928173 0.764835
0.284050 0.930071 0.886504
0.285248 0.931270 0.963323
0.260274 0.011605 0.011605
0.261373 0.012703 0.082006
0.262988 0.014319 0.185571
0.264703 0.016034 0.295459
0.266481 0.017812 0.409455
0.268308 0.019639 0.526538
0.270174 0.021504 0.646112
0.272072 0.023402 0.767782
0.273270 0.024601 0.844601
0.261958 0.024014 0.013289
0.263056 0.025112 0.083689
0.264672 0.026728 0.187255
0.266387 0.028442 0.297143
0.268165 0.030221 0.411138
0.269992 0.032047 0.528222
0.271857 0.033913 0.647796
0.273756 0.035811 0.769466
0.274954 0.037010 0.846285
0.276764 0.133128 0.028095
0.277862 0.134226 0.098495
0.279478 0.135842 0.202061
0.281193 0.137556 0.311949
0.282971 0.139335 0.425944
0.284798 0.141161 0.543028
0.286663 0.143027 0.662602
0.288561 0.144925 0.784272
0.289760 0.146124 0.861091
0.293186 0.254151 0.044517
0.294284 0.255249 0.114917
0.295900 0.256865 0.218483
0.297614 0.258579 0.328371
0.299393 0.260358 0.442366
0.301220 0.262185 0.559450
0.303085 0.264050 0.679024
0.304983 0.265948 0.800694
0.306182 0.267147 0.877513
0.310422 0.381176 0.061753
0.311521 0.382275 0.132154
0.313136 0.383890 0.235719
0.314851 0.385605 0.345607
0.316629 0.387383 0.459602
0.318456 0.389210 0.576686
0.320321 0.391076 0.696260
0.322220 0.392974 0.817930
0.323418 0.394172 0.894749
0.328225 0.512377 0.079556
0.329323 0.513475 0.149957
0.330939 0.515091 0.253522
0.332654 0.516806 0.363410
0.334432 0.518584 0.477405
0.336259 0.520411 0.594489
0.338124 0.522276 0.714063
0.340023 0.524175 0.835733
0.341221 0.525373 0.912552
0.346467 0.646813 0.097798
0.347565 0.647911 0.168198
0.349181 0.649527 0.271764
0.350896 0.651242 0.381652
0.352674 0.653020 0.495647
0.354501 0.654847 0.612731
0.356366 0.656712 0.732305
0.358265 0.658611 0.853975
0.359463 0.659809 0.930794
0.365069 0.783905 0.116400
0.366168 0.785003 0.186801
0.367783 0.786619 0.290366
0.369498 0.788333 0.400254
0.371276 0.790112 0.514250
0.373103 0.791938 0.631333
0.374969 0.793804 0.750907
0.376867 0.795702 0.872577
0.378065 0.796901 0.949396
0.383978 0.923255 0.135309
0.385076 0.924354 0.205709
0.386692 0.925969 0.309275
0.388407 0.927684 0.419163
0.390185 0.929462 0.533158
0.392012 0.931289 0.650242
0.393877 0.933155 0.769816
0.395776 0.935053 0.891486
0.396974 0.936251 0.968305
0.376678 0.016795 0.016795
0.377776 0.017893 0.087196
0.379392 0.019509 0.190761
0.381106 0.021224 0.300649
0.382885 0.023002 0.414645
0.384712 0.024829 0.531728
0.386577 0.026694 0.651303
0.388475 0.028593 0.772972
0.389674 0.029791 0.849791
0.378362 0.029204 0.018479
0.379460 0.030302 0.088880
0.381076 0.031918 0.192445
0.382790 0.033632 0.302333
0.384569 0.035411 0.416328
0.386395 0.037238 0.533412
0.388261 0.039103 0.652986
0.390159 0.041001 0.774656
0.391358 0.042200 0.851475
0.393168 0.138318 0.033285
0.394266 0.139416 0.103686
0.395882 0.141032 0.207251
0.397596 0.142746 0.317139
0.399375 0.144525 0.431134
0.401201 0.146352 0.548218
0.403067 0.148217 0.667792
0.404965 0.150115 0.789462
0.406164 0.151314 0.866281
0.409589 0.259341 0.049707
0.410688 0.260439 0.120107
0.412304 0.262055 0.223673
0.414018 0.263769 0.333561
0.415797 0.265548 0.447556
0.417623 0.267375 0.564640
0.419489 0.269240 0.684214
0.421387 0.271138 0.805884
0.422585 0.272337 0.882703
0.426826 0.386366 0.066943
0.427924 0.387465 0.137344
0.429540 0.389081 0.240909
0.431254 0.390795 0.350797
0.433033 0.392574 0.464793
0.434860 0.394400 0.581876
0.436725 0.396266 0.701450
0.438623 0.398164 0.823120
0.439822 0.399362 0.899939
0.444629 0.517567 0.084746
0.445727 0.518666 0.155147
0.447343 0.520281 0.258712
0.449057 0.521996 0.368600
0.450836 0.523774 0.482596
0.452662 0.525601 0.599679
0.454528 0.527466 0.719253
0.456426 0.529365 0.840923
0.457625 0.530563 0.917742
0.462871 0.652003 0.102988
0.463969 0.653102 0.173389
0.465585 0.654717 0.276954
0.467299 0.656432 0.386842
0.469078 0.658210 0.500837
0.470904 0.660037 0.617921
0.472770 0.661903 0.737495
0.474668 0.663801 0.859165
0.475867 0.664999 0.935984
0.481473 0.789095 0.121590
0.482571 0.790193 0.191991
0.484187 0.791809 0.295556
0.485901 0.793523 0.405444
0.487680 0.795302 0.519440
0.489507 0.797128 0.636523
0.491372 0.798994 0.756098
0.493270 0.800892 0.877767
0.494469 0.802091 0.954586
0.500382 0.928445 0.140499
0.501480 0.929544 0.210900
0.503096 0.931160 0.314465
0.504810 0.932874 0.424353
0.506589 0.934653 0.538348
0.508415 0.936479 0.655432
0.510281 0.938345 0.775006
0.512179 0.940243 0.896676
0.513378 0.941441 0.973495
0.496497 0.022138 0.022138
0.497596 0.023236 0.092538
0.499211 0.024852 0.196104
0.500926 0.026566 0.305992
0.502704 0.028345 0.419987
0.504531 0.030171 0.537071
0.506397 0.032037 0.656645
0.508295 0.033935 0.778315
0.509493 0.035134 0.855134
0.498181 0.034546 0.023821
0.499279 0.035645 0.094222
0.500895 0.037260 0.197788
0.502610 0.038975 0.307676
0.504388 0.040753 0.421671
0.506215 0.042580 0.538754
0.508080 0.044446 0.658329
0.509979 0.046344 0.779999
0.511177 0.047542 0.856817
0.512987 0.143660 0.038627
0.514085 0.144759 0.109028
0.515701 0.146374 0.212593
0.517415 0.148089 0.322481
0.519194 0.149867 0.436477
0.521021 0.151694 0.553560
0.522886 0.153560 0.673135
0.524784 0.155458 0.794805
0.525983 0.156656 0.871623
0.529409 0.264683 0.055049
0.530507 0.265782 0.125450
0.532123 0.267397 0.229015
0.533837 0.269112 0.338903
0.535616 0.270890 0.452899
0.537443 0.272717 0.569982
0.539308 0.274583 0.689557
0.541206 0.276481 0.811226
0.542405 0.277679 0.888045
0.546645 0.391709 0.072285
0.547744 0.392807 0.142686
0.549359 0.394423 0.246252
0.551074 0.396137 0.356140
0.552852 0.397916 0.470135
0.554679 0.399743 0.587219
0.556544 0.401608 0.706793
0.558443 0.403506 0.828463
0.559641 0.404705 0.905281
0.564448 0.522910 0.090088
0.565546 0.524008 0.160489
0.567162 0.525624 0.264055
0.568877 0.527338 0.373943
0.570655 0.529117 0.487938
0.572482 0.530943 0.605021
0.574347 0.532809 0.724596
0.576246 0.534707 0.846266
0.577444 0.535906 0.923084
0.582690 0.657346 0.108330
0.583788 0.658444 0.178731
0.585404 0.660060 0.282297
0.587119 0.661774 0.392185
0.588897 0.663553 0.506180
0.590724 0.665379 0.623263
0.592589 0.667245 0.742838
0.594488 0.669143 0.864508
0.595686 0.670342 0.941326
0.601292 0.794437 0.126933
0.602391 0.795536 0.197333
0.604006 0.797151 0.300899
0.605721 0.798866 0.410787
0.607499 0.800644 0.524782
0.609326 0.802471 0.641866
0.611192 0.804336 0.761440
0.613090 0.806235 0.883110
0.614288 0.807433 0.959929
0.620201 0.933788 0.145841
0.621299 0.934886 0.216242
0.622915 0.936502 0.319808
0.624630 0.938216 0.429696
0.626408 0.939995 0.543691
0.628235 0.941822 0.660774
0.630100 0.943687 0.780349
0.631999 0.945585 0.902019
0.633197 0.946784 0.978837
0.619028 0.027601 0.027601
0.620127 0.028699 0.098002
0.621743 0.030315 0.201567
0.623457 0.032029 0.311455
0.625236 0.033808 0.425450
0.627062 0.035635 0.542534
0.628928 0.037500 0.662108
0.630826 0.039398 0.783778
0.632024 0.040597 0.860597
0.620712 0.040010 0.029285
0.621811 0.041108 0.099685
0.623426 0.042724 0.203251
0.625141 0.044438 0.313139
0.626919 0.046217 0.427134
0.628746 0.048043 0.544218
0.630612 0.049909 0.663792
0.632510 0.051807 0.785462
0.633708 0.053006 0.862281
0.635518 0.149124 0.044091
0.636616 0.150222 0.114491
0.638232 0.151838 0.218057
0.639947 0.153552 0.327945
0.641725 0.155331 0.441940
0.643552 0.157157 0.559024
0.645417 0.159023 0.678598
0.647316 0.160921 0.800268
0.648514 0.162120 0.877087
0.651940 0.270147 0.060512
0.653038 0.271245 0.130913
0.654654 0.272861 0.234479
0.656369 0.274575 0.344367
0.658147 0.276354 0.458362
0.659974 0.278180 0.575446
0.661839 0.280046 0.695020
0.663738 0.281944 0.816690
0.664936 0.283143 0.893508
0.669176 0.397172 0.077749
0.670275 0.398271 0.148150
0.671891 0.399886 0.251715
0.673605 0.401601 0.361603
0.675383 0.403379 0.475598
0.677210 0.405206 0.592682
0.679076 0.407072 0.712256
0.680974 0.408970 0.833926
0.682172 0.410168 0.910745
0.686979 0.528373 0.095552
0.688078 0.529471 0.165952
0.689693 0.531087 0.269518
0.691408 0.532802 0.379406
0.693186 0.534580 0.493401
0.695013 0.536407 0.610485
0.696879 0.538272 0.730059
0.698777 0.540170 0.851729
0.699975 0.541369 0.928548
0.705221 0.662809 0.113794
0.706320 0.663907 0.184194
0.707935 0.665523 0.287760
0.709650 0.667238 0.397648
0.711428 0.669016 0.511643
0.713255 0.670843 0.628727
0.715120 0.672708 0.748301
0.717019 0.674607 0.869971
0.718217 0.675805 0.946790
0.723823 0.799901 0.132396
0.724922 0.800999 0.202797
0.726538 0.802615 0.306362
0.728252 0.804329 0.416250
0.730030 0.806108 0.530245
0.731857 0.807934 0.647329
0.733723 0.809800 0.766903
0.735621 0.811698 0.888573
0.736819 0.812897 0.965392
0.742732 0.939251 0.151305
0.743831 0.940350 0.221705
0.745446 0.941965 0.325271
0.747161 0.943680 0.435159
0.748939 0.945458 0.549154
0.750766 0.947285 0.666238
0.752632 0.949151 0.785812
0.754530 0.951049 0.907482
0.755728 0.952247 0.984301
0.743818 0.033165 0.033165
0.744917 0.034263 0.103566
0.746532 0.035879 0.207131
0.748247 0.037594 0.317019
0.750025 0.039372 0.431015
0.751852 0.041199 0.548098
0.753718 0.043064 0.667672
0.755616 0.044962 0.789342
0.756814 0.046161 0.866161
0.745502 0.045574 0.034849
0.746600 0.046672 0.105249
0.748216 0.048288 0.208815
0.749931 0.050002 0.318703
0.751709 0.051781 0.432698
0.753536 0.053607 0.549782
0.755401 0.055473 0.669356
0.757300 0.057371 0.791026
0.758498 0.058570 0.867845
0.760308 0.154688 0.049655
0.761406 0.155786 0.120055
0.763022 0.157402 0.223621
0.764737 0.159116 0.333509
0.766515 0.160895 0.447504
0.768342 0.162721 0.564588
0.770207 0.164587 0.684162
0.772106 0.166485 0.805832
0.773304 0.167684 0.882651
0.776730 0.275711 0.066077
0.777828 0.276809 0.136477
0.779444 0.278425 0.240043
0.781158 0.280139 0.349931
0.782937 0.281918 0.463926
0.784764 0.283745 0.581010
0.786629 0.285610 0.700584
0.788527 0.287508 0.822254
0.789726 0.288707 0.899073
0.793966 0.402736 0.083313
0.795065 0.403835 0.153714
0.796680 0.405450 0.257279
0.798395 0.407165 0.367167
0.800173 0.408943 0.481162
0.802000 0.410770 0.598246
0.803866 0.412636 0.717820
0.805764 0.414534 0.839490
0.806962 0.415732 0.916309
0.811769 0.533937 0.101116
0.812868 0.535035 0.171517
0.814483 0.536651 0.275082
0.816198 0.538366 0.384970
0.817976 0.540144 0.498965
0.819803 0.541971 0.616049
0.821668 0.543836 0.735623
0.823567 0.545735 0.857293
0.824765 0.546933 0.934112
0.830011 0.668373 0.119358
0.831109 0.669471 0.189758
0.832725 0.671087 0.293324
0.834440 0.672802 0.403212
0.836218 0.674580 0.517207
0.838045 0.676407 0.634291
0.839910 0.678272 0.753865
0.841809 0.680171 0.875535
0.843007 0.681369 0.952354
0.848613 0.805465 0.137960
0.849712 0.806563 0.208361
0.851327 0.808179 0.311926
0.853042 0.809893 0.421814
0.854820 0.811672 0.535810
0.856647 0.813498 0.652893
0.858513 0.815364 0.772467
0.860411 0.817262 0.894137
0.861609 0.818461 0.970956
0.867522 0.944815 0.156869
0.868620 0.945914 0.227269
0.870236 0.947529 0.330835
0.871951 0.949244 0.440723
0.873729 0.951022 0.554718
0.875556 0.952849 0.671802
0.877421 0.954715 0.791376
0.879320 0.956613 0.913046
0.880518 0.957811 0.989865
