skills/editops-orchestrator/assets/grade/luts/night_blue_v02.cube
TITLE "night_blue_v02"
LUT_3D_SIZE 17
DOMAIN_MIN 0.0 0.0 0.0
DOMAIN_MAX 1.0 1.0 1.0
0.000000 0.000000 0.000000
0.000295 0.000295 0.044129
0.000669 0.000669 0.100103
0.001051 0.001051 0.157178
0.001437 0.001437 0.214951
0.001827 0.001827 0.273241
0.002219 0.002219 0.331942
0.002614 0.002614 0.390985
0.003010 0.003010 0.450321
0.003409 0.003409 0.509914
0.003809 0.003809 0.569735
0.004210 0.004210 0.629762
0.004612 0.004612 0.689976
0.005016 0.005016 0.750362
0.005421 0.005421 0.810906
0.005826 0.005826 0.871599
0.006156 0.006156 0.920893
0.001582 0.025305 0.001582
0.001877 0.025600 0.045711
0.002251 0.025974 0.101685
0.002632 0.026356 0.158759
0.003018 0.026742 0.216533
0.003408 0.027132 0.274823
0.003800 0.027524 0.333524
0.004195 0.027919 0.392567
0.004592 0.028316 0.451903
0.004990 0.028714 0.511495
0.005390 0.029114 0.571316
0.005791 0.029515 0.631343
0.006194 0.029918 0.691557
0.006598 0.030321 0.751943
0.007002 0.030726 0.812488
0.007408 0.031132 0.873181
0.007738 0.031461 0.922474
0.005244 0.083914 0.005244
0.005539 0.084209 0.049373
0.005914 0.084583 0.105348
0.006295 0.084964 0.162422
0.006681 0.085351 0.220196
0.007071 0.085740 0.278485
0.007463 0.086133 0.337187
0.007858 0.086527 0.396230
0.008255 0.086924 0.455566
0.008653 0.087322 0.515158
0.009053 0.087722 0.574979
0.009454 0.088124 0.635006
0.009857 0.088526 0.695220
0.010260 0.088930 0.755606
0.010665 0.089335 0.816151
0.011071 0.089740 0.876844
0.011400 0.090070 0.926137
0.009001 0.144027 0.009001
0.009296 0.144322 0.053130
0.009671 0.144697 0.109105
0.010052 0.145078 0.166179
0.010438 0.145464 0.223952
0.010828 0.145854 0.282242
0.011220 0.146246 0.340944
0.011615 0.146641 0.399987
0.012012 0.147038 0.459323
0.012410 0.147436 0.518915
0.012810 0.147836 0.578736
0.013211 0.148237 0.638763
0.013614 0.148640 0.698977
0.014017 0.149043 0.759363
0.014422 0.149448 0.819908
0.014828 0.149854 0.880601
0.015157 0.150183 0.929894
0.012812 0.204995 0.012812
0.013107 0.205290 0.056941
0.013481 0.205664 0.112915
0.013862 0.206046 0.169989
0.014249 0.206432 0.227763
0.014638 0.206822 0.286053
0.015031 0.207214 0.344754
0.015425 0.207609 0.403797
0.015822 0.208006 0.463133
0.016220 0.208404 0.522726
0.016620 0.208804 0.582547
0.017022 0.209205 0.642573
0.017424 0.209608 0.702787
0.017828 0.210011 0.763173
0.018233 0.210416 0.823718
0.018638 0.210822 0.884411
0.018968 0.211151 0.933705
0.016660 0.266569 0.016660
0.016955 0.266864 0.060789
0.017329 0.267238 0.116763
0.017711 0.267619 0.173838
0.018097 0.268006 0.231611
0.018487 0.268395 0.289901
0.018879 0.268788 0.348602
0.019274 0.269182 0.407645
0.019670 0.269579 0.466981
0.020069 0.269977 0.526574
0.020469 0.270377 0.586395
0.020870 0.270779 0.646422
0.021272 0.271181 0.706636
0.021676 0.271585 0.767021
0.022081 0.271989 0.827566
0.022486 0.272395 0.888259
0.022816 0.272725 0.937553
0.020538 0.328613 0.020538
0.020833 0.328908 0.064667
0.021207 0.329282 0.120641
0.021588 0.329664 0.177715
0.021975 0.330050 0.235489
0.022364 0.330440 0.293779
0.022757 0.330832 0.352480
0.023151 0.331227 0.411523
0.023548 0.331623 0.470859
0.023946 0.332022 0.530451
0.024346 0.332422 0.590272
0.024747 0.332823 0.650299
0.025150 0.333225 0.710513
0.025554 0.333629 0.770899
0.025958 0.334034 0.831444
0.026364 0.334440 0.892137
0.026694 0.334769 0.941430
0.024439 0.391044 0.024439
0.024734 0.391339 0.068568
0.025109 0.391713 0.124543
0.025490 0.392095 0.181617
0.025876 0.392481 0.239390
0.026266 0.392870 0.297680
0.026658 0.393263 0.356381
0.027053 0.393658 0.415425
0.027450 0.394054 0.474761
0.027848 0.394453 0.534353
0.028248 0.394852 0.594174
0.028649 0.395254 0.654201
0.029052 0.395656 0.714415
0.029455 0.396060 0.774801
0.029860 0.396465 0.835346
0.030266 0.396870 0.896039
0.030595 0.397200 0.945332
0.028362 0.453802 0.028362
0.028657 0.454097 0.072491
0.029031 0.454472 0.128465
0.029412 0.454853 0.185539
0.029799 0.455239 0.243313
0.030188 0.455629 0.301603
0.030581 0.456021 0.360304
0.030975 0.456416 0.419347
0.031372 0.456813 0.478683
0.031770 0.457211 0.538276
0.032170 0.457611 0.598096
0.032572 0.458012 0.658123
0.032974 0.458415 0.718337
0.033378 0.458819 0.778723
0.033782 0.459223 0.839268
0.034188 0.459629 0.899961
0.034518 0.459958 0.949255
0.032302 0.516846 0.032302
0.032597 0.517141 0.076431
0.032971 0.517515 0.132405
0.033352 0.517897 0.189479
0.033739 0.518283 0.247253
0.034128 0.518673 0.305543
0.034521 0.519065 0.364244
0.034915 0.519460 0.423287
0.035312 0.519856 0.482623
0.035710 0.520255 0.542216
0.036110 0.520655 0.602037
0.036512 0.521056 0.662063
0.036914 0.521458 0.722277
0.037318 0.521862 0.782663
0.037723 0.522267 0.843208
0.038128 0.522673 0.903901
0.038458 0.523002 0.953195
0.036258 0.580142 0.036258
0.036553 0.580437 0.080387
0.036927 0.580811 0.136361
0.037308 0.581193 0.193435
0.037695 0.581579 0.251209
0.038084 0.581968 0.309499
0.038477 0.582361 0.368200
0.038871 0.582756 0.427243
0.039268 0.583152 0.486579
0.039666 0.583551 0.546171
0.040066 0.583950 0.605992
0.040467 0.584352 0.666019
0.040870 0.584754 0.726233
0.041274 0.585158 0.786619
0.041678 0.585563 0.847164
0.042084 0.585968 0.907857
0.042414 0.586298 0.957150
0.040228 0.643664 0.040228
0.040523 0.643959 0.084357
0.040897 0.644333 0.140331
0.041278 0.644715 0.197405
0.041665 0.645101 0.255179
0.042054 0.645490 0.313469
0.042447 0.645883 0.372170
0.042841 0.646278 0.431213
0.043238 0.646674 0.490549
0.043636 0.647073 0.550141
0.044036 0.647472 0.609962
0.044437 0.647874 0.669989
0.044840 0.648276 0.730203
0.045244 0.648680 0.790589
0.045648 0.649085 0.851134
0.046054 0.649490 0.911827
0.046384 0.649820 0.961120
0.044210 0.707391 0.044210
0.044505 0.707686 0.088339
0.044880 0.708060 0.144314
0.045261 0.708442 0.201388
0.045647 0.708828 0.259162
0.046037 0.709218 0.317451
0.046429 0.709610 0.376153
0.046824 0.710005 0.435196
0.047221 0.710402 0.494532
0.047619 0.710800 0.554124
0.048019 0.711200 0.613945
0.048420 0.711601 0.673972
0.048823 0.712004 0.734186
0.049226 0.712407 0.794572
0.049631 0.712812 0.855117
0.050037 0.713218 0.915810
0.050366 0.713547 0.965103
0.048205 0.771306 0.048205
0.048500 0.771601 0.092334
0.048874 0.771976 0.148308
0.049256 0.772357 0.205383
0.049642 0.772743 0.263156
0.050032 0.773133 0.321446
0.050424 0.773525 0.380147
0.050819 0.773920 0.439190
0.051215 0.774317 0.498526
0.051614 0.774715 0.558119
0.052014 0.775115 0.617940
0.052415 0.775516 0.677967
0.052817 0.775919 0.738181
0.053221 0.776322 0.798567
0.053626 0.776727 0.859111
0.054031 0.777133 0.919804
0.054361 0.777462 0.969098
0.052210 0.835395 0.052210
0.052505 0.835690 0.096339
0.052880 0.836064 0.152314
0.053261 0.836446 0.209388
0.053647 0.836832 0.267161
0.054037 0.837221 0.325451
0.054429 0.837614 0.384152
0.054824 0.838009 0.443195
0.055221 0.838405 0.502532
0.055619 0.838804 0.562124
0.056019 0.839203 0.621945
0.056420 0.839605 0.681972
0.056823 0.840007 0.742186
0.057226 0.840411 0.802572
0.057631 0.840816 0.863117
0.058037 0.841221 0.923809
0.058366 0.841551 0.973103
0.056226 0.899644 0.056226
0.056521 0.899939 0.100355
0.056895 0.900313 0.156329
0.057277 0.900695 0.213404
0.057663 0.901081 0.271177
0.058052 0.901471 0.329467
0.058445 0.901863 0.388168
0.058839 0.902258 0.447211
0.059236 0.902654 0.506547
0.059634 0.903053 0.566140
0.060034 0.903453 0.625961
0.060436 0.903854 0.685987
0.060838 0.904256 0.746201
0.061242 0.904660 0.806587
0.061647 0.905065 0.867132
0.062052 0.905471 0.927825
0.062382 0.905800 0.977119
0.060251 0.964043 0.060251
0.060546 0.964338 0.104380
0.060920 0.964712 0.160354
0.061301 0.965094 0.217428
0.061688 0.965480 0.275202
0.062077 0.965870 0.333492
0.062470 0.966262 0.392193
0.062864 0.966657 0.451236
0.063261 0.967054 0.510572
0.063659 0.967452 0.570164
0.064059 0.967852 0.629985
0.064460 0.968253 0.690012
0.064863 0.968656 0.750226
0.065267 0.969059 0.810612
0.065671 0.969464 0.871157
0.066077 0.969870 0.931850
0.066407 0.970199 0.981143
0.004321 0.000084 0.000084
0.004616 0.000379 0.044213
0.004990 0.000753 0.100187
0.005372 0.001135 0.157262
0.005758 0.001521 0.215035
0.006148 0.001911 0.273325
0.006540 0.002303 0.332026
0.006935 0.002698 0.391069
0.007331 0.003094 0.450405
0.007730 0.003493 0.509998
0.008130 0.003893 0.569819
0.008531 0.004294 0.629846
0.008933 0.004696 0.690060
0.009337 0.005100 0.750445
0.009742 0.005505 0.810990
0.010147 0.005910 0.871683
0.010477 0.006240 0.920977
0.005902 0.025389 0.001665
0.006197 0.025684 0.045794
0.006572 0.026058 0.101769
0.006953 0.026440 0.158843
0.007339 0.026826 0.216617
0.007729 0.027216 0.274907
0.008121 0.027608 0.333608
0.008516 0.028003 0.392651
0.008913 0.028400 0.451987
0.009311 0.028798 0.511579
0.009711 0.029198 0.571400
0.010112 0.029599 0.631427
0.010515 0.030002 0.691641
0.010919 0.030405 0.752027
0.011323 0.030810 0.812572
0.011729 0.031216 0.873265
0.012058 0.031545 0.922558
0.009565 0.083998 0.005328
0.009860 0.084293 0.049457
0.010235 0.084667 0.105432
0.010616 0.085048 0.162506
0.011002 0.085435 0.220279
0.011392 0.085824 0.278569
0.011784 0.086217 0.337270
0.012179 0.086611 0.396314
0.012576 0.087008 0.455650
0.012974 0.087406 0.515242
0.013374 0.087806 0.575063
0.013775 0.088208 0.635090
0.014178 0.088610 0.695304
0.014581 0.089014 0.755690
0.014986 0.089418 0.816235
0.015392 0.089824 0.876927
0.015721 0.090154 0.926221
0.013322 0.144111 0.009085
0.013617 0.144406 0.053214
0.013992 0.144781 0.109189
0.014373 0.145162 0.166263
0.014759 0.145548 0.224036
0.015149 0.145938 0.282326
0.015541 0.146330 0.341027
0.015936 0.146725 0.400070
0.016333 0.147122 0.459407
0.016731 0.147520 0.518999
0.017131 0.147920 0.578820
0.017532 0.148321 0.638847
0.017935 0.148724 0.699061
0.018338 0.149127 0.759447
0.018743 0.149532 0.819992
0.019149 0.149938 0.880684
0.019478 0.150267 0.929978
0.017133 0.205079 0.012896
0.017428 0.205374 0.057025
0.017802 0.205748 0.112999
0.018183 0.206130 0.170073
0.018570 0.206516 0.227847
0.018959 0.206906 0.286137
0.019352 0.207298 0.344838
0.019746 0.207693 0.403881
0.020143 0.208090 0.463217
0.020541 0.208488 0.522810
0.020941 0.208888 0.582631
0.021343 0.209289 0.642657
0.021745 0.209692 0.702871
0.022149 0.210095 0.763257
0.022553 0.210500 0.823802
0.022959 0.210906 0.884495
0.023289 0.211235 0.933789
0.020981 0.266653 0.016744
0.021276 0.266948 0.060873
0.021650 0.267322 0.116847
0.022032 0.267703 0.173922
0.022418 0.268090 0.231695
0.022807 0.268479 0.289985
0.023200 0.268872 0.348686
0.023595 0.269266 0.407729
0.023991 0.269663 0.467065
0.024390 0.270061 0.526658
0.024789 0.270461 0.586479
0.025191 0.270862 0.646505
0.025593 0.271265 0.706719
0.025997 0.271669 0.767105
0.026402 0.272073 0.827650
0.026807 0.272479 0.888343
0.027137 0.272809 0.937637
0.024859 0.328697 0.020622
0.025154 0.328992 0.064751
0.025528 0.329366 0.120725
0.025909 0.329748 0.177799
0.026295 0.330134 0.235573
0.026685 0.330524 0.293863
0.027078 0.330916 0.352564
0.027472 0.331311 0.411607
0.027869 0.331707 0.470943
0.028267 0.332106 0.530535
0.028667 0.332506 0.590356
0.029068 0.332907 0.650383
0.029471 0.333309 0.710597
0.029875 0.333713 0.770983
0.030279 0.334118 0.831528
0.030685 0.334524 0.892221
0.031015 0.334853 0.941514
0.028760 0.391128 0.024523
0.029055 0.391423 0.068652
0.029430 0.391797 0.124627
0.029811 0.392179 0.181701
0.030197 0.392565 0.239474
0.030587 0.392954 0.297764
0.030979 0.393347 0.356465
0.031374 0.393742 0.415508
0.031771 0.394138 0.474845
0.032169 0.394537 0.534437
0.032569 0.394936 0.594258
0.032970 0.395338 0.654285
0.033373 0.395740 0.714499
0.033776 0.396144 0.774885
0.034181 0.396549 0.835430
0.034587 0.396954 0.896122
0.034916 0.397284 0.945416
0.032683 0.453886 0.028446
0.032978 0.454181 0.072575
0.033352 0.454556 0.128549
0.033733 0.454937 0.185623
0.034120 0.455323 0.243397
0.034509 0.455713 0.301687
0.034902 0.456105 0.360388
0.035296 0.456500 0.419431
0.035693 0.456897 0.478767
0.036091 0.457295 0.538359
0.036491 0.457695 0.598180
0.036892 0.458096 0.658207
0.037295 0.458499 0.718421
0.037699 0.458902 0.778807
0.038103 0.459307 0.839352
0.038509 0.459713 0.900045
0.038839 0.460042 0.949338
0.036623 0.516930 0.032386
0.036918 0.517225 0.076515
0.037292 0.517599 0.132489
0.037673 0.517981 0.189563
0.038060 0.518367 0.247337
0.038449 0.518757 0.305627
0.038842 0.519149 0.364328
0.039236 0.519544 0.423371
0.039633 0.519940 0.482707
0.040031 0.520339 0.542300
0.040431 0.520739 0.602121
0.040833 0.521140 0.662147
0.041235 0.521542 0.722361
0.041639 0.521946 0.782747
0.042043 0.522351 0.843292
0.042449 0.522757 0.903985
0.042779 0.523086 0.953279
0.040579 0.580226 0.036342
0.040874 0.580521 0.080471
0.041248 0.580895 0.136445
0.041629 0.581277 0.193519
0.042015 0.581663 0.251293
0.042405 0.582052 0.309583
0.042798 0.582445 0.368284
0.043192 0.582839 0.427327
0.043589 0.583236 0.486663
0.043987 0.583635 0.546255
0.044387 0.584034 0.606076
0.044788 0.584436 0.666103
0.045191 0.584838 0.726317
0.045595 0.585242 0.786703
0.045999 0.585647 0.847248
0.046405 0.586052 0.907941
0.046735 0.586382 0.957234
0.044549 0.643748 0.040312
0.044844 0.644043 0.084441
0.045218 0.644417 0.140415
0.045599 0.644799 0.197489
0.045985 0.645185 0.255263
0.046375 0.645574 0.313553
0.046768 0.645967 0.372254
0.047162 0.646362 0.431297
0.047559 0.646758 0.490633
0.047957 0.647157 0.550225
0.048357 0.647556 0.610046
0.048758 0.647958 0.670073
0.049161 0.648360 0.730287
0.049565 0.648764 0.790673
0.049969 0.649169 0.851218
0.050375 0.649574 0.911911
0.050705 0.649904 0.961204
0.048531 0.707475 0.044294
0.048826 0.707770 0.088423
0.049201 0.708144 0.144398
0.049582 0.708526 0.201472
0.049968 0.708912 0.259245
0.050358 0.709302 0.317535
0.050750 0.709694 0.376236
0.051145 0.710089 0.435279
0.051542 0.710485 0.494616
0.051940 0.710884 0.554208
0.052340 0.711284 0.614029
0.052741 0.711685 0.674056
0.053144 0.712088 0.734270
0.053547 0.712491 0.794656
0.053952 0.712896 0.855201
0.054358 0.713302 0.915893
0.054687 0.713631 0.965187
0.052526 0.771390 0.048289
0.052821 0.771685 0.092418
0.053195 0.772060 0.148392
0.053577 0.772441 0.205467
0.053963 0.772827 0.263240
0.054353 0.773217 0.321530
0.054745 0.773609 0.380231
0.055140 0.774004 0.439274
0.055536 0.774401 0.498610
0.055935 0.774799 0.558203
0.056335 0.775199 0.618024
0.056736 0.775600 0.678050
0.057138 0.776003 0.738265
0.057542 0.776406 0.798650
0.057947 0.776811 0.859195
0.058352 0.777217 0.919888
0.058682 0.777546 0.969182
0.056531 0.835479 0.052294
0.056826 0.835774 0.096423
0.057200 0.836148 0.152398
0.057582 0.836530 0.209472
0.057968 0.836916 0.267245
0.058358 0.837305 0.325535
0.058750 0.837698 0.384236
0.059145 0.838092 0.443279
0.059542 0.838489 0.502616
0.059940 0.838887 0.562208
0.060340 0.839287 0.622029
0.060741 0.839689 0.682056
0.061144 0.840091 0.742270
0.061547 0.840495 0.802656
0.061952 0.840900 0.863201
0.062358 0.841305 0.923893
0.062687 0.841635 0.973187
0.060547 0.899728 0.056310
0.060842 0.900023 0.100439
0.061216 0.900397 0.156413
0.061597 0.900779 0.213487
0.061984 0.901165 0.271261
0.062373 0.901555 0.329551
0.062766 0.901947 0.388252
0.063160 0.902342 0.447295
0.063557 0.902738 0.506631
0.063955 0.903137 0.566224
0.064355 0.903537 0.626045
0.064757 0.903938 0.686071
0.065159 0.904340 0.746285
0.065563 0.904744 0.806671
0.065968 0.905149 0.867216
0.066373 0.905554 0.927909
0.066703 0.905884 0.977203
0.064572 0.964127 0.060335
0.064867 0.964422 0.104464
0.065241 0.964796 0.160438
0.065622 0.965178 0.217512
0.066008 0.965564 0.275286
0.066398 0.965954 0.333576
0.066791 0.966346 0.392277
0.067185 0.966741 0.451320
0.067582 0.967138 0.510656
0.067980 0.967536 0.570248
0.068380 0.967936 0.630069
0.068781 0.968337 0.690096
0.069184 0.968740 0.750310
0.069588 0.969143 0.810696
0.069992 0.969548 0.871241
0.070398 0.969954 0.931934
0.070728 0.970283 0.981227
0.059235 0.001151 0.001151
0.059530 0.001446 0.045280
0.059904 0.001820 0.101254
0.060285 0.002202 0.158329
0.060672 0.002588 0.216102
0.061061 0.002978 0.274392
0.061454 0.003370 0.333093
0.061848 0.003765 0.392136
0.062245 0.004161 0.451472
0.062643 0.004560 0.511065
0.063043 0.004960 0.570886
0.063445 0.005361 0.630913
0.063847 0.005763 0.691127
0.064251 0.006167 0.751513
0.064655 0.006572 0.812057
0.065061 0.006977 0.872750
0.065391 0.007307 0.922044
0.060816 0.026456 0.002733
0.061111 0.026751 0.046862
0.061485 0.027125 0.102836
0.061867 0.027507 0.159910
0.062253 0.027893 0.217684
0.062643 0.028283 0.275974
0.063035 0.028675 0.334675
0.063430 0.029070 0.393718
0.063827 0.029467 0.453054
0.064225 0.029865 0.512646
0.064625 0.030265 0.572467
0.065026 0.030666 0.632494
0.065429 0.031069 0.692708
0.065832 0.031472 0.753094
0.066237 0.031877 0.813639
0.066643 0.032283 0.874332
0.066972 0.032612 0.923625
0.064479 0.085065 0.006395
0.064774 0.085360 0.050524
0.065148 0.085734 0.106499
0.065530 0.086115 0.163573
0.065916 0.086502 0.221347
0.066306 0.086891 0.279636
0.066698 0.087284 0.338338
0.067093 0.087678 0.397381
0.067489 0.088075 0.456717
0.067888 0.088473 0.516309
0.068288 0.088873 0.576130
0.068689 0.089275 0.636157
0.069091 0.089677 0.696371
0.069495 0.090081 0.756757
0.069900 0.090486 0.817302
0.070306 0.090891 0.877995
0.070635 0.091221 0.927288
0.068236 0.145178 0.010152
0.068531 0.145473 0.054281
0.068905 0.145848 0.110256
0.069287 0.146229 0.167330
0.069673 0.146615 0.225104
0.070063 0.147005 0.283393
0.070455 0.147397 0.342095
0.070850 0.147792 0.401138
0.071246 0.148189 0.460474
0.071645 0.148587 0.520066
0.072045 0.148987 0.579887
0.072446 0.149388 0.639914
0.072848 0.149791 0.700128
0.073252 0.150195 0.760514
0.073657 0.150599 0.821059
0.074063 0.151005 0.881752
0.074392 0.151334 0.931045
0.072046 0.206146 0.013963
0.072341 0.206441 0.058092
0.072716 0.206816 0.114066
0.073097 0.207197 0.171140
0.073483 0.207583 0.228914
0.073873 0.207973 0.287204
0.074265 0.208365 0.345905
0.074660 0.208760 0.404948
0.075057 0.209157 0.464284
0.075455 0.209555 0.523877
0.075855 0.209955 0.583698
0.076256 0.210356 0.643724
0.076659 0.210759 0.703938
0.077062 0.211162 0.764324
0.077467 0.211567 0.824869
0.077873 0.211973 0.885562
0.078202 0.212302 0.934856
0.075895 0.267720 0.017811
0.076190 0.268015 0.061940
0.076564 0.268389 0.117914
0.076945 0.268770 0.174989
0.077332 0.269157 0.232762
0.077721 0.269546 0.291052
0.078114 0.269939 0.349753
0.078508 0.270333 0.408796
0.078905 0.270730 0.468132
0.079303 0.271128 0.527725
0.079703 0.271528 0.587546
0.080104 0.271930 0.647573
0.080507 0.272332 0.707787
0.080911 0.272736 0.768173
0.081315 0.273140 0.828717
0.081721 0.273546 0.889410
0.082051 0.273876 0.938704
0.079772 0.329764 0.021689
0.080067 0.330059 0.065818
0.080441 0.330433 0.121792
0.080823 0.330815 0.178866
0.081209 0.331201 0.236640
0.081599 0.331591 0.294930
0.081991 0.331983 0.353631
0.082386 0.332378 0.412674
0.082783 0.332774 0.472010
0.083181 0.333173 0.531602
0.083581 0.333573 0.591423
0.083982 0.333974 0.651450
0.084385 0.334377 0.711664
0.084788 0.334780 0.772050
0.085193 0.335185 0.832595
0.085599 0.335591 0.893288
0.085928 0.335920 0.942581
0.083674 0.392195 0.025590
0.083969 0.392490 0.069719
0.084343 0.392864 0.125694
0.084725 0.393246 0.182768
0.085111 0.393632 0.240541
0.085501 0.394021 0.298831
0.085893 0.394414 0.357533
0.086288 0.394809 0.416576
0.086684 0.395205 0.475912
0.087083 0.395604 0.535504
0.087483 0.396003 0.595325
0.087884 0.396405 0.655352
0.088286 0.396807 0.715566
0.088690 0.397211 0.775952
0.089095 0.397616 0.836497
0.089501 0.398021 0.897190
0.089830 0.398351 0.946483
0.087596 0.454954 0.029513
0.087891 0.455249 0.073642
0.088266 0.455623 0.129616
0.088647 0.456004 0.186690
0.089033 0.456390 0.244464
0.089423 0.456780 0.302754
0.089815 0.457172 0.361455
0.090210 0.457567 0.420498
0.090607 0.457964 0.479834
0.091005 0.458362 0.539427
0.091405 0.458762 0.599248
0.091806 0.459163 0.659274
0.092209 0.459566 0.719488
0.092612 0.459970 0.779874
0.093017 0.460374 0.840419
0.093423 0.460780 0.901112
0.093752 0.461110 0.950406
0.091536 0.517997 0.033453
0.091831 0.518292 0.077582
0.092206 0.518666 0.133556
0.092587 0.519048 0.190630
0.092973 0.519434 0.248404
0.093363 0.519824 0.306694
0.093755 0.520216 0.365395
0.094150 0.520611 0.424438
0.094547 0.521007 0.483774
0.094945 0.521406 0.543367
0.095345 0.521806 0.603188
0.095746 0.522207 0.663214
0.096149 0.522609 0.723428
0.096552 0.523013 0.783814
0.096957 0.523418 0.844359
0.097363 0.523824 0.905052
0.097692 0.524153 0.954346
0.095492 0.581293 0.037409
0.095787 0.581588 0.081538
0.096161 0.581962 0.137512
0.096543 0.582344 0.194586
0.096929 0.582730 0.252360
0.097319 0.583119 0.310650
0.097711 0.583512 0.369351
0.098106 0.583907 0.428394
0.098503 0.584303 0.487730
0.098901 0.584702 0.547322
0.099301 0.585101 0.607143
0.099702 0.585503 0.667170
0.100105 0.585905 0.727384
0.100508 0.586309 0.787770
0.100913 0.586714 0.848315
0.101319 0.587119 0.909008
0.101648 0.587449 0.958301
0.099462 0.644815 0.041379
0.099757 0.645110 0.085508
0.100131 0.645484 0.141482
0.100513 0.645866 0.198556
0.100899 0.646252 0.256330
0.101289 0.646641 0.314620
0.101681 0.647034 0.373321
0.102076 0.647429 0.432364
0.102473 0.647825 0.491700
0.102871 0.648224 0.551292
0.103271 0.648624 0.611113
0.103672 0.649025 0.671140
0.104075 0.649427 0.731354
0.104478 0.649831 0.791740
0.104883 0.650236 0.852285
0.105289 0.650641 0.912978
0.105618 0.650971 0.962271
0.103445 0.708542 0.045361
0.103740 0.708837 0.089490
0.104114 0.709211 0.145465
0.104496 0.709593 0.202539
0.104882 0.709979 0.260313
0.105272 0.710369 0.318602
0.105664 0.710761 0.377304
0.106059 0.711156 0.436347
0.106455 0.711553 0.495683
0.106854 0.711951 0.555275
0.107254 0.712351 0.615096
0.107655 0.712752 0.675123
0.108057 0.713155 0.735337
0.108461 0.713558 0.795723
0.108866 0.713963 0.856268
0.109272 0.714369 0.916961
0.109601 0.714698 0.966254
0.107440 0.772457 0.049356
0.107735 0.772752 0.093485
0.108109 0.773127 0.149459
0.108490 0.773508 0.206534
0.108877 0.773894 0.264307
0.109266 0.774284 0.322597
0.109659 0.774676 0.381298
0.110053 0.775071 0.440341
0.110450 0.775468 0.499677
0.110848 0.775866 0.559270
0.111248 0.776266 0.619091
0.111650 0.776667 0.679118
0.112052 0.777070 0.739332
0.112456 0.777473 0.799718
0.112860 0.777878 0.860262
0.113266 0.778284 0.920955
0.113596 0.778613 0.970249
0.111445 0.836546 0.053361
0.111740 0.836841 0.097490
0.112114 0.837215 0.153465
0.112496 0.837597 0.210539
0.112882 0.837983 0.268312
0.113272 0.838372 0.326602
0.113664 0.838765 0.385303
0.114059 0.839160 0.444347
0.114455 0.839556 0.503683
0.114854 0.839955 0.563275
0.115254 0.840354 0.623096
0.115655 0.840756 0.683123
0.116057 0.841158 0.743337
0.116461 0.841562 0.803723
0.116866 0.841967 0.864268
0.117272 0.842372 0.924961
0.117601 0.842702 0.974254
0.115460 0.900795 0.057377
0.115755 0.901090 0.101506
0.116130 0.901464 0.157480
0.116511 0.901846 0.214555
0.116897 0.902232 0.272328
0.117287 0.902622 0.330618
0.117679 0.903014 0.389319
0.118074 0.903409 0.448362
0.118471 0.903805 0.507698
0.118869 0.904204 0.567291
0.119269 0.904604 0.627112
0.119670 0.905005 0.687138
0.120073 0.905407 0.747352
0.120477 0.905811 0.807738
0.120881 0.906216 0.868283
0.121287 0.906622 0.928976
0.121616 0.906951 0.978270
0.119485 0.965194 0.061402
0.119780 0.965489 0.105531
0.120154 0.965863 0.161505
0.120536 0.966245 0.218579
0.120922 0.966631 0.276353
0.121312 0.967021 0.334643
0.121704 0.967413 0.393344
0.122099 0.967808 0.452387
0.122496 0.968205 0.511723
0.122894 0.968603 0.571315
0.123294 0.969003 0.631136
0.123695 0.969404 0.691163
0.124098 0.969807 0.751377
0.124501 0.970210 0.811763
0.124906 0.970615 0.872308
0.125312 0.971021 0.933001
0.125641 0.971350 0.982294
0.116292 0.002260 0.002260
0.116587 0.002555 0.046389
0.116961 0.002929 0.102363
0.117343 0.003310 0.159437
0.117729 0.003697 0.217211
0.118119 0.004086 0.275501
0.118511 0.004479 0.334202
0.118906 0.004873 0.393245
0.119302 0.005270 0.452581
0.119701 0.005668 0.512174
0.120101 0.006068 0.571995
0.120502 0.006470 0.632021
0.120905 0.006872 0.692235
0.121308 0.007276 0.752621
0.121713 0.007680 0.813166
0.122119 0.008086 0.873859
0.122448 0.008416 0.923153
0.117874 0.027565 0.003841
