skills/editops-orchestrator/assets/grade/luts/night_blue_v04.cube
TITLE "night_blue_v04"
LUT_3D_SIZE 9
DOMAIN_MIN 0.0 0.0 0.0
DOMAIN_MAX 1.0 1.0 1.0
0.000000 0.000000 0.000000
0.000732 0.000732 0.096375
0.001594 0.001594 0.210037
0.002477 0.002477 0.326313
0.003372 0.003372 0.444281
0.004277 0.004277 0.563513
0.005190 0.005190 0.683755
0.006109 0.006109 0.804841
0.006916 0.006916 0.911127
0.005278 0.074934 0.005278
0.006009 0.075666 0.101652
0.006872 0.076529 0.215314
0.007755 0.077411 0.331590
0.008650 0.078307 0.449559
0.009555 0.079212 0.568790
0.010468 0.080124 0.689033
0.011387 0.081043 0.810118
0.012194 0.081850 0.916404
0.013756 0.195314 0.013756
0.014487 0.196045 0.110130
0.015350 0.196908 0.223793
0.016233 0.197791 0.340069
0.017128 0.198686 0.458037
0.018033 0.199591 0.577269
0.018946 0.200504 0.697511
0.019865 0.201423 0.818597
0.020672 0.202230 0.924882
0.022461 0.318915 0.022461
0.023193 0.319647 0.118836
0.024056 0.320509 0.232498
0.024938 0.321392 0.348774
0.025834 0.322288 0.466743
0.026739 0.323193 0.585974
0.027651 0.324105 0.706216
0.028570 0.325024 0.827302
0.029377 0.325831 0.933588
0.031305 0.444485 0.031305
0.032037 0.445216 0.127680
0.032899 0.446079 0.241342
0.033782 0.446961 0.357618
0.034677 0.447857 0.475586
0.035582 0.448762 0.594818
0.036495 0.449675 0.715060
0.037414 0.450594 0.836146
0.038221 0.451401 0.942432
0.040250 0.571487 0.040250
0.040981 0.572219 0.136624
0.041844 0.573082 0.250287
0.042727 0.573964 0.366562
0.043622 0.574860 0.484531
0.044527 0.575765 0.603763
0.045440 0.576677 0.724005
0.046359 0.577597 0.845091
0.047166 0.578403 0.951376
0.049274 0.699622 0.049274
0.050006 0.700353 0.145649
0.050869 0.701216 0.259311
0.051751 0.702099 0.375587
0.052647 0.702994 0.493556
0.053552 0.703899 0.612787
0.054465 0.704812 0.733029
0.055384 0.705731 0.854115
0.056190 0.706538 0.960401
0.058365 0.828694 0.058365
0.059096 0.829425 0.154739
0.059959 0.830288 0.268402
0.060842 0.831171 0.384678
0.061737 0.832066 0.502646
0.062642 0.832971 0.621878
0.063555 0.833884 0.742120
0.064474 0.834803 0.863206
0.065281 0.835610 0.969491
0.067512 0.958566 0.067512
0.068243 0.959298 0.163886
0.069106 0.960161 0.277549
0.069989 0.961043 0.393824
0.070884 0.961939 0.511793
0.071789 0.962844 0.631025
0.072702 0.963756 0.751267
0.073621 0.964676 0.872353
0.074428 0.965482 0.978638
0.045048 0.000992 0.000992
0.045779 0.001724 0.097367
0.046642 0.002587 0.211029
0.047525 0.003469 0.327305
0.048420 0.004365 0.445274
0.049325 0.005270 0.564505
0.050238 0.006182 0.684747
0.051157 0.007101 0.805833
0.051964 0.007908 0.912119
0.050325 0.075926 0.006270
0.051057 0.076658 0.102644
0.051920 0.077521 0.216307
0.052802 0.078403 0.332582
0.053698 0.079299 0.450551
0.054603 0.080204 0.569783
0.055515 0.081117 0.690025
0.056435 0.082036 0.811111
0.057241 0.082842 0.917396
0.058804 0.196306 0.014748
0.059535 0.197037 0.111123
0.060398 0.197900 0.224785
0.061281 0.198783 0.341061
0.062176 0.199678 0.459030
0.063081 0.200583 0.578261
0.063994 0.201496 0.698503
0.064913 0.202415 0.819589
0.065720 0.203222 0.925875
0.067509 0.319907 0.023453
0.068240 0.320639 0.119828
0.069103 0.321502 0.233490
0.069986 0.322384 0.349766
0.070881 0.323280 0.467735
0.071786 0.324185 0.586966
0.072699 0.325097 0.707208
0.073618 0.326017 0.828294
0.074425 0.326823 0.934580
0.076353 0.445477 0.032297
0.077084 0.446208 0.128672
0.077947 0.447071 0.242334
0.078830 0.447954 0.358610
0.079725 0.448849 0.476579
0.080630 0.449754 0.595810
0.081543 0.450667 0.716052
0.082462 0.451586 0.837138
0.083269 0.452393 0.943424
0.085298 0.572480 0.041242
0.086029 0.573211 0.137617
0.086892 0.574074 0.251279
0.087774 0.574956 0.367555
0.088670 0.575852 0.485523
0.089575 0.576757 0.604755
0.090488 0.577670 0.724997
0.091407 0.578589 0.846083
0.092214 0.579396 0.952369
0.094322 0.700614 0.050267
0.095054 0.701346 0.146641
0.095916 0.702208 0.260303
0.096799 0.703091 0.376579
0.097694 0.703987 0.494548
0.098599 0.704892 0.613779
0.099512 0.705804 0.734022
0.100431 0.706723 0.855107
0.101238 0.707530 0.961393
0.103413 0.829686 0.059357
0.104144 0.830418 0.155732
0.105007 0.831280 0.269394
0.105890 0.832163 0.385670
0.106785 0.833058 0.503638
0.107690 0.833963 0.622870
0.108603 0.834876 0.743112
0.109522 0.835795 0.864198
0.110329 0.836602 0.970484
0.112560 0.959559 0.068504
0.113291 0.960290 0.164879
0.114154 0.961153 0.278541
0.115036 0.962035 0.394817
0.115932 0.962931 0.512785
0.116837 0.963836 0.632017
0.117750 0.964749 0.752259
0.118669 0.965668 0.873345
0.119476 0.966475 0.979631
0.158317 0.003487 0.003487
0.159048 0.004219 0.099862
0.159911 0.005081 0.213524
0.160794 0.005964 0.329800
0.161689 0.006859 0.447768
0.162594 0.007765 0.567000
0.163507 0.008677 0.687242
0.164426 0.009596 0.808328
0.165233 0.010403 0.914614
0.163594 0.078421 0.008765
0.164326 0.079153 0.105139
0.165189 0.080016 0.218802
0.166071 0.080898 0.335077
0.166967 0.081794 0.453046
0.167872 0.082699 0.572278
0.168784 0.083611 0.692520
0.169704 0.084531 0.813605
0.170510 0.085337 0.919891
0.172073 0.198801 0.017243
0.172804 0.199532 0.113618
0.173667 0.200395 0.227280
0.174550 0.201278 0.343556
0.175445 0.202173 0.461524
0.176350 0.203078 0.580756
0.177263 0.203991 0.700998
0.178182 0.204910 0.822084
0.178989 0.205717 0.928370
0.180778 0.322402 0.025948
0.181509 0.323134 0.122323
0.182372 0.323997 0.235985
0.183255 0.324879 0.352261
0.184150 0.325775 0.470230
0.185055 0.326680 0.589461
0.185968 0.327592 0.709703
0.186887 0.328511 0.830789
0.187694 0.329318 0.937075
0.189622 0.447972 0.034792
0.190353 0.448703 0.131167
0.191216 0.449566 0.244829
0.192099 0.450449 0.361105
0.192994 0.451344 0.479074
0.193899 0.452249 0.598305
0.194812 0.453162 0.718547
0.195731 0.454081 0.839633
0.196538 0.454888 0.945919
0.198567 0.574974 0.043737
0.199298 0.575706 0.140112
0.200161 0.576569 0.253774
0.201044 0.577451 0.370050
0.201939 0.578347 0.488018
0.202844 0.579252 0.607250
0.203757 0.580165 0.727492
0.204676 0.581084 0.848578
0.205483 0.581890 0.954864
0.207591 0.703109 0.052761
0.208323 0.703841 0.149136
0.209185 0.704703 0.262798
0.210068 0.705586 0.379074
0.210963 0.706481 0.497043
0.211869 0.707386 0.616274
0.212781 0.708299 0.736516
0.213700 0.709218 0.857602
0.214507 0.710025 0.963888
0.216682 0.832181 0.061852
0.217413 0.832912 0.158227
0.218276 0.833775 0.271889
0.219159 0.834658 0.388165
0.220054 0.835553 0.506133
0.220959 0.836458 0.625365
0.221872 0.837371 0.745607
0.222791 0.838290 0.866693
0.223598 0.839097 0.972979
0.225829 0.962053 0.070999
0.226560 0.962785 0.167373
0.227423 0.963648 0.281036
0.228305 0.964530 0.397312
0.229201 0.965426 0.515280
0.230106 0.966331 0.634512
0.231019 0.967244 0.754754
0.231938 0.968163 0.875840
0.232745 0.968969 0.982125
0.275234 0.006062 0.006062
0.275966 0.006794 0.102437
0.276828 0.007657 0.216099
0.277711 0.008539 0.332375
0.278606 0.009435 0.450344
0.279511 0.010340 0.569575
0.280424 0.011252 0.689817
0.281343 0.012172 0.810903
0.282150 0.012978 0.917189
0.280512 0.080997 0.011340
0.281243 0.081728 0.107715
0.282106 0.082591 0.221377
0.282989 0.083474 0.337653
0.283884 0.084369 0.455621
0.284789 0.085274 0.574853
0.285702 0.086187 0.695095
0.286621 0.087106 0.816181
0.287428 0.087913 0.922466
0.288990 0.201376 0.019818
0.289722 0.202108 0.116193
0.290584 0.202970 0.229855
0.291467 0.203853 0.346131
0.292362 0.204748 0.464100
0.293267 0.205653 0.583331
0.294180 0.206566 0.703573
0.295099 0.207485 0.824659
0.295906 0.208292 0.930945
0.297695 0.324978 0.028524
0.298427 0.325709 0.124898
0.299290 0.326572 0.238560
0.300172 0.327454 0.354836
0.301068 0.328350 0.472805
0.301973 0.329255 0.592036
0.302885 0.330168 0.712278
0.303804 0.331087 0.833364
0.304611 0.331894 0.939650
0.306539 0.450547 0.037367
0.307271 0.451278 0.133742
0.308133 0.452141 0.247404
0.309016 0.453024 0.363680
0.309911 0.453919 0.481649
0.310817 0.454824 0.600880
0.311729 0.455737 0.721122
0.312648 0.456656 0.842208
0.313455 0.457463 0.948494
0.315484 0.577550 0.046312
0.316215 0.578281 0.142687
0.317078 0.579144 0.256349
0.317961 0.580027 0.372625
0.318856 0.580922 0.490594
0.319761 0.581827 0.609825
0.320674 0.582740 0.730067
0.321593 0.583659 0.851153
0.322400 0.584466 0.957439
0.324508 0.705684 0.055337
0.325240 0.706416 0.151711
0.326103 0.707279 0.265374
0.326985 0.708161 0.381649
0.327881 0.709057 0.499618
0.328786 0.709962 0.618850
0.329699 0.710874 0.739092
0.330618 0.711794 0.860177
0.331424 0.712600 0.966463
0.333599 0.834756 0.064427
0.334331 0.835488 0.160802
0.335193 0.836350 0.274464
0.336076 0.837233 0.390740
0.336971 0.838128 0.508709
0.337876 0.839034 0.627940
0.338789 0.839946 0.748182
0.339708 0.840865 0.869268
0.340515 0.841672 0.975554
0.342746 0.964629 0.073574
0.343477 0.965360 0.169949
0.344340 0.966223 0.283611
0.345223 0.967106 0.399887
0.346118 0.968001 0.517856
0.347023 0.968906 0.637087
0.347936 0.969819 0.757329
0.348855 0.970738 0.878415
0.349662 0.971545 0.984701
0.394206 0.008683 0.008683
0.394938 0.009414 0.105057
0.395800 0.010277 0.218720
0.396683 0.011160 0.334995
0.397579 0.012055 0.452964
0.398484 0.012960 0.572196
0.399396 0.013873 0.692438
0.400315 0.014792 0.813524
0.401122 0.015599 0.919809
0.399484 0.083617 0.013960
0.400215 0.084349 0.110335
0.401078 0.085211 0.223997
0.401961 0.086094 0.340273
0.402856 0.086989 0.458242
0.403761 0.087895 0.577473
0.404674 0.088807 0.697715
0.405593 0.089726 0.818801
0.406400 0.090533 0.925087
0.407962 0.203997 0.022439
0.408694 0.204728 0.118813
0.409556 0.205591 0.232476
0.410439 0.206473 0.348751
0.411334 0.207369 0.466720
0.412240 0.208274 0.585952
0.413152 0.209187 0.706194
0.414071 0.210106 0.827280
0.414878 0.210913 0.933565
0.416667 0.327598 0.031144
0.417399 0.328330 0.127519
0.418262 0.329192 0.241181
0.419144 0.330075 0.357457
0.420040 0.330970 0.475425
0.420945 0.331875 0.594657
0.421857 0.332788 0.714899
0.422777 0.333707 0.835985
0.423583 0.334514 0.942271
0.425511 0.453167 0.039988
0.426243 0.453899 0.136362
0.427106 0.454762 0.250025
0.427988 0.455644 0.366301
0.428884 0.456540 0.484269
0.429789 0.457445 0.603501
0.430701 0.458358 0.723743
0.431620 0.459277 0.844829
0.432427 0.460083 0.951114
0.434456 0.580170 0.048933
0.435188 0.580902 0.145307
0.436050 0.581764 0.258969
0.436933 0.582647 0.375245
0.437828 0.583543 0.493214
0.438733 0.584448 0.612446
0.439646 0.585360 0.732688
0.440565 0.586279 0.853773
0.441372 0.587086 0.960059
0.443481 0.708305 0.057957
0.444212 0.709036 0.154332
0.445075 0.709899 0.267994
0.445957 0.710782 0.384270
0.446853 0.711677 0.502239
0.447758 0.712582 0.621470
0.448671 0.713495 0.741712
0.449590 0.714414 0.862798
0.450397 0.715221 0.969084
0.452571 0.837377 0.067048
0.453303 0.838108 0.163422
0.454165 0.838971 0.277085
0.455048 0.839854 0.393360
0.455943 0.840749 0.511329
0.456848 0.841654 0.630561
0.457761 0.842567 0.750803
0.458680 0.843486 0.871889
0.459487 0.844293 0.978174
0.461718 0.967249 0.076195
0.462450 0.967981 0.172569
0.463312 0.968843 0.286231
0.464195 0.969726 0.402507
0.465090 0.970622 0.520476
0.465995 0.971527 0.639708
0.466908 0.972439 0.759950
0.467827 0.973358 0.881035
0.468634 0.974165 0.987321
0.514633 0.011335 0.011335
0.515364 0.012067 0.107710
0.516227 0.012930 0.221372
0.517110 0.013812 0.337648
0.518005 0.014708 0.455617
0.518910 0.015613 0.574848
0.519823 0.016525 0.695090
0.520742 0.017445 0.816176
0.521549 0.018251 0.922462
0.519911 0.086270 0.016613
0.520642 0.087001 0.112988
0.521505 0.087864 0.226650
0.522387 0.088747 0.342926
0.523283 0.089642 0.460894
0.524188 0.090547 0.580126
0.525101 0.091460 0.700368
0.526020 0.092379 0.821454
0.526827 0.093186 0.927740
0.528389 0.206649 0.025091
0.529120 0.207381 0.121466
0.529983 0.208243 0.235128
0.530866 0.209126 0.351404
0.531761 0.210021 0.469373
0.532666 0.210926 0.588604
0.533579 0.211839 0.708846
0.534498 0.212758 0.829932
0.535305 0.213565 0.936218
0.537094 0.330251 0.033797
0.537826 0.330982 0.130171
0.538688 0.331845 0.243833
0.539571 0.332727 0.360109
0.540467 0.333623 0.478078
0.541372 0.334528 0.597309
0.542284 0.335441 0.717551
0.543203 0.336360 0.838637
0.544010 0.337167 0.944923
0.545938 0.455820 0.042640
0.546670 0.456552 0.139015
0.547532 0.457414 0.252677
0.548415 0.458297 0.368953
0.549310 0.459192 0.486922
0.550215 0.460097 0.606153
0.551128 0.461010 0.726395
0.552047 0.461929 0.847481
0.552854 0.462736 0.953767
0.554883 0.582823 0.051585
0.555614 0.583554 0.147960
0.556477 0.584417 0.261622
0.557360 0.585300 0.377898
0.558255 0.586195 0.495867
0.559160 0.587100 0.615098
0.560073 0.588013 0.735340
0.560992 0.588932 0.856426
0.561799 0.589739 0.962712
0.563907 0.710957 0.060610
0.564639 0.711689 0.156984
0.565502 0.712552 0.270647
0.566384 0.713434 0.386922
0.567280 0.714330 0.504891
0.568185 0.715235 0.624123
0.569097 0.716147 0.744365
0.570017 0.717067 0.865451
0.570823 0.717873 0.971736
0.572998 0.840029 0.069700
0.573729 0.840761 0.166075
0.574592 0.841623 0.279737
0.575475 0.842506 0.396013
0.576370 0.843402 0.513982
0.577275 0.844307 0.633213
0.578188 0.845219 0.753455
0.579107 0.846138 0.874541
0.579914 0.846945 0.980827
0.582145 0.969902 0.078847
0.582876 0.970633 0.175222
0.583739 0.971496 0.288884
0.584622 0.972379 0.405160
0.585517 0.973274 0.523129
0.586422 0.974179 0.642360
0.587335 0.975092 0.762602
0.588254 0.976011 0.883688
0.589061 0.976818 0.989974
0.636191 0.014013 0.014013
0.636923 0.014744 0.110387
0.637786 0.015607 0.224050
0.638668 0.016490 0.340325
0.639564 0.017385 0.458294
0.640469 0.018290 0.577526
0.641382 0.019203 0.697768
0.642301 0.020122 0.818854
0.643107 0.020929 0.925139
0.641469 0.088947 0.019290
0.642201 0.089679 0.115665
0.643063 0.090541 0.229327
0.643946 0.091424 0.345603
0.644841 0.092319 0.463572
0.645746 0.093225 0.582803
0.646659 0.094137 0.703045
0.647578 0.095056 0.824131
0.648385 0.095863 0.930417
0.649947 0.209327 0.027769
0.650679 0.210058 0.124143
0.651542 0.210921 0.237806
0.652424 0.211803 0.354081
0.653320 0.212699 0.472050
0.654225 0.213604 0.591282
0.655137 0.214517 0.711524
0.656057 0.215436 0.832610
0.656863 0.216243 0.938895
0.658653 0.332928 0.036474
0.659384 0.333660 0.132849
0.660247 0.334522 0.246511
0.661130 0.335405 0.362787
0.662025 0.336300 0.480755
0.662930 0.337205 0.599987
0.663843 0.338118 0.720229
0.664762 0.339037 0.841315
0.665569 0.339844 0.947601
0.667496 0.458497 0.045318
0.668228 0.459229 0.141692
0.669091 0.460092 0.255355
0.669973 0.460974 0.371631
0.670869 0.461870 0.489599
0.671774 0.462775 0.608831
0.672687 0.463688 0.729073
0.673606 0.464607 0.850159
0.674412 0.465413 0.956444
0.676441 0.585500 0.054263
0.677173 0.586232 0.150637
0.678036 0.587094 0.264299
0.678918 0.587977 0.380575
0.679814 0.588873 0.498544
0.680719 0.589778 0.617776
0.681631 0.590690 0.738018
0.682550 0.591609 0.859103
0.683357 0.592416 0.965389
0.685466 0.713635 0.063287
0.686197 0.714366 0.159662
0.687060 0.715229 0.273324
0.687943 0.716112 0.389600
0.688838 0.717007 0.507569
0.689743 0.717912 0.626800
0.690656 0.718825 0.747042
0.691575 0.719744 0.868128
0.692382 0.720551 0.974414
0.694556 0.842707 0.072378
0.695288 0.843438 0.168752
0.696151 0.844301 0.282415
0.697033 0.845184 0.398690
0.697929 0.846079 0.516659
0.698834 0.846984 0.635891
0.699746 0.847897 0.756133
0.700666 0.848816 0.877219
0.701472 0.849623 0.983504
0.703703 0.972579 0.081525
0.704435 0.973311 0.177899
0.705298 0.974173 0.291561
0.706180 0.975056 0.407837
0.707076 0.975952 0.525806
0.707981 0.976857 0.645038
0.708893 0.977769 0.765280
0.709812 0.978688 0.886365
0.710619 0.979495 0.992651
0.758678 0.016711 0.016711
0.759410 0.017442 0.113085
0.760272 0.018305 0.226748
0.761155 0.019188 0.343023
0.762051 0.020083 0.460992
0.762956 0.020988 0.580224
0.763868 0.021901 0.700466
0.764787 0.022820 0.821552
0.765594 0.023627 0.927837
0.763956 0.091645 0.021988
0.764687 0.092377 0.118363
0.765550 0.093239 0.232025
0.766433 0.094122 0.348301
0.767328 0.095017 0.466270
0.768233 0.095922 0.585501
0.769146 0.096835 0.705743
0.770065 0.097754 0.826829
0.770872 0.098561 0.933115
0.772434 0.212024 0.030467
0.773166 0.212756 0.126841
0.774028 0.213619 0.240503
0.774911 0.214501 0.356779
0.775806 0.215397 0.474748
0.776712 0.216302 0.593980
0.777624 0.217215 0.714222
0.778543 0.218134 0.835307
0.779350 0.218940 0.941593
0.781139 0.335626 0.039172
0.781871 0.336357 0.135546
0.782734 0.337220 0.249209
0.783616 0.338103 0.365485
0.784512 0.338998 0.483453
0.785417 0.339903 0.602685
0.786329 0.340816 0.722927
0.787249 0.341735 0.844013
0.788055 0.342542 0.950298
0.789983 0.461195 0.048016
0.790715 0.461927 0.144390
0.791578 0.462790 0.258053
0.792460 0.463672 0.374328
0.793356 0.464568 0.492297
0.794261 0.465473 0.611529
0.795173 0.466385 0.731771
0.796092 0.467305 0.852857
0.796899 0.468111 0.959142
0.798928 0.588198 0.056961
0.799660 0.588930 0.153335
0.800522 0.589792 0.266997
0.801405 0.590675 0.383273
0.802300 0.591570 0.501242
0.803205 0.592476 0.620474
0.804118 0.593388 0.740716
0.805037 0.594307 0.861801
0.805844 0.595114 0.968087
0.807953 0.716333 0.065985
0.808684 0.717064 0.162360
0.809547 0.717927 0.276022
0.810429 0.718810 0.392298
0.811325 0.719705 0.510266
0.812230 0.720610 0.629498
0.813143 0.721523 0.749740
0.814062 0.722442 0.870826
0.814869 0.723249 0.977112
0.817043 0.845405 0.075076
0.817775 0.846136 0.171450
0.818637 0.846999 0.285112
0.819520 0.847881 0.401388
0.820415 0.848777 0.519357
0.821320 0.849682 0.638589
0.822233 0.850595 0.758831
0.823152 0.851514 0.879916
0.823959 0.852321 0.986202
0.826190 0.975277 0.084223
0.826922 0.976009 0.180597
0.827784 0.976871 0.294259
0.828667 0.977754 0.410535
0.829562 0.978649 0.528504
0.830467 0.979554 0.647735
0.831380 0.980467 0.767978
0.832299 0.981386 0.889063
0.833106 0.982193 0.995349
0.881953 0.019426 0.019426
0.882685 0.020158 0.115801
0.883547 0.021020 0.229463
0.884430 0.021903 0.345739
0.885325 0.022798 0.463707
0.886230 0.023703 0.582939
0.887143 0.024616 0.703181
0.888062 0.025535 0.824267
0.888869 0.026342 0.930553
0.887231 0.094360 0.024704
0.887962 0.095092 0.121078
0.888825 0.095955 0.234740
0.889708 0.096837 0.351016
0.890603 0.097733 0.468985
0.891508 0.098638 0.588217
0.892421 0.099550 0.708459
0.893340 0.100470 0.829544
0.894147 0.101276 0.935830
0.895709 0.214740 0.033182
0.896440 0.215471 0.129557
0.897303 0.216334 0.243219
0.898186 0.217217 0.359495
0.899081 0.218112 0.477463
0.899986 0.219017 0.596695
0.900899 0.219930 0.716937
0.901818 0.220849 0.838023
0.902625 0.221656 0.944309
0.904414 0.338341 0.041887
0.905146 0.339073 0.138262
0.906009 0.339935 0.251924
0.906891 0.340818 0.368200
0.907787 0.341714 0.486169
0.908692 0.342619 0.605400
0.909604 0.343531 0.725642
0.910523 0.344450 0.846728
0.911330 0.345257 0.953014
0.913258 0.463911 0.050731
0.913990 0.464642 0.147106
0.914852 0.465505 0.260768
0.915735 0.466388 0.377044
0.916630 0.467283 0.495012
0.917535 0.468188 0.614244
0.918448 0.469101 0.734486
0.919367 0.470020 0.855572
0.920174 0.470827 0.961858
0.922203 0.590913 0.059676
0.922934 0.591645 0.156050
0.923797 0.592508 0.269713
0.924680 0.593390 0.385989
0.925575 0.594286 0.503957
0.926480 0.595191 0.623189
0.927393 0.596103 0.743431
0.928312 0.597023 0.864517
0.929119 0.597829 0.970802
0.931227 0.719048 0.068700
0.931959 0.719780 0.165075
0.932822 0.720642 0.278737
0.933704 0.721525 0.395013
0.934600 0.722420 0.512982
0.935505 0.723325 0.632213
0.936417 0.724238 0.752455
0.937337 0.725157 0.873541
0.938143 0.725964 0.979827
0.940318 0.848120 0.077791
0.941049 0.848851 0.174165
0.941912 0.849714 0.287828
0.942795 0.850597 0.404104
0.943690 0.851492 0.522072
0.944595 0.852397 0.641304
0.945508 0.853310 0.761546
0.946427 0.854229 0.882632
0.947234 0.855036 0.988917
0.949465 0.977992 0.086938
0.950196 0.978724 0.183312
0.951059 0.979587 0.296975
0.951942 0.980469 0.413250
0.952837 0.981365 0.531219
0.953742 0.982270 0.650451
0.954655 0.983182 0.770693
0.955574 0.984102 0.891779
0.956381 0.984908 0.998064
