skills/editops-orchestrator/assets/grade/luts/night_blue_v19.cube
TITLE "night_blue_v19"
LUT_3D_SIZE 9
DOMAIN_MIN 0.0 0.0 0.0
DOMAIN_MAX 1.0 1.0 1.0
0.000000 0.000000 0.000000
0.001082 0.001082 0.071835
0.002651 0.002651 0.176059
0.004312 0.004312 0.286379
0.006033 0.006033 0.400658
0.007798 0.007798 0.517912
0.009600 0.009600 0.637564
0.011432 0.011432 0.759233
0.012616 0.012616 0.837879
0.002060 0.015661 0.002060
0.003141 0.016743 0.073895
0.004711 0.018312 0.178119
0.006372 0.019973 0.288439
0.008092 0.021694 0.402718
0.009858 0.023459 0.519972
0.011660 0.025261 0.639624
0.013491 0.027093 0.761293
0.014676 0.028277 0.839939
0.016559 0.125905 0.016559
0.017640 0.126986 0.088394
0.019210 0.128556 0.192618
0.020871 0.130217 0.302938
0.022591 0.131937 0.417217
0.024357 0.133703 0.534471
0.026158 0.135505 0.654123
0.027990 0.137336 0.775792
0.029175 0.138521 0.854438
0.032515 0.247232 0.032515
0.033597 0.248314 0.104351
0.035166 0.249883 0.208575
0.036827 0.251544 0.318895
0.038548 0.253265 0.433174
0.040313 0.255030 0.550427
0.042115 0.256832 0.670080
0.043947 0.258664 0.791748
0.045131 0.259848 0.870394
0.049221 0.374257 0.049221
0.050303 0.375339 0.121057
0.051872 0.376908 0.225281
0.053533 0.378569 0.335600
0.055254 0.380290 0.449879
0.057019 0.382055 0.567133
0.058821 0.383857 0.686785
0.060653 0.385689 0.808454
0.061837 0.386873 0.887100
0.066450 0.505259 0.066450
0.067532 0.506340 0.138285
0.069101 0.507910 0.242509
0.070762 0.509571 0.352829
0.072483 0.511292 0.467108
0.074248 0.513057 0.584362
0.076050 0.514859 0.704014
0.077882 0.516691 0.825683
0.079066 0.517875 0.904329
0.084085 0.639346 0.084085
0.085166 0.640428 0.155920
0.086736 0.641997 0.260144
0.088397 0.643658 0.370464
0.090117 0.645379 0.484743
0.091883 0.647144 0.601997
0.093685 0.648946 0.721649
0.095517 0.650778 0.843318
0.096701 0.651962 0.921964
0.102053 0.775967 0.102053
0.103134 0.777049 0.173888
0.104704 0.778618 0.278112
0.106365 0.780279 0.388432
0.108085 0.782000 0.502711
0.109851 0.783765 0.619965
0.111653 0.785567 0.739617
0.113484 0.787399 0.861286
0.114669 0.788583 0.939932
0.120304 0.914745 0.120304
0.121386 0.915827 0.192140
0.122955 0.917396 0.296364
0.124616 0.919057 0.406684
0.126337 0.920778 0.520963
0.128102 0.922543 0.638216
0.129904 0.924345 0.757869
0.131736 0.926177 0.879537
0.132920 0.927361 0.958183
0.000000 0.000000 0.000000
0.001082 0.001082 0.071835
0.002651 0.002651 0.176059
0.004312 0.004312 0.286379
0.006033 0.006033 0.400658
0.007798 0.007798 0.517912
0.009600 0.009600 0.637564
0.011432 0.011432 0.759233
0.012616 0.012616 0.837879
0.002060 0.015661 0.002060
0.003141 0.016743 0.073895
0.004711 0.018312 0.178119
0.006372 0.019973 0.288439
0.008092 0.021694 0.402718
0.009858 0.023459 0.519972
0.011660 0.025261 0.639624
0.013491 0.027093 0.761293
0.014676 0.028277 0.839939
0.016559 0.125905 0.016559
0.017640 0.126986 0.088394
0.019210 0.128556 0.192618
0.020871 0.130217 0.302938
0.022591 0.131937 0.417217
0.024357 0.133703 0.534471
0.026158 0.135505 0.654123
0.027990 0.137336 0.775792
0.029175 0.138521 0.854438
0.032515 0.247232 0.032515
0.033597 0.248314 0.104351
0.035166 0.249883 0.208575
0.036827 0.251544 0.318895
0.038548 0.253265 0.433174
0.040313 0.255030 0.550427
0.042115 0.256832 0.670080
0.043947 0.258664 0.791748
0.045131 0.259848 0.870394
0.049221 0.374257 0.049221
0.050303 0.375339 0.121057
0.051872 0.376908 0.225281
0.053533 0.378569 0.335600
0.055254 0.380290 0.449879
0.057019 0.382055 0.567133
0.058821 0.383857 0.686785
0.060653 0.385689 0.808454
0.061837 0.386873 0.887100
0.066450 0.505259 0.066450
0.067532 0.506340 0.138285
0.069101 0.507910 0.242509
0.070762 0.509571 0.352829
0.072483 0.511292 0.467108
0.074248 0.513057 0.584362
0.076050 0.514859 0.704014
0.077882 0.516691 0.825683
0.079066 0.517875 0.904329
0.084085 0.639346 0.084085
0.085166 0.640428 0.155920
0.086736 0.641997 0.260144
0.088397 0.643658 0.370464
0.090117 0.645379 0.484743
0.091883 0.647144 0.601997
0.093685 0.648946 0.721649
0.095517 0.650778 0.843318
0.096701 0.651962 0.921964
0.102053 0.775967 0.102053
0.103134 0.777049 0.173888
0.104704 0.778618 0.278112
0.106365 0.780279 0.388432
0.108085 0.782000 0.502711
0.109851 0.783765 0.619965
0.111653 0.785567 0.739617
0.113484 0.787399 0.861286
0.114669 0.788583 0.939932
0.120304 0.914745 0.120304
0.121386 0.915827 0.192140
0.122955 0.917396 0.296364
0.124616 0.919057 0.406684
0.126337 0.920778 0.520963
0.128102 0.922543 0.638216
0.129904 0.924345 0.757869
0.131736 0.926177 0.879537
0.132920 0.927361 0.958183
0.050766 0.002187 0.002187
0.051848 0.003268 0.074022
0.053417 0.004838 0.178246
0.055078 0.006499 0.288566
0.056799 0.008220 0.402845
0.058564 0.009985 0.520099
0.060366 0.011787 0.639751
0.062198 0.013619 0.761420
0.063382 0.014803 0.840066
0.052826 0.017848 0.004246
0.053908 0.018929 0.076082
0.055477 0.020499 0.180306
0.057138 0.022160 0.290626
0.058859 0.023880 0.404905
0.060624 0.025646 0.522159
0.062426 0.027448 0.641811
0.064258 0.029279 0.763480
0.065442 0.030464 0.842126
0.067325 0.128091 0.018745
0.068406 0.129173 0.090581
0.069976 0.130742 0.194805
0.071637 0.132403 0.305125
0.073358 0.134124 0.419404
0.075123 0.135890 0.536658
0.076925 0.137691 0.656310
0.078757 0.139523 0.777979
0.079941 0.140707 0.856625
0.083281 0.249419 0.034702
0.084363 0.250501 0.106537
0.085932 0.252070 0.210761
0.087593 0.253731 0.321081
0.089314 0.255452 0.435360
0.091080 0.257217 0.552614
0.092881 0.259019 0.672266
0.094713 0.260851 0.793935
0.095897 0.262035 0.872581
0.099987 0.376444 0.051408
0.101069 0.377526 0.123243
0.102638 0.379095 0.227467
0.104299 0.380756 0.337787
0.106020 0.382477 0.452066
0.107786 0.384242 0.569320
0.109587 0.386044 0.688972
0.111419 0.387876 0.810641
0.112603 0.389060 0.889287
0.117216 0.507446 0.068637
0.118298 0.508527 0.140472
0.119867 0.510097 0.244696
0.121528 0.511758 0.355016
0.123249 0.513478 0.469295
0.125014 0.515244 0.586549
0.126816 0.517045 0.706201
0.128648 0.518877 0.827870
0.129832 0.520062 0.906516
0.134851 0.641533 0.086271
0.135933 0.642614 0.158107
0.137502 0.644184 0.262331
0.139163 0.645845 0.372651
0.140884 0.647566 0.486930
0.142649 0.649331 0.604184
0.144451 0.651133 0.723836
0.146283 0.652965 0.845505
0.147467 0.654149 0.924151
0.152819 0.778154 0.104239
0.153901 0.779236 0.176075
0.155470 0.780805 0.280299
0.157131 0.782466 0.390619
0.158852 0.784187 0.504898
0.160617 0.785952 0.622152
0.162419 0.787754 0.741804
0.164251 0.789586 0.863473
0.165435 0.790770 0.942119
0.171070 0.916932 0.122491
0.172152 0.918013 0.194327
0.173721 0.919583 0.298551
0.175382 0.921244 0.408870
0.177103 0.922964 0.523149
0.178869 0.924730 0.640403
0.180670 0.926532 0.760055
0.182502 0.928364 0.881724
0.183686 0.929548 0.960370
0.155914 0.006716 0.006716
0.156996 0.007798 0.078552
0.158565 0.009367 0.182776
0.160226 0.011028 0.293096
0.161947 0.012749 0.407374
0.163713 0.014514 0.524628
0.165514 0.016316 0.644281
0.167346 0.018148 0.765949
0.168530 0.019332 0.844595
0.157974 0.022377 0.008776
0.159056 0.023459 0.080611
0.160625 0.025028 0.184835
0.162286 0.026689 0.295155
0.164007 0.028410 0.409434
0.165772 0.030175 0.526688
0.167574 0.031977 0.646340
0.169406 0.033809 0.768009
0.170590 0.034993 0.846655
0.172473 0.132621 0.023275
0.173555 0.133702 0.095110
0.175124 0.135272 0.199334
0.176785 0.136933 0.309654
0.178506 0.138654 0.423933
0.180271 0.140419 0.541187
0.182073 0.142221 0.660839
0.183905 0.144053 0.782508
0.185089 0.145237 0.861154
0.188430 0.253948 0.039231
0.189511 0.255030 0.111067
0.191080 0.256599 0.215291
0.192742 0.258260 0.325611
0.194462 0.259981 0.439890
0.196228 0.261747 0.557144
0.198029 0.263548 0.676796
0.199861 0.265380 0.798464
0.201046 0.266564 0.877110
0.205135 0.380973 0.055937
0.206217 0.382055 0.127773
0.207786 0.383624 0.231997
0.209447 0.385285 0.342317
0.211168 0.387006 0.456596
0.212934 0.388772 0.573849
0.214735 0.390573 0.693502
0.216567 0.392405 0.815170
0.217751 0.393589 0.893816
0.222364 0.511975 0.073166
0.223446 0.513057 0.145002
0.225015 0.514626 0.249226
0.226676 0.516287 0.359546
0.228397 0.518008 0.473824
0.230163 0.519773 0.591078
0.231964 0.521575 0.710731
0.233796 0.523407 0.832399
0.234980 0.524591 0.911045
0.239999 0.646062 0.090801
0.241081 0.647144 0.162636
0.242650 0.648713 0.266860
0.244311 0.650374 0.377180
0.246032 0.652095 0.491459
0.247797 0.653860 0.608713
0.249599 0.655662 0.728365
0.251431 0.657494 0.850034
0.252615 0.658678 0.928680
0.257967 0.782683 0.108769
0.259049 0.783765 0.180604
0.260618 0.785334 0.284828
0.262279 0.786995 0.395148
0.264000 0.788716 0.509427
0.265765 0.790482 0.626681
0.267567 0.792283 0.746333
0.269399 0.794115 0.868002
0.270583 0.795299 0.946648
0.276219 0.921461 0.127020
0.277300 0.922543 0.198856
0.278870 0.924112 0.303080
0.280531 0.925773 0.413400
0.282251 0.927494 0.527679
0.284017 0.929259 0.644933
0.285818 0.931061 0.764585
0.287650 0.932893 0.886254
0.288835 0.934077 0.964900
0.268297 0.011557 0.011557
0.269378 0.012639 0.083393
0.270948 0.014208 0.187617
0.272609 0.015869 0.297936
0.274330 0.017590 0.412215
0.276095 0.019355 0.529469
0.277897 0.021157 0.649121
0.279729 0.022989 0.770790
0.280913 0.024173 0.849436
0.270357 0.027218 0.013617
0.271438 0.028300 0.085452
0.273007 0.029869 0.189676
0.274669 0.031530 0.299996
0.276389 0.033251 0.414275
0.278155 0.035016 0.531529
0.279956 0.036818 0.651181
0.281788 0.038650 0.772850
0.282973 0.039834 0.851496
0.284855 0.137462 0.028116
0.285937 0.138543 0.099951
0.287506 0.140113 0.204175
0.289167 0.141774 0.314495
0.290888 0.143494 0.428774
0.292654 0.145260 0.546028
0.294455 0.147062 0.665680
0.296287 0.148894 0.787349
0.297471 0.150078 0.865995
0.300812 0.258789 0.044072
0.301894 0.259871 0.115908
0.303463 0.261440 0.220132
0.305124 0.263101 0.330452
0.306845 0.264822 0.444731
0.308610 0.266588 0.561984
0.310412 0.268389 0.681637
0.312244 0.270221 0.803305
0.313428 0.271405 0.881951
0.317518 0.385814 0.060778
0.318600 0.386896 0.132614
0.320169 0.388465 0.236838
0.321830 0.390126 0.347158
0.323551 0.391847 0.461437
0.325316 0.393613 0.578690
0.327118 0.395414 0.698343
0.328950 0.397246 0.820011
0.330134 0.398430 0.898657
0.334747 0.516816 0.078007
0.335828 0.517898 0.149843
0.337398 0.519467 0.254067
0.339059 0.521128 0.364386
0.340780 0.522849 0.478665
0.342545 0.524614 0.595919
0.344347 0.526416 0.715571
0.346179 0.528248 0.837240
0.347363 0.529432 0.915886
0.352382 0.650903 0.095642
0.353463 0.651985 0.167477
0.355032 0.653554 0.271701
0.356694 0.655215 0.382021
0.358414 0.656936 0.496300
0.360180 0.658701 0.613554
0.361981 0.660503 0.733206
0.363813 0.662335 0.854875
0.364998 0.663519 0.933521
0.370350 0.787524 0.113610
0.371431 0.788606 0.185445
0.373000 0.790175 0.289669
0.374662 0.791836 0.399989
0.376382 0.793557 0.514268
0.378148 0.795323 0.631522
0.379949 0.797124 0.751174
0.381781 0.798956 0.872843
0.382966 0.800140 0.951489
0.388601 0.926302 0.131861
0.389683 0.927384 0.203697
0.391252 0.928953 0.307921
0.392913 0.930614 0.418241
0.394634 0.932335 0.532520
0.396399 0.934100 0.649774
0.398201 0.935902 0.769426
0.400033 0.937734 0.891095
0.401217 0.938918 0.969741
0.385100 0.016588 0.016588
0.386181 0.017670 0.088424
0.387750 0.019239 0.192648
0.389412 0.020900 0.302968
0.391132 0.022621 0.417247
0.392898 0.024387 0.534501
0.394699 0.026188 0.654153
0.396531 0.028020 0.775822
0.397716 0.029204 0.854468
0.387159 0.032249 0.018648
0.388241 0.033331 0.090484
0.389810 0.034900 0.194708
0.391471 0.036561 0.305028
0.393192 0.038282 0.419306
0.394957 0.040048 0.536560
0.396759 0.041849 0.656213
0.398591 0.043681 0.777881
0.399775 0.044865 0.856527
0.401658 0.142493 0.033147
0.402740 0.143575 0.104982
0.404309 0.145144 0.209206
0.405970 0.146805 0.319526
0.407691 0.148526 0.433805
0.409456 0.150291 0.551059
0.411258 0.152093 0.670711
0.413090 0.153925 0.792380
0.414274 0.155109 0.871026
0.417615 0.263821 0.049104
0.418696 0.264902 0.120939
0.420266 0.266472 0.225163
0.421927 0.268133 0.335483
0.423647 0.269853 0.449762
0.425413 0.271619 0.567016
0.427215 0.273421 0.686668
0.429047 0.275252 0.808337
0.430231 0.276437 0.886983
0.434321 0.390846 0.065810
0.435402 0.391927 0.137645
0.436972 0.393497 0.241869
0.438633 0.395158 0.352189
0.440353 0.396878 0.466468
0.442119 0.398644 0.583722
0.443920 0.400445 0.703374
0.445752 0.402277 0.825043
0.446937 0.403462 0.903689
0.451550 0.521847 0.083038
0.452631 0.522929 0.154874
0.454200 0.524498 0.259098
0.455862 0.526159 0.369418
0.457582 0.527880 0.483697
0.459348 0.529645 0.600951
0.461149 0.531447 0.720603
0.462981 0.533279 0.842272
0.464166 0.534463 0.920918
0.469184 0.655934 0.100673
0.470266 0.657016 0.172509
0.471835 0.658585 0.276733
0.473496 0.660247 0.387053
0.475217 0.661967 0.501331
0.476982 0.663733 0.618585
0.478784 0.665534 0.738238
0.480616 0.667366 0.859906
0.481800 0.668550 0.938552
0.487152 0.792556 0.118641
0.488234 0.793637 0.190477
0.489803 0.795207 0.294701
0.491464 0.796868 0.405021
0.493185 0.798588 0.519299
0.494950 0.800354 0.636553
0.496752 0.802156 0.756206
0.498584 0.803987 0.877874
0.499768 0.805172 0.956520
0.505404 0.931333 0.136893
0.506485 0.932415 0.208728
0.508055 0.933984 0.312952
0.509716 0.935645 0.423272
0.511437 0.937366 0.537551
0.513202 0.939132 0.654805
0.515004 0.940933 0.774457
0.516836 0.942765 0.896126
0.518020 0.943949 0.974772
0.505147 0.021760 0.021760
0.506228 0.022841 0.093595
0.507797 0.024411 0.197819
0.509459 0.026072 0.308139
0.511179 0.027792 0.422418
0.512945 0.029558 0.539672
0.514746 0.031359 0.659324
0.516578 0.033191 0.780993
0.517763 0.034376 0.859639
0.507206 0.037420 0.023819
0.508288 0.038502 0.095655
0.509857 0.040071 0.199879
0.511518 0.041732 0.310199
0.513239 0.043453 0.424478
0.515004 0.045219 0.541731
0.516806 0.047020 0.661384
0.518638 0.048852 0.783052
0.519822 0.050036 0.861698
0.521705 0.147664 0.038318
0.522787 0.148746 0.110154
0.524356 0.150315 0.214378
0.526017 0.151976 0.324698
0.527738 0.153697 0.438976
0.529503 0.155462 0.556230
0.531305 0.157264 0.675883
0.533137 0.159096 0.797551
0.534321 0.160280 0.876197
0.537662 0.268992 0.054275
0.538743 0.270073 0.126110
0.540313 0.271643 0.230334
0.541974 0.273304 0.340654
0.543694 0.275025 0.454933
0.545460 0.276790 0.572187
0.547262 0.278592 0.691839
0.549094 0.280424 0.813508
0.550278 0.281608 0.892154
0.554368 0.396017 0.070981
0.555449 0.397098 0.142816
0.557019 0.398668 0.247040
0.558680 0.400329 0.357360
0.560400 0.402049 0.471639
0.562166 0.403815 0.588893
0.563967 0.405617 0.708545
0.565799 0.407449 0.830214
0.566984 0.408633 0.908860
0.571597 0.527018 0.088210
0.572678 0.528100 0.160045
0.574247 0.529669 0.264269
0.575909 0.531330 0.374589
0.577629 0.533051 0.488868
0.579395 0.534817 0.606122
0.581196 0.536618 0.725774
0.583028 0.538450 0.847443
0.584213 0.539634 0.926089
0.589231 0.661106 0.105844
0.590313 0.662187 0.177680
0.591882 0.663757 0.281904
0.593543 0.665418 0.392224
0.595264 0.667138 0.506503
0.597029 0.668904 0.623756
0.598831 0.670705 0.743409
0.600663 0.672537 0.865077
0.601847 0.673722 0.943723
0.607199 0.797727 0.123812
0.608281 0.798808 0.195648
0.609850 0.800378 0.299872
0.611511 0.802039 0.410192
0.613232 0.803760 0.524471
0.614997 0.805525 0.641724
0.616799 0.807327 0.761377
0.618631 0.809159 0.883045
0.619815 0.810343 0.961691
0.625451 0.936505 0.142064
0.626532 0.937586 0.213899
0.628102 0.939155 0.318123
0.629763 0.940817 0.428443
0.631484 0.942537 0.542722
0.633249 0.944303 0.659976
0.635051 0.946104 0.779628
0.636883 0.947936 0.901297
0.638067 0.949121 0.979943
0.627776 0.027042 0.027042
0.628857 0.028124 0.098877
0.630427 0.029693 0.203101
0.632088 0.031354 0.313421
0.633808 0.033075 0.427700
0.635574 0.034840 0.544954
0.637376 0.036642 0.664606
0.639208 0.038474 0.786275
0.640392 0.039658 0.864921
0.629835 0.042703 0.029102
0.630917 0.043784 0.100937
0.632486 0.045354 0.205161
0.634147 0.047015 0.315481
0.635868 0.048736 0.429760
0.637634 0.050501 0.547014
0.639435 0.052303 0.666666
0.641267 0.054135 0.788335
0.642451 0.055319 0.866981
0.644334 0.152947 0.043600
0.645416 0.154028 0.115436
0.646985 0.155598 0.219660
0.648646 0.157259 0.329980
0.650367 0.158979 0.444259
0.652133 0.160745 0.561513
0.653934 0.162546 0.681165
0.655766 0.164378 0.802834
0.656950 0.165563 0.881480
0.660291 0.274274 0.059557
0.661373 0.275356 0.131393
0.662942 0.276925 0.235617
0.664603 0.278586 0.345936
0.666324 0.280307 0.460215
0.668089 0.282072 0.577469
0.669891 0.283874 0.697121
0.671723 0.285706 0.818790
0.672907 0.286890 0.897436
0.676997 0.401299 0.076263
0.678078 0.402381 0.148098
0.679648 0.403950 0.252322
0.681309 0.405611 0.362642
0.683030 0.407332 0.476921
0.684795 0.409097 0.594175
0.686597 0.410899 0.713827
0.688429 0.412731 0.835496
0.689613 0.413915 0.914142
0.694226 0.532301 0.093492
0.695307 0.533382 0.165327
0.696877 0.534952 0.269551
0.698538 0.536613 0.379871
0.700258 0.538333 0.494150
0.702024 0.540099 0.611404
0.703826 0.541901 0.731056
0.705658 0.543733 0.852725
0.706842 0.544917 0.931371
0.711860 0.666388 0.111127
0.712942 0.667470 0.182962
0.714511 0.669039 0.287186
0.716172 0.670700 0.397506
0.717893 0.672421 0.511785
0.719659 0.674186 0.629039
0.721460 0.675988 0.748691
0.723292 0.677820 0.870360
0.724476 0.679004 0.949006
0.729828 0.803009 0.129095
0.730910 0.804091 0.200930
0.732479 0.805660 0.305154
0.734140 0.807321 0.415474
0.735861 0.809042 0.529753
0.737627 0.810807 0.647007
0.739428 0.812609 0.766659
0.741260 0.814441 0.888328
0.742444 0.815625 0.966974
0.748080 0.941787 0.147346
0.749162 0.942868 0.219182
0.750731 0.944438 0.323406
0.752392 0.946099 0.433726
0.754113 0.947820 0.548005
0.755878 0.949585 0.665258
0.757680 0.951387 0.784911
0.759512 0.953219 0.906579
0.760696 0.954403 0.985225
0.752559 0.032417 0.032417
0.753640 0.033499 0.104252
0.755210 0.035068 0.208477
0.756871 0.036729 0.318796
0.758591 0.038450 0.433075
0.760357 0.040215 0.550329
0.762159 0.042017 0.669981
0.763990 0.043849 0.791650
0.765175 0.045033 0.870296
0.754618 0.048078 0.034477
0.755700 0.049160 0.106312
0.757269 0.050729 0.210536
0.758930 0.052390 0.320856
0.760651 0.054111 0.435135
0.762417 0.055876 0.552389
0.764218 0.057678 0.672041
0.766050 0.059510 0.793710
0.767234 0.060694 0.872356
0.769117 0.158322 0.048976
0.770199 0.159403 0.120811
0.771768 0.160973 0.225035
0.773429 0.162634 0.335355
0.775150 0.164354 0.449634
0.776915 0.166120 0.566888
0.778717 0.167922 0.686540
0.780549 0.169754 0.808209
0.781733 0.170938 0.886855
0.785074 0.279649 0.064932
0.786155 0.280731 0.136768
0.787725 0.282300 0.240992
0.789386 0.283961 0.351312
0.791107 0.285682 0.465591
0.792872 0.287447 0.582844
0.794674 0.289249 0.702497
0.796506 0.291081 0.824165
0.797690 0.292265 0.902811
0.801780 0.406674 0.081638
0.802861 0.407756 0.153474
0.804431 0.409325 0.257698
0.806092 0.410986 0.368018
0.807812 0.412707 0.482296
0.809578 0.414472 0.599550
0.811380 0.416274 0.719202
0.813212 0.418106 0.840871
0.814396 0.419290 0.919517
0.819009 0.537676 0.098867
0.820090 0.538757 0.170702
0.821660 0.540327 0.274926
0.823321 0.541988 0.385246
0.825041 0.543709 0.499525
0.826807 0.545474 0.616779
0.828609 0.547276 0.736431
0.830440 0.549108 0.858100
0.831625 0.550292 0.936746
0.836643 0.671763 0.116502
0.837725 0.672845 0.188337
0.839294 0.674414 0.292561
0.840955 0.676075 0.402881
0.842676 0.677796 0.517160
0.844442 0.679561 0.634414
0.846243 0.681363 0.754066
0.848075 0.683195 0.875735
0.849259 0.684379 0.954381
0.854611 0.808384 0.134470
0.855693 0.809466 0.206305
0.857262 0.811035 0.310529
0.858923 0.812696 0.420849
0.860644 0.814417 0.535128
0.862410 0.816182 0.652382
0.864211 0.817984 0.772034
0.866043 0.819816 0.893703
0.867227 0.821000 0.972349
0.872863 0.947162 0.152721
0.873945 0.948244 0.224557
0.875514 0.949813 0.328781
0.877175 0.951474 0.439101
0.878896 0.953195 0.553380
0.880661 0.954960 0.670634
0.882463 0.956762 0.790286
0.884295 0.958594 0.911954
0.885479 0.959778 0.990600
