skills/editops-orchestrator/assets/grade/luts/night_blue_v16.cube
TITLE "night_blue_v16"
LUT_3D_SIZE 5
DOMAIN_MIN 0.0 0.0 0.0
DOMAIN_MAX 1.0 1.0 1.0
0.000000 0.000000 0.000000
0.002456 0.002456 0.182464
0.005508 0.005508 0.409156
0.008706 0.008706 0.646749
0.011476 0.011476 0.852529
0.016581 0.139258 0.016581
0.019038 0.141714 0.199045
0.022089 0.144766 0.425738
0.025287 0.147964 0.663330
0.028057 0.150734 0.869110
0.046237 0.388321 0.046237
0.048693 0.390777 0.228701
0.051745 0.393829 0.455393
0.054943 0.397027 0.692986
0.057713 0.399797 0.898766
0.077594 0.651674 0.077594
0.080050 0.654130 0.260058
0.083102 0.657181 0.486751
0.086300 0.660380 0.724343
0.089070 0.663150 0.930123
0.110008 0.923899 0.110008
0.112464 0.926355 0.292472
0.115516 0.929406 0.519164
0.118714 0.932605 0.756757
0.121484 0.935375 0.962537
0.070152 0.002710 0.002710
0.072608 0.005166 0.185173
0.075660 0.008217 0.411866
0.078858 0.011416 0.649458
0.081628 0.014186 0.855238
0.086734 0.141968 0.019291
0.089190 0.144424 0.201755
0.092241 0.147476 0.428447
0.095440 0.150674 0.666040
0.098210 0.153444 0.871820
0.116389 0.391031 0.048947
0.118845 0.393487 0.231411
0.121897 0.396538 0.458103
0.125095 0.399737 0.695696
0.127865 0.402507 0.901475
0.147746 0.654383 0.080304
0.150203 0.656839 0.262768
0.153254 0.659891 0.489460
0.156452 0.663089 0.727053
0.159222 0.665859 0.932833
0.180160 0.926608 0.112718
0.182616 0.929064 0.295181
0.185668 0.932116 0.521874
0.188866 0.935314 0.759466
0.191636 0.938084 0.965246
0.292687 0.011305 0.011305
0.295143 0.013762 0.193769
0.298195 0.016813 0.420462
0.301393 0.020011 0.658054
0.304163 0.022781 0.863834
0.309268 0.150564 0.027887
0.311724 0.153020 0.210351
0.314776 0.156072 0.437043
0.317974 0.159270 0.674636
0.320744 0.162040 0.880415
0.338924 0.399626 0.057543
0.341380 0.402083 0.240006
0.344432 0.405134 0.466699
0.347630 0.408332 0.704291
0.350400 0.411102 0.910071
0.370281 0.662979 0.088900
0.372737 0.665435 0.271363
0.375789 0.668487 0.498056
0.378987 0.671685 0.735648
0.381757 0.674455 0.941428
0.402695 0.935204 0.121313
0.405151 0.937660 0.303777
0.408202 0.940712 0.530470
0.411401 0.943910 0.768062
0.414171 0.946680 0.973842
0.531190 0.020518 0.020518
0.533646 0.022974 0.202982
0.536698 0.026026 0.429674
0.539896 0.029224 0.667267
0.542666 0.031994 0.873047
0.547771 0.159776 0.037099
0.550228 0.162233 0.219563
0.553279 0.165284 0.446256
0.556477 0.168482 0.683848
0.559247 0.171252 0.889628
0.577427 0.408839 0.066755
0.579883 0.411295 0.249219
0.582935 0.414347 0.475911
0.586133 0.417545 0.713504
0.588903 0.420315 0.919284
0.608784 0.672192 0.098112
0.611240 0.674648 0.280576
0.614292 0.677699 0.507269
0.617490 0.680898 0.744861
0.620260 0.683668 0.950641
0.641198 0.944417 0.130526
0.643654 0.946873 0.312990
0.646706 0.949924 0.539682
0.649904 0.953123 0.777275
0.652674 0.955893 0.983055
0.778717 0.030079 0.030079
0.781173 0.032535 0.212543
0.784224 0.035587 0.439235
0.787423 0.038785 0.676828
0.790193 0.041555 0.882608
0.795298 0.169337 0.046660
0.797754 0.171794 0.229124
0.800806 0.174845 0.455817
0.804004 0.178043 0.693409
0.806774 0.180813 0.899189
0.824954 0.418400 0.076316
0.827410 0.420856 0.258780
0.830461 0.423908 0.485473
0.833660 0.427106 0.723065
0.836430 0.429876 0.928845
0.856311 0.681753 0.107673
0.858767 0.684209 0.290137
0.861819 0.687260 0.516830
0.865017 0.690459 0.754422
0.867787 0.693229 0.960202
0.888724 0.953978 0.140087
0.891181 0.956434 0.322551
0.894232 0.959485 0.549243
0.897430 0.962684 0.786836
0.900200 0.965454 0.992616
