skills/editops-orchestrator/assets/grade/luts/night_blue_v02.cube
TITLE "night_blue_v02"
LUT_3D_SIZE 5
DOMAIN_MIN 0.0 0.0 0.0
DOMAIN_MAX 1.0 1.0 1.0
0.000000 0.000000 0.000000
0.001437 0.001437 0.214951
0.003010 0.003010 0.450321
0.004612 0.004612 0.689976
0.006156 0.006156 0.920893
0.012812 0.204995 0.012812
0.014249 0.206432 0.227763
0.015822 0.208006 0.463133
0.017424 0.209608 0.702787
0.018968 0.211151 0.933705
0.028362 0.453802 0.028362
0.029799 0.455239 0.243313
0.031372 0.456813 0.478683
0.032974 0.458415 0.718337
0.034518 0.459958 0.949255
0.044210 0.707391 0.044210
0.045647 0.708828 0.259162
0.047221 0.710402 0.494532
0.048823 0.712004 0.734186
0.050366 0.713547 0.965103
0.060251 0.964043 0.060251
0.061688 0.965480 0.275202
0.063261 0.967054 0.510572
0.064863 0.968656 0.750226
0.066407 0.970199 0.981143
0.174317 0.003387 0.003387
0.175754 0.004824 0.218338
0.177328 0.006398 0.453708
0.178930 0.008000 0.693363
0.180473 0.009543 0.924280
0.187129 0.208383 0.016199
0.188566 0.209819 0.231150
0.190139 0.211393 0.466520
0.191741 0.212995 0.706175
0.193285 0.214539 0.937092
0.202679 0.457190 0.031749
0.204116 0.458627 0.246700
0.205689 0.460200 0.482070
0.207291 0.461802 0.721724
0.208835 0.463346 0.952642
0.218528 0.710778 0.047598
0.219965 0.712215 0.262549
0.221538 0.713789 0.497919
0.223140 0.715391 0.737573
0.224684 0.716934 0.968491
0.234568 0.967430 0.063638
0.236005 0.968867 0.278589
0.237578 0.970441 0.513959
0.239180 0.972043 0.753613
0.240724 0.973586 0.984531
0.411605 0.007998 0.007998
0.413042 0.009435 0.222949
0.414616 0.011008 0.458319
0.416218 0.012610 0.697974
0.417761 0.014154 0.928891
0.424417 0.212993 0.020810
0.425854 0.214430 0.235761
0.427428 0.216004 0.471131
0.429030 0.217606 0.710785
0.430573 0.219149 0.941703
0.439967 0.461801 0.036360
0.441404 0.463238 0.251311
0.442977 0.464811 0.486681
0.444580 0.466413 0.726335
0.446123 0.467957 0.957253
0.455816 0.715389 0.052209
0.457253 0.716826 0.267160
0.458826 0.718400 0.502530
0.460428 0.720002 0.742184
0.461972 0.721545 0.973101
0.471856 0.972041 0.068249
0.473293 0.973478 0.283200
0.474866 0.975052 0.518570
0.476468 0.976654 0.758224
0.478012 0.978197 0.989142
0.653725 0.012703 0.012703
0.655162 0.014140 0.227654
0.656736 0.015713 0.463024
0.658338 0.017315 0.702678
0.659881 0.018859 0.933596
0.666537 0.217698 0.025515
0.667974 0.219135 0.240466
0.669547 0.220709 0.475836
0.671150 0.222311 0.715490
0.672693 0.223854 0.946407
0.682087 0.466505 0.041065
0.683524 0.467942 0.256016
0.685097 0.469516 0.491386
0.686699 0.471118 0.731040
0.688243 0.472661 0.961957
0.697936 0.720094 0.056913
0.699373 0.721531 0.271864
0.700946 0.723104 0.507234
0.702548 0.724706 0.746889
0.704092 0.726250 0.977806
0.713976 0.976746 0.072953
0.715413 0.978183 0.287905
0.716986 0.979756 0.523275
0.718588 0.981358 0.762929
0.720132 0.982902 0.993846
0.898873 0.017466 0.017466
0.900310 0.018903 0.232418
0.901883 0.020477 0.467788
0.903485 0.022079 0.707442
0.905029 0.023622 0.938359
0.911685 0.222462 0.030278
0.913122 0.223899 0.245229
0.914695 0.225472 0.480599
0.916297 0.227074 0.720254
0.917841 0.228618 0.951171
0.927235 0.471269 0.045828
0.928672 0.472706 0.260779
0.930245 0.474279 0.496149
0.931847 0.475881 0.735804
0.933391 0.477425 0.966721
0.943083 0.724858 0.061677
0.944520 0.726295 0.276628
0.946094 0.727868 0.511998
0.947696 0.729470 0.751652
0.949239 0.731014 0.982570
0.959124 0.981510 0.077717
0.960560 0.982947 0.292668
0.962134 0.984520 0.528038
0.963736 0.986122 0.767693
0.965280 0.987666 0.998610
