skills/editops-orchestrator/assets/grade/luts/night_blue_v16.cube
TITLE "night_blue_v16"
LUT_3D_SIZE 9
DOMAIN_MIN 0.0 0.0 0.0
DOMAIN_MAX 1.0 1.0 1.0
0.000000 0.000000 0.000000
0.001027 0.001027 0.076284
0.002456 0.002456 0.182464
0.003958 0.003958 0.294054
0.005508 0.005508 0.409156
0.007093 0.007093 0.526892
0.008706 0.008706 0.646749
0.010343 0.010343 0.768385
0.011476 0.011476 0.852529
0.003106 0.026088 0.003106
0.004133 0.027115 0.079390
0.005562 0.028544 0.185570
0.007065 0.030046 0.297161
0.008614 0.031595 0.412263
0.010199 0.033180 0.529999
0.011812 0.034794 0.649855
0.013450 0.036431 0.771491
0.014582 0.037564 0.855635
0.016581 0.139258 0.016581
0.017608 0.140285 0.092865
0.019038 0.141714 0.199045
0.020540 0.143217 0.310636
0.022089 0.144766 0.425738
0.023674 0.146351 0.543474
0.025287 0.147964 0.663330
0.026925 0.149602 0.784967
0.028057 0.150734 0.869110
0.031122 0.261375 0.031122
0.032149 0.262402 0.107405
0.033578 0.263831 0.213585
0.035080 0.265333 0.325176
0.036629 0.266882 0.440278
0.038214 0.268467 0.558014
0.039828 0.270081 0.677870
0.041465 0.271718 0.799507
0.042598 0.272851 0.883650
0.046237 0.388321 0.046237
0.047264 0.389348 0.122521
0.048693 0.390777 0.228701
0.050195 0.392279 0.340292
0.051745 0.393829 0.455393
0.053330 0.395413 0.573130
0.054943 0.397027 0.692986
0.056580 0.398664 0.814622
0.057713 0.399797 0.898766
0.061758 0.518671 0.061758
0.062785 0.519698 0.138042
0.064214 0.521128 0.244222
0.065716 0.522630 0.355812
0.067266 0.524179 0.470914
0.068850 0.525764 0.588650
0.070464 0.527377 0.708507
0.072101 0.529015 0.830143
0.073234 0.530147 0.914286
0.077594 0.651674 0.077594
0.078621 0.652700 0.153878
0.080050 0.654130 0.260058
0.081553 0.655632 0.371649
0.083102 0.657181 0.486751
0.084687 0.658766 0.604487
0.086300 0.660380 0.724343
0.087938 0.662017 0.845979
0.089070 0.663150 0.930123
0.093690 0.786857 0.093690
0.094717 0.787884 0.169974
0.096147 0.789313 0.276154
0.097649 0.790815 0.387745
0.099198 0.792365 0.502847
0.100783 0.793950 0.620583
0.102396 0.795563 0.740439
0.104034 0.797200 0.862076
0.105166 0.798333 0.946219
0.110008 0.923899 0.110008
0.111035 0.924925 0.186292
0.112464 0.926355 0.292472
0.113966 0.927857 0.404062
0.115516 0.929406 0.519164
0.117100 0.930991 0.636900
0.118714 0.932605 0.756757
0.120351 0.934242 0.878393
0.121484 0.935375 0.962537
0.000000 0.000000 0.000000
0.001027 0.001027 0.076284
0.002456 0.002456 0.182464
0.003958 0.003958 0.294054
0.005508 0.005508 0.409156
0.007093 0.007093 0.526892
0.008706 0.008706 0.646749
0.010343 0.010343 0.768385
0.011476 0.011476 0.852529
0.003106 0.026088 0.003106
0.004133 0.027115 0.079390
0.005562 0.028544 0.185570
0.007065 0.030046 0.297161
0.008614 0.031595 0.412263
0.010199 0.033180 0.529999
0.011812 0.034794 0.649855
0.013450 0.036431 0.771491
0.014582 0.037564 0.855635
0.016581 0.139258 0.016581
0.017608 0.140285 0.092865
0.019038 0.141714 0.199045
0.020540 0.143217 0.310636
0.022089 0.144766 0.425738
0.023674 0.146351 0.543474
0.025287 0.147964 0.663330
0.026925 0.149602 0.784967
0.028057 0.150734 0.869110
0.031122 0.261375 0.031122
0.032149 0.262402 0.107405
0.033578 0.263831 0.213585
0.035080 0.265333 0.325176
0.036629 0.266882 0.440278
0.038214 0.268467 0.558014
0.039828 0.270081 0.677870
0.041465 0.271718 0.799507
0.042598 0.272851 0.883650
0.046237 0.388321 0.046237
0.047264 0.389348 0.122521
0.048693 0.390777 0.228701
0.050195 0.392279 0.340292
0.051745 0.393829 0.455393
0.053330 0.395413 0.573130
0.054943 0.397027 0.692986
0.056580 0.398664 0.814622
0.057713 0.399797 0.898766
0.061758 0.518671 0.061758
0.062785 0.519698 0.138042
0.064214 0.521128 0.244222
0.065716 0.522630 0.355812
0.067266 0.524179 0.470914
0.068850 0.525764 0.588650
0.070464 0.527377 0.708507
0.072101 0.529015 0.830143
0.073234 0.530147 0.914286
0.077594 0.651674 0.077594
0.078621 0.652700 0.153878
0.080050 0.654130 0.260058
0.081553 0.655632 0.371649
0.083102 0.657181 0.486751
0.084687 0.658766 0.604487
0.086300 0.660380 0.724343
0.087938 0.662017 0.845979
0.089070 0.663150 0.930123
0.093690 0.786857 0.093690
0.094717 0.787884 0.169974
0.096147 0.789313 0.276154
0.097649 0.790815 0.387745
0.099198 0.792365 0.502847
0.100783 0.793950 0.620583
0.102396 0.795563 0.740439
0.104034 0.797200 0.862076
0.105166 0.798333 0.946219
0.110008 0.923899 0.110008
0.111035 0.924925 0.186292
0.112464 0.926355 0.292472
0.113966 0.927857 0.404062
0.115516 0.929406 0.519164
0.117100 0.930991 0.636900
0.118714 0.932605 0.756757
0.120351 0.934242 0.878393
0.121484 0.935375 0.962537
0.070152 0.002710 0.002710
0.071179 0.003737 0.078993
0.072608 0.005166 0.185173
0.074111 0.006668 0.296764
0.075660 0.008217 0.411866
0.077245 0.009802 0.529602
0.078858 0.011416 0.649458
0.080496 0.013053 0.771095
0.081628 0.014186 0.855238
0.073258 0.028797 0.005816
0.074285 0.029824 0.082100
0.075715 0.031254 0.188280
0.077217 0.032756 0.299870
0.078766 0.034305 0.414972
0.080351 0.035890 0.532708
0.081964 0.037503 0.652565
0.083602 0.039141 0.774201
0.084734 0.040273 0.858345
0.086734 0.141968 0.019291
0.087760 0.142995 0.095575
0.089190 0.144424 0.201755
0.090692 0.145926 0.313346
0.092241 0.147476 0.428447
0.093826 0.149061 0.546184
0.095440 0.150674 0.666040
0.097077 0.152311 0.787676
0.098210 0.153444 0.871820
0.101274 0.264084 0.033831
0.102301 0.265111 0.110115
0.103730 0.266541 0.216295
0.105232 0.268043 0.327886
0.106782 0.269592 0.442988
0.108366 0.271177 0.560724
0.109980 0.272790 0.680580
0.111617 0.274428 0.802217
0.112750 0.275560 0.886360
0.116389 0.391031 0.048947
0.117416 0.392058 0.125231
0.118845 0.393487 0.231411
0.120348 0.394989 0.343001
0.121897 0.396538 0.458103
0.123482 0.398123 0.575839
0.125095 0.399737 0.695696
0.126733 0.401374 0.817332
0.127865 0.402507 0.901475
0.131910 0.521381 0.064468
0.132937 0.522408 0.140751
0.134366 0.523837 0.246931
0.135868 0.525339 0.358522
0.137418 0.526889 0.473624
0.139003 0.528474 0.591360
0.140616 0.530087 0.711216
0.142253 0.531725 0.832853
0.143386 0.532857 0.916996
0.147746 0.654383 0.080304
0.148773 0.655410 0.156588
0.150203 0.656839 0.262768
0.151705 0.658342 0.374358
0.153254 0.659891 0.489460
0.154839 0.661476 0.607196
0.156452 0.663089 0.727053
0.158090 0.664727 0.848689
0.159222 0.665859 0.932833
0.163843 0.789567 0.096400
0.164870 0.790594 0.172684
0.166299 0.792023 0.278864
0.167801 0.793525 0.390455
0.169350 0.795075 0.505557
0.170935 0.796659 0.623293
0.172549 0.798273 0.743149
0.174186 0.799910 0.864785
0.175319 0.801043 0.948929
0.180160 0.926608 0.112718
0.181187 0.927635 0.189001
0.182616 0.929064 0.295181
0.184118 0.930567 0.406772
0.185668 0.932116 0.521874
0.187253 0.933701 0.639610
0.188866 0.935314 0.759466
0.190503 0.936952 0.881103
0.191636 0.938084 0.965246
0.178515 0.006895 0.006895
0.179541 0.007922 0.083179
0.180971 0.009352 0.189359
0.182473 0.010854 0.300950
0.184022 0.012403 0.416052
0.185607 0.013988 0.533788
0.187220 0.015601 0.653644
0.188858 0.017239 0.775281
0.189991 0.018371 0.859424
0.181621 0.032983 0.010002
0.182648 0.034010 0.086285
0.184077 0.035439 0.192465
0.185579 0.036941 0.304056
0.187128 0.038491 0.419158
0.188713 0.040076 0.536894
0.190327 0.041689 0.656750
0.191964 0.043326 0.778387
0.193097 0.044459 0.862530
0.195096 0.146154 0.023477
0.196123 0.147181 0.099761
0.197552 0.148610 0.205940
0.199054 0.150112 0.317531
0.200604 0.151661 0.432633
0.202188 0.153246 0.550369
0.203802 0.154860 0.670225
0.205439 0.156497 0.791862
0.206572 0.157630 0.876005
0.209636 0.268270 0.038017
0.210663 0.269297 0.114301
0.212092 0.270726 0.220481
0.213594 0.272228 0.332072
0.215144 0.273778 0.447173
0.216729 0.275363 0.564910
0.218342 0.276976 0.684766
0.219980 0.278613 0.806402
0.221112 0.279746 0.890546
0.224752 0.395216 0.053132
0.225778 0.396243 0.129416
0.227208 0.397672 0.235596
0.228710 0.399175 0.347187
0.230259 0.400724 0.462289
0.231844 0.402309 0.580025
0.233458 0.403922 0.699881
0.235095 0.405560 0.821518
0.236228 0.406692 0.905661
0.240272 0.525567 0.068653
0.241299 0.526594 0.144937
0.242728 0.528023 0.251117
0.244231 0.529525 0.362708
0.245780 0.531075 0.477810
0.247365 0.532659 0.595546
0.248978 0.534273 0.715402
0.250616 0.535910 0.837038
0.251748 0.537043 0.921182
0.256109 0.658569 0.084490
0.257136 0.659596 0.160773
0.258565 0.661025 0.266953
0.260067 0.662527 0.378544
0.261616 0.664077 0.493646
0.263201 0.665662 0.611382
0.264815 0.667275 0.731238
0.266452 0.668912 0.852875
0.267585 0.670045 0.937018
0.272205 0.793752 0.100586
0.273232 0.794779 0.176870
0.274661 0.796209 0.283050
0.276163 0.797711 0.394640
0.277713 0.799260 0.509742
0.279298 0.800845 0.627478
0.280911 0.802458 0.747335
0.282548 0.804096 0.868971
0.283681 0.805228 0.953114
0.288522 0.930794 0.116903
0.289549 0.931821 0.193187
0.290979 0.933250 0.299367
0.292481 0.934752 0.410958
0.294030 0.936302 0.526060
0.295615 0.937887 0.643796
0.297228 0.939500 0.763652
0.298866 0.941137 0.885288
0.299998 0.942270 0.969432
0.292687 0.011305 0.011305
0.293714 0.012332 0.087589
0.295143 0.013762 0.193769
0.296645 0.015264 0.305360
0.298195 0.016813 0.420462
0.299779 0.018398 0.538198
0.301393 0.020011 0.658054
0.303030 0.021649 0.779691
0.304163 0.022781 0.863834
0.295793 0.037393 0.014412
0.296820 0.038420 0.090695
0.298249 0.039849 0.196875
0.299751 0.041351 0.308466
0.301301 0.042901 0.423568
0.302886 0.044486 0.541304
0.304499 0.046099 0.661160
0.306136 0.047737 0.782797
0.307269 0.048869 0.866940
0.309268 0.150564 0.027887
0.310295 0.151591 0.104171
0.311724 0.153020 0.210351
0.313227 0.154522 0.321941
0.314776 0.156072 0.437043
0.316361 0.157656 0.554779
0.317974 0.159270 0.674636
0.319612 0.160907 0.796272
0.320744 0.162040 0.880415
0.323809 0.272680 0.042427
0.324835 0.273707 0.118711
0.326265 0.275136 0.224891
0.327767 0.276638 0.336482
0.329316 0.278188 0.451584
0.330901 0.279773 0.569320
0.332515 0.281386 0.689176
0.334152 0.283024 0.810812
0.335285 0.284156 0.894956
0.338924 0.399626 0.057543
0.339951 0.400653 0.133826
0.341380 0.402083 0.240006
0.342882 0.403585 0.351597
0.344432 0.405134 0.466699
0.346017 0.406719 0.584435
0.347630 0.408332 0.704291
0.349267 0.409970 0.825928
0.350400 0.411102 0.910071
0.354445 0.529977 0.073063
0.355472 0.531004 0.149347
0.356901 0.532433 0.255527
0.358403 0.533935 0.367118
0.359952 0.535485 0.482220
0.361537 0.537069 0.599956
0.363151 0.538683 0.719812
0.364788 0.540320 0.841448
0.365921 0.541453 0.925592
0.370281 0.662979 0.088900
0.371308 0.664006 0.165183
0.372737 0.665435 0.271363
0.374239 0.666937 0.382954
0.375789 0.668487 0.498056
0.377374 0.670072 0.615792
0.378987 0.671685 0.735648
0.380624 0.673322 0.857285
0.381757 0.674455 0.941428
0.386377 0.798163 0.104996
0.387404 0.799189 0.181280
0.388834 0.800619 0.287460
0.390336 0.802121 0.399050
0.391885 0.803670 0.514152
0.393470 0.805255 0.631888
0.395083 0.806869 0.751745
0.396721 0.808506 0.873381
0.397853 0.809639 0.957525
0.402695 0.935204 0.121313
0.403722 0.936231 0.197597
0.405151 0.937660 0.303777
0.406653 0.939162 0.415368
0.408202 0.940712 0.530470
0.409787 0.942297 0.648206
0.411401 0.943910 0.768062
0.413038 0.945547 0.889699
0.414171 0.946680 0.973842
0.410561 0.015859 0.015859
0.411587 0.016885 0.092142
0.413017 0.018315 0.198322
0.414519 0.019817 0.309913
0.416068 0.021366 0.425015
0.417653 0.022951 0.542751
0.419266 0.024564 0.662607
0.420904 0.026202 0.784244
0.422037 0.027335 0.868387
0.413667 0.041946 0.018965
0.414694 0.042973 0.095249
0.416123 0.044402 0.201428
0.417625 0.045905 0.313019
0.419174 0.047454 0.428121
0.420759 0.049039 0.545857
0.422373 0.050652 0.665713
0.424010 0.052290 0.787350
0.425143 0.053422 0.871493
0.427142 0.155117 0.032440
0.428169 0.156144 0.108724
0.429598 0.157573 0.214904
0.431100 0.159075 0.326494
0.432650 0.160625 0.441596
0.434234 0.162209 0.559332
0.435848 0.163823 0.679189
0.437485 0.165460 0.800825
0.438618 0.166593 0.884969
0.441682 0.277233 0.046980
0.442709 0.278260 0.123264
0.444138 0.279689 0.229444
0.445640 0.281192 0.341035
0.447190 0.282741 0.456137
0.448775 0.284326 0.573873
0.450388 0.285939 0.693729
0.452026 0.287577 0.815365
0.453158 0.288709 0.899509
0.456798 0.404179 0.062096
0.457824 0.405206 0.138379
0.459254 0.406636 0.244559
0.460756 0.408138 0.356150
0.462305 0.409687 0.471252
0.463890 0.411272 0.588988
0.465504 0.412885 0.708844
0.467141 0.414523 0.830481
0.468274 0.415655 0.914624
0.472318 0.534530 0.077616
0.473345 0.535557 0.153900
0.474774 0.536986 0.260080
0.476277 0.538488 0.371671
0.477826 0.540038 0.486773
0.479411 0.541623 0.604509
0.481024 0.543236 0.724365
0.482662 0.544873 0.846002
0.483794 0.546006 0.930145
0.488155 0.667532 0.093453
0.489182 0.668559 0.169737
0.490611 0.669988 0.275917
0.492113 0.671490 0.387507
0.493662 0.673040 0.502609
0.495247 0.674625 0.620345
0.496861 0.676238 0.740201
0.498498 0.677875 0.861838
0.499631 0.679008 0.945981
0.504251 0.802716 0.109549
0.505278 0.803742 0.185833
0.506707 0.805172 0.292013
0.508209 0.806674 0.403603
0.509759 0.808223 0.518705
0.511344 0.809808 0.636441
0.512957 0.811422 0.756298
0.514594 0.813059 0.877934
0.515727 0.814192 0.962078
0.520568 0.939757 0.125866
0.521595 0.940784 0.202150
0.523025 0.942213 0.308330
0.524527 0.943715 0.419921
0.526076 0.945265 0.535023
0.527661 0.946850 0.652759
0.529274 0.948463 0.772615
0.530912 0.950100 0.894252
0.532044 0.951233 0.978395
0.531190 0.020518 0.020518
0.532217 0.021545 0.096802
0.533646 0.022974 0.202982
0.535148 0.024476 0.314572
0.536698 0.026026 0.429674
0.538283 0.027611 0.547410
0.539896 0.029224 0.667267
0.541533 0.030861 0.788903
0.542666 0.031994 0.873047
0.534296 0.046606 0.023624
0.535323 0.047633 0.099908
0.536752 0.049062 0.206088
0.538255 0.050564 0.317679
0.539804 0.052113 0.432781
0.541389 0.053698 0.550517
0.543002 0.055312 0.670373
0.544640 0.056949 0.792009
0.545772 0.058082 0.876153
0.547771 0.159776 0.037099
0.548798 0.160803 0.113383
0.550228 0.162233 0.219563
0.551730 0.163735 0.331154
0.553279 0.165284 0.446256
0.554864 0.166869 0.563992
0.556477 0.168482 0.683848
0.558115 0.170120 0.805485
0.559247 0.171252 0.889628
0.562312 0.281893 0.051640
0.563339 0.282920 0.127923
0.564768 0.284349 0.234103
0.566270 0.285851 0.345694
0.567819 0.287400 0.460796
0.569404 0.288985 0.578532
0.571018 0.290599 0.698388
0.572655 0.292236 0.820025
0.573788 0.293369 0.904168
0.577427 0.408839 0.066755
0.578454 0.409866 0.143039
0.579883 0.411295 0.249219
0.581385 0.412797 0.360810
0.582935 0.414347 0.475911
0.584520 0.415932 0.593648
0.586133 0.417545 0.713504
0.587770 0.419182 0.835140
0.588903 0.420315 0.919284
0.592948 0.539189 0.082276
0.593975 0.540216 0.158560
0.595404 0.541646 0.264740
0.596906 0.543148 0.376330
0.598456 0.544697 0.491432
0.600040 0.546282 0.609168
0.601654 0.547895 0.729025
0.603291 0.549533 0.850661
0.604424 0.550665 0.934804
0.608784 0.672192 0.098112
0.609811 0.673218 0.174396
0.611240 0.674648 0.280576
0.612743 0.676150 0.392167
0.614292 0.677699 0.507269
0.615877 0.679284 0.625005
0.617490 0.680898 0.744861
0.619128 0.682535 0.866497
0.620260 0.683668 0.950641
0.624880 0.807375 0.114208
0.625907 0.808402 0.190492
0.627337 0.809831 0.296672
0.628839 0.811333 0.408263
0.630388 0.812883 0.523365
0.631973 0.814468 0.641101
0.633586 0.816081 0.760957
0.635224 0.817718 0.882594
0.636356 0.818851 0.966737
0.641198 0.944417 0.130526
0.642225 0.945443 0.206810
0.643654 0.946873 0.312990
0.645156 0.948375 0.424580
0.646706 0.949924 0.539682
0.648290 0.951509 0.657418
0.649904 0.953123 0.777275
0.651541 0.954760 0.898911
0.652674 0.955893 0.983055
0.654028 0.025263 0.025263
0.655055 0.026290 0.101547
0.656485 0.027719 0.207727
0.657987 0.029221 0.319317
0.659536 0.030771 0.434419
0.661121 0.032355 0.552155
0.662734 0.033969 0.672012
0.664372 0.035606 0.793648
0.665504 0.036739 0.877791
0.657135 0.051351 0.028369
0.658162 0.052377 0.104653
0.659591 0.053807 0.210833
0.661093 0.055309 0.322424
0.662642 0.056858 0.437525
0.664227 0.058443 0.555262
0.665841 0.060057 0.675118
0.667478 0.061694 0.796754
0.668611 0.062827 0.880898
0.670610 0.164521 0.041844
0.671637 0.165548 0.118128
0.673066 0.166977 0.224308
0.674568 0.168479 0.335899
0.676117 0.170029 0.451001
0.677702 0.171614 0.568737
0.679316 0.173227 0.688593
0.680953 0.174864 0.810229
0.682086 0.175997 0.894373
0.685150 0.286638 0.056385
0.686177 0.287664 0.132668
0.687606 0.289094 0.238848
0.689108 0.290596 0.350439
0.690658 0.292145 0.465541
0.692243 0.293730 0.583277
0.693856 0.295344 0.703133
0.695493 0.296981 0.824770
0.696626 0.298114 0.908913
0.700265 0.413584 0.071500
0.701292 0.414611 0.147784
0.702722 0.416040 0.253964
0.704224 0.417542 0.365554
0.705773 0.419091 0.480656
0.707358 0.420676 0.598392
0.708971 0.422290 0.718249
0.710609 0.423927 0.839885
0.711741 0.425060 0.924029
0.715786 0.543934 0.087021
0.716813 0.544961 0.163304
0.718242 0.546390 0.269484
0.719745 0.547893 0.381075
0.721294 0.549442 0.496177
0.722879 0.551027 0.613913
0.724492 0.552640 0.733769
0.726130 0.554278 0.855406
0.727262 0.555410 0.939549
0.731623 0.676936 0.102857
0.732650 0.677963 0.179141
0.734079 0.679393 0.285321
0.735581 0.680895 0.396912
0.737130 0.682444 0.512013
0.738715 0.684029 0.629750
0.740329 0.685642 0.749606
0.741966 0.687280 0.871242
0.743099 0.688412 0.955386
0.747719 0.812120 0.118953
0.748746 0.813147 0.195237
0.750175 0.814576 0.301417
0.751677 0.816078 0.413008
0.753227 0.817628 0.528110
0.754811 0.819212 0.645846
0.756425 0.820826 0.765702
0.758062 0.822463 0.887338
0.759195 0.823596 0.971482
0.764036 0.949161 0.135271
0.765063 0.950188 0.211554
0.766492 0.951618 0.317734
0.767995 0.953120 0.429325
0.769544 0.954669 0.544427
0.771129 0.956254 0.662163
0.772742 0.957867 0.782019
0.774380 0.959505 0.903656
0.775512 0.960637 0.987799
0.778717 0.030079 0.030079
0.779743 0.031106 0.106363
0.781173 0.032535 0.212543
0.782675 0.034037 0.324134
0.784224 0.035587 0.439235
0.785809 0.037172 0.556972
0.787423 0.038785 0.676828
0.789060 0.040422 0.798464
0.790193 0.041555 0.882608
0.781823 0.056167 0.033185
0.782850 0.057194 0.109469
0.784279 0.058623 0.215649
0.785781 0.060125 0.327240
0.787330 0.061675 0.442342
0.788915 0.063259 0.560078
0.790529 0.064873 0.679934
0.792166 0.066510 0.801571
0.793299 0.067643 0.885714
0.795298 0.169337 0.046660
0.796325 0.170364 0.122944
0.797754 0.171794 0.229124
0.799256 0.173296 0.340715
0.800806 0.174845 0.455817
0.802390 0.176430 0.573553
0.804004 0.178043 0.693409
0.805641 0.179681 0.815046
0.806774 0.180813 0.899189
0.809838 0.291454 0.061201
0.810865 0.292481 0.137485
0.812294 0.293910 0.243665
0.813797 0.295412 0.355255
0.815346 0.296962 0.470357
0.816931 0.298546 0.588093
0.818544 0.300160 0.707949
0.820182 0.301797 0.829586
0.821314 0.302930 0.913729
0.824954 0.418400 0.076316
0.825980 0.419427 0.152600
0.827410 0.420856 0.258780
0.828912 0.422358 0.370371
0.830461 0.423908 0.485473
0.832046 0.425493 0.603209
0.833660 0.427106 0.723065
0.835297 0.428743 0.844701
0.836430 0.429876 0.928845
0.840474 0.548751 0.091837
0.841501 0.549777 0.168121
0.842931 0.551207 0.274301
0.844433 0.552709 0.385891
0.845982 0.554258 0.500993
0.847567 0.555843 0.618729
0.849180 0.557457 0.738586
0.850818 0.559094 0.860222
0.851950 0.560227 0.944366
0.856311 0.681753 0.107673
0.857338 0.682780 0.183957
0.858767 0.684209 0.290137
0.860269 0.685711 0.401728
0.861819 0.687260 0.516830
0.863403 0.688845 0.634566
0.865017 0.690459 0.754422
0.866654 0.692096 0.876059
0.867787 0.693229 0.960202
0.872407 0.816936 0.123770
0.873434 0.817963 0.200053
0.874863 0.819392 0.306233
0.876365 0.820895 0.417824
0.877915 0.822444 0.532926
0.879500 0.824029 0.650662
0.881113 0.825642 0.770518
0.882750 0.827280 0.892155
0.883883 0.828412 0.976298
0.888724 0.953978 0.140087
0.889751 0.955005 0.216371
0.891181 0.956434 0.322551
0.892683 0.957936 0.434141
0.894232 0.959485 0.549243
0.895817 0.961070 0.666979
0.897430 0.962684 0.786836
0.899068 0.964321 0.908472
0.900200 0.965454 0.992616
