skills/editops-orchestrator/assets/grade/luts/night_blue_v11.cube
TITLE "night_blue_v11"
LUT_3D_SIZE 9
DOMAIN_MIN 0.0 0.0 0.0
DOMAIN_MAX 1.0 1.0 1.0
0.000000 0.000000 0.000000
0.000919 0.000919 0.084195
0.002114 0.002114 0.193564
0.003354 0.003354 0.307186
0.004625 0.004625 0.423566
0.005919 0.005919 0.542009
0.007230 0.007230 0.662109
0.008557 0.008557 0.783597
0.009576 0.009576 0.876944
0.004461 0.045249 0.004461
0.005380 0.046169 0.088656
0.006574 0.047363 0.198024
0.007815 0.048604 0.311647
0.009086 0.049874 0.428027
0.010379 0.051168 0.546470
0.011691 0.052479 0.666570
0.013017 0.053806 0.788057
0.014037 0.054825 0.881405
0.015985 0.162145 0.015985
0.016904 0.163065 0.100179
0.018098 0.164259 0.209548
0.019339 0.165500 0.323171
0.020610 0.166771 0.439551
0.021903 0.168064 0.557994
0.023215 0.169375 0.678094
0.024541 0.170702 0.799581
0.025561 0.171721 0.892929
0.028114 0.285187 0.028114
0.029034 0.286107 0.112309
0.030228 0.287301 0.221678
0.031469 0.288542 0.335300
0.032740 0.289813 0.451680
0.034033 0.291106 0.570124
0.035344 0.292417 0.690223
0.036671 0.293744 0.811711
0.037690 0.294763 0.905059
0.040592 0.411758 0.040592
0.041511 0.412677 0.124787
0.042705 0.413871 0.234156
0.043946 0.415112 0.347778
0.045217 0.416383 0.464158
0.046510 0.417676 0.582601
0.047822 0.418988 0.702701
0.049149 0.420314 0.824189
0.050168 0.421334 0.917536
0.053318 0.540852 0.053318
0.054238 0.541771 0.137513
0.055432 0.542965 0.246882
0.056673 0.544206 0.360504
0.057943 0.545477 0.476884
0.059237 0.546770 0.595327
0.060548 0.548082 0.715427
0.061875 0.549408 0.836915
0.062894 0.550428 0.930263
0.066239 0.671923 0.066239
0.067159 0.672843 0.150434
0.068353 0.674037 0.259803
0.069594 0.675278 0.373426
0.070865 0.676549 0.489805
0.072158 0.677842 0.608249
0.073470 0.679153 0.728349
0.074796 0.680480 0.849836
0.075815 0.681499 0.943184
0.079322 0.804627 0.079322
0.080241 0.805546 0.163516
0.081435 0.806740 0.272885
0.082676 0.807981 0.386508
0.083947 0.809252 0.502888
0.085240 0.810545 0.621331
0.086552 0.811857 0.741431
0.087878 0.813183 0.862918
0.088898 0.814203 0.956266
0.092541 0.938721 0.092541
0.093460 0.939641 0.176736
0.094655 0.940835 0.286105
0.095895 0.942076 0.399727
0.097166 0.943346 0.516107
0.098460 0.944640 0.634550
0.099771 0.945951 0.754650
0.101098 0.947278 0.876138
0.102117 0.948297 0.969485
0.001637 0.000052 0.000052
0.002557 0.000971 0.084246
0.003751 0.002165 0.193615
0.004992 0.003406 0.307238
0.006263 0.004677 0.423618
0.007556 0.005970 0.542061
0.008867 0.007282 0.662161
0.010194 0.008608 0.783648
0.011213 0.009628 0.876996
0.006098 0.045301 0.004512
0.007017 0.046220 0.088707
0.008212 0.047414 0.198076
0.009452 0.048655 0.311698
0.010723 0.049926 0.428078
0.012017 0.051219 0.546522
0.013328 0.052531 0.666621
0.014655 0.053857 0.788109
0.015674 0.054877 0.881457
0.017622 0.162197 0.016036
0.018541 0.163116 0.100231
0.019736 0.164311 0.209600
0.020976 0.165551 0.323222
0.022247 0.166822 0.439602
0.023541 0.168115 0.558045
0.024852 0.169427 0.678145
0.026179 0.170754 0.799633
0.027198 0.171773 0.892981
0.029752 0.285239 0.028166
0.030671 0.286158 0.112361
0.031865 0.287353 0.221730
0.033106 0.288593 0.335352
0.034377 0.289864 0.451732
0.035670 0.291157 0.570175
0.036982 0.292469 0.690275
0.038308 0.293796 0.811763
0.039328 0.294815 0.905110
0.042229 0.411809 0.040643
0.043149 0.412728 0.124838
0.044343 0.413923 0.234207
0.045584 0.415163 0.347830
0.046854 0.416434 0.464209
0.048148 0.417728 0.582653
0.049459 0.419039 0.702752
0.050786 0.420366 0.824240
0.051805 0.421385 0.917588
0.054956 0.540903 0.053370
0.055875 0.541823 0.137565
0.057069 0.543017 0.246933
0.058310 0.544258 0.360556
0.059581 0.545528 0.476936
0.060874 0.546822 0.595379
0.062186 0.548133 0.715479
0.063512 0.549460 0.836966
0.064532 0.550479 0.930314
0.067877 0.671975 0.066291
0.068796 0.672894 0.150486
0.069990 0.674089 0.259855
0.071231 0.675329 0.373477
0.072502 0.676600 0.489857
0.073795 0.677893 0.608300
0.075107 0.679205 0.728400
0.076433 0.680532 0.849888
0.077453 0.681551 0.943235
0.080959 0.804678 0.079373
0.081878 0.805597 0.163568
0.083073 0.806792 0.272937
0.084313 0.808032 0.386559
0.085584 0.809303 0.502939
0.086878 0.810597 0.621382
0.088189 0.811908 0.741482
0.089516 0.813235 0.862970
0.090535 0.814254 0.956318
0.094178 0.938773 0.092592
0.095098 0.939692 0.176787
0.096292 0.940886 0.286156
0.097533 0.942127 0.399779
0.098803 0.943398 0.516158
0.100097 0.944691 0.634602
0.101408 0.946003 0.754702
0.102735 0.947329 0.876189
0.103754 0.948349 0.969537
0.105054 0.003308 0.003308
0.105974 0.004227 0.087503
0.107168 0.005421 0.196871
0.108409 0.006662 0.310494
0.109679 0.007933 0.426874
0.110973 0.009226 0.545317
0.112284 0.010538 0.665417
0.113611 0.011864 0.786904
0.114630 0.012884 0.880252
0.109515 0.048557 0.007768
0.110434 0.049476 0.091963
0.111629 0.050671 0.201332
0.112869 0.051911 0.314955
0.114140 0.053182 0.431334
0.115434 0.054476 0.549778
0.116745 0.055787 0.669878
0.118072 0.057114 0.791365
0.119091 0.058133 0.884713
0.121039 0.165453 0.019292
0.121958 0.166372 0.103487
0.123152 0.167567 0.212856
0.124393 0.168807 0.326478
0.125664 0.170078 0.442858
0.126957 0.171372 0.561302
0.128269 0.172683 0.681401
0.129595 0.174010 0.802889
0.130615 0.175029 0.896237
0.133168 0.288495 0.031422
0.134088 0.289414 0.115617
0.135282 0.290609 0.224986
0.136523 0.291849 0.338608
0.137794 0.293120 0.454988
0.139087 0.294414 0.573431
0.140399 0.295725 0.693531
0.141725 0.297052 0.815019
0.142744 0.298071 0.908366
0.145646 0.415065 0.043900
0.146565 0.415985 0.128094
0.147760 0.417179 0.237463
0.149000 0.418420 0.351086
0.150271 0.419690 0.467466
0.151565 0.420984 0.585909
0.152876 0.422295 0.706009
0.154203 0.423622 0.827496
0.155222 0.424641 0.920844
0.158372 0.544159 0.056626
0.159292 0.545079 0.140821
0.160486 0.546273 0.250190
0.161727 0.547514 0.363812
0.162998 0.548785 0.480192
0.164291 0.550078 0.598635
0.165602 0.551389 0.718735
0.166929 0.552716 0.840223
0.167948 0.553735 0.933570
0.171294 0.675231 0.069547
0.172213 0.676150 0.153742
0.173407 0.677345 0.263111
0.174648 0.678585 0.376733
0.175919 0.679856 0.493113
0.177212 0.681150 0.611556
0.178524 0.682461 0.731656
0.179850 0.683788 0.853144
0.180870 0.684807 0.946492
0.184376 0.807934 0.082629
0.185295 0.808854 0.166824
0.186489 0.810048 0.276193
0.187730 0.811289 0.389815
0.189001 0.812559 0.506195
0.190294 0.813853 0.624639
0.191606 0.815164 0.744738
0.192932 0.816491 0.866226
0.193952 0.817510 0.959574
0.197595 0.942029 0.095849
0.198514 0.942948 0.180043
0.199709 0.944143 0.289412
0.200949 0.945383 0.403035
0.202220 0.946654 0.519415
0.203514 0.947947 0.637858
0.204825 0.949259 0.757958
0.206152 0.950586 0.879445
0.207171 0.951605 0.972793
0.217698 0.006854 0.006854
0.218618 0.007774 0.091049
0.219812 0.008968 0.200418
0.221053 0.010209 0.314040
0.222323 0.011480 0.430420
0.223617 0.012773 0.548864
0.224928 0.014084 0.668963
0.226255 0.015411 0.790451
0.227274 0.016430 0.883799
0.222159 0.052104 0.011315
0.223078 0.053023 0.095510
0.224273 0.054217 0.204879
0.225513 0.055458 0.318501
0.226784 0.056729 0.434881
0.228078 0.058022 0.553324
0.229389 0.059334 0.673424
0.230716 0.060660 0.794912
0.231735 0.061680 0.888260
0.233683 0.169000 0.022839
0.234602 0.169919 0.107034
0.235796 0.171113 0.216403
0.237037 0.172354 0.330025
0.238308 0.173625 0.446405
0.239601 0.174918 0.564848
0.240913 0.176230 0.684948
0.242239 0.177556 0.806436
0.243259 0.178576 0.899783
0.245812 0.292042 0.034969
0.246732 0.292961 0.119163
0.247926 0.294155 0.228532
0.249167 0.295396 0.342155
0.250438 0.296667 0.458535
0.251731 0.297960 0.576978
0.253043 0.299272 0.697078
0.254369 0.300598 0.818565
0.255388 0.301618 0.911913
0.258290 0.418612 0.047446
0.259209 0.419531 0.131641
0.260404 0.420726 0.241010
0.261644 0.421966 0.354632
0.262915 0.423237 0.471012
0.264209 0.424531 0.589455
0.265520 0.425842 0.709555
0.266847 0.427169 0.831043
0.267866 0.428188 0.924391
0.271016 0.547706 0.060173
0.271936 0.548625 0.144367
0.273130 0.549820 0.253736
0.274371 0.551060 0.367359
0.275642 0.552331 0.483739
0.276935 0.553625 0.602182
0.278246 0.554936 0.722282
0.279573 0.556263 0.843769
0.280592 0.557282 0.937117
0.283938 0.678778 0.073094
0.284857 0.679697 0.157289
0.286051 0.680891 0.266658
0.287292 0.682132 0.380280
0.288563 0.683403 0.496660
0.289856 0.684696 0.615103
0.291168 0.686008 0.735203
0.292494 0.687334 0.856691
0.293514 0.688354 0.950038
0.297020 0.811481 0.086176
0.297939 0.812400 0.170371
0.299133 0.813595 0.279740
0.300374 0.814835 0.393362
0.301645 0.816106 0.509742
0.302938 0.817399 0.628185
0.304250 0.818711 0.748285
0.305576 0.820038 0.869773
0.306596 0.821057 0.963120
0.310239 0.945576 0.099395
0.311158 0.946495 0.183590
0.312353 0.947689 0.292959
0.313593 0.948930 0.406581
0.314864 0.950201 0.522961
0.316158 0.951494 0.641404
0.317469 0.952806 0.761504
0.318796 0.954132 0.882992
0.319815 0.955152 0.976340
0.334299 0.010526 0.010526
0.335219 0.011445 0.094720
0.336413 0.012639 0.204089
0.337654 0.013880 0.317712
0.338925 0.015151 0.434092
0.340218 0.016444 0.552535
0.341530 0.017756 0.672635
0.342856 0.019082 0.794122
0.343875 0.020102 0.887470
0.338760 0.055775 0.014986
0.339680 0.056694 0.099181
0.340874 0.057889 0.208550
0.342115 0.059129 0.322173
0.343385 0.060400 0.438552
0.344679 0.061693 0.556996
0.345990 0.063005 0.677095
0.347317 0.064332 0.798583
0.348336 0.065351 0.891931
0.350284 0.172671 0.026510
0.351203 0.173590 0.110705
0.352398 0.174785 0.220074
0.353638 0.176025 0.333696
0.354909 0.177296 0.450076
0.356203 0.178590 0.568519
0.357514 0.179901 0.688619
0.358841 0.181228 0.810107
0.359860 0.182247 0.903455
0.362414 0.295713 0.038640
0.363333 0.296632 0.122835
0.364527 0.297827 0.232204
0.365768 0.299067 0.345826
0.367039 0.300338 0.462206
0.368332 0.301632 0.580649
0.369644 0.302943 0.700749
0.370970 0.304270 0.822237
0.371990 0.305289 0.915584
0.374891 0.422283 0.051117
0.375811 0.423203 0.135312
0.377005 0.424397 0.244681
0.378246 0.425638 0.358304
0.379517 0.426908 0.474683
0.380810 0.428202 0.593127
0.382121 0.429513 0.713227
0.383448 0.430840 0.834714
0.384467 0.431859 0.928062
0.387618 0.551377 0.063844
0.388537 0.552297 0.148039
0.389731 0.553491 0.257407
0.390972 0.554732 0.371030
0.392243 0.556002 0.487410
0.393536 0.557296 0.605853
0.394848 0.558607 0.725953
0.396174 0.559934 0.847440
0.397194 0.560953 0.940788
0.400539 0.682449 0.076765
0.401458 0.683368 0.160960
0.402653 0.684563 0.270329
0.403893 0.685803 0.383951
0.405164 0.687074 0.500331
0.406458 0.688368 0.618774
0.407769 0.689679 0.738874
0.409096 0.691006 0.860362
0.410115 0.692025 0.953710
0.413621 0.815152 0.089847
0.414540 0.816072 0.174042
0.415735 0.817266 0.283411
0.416975 0.818507 0.397033
0.418246 0.819777 0.513413
0.419540 0.821071 0.631856
0.420851 0.822382 0.751956
0.422178 0.823709 0.873444
0.423197 0.824728 0.966792
0.426840 0.949247 0.103067
0.427760 0.950166 0.187261
0.428954 0.951360 0.296630
0.430195 0.952601 0.410253
0.431466 0.953872 0.526633
0.432759 0.955165 0.645076
0.434070 0.956477 0.765176
0.435397 0.957803 0.886663
0.436416 0.958823 0.980011
0.453558 0.014281 0.014281
0.454478 0.015200 0.098475
0.455672 0.016394 0.207844
0.456913 0.017635 0.321467
0.458184 0.018906 0.437847
0.459477 0.020199 0.556290
0.460788 0.021511 0.676390
0.462115 0.022837 0.797877
0.463134 0.023857 0.891225
0.458019 0.059530 0.018741
0.458939 0.060449 0.102936
0.460133 0.061644 0.212305
0.461374 0.062884 0.325927
0.462644 0.064155 0.442307
0.463938 0.065448 0.560751
0.465249 0.066760 0.680850
0.466576 0.068087 0.802338
0.467595 0.069106 0.895686
0.469543 0.176426 0.030265
0.470462 0.177345 0.114460
0.471657 0.178540 0.223829
0.472897 0.179780 0.337451
0.474168 0.181051 0.453831
0.475462 0.182345 0.572274
0.476773 0.183656 0.692374
0.478100 0.184983 0.813862
0.479119 0.186002 0.907210
0.481673 0.299468 0.042395
0.482592 0.300387 0.126590
0.483786 0.301582 0.235959
0.485027 0.302822 0.349581
0.486298 0.304093 0.465961
0.487591 0.305387 0.584404
0.488903 0.306698 0.704504
0.490229 0.308025 0.825992
0.491249 0.309044 0.919339
0.494150 0.426038 0.054872
0.495070 0.426958 0.139067
0.496264 0.428152 0.248436
0.497505 0.429393 0.362059
0.498775 0.430663 0.478438
0.500069 0.431957 0.596882
0.501380 0.433268 0.716982
0.502707 0.434595 0.838469
0.503726 0.435614 0.931817
0.506877 0.555132 0.067599
0.507796 0.556052 0.151794
0.508990 0.557246 0.261162
0.510231 0.558487 0.374785
0.511502 0.559757 0.491165
0.512795 0.561051 0.609608
0.514107 0.562362 0.729708
0.515433 0.563689 0.851195
0.516453 0.564708 0.944543
0.519798 0.686204 0.080520
0.520717 0.687123 0.164715
0.521912 0.688318 0.274084
0.523152 0.689558 0.387706
0.524423 0.690829 0.504086
0.525716 0.692122 0.622529
0.527028 0.693434 0.742629
0.528355 0.694761 0.864117
0.529374 0.695780 0.957464
0.532880 0.818907 0.093602
0.533799 0.819826 0.177797
0.534994 0.821021 0.287166
0.536234 0.822261 0.400788
0.537505 0.823532 0.517168
0.538799 0.824826 0.635611
0.540110 0.826137 0.755711
0.541437 0.827464 0.877199
0.542456 0.828483 0.970547
0.546099 0.953002 0.106821
0.547019 0.953921 0.191016
0.548213 0.955115 0.300385
0.549454 0.956356 0.414008
0.550725 0.957627 0.530387
0.552018 0.958920 0.648831
0.553329 0.960232 0.768931
0.554656 0.961558 0.890418
0.555675 0.962578 0.983766
0.574837 0.018099 0.018099
0.575757 0.019019 0.102294
0.576951 0.020213 0.211663
0.578192 0.021454 0.325285
0.579462 0.022724 0.441665
0.580756 0.024018 0.560108
0.582067 0.025329 0.680208
0.583394 0.026656 0.801696
0.584413 0.027675 0.895044
0.579298 0.063348 0.022560
0.580217 0.064268 0.106755
0.581412 0.065462 0.216124
0.582652 0.066703 0.329746
0.583923 0.067974 0.446126
0.585216 0.069267 0.564569
0.586528 0.070578 0.684669
0.587855 0.071905 0.806157
0.588874 0.072924 0.899504
0.590822 0.180244 0.034084
0.591741 0.181164 0.118279
0.592935 0.182358 0.227647
0.594176 0.183599 0.341270
0.595447 0.184870 0.457650
0.596740 0.186163 0.576093
0.598052 0.187475 0.696193
0.599378 0.188801 0.817680
0.600398 0.189820 0.911028
0.602951 0.303286 0.046213
0.603871 0.304206 0.130408
0.605065 0.305400 0.239777
0.606306 0.306641 0.353400
0.607577 0.307912 0.469779
0.608870 0.309205 0.588223
0.610181 0.310517 0.708323
0.611508 0.311843 0.829810
0.612527 0.312862 0.923158
0.615429 0.429857 0.058691
0.616348 0.430776 0.142886
0.617543 0.431970 0.252255
0.618783 0.433211 0.365877
0.620054 0.434482 0.482257
0.621348 0.435775 0.600700
0.622659 0.437087 0.720800
0.623986 0.438413 0.842288
0.625005 0.439433 0.935635
0.628155 0.558951 0.071417
0.629075 0.559870 0.155612
0.630269 0.561064 0.264981
0.631510 0.562305 0.378603
0.632781 0.563576 0.494983
0.634074 0.564869 0.613427
0.635385 0.566181 0.733526
0.636712 0.567507 0.855014
0.637731 0.568527 0.948362
0.641077 0.690022 0.084339
0.641996 0.690942 0.168533
0.643190 0.692136 0.277902
0.644431 0.693377 0.391525
0.645702 0.694648 0.507905
0.646995 0.695941 0.626348
0.648307 0.697252 0.746448
0.649633 0.698579 0.867935
0.650653 0.699598 0.961283
0.654159 0.822726 0.097421
0.655078 0.823645 0.181616
0.656272 0.824839 0.290984
0.657513 0.826080 0.404607
0.658784 0.827351 0.520987
0.660077 0.828644 0.639430
0.661389 0.829956 0.759530
0.662715 0.831282 0.881017
0.663735 0.832302 0.974365
0.667378 0.956820 0.110640
0.668297 0.957740 0.194835
0.669492 0.958934 0.304204
0.670732 0.960175 0.417826
0.672003 0.961446 0.534206
0.673297 0.962739 0.652649
0.674608 0.964050 0.772749
0.675935 0.965377 0.894237
0.676954 0.966396 0.987584
0.697752 0.021969 0.021969
0.698671 0.022889 0.106164
0.699866 0.024083 0.215533
0.701106 0.025324 0.329155
0.702377 0.026594 0.445535
0.703671 0.027888 0.563978
0.704982 0.029199 0.684078
0.706309 0.030526 0.805566
0.707328 0.031545 0.898914
0.702213 0.067218 0.026430
0.703132 0.068138 0.110625
0.704326 0.069332 0.219994
0.705567 0.070573 0.333616
0.706838 0.071844 0.449996
0.708131 0.073137 0.568439
0.709443 0.074448 0.688539
0.710769 0.075775 0.810027
0.711789 0.076794 0.903374
0.713737 0.184115 0.037954
0.714656 0.185034 0.122149
0.715850 0.186228 0.231517
0.717091 0.187469 0.345140
0.718362 0.188740 0.461520
0.719655 0.190033 0.579963
0.720967 0.191345 0.700063
0.722293 0.192671 0.821550
0.723313 0.193691 0.914898
0.725866 0.307157 0.050083
0.726786 0.308076 0.134278
0.727980 0.309270 0.243647
0.729221 0.310511 0.357270
0.730491 0.311782 0.473649
0.731785 0.313075 0.592093
0.733096 0.314387 0.712193
0.734423 0.315713 0.833680
0.735442 0.316733 0.927028
0.738344 0.433727 0.062561
0.739263 0.434646 0.146756
0.740457 0.435840 0.256125
0.741698 0.437081 0.369747
0.742969 0.438352 0.486127
0.744262 0.439645 0.604570
0.745574 0.440957 0.724670
0.746900 0.442283 0.846158
0.747920 0.443303 0.939505
0.751070 0.562821 0.075287
0.751989 0.563740 0.159482
0.753184 0.564934 0.268851
0.754424 0.566175 0.382473
0.755695 0.567446 0.498853
0.756989 0.568739 0.617297
0.758300 0.570051 0.737396
0.759627 0.571377 0.858884
0.760646 0.572397 0.952232
0.763991 0.693892 0.088209
0.764911 0.694812 0.172403
0.766105 0.696006 0.281772
0.767346 0.697247 0.395395
0.768617 0.698518 0.511775
0.769910 0.699811 0.630218
0.771221 0.701123 0.750318
0.772548 0.702449 0.871805
0.773567 0.703468 0.965153
0.777074 0.826596 0.101291
0.777993 0.827515 0.185486
0.779187 0.828709 0.294854
0.780428 0.829950 0.408477
0.781699 0.831221 0.524857
0.782992 0.832514 0.643300
0.784304 0.833826 0.763400
0.785630 0.835152 0.884887
0.786650 0.836172 0.978235
0.790293 0.960690 0.114510
0.791212 0.961610 0.198705
0.792406 0.962804 0.308074
0.793647 0.964045 0.421696
0.794918 0.965316 0.538076
0.796211 0.966609 0.656519
0.797523 0.967920 0.776619
0.798849 0.969247 0.898107
0.799869 0.970266 0.991454
0.822045 0.025883 0.025883
0.822965 0.026802 0.110077
0.824159 0.027996 0.219446
0.825400 0.029237 0.333069
0.826670 0.030508 0.449449
0.827964 0.031801 0.567892
0.829275 0.033113 0.687992
0.830602 0.034439 0.809479
0.831621 0.035459 0.902827
0.826506 0.071132 0.030343
0.827425 0.072051 0.114538
0.828620 0.073246 0.223907
0.829860 0.074486 0.337530
0.831131 0.075757 0.453909
0.832424 0.077050 0.572353
0.833736 0.078362 0.692452
0.835063 0.079689 0.813940
0.836082 0.080708 0.907288
0.838030 0.188028 0.041867
0.838949 0.188947 0.126062
0.840143 0.190142 0.235431
0.841384 0.191382 0.349053
0.842655 0.192653 0.465433
0.843948 0.193947 0.583876
0.845260 0.195258 0.703976
0.846586 0.196585 0.825464
0.847606 0.197604 0.918812
0.850159 0.311070 0.053997
0.851079 0.311989 0.138192
0.852273 0.313184 0.247561
0.853514 0.314424 0.361183
0.854785 0.315695 0.477563
0.856078 0.316989 0.596006
0.857389 0.318300 0.716106
0.858716 0.319627 0.837594
0.859735 0.320646 0.930941
0.862637 0.437640 0.066474
0.863556 0.438560 0.150669
0.864751 0.439754 0.260038
0.865991 0.440995 0.373661
0.867262 0.442265 0.490040
0.868556 0.443559 0.608484
0.869867 0.444870 0.728584
0.871194 0.446197 0.850071
0.872213 0.447216 0.943419
0.875363 0.566734 0.079201
0.876283 0.567654 0.163396
0.877477 0.568848 0.272764
0.878718 0.570089 0.386387
0.879989 0.571359 0.502767
0.881282 0.572653 0.621210
0.882593 0.573964 0.741310
0.883920 0.575291 0.862797
0.884939 0.576310 0.956145
0.888285 0.697806 0.092122
0.889204 0.698725 0.176317
0.890398 0.699920 0.285686
0.891639 0.701160 0.399308
0.892910 0.702431 0.515688
0.894203 0.703725 0.634131
0.895515 0.705036 0.754231
0.896841 0.706363 0.875719
0.897861 0.707382 0.969067
0.901367 0.830509 0.105204
0.902286 0.831429 0.189399
0.903480 0.832623 0.298768
0.904721 0.833864 0.412390
0.905992 0.835134 0.528770
0.907285 0.836428 0.647213
0.908597 0.837739 0.767313
0.909923 0.839066 0.888801
0.910943 0.840085 0.982149
0.914586 0.964604 0.118424
0.915505 0.965523 0.202618
0.916700 0.966717 0.311987
0.917940 0.967958 0.425610
0.919211 0.969229 0.541990
0.920505 0.970522 0.660433
0.921816 0.971834 0.780533
0.923143 0.973160 0.902020
0.924162 0.974180 0.995368
