skills/editops-orchestrator/assets/grade/luts/night_blue_v20.cube
TITLE "night_blue_v20"
LUT_3D_SIZE 5
DOMAIN_MIN 0.0 0.0 0.0
DOMAIN_MAX 1.0 1.0 1.0
0.000000 0.000000 0.000000
0.002714 0.002714 0.173966
0.006207 0.006207 0.397850
0.009899 0.009899 0.634507
0.012996 0.012996 0.832996
0.016490 0.121523 0.016490
0.019204 0.124237 0.190456
0.022697 0.127730 0.414339
0.026389 0.131422 0.650997
0.029486 0.134519 0.849486
0.050148 0.369571 0.050148
0.052862 0.372285 0.224114
0.056355 0.375778 0.447997
0.060047 0.379471 0.684655
0.063144 0.382567 0.883144
0.086193 0.635208 0.086193
0.088907 0.637922 0.260159
0.092400 0.641415 0.484042
0.096092 0.645107 0.720700
0.099189 0.648204 0.919189
0.123704 0.911650 0.123704
0.126418 0.914364 0.297670
0.129911 0.917857 0.521553
0.133603 0.921550 0.758211
0.136700 0.924646 0.956700
0.044605 0.001989 0.001989
0.047319 0.004703 0.175955
0.050812 0.008196 0.399838
0.054504 0.011888 0.636496
0.057601 0.014985 0.834985
0.061095 0.123512 0.018478
0.063809 0.126226 0.192445
0.067302 0.129719 0.416328
0.070994 0.133411 0.652986
0.074091 0.136508 0.851474
0.094753 0.371560 0.052137
0.097467 0.374274 0.226103
0.100960 0.377767 0.449986
0.104652 0.381459 0.686644
0.107749 0.384556 0.885133
0.130798 0.637197 0.088182
0.133512 0.639911 0.262148
0.137005 0.643404 0.486031
0.140697 0.647096 0.722689
0.143794 0.650193 0.921178
0.168309 0.913639 0.125693
0.171023 0.916353 0.299659
0.174516 0.919846 0.523542
0.178208 0.923538 0.760200
0.181305 0.926635 0.958689
0.260274 0.011605 0.011605
0.262988 0.014319 0.185571
0.266481 0.017812 0.409455
0.270174 0.021504 0.646112
0.273270 0.024601 0.844601
0.276764 0.133128 0.028095
0.279478 0.135842 0.202061
0.282971 0.139335 0.425944
0.286663 0.143027 0.662602
0.289760 0.146124 0.861091
0.310422 0.381176 0.061753
0.313136 0.383890 0.235719
0.316629 0.387383 0.459602
0.320321 0.391076 0.696260
0.323418 0.394172 0.894749
0.346467 0.646813 0.097798
0.349181 0.649527 0.271764
0.352674 0.653020 0.495647
0.356366 0.656712 0.732305
0.359463 0.659809 0.930794
0.383978 0.923255 0.135309
0.386692 0.925969 0.309275
0.390185 0.929462 0.533158
0.393877 0.933155 0.769816
0.396974 0.936251 0.968305
0.496497 0.022138 0.022138
0.499211 0.024852 0.196104
0.502704 0.028345 0.419987
0.506397 0.032037 0.656645
0.509493 0.035134 0.855134
0.512987 0.143660 0.038627
0.515701 0.146374 0.212593
0.519194 0.149867 0.436477
0.522886 0.153560 0.673135
0.525983 0.156656 0.871623
0.546645 0.391709 0.072285
0.549359 0.394423 0.246252
0.552852 0.397916 0.470135
0.556544 0.401608 0.706793
0.559641 0.404705 0.905281
0.582690 0.657346 0.108330
0.585404 0.660060 0.282297
0.588897 0.663553 0.506180
0.592589 0.667245 0.742838
0.595686 0.670342 0.941326
0.620201 0.933788 0.145841
0.622915 0.936502 0.319808
0.626408 0.939995 0.543691
0.630100 0.943687 0.780349
0.633197 0.946784 0.978837
0.743818 0.033165 0.033165
0.746532 0.035879 0.207131
0.750025 0.039372 0.431015
0.753718 0.043064 0.667672
0.756814 0.046161 0.866161
0.760308 0.154688 0.049655
0.763022 0.157402 0.223621
0.766515 0.160895 0.447504
0.770207 0.164587 0.684162
0.773304 0.167684 0.882651
0.793966 0.402736 0.083313
0.796680 0.405450 0.257279
0.800173 0.408943 0.481162
0.803866 0.412636 0.717820
0.806962 0.415732 0.916309
0.830011 0.668373 0.119358
0.832725 0.671087 0.293324
0.836218 0.674580 0.517207
0.839910 0.678272 0.753865
0.843007 0.681369 0.952354
0.867522 0.944815 0.156869
0.870236 0.947529 0.330835
0.873729 0.951022 0.554718
0.877421 0.954715 0.791376
0.880518 0.957811 0.989865
