skills/editops-orchestrator/assets/grade/luts/night_blue_v17.cube
TITLE "night_blue_v17"
LUT_3D_SIZE 17
DOMAIN_MIN 0.0 0.0 0.0
DOMAIN_MAX 1.0 1.0 1.0
0.000000 0.000000 0.000000
0.000363 0.000363 0.025922
0.001046 0.001046 0.074777
0.001771 0.001771 0.126620
0.002522 0.002522 0.180308
0.003292 0.003292 0.235353
0.004077 0.004077 0.291479
0.004875 0.004875 0.348508
0.005683 0.005683 0.406312
0.006501 0.006501 0.464797
0.007328 0.007328 0.523892
0.008162 0.008162 0.583537
0.009003 0.009003 0.643685
0.009851 0.009851 0.704296
0.010705 0.010705 0.765337
0.011564 0.011564 0.826778
0.011856 0.011856 0.847645
0.000000 0.000000 0.000000
0.000363 0.000363 0.025922
0.001046 0.001046 0.074777
0.001771 0.001771 0.126620
0.002522 0.002522 0.180308
0.003292 0.003292 0.235353
0.004077 0.004077 0.291479
0.004875 0.004875 0.348508
0.005683 0.005683 0.406312
0.006501 0.006501 0.464797
0.007328 0.007328 0.523892
0.008162 0.008162 0.583537
0.009003 0.009003 0.643685
0.009851 0.009851 0.704296
0.010705 0.010705 0.765337
0.011564 0.011564 0.826778
0.011856 0.011856 0.847645
0.002773 0.022510 0.002773
0.003136 0.022873 0.028695
0.003819 0.023556 0.077550
0.004544 0.024281 0.129394
0.005295 0.025032 0.183081
0.006065 0.025802 0.238126
0.006850 0.026587 0.294253
0.007648 0.027385 0.351281
0.008456 0.028193 0.409085
0.009274 0.029011 0.467571
0.010101 0.029838 0.526665
0.010935 0.030672 0.586310
0.011777 0.031513 0.646458
0.012624 0.032361 0.707070
0.013478 0.033215 0.768110
0.014338 0.034074 0.829552
0.014629 0.034366 0.850419
0.009463 0.076803 0.009463
0.009825 0.077166 0.035385
0.010508 0.077849 0.084239
0.011234 0.078574 0.136083
0.011985 0.079325 0.189771
0.012754 0.080095 0.244816
0.013539 0.080880 0.300942
0.014337 0.081678 0.357970
0.015146 0.082486 0.415774
0.015964 0.083304 0.474260
0.016790 0.084131 0.533354
0.017624 0.084965 0.592999
0.018466 0.085807 0.653147
0.019314 0.086654 0.713759
0.020167 0.087508 0.774800
0.021027 0.088367 0.836241
0.021319 0.088659 0.857108
0.016605 0.134774 0.016605
0.016967 0.135136 0.042527
0.017651 0.135819 0.091382
0.018376 0.136545 0.143225
0.019127 0.137295 0.196913
0.019897 0.138065 0.251958
0.020682 0.138850 0.308084
0.021479 0.139648 0.365112
0.022288 0.140457 0.422916
0.023106 0.141275 0.481402
0.023932 0.142101 0.540497
0.024767 0.142935 0.600142
0.025608 0.143777 0.660290
0.026456 0.144625 0.720901
0.027310 0.145478 0.781942
0.028169 0.146338 0.843383
0.028461 0.146630 0.864250
0.024015 0.194921 0.024015
0.024378 0.195284 0.049937
0.025061 0.195967 0.098792
0.025786 0.196692 0.150635
0.026537 0.197443 0.204323
0.027307 0.198213 0.259368
0.028092 0.198998 0.315495
0.028890 0.199796 0.372523
0.029698 0.200604 0.430327
0.030516 0.201422 0.488813
0.031343 0.202249 0.547907
0.032177 0.203083 0.607552
0.033019 0.203924 0.667700
0.033866 0.204772 0.728311
0.034720 0.205626 0.789352
0.035579 0.206485 0.850794
0.035871 0.206777 0.871661
0.031620 0.256647 0.031620
0.031983 0.257010 0.057542
0.032666 0.257693 0.106397
0.033391 0.258418 0.158240
0.034142 0.259169 0.211928
0.034912 0.259939 0.266973
0.035697 0.260724 0.323100
0.036495 0.261522 0.380128
0.037303 0.262330 0.437932
0.038121 0.263148 0.496418
0.038948 0.263975 0.555512
0.039782 0.264809 0.615157
0.040624 0.265650 0.675305
0.041471 0.266498 0.735916
0.042325 0.267352 0.796957
0.043184 0.268211 0.858399
0.043476 0.268503 0.879266
0.039379 0.319622 0.039379
0.039742 0.319984 0.065301
0.040425 0.320668 0.114156
0.041150 0.321393 0.165999
0.041901 0.322144 0.219687
0.042671 0.322914 0.274732
0.043456 0.323699 0.330858
0.044254 0.324496 0.387887
0.045062 0.325305 0.445691
0.045880 0.326123 0.504176
0.046707 0.326949 0.563271
0.047541 0.327784 0.622916
0.048382 0.328625 0.683064
0.049230 0.329473 0.743675
0.050084 0.330326 0.804716
0.050943 0.331186 0.866158
0.051235 0.331478 0.887025
0.047266 0.383632 0.047266
0.047628 0.383995 0.073187
0.048311 0.384678 0.122042
0.049037 0.385403 0.173886
0.049788 0.386154 0.227574
0.050557 0.386924 0.282619
0.051342 0.387709 0.338745
0.052140 0.388507 0.395773
0.052949 0.389315 0.453577
0.053767 0.390133 0.512063
0.054593 0.390960 0.571157
0.055427 0.391794 0.630802
0.056269 0.392636 0.690950
0.057117 0.393483 0.751562
0.057970 0.394337 0.812603
0.058830 0.395197 0.874044
0.059122 0.395488 0.894911
0.055261 0.448531 0.055261
0.055624 0.448894 0.081183
0.056307 0.449577 0.130038
0.057032 0.450302 0.181882
0.057783 0.451053 0.235569
0.058553 0.451823 0.290615
0.059338 0.452608 0.346741
0.060136 0.453406 0.403769
0.060945 0.454214 0.461573
0.061763 0.455032 0.520059
0.062589 0.455859 0.579153
0.063423 0.456693 0.638798
0.064265 0.457534 0.698946
0.065112 0.458382 0.759558
0.065966 0.459236 0.820598
0.066826 0.460095 0.882040
0.067117 0.460387 0.902907
0.063353 0.514209 0.063353
0.063716 0.514571 0.089275
0.064399 0.515255 0.138130
0.065124 0.515980 0.189973
0.065875 0.516731 0.243661
0.066645 0.517501 0.298706
0.067430 0.518286 0.354833
0.068228 0.519083 0.411861
0.069036 0.519892 0.469665
0.069854 0.520710 0.528151
0.070681 0.521536 0.587245
0.071515 0.522371 0.646890
0.072356 0.523212 0.707038
0.073204 0.524060 0.767649
0.074058 0.524914 0.828690
0.074917 0.525773 0.890132
0.075209 0.526065 0.910999
0.071531 0.580580 0.071531
0.071893 0.580943 0.097453
0.072577 0.581626 0.146307
0.073302 0.582351 0.198151
0.074053 0.583102 0.251839
0.074822 0.583872 0.306884
0.075608 0.584657 0.363010
0.076405 0.585455 0.420038
0.077214 0.586263 0.477842
0.078032 0.587082 0.536328
0.078858 0.587908 0.595422
0.079693 0.588742 0.655067
0.080534 0.589584 0.715215
0.081382 0.590431 0.775827
0.082235 0.591285 0.836868
0.083095 0.592145 0.898309
0.083387 0.592436 0.919176
0.079785 0.647579 0.079785
0.080148 0.647941 0.105707
0.080831 0.648625 0.154562
0.081556 0.649350 0.206405
0.082307 0.650101 0.260093
0.083077 0.650871 0.315138
0.083862 0.651656 0.371265
0.084660 0.652453 0.428293
0.085468 0.653262 0.486097
0.086286 0.654080 0.544582
0.087113 0.654907 0.603677
0.087947 0.655741 0.663322
0.088788 0.656582 0.723470
0.089636 0.657430 0.784081
0.090490 0.658284 0.845122
0.091349 0.659143 0.906564
0.091641 0.659435 0.927431
0.088110 0.715149 0.088110
0.088473 0.715512 0.114032
0.089156 0.716195 0.162887
0.089881 0.716920 0.214730
0.090632 0.717671 0.268418
0.091402 0.718441 0.323463
0.092187 0.719226 0.379590
0.092985 0.720024 0.436618
0.093793 0.720832 0.494422
0.094611 0.721650 0.552908
0.095438 0.722477 0.612002
0.096272 0.723311 0.671647
0.097113 0.724153 0.731795
0.097961 0.725000 0.792406
0.098815 0.725854 0.853447
0.099674 0.726713 0.914889
0.099966 0.727005 0.935756
0.096500 0.783246 0.096500
0.096863 0.783609 0.122422
0.097546 0.784292 0.171277
0.098271 0.785017 0.223120
0.099022 0.785768 0.276808
0.099792 0.786538 0.331853
0.100577 0.787323 0.387979
0.101375 0.788121 0.445008
0.102183 0.788929 0.502812
0.103001 0.789747 0.561297
0.103828 0.790574 0.620392
0.104662 0.791408 0.680037
0.105503 0.792249 0.740185
0.106351 0.793097 0.800796
0.107205 0.793951 0.861837
0.108064 0.794810 0.923279
0.108356 0.795102 0.944146
0.104950 0.851830 0.104950
0.105313 0.852193 0.130872
0.105996 0.852876 0.179727
0.106721 0.853601 0.231570
0.107472 0.854352 0.285258
0.108242 0.855122 0.340303
0.109027 0.855907 0.396429
0.109825 0.856705 0.453458
0.110633 0.857513 0.511262
0.111451 0.858331 0.569747
0.112278 0.859158 0.628842
0.113112 0.859992 0.688487
0.113953 0.860833 0.748635
0.114801 0.861681 0.809246
0.115655 0.862535 0.870287
0.116514 0.863394 0.931728
0.116806 0.863686 0.952596
0.113456 0.920869 0.113456
0.113819 0.921232 0.139378
0.114502 0.921915 0.188233
0.115227 0.922640 0.240076
0.115978 0.923391 0.293764
0.116748 0.924161 0.348809
0.117533 0.924946 0.404935
0.118331 0.925744 0.461964
0.119139 0.926552 0.519768
0.119957 0.927370 0.578253
0.120784 0.928197 0.637348
0.121618 0.929031 0.696993
0.122459 0.929872 0.757141
0.123307 0.930720 0.817752
0.124161 0.931574 0.878793
0.125020 0.932433 0.940234
0.125312 0.932725 0.961101
0.000000 0.000000 0.000000
0.000363 0.000363 0.025922
0.001046 0.001046 0.074777
0.001771 0.001771 0.126620
0.002522 0.002522 0.180308
0.003292 0.003292 0.235353
0.004077 0.004077 0.291479
0.004875 0.004875 0.348508
0.005683 0.005683 0.406312
0.006501 0.006501 0.464797
0.007328 0.007328 0.523892
0.008162 0.008162 0.583537
0.009003 0.009003 0.643685
0.009851 0.009851 0.704296
0.010705 0.010705 0.765337
0.011564 0.011564 0.826778
0.011856 0.011856 0.847645
0.000000 0.000000 0.000000
0.000363 0.000363 0.025922
0.001046 0.001046 0.074777
0.001771 0.001771 0.126620
0.002522 0.002522 0.180308
0.003292 0.003292 0.235353
0.004077 0.004077 0.291479
0.004875 0.004875 0.348508
0.005683 0.005683 0.406312
0.006501 0.006501 0.464797
0.007328 0.007328 0.523892
0.008162 0.008162 0.583537
0.009003 0.009003 0.643685
0.009851 0.009851 0.704296
0.010705 0.010705 0.765337
0.011564 0.011564 0.826778
0.011856 0.011856 0.847645
0.002773 0.022510 0.002773
0.003136 0.022873 0.028695
0.003819 0.023556 0.077550
0.004544 0.024281 0.129394
0.005295 0.025032 0.183081
0.006065 0.025802 0.238126
0.006850 0.026587 0.294253
0.007648 0.027385 0.351281
0.008456 0.028193 0.409085
0.009274 0.029011 0.467571
0.010101 0.029838 0.526665
0.010935 0.030672 0.586310
0.011777 0.031513 0.646458
0.012624 0.032361 0.707070
0.013478 0.033215 0.768110
0.014338 0.034074 0.829552
0.014629 0.034366 0.850419
0.009463 0.076803 0.009463
0.009825 0.077166 0.035385
0.010508 0.077849 0.084239
0.011234 0.078574 0.136083
0.011985 0.079325 0.189771
0.012754 0.080095 0.244816
0.013539 0.080880 0.300942
0.014337 0.081678 0.357970
0.015146 0.082486 0.415774
0.015964 0.083304 0.474260
0.016790 0.084131 0.533354
0.017624 0.084965 0.592999
0.018466 0.085807 0.653147
0.019314 0.086654 0.713759
0.020167 0.087508 0.774800
0.021027 0.088367 0.836241
0.021319 0.088659 0.857108
0.016605 0.134774 0.016605
0.016967 0.135136 0.042527
0.017651 0.135819 0.091382
0.018376 0.136545 0.143225
0.019127 0.137295 0.196913
0.019897 0.138065 0.251958
0.020682 0.138850 0.308084
0.021479 0.139648 0.365112
0.022288 0.140457 0.422916
0.023106 0.141275 0.481402
0.023932 0.142101 0.540497
0.024767 0.142935 0.600142
0.025608 0.143777 0.660290
0.026456 0.144625 0.720901
0.027310 0.145478 0.781942
0.028169 0.146338 0.843383
0.028461 0.146630 0.864250
0.024015 0.194921 0.024015
0.024378 0.195284 0.049937
0.025061 0.195967 0.098792
0.025786 0.196692 0.150635
0.026537 0.197443 0.204323
0.027307 0.198213 0.259368
0.028092 0.198998 0.315495
0.028890 0.199796 0.372523
0.029698 0.200604 0.430327
0.030516 0.201422 0.488813
0.031343 0.202249 0.547907
0.032177 0.203083 0.607552
0.033019 0.203924 0.667700
0.033866 0.204772 0.728311
0.034720 0.205626 0.789352
0.035579 0.206485 0.850794
0.035871 0.206777 0.871661
0.031620 0.256647 0.031620
0.031983 0.257010 0.057542
0.032666 0.257693 0.106397
0.033391 0.258418 0.158240
0.034142 0.259169 0.211928
0.034912 0.259939 0.266973
0.035697 0.260724 0.323100
0.036495 0.261522 0.380128
0.037303 0.262330 0.437932
0.038121 0.263148 0.496418
0.038948 0.263975 0.555512
0.039782 0.264809 0.615157
0.040624 0.265650 0.675305
0.041471 0.266498 0.735916
0.042325 0.267352 0.796957
0.043184 0.268211 0.858399
0.043476 0.268503 0.879266
0.039379 0.319622 0.039379
0.039742 0.319984 0.065301
0.040425 0.320668 0.114156
0.041150 0.321393 0.165999
0.041901 0.322144 0.219687
0.042671 0.322914 0.274732
0.043456 0.323699 0.330858
0.044254 0.324496 0.387887
0.045062 0.325305 0.445691
0.045880 0.326123 0.504176
0.046707 0.326949 0.563271
0.047541 0.327784 0.622916
0.048382 0.328625 0.683064
0.049230 0.329473 0.743675
0.050084 0.330326 0.804716
0.050943 0.331186 0.866158
0.051235 0.331478 0.887025
0.047266 0.383632 0.047266
0.047628 0.383995 0.073187
0.048311 0.384678 0.122042
0.049037 0.385403 0.173886
0.049788 0.386154 0.227574
0.050557 0.386924 0.282619
0.051342 0.387709 0.338745
0.052140 0.388507 0.395773
0.052949 0.389315 0.453577
0.053767 0.390133 0.512063
0.054593 0.390960 0.571157
0.055427 0.391794 0.630802
0.056269 0.392636 0.690950
0.057117 0.393483 0.751562
0.057970 0.394337 0.812603
0.058830 0.395197 0.874044
0.059122 0.395488 0.894911
0.055261 0.448531 0.055261
0.055624 0.448894 0.081183
0.056307 0.449577 0.130038
0.057032 0.450302 0.181882
0.057783 0.451053 0.235569
0.058553 0.451823 0.290615
0.059338 0.452608 0.346741
0.060136 0.453406 0.403769
0.060945 0.454214 0.461573
0.061763 0.455032 0.520059
0.062589 0.455859 0.579153
0.063423 0.456693 0.638798
0.064265 0.457534 0.698946
0.065112 0.458382 0.759558
0.065966 0.459236 0.820598
0.066826 0.460095 0.882040
0.067117 0.460387 0.902907
0.063353 0.514209 0.063353
0.063716 0.514571 0.089275
0.064399 0.515255 0.138130
0.065124 0.515980 0.189973
0.065875 0.516731 0.243661
0.066645 0.517501 0.298706
0.067430 0.518286 0.354833
0.068228 0.519083 0.411861
0.069036 0.519892 0.469665
0.069854 0.520710 0.528151
0.070681 0.521536 0.587245
0.071515 0.522371 0.646890
0.072356 0.523212 0.707038
0.073204 0.524060 0.767649
0.074058 0.524914 0.828690
0.074917 0.525773 0.890132
0.075209 0.526065 0.910999
0.071531 0.580580 0.071531
0.071893 0.580943 0.097453
0.072577 0.581626 0.146307
0.073302 0.582351 0.198151
0.074053 0.583102 0.251839
0.074822 0.583872 0.306884
0.075608 0.584657 0.363010
0.076405 0.585455 0.420038
0.077214 0.586263 0.477842
0.078032 0.587082 0.536328
0.078858 0.587908 0.595422
0.079693 0.588742 0.655067
0.080534 0.589584 0.715215
0.081382 0.590431 0.775827
0.082235 0.591285 0.836868
0.083095 0.592145 0.898309
0.083387 0.592436 0.919176
0.079785 0.647579 0.079785
0.080148 0.647941 0.105707
0.080831 0.648625 0.154562
0.081556 0.649350 0.206405
0.082307 0.650101 0.260093
0.083077 0.650871 0.315138
0.083862 0.651656 0.371265
0.084660 0.652453 0.428293
0.085468 0.653262 0.486097
0.086286 0.654080 0.544582
0.087113 0.654907 0.603677
0.087947 0.655741 0.663322
0.088788 0.656582 0.723470
0.089636 0.657430 0.784081
0.090490 0.658284 0.845122
0.091349 0.659143 0.906564
0.091641 0.659435 0.927431
0.088110 0.715149 0.088110
0.088473 0.715512 0.114032
0.089156 0.716195 0.162887
0.089881 0.716920 0.214730
0.090632 0.717671 0.268418
0.091402 0.718441 0.323463
0.092187 0.719226 0.379590
0.092985 0.720024 0.436618
0.093793 0.720832 0.494422
0.094611 0.721650 0.552908
0.095438 0.722477 0.612002
0.096272 0.723311 0.671647
0.097113 0.724153 0.731795
0.097961 0.725000 0.792406
0.098815 0.725854 0.853447
0.099674 0.726713 0.914889
0.099966 0.727005 0.935756
0.096500 0.783246 0.096500
0.096863 0.783609 0.122422
0.097546 0.784292 0.171277
0.098271 0.785017 0.223120
0.099022 0.785768 0.276808
0.099792 0.786538 0.331853
0.100577 0.787323 0.387979
0.101375 0.788121 0.445008
0.102183 0.788929 0.502812
0.103001 0.789747 0.561297
0.103828 0.790574 0.620392
0.104662 0.791408 0.680037
0.105503 0.792249 0.740185
0.106351 0.793097 0.800796
0.107205 0.793951 0.861837
0.108064 0.794810 0.923279
0.108356 0.795102 0.944146
0.104950 0.851830 0.104950
0.105313 0.852193 0.130872
0.105996 0.852876 0.179727
0.106721 0.853601 0.231570
0.107472 0.854352 0.285258
0.108242 0.855122 0.340303
0.109027 0.855907 0.396429
0.109825 0.856705 0.453458
0.110633 0.857513 0.511262
0.111451 0.858331 0.569747
0.112278 0.859158 0.628842
0.113112 0.859992 0.688487
0.113953 0.860833 0.748635
0.114801 0.861681 0.809246
0.115655 0.862535 0.870287
0.116514 0.863394 0.931728
0.116806 0.863686 0.952596
0.113456 0.920869 0.113456
0.113819 0.921232 0.139378
0.114502 0.921915 0.188233
0.115227 0.922640 0.240076
0.115978 0.923391 0.293764
0.116748 0.924161 0.348809
0.117533 0.924946 0.404935
0.118331 0.925744 0.461964
0.119139 0.926552 0.519768
0.119957 0.927370 0.578253
0.120784 0.928197 0.637348
0.121618 0.929031 0.696993
0.122459 0.929872 0.757141
0.123307 0.930720 0.817752
0.124161 0.931574 0.878793
0.125020 0.932433 0.940234
0.125312 0.932725 0.961101
0.000000 0.000000 0.000000
0.000363 0.000363 0.025922
0.001046 0.001046 0.074777
0.001771 0.001771 0.126620
0.002522 0.002522 0.180308
0.003292 0.003292 0.235353
0.004077 0.004077 0.291479
0.004875 0.004875 0.348508
0.005683 0.005683 0.406312
0.006501 0.006501 0.464797
0.007328 0.007328 0.523892
0.008162 0.008162 0.583537
0.009003 0.009003 0.643685
0.009851 0.009851 0.704296
0.010705 0.010705 0.765337
0.011564 0.011564 0.826778
0.011856 0.011856 0.847645
0.000000 0.000000 0.000000
0.000363 0.000363 0.025922
0.001046 0.001046 0.074777
0.001771 0.001771 0.126620
0.002522 0.002522 0.180308
0.003292 0.003292 0.235353
0.004077 0.004077 0.291479
0.004875 0.004875 0.348508
0.005683 0.005683 0.406312
0.006501 0.006501 0.464797
0.007328 0.007328 0.523892
0.008162 0.008162 0.583537
0.009003 0.009003 0.643685
0.009851 0.009851 0.704296
0.010705 0.010705 0.765337
0.011564 0.011564 0.826778
0.011856 0.011856 0.847645
0.002773 0.022510 0.002773
0.003136 0.022873 0.028695
0.003819 0.023556 0.077550
0.004544 0.024281 0.129394
0.005295 0.025032 0.183081
0.006065 0.025802 0.238126
0.006850 0.026587 0.294253
0.007648 0.027385 0.351281
0.008456 0.028193 0.409085
0.009274 0.029011 0.467571
0.010101 0.029838 0.526665
0.010935 0.030672 0.586310
0.011777 0.031513 0.646458
0.012624 0.032361 0.707070
0.013478 0.033215 0.768110
0.014338 0.034074 0.829552
0.014629 0.034366 0.850419
0.009463 0.076803 0.009463
0.009825 0.077166 0.035385
0.010508 0.077849 0.084239
0.011234 0.078574 0.136083
0.011985 0.079325 0.189771
0.012754 0.080095 0.244816
0.013539 0.080880 0.300942
0.014337 0.081678 0.357970
0.015146 0.082486 0.415774
0.015964 0.083304 0.474260
0.016790 0.084131 0.533354
0.017624 0.084965 0.592999
0.018466 0.085807 0.653147
0.019314 0.086654 0.713759
0.020167 0.087508 0.774800
0.021027 0.088367 0.836241
0.021319 0.088659 0.857108
0.016605 0.134774 0.016605
0.016967 0.135136 0.042527
0.017651 0.135819 0.091382
0.018376 0.136545 0.143225
0.019127 0.137295 0.196913
0.019897 0.138065 0.251958
0.020682 0.138850 0.308084
0.021479 0.139648 0.365112
0.022288 0.140457 0.422916
0.023106 0.141275 0.481402
0.023932 0.142101 0.540497
0.024767 0.142935 0.600142
0.025608 0.143777 0.660290
0.026456 0.144625 0.720901
0.027310 0.145478 0.781942
0.028169 0.146338 0.843383
0.028461 0.146630 0.864250
0.024015 0.194921 0.024015
0.024378 0.195284 0.049937
0.025061 0.195967 0.098792
0.025786 0.196692 0.150635
0.026537 0.197443 0.204323
0.027307 0.198213 0.259368
0.028092 0.198998 0.315495
0.028890 0.199796 0.372523
0.029698 0.200604 0.430327
0.030516 0.201422 0.488813
0.031343 0.202249 0.547907
0.032177 0.203083 0.607552
0.033019 0.203924 0.667700
0.033866 0.204772 0.728311
0.034720 0.205626 0.789352
0.035579 0.206485 0.850794
0.035871 0.206777 0.871661
0.031620 0.256647 0.031620
0.031983 0.257010 0.057542
0.032666 0.257693 0.106397
0.033391 0.258418 0.158240
0.034142 0.259169 0.211928
0.034912 0.259939 0.266973
0.035697 0.260724 0.323100
0.036495 0.261522 0.380128
0.037303 0.262330 0.437932
0.038121 0.263148 0.496418
0.038948 0.263975 0.555512
0.039782 0.264809 0.615157
0.040624 0.265650 0.675305
0.041471 0.266498 0.735916
0.042325 0.267352 0.796957
0.043184 0.268211 0.858399
0.043476 0.268503 0.879266
0.039379 0.319622 0.039379
0.039742 0.319984 0.065301
0.040425 0.320668 0.114156
0.041150 0.321393 0.165999
0.041901 0.322144 0.219687
0.042671 0.322914 0.274732
0.043456 0.323699 0.330858
0.044254 0.324496 0.387887
0.045062 0.325305 0.445691
0.045880 0.326123 0.504176
0.046707 0.326949 0.563271
0.047541 0.327784 0.622916
0.048382 0.328625 0.683064
0.049230 0.329473 0.743675
0.050084 0.330326 0.804716
0.050943 0.331186 0.866158
0.051235 0.331478 0.887025
0.047266 0.383632 0.047266
0.047628 0.383995 0.073187
0.048311 0.384678 0.122042
0.049037 0.385403 0.173886
0.049788 0.386154 0.227574
0.050557 0.386924 0.282619
0.051342 0.387709 0.338745
0.052140 0.388507 0.395773
0.052949 0.389315 0.453577
0.053767 0.390133 0.512063
0.054593 0.390960 0.571157
0.055427 0.391794 0.630802
0.056269 0.392636 0.690950
0.057117 0.393483 0.751562
0.057970 0.394337 0.812603
0.058830 0.395197 0.874044
0.059122 0.395488 0.894911
0.055261 0.448531 0.055261
0.055624 0.448894 0.081183
0.056307 0.449577 0.130038
0.057032 0.450302 0.181882
0.057783 0.451053 0.235569
0.058553 0.451823 0.290615
0.059338 0.452608 0.346741
0.060136 0.453406 0.403769
0.060945 0.454214 0.461573
0.061763 0.455032 0.520059
0.062589 0.455859 0.579153
0.063423 0.456693 0.638798
0.064265 0.457534 0.698946
0.065112 0.458382 0.759558
0.065966 0.459236 0.820598
0.066826 0.460095 0.882040
0.067117 0.460387 0.902907
0.063353 0.514209 0.063353
0.063716 0.514571 0.089275
0.064399 0.515255 0.138130
0.065124 0.515980 0.189973
0.065875 0.516731 0.243661
0.066645 0.517501 0.298706
0.067430 0.518286 0.354833
0.068228 0.519083 0.411861
0.069036 0.519892 0.469665
0.069854 0.520710 0.528151
0.070681 0.521536 0.587245
0.071515 0.522371 0.646890
0.072356 0.523212 0.707038
0.073204 0.524060 0.767649
0.074058 0.524914 0.828690
0.074917 0.525773 0.890132
0.075209 0.526065 0.910999
0.071531 0.580580 0.071531
0.071893 0.580943 0.097453
0.072577 0.581626 0.146307
0.073302 0.582351 0.198151
0.074053 0.583102 0.251839
0.074822 0.583872 0.306884
0.075608 0.584657 0.363010
0.076405 0.585455 0.420038
0.077214 0.586263 0.477842
0.078032 0.587082 0.536328
0.078858 0.587908 0.595422
0.079693 0.588742 0.655067
0.080534 0.589584 0.715215
0.081382 0.590431 0.775827
0.082235 0.591285 0.836868
0.083095 0.592145 0.898309
0.083387 0.592436 0.919176
0.079785 0.647579 0.079785
0.080148 0.647941 0.105707
0.080831 0.648625 0.154562
0.081556 0.649350 0.206405
0.082307 0.650101 0.260093
0.083077 0.650871 0.315138
0.083862 0.651656 0.371265
0.084660 0.652453 0.428293
0.085468 0.653262 0.486097
0.086286 0.654080 0.544582
0.087113 0.654907 0.603677
0.087947 0.655741 0.663322
0.088788 0.656582 0.723470
0.089636 0.657430 0.784081
0.090490 0.658284 0.845122
0.091349 0.659143 0.906564
0.091641 0.659435 0.927431
0.088110 0.715149 0.088110
0.088473 0.715512 0.114032
0.089156 0.716195 0.162887
0.089881 0.716920 0.214730
0.090632 0.717671 0.268418
0.091402 0.718441 0.323463
0.092187 0.719226 0.379590
0.092985 0.720024 0.436618
0.093793 0.720832 0.494422
0.094611 0.721650 0.552908
0.095438 0.722477 0.612002
0.096272 0.723311 0.671647
0.097113 0.724153 0.731795
0.097961 0.725000 0.792406
0.098815 0.725854 0.853447
0.099674 0.726713 0.914889
0.099966 0.727005 0.935756
0.096500 0.783246 0.096500
0.096863 0.783609 0.122422
0.097546 0.784292 0.171277
0.098271 0.785017 0.223120
0.099022 0.785768 0.276808
0.099792 0.786538 0.331853
0.100577 0.787323 0.387979
0.101375 0.788121 0.445008
0.102183 0.788929 0.502812
0.103001 0.789747 0.561297
0.103828 0.790574 0.620392
0.104662 0.791408 0.680037
0.105503 0.792249 0.740185
0.106351 0.793097 0.800796
0.107205 0.793951 0.861837
0.108064 0.794810 0.923279
0.108356 0.795102 0.944146
0.104950 0.851830 0.104950
0.105313 0.852193 0.130872
0.105996 0.852876 0.179727
0.106721 0.853601 0.231570
0.107472 0.854352 0.285258
0.108242 0.855122 0.340303
0.109027 0.855907 0.396429
0.109825 0.856705 0.453458
0.110633 0.857513 0.511262
0.111451 0.858331 0.569747
0.112278 0.859158 0.628842
0.113112 0.859992 0.688487
0.113953 0.860833 0.748635
0.114801 0.861681 0.809246
0.115655 0.862535 0.870287
0.116514 0.863394 0.931728
0.116806 0.863686 0.952596
0.113456 0.920869 0.113456
0.113819 0.921232 0.139378
0.114502 0.921915 0.188233
0.115227 0.922640 0.240076
0.115978 0.923391 0.293764
0.116748 0.924161 0.348809
0.117533 0.924946 0.404935
0.118331 0.925744 0.461964
0.119139 0.926552 0.519768
0.119957 0.927370 0.578253
0.120784 0.928197 0.637348
0.121618 0.929031 0.696993
0.122459 0.929872 0.757141
0.123307 0.930720 0.817752
0.124161 0.931574 0.878793
0.125020 0.932433 0.940234
0.125312 0.932725 0.961101
0.014640 0.000587 0.000587
0.015003 0.000950 0.026509
0.015686 0.001633 0.075364
0.016411 0.002358 0.127207
0.017162 0.003109 0.180895
0.017932 0.003879 0.235940
0.018717 0.004664 0.292066
0.019515 0.005462 0.349095
0.020323 0.006270 0.406899
0.021141 0.007088 0.465384
0.021968 0.007915 0.524479
0.022802 0.008749 0.584124
0.023643 0.009590 0.644272
0.024491 0.010438 0.704883
0.025345 0.011292 0.765924
0.026204 0.012151 0.827365
0.026496 0.012443 0.848232
0.014640 0.000587 0.000587
