skills/editops-orchestrator/assets/grade/luts/night_blue_v07.cube
TITLE "night_blue_v07"
LUT_3D_SIZE 9
DOMAIN_MIN 0.0 0.0 0.0
DOMAIN_MAX 1.0 1.0 1.0
0.000000 0.000000 0.000000
0.000818 0.000818 0.090992
0.001823 0.001823 0.202840
0.002858 0.002858 0.318007
0.003912 0.003912 0.435324
0.004981 0.004981 0.554246
0.006061 0.006061 0.674455
0.007151 0.007151 0.795741
0.008056 0.008056 0.896477
0.005098 0.061857 0.005098
0.005916 0.062675 0.096090
0.006921 0.063680 0.207939
0.007956 0.064715 0.323105
0.009010 0.065769 0.440422
0.010079 0.066838 0.559345
0.011159 0.067918 0.679554
0.012249 0.069008 0.800839
0.013154 0.069913 0.901575
0.014914 0.180954 0.014914
0.015732 0.181771 0.105906
0.016737 0.182777 0.217755
0.017772 0.183811 0.332921
0.018826 0.184866 0.450238
0.019895 0.185934 0.569160
0.020975 0.187015 0.689370
0.022065 0.188104 0.810655
0.022970 0.189010 0.911391
0.025090 0.304414 0.025090
0.025908 0.305232 0.116082
0.026913 0.306237 0.227930
0.027948 0.307272 0.343097
0.029002 0.308326 0.460414
0.030071 0.309395 0.579336
0.031151 0.310475 0.699545
0.032241 0.311565 0.820830
0.033146 0.312470 0.921567
0.035480 0.430477 0.035480
0.036298 0.431295 0.126472
0.037303 0.432300 0.238320
0.038338 0.433335 0.353487
0.039392 0.434389 0.470804
0.040461 0.435458 0.589726
0.041541 0.436538 0.709936
0.042631 0.437628 0.831221
0.043536 0.438533 0.931957
0.046025 0.558421 0.046025
0.046843 0.559239 0.137017
0.047848 0.560244 0.248866
0.048883 0.561279 0.364032
0.049937 0.562333 0.481349
0.051006 0.563402 0.600272
0.052086 0.564482 0.720481
0.053176 0.565572 0.841766
0.054081 0.566477 0.942502
0.056693 0.687846 0.056693
0.057510 0.688664 0.147684
0.058515 0.689669 0.259533
0.059550 0.690704 0.374700
0.060605 0.691758 0.492016
0.061673 0.692827 0.610939
0.062753 0.693907 0.731148
0.063843 0.694997 0.852433
0.064749 0.695902 0.953170
0.067461 0.818496 0.067461
0.068278 0.819313 0.158452
0.069284 0.820319 0.270301
0.070318 0.821353 0.385468
0.071373 0.822408 0.502784
0.072441 0.823476 0.621707
0.073522 0.824557 0.741916
0.074611 0.825646 0.863201
0.075517 0.826552 0.963938
0.078315 0.950190 0.078315
0.079133 0.951008 0.169307
0.080138 0.952013 0.281155
0.081173 0.953048 0.396322
0.082227 0.954102 0.513639
0.083296 0.955171 0.632561
0.084376 0.956251 0.752770
0.085466 0.957341 0.874056
0.086371 0.958246 0.974792
0.024996 0.000650 0.000650
0.025814 0.001468 0.091642
0.026819 0.002473 0.203490
0.027854 0.003508 0.318657
0.028908 0.004562 0.435974
0.029976 0.005631 0.554896
0.031057 0.006711 0.675105
0.032147 0.007801 0.796391
0.033052 0.008706 0.897127
0.030094 0.062508 0.005748
0.030912 0.063325 0.096740
0.031917 0.064330 0.208589
0.032952 0.065365 0.323755
0.034006 0.066419 0.441072
0.035075 0.067488 0.559995
0.036155 0.068568 0.680204
0.037245 0.069658 0.801489
0.038150 0.070564 0.902225
0.039910 0.181604 0.015564
0.040728 0.182421 0.106556
0.041733 0.183427 0.218405
0.042768 0.184461 0.333571
0.043822 0.185516 0.450888
0.044891 0.186584 0.569811
0.045971 0.187665 0.690020
0.047061 0.188755 0.811305
0.047966 0.189660 0.912041
0.050086 0.305064 0.025740
0.050903 0.305882 0.116732
0.051909 0.306887 0.228580
0.052944 0.307922 0.343747
0.053998 0.308976 0.461064
0.055066 0.310045 0.579986
0.056147 0.311125 0.700195
0.057237 0.312215 0.821481
0.058142 0.313120 0.922217
0.060476 0.431127 0.036130
0.061294 0.431945 0.127122
0.062299 0.432950 0.238970
0.063334 0.433985 0.354137
0.064388 0.435039 0.471454
0.065457 0.436108 0.590376
0.066537 0.437188 0.710586
0.067627 0.438278 0.831871
0.068532 0.439183 0.932607
0.071021 0.559071 0.046675
0.071839 0.559889 0.137667
0.072844 0.560894 0.249516
0.073879 0.561929 0.364682
0.074933 0.562983 0.481999
0.076002 0.564052 0.600922
0.077082 0.565132 0.721131
0.078172 0.566222 0.842416
0.079077 0.567127 0.943152
0.081688 0.688496 0.057343
0.082506 0.689314 0.148334
0.083511 0.690319 0.260183
0.084546 0.691354 0.375350
0.085600 0.692408 0.492666
0.086669 0.693477 0.611589
0.087749 0.694557 0.731798
0.088839 0.695647 0.853083
0.089744 0.696552 0.953820
0.092457 0.819146 0.068111
0.093274 0.819963 0.159103
0.094279 0.820969 0.270951
0.095314 0.822003 0.386118
0.096369 0.823058 0.503435
0.097437 0.824126 0.622357
0.098517 0.825207 0.742566
0.099607 0.826297 0.863851
0.100513 0.827202 0.964588
0.103311 0.950840 0.078965
0.104129 0.951658 0.169957
0.105134 0.952663 0.281805
0.106169 0.953698 0.396972
0.107223 0.954752 0.514289
0.108292 0.955821 0.633211
0.109372 0.956901 0.753421
0.110462 0.957991 0.874706
0.111367 0.958896 0.975442
0.134934 0.003509 0.003509
0.135752 0.004327 0.094501
0.136757 0.005332 0.206349
0.137792 0.006367 0.321516
0.138846 0.007421 0.438833
0.139915 0.008490 0.557755
0.140995 0.009570 0.677965
0.142085 0.010660 0.799250
0.142990 0.011565 0.899986
0.140033 0.065367 0.008607
0.140850 0.066184 0.099599
0.141855 0.067189 0.211448
0.142890 0.068224 0.326615
0.143944 0.069279 0.443931
0.145013 0.070347 0.562854
0.146093 0.071427 0.683063
0.147183 0.072517 0.804348
0.148089 0.073423 0.905085
0.149849 0.184463 0.018423
0.150666 0.185281 0.109415
0.151671 0.186286 0.221264
0.152706 0.187321 0.336431
0.153760 0.188375 0.453747
0.154829 0.189444 0.572670
0.155909 0.190524 0.692879
0.156999 0.191614 0.814164
0.157905 0.192519 0.914901
0.160024 0.307923 0.028599
0.160842 0.308741 0.119591
0.161847 0.309746 0.231439
0.162882 0.310781 0.346606
0.163936 0.311835 0.463923
0.165005 0.312904 0.582845
0.166085 0.313984 0.703055
0.167175 0.315074 0.824340
0.168080 0.315979 0.925076
0.170414 0.433986 0.038989
0.171232 0.434804 0.129981
0.172237 0.435809 0.241830
0.173272 0.436844 0.356996
0.174326 0.437898 0.474313
0.175395 0.438967 0.593235
0.176475 0.440047 0.713445
0.177565 0.441137 0.834730
0.178470 0.442042 0.935466
0.180960 0.561930 0.049534
0.181777 0.562748 0.140526
0.182782 0.563753 0.252375
0.183817 0.564788 0.367542
0.184871 0.565842 0.484858
0.185940 0.566911 0.603781
0.187020 0.567991 0.723990
0.188110 0.569081 0.845275
0.189016 0.569986 0.946012
0.191627 0.691356 0.060202
0.192444 0.692173 0.151193
0.193450 0.693178 0.263042
0.194485 0.694213 0.378209
0.195539 0.695268 0.495525
0.196607 0.696336 0.614448
0.197688 0.697416 0.734657
0.198778 0.698506 0.855942
0.199683 0.699412 0.956679
0.202395 0.822005 0.070970
0.203213 0.822823 0.161962
0.204218 0.823828 0.273810
0.205253 0.824863 0.388977
0.206307 0.825917 0.506294
0.207376 0.826986 0.625216
0.208456 0.828066 0.745425
0.209546 0.829156 0.866710
0.210451 0.830061 0.967447
0.213249 0.953699 0.081824
0.214067 0.954517 0.172816
0.215072 0.955522 0.284664
0.216107 0.956557 0.399831
0.217161 0.957611 0.517148
0.218230 0.958680 0.636070
0.219310 0.959760 0.756280
0.220400 0.960850 0.877565
0.221305 0.961755 0.978301
0.250234 0.006508 0.006508
0.251051 0.007325 0.097499
0.252057 0.008330 0.209348
0.253091 0.009365 0.324515
0.254146 0.010420 0.441831
0.255214 0.011488 0.560754
0.256295 0.012569 0.680963
0.257385 0.013658 0.802248
0.258290 0.014564 0.902985
0.255332 0.068365 0.011606
0.256150 0.069183 0.102598
0.257155 0.070188 0.214446
0.258190 0.071223 0.329613
0.259244 0.072277 0.446930
0.260313 0.073346 0.565852
0.261393 0.074426 0.686061
0.262483 0.075516 0.807347
0.263388 0.076421 0.908083
0.265148 0.187461 0.021422
0.265966 0.188279 0.112414
0.266971 0.189284 0.224262
0.268006 0.190319 0.339429
0.269060 0.191373 0.456746
0.270129 0.192442 0.575668
0.271209 0.193522 0.695877
0.272299 0.194612 0.817163
0.273204 0.195517 0.917899
0.275324 0.310922 0.031598
0.276141 0.311740 0.122589
0.277147 0.312745 0.234438
0.278181 0.313780 0.349605
0.279236 0.314834 0.466921
0.280304 0.315903 0.585844
0.281385 0.316983 0.706053
0.282474 0.318073 0.827338
0.283380 0.318978 0.928075
0.285714 0.436985 0.041988
0.286532 0.437803 0.132980
0.287537 0.438808 0.244828
0.288572 0.439843 0.359995
0.289626 0.440897 0.477312
0.290694 0.441965 0.596234
0.291775 0.443046 0.716443
0.292865 0.444136 0.837728
0.293770 0.445041 0.938465
0.296259 0.564929 0.052533
0.297077 0.565747 0.143525
0.298082 0.566752 0.255373
0.299117 0.567787 0.370540
0.300171 0.568841 0.487857
0.301240 0.569910 0.606779
0.302320 0.570990 0.726988
0.303410 0.572080 0.848274
0.304315 0.572985 0.949010
0.306926 0.694354 0.063200
0.307744 0.695172 0.154192
0.308749 0.696177 0.266041
0.309784 0.697212 0.381207
0.310838 0.698266 0.498524
0.311907 0.699335 0.617447
0.312987 0.700415 0.737656
0.314077 0.701505 0.858941
0.314982 0.702410 0.959677
0.317695 0.825003 0.073968
0.318512 0.825821 0.164960
0.319517 0.826826 0.276809
0.320552 0.827861 0.391976
0.321606 0.828915 0.509292
0.322675 0.829984 0.628215
0.323755 0.831064 0.748424
0.324845 0.832154 0.869709
0.325751 0.833059 0.970446
0.328549 0.956698 0.084823
0.329367 0.957516 0.175814
0.330372 0.958521 0.287663
0.331407 0.959556 0.402830
0.332461 0.960610 0.520147
0.333529 0.961679 0.639069
0.334610 0.962759 0.759278
0.335700 0.963849 0.880563
0.336605 0.964754 0.981300
0.368327 0.009579 0.009579
0.369145 0.010397 0.100571
0.370150 0.011402 0.212419
0.371185 0.012437 0.327586
0.372239 0.013491 0.444903
0.373307 0.014560 0.563825
0.374388 0.015640 0.684034
0.375478 0.016730 0.805319
0.376383 0.017635 0.906056
0.373425 0.071436 0.014677
0.374243 0.072254 0.105669
0.375248 0.073259 0.217517
0.376283 0.074294 0.332684
0.377337 0.075348 0.450001
0.378406 0.076417 0.568923
0.379486 0.077497 0.689133
0.380576 0.078587 0.810418
0.381481 0.079492 0.911154
0.383241 0.190533 0.024493
0.384059 0.191350 0.115485
0.385064 0.192355 0.227333
0.386099 0.193390 0.342500
0.387153 0.194445 0.459817
0.388222 0.195513 0.578739
0.389302 0.196593 0.698949
0.390392 0.197683 0.820234
0.391297 0.198589 0.920970
0.393417 0.313993 0.034669
0.394235 0.314811 0.125661
0.395240 0.315816 0.237509
0.396275 0.316851 0.352676
0.397329 0.317905 0.469993
0.398397 0.318974 0.588915
0.399478 0.320054 0.709124
0.400568 0.321144 0.830409
0.401473 0.322049 0.931146
0.403807 0.440056 0.045059
0.404625 0.440874 0.136051
0.405630 0.441879 0.247899
0.406665 0.442914 0.363066
0.407719 0.443968 0.480383
0.408788 0.445037 0.599305
0.409868 0.446117 0.719514
0.410958 0.447207 0.840800
0.411863 0.448112 0.941536
0.414352 0.568000 0.055604
0.415170 0.568818 0.146596
0.416175 0.569823 0.258444
0.417210 0.570858 0.373611
0.418264 0.571912 0.490928
0.419333 0.572981 0.609850
0.420413 0.574061 0.730060
0.421503 0.575151 0.851345
0.422408 0.576056 0.952081
0.425019 0.697425 0.066271
0.425837 0.698243 0.157263
0.426842 0.699248 0.269112
0.427877 0.700283 0.384279
0.428931 0.701337 0.501595
0.430000 0.702406 0.620518
0.431080 0.703486 0.740727
0.432170 0.704576 0.862012
0.433075 0.705481 0.962749
0.435788 0.828075 0.077040
0.436605 0.828892 0.168031
0.437610 0.829897 0.279880
0.438645 0.830932 0.395047
0.439700 0.831987 0.512363
0.440768 0.833055 0.631286
0.441848 0.834135 0.751495
0.442938 0.835225 0.872780
0.443844 0.836131 0.973517
0.446642 0.959769 0.087894
0.447460 0.960587 0.178886
0.448465 0.961592 0.290734
0.449500 0.962627 0.405901
0.450554 0.963681 0.523218
0.451623 0.964750 0.642140
0.452703 0.965830 0.762349
0.453793 0.966920 0.883635
0.454698 0.967825 0.984371
0.488358 0.012701 0.012701
0.489176 0.013518 0.103692
0.490181 0.014523 0.215541
0.491216 0.015558 0.330708
0.492270 0.016612 0.448024
0.493339 0.017681 0.566947
0.494419 0.018761 0.687156
0.495509 0.019851 0.808441
0.496414 0.020757 0.909178
0.493456 0.074558 0.017799
0.494274 0.075376 0.108791
0.495279 0.076381 0.220639
0.496314 0.077416 0.335806
0.497368 0.078470 0.453123
0.498437 0.079539 0.572045
0.499517 0.080619 0.692254
0.500607 0.081709 0.813539
0.501512 0.082614 0.914276
0.503272 0.193654 0.027615
0.504090 0.194472 0.118606
0.505095 0.195477 0.230455
0.506130 0.196512 0.345622
0.507184 0.197566 0.462939
0.508253 0.198635 0.581861
0.509333 0.199715 0.702070
0.510423 0.200805 0.823355
0.511328 0.201710 0.924092
0.513448 0.317115 0.037790
0.514266 0.317932 0.128782
0.515271 0.318938 0.240631
0.516306 0.319973 0.355798
0.517360 0.321027 0.473114
0.518429 0.322095 0.592037
0.519509 0.323176 0.712246
0.520599 0.324266 0.833531
0.521504 0.325171 0.934268
0.523838 0.443178 0.048181
0.524656 0.443995 0.139172
0.525661 0.445000 0.251021
0.526696 0.446035 0.366188
0.527750 0.447090 0.483504
0.528819 0.448158 0.602427
0.529899 0.449238 0.722636
0.530989 0.450328 0.843921
0.531894 0.451234 0.944658
0.534383 0.571122 0.058726
0.535201 0.571939 0.149718
0.536206 0.572945 0.261566
0.537241 0.573980 0.376733
0.538295 0.575034 0.494050
0.539364 0.576102 0.612972
0.540444 0.577183 0.733181
0.541534 0.578273 0.854466
0.542439 0.579178 0.955203
0.545051 0.700547 0.069393
0.545868 0.701365 0.160385
0.546873 0.702370 0.272233
0.547908 0.703405 0.387400
0.548962 0.704459 0.504717
0.550031 0.705528 0.623639
0.551111 0.706608 0.743848
0.552201 0.707698 0.865134
0.553107 0.708603 0.965870
0.555819 0.831196 0.080161
0.556636 0.832014 0.171153
0.557641 0.833019 0.283002
0.558676 0.834054 0.398168
0.559731 0.835108 0.515485
0.560799 0.836177 0.634407
0.561880 0.837257 0.754617
0.562969 0.838347 0.875902
0.563875 0.839252 0.976638
0.566673 0.962891 0.091016
0.567491 0.963709 0.182007
0.568496 0.964714 0.293856
0.569531 0.965749 0.409023
0.570585 0.966803 0.526339
0.571654 0.967871 0.645262
0.572734 0.968952 0.765471
0.573824 0.970042 0.886756
0.574729 0.970947 0.987493
0.609883 0.015861 0.015861
0.610700 0.016679 0.106853
0.611705 0.017684 0.218701
0.612740 0.018719 0.333868
0.613795 0.019773 0.451185
0.614863 0.020842 0.570107
0.615943 0.021922 0.690316
0.617033 0.023012 0.811601
0.617939 0.023917 0.912338
0.614981 0.077718 0.020959
0.615799 0.078536 0.111951
0.616804 0.079541 0.223800
0.617839 0.080576 0.338966
0.618893 0.081630 0.456283
0.619962 0.082699 0.575205
0.621042 0.083779 0.695415
0.622132 0.084869 0.816700
0.623037 0.085774 0.917436
0.624797 0.196815 0.030775
0.625615 0.197632 0.121767
0.626620 0.198637 0.233615
0.627655 0.199672 0.348782
0.628709 0.200727 0.466099
0.629777 0.201795 0.585021
0.630858 0.202876 0.705231
0.631948 0.203965 0.826516
0.632853 0.204871 0.927252
0.634973 0.320275 0.040951
0.635790 0.321093 0.131943
0.636795 0.322098 0.243791
0.637830 0.323133 0.358958
0.638884 0.324187 0.476275
0.639953 0.325256 0.595197
0.641033 0.326336 0.715406
0.642123 0.327426 0.836691
0.643029 0.328331 0.937428
0.645363 0.446338 0.051341
0.646180 0.447156 0.142333
0.647185 0.448161 0.254181
0.648220 0.449196 0.369348
0.649275 0.450250 0.486665
0.650343 0.451319 0.605587
0.651424 0.452399 0.725796
0.652513 0.453489 0.847082
0.653419 0.454394 0.947818
0.655908 0.574282 0.061886
0.656726 0.575100 0.152878
0.657731 0.576105 0.264727
0.658766 0.577140 0.379893
0.659820 0.578194 0.497210
0.660888 0.579263 0.616132
0.661969 0.580343 0.736342
0.663059 0.581433 0.857627
0.663964 0.582338 0.958363
0.666575 0.703707 0.072554
0.667393 0.704525 0.163545
0.668398 0.705530 0.275394
0.669433 0.706565 0.390561
0.670487 0.707619 0.507877
0.671556 0.708688 0.626800
0.672636 0.709768 0.747009
0.673726 0.710858 0.868294
0.674631 0.711763 0.969031
0.677343 0.834357 0.083322
0.678161 0.835174 0.174313
0.679166 0.836179 0.286162
0.680201 0.837214 0.401329
0.681255 0.838269 0.518645
0.682324 0.839337 0.637568
0.683404 0.840418 0.757777
0.684494 0.841507 0.879062
0.685399 0.842413 0.979799
0.688198 0.966051 0.094176
0.689015 0.966869 0.185168
0.690020 0.967874 0.297016
0.691055 0.968909 0.412183
0.692110 0.969963 0.529500
0.693178 0.971032 0.648422
0.694258 0.972112 0.768631
0.695348 0.973202 0.889917
0.696254 0.974107 0.990653
0.732626 0.019053 0.019053
0.733444 0.019871 0.110045
0.734449 0.020876 0.221893
0.735484 0.021911 0.337060
0.736538 0.022965 0.454377
0.737607 0.024034 0.573299
0.738687 0.025114 0.693508
0.739777 0.026204 0.814794
0.740682 0.027109 0.915530
0.737724 0.080911 0.024151
0.738542 0.081728 0.115143
0.739547 0.082733 0.226992
0.740582 0.083768 0.342158
0.741636 0.084822 0.459475
0.742705 0.085891 0.578398
0.743785 0.086971 0.698607
0.744875 0.088061 0.819892
0.745780 0.088967 0.920628
0.747540 0.200007 0.033967
0.748358 0.200824 0.124959
0.749363 0.201830 0.236808
0.750398 0.202865 0.351974
0.751452 0.203919 0.469291
0.752521 0.204987 0.588214
0.753601 0.206068 0.708423
0.754691 0.207158 0.829708
0.755596 0.208063 0.930444
0.757716 0.323467 0.044143
0.758534 0.324285 0.135135
0.759539 0.325290 0.246983
0.760574 0.326325 0.362150
0.761628 0.327379 0.479467
0.762697 0.328448 0.598389
0.763777 0.329528 0.718598
0.764867 0.330618 0.839884
0.765772 0.331523 0.940620
0.768106 0.449530 0.054533
0.768924 0.450348 0.145525
0.769929 0.451353 0.257373
0.770964 0.452388 0.372540
0.772018 0.453442 0.489857
0.773087 0.454511 0.608779
0.774167 0.455591 0.728989
0.775257 0.456681 0.850274
0.776162 0.457586 0.951010
0.778651 0.577474 0.065078
0.779469 0.578292 0.156070
0.780474 0.579297 0.267919
0.781509 0.580332 0.383085
0.782563 0.581386 0.500402
0.783632 0.582455 0.619325
0.784712 0.583535 0.739534
0.785802 0.584625 0.860819
0.786707 0.585530 0.961555
0.789319 0.706899 0.075746
0.790136 0.707717 0.166737
0.791141 0.708722 0.278586
0.792176 0.709757 0.393753
0.793231 0.710811 0.511069
0.794299 0.711880 0.629992
0.795380 0.712960 0.750201
0.796469 0.714050 0.871486
0.797375 0.714955 0.972223
0.800087 0.837549 0.086514
0.800905 0.838366 0.177506
0.801910 0.839372 0.289354
0.802945 0.840407 0.404521
0.803999 0.841461 0.521838
0.805067 0.842529 0.640760
0.806148 0.843610 0.760969
0.807238 0.844700 0.882254
0.808143 0.845605 0.982991
0.810941 0.969243 0.097368
0.811759 0.970061 0.188360
0.812764 0.971066 0.300208
0.813799 0.972101 0.415375
0.814853 0.973155 0.532692
0.815922 0.974224 0.651614
0.817002 0.975304 0.771824
0.818092 0.976394 0.893109
0.818997 0.977299 0.993845
0.856401 0.022272 0.022272
0.857219 0.023090 0.113264
0.858224 0.024095 0.225112
0.859259 0.025130 0.340279
0.860313 0.026184 0.457596
0.861382 0.027253 0.576518
0.862462 0.028333 0.696727
0.863552 0.029423 0.818013
0.864457 0.030328 0.918749
0.861499 0.084130 0.027370
0.862317 0.084947 0.118362
0.863322 0.085952 0.230211
0.864357 0.086987 0.345377
0.865411 0.088041 0.462694
0.866480 0.089110 0.581617
0.867560 0.090190 0.701826
0.868650 0.091280 0.823111
0.869555 0.092186 0.923847
0.871315 0.203226 0.037186
0.872133 0.204043 0.128178
0.873138 0.205049 0.240027
0.874173 0.206083 0.355193
0.875227 0.207138 0.472510
0.876296 0.208206 0.591433
0.877376 0.209287 0.711642
0.878466 0.210377 0.832927
0.879371 0.211282 0.933663
0.881491 0.326686 0.047362
0.882309 0.327504 0.138354
0.883314 0.328509 0.250202
0.884349 0.329544 0.365369
0.885403 0.330598 0.482686
0.886472 0.331667 0.601608
0.887552 0.332747 0.721817
0.888642 0.333837 0.843103
0.889547 0.334742 0.943839
0.891881 0.452749 0.057752
0.892699 0.453567 0.148744
0.893704 0.454572 0.260592
0.894739 0.455607 0.375759
0.895793 0.456661 0.493076
0.896862 0.457730 0.611998
0.897942 0.458810 0.732208
0.899032 0.459900 0.853493
0.899937 0.460805 0.954229
0.902426 0.580693 0.068297
0.903244 0.581511 0.159289
0.904249 0.582516 0.271138
0.905284 0.583551 0.386304
0.906338 0.584605 0.503621
0.907407 0.585674 0.622544
0.908487 0.586754 0.742753
0.909577 0.587844 0.864038
0.910482 0.588749 0.964774
0.913094 0.710118 0.078965
0.913911 0.710936 0.169956
0.914916 0.711941 0.281805
0.915951 0.712976 0.396972
0.917006 0.714030 0.514288
0.918074 0.715099 0.633211
0.919155 0.716179 0.753420
0.920244 0.717269 0.874705
0.921150 0.718174 0.975442
0.923862 0.840768 0.089733
0.924680 0.841585 0.180724
0.925685 0.842591 0.292573
0.926720 0.843625 0.407740
0.927774 0.844680 0.525057
0.928842 0.845748 0.643979
0.929923 0.846829 0.764188
0.931013 0.847919 0.885473
0.931918 0.848824 0.986210
0.934716 0.972462 0.100587
0.935534 0.973280 0.191579
0.936539 0.974285 0.303427
0.937574 0.975320 0.418594
0.938628 0.976374 0.535911
0.939697 0.977443 0.654833
0.940777 0.978523 0.775043
0.941867 0.979613 0.896328
0.942772 0.980518 0.997064
