skills/editops-orchestrator/assets/grade/luts/night_blue_v04.cube
TITLE "night_blue_v04"
LUT_3D_SIZE 17
DOMAIN_MIN 0.0 0.0 0.0
DOMAIN_MAX 1.0 1.0 1.0
0.000000 0.000000 0.000000
0.000314 0.000314 0.041317
0.000732 0.000732 0.096375
0.001160 0.001160 0.152779
0.001594 0.001594 0.210037
0.002034 0.002034 0.267924
0.002477 0.002477 0.326313
0.002923 0.002923 0.385118
0.003372 0.003372 0.444281
0.003824 0.003824 0.503758
0.004277 0.004277 0.563513
0.004733 0.004733 0.623519
0.005190 0.005190 0.683755
0.005649 0.005649 0.744201
0.006109 0.006109 0.804841
0.006571 0.006571 0.865662
0.006916 0.006916 0.911127
0.001221 0.017335 0.001221
0.001535 0.017648 0.042538
0.001952 0.018066 0.097595
0.002381 0.018495 0.154000
0.002815 0.018929 0.211258
0.003255 0.019369 0.269145
0.003698 0.019812 0.327534
0.004144 0.020258 0.386339
0.004593 0.020707 0.445502
0.005045 0.021159 0.504979
0.005498 0.021612 0.564734
0.005954 0.022068 0.624740
0.006411 0.022525 0.684976
0.006870 0.022984 0.745421
0.007330 0.023444 0.806062
0.007792 0.023906 0.866883
0.008137 0.024251 0.912347
0.005278 0.074934 0.005278
0.005591 0.075248 0.046595
0.006009 0.075666 0.101652
0.006437 0.076094 0.158057
0.006872 0.076529 0.215314
0.007311 0.076968 0.273202
0.007755 0.077411 0.331590
0.008201 0.077858 0.390396
0.008650 0.078307 0.449559
0.009101 0.078758 0.509035
0.009555 0.079212 0.568790
0.010011 0.079667 0.628797
0.010468 0.080124 0.689033
0.010927 0.080583 0.749478
0.011387 0.081043 0.810118
0.011849 0.081505 0.870939
0.012194 0.081850 0.916404
0.009478 0.134575 0.009478
0.009792 0.134889 0.050795
0.010210 0.135307 0.105853
0.010638 0.135735 0.162257
0.011072 0.136169 0.219515
0.011512 0.136609 0.277402
0.011955 0.137052 0.335791
0.012401 0.137498 0.394596
0.012850 0.137948 0.453759
0.013302 0.138399 0.513236
0.013756 0.138853 0.572991
0.014211 0.139308 0.632998
0.014668 0.139765 0.693233
0.015127 0.140224 0.753679
0.015587 0.140684 0.814319
0.016049 0.141146 0.875140
0.016394 0.141491 0.920605
0.013756 0.195314 0.013756
0.014070 0.195627 0.055073
0.014487 0.196045 0.110130
0.014916 0.196473 0.166535
0.015350 0.196908 0.223793
0.015790 0.197347 0.281680
0.016233 0.197791 0.340069
0.016679 0.198237 0.398874
0.017128 0.198686 0.458037
0.017580 0.199138 0.517514
0.018033 0.199591 0.577269
0.018489 0.200047 0.637275
0.018946 0.200504 0.697511
0.019405 0.200963 0.757957
0.019865 0.201423 0.818597
0.020327 0.201885 0.879418
0.020672 0.202230 0.924882
0.018088 0.256818 0.018088
0.018401 0.257132 0.059405
0.018819 0.257550 0.114462
0.019247 0.257978 0.170867
0.019682 0.258413 0.228125
0.020121 0.258852 0.286012
0.020565 0.259295 0.344400
0.021011 0.259742 0.403206
0.021460 0.260191 0.462369
0.021912 0.260642 0.521845
0.022365 0.261096 0.581601
0.022821 0.261551 0.641607
0.023278 0.262009 0.701843
0.023737 0.262467 0.762288
0.024197 0.262928 0.822928
0.024659 0.263389 0.883749
0.025004 0.263734 0.929214
0.022461 0.318915 0.022461
0.022775 0.319229 0.063779
0.023193 0.319647 0.118836
0.023621 0.320075 0.175241
0.024056 0.320509 0.232498
0.024495 0.320949 0.290385
0.024938 0.321392 0.348774
0.025384 0.321838 0.407579
0.025834 0.322288 0.466743
0.026285 0.322739 0.526219
0.026739 0.323193 0.585974
0.027194 0.323648 0.645981
0.027651 0.324105 0.706216
0.028110 0.324564 0.766662
0.028570 0.325024 0.827302
0.029032 0.325486 0.888123
0.029377 0.325831 0.933588
0.026869 0.381495 0.026869
0.027182 0.381809 0.068186
0.027600 0.382227 0.123243
0.028028 0.382655 0.179648
0.028463 0.383090 0.236905
0.028902 0.383529 0.294793
0.029346 0.383972 0.353181
0.029792 0.384419 0.411987
0.030241 0.384868 0.471150
0.030693 0.385319 0.530626
0.031146 0.385773 0.590382
0.031602 0.386228 0.650388
0.032059 0.386685 0.710624
0.032518 0.387144 0.771069
0.032978 0.387604 0.831709
0.033440 0.388066 0.892530
0.033785 0.388411 0.937995
0.031305 0.444485 0.031305
0.031619 0.444798 0.072622
0.032037 0.445216 0.127680
0.032465 0.445644 0.184084
0.032899 0.446079 0.241342
0.033339 0.446518 0.299229
0.033782 0.446961 0.357618
0.034228 0.447408 0.416423
0.034677 0.447857 0.475586
0.035129 0.448308 0.535063
0.035582 0.448762 0.594818
0.036038 0.449217 0.654824
0.036495 0.449675 0.715060
0.036954 0.450134 0.775506
0.037414 0.450594 0.836146
0.037876 0.451055 0.896967
0.038221 0.451401 0.942432
0.035766 0.507829 0.035766
0.036080 0.508143 0.077084
0.036498 0.508561 0.132141
0.036926 0.508989 0.188546
0.037361 0.509423 0.245803
0.037800 0.509863 0.303690
0.038243 0.510306 0.362079
0.038690 0.510752 0.420885
0.039139 0.511201 0.480048
0.039590 0.511653 0.539524
0.040044 0.512106 0.599279
0.040499 0.512562 0.659286
0.040957 0.513019 0.719521
0.041415 0.513478 0.779967
0.041876 0.513938 0.840607
0.042337 0.514400 0.901428
0.042682 0.514745 0.946893
0.040250 0.571487 0.040250
0.040563 0.571801 0.081567
0.040981 0.572219 0.136624
0.041410 0.572647 0.193029
0.041844 0.573082 0.250287
0.042284 0.573521 0.308174
0.042727 0.573964 0.366562
0.043173 0.574411 0.425368
0.043622 0.574860 0.484531
0.044074 0.575311 0.544008
0.044527 0.575765 0.603763
0.044983 0.576220 0.663769
0.045440 0.576677 0.724005
0.045899 0.577136 0.784450
0.046359 0.577597 0.845091
0.046821 0.578058 0.905912
0.047166 0.578403 0.951376
0.044753 0.635427 0.044753
0.045067 0.635741 0.086070
0.045485 0.636159 0.141128
0.045913 0.636587 0.197532
0.046347 0.637021 0.254790
0.046787 0.637461 0.312677
0.047230 0.637904 0.371066
0.047676 0.638350 0.429871
0.048126 0.638799 0.489034
0.048577 0.639251 0.548511
0.049031 0.639704 0.608266
0.049486 0.640160 0.668273
0.049943 0.640617 0.728508
0.050402 0.641076 0.788954
0.050862 0.641536 0.849594
0.051324 0.641998 0.910415
0.051669 0.642343 0.955880
0.049274 0.699622 0.049274
0.049588 0.699936 0.090592
0.050006 0.700353 0.145649
0.050434 0.700782 0.202054
0.050869 0.701216 0.259311
0.051308 0.701656 0.317198
0.051751 0.702099 0.375587
0.052198 0.702545 0.434393
0.052647 0.702994 0.493556
0.053098 0.703446 0.553032
0.053552 0.703899 0.612787
0.054007 0.704355 0.672794
0.054465 0.704812 0.733029
0.054923 0.705271 0.793475
0.055384 0.705731 0.854115
0.055845 0.706193 0.914936
0.056190 0.706538 0.960401
0.053812 0.764050 0.053812
0.054126 0.764364 0.095129
0.054544 0.764782 0.150187
0.054972 0.765210 0.206591
0.055406 0.765645 0.263849
0.055846 0.766084 0.321736
0.056289 0.766527 0.380125
0.056735 0.766974 0.438930
0.057184 0.767423 0.498093
0.057636 0.767874 0.557570
0.058089 0.768328 0.617325
0.058545 0.768783 0.677331
0.059002 0.769240 0.737567
0.059461 0.769699 0.798013
0.059921 0.770159 0.858653
0.060383 0.770621 0.919474
0.060728 0.770966 0.964939
0.058365 0.828694 0.058365
0.058679 0.829007 0.099682
0.059096 0.829425 0.154739
0.059525 0.829853 0.211144
0.059959 0.830288 0.268402
0.060399 0.830727 0.326289
0.060842 0.831171 0.384678
0.061288 0.831617 0.443483
0.061737 0.832066 0.502646
0.062189 0.832518 0.562123
0.062642 0.832971 0.621878
0.063098 0.833427 0.681884
0.063555 0.833884 0.742120
0.064014 0.834343 0.802566
0.064474 0.834803 0.863206
0.064936 0.835265 0.924027
0.065281 0.835610 0.969491
0.062932 0.893537 0.062932
0.063245 0.893851 0.104249
0.063663 0.894268 0.159306
0.064092 0.894697 0.215711
0.064526 0.895131 0.272969
0.064966 0.895571 0.330856
0.065409 0.896014 0.389244
0.065855 0.896460 0.448050
0.066304 0.896909 0.507213
0.066756 0.897361 0.566690
0.067209 0.897814 0.626445
0.067665 0.898270 0.686451
0.068122 0.898727 0.746687
0.068581 0.899186 0.807132
0.069041 0.899646 0.867773
0.069503 0.900108 0.928594
0.069848 0.900453 0.974058
0.067512 0.958566 0.067512
0.067825 0.958880 0.108829
0.068243 0.959298 0.163886
0.068672 0.959726 0.220291
0.069106 0.960161 0.277549
0.069546 0.960600 0.335436
0.069989 0.961043 0.393824
0.070435 0.961490 0.452630
0.070884 0.961939 0.511793
0.071336 0.962390 0.571270
0.071789 0.962844 0.631025
0.072245 0.963299 0.691031
0.072702 0.963756 0.751267
0.073161 0.964215 0.811712
0.073621 0.964676 0.872353
0.074083 0.965137 0.933174
0.074428 0.965482 0.978638
0.000000 0.000000 0.000000
0.000314 0.000314 0.041317
0.000732 0.000732 0.096375
0.001160 0.001160 0.152779
0.001594 0.001594 0.210037
0.002034 0.002034 0.267924
0.002477 0.002477 0.326313
0.002923 0.002923 0.385118
0.003372 0.003372 0.444281
0.003824 0.003824 0.503758
0.004277 0.004277 0.563513
0.004733 0.004733 0.623519
0.005190 0.005190 0.683755
0.005649 0.005649 0.744201
0.006109 0.006109 0.804841
0.006571 0.006571 0.865662
0.006916 0.006916 0.911127
0.001221 0.017335 0.001221
0.001535 0.017648 0.042538
0.001952 0.018066 0.097595
0.002381 0.018495 0.154000
0.002815 0.018929 0.211258
0.003255 0.019369 0.269145
0.003698 0.019812 0.327534
0.004144 0.020258 0.386339
0.004593 0.020707 0.445502
0.005045 0.021159 0.504979
0.005498 0.021612 0.564734
0.005954 0.022068 0.624740
0.006411 0.022525 0.684976
0.006870 0.022984 0.745421
0.007330 0.023444 0.806062
0.007792 0.023906 0.866883
0.008137 0.024251 0.912347
0.005278 0.074934 0.005278
0.005591 0.075248 0.046595
0.006009 0.075666 0.101652
0.006437 0.076094 0.158057
0.006872 0.076529 0.215314
0.007311 0.076968 0.273202
0.007755 0.077411 0.331590
0.008201 0.077858 0.390396
0.008650 0.078307 0.449559
0.009101 0.078758 0.509035
0.009555 0.079212 0.568790
0.010011 0.079667 0.628797
0.010468 0.080124 0.689033
0.010927 0.080583 0.749478
0.011387 0.081043 0.810118
0.011849 0.081505 0.870939
0.012194 0.081850 0.916404
0.009478 0.134575 0.009478
0.009792 0.134889 0.050795
0.010210 0.135307 0.105853
0.010638 0.135735 0.162257
0.011072 0.136169 0.219515
0.011512 0.136609 0.277402
0.011955 0.137052 0.335791
0.012401 0.137498 0.394596
0.012850 0.137948 0.453759
0.013302 0.138399 0.513236
0.013756 0.138853 0.572991
0.014211 0.139308 0.632998
0.014668 0.139765 0.693233
0.015127 0.140224 0.753679
0.015587 0.140684 0.814319
0.016049 0.141146 0.875140
0.016394 0.141491 0.920605
0.013756 0.195314 0.013756
0.014070 0.195627 0.055073
0.014487 0.196045 0.110130
0.014916 0.196473 0.166535
0.015350 0.196908 0.223793
0.015790 0.197347 0.281680
0.016233 0.197791 0.340069
0.016679 0.198237 0.398874
0.017128 0.198686 0.458037
0.017580 0.199138 0.517514
0.018033 0.199591 0.577269
0.018489 0.200047 0.637275
0.018946 0.200504 0.697511
0.019405 0.200963 0.757957
0.019865 0.201423 0.818597
0.020327 0.201885 0.879418
0.020672 0.202230 0.924882
0.018088 0.256818 0.018088
0.018401 0.257132 0.059405
0.018819 0.257550 0.114462
0.019247 0.257978 0.170867
0.019682 0.258413 0.228125
0.020121 0.258852 0.286012
0.020565 0.259295 0.344400
0.021011 0.259742 0.403206
0.021460 0.260191 0.462369
0.021912 0.260642 0.521845
0.022365 0.261096 0.581601
0.022821 0.261551 0.641607
0.023278 0.262009 0.701843
0.023737 0.262467 0.762288
0.024197 0.262928 0.822928
0.024659 0.263389 0.883749
0.025004 0.263734 0.929214
0.022461 0.318915 0.022461
0.022775 0.319229 0.063779
0.023193 0.319647 0.118836
0.023621 0.320075 0.175241
0.024056 0.320509 0.232498
0.024495 0.320949 0.290385
0.024938 0.321392 0.348774
0.025384 0.321838 0.407579
0.025834 0.322288 0.466743
0.026285 0.322739 0.526219
0.026739 0.323193 0.585974
0.027194 0.323648 0.645981
0.027651 0.324105 0.706216
0.028110 0.324564 0.766662
0.028570 0.325024 0.827302
0.029032 0.325486 0.888123
0.029377 0.325831 0.933588
0.026869 0.381495 0.026869
0.027182 0.381809 0.068186
0.027600 0.382227 0.123243
0.028028 0.382655 0.179648
0.028463 0.383090 0.236905
0.028902 0.383529 0.294793
0.029346 0.383972 0.353181
0.029792 0.384419 0.411987
0.030241 0.384868 0.471150
0.030693 0.385319 0.530626
0.031146 0.385773 0.590382
0.031602 0.386228 0.650388
0.032059 0.386685 0.710624
0.032518 0.387144 0.771069
0.032978 0.387604 0.831709
0.033440 0.388066 0.892530
0.033785 0.388411 0.937995
0.031305 0.444485 0.031305
0.031619 0.444798 0.072622
0.032037 0.445216 0.127680
0.032465 0.445644 0.184084
0.032899 0.446079 0.241342
0.033339 0.446518 0.299229
0.033782 0.446961 0.357618
0.034228 0.447408 0.416423
0.034677 0.447857 0.475586
0.035129 0.448308 0.535063
0.035582 0.448762 0.594818
0.036038 0.449217 0.654824
0.036495 0.449675 0.715060
0.036954 0.450134 0.775506
0.037414 0.450594 0.836146
0.037876 0.451055 0.896967
0.038221 0.451401 0.942432
0.035766 0.507829 0.035766
0.036080 0.508143 0.077084
0.036498 0.508561 0.132141
0.036926 0.508989 0.188546
0.037361 0.509423 0.245803
0.037800 0.509863 0.303690
0.038243 0.510306 0.362079
0.038690 0.510752 0.420885
0.039139 0.511201 0.480048
0.039590 0.511653 0.539524
0.040044 0.512106 0.599279
0.040499 0.512562 0.659286
0.040957 0.513019 0.719521
0.041415 0.513478 0.779967
0.041876 0.513938 0.840607
0.042337 0.514400 0.901428
0.042682 0.514745 0.946893
0.040250 0.571487 0.040250
0.040563 0.571801 0.081567
0.040981 0.572219 0.136624
0.041410 0.572647 0.193029
0.041844 0.573082 0.250287
0.042284 0.573521 0.308174
0.042727 0.573964 0.366562
0.043173 0.574411 0.425368
0.043622 0.574860 0.484531
0.044074 0.575311 0.544008
0.044527 0.575765 0.603763
0.044983 0.576220 0.663769
0.045440 0.576677 0.724005
0.045899 0.577136 0.784450
0.046359 0.577597 0.845091
0.046821 0.578058 0.905912
0.047166 0.578403 0.951376
0.044753 0.635427 0.044753
0.045067 0.635741 0.086070
0.045485 0.636159 0.141128
0.045913 0.636587 0.197532
0.046347 0.637021 0.254790
0.046787 0.637461 0.312677
0.047230 0.637904 0.371066
0.047676 0.638350 0.429871
0.048126 0.638799 0.489034
0.048577 0.639251 0.548511
0.049031 0.639704 0.608266
0.049486 0.640160 0.668273
0.049943 0.640617 0.728508
0.050402 0.641076 0.788954
0.050862 0.641536 0.849594
0.051324 0.641998 0.910415
0.051669 0.642343 0.955880
0.049274 0.699622 0.049274
0.049588 0.699936 0.090592
0.050006 0.700353 0.145649
0.050434 0.700782 0.202054
0.050869 0.701216 0.259311
0.051308 0.701656 0.317198
0.051751 0.702099 0.375587
0.052198 0.702545 0.434393
0.052647 0.702994 0.493556
0.053098 0.703446 0.553032
0.053552 0.703899 0.612787
0.054007 0.704355 0.672794
0.054465 0.704812 0.733029
0.054923 0.705271 0.793475
0.055384 0.705731 0.854115
0.055845 0.706193 0.914936
0.056190 0.706538 0.960401
0.053812 0.764050 0.053812
0.054126 0.764364 0.095129
0.054544 0.764782 0.150187
0.054972 0.765210 0.206591
0.055406 0.765645 0.263849
0.055846 0.766084 0.321736
0.056289 0.766527 0.380125
0.056735 0.766974 0.438930
0.057184 0.767423 0.498093
0.057636 0.767874 0.557570
0.058089 0.768328 0.617325
0.058545 0.768783 0.677331
0.059002 0.769240 0.737567
0.059461 0.769699 0.798013
0.059921 0.770159 0.858653
0.060383 0.770621 0.919474
0.060728 0.770966 0.964939
0.058365 0.828694 0.058365
0.058679 0.829007 0.099682
0.059096 0.829425 0.154739
0.059525 0.829853 0.211144
0.059959 0.830288 0.268402
0.060399 0.830727 0.326289
0.060842 0.831171 0.384678
0.061288 0.831617 0.443483
0.061737 0.832066 0.502646
0.062189 0.832518 0.562123
0.062642 0.832971 0.621878
0.063098 0.833427 0.681884
0.063555 0.833884 0.742120
0.064014 0.834343 0.802566
0.064474 0.834803 0.863206
0.064936 0.835265 0.924027
0.065281 0.835610 0.969491
0.062932 0.893537 0.062932
0.063245 0.893851 0.104249
0.063663 0.894268 0.159306
0.064092 0.894697 0.215711
0.064526 0.895131 0.272969
0.064966 0.895571 0.330856
0.065409 0.896014 0.389244
0.065855 0.896460 0.448050
0.066304 0.896909 0.507213
0.066756 0.897361 0.566690
0.067209 0.897814 0.626445
0.067665 0.898270 0.686451
0.068122 0.898727 0.746687
0.068581 0.899186 0.807132
0.069041 0.899646 0.867773
0.069503 0.900108 0.928594
0.069848 0.900453 0.974058
0.067512 0.958566 0.067512
0.067825 0.958880 0.108829
0.068243 0.959298 0.163886
0.068672 0.959726 0.220291
0.069106 0.960161 0.277549
0.069546 0.960600 0.335436
0.069989 0.961043 0.393824
0.070435 0.961490 0.452630
0.070884 0.961939 0.511793
0.071336 0.962390 0.571270
0.071789 0.962844 0.631025
0.072245 0.963299 0.691031
0.072702 0.963756 0.751267
0.073161 0.964215 0.811712
0.073621 0.964676 0.872353
0.074083 0.965137 0.933174
0.074428 0.965482 0.978638
0.045048 0.000992 0.000992
0.045361 0.001306 0.042310
0.045779 0.001724 0.097367
0.046207 0.002152 0.153772
0.046642 0.002587 0.211029
0.047081 0.003026 0.268916
0.047525 0.003469 0.327305
0.047971 0.003916 0.386110
0.048420 0.004365 0.445274
0.048872 0.004816 0.504750
0.049325 0.005270 0.564505
0.049781 0.005725 0.624512
0.050238 0.006182 0.684747
0.050697 0.006641 0.745193
0.051157 0.007101 0.805833
0.051619 0.007563 0.866654
0.051964 0.007908 0.912119
0.046269 0.018327 0.002213
0.046582 0.018641 0.043530
0.047000 0.019059 0.098588
0.047428 0.019487 0.154992
0.047863 0.019921 0.212250
0.048302 0.020361 0.270137
0.048746 0.020804 0.328526
0.049192 0.021250 0.387331
0.049641 0.021699 0.446494
0.050092 0.022151 0.505971
0.050546 0.022604 0.565726
0.051001 0.023060 0.625733
0.051459 0.023517 0.685968
0.051918 0.023976 0.746414
0.052378 0.024436 0.807054
0.052839 0.024898 0.867875
0.053185 0.025243 0.913340
0.050325 0.075926 0.006270
0.050639 0.076240 0.047587
0.051057 0.076658 0.102644
0.051485 0.077086 0.159049
0.051920 0.077521 0.216307
0.052359 0.077960 0.274194
0.052802 0.078403 0.332582
0.053249 0.078850 0.391388
0.053698 0.079299 0.450551
0.054149 0.079750 0.510028
0.054603 0.080204 0.569783
0.055058 0.080659 0.629789
0.055515 0.081117 0.690025
0.055974 0.081575 0.750470
0.056435 0.082036 0.811111
0.056896 0.082497 0.871932
0.057241 0.082842 0.917396
0.054526 0.135567 0.010470
0.054839 0.135881 0.051788
0.055257 0.136299 0.106845
0.055686 0.136727 0.163250
0.056120 0.137162 0.220507
0.056560 0.137601 0.278394
0.057003 0.138044 0.336783
0.057449 0.138491 0.395589
0.057898 0.138940 0.454752
0.058350 0.139391 0.514228
0.058803 0.139845 0.573983
0.059259 0.140300 0.633990
0.059716 0.140758 0.694225
0.060175 0.141216 0.754671
0.060635 0.141677 0.815311
0.061097 0.142138 0.876132
0.061442 0.142483 0.921597
0.058804 0.196306 0.014748
0.059117 0.196620 0.056066
0.059535 0.197037 0.111123
0.059963 0.197466 0.167527
0.060398 0.197900 0.224785
0.060837 0.198340 0.282672
0.061281 0.198783 0.341061
0.061727 0.199229 0.399866
0.062176 0.199678 0.459030
0.062627 0.200130 0.518506
0.063081 0.200583 0.578261
0.063537 0.201039 0.638268
0.063994 0.201496 0.698503
0.064453 0.201955 0.758949
0.064913 0.202415 0.819589
0.065375 0.202877 0.880410
0.065720 0.203222 0.925875
0.063135 0.257811 0.019080
0.063449 0.258124 0.060397
0.063867 0.258542 0.115454
0.064295 0.258970 0.171859
0.064730 0.259405 0.229117
0.065169 0.259844 0.287004
0.065612 0.260288 0.345393
0.066059 0.260734 0.404198
0.066508 0.261183 0.463361
0.066959 0.261635 0.522838
0.067413 0.262088 0.582593
0.067868 0.262544 0.642599
0.068326 0.263001 0.702835
0.068784 0.263460 0.763281
0.069245 0.263920 0.823921
0.069706 0.264382 0.884742
0.070051 0.264727 0.930206
0.067509 0.319907 0.023453
0.067823 0.320221 0.064771
0.068240 0.320639 0.119828
0.068669 0.321067 0.176233
0.069103 0.321502 0.233490
0.069543 0.321941 0.291378
0.069986 0.322384 0.349766
0.070432 0.322831 0.408572
0.070881 0.323280 0.467735
0.071333 0.323731 0.527211
0.071786 0.324185 0.586966
0.072242 0.324640 0.646973
0.072699 0.325097 0.707208
0.073158 0.325556 0.767654
0.073618 0.326017 0.828294
0.074080 0.326478 0.889115
0.074425 0.326823 0.934580
0.071916 0.382487 0.027861
0.072230 0.382801 0.069178
0.072648 0.383219 0.124235
0.073076 0.383647 0.180640
0.073511 0.384082 0.237898
0.073950 0.384521 0.295785
0.074393 0.384964 0.354174
0.074840 0.385411 0.412979
0.075289 0.385860 0.472142
0.075740 0.386311 0.531619
0.076194 0.386765 0.591374
0.076649 0.387220 0.651380
0.077107 0.387678 0.711616
0.077565 0.388136 0.772062
0.078026 0.388597 0.832702
0.078487 0.389058 0.893523
0.078832 0.389403 0.938987
0.076353 0.445477 0.032297
0.076666 0.445790 0.073615
0.077084 0.446208 0.128672
0.077512 0.446636 0.185077
0.077947 0.447071 0.242334
0.078386 0.447511 0.300221
0.078830 0.447954 0.358610
0.079276 0.448400 0.417415
0.079725 0.448849 0.476579
0.080177 0.449301 0.536055
0.080630 0.449754 0.595810
0.081086 0.450210 0.655817
0.081543 0.450667 0.716052
0.082002 0.451126 0.776498
0.082462 0.451586 0.837138
0.082924 0.452048 0.897959
0.083269 0.452393 0.943424
0.080814 0.508821 0.036759
0.081128 0.509135 0.078076
0.081546 0.509553 0.133133
0.081974 0.509981 0.189538
0.082408 0.510416 0.246795
0.082848 0.510855 0.304683
0.083291 0.511298 0.363071
0.083737 0.511745 0.421877
0.084186 0.512194 0.481040
0.084638 0.512645 0.540516
0.085092 0.513099 0.600272
0.085547 0.513554 0.660278
0.086004 0.514011 0.720514
0.086463 0.514470 0.780959
0.086923 0.514930 0.841599
0.087385 0.515392 0.902420
0.087730 0.515737 0.947885
0.085298 0.572480 0.041242
0.085611 0.572793 0.082559
0.086029 0.573211 0.137617
0.086457 0.573639 0.194021
0.086892 0.574074 0.251279
0.087331 0.574513 0.309166
0.087774 0.574956 0.367555
0.088221 0.575403 0.426360
0.088670 0.575852 0.485523
0.089121 0.576303 0.545000
0.089575 0.576757 0.604755
0.090030 0.577212 0.664762
0.090488 0.577670 0.724997
0.090947 0.578128 0.785443
0.091407 0.578589 0.846083
0.091868 0.579050 0.906904
0.092214 0.579396 0.952369
0.089801 0.636419 0.045745
0.090114 0.636733 0.087063
0.090532 0.637151 0.142120
0.090961 0.637579 0.198525
0.091395 0.638014 0.255782
0.091835 0.638453 0.313669
0.092278 0.638896 0.372058
0.092724 0.639343 0.430864
0.093173 0.639792 0.490027
0.093625 0.640243 0.549503
0.094078 0.640697 0.609258
0.094534 0.641152 0.669265
0.094991 0.641609 0.729500
0.095450 0.642068 0.789946
0.095910 0.642529 0.850586
0.096372 0.642990 0.911407
0.096717 0.643335 0.956872
0.094322 0.700614 0.050267
0.094636 0.700928 0.091584
0.095054 0.701346 0.146641
0.095482 0.701774 0.203046
0.095916 0.702208 0.260303
0.096356 0.702648 0.318191
0.096799 0.703091 0.376579
0.097245 0.703537 0.435385
0.097694 0.703987 0.494548
0.098146 0.704438 0.554024
0.098599 0.704892 0.613779
0.099055 0.705347 0.673786
0.099512 0.705804 0.734022
0.099971 0.706263 0.794467
0.100431 0.706723 0.855107
0.100893 0.707185 0.915928
0.101238 0.707530 0.961393
0.098860 0.765042 0.054804
0.099173 0.765356 0.096122
0.099591 0.765774 0.151179
0.100019 0.766202 0.207584
0.100454 0.766637 0.264841
0.100893 0.767076 0.322728
0.101337 0.767519 0.381117
0.101783 0.767966 0.439922
0.102232 0.768415 0.499086
0.102684 0.768866 0.558562
0.103137 0.769320 0.618317
0.103593 0.769775 0.678324
0.104050 0.770233 0.738559
0.104509 0.770691 0.799005
0.104969 0.771152 0.859645
0.105431 0.771613 0.920466
0.105776 0.771958 0.965931
0.103413 0.829686 0.059357
0.103726 0.830000 0.100674
0.104144 0.830418 0.155732
0.104572 0.830846 0.212136
0.105007 0.831280 0.269394
0.105446 0.831720 0.327281
0.105890 0.832163 0.385670
0.106336 0.832609 0.444475
0.106785 0.833058 0.503638
0.107236 0.833510 0.563115
0.107690 0.833963 0.622870
0.108146 0.834419 0.682877
0.108603 0.834876 0.743112
0.109062 0.835335 0.803558
0.109522 0.835795 0.864198
0.109984 0.836257 0.925019
0.110329 0.836602 0.970484
0.107980 0.894529 0.063924
0.108293 0.894843 0.105241
0.108711 0.895261 0.160299
0.109139 0.895689 0.216703
0.109574 0.896123 0.273961
0.110013 0.896563 0.331848
0.110456 0.897006 0.390237
0.110903 0.897452 0.449042
0.111352 0.897901 0.508205
0.111803 0.898353 0.567682
0.112257 0.898807 0.627437
0.112712 0.899262 0.687443
0.113170 0.899719 0.747679
0.113628 0.900178 0.808125
0.114089 0.900638 0.868765
0.114550 0.901100 0.929586
0.114896 0.901445 0.975051
0.112560 0.959559 0.068504
0.112873 0.959872 0.109821
0.113291 0.960290 0.164879
0.113719 0.960718 0.221283
0.114154 0.961153 0.278541
0.114593 0.961592 0.336428
0.115036 0.962035 0.394817
0.115483 0.962482 0.453622
0.115932 0.962931 0.512785
0.116383 0.963382 0.572262
0.116837 0.963836 0.632017
0.117292 0.964291 0.692023
0.117750 0.964749 0.752259
0.118208 0.965207 0.812705
0.118669 0.965668 0.873345
0.119130 0.966129 0.934166
0.119476 0.966475 0.979631
0.101021 0.002225 0.002225
0.101335 0.002539 0.043542
0.101753 0.002957 0.098600
0.102181 0.003385 0.155004
0.102615 0.003819 0.212262
0.103055 0.004259 0.270149
0.103498 0.004702 0.328538
0.103944 0.005148 0.387343
0.104393 0.005597 0.446506
0.104845 0.006049 0.505983
0.105298 0.006503 0.565738
0.105754 0.006958 0.625745
0.106211 0.007415 0.685980
0.106670 0.007874 0.746426
0.107130 0.008334 0.807066
0.107592 0.008796 0.867887
0.107937 0.009141 0.913352
0.102242 0.019560 0.003446
