skills/editops-orchestrator/assets/grade/luts/night_blue_v13.cube
TITLE "night_blue_v13"
LUT_3D_SIZE 17
DOMAIN_MIN 0.0 0.0 0.0
DOMAIN_MAX 1.0 1.0 1.0
0.000000 0.000000 0.000000
0.000359 0.000359 0.030153
0.000965 0.000965 0.080954
0.001600 0.001600 0.134235
0.002253 0.002253 0.189059
0.002920 0.002920 0.245018
0.003598 0.003598 0.301882
0.004285 0.004285 0.359499
0.004979 0.004979 0.417764
0.005681 0.005681 0.476598
0.006388 0.006388 0.535939
0.007101 0.007101 0.595739
0.007818 0.007818 0.655956
0.008541 0.008541 0.716558
0.009267 0.009267 0.777517
0.009998 0.009998 0.838808
0.010336 0.010336 0.867178
0.000000 0.000000 0.000000
0.000359 0.000359 0.030153
0.000965 0.000965 0.080954
0.001600 0.001600 0.134235
0.002253 0.002253 0.189059
0.002920 0.002920 0.245018
0.003598 0.003598 0.301882
0.004285 0.004285 0.359499
0.004979 0.004979 0.417764
0.005681 0.005681 0.476598
0.006388 0.006388 0.535939
0.007101 0.007101 0.595739
0.007818 0.007818 0.655956
0.008541 0.008541 0.716558
0.009267 0.009267 0.777517
0.009998 0.009998 0.838808
0.010336 0.010336 0.867178
0.003987 0.037350 0.003987
0.004346 0.037709 0.034139
0.004952 0.038314 0.084941
0.005587 0.038950 0.138222
0.006240 0.039603 0.193045
0.006907 0.040270 0.249005
0.007585 0.040948 0.305868
0.008272 0.041634 0.363486
0.008966 0.042329 0.421751
0.009667 0.043030 0.480585
0.010375 0.043737 0.539926
0.011087 0.044450 0.599725
0.011805 0.045168 0.659943
0.012527 0.045890 0.720545
0.013254 0.046617 0.781504
0.013984 0.047347 0.842795
0.014323 0.047686 0.871165
0.010014 0.093816 0.010014
0.010373 0.094175 0.040166
0.010979 0.094781 0.090968
0.011614 0.095416 0.144249
0.012267 0.096069 0.199072
0.012934 0.096736 0.255032
0.013612 0.097414 0.311895
0.014299 0.098101 0.369513
0.014993 0.098795 0.427778
0.015694 0.099496 0.486612
0.016402 0.100204 0.545953
0.017114 0.100916 0.605752
0.017832 0.101634 0.665970
0.018554 0.102356 0.726572
0.019281 0.103083 0.787531
0.020012 0.103814 0.848822
0.020350 0.104152 0.877192
0.016320 0.152902 0.016320
0.016680 0.153261 0.046473
0.017285 0.153867 0.097275
0.017920 0.154502 0.150556
0.018574 0.155155 0.205379
0.019241 0.155822 0.261338
0.019919 0.156500 0.318202
0.020605 0.157187 0.375820
0.021300 0.157881 0.434085
0.022001 0.158582 0.492919
0.022708 0.159290 0.552260
0.023421 0.160003 0.612059
0.024139 0.160720 0.672277
0.024861 0.161443 0.732879
0.025588 0.162169 0.793838
0.026318 0.162900 0.855129
0.026656 0.163238 0.883499
0.022805 0.213649 0.022805
0.023164 0.214009 0.052957
0.023769 0.214614 0.103759
0.024405 0.215249 0.157040
0.025058 0.215903 0.211863
0.025725 0.216570 0.267823
0.026403 0.217247 0.324686
0.027089 0.217934 0.382304
0.027784 0.218629 0.440569
0.028485 0.219330 0.499403
0.029192 0.220037 0.558744
0.029905 0.220750 0.618543
0.030623 0.221468 0.678761
0.031345 0.222190 0.739363
0.032072 0.222916 0.800322
0.032802 0.223647 0.861613
0.033141 0.223985 0.889983
0.029420 0.275629 0.029420
0.029780 0.275989 0.059573
0.030385 0.276594 0.110374
0.031020 0.277229 0.163656
0.031674 0.277883 0.218479
0.032341 0.278550 0.274438
0.033018 0.279228 0.331302
0.033705 0.279914 0.388920
0.034400 0.280609 0.447185
0.035101 0.281310 0.506019
0.035808 0.282017 0.565360
0.036521 0.282730 0.625159
0.037239 0.283448 0.685376
0.037961 0.284170 0.745979
0.038688 0.284897 0.806938
0.039418 0.285627 0.868229
0.039756 0.285965 0.896598
0.036141 0.338596 0.036141
0.036501 0.338955 0.066294
0.037106 0.339561 0.117095
0.037741 0.340196 0.170376
0.038395 0.340849 0.225200
0.039062 0.341516 0.281159
0.039739 0.342194 0.338023
0.040426 0.342881 0.395640
0.041121 0.343575 0.453906
0.041822 0.344276 0.512739
0.042529 0.344984 0.572080
0.043242 0.345696 0.631880
0.043960 0.346414 0.692097
0.044682 0.347136 0.752700
0.045408 0.347863 0.813658
0.046139 0.348593 0.874950
0.046477 0.348932 0.903319
0.042950 0.402386 0.042950
0.043309 0.402745 0.073103
0.043915 0.403351 0.123904
0.044550 0.403986 0.177185
0.045203 0.404639 0.232009
0.045870 0.405306 0.287968
0.046548 0.405984 0.344832
0.047235 0.406671 0.402449
0.047929 0.407365 0.460714
0.048631 0.408066 0.519548
0.049338 0.408774 0.578889
0.050051 0.409486 0.638689
0.050768 0.410204 0.698906
0.051491 0.410926 0.759508
0.052217 0.411653 0.820467
0.052948 0.412383 0.881758
0.053286 0.412722 0.910128
0.049835 0.466885 0.049835
0.050194 0.467244 0.079987
0.050799 0.467850 0.130789
0.051434 0.468485 0.184070
0.052088 0.469138 0.238893
0.052755 0.469805 0.294852
0.053433 0.470483 0.351716
0.054119 0.471170 0.409334
0.054814 0.471864 0.467599
0.055515 0.472565 0.526433
0.056222 0.473273 0.585774
0.056935 0.473985 0.645573
0.057653 0.474703 0.705791
0.058375 0.475425 0.766393
0.059102 0.476152 0.827352
0.059832 0.476883 0.888643
0.060171 0.477221 0.917013
0.056786 0.532007 0.056786
0.057145 0.532367 0.086938
0.057750 0.532972 0.137740
0.058386 0.533607 0.191021
0.059039 0.534261 0.245844
0.059706 0.534928 0.301804
0.060384 0.535605 0.358667
0.061071 0.536292 0.416285
0.061765 0.536987 0.474550
0.062466 0.537688 0.533384
0.063174 0.538395 0.592725
0.063886 0.539108 0.652524
0.064604 0.539826 0.712742
0.065326 0.540548 0.773344
0.066053 0.541274 0.834303
0.066783 0.542005 0.895594
0.067122 0.542343 0.923964
0.063796 0.597686 0.063796
0.064155 0.598046 0.093949
0.064761 0.598651 0.144750
0.065396 0.599286 0.198031
0.066049 0.599940 0.252855
0.066716 0.600607 0.308814
0.067394 0.601284 0.365678
0.068081 0.601971 0.423295
0.068775 0.602666 0.481561
0.069477 0.603367 0.540394
0.070184 0.604074 0.599735
0.070897 0.604787 0.659535
0.071614 0.605505 0.719752
0.072337 0.606227 0.780355
0.073063 0.606954 0.841313
0.073794 0.607684 0.902605
0.074132 0.608022 0.930974
0.070860 0.663869 0.070860
0.071220 0.664228 0.101013
0.071825 0.664834 0.151814
0.072460 0.665469 0.205096
0.073114 0.666122 0.259919
0.073781 0.666789 0.315878
0.074458 0.667467 0.372742
0.075145 0.668154 0.430360
0.075840 0.668848 0.488625
0.076541 0.669549 0.547459
0.077248 0.670257 0.606800
0.077961 0.670969 0.666599
0.078679 0.671687 0.726816
0.079401 0.672409 0.787419
0.080128 0.673136 0.848378
0.080858 0.673867 0.909669
0.081196 0.674205 0.938038
0.077974 0.730511 0.077974
0.078333 0.730870 0.108126
0.078938 0.731476 0.158928
0.079574 0.732111 0.212209
0.080227 0.732764 0.267032
0.080894 0.733431 0.322992
0.081572 0.734109 0.379855
0.082258 0.734796 0.437473
0.082953 0.735490 0.495738
0.083654 0.736191 0.554572
0.084361 0.736899 0.613913
0.085074 0.737612 0.673712
0.085792 0.738329 0.733930
0.086514 0.739052 0.794532
0.087241 0.739778 0.855491
0.087971 0.740509 0.916782
0.088310 0.740847 0.945152
0.085132 0.797576 0.085132
0.085491 0.797936 0.115285
0.086097 0.798541 0.166086
0.086732 0.799176 0.219367
0.087385 0.799830 0.274191
0.088052 0.800497 0.330150
0.088730 0.801174 0.387014
0.089417 0.801861 0.444631
0.090111 0.802556 0.502896
0.090813 0.803257 0.561730
0.091520 0.803964 0.621071
0.092233 0.804677 0.680871
0.092950 0.805395 0.741088
0.093673 0.806117 0.801690
0.094399 0.806843 0.862649
0.095130 0.807574 0.923941
0.095468 0.807912 0.952310
0.092332 0.865034 0.092332
0.092692 0.865393 0.122485
0.093297 0.865999 0.173286
0.093932 0.866634 0.226568
0.094586 0.867287 0.281391
0.095253 0.867954 0.337350
0.095930 0.868632 0.394214
0.096617 0.869319 0.451832
0.097312 0.870013 0.510097
0.098013 0.870714 0.568931
0.098720 0.871422 0.628272
0.099433 0.872134 0.688071
0.100151 0.872852 0.748288
0.100873 0.873575 0.808891
0.101600 0.874301 0.869850
0.102330 0.875032 0.931141
0.102668 0.875370 0.959510
0.099572 0.932857 0.099572
0.099931 0.933216 0.129724
0.100537 0.933822 0.180526
0.101172 0.934457 0.233807
0.101825 0.935110 0.288630
0.102492 0.935777 0.344590
0.103170 0.936455 0.401453
0.103857 0.937142 0.459071
0.104551 0.937836 0.517336
0.105252 0.938538 0.576170
0.105960 0.939245 0.635511
0.106672 0.939958 0.695310
0.107390 0.940675 0.755528
0.108112 0.941398 0.816130
0.108839 0.942124 0.877089
0.109570 0.942855 0.938380
0.109908 0.943193 0.966750
0.000000 0.000000 0.000000
0.000359 0.000359 0.030153
0.000965 0.000965 0.080954
0.001600 0.001600 0.134235
0.002253 0.002253 0.189059
0.002920 0.002920 0.245018
0.003598 0.003598 0.301882
0.004285 0.004285 0.359499
0.004979 0.004979 0.417764
0.005681 0.005681 0.476598
0.006388 0.006388 0.535939
0.007101 0.007101 0.595739
0.007818 0.007818 0.655956
0.008541 0.008541 0.716558
0.009267 0.009267 0.777517
0.009998 0.009998 0.838808
0.010336 0.010336 0.867178
0.000000 0.000000 0.000000
0.000359 0.000359 0.030153
0.000965 0.000965 0.080954
0.001600 0.001600 0.134235
0.002253 0.002253 0.189059
0.002920 0.002920 0.245018
0.003598 0.003598 0.301882
0.004285 0.004285 0.359499
0.004979 0.004979 0.417764
0.005681 0.005681 0.476598
0.006388 0.006388 0.535939
0.007101 0.007101 0.595739
0.007818 0.007818 0.655956
0.008541 0.008541 0.716558
0.009267 0.009267 0.777517
0.009998 0.009998 0.838808
0.010336 0.010336 0.867178
0.003987 0.037350 0.003987
0.004346 0.037709 0.034139
0.004952 0.038314 0.084941
0.005587 0.038950 0.138222
0.006240 0.039603 0.193045
0.006907 0.040270 0.249005
0.007585 0.040948 0.305868
0.008272 0.041634 0.363486
0.008966 0.042329 0.421751
0.009667 0.043030 0.480585
0.010375 0.043737 0.539926
0.011087 0.044450 0.599725
0.011805 0.045168 0.659943
0.012527 0.045890 0.720545
0.013254 0.046617 0.781504
0.013984 0.047347 0.842795
0.014323 0.047686 0.871165
0.010014 0.093816 0.010014
0.010373 0.094175 0.040166
0.010979 0.094781 0.090968
0.011614 0.095416 0.144249
0.012267 0.096069 0.199072
0.012934 0.096736 0.255032
0.013612 0.097414 0.311895
0.014299 0.098101 0.369513
0.014993 0.098795 0.427778
0.015694 0.099496 0.486612
0.016402 0.100204 0.545953
0.017114 0.100916 0.605752
0.017832 0.101634 0.665970
0.018554 0.102356 0.726572
0.019281 0.103083 0.787531
0.020012 0.103814 0.848822
0.020350 0.104152 0.877192
0.016320 0.152902 0.016320
0.016680 0.153261 0.046473
0.017285 0.153867 0.097275
0.017920 0.154502 0.150556
0.018574 0.155155 0.205379
0.019241 0.155822 0.261338
0.019919 0.156500 0.318202
0.020605 0.157187 0.375820
0.021300 0.157881 0.434085
0.022001 0.158582 0.492919
0.022708 0.159290 0.552260
0.023421 0.160003 0.612059
0.024139 0.160720 0.672277
0.024861 0.161443 0.732879
0.025588 0.162169 0.793838
0.026318 0.162900 0.855129
0.026656 0.163238 0.883499
0.022805 0.213649 0.022805
0.023164 0.214009 0.052957
0.023769 0.214614 0.103759
0.024405 0.215249 0.157040
0.025058 0.215903 0.211863
0.025725 0.216570 0.267823
0.026403 0.217247 0.324686
0.027089 0.217934 0.382304
0.027784 0.218629 0.440569
0.028485 0.219330 0.499403
0.029192 0.220037 0.558744
0.029905 0.220750 0.618543
0.030623 0.221468 0.678761
0.031345 0.222190 0.739363
0.032072 0.222916 0.800322
0.032802 0.223647 0.861613
0.033141 0.223985 0.889983
0.029420 0.275629 0.029420
0.029780 0.275989 0.059573
0.030385 0.276594 0.110374
0.031020 0.277229 0.163656
0.031674 0.277883 0.218479
0.032341 0.278550 0.274438
0.033018 0.279228 0.331302
0.033705 0.279914 0.388920
0.034400 0.280609 0.447185
0.035101 0.281310 0.506019
0.035808 0.282017 0.565360
0.036521 0.282730 0.625159
0.037239 0.283448 0.685376
0.037961 0.284170 0.745979
0.038688 0.284897 0.806938
0.039418 0.285627 0.868229
0.039756 0.285965 0.896598
0.036141 0.338596 0.036141
0.036501 0.338955 0.066294
0.037106 0.339561 0.117095
0.037741 0.340196 0.170376
0.038395 0.340849 0.225200
0.039062 0.341516 0.281159
0.039739 0.342194 0.338023
0.040426 0.342881 0.395640
0.041121 0.343575 0.453906
0.041822 0.344276 0.512739
0.042529 0.344984 0.572080
0.043242 0.345696 0.631880
0.043960 0.346414 0.692097
0.044682 0.347136 0.752700
0.045408 0.347863 0.813658
0.046139 0.348593 0.874950
0.046477 0.348932 0.903319
0.042950 0.402386 0.042950
0.043309 0.402745 0.073103
0.043915 0.403351 0.123904
0.044550 0.403986 0.177185
0.045203 0.404639 0.232009
0.045870 0.405306 0.287968
0.046548 0.405984 0.344832
0.047235 0.406671 0.402449
0.047929 0.407365 0.460714
0.048631 0.408066 0.519548
0.049338 0.408774 0.578889
0.050051 0.409486 0.638689
0.050768 0.410204 0.698906
0.051491 0.410926 0.759508
0.052217 0.411653 0.820467
0.052948 0.412383 0.881758
0.053286 0.412722 0.910128
0.049835 0.466885 0.049835
0.050194 0.467244 0.079987
0.050799 0.467850 0.130789
0.051434 0.468485 0.184070
0.052088 0.469138 0.238893
0.052755 0.469805 0.294852
0.053433 0.470483 0.351716
0.054119 0.471170 0.409334
0.054814 0.471864 0.467599
0.055515 0.472565 0.526433
0.056222 0.473273 0.585774
0.056935 0.473985 0.645573
0.057653 0.474703 0.705791
0.058375 0.475425 0.766393
0.059102 0.476152 0.827352
0.059832 0.476883 0.888643
0.060171 0.477221 0.917013
0.056786 0.532007 0.056786
0.057145 0.532367 0.086938
0.057750 0.532972 0.137740
0.058386 0.533607 0.191021
0.059039 0.534261 0.245844
0.059706 0.534928 0.301804
0.060384 0.535605 0.358667
0.061071 0.536292 0.416285
0.061765 0.536987 0.474550
0.062466 0.537688 0.533384
0.063174 0.538395 0.592725
0.063886 0.539108 0.652524
0.064604 0.539826 0.712742
0.065326 0.540548 0.773344
0.066053 0.541274 0.834303
0.066783 0.542005 0.895594
0.067122 0.542343 0.923964
0.063796 0.597686 0.063796
0.064155 0.598046 0.093949
0.064761 0.598651 0.144750
0.065396 0.599286 0.198031
0.066049 0.599940 0.252855
0.066716 0.600607 0.308814
0.067394 0.601284 0.365678
0.068081 0.601971 0.423295
0.068775 0.602666 0.481561
0.069477 0.603367 0.540394
0.070184 0.604074 0.599735
0.070897 0.604787 0.659535
0.071614 0.605505 0.719752
0.072337 0.606227 0.780355
0.073063 0.606954 0.841313
0.073794 0.607684 0.902605
0.074132 0.608022 0.930974
0.070860 0.663869 0.070860
0.071220 0.664228 0.101013
0.071825 0.664834 0.151814
0.072460 0.665469 0.205096
0.073114 0.666122 0.259919
0.073781 0.666789 0.315878
0.074458 0.667467 0.372742
0.075145 0.668154 0.430360
0.075840 0.668848 0.488625
0.076541 0.669549 0.547459
0.077248 0.670257 0.606800
0.077961 0.670969 0.666599
0.078679 0.671687 0.726816
0.079401 0.672409 0.787419
0.080128 0.673136 0.848378
0.080858 0.673867 0.909669
0.081196 0.674205 0.938038
0.077974 0.730511 0.077974
0.078333 0.730870 0.108126
0.078938 0.731476 0.158928
0.079574 0.732111 0.212209
0.080227 0.732764 0.267032
0.080894 0.733431 0.322992
0.081572 0.734109 0.379855
0.082258 0.734796 0.437473
0.082953 0.735490 0.495738
0.083654 0.736191 0.554572
0.084361 0.736899 0.613913
0.085074 0.737612 0.673712
0.085792 0.738329 0.733930
0.086514 0.739052 0.794532
0.087241 0.739778 0.855491
0.087971 0.740509 0.916782
0.088310 0.740847 0.945152
0.085132 0.797576 0.085132
0.085491 0.797936 0.115285
0.086097 0.798541 0.166086
0.086732 0.799176 0.219367
0.087385 0.799830 0.274191
0.088052 0.800497 0.330150
0.088730 0.801174 0.387014
0.089417 0.801861 0.444631
0.090111 0.802556 0.502896
0.090813 0.803257 0.561730
0.091520 0.803964 0.621071
0.092233 0.804677 0.680871
0.092950 0.805395 0.741088
0.093673 0.806117 0.801690
0.094399 0.806843 0.862649
0.095130 0.807574 0.923941
0.095468 0.807912 0.952310
0.092332 0.865034 0.092332
0.092692 0.865393 0.122485
0.093297 0.865999 0.173286
0.093932 0.866634 0.226568
0.094586 0.867287 0.281391
0.095253 0.867954 0.337350
0.095930 0.868632 0.394214
0.096617 0.869319 0.451832
0.097312 0.870013 0.510097
0.098013 0.870714 0.568931
0.098720 0.871422 0.628272
0.099433 0.872134 0.688071
0.100151 0.872852 0.748288
0.100873 0.873575 0.808891
0.101600 0.874301 0.869850
0.102330 0.875032 0.931141
0.102668 0.875370 0.959510
0.099572 0.932857 0.099572
0.099931 0.933216 0.129724
0.100537 0.933822 0.180526
0.101172 0.934457 0.233807
0.101825 0.935110 0.288630
0.102492 0.935777 0.344590
0.103170 0.936455 0.401453
0.103857 0.937142 0.459071
0.104551 0.937836 0.517336
0.105252 0.938538 0.576170
0.105960 0.939245 0.635511
0.106672 0.939958 0.695310
0.107390 0.940675 0.755528
0.108112 0.941398 0.816130
0.108839 0.942124 0.877089
0.109570 0.942855 0.938380
0.109908 0.943193 0.966750
0.000000 0.000000 0.000000
0.000359 0.000359 0.030153
0.000965 0.000965 0.080954
0.001600 0.001600 0.134235
0.002253 0.002253 0.189059
0.002920 0.002920 0.245018
0.003598 0.003598 0.301882
0.004285 0.004285 0.359499
0.004979 0.004979 0.417764
0.005681 0.005681 0.476598
0.006388 0.006388 0.535939
0.007101 0.007101 0.595739
0.007818 0.007818 0.655956
0.008541 0.008541 0.716558
0.009267 0.009267 0.777517
0.009998 0.009998 0.838808
0.010336 0.010336 0.867178
0.000000 0.000000 0.000000
0.000359 0.000359 0.030153
0.000965 0.000965 0.080954
0.001600 0.001600 0.134235
0.002253 0.002253 0.189059
0.002920 0.002920 0.245018
0.003598 0.003598 0.301882
0.004285 0.004285 0.359499
0.004979 0.004979 0.417764
0.005681 0.005681 0.476598
0.006388 0.006388 0.535939
0.007101 0.007101 0.595739
0.007818 0.007818 0.655956
0.008541 0.008541 0.716558
0.009267 0.009267 0.777517
0.009998 0.009998 0.838808
0.010336 0.010336 0.867178
0.003987 0.037350 0.003987
0.004346 0.037709 0.034139
0.004952 0.038314 0.084941
0.005587 0.038950 0.138222
0.006240 0.039603 0.193045
0.006907 0.040270 0.249005
0.007585 0.040948 0.305868
0.008272 0.041634 0.363486
0.008966 0.042329 0.421751
0.009667 0.043030 0.480585
0.010375 0.043737 0.539926
0.011087 0.044450 0.599725
0.011805 0.045168 0.659943
0.012527 0.045890 0.720545
0.013254 0.046617 0.781504
0.013984 0.047347 0.842795
0.014323 0.047686 0.871165
0.010014 0.093816 0.010014
0.010373 0.094175 0.040166
0.010979 0.094781 0.090968
0.011614 0.095416 0.144249
0.012267 0.096069 0.199072
0.012934 0.096736 0.255032
0.013612 0.097414 0.311895
0.014299 0.098101 0.369513
0.014993 0.098795 0.427778
0.015694 0.099496 0.486612
0.016402 0.100204 0.545953
0.017114 0.100916 0.605752
0.017832 0.101634 0.665970
0.018554 0.102356 0.726572
0.019281 0.103083 0.787531
0.020012 0.103814 0.848822
0.020350 0.104152 0.877192
0.016320 0.152902 0.016320
0.016680 0.153261 0.046473
0.017285 0.153867 0.097275
0.017920 0.154502 0.150556
0.018574 0.155155 0.205379
0.019241 0.155822 0.261338
0.019919 0.156500 0.318202
0.020605 0.157187 0.375820
0.021300 0.157881 0.434085
0.022001 0.158582 0.492919
0.022708 0.159290 0.552260
0.023421 0.160003 0.612059
0.024139 0.160720 0.672277
0.024861 0.161443 0.732879
0.025588 0.162169 0.793838
0.026318 0.162900 0.855129
0.026656 0.163238 0.883499
0.022805 0.213649 0.022805
0.023164 0.214009 0.052957
0.023769 0.214614 0.103759
0.024405 0.215249 0.157040
0.025058 0.215903 0.211863
0.025725 0.216570 0.267823
0.026403 0.217247 0.324686
0.027089 0.217934 0.382304
0.027784 0.218629 0.440569
0.028485 0.219330 0.499403
0.029192 0.220037 0.558744
0.029905 0.220750 0.618543
0.030623 0.221468 0.678761
0.031345 0.222190 0.739363
0.032072 0.222916 0.800322
0.032802 0.223647 0.861613
0.033141 0.223985 0.889983
0.029420 0.275629 0.029420
0.029780 0.275989 0.059573
0.030385 0.276594 0.110374
0.031020 0.277229 0.163656
0.031674 0.277883 0.218479
0.032341 0.278550 0.274438
0.033018 0.279228 0.331302
0.033705 0.279914 0.388920
0.034400 0.280609 0.447185
0.035101 0.281310 0.506019
0.035808 0.282017 0.565360
0.036521 0.282730 0.625159
0.037239 0.283448 0.685376
0.037961 0.284170 0.745979
0.038688 0.284897 0.806938
0.039418 0.285627 0.868229
0.039756 0.285965 0.896598
0.036141 0.338596 0.036141
0.036501 0.338955 0.066294
0.037106 0.339561 0.117095
0.037741 0.340196 0.170376
0.038395 0.340849 0.225200
0.039062 0.341516 0.281159
0.039739 0.342194 0.338023
0.040426 0.342881 0.395640
0.041121 0.343575 0.453906
0.041822 0.344276 0.512739
0.042529 0.344984 0.572080
0.043242 0.345696 0.631880
0.043960 0.346414 0.692097
0.044682 0.347136 0.752700
0.045408 0.347863 0.813658
0.046139 0.348593 0.874950
0.046477 0.348932 0.903319
0.042950 0.402386 0.042950
0.043309 0.402745 0.073103
0.043915 0.403351 0.123904
0.044550 0.403986 0.177185
0.045203 0.404639 0.232009
0.045870 0.405306 0.287968
0.046548 0.405984 0.344832
0.047235 0.406671 0.402449
0.047929 0.407365 0.460714
0.048631 0.408066 0.519548
0.049338 0.408774 0.578889
0.050051 0.409486 0.638689
0.050768 0.410204 0.698906
0.051491 0.410926 0.759508
0.052217 0.411653 0.820467
0.052948 0.412383 0.881758
0.053286 0.412722 0.910128
0.049835 0.466885 0.049835
0.050194 0.467244 0.079987
0.050799 0.467850 0.130789
0.051434 0.468485 0.184070
0.052088 0.469138 0.238893
0.052755 0.469805 0.294852
0.053433 0.470483 0.351716
0.054119 0.471170 0.409334
0.054814 0.471864 0.467599
0.055515 0.472565 0.526433
0.056222 0.473273 0.585774
0.056935 0.473985 0.645573
0.057653 0.474703 0.705791
0.058375 0.475425 0.766393
0.059102 0.476152 0.827352
0.059832 0.476883 0.888643
0.060171 0.477221 0.917013
0.056786 0.532007 0.056786
0.057145 0.532367 0.086938
0.057750 0.532972 0.137740
0.058386 0.533607 0.191021
0.059039 0.534261 0.245844
0.059706 0.534928 0.301804
0.060384 0.535605 0.358667
0.061071 0.536292 0.416285
0.061765 0.536987 0.474550
0.062466 0.537688 0.533384
0.063174 0.538395 0.592725
0.063886 0.539108 0.652524
0.064604 0.539826 0.712742
0.065326 0.540548 0.773344
0.066053 0.541274 0.834303
0.066783 0.542005 0.895594
0.067122 0.542343 0.923964
0.063796 0.597686 0.063796
0.064155 0.598046 0.093949
0.064761 0.598651 0.144750
0.065396 0.599286 0.198031
0.066049 0.599940 0.252855
0.066716 0.600607 0.308814
0.067394 0.601284 0.365678
0.068081 0.601971 0.423295
0.068775 0.602666 0.481561
0.069477 0.603367 0.540394
0.070184 0.604074 0.599735
0.070897 0.604787 0.659535
0.071614 0.605505 0.719752
0.072337 0.606227 0.780355
0.073063 0.606954 0.841313
0.073794 0.607684 0.902605
0.074132 0.608022 0.930974
0.070860 0.663869 0.070860
0.071220 0.664228 0.101013
0.071825 0.664834 0.151814
0.072460 0.665469 0.205096
0.073114 0.666122 0.259919
0.073781 0.666789 0.315878
0.074458 0.667467 0.372742
0.075145 0.668154 0.430360
0.075840 0.668848 0.488625
0.076541 0.669549 0.547459
0.077248 0.670257 0.606800
0.077961 0.670969 0.666599
0.078679 0.671687 0.726816
0.079401 0.672409 0.787419
0.080128 0.673136 0.848378
0.080858 0.673867 0.909669
0.081196 0.674205 0.938038
0.077974 0.730511 0.077974
0.078333 0.730870 0.108126
0.078938 0.731476 0.158928
0.079574 0.732111 0.212209
0.080227 0.732764 0.267032
0.080894 0.733431 0.322992
0.081572 0.734109 0.379855
0.082258 0.734796 0.437473
0.082953 0.735490 0.495738
0.083654 0.736191 0.554572
0.084361 0.736899 0.613913
0.085074 0.737612 0.673712
0.085792 0.738329 0.733930
0.086514 0.739052 0.794532
0.087241 0.739778 0.855491
0.087971 0.740509 0.916782
0.088310 0.740847 0.945152
0.085132 0.797576 0.085132
0.085491 0.797936 0.115285
0.086097 0.798541 0.166086
0.086732 0.799176 0.219367
0.087385 0.799830 0.274191
0.088052 0.800497 0.330150
0.088730 0.801174 0.387014
0.089417 0.801861 0.444631
0.090111 0.802556 0.502896
0.090813 0.803257 0.561730
0.091520 0.803964 0.621071
0.092233 0.804677 0.680871
0.092950 0.805395 0.741088
0.093673 0.806117 0.801690
0.094399 0.806843 0.862649
0.095130 0.807574 0.923941
0.095468 0.807912 0.952310
0.092332 0.865034 0.092332
0.092692 0.865393 0.122485
0.093297 0.865999 0.173286
0.093932 0.866634 0.226568
0.094586 0.867287 0.281391
0.095253 0.867954 0.337350
0.095930 0.868632 0.394214
0.096617 0.869319 0.451832
0.097312 0.870013 0.510097
0.098013 0.870714 0.568931
0.098720 0.871422 0.628272
0.099433 0.872134 0.688071
0.100151 0.872852 0.748288
0.100873 0.873575 0.808891
0.101600 0.874301 0.869850
0.102330 0.875032 0.931141
0.102668 0.875370 0.959510
0.099572 0.932857 0.099572
0.099931 0.933216 0.129724
0.100537 0.933822 0.180526
0.101172 0.934457 0.233807
0.101825 0.935110 0.288630
0.102492 0.935777 0.344590
0.103170 0.936455 0.401453
0.103857 0.937142 0.459071
0.104551 0.937836 0.517336
0.105252 0.938538 0.576170
0.105960 0.939245 0.635511
0.106672 0.939958 0.695310
0.107390 0.940675 0.755528
0.108112 0.941398 0.816130
0.108839 0.942124 0.877089
0.109570 0.942855 0.938380
0.109908 0.943193 0.966750
0.038272 0.001313 0.001313
0.038631 0.001672 0.031465
0.039237 0.002278 0.082267
0.039872 0.002913 0.135548
0.040526 0.003566 0.190371
0.041193 0.004233 0.246331
0.041870 0.004911 0.303194
0.042557 0.005598 0.360812
0.043251 0.006292 0.419077
0.043953 0.006993 0.477911
0.044660 0.007701 0.537252
0.045373 0.008413 0.597051
0.046091 0.009131 0.657269
0.046813 0.009854 0.717871
0.047539 0.010580 0.778830
0.048270 0.011311 0.840121
0.048608 0.011649 0.868491
0.038272 0.001313 0.001313
