skills/editops-orchestrator/assets/grade/luts/night_blue_v06.cube
TITLE "night_blue_v06"
LUT_3D_SIZE 9
DOMAIN_MIN 0.0 0.0 0.0
DOMAIN_MAX 1.0 1.0 1.0
0.000000 0.000000 0.000000
0.000790 0.000790 0.092758
0.001748 0.001748 0.205216
0.002732 0.002732 0.320757
0.003733 0.003733 0.438296
0.004746 0.004746 0.557326
0.005770 0.005770 0.677551
0.006802 0.006802 0.798774
0.007676 0.007676 0.901360
0.005188 0.066161 0.005188
0.005978 0.066951 0.097946
0.006935 0.067909 0.210404
0.007919 0.068893 0.325945
0.008920 0.069894 0.443484
0.009934 0.070908 0.562514
0.010958 0.071931 0.682739
0.011990 0.072964 0.803962
0.012864 0.073837 0.906548
0.014562 0.185718 0.014562
0.015352 0.186508 0.107321
0.016310 0.187465 0.219778
0.017294 0.188449 0.335320
0.018295 0.189450 0.452859
0.019309 0.190464 0.571889
0.020332 0.191488 0.692114
0.021365 0.192520 0.813337
0.022238 0.193394 0.915923
0.024248 0.309241 0.024248
0.025038 0.310031 0.117006
0.025996 0.310989 0.229464
0.026980 0.311973 0.345005
0.027981 0.312974 0.462544
0.028994 0.313987 0.581574
0.030018 0.315011 0.701799
0.031050 0.316043 0.823022
0.031924 0.316917 0.925608
0.034121 0.435150 0.034121
0.034911 0.435940 0.126879
0.035868 0.436898 0.239337
0.036852 0.437881 0.354878
0.037853 0.438882 0.472417
0.038867 0.439896 0.591447
0.039891 0.440920 0.711672
0.040923 0.441952 0.832895
0.041797 0.442826 0.935481
0.044129 0.562788 0.044129
0.044919 0.563578 0.136887
0.045877 0.564535 0.249345
0.046860 0.565519 0.364886
0.047861 0.566520 0.482425
0.048875 0.567534 0.601455
0.049899 0.568558 0.721680
0.050931 0.569590 0.842903
0.051805 0.570464 0.945489
0.054244 0.691788 0.054244
0.055034 0.692578 0.147002
0.055992 0.693535 0.259460
0.056976 0.694519 0.375001
0.057976 0.695520 0.492540
0.058990 0.696534 0.611570
0.060014 0.697558 0.731795
0.061046 0.698590 0.853018
0.061920 0.699464 0.955604
0.064447 0.821915 0.064447
0.065237 0.822704 0.157206
0.066195 0.823662 0.269663
0.067179 0.824646 0.385205
0.068180 0.825647 0.502744
0.069194 0.826661 0.621774
0.070217 0.827685 0.741999
0.071250 0.828717 0.863222
0.072123 0.829591 0.965808
0.074726 0.953004 0.074726
0.075516 0.953794 0.167485
0.076474 0.954751 0.279942
0.077458 0.955735 0.395483
0.078459 0.956736 0.513022
0.079472 0.957750 0.632053
0.080496 0.958774 0.752277
0.081529 0.959806 0.873501
0.082402 0.960680 0.976086
0.031497 0.000777 0.000777
0.032287 0.001567 0.093535
0.033244 0.002525 0.205993
0.034228 0.003509 0.321534
0.035229 0.004509 0.439073
0.036243 0.005523 0.558103
0.037267 0.006547 0.678328
0.038299 0.007579 0.799551
0.039173 0.008453 0.902137
0.036684 0.066938 0.005965
0.037474 0.067728 0.098723
0.038432 0.068686 0.211181
0.039416 0.069670 0.326722
0.040417 0.070671 0.444261
0.041431 0.071684 0.563291
0.042454 0.072708 0.683516
0.043487 0.073741 0.804739
0.044360 0.074614 0.907325
0.046059 0.186495 0.015339
0.046849 0.187285 0.108098
0.047807 0.188242 0.220555
0.048791 0.189226 0.336097
0.049792 0.190227 0.453635
0.050805 0.191241 0.572666
0.051829 0.192265 0.692891
0.052861 0.193297 0.814114
0.053735 0.194171 0.916700
0.055745 0.310018 0.025025
0.056535 0.310808 0.117783
0.057492 0.311766 0.230241
0.058476 0.312750 0.345782
0.059477 0.313751 0.463321
0.060491 0.314764 0.582351
0.061515 0.315788 0.702576
0.062547 0.316820 0.823799
0.063421 0.317694 0.926385
0.065617 0.435927 0.034898
0.066407 0.436717 0.127656
0.067365 0.437674 0.240114
0.068349 0.438658 0.355655
0.069350 0.439659 0.473194
0.070364 0.440673 0.592224
0.071387 0.441697 0.712449
0.072420 0.442729 0.833672
0.073293 0.443603 0.936258
0.075626 0.563565 0.044906
0.076415 0.564354 0.137664
0.077373 0.565312 0.250122
0.078357 0.566296 0.365663
0.079358 0.567297 0.483202
0.080372 0.568311 0.602232
0.081396 0.569335 0.722457
0.082428 0.570367 0.843680
0.083302 0.571241 0.946266
0.085741 0.692565 0.055021
0.086531 0.693355 0.147779
0.087488 0.694312 0.260237
0.088472 0.695296 0.375778
0.089473 0.696297 0.493317
0.090487 0.697311 0.612347
0.091511 0.698335 0.732572
0.092543 0.699367 0.853795
0.093417 0.700241 0.956381
0.095944 0.822692 0.065224
0.096734 0.823481 0.157983
0.097692 0.824439 0.270440
0.098676 0.825423 0.385982
0.099677 0.826424 0.503520
0.100690 0.827438 0.622551
0.101714 0.828462 0.742776
0.102746 0.829494 0.863999
0.103620 0.830368 0.966585
0.106223 0.953781 0.075503
0.107013 0.954571 0.168262
0.107971 0.955528 0.280719
0.108954 0.956512 0.396260
0.109955 0.957513 0.513799
0.110969 0.958527 0.632830
0.111993 0.959551 0.753054
0.113025 0.960583 0.874278
0.113899 0.961457 0.976863
0.142642 0.003519 0.003519
0.143432 0.004309 0.096277
0.144389 0.005266 0.208735
0.145373 0.006250 0.324276
0.146374 0.007251 0.441815
0.147388 0.008265 0.560845
0.148412 0.009289 0.681070
0.149444 0.010321 0.802293
0.150318 0.011195 0.904879
0.147829 0.069680 0.008706
0.148619 0.070470 0.101465
0.149577 0.071428 0.213922
0.150561 0.072412 0.329464
0.151562 0.073412 0.447003
0.152576 0.074426 0.566033
0.153600 0.075450 0.686258
0.154632 0.076482 0.807481
0.155505 0.077356 0.910067
0.157204 0.189236 0.018081
0.157994 0.190026 0.110839
0.158952 0.190984 0.223297
0.159936 0.191968 0.338838
0.160937 0.192969 0.456377
0.161950 0.193982 0.575407
0.162974 0.195006 0.695632
0.164006 0.196039 0.816855
0.164880 0.196912 0.919441
0.166890 0.312760 0.027767
0.167680 0.313550 0.120525
0.168637 0.314507 0.232983
0.169621 0.315491 0.348524
0.170622 0.316492 0.466063
0.171636 0.317506 0.585093
0.172660 0.318530 0.705318
0.173692 0.319562 0.826541
0.174566 0.320436 0.929127
0.176762 0.438669 0.037639
0.177552 0.439458 0.130398
0.178510 0.440416 0.242855
0.179494 0.441400 0.358397
0.180495 0.442401 0.475935
0.181509 0.443415 0.594966
0.182532 0.444439 0.715191
0.183565 0.445471 0.836414
0.184438 0.446345 0.939000
0.186771 0.566306 0.047648
0.187560 0.567096 0.140406
0.188518 0.568054 0.252864
0.189502 0.569038 0.368405
0.190503 0.570039 0.485944
0.191517 0.571052 0.604974
0.192541 0.572076 0.725199
0.193573 0.573109 0.846422
0.194447 0.573982 0.949008
0.196886 0.695306 0.057763
0.197676 0.696096 0.150521
0.198633 0.697054 0.262979
0.199617 0.698038 0.378520
0.200618 0.699039 0.496059
0.201632 0.700052 0.615089
0.202656 0.701076 0.735314
0.203688 0.702109 0.856537
0.204562 0.702982 0.959123
0.207089 0.825433 0.067966
0.207879 0.826223 0.160724
0.208837 0.827181 0.273182
0.209821 0.828165 0.388723
0.210822 0.829166 0.506262
0.211835 0.830179 0.625292
0.212859 0.831203 0.745517
0.213891 0.832236 0.866740
0.214765 0.833109 0.969326
0.217368 0.956522 0.078245
0.218158 0.957312 0.171003
0.219116 0.958270 0.283461
0.220099 0.959254 0.399002
0.221100 0.960255 0.516541
0.222114 0.961269 0.635571
0.223138 0.962292 0.755796
0.224170 0.963325 0.877019
0.225044 0.964198 0.979605
0.258514 0.006377 0.006377
0.259304 0.007167 0.099135
0.260261 0.008125 0.211593
0.261245 0.009109 0.327134
0.262246 0.010109 0.444673
0.263260 0.011123 0.563703
0.264284 0.012147 0.683928
0.265316 0.013179 0.805151
0.266190 0.014053 0.907737
0.263702 0.072538 0.011565
0.264491 0.073328 0.104323
0.265449 0.074286 0.216781
0.266433 0.075270 0.332322
0.267434 0.076271 0.449861
0.268448 0.077284 0.568891
0.269472 0.078308 0.689116
0.270504 0.079341 0.810339
0.271378 0.080214 0.912925
0.273076 0.192095 0.020939
0.273866 0.192885 0.113698
0.274824 0.193842 0.226155
0.275808 0.194826 0.341697
0.276809 0.195827 0.459235
0.277822 0.196841 0.578266
0.278846 0.197865 0.698491
0.279878 0.198897 0.819714
0.280752 0.199771 0.922300
0.282762 0.315618 0.030625
0.283552 0.316408 0.123383
0.284509 0.317366 0.235841
0.285493 0.318350 0.351382
0.286494 0.319351 0.468921
0.287508 0.320364 0.587951
0.288532 0.321388 0.708176
0.289564 0.322420 0.829399
0.290438 0.323294 0.931985
0.292634 0.441527 0.040498
0.293424 0.442317 0.133256
0.294382 0.443274 0.245714
0.295366 0.444258 0.361255
0.296367 0.445259 0.478794
0.297381 0.446273 0.597824
0.298404 0.447297 0.718049
0.299437 0.448329 0.839272
0.300310 0.449203 0.941858
0.302643 0.569165 0.050506
0.303433 0.569954 0.143264
0.304390 0.570912 0.255722
0.305374 0.571896 0.371263
0.306375 0.572897 0.488802
0.307389 0.573911 0.607832
0.308413 0.574935 0.728057
0.309445 0.575967 0.849280
0.310319 0.576841 0.951866
0.312758 0.698165 0.060621
0.313548 0.698955 0.153379
0.314505 0.699912 0.265837
0.315489 0.700896 0.381378
0.316490 0.701897 0.498917
0.317504 0.702911 0.617947
0.318528 0.703935 0.738172
0.319560 0.704967 0.859395
0.320434 0.705841 0.961981
0.322961 0.828292 0.070824
0.323751 0.829081 0.163583
0.324709 0.830039 0.276040
0.325693 0.831023 0.391582
0.326694 0.832024 0.509120
0.327707 0.833038 0.628151
0.328731 0.834062 0.748376
0.329763 0.835094 0.869599
0.330637 0.835968 0.972185
0.333240 0.959381 0.081103
0.334030 0.960171 0.173862
0.334988 0.961128 0.286319
0.335972 0.962112 0.401860
0.336973 0.963113 0.519399
0.337986 0.964127 0.638430
0.339010 0.965151 0.758654
0.340042 0.966183 0.879878
0.340916 0.967057 0.982463
0.376922 0.009298 0.009298
0.377712 0.010088 0.102056
0.378670 0.011045 0.214514
0.379653 0.012029 0.330055
0.380654 0.013030 0.447594
0.381668 0.014044 0.566624
0.382692 0.015068 0.686849
0.383724 0.016100 0.808072
0.384598 0.016974 0.910658
0.382110 0.075459 0.014486
0.382900 0.076249 0.107244
0.383857 0.077207 0.219702
0.384841 0.078191 0.335243
0.385842 0.079192 0.452782
0.386856 0.080205 0.571812
0.387880 0.081229 0.692037
0.388912 0.082261 0.813260
0.389786 0.083135 0.915846
0.391484 0.195015 0.023860
0.392274 0.195805 0.116619
0.393232 0.196763 0.229076
0.394216 0.197747 0.344617
0.395217 0.198748 0.462156
0.396230 0.199762 0.581187
0.397254 0.200785 0.701411
0.398287 0.201818 0.822635
0.399160 0.202691 0.925220
0.401170 0.318539 0.033546
0.401960 0.319329 0.126304
0.402917 0.320287 0.238762
0.403901 0.321271 0.354303
0.404902 0.322271 0.471842
0.405916 0.323285 0.590872
0.406940 0.324309 0.711097
0.407972 0.325341 0.832320
0.408846 0.326215 0.934906
0.411043 0.444448 0.043418
0.411832 0.445238 0.136177
0.412790 0.446195 0.248634
0.413774 0.447179 0.364176
0.414775 0.448180 0.481715
0.415789 0.449194 0.600745
0.416813 0.450218 0.720970
0.417845 0.451250 0.842193
0.418719 0.452124 0.944779
0.421051 0.572085 0.053427
0.421841 0.572875 0.146185
0.422798 0.573833 0.258643
0.423782 0.574817 0.374184
0.424783 0.575818 0.491723
0.425797 0.576832 0.610753
0.426821 0.577855 0.730978
0.427853 0.578888 0.852201
0.428727 0.579761 0.954787
0.431166 0.701085 0.063542
0.431956 0.701875 0.156300
0.432913 0.702833 0.268758
0.433897 0.703817 0.384299
0.434898 0.704818 0.501838
0.435912 0.705832 0.620868
0.436936 0.706856 0.741093
0.437968 0.707888 0.862316
0.438842 0.708761 0.964902
0.441369 0.831212 0.073745
0.442159 0.832002 0.166504
0.443117 0.832960 0.278961
0.444101 0.833944 0.394502
0.445102 0.834945 0.512041
0.446115 0.835959 0.631072
0.447139 0.836982 0.751296
0.448172 0.838015 0.872520
0.449045 0.838888 0.975105
0.451648 0.962302 0.084024
0.452438 0.963092 0.176782
0.453396 0.964049 0.289240
0.454380 0.965033 0.404781
0.455381 0.966034 0.522320
0.456394 0.967048 0.641350
0.457418 0.968072 0.761575
0.458450 0.969104 0.882798
0.459324 0.969978 0.985384
0.497102 0.012262 0.012262
0.497892 0.013052 0.105021
0.498849 0.014010 0.217478
0.499833 0.014994 0.333020
0.500834 0.015995 0.450559
0.501848 0.017009 0.569589
0.502872 0.018032 0.689814
0.503904 0.019065 0.811037
0.504778 0.019938 0.913623
0.502290 0.078424 0.017450
0.503080 0.079214 0.110209
0.504037 0.080171 0.222666
0.505021 0.081155 0.338207
0.506022 0.082156 0.455746
0.507036 0.083170 0.574777
0.508060 0.084194 0.695001
0.509092 0.085226 0.816225
0.509966 0.086100 0.918810
0.511664 0.197980 0.026825
0.512454 0.198770 0.119583
0.513412 0.199728 0.232041
0.514396 0.200712 0.347582
0.515397 0.201713 0.465121
0.516410 0.202726 0.584151
0.517434 0.203750 0.704376
0.518467 0.204782 0.825599
0.519340 0.205656 0.928185
0.521350 0.321503 0.036510
0.522140 0.322293 0.129269
0.523097 0.323251 0.241726
0.524081 0.324235 0.357268
0.525082 0.325236 0.474807
0.526096 0.326250 0.593837
0.527120 0.327274 0.714062
0.528152 0.328306 0.835285
0.529026 0.329179 0.937871
0.531222 0.447412 0.046383
0.532012 0.448202 0.139141
0.532970 0.449160 0.251599
0.533954 0.450144 0.367140
0.534955 0.451145 0.484679
0.535969 0.452159 0.603709
0.536993 0.453182 0.723934
0.538025 0.454215 0.845157
0.538898 0.455088 0.947743
0.541231 0.575050 0.056391
0.542021 0.575840 0.149150
0.542978 0.576798 0.261607
0.543962 0.577782 0.377149
0.544963 0.578783 0.494687
0.545977 0.579796 0.613718
0.547001 0.580820 0.733942
0.548033 0.581852 0.855166
0.548907 0.582726 0.957751
0.551346 0.704050 0.066506
0.552136 0.704840 0.159265
0.553093 0.705798 0.271722
0.554077 0.706782 0.387264
0.555078 0.707783 0.504802
0.556092 0.708796 0.623833
0.557116 0.709820 0.744058
0.558148 0.710852 0.865281
0.559022 0.711726 0.967867
0.561549 0.834177 0.076710
0.562339 0.834967 0.169468
0.563297 0.835925 0.281926
0.564281 0.836909 0.397467
0.565282 0.837909 0.515006
0.566295 0.838923 0.634036
0.567319 0.839947 0.754261
0.568352 0.840979 0.875484
0.569225 0.841853 0.978070
0.571828 0.965266 0.086989
0.572618 0.966056 0.179747
0.573576 0.967014 0.292205
0.574560 0.967998 0.407746
0.575561 0.968999 0.525285
0.576574 0.970012 0.644315
0.577598 0.971036 0.764540
0.578630 0.972069 0.885763
0.579504 0.972942 0.988349
0.618652 0.015261 0.015261
0.619442 0.016051 0.108019
0.620399 0.017008 0.220477
0.621383 0.017992 0.336018
0.622384 0.018993 0.453557
0.623398 0.020007 0.572587
0.624422 0.021031 0.692812
0.625454 0.022063 0.814035
0.626328 0.022937 0.916621
0.623840 0.081422 0.020449
0.624629 0.082212 0.113207
0.625587 0.083170 0.225665
0.626571 0.084154 0.341206
0.627572 0.085155 0.458745
0.628586 0.086168 0.577775
0.629610 0.087192 0.698000
0.630642 0.088224 0.819223
0.631516 0.089098 0.921809
0.633214 0.200978 0.029823
0.634004 0.201768 0.122581
0.634962 0.202726 0.235039
0.635946 0.203710 0.350580
0.636947 0.204711 0.468119
0.637960 0.205725 0.587150
0.638984 0.206748 0.707374
0.640016 0.207781 0.828597
0.640890 0.208654 0.931183
0.642900 0.324502 0.039509
0.643690 0.325292 0.132267
0.644647 0.326249 0.244725
0.645631 0.327233 0.360266
0.646632 0.328234 0.477805
0.647646 0.329248 0.596835
0.648670 0.330272 0.717060
0.649702 0.331304 0.838283
0.650576 0.332178 0.940869
0.652772 0.450411 0.049381
0.653562 0.451201 0.142140
0.654520 0.452158 0.254597
0.655504 0.453142 0.370139
0.656505 0.454143 0.487678
0.657519 0.455157 0.606708
0.658542 0.456181 0.726933
0.659575 0.457213 0.848156
0.660448 0.458087 0.950742
0.662781 0.578048 0.059390
0.663571 0.578838 0.152148
0.664528 0.579796 0.264606
0.665512 0.580780 0.380147
0.666513 0.581781 0.497686
0.667527 0.582795 0.616716
0.668551 0.583818 0.736941
0.669583 0.584851 0.858164
0.670457 0.585724 0.960750
0.672896 0.707048 0.069505
0.673686 0.707838 0.162263
0.674643 0.708796 0.274721
0.675627 0.709780 0.390262
0.676628 0.710781 0.507801
0.677642 0.711795 0.626831
0.678666 0.712818 0.747056
0.679698 0.713851 0.868279
0.680572 0.714724 0.970865
0.683099 0.837175 0.079708
0.683889 0.837965 0.172466
0.684847 0.838923 0.284924
0.685831 0.839907 0.400465
0.686832 0.840908 0.518004
0.687845 0.841921 0.637035
0.688869 0.842945 0.757259
0.689901 0.843978 0.878482
0.690775 0.844851 0.981068
0.693378 0.968265 0.089987
0.694168 0.969054 0.182745
0.695126 0.970012 0.295203
0.696110 0.970996 0.410744
0.697110 0.971997 0.528283
0.698124 0.973011 0.647313
0.699148 0.974035 0.767538
0.700180 0.975067 0.888761
0.701054 0.975941 0.991347
0.741322 0.018287 0.018287
0.742112 0.019077 0.111045
0.743069 0.020034 0.223503
0.744053 0.021018 0.339044
0.745054 0.022019 0.456583
0.746068 0.023033 0.575613
0.747092 0.024057 0.695838
0.748124 0.025089 0.817061
0.748998 0.025963 0.919647
0.746509 0.084448 0.023475
0.747299 0.085238 0.116233
0.748257 0.086196 0.228691
0.749241 0.087180 0.344232
0.750242 0.088181 0.461771
0.751256 0.089194 0.580801
0.752279 0.090218 0.701026
0.753312 0.091250 0.822249
0.754185 0.092124 0.924835
0.755884 0.204004 0.032849
0.756674 0.204794 0.125607
0.757632 0.205752 0.238065
0.758616 0.206736 0.353606
0.759616 0.207737 0.471145
0.760630 0.208751 0.590176
0.761654 0.209774 0.710400
0.762686 0.210807 0.831623
0.763560 0.211680 0.934209
0.765570 0.327528 0.042535
0.766360 0.328318 0.135293
0.767317 0.329275 0.247751
0.768301 0.330259 0.363292
0.769302 0.331260 0.480831
0.770316 0.332274 0.599861
0.771340 0.333298 0.720086
0.772372 0.334330 0.841309
0.773246 0.335204 0.943895
0.775442 0.453437 0.052407
0.776232 0.454227 0.145166
0.777190 0.455184 0.257623
0.778174 0.456168 0.373165
0.779175 0.457169 0.490704
0.780188 0.458183 0.609734
0.781212 0.459207 0.729959
0.782245 0.460239 0.851182
0.783118 0.461113 0.953768
0.785450 0.581074 0.062416
0.786240 0.581864 0.155174
0.787198 0.582822 0.267632
0.788182 0.583806 0.383173
0.789183 0.584807 0.500712
0.790197 0.585821 0.619742
0.791221 0.586844 0.739967
0.792253 0.587877 0.861190
0.793126 0.588750 0.963776
0.795566 0.710074 0.072531
0.796355 0.710864 0.165289
0.797313 0.711822 0.277747
0.798297 0.712806 0.393288
0.799298 0.713807 0.510827
0.800312 0.714821 0.629857
0.801336 0.715844 0.750082
0.802368 0.716877 0.871305
0.803242 0.717750 0.973891
0.805769 0.840201 0.082734
0.806559 0.840991 0.175492
0.807517 0.841949 0.287950
0.808501 0.842933 0.403491
0.809501 0.843934 0.521030
0.810515 0.844947 0.640061
0.811539 0.845971 0.760285
0.812571 0.847004 0.881508
0.813445 0.847877 0.984094
0.816048 0.971291 0.093013
0.816838 0.972080 0.185771
0.817795 0.973038 0.298229
0.818779 0.974022 0.413770
0.819780 0.975023 0.531309
0.820794 0.976037 0.650339
0.821818 0.977061 0.770564
0.822850 0.978093 0.891787
0.823724 0.978967 0.994373
0.864940 0.021336 0.021336
0.865730 0.022126 0.114094
0.866688 0.023084 0.226552
0.867672 0.024068 0.342093
0.868673 0.025069 0.459632
0.869686 0.026082 0.578663
0.870710 0.027106 0.698887
0.871743 0.028139 0.820111
0.872616 0.029012 0.922696
0.870128 0.087497 0.026524
0.870918 0.088287 0.119282
0.871876 0.089245 0.231740
0.872860 0.090229 0.347281
0.873861 0.091230 0.464820
0.874874 0.092244 0.583850
0.875898 0.093267 0.704075
0.876930 0.094300 0.825298
0.877804 0.095173 0.927884
0.879503 0.207054 0.035898
0.880293 0.207844 0.128657
0.881250 0.208801 0.241114
0.882234 0.209785 0.356656
0.883235 0.210786 0.474195
0.884249 0.211800 0.593225
0.885273 0.212824 0.713450
0.886305 0.213856 0.834673
0.887179 0.214730 0.937259
0.889188 0.330577 0.045584
0.889978 0.331367 0.138342
0.890936 0.332325 0.250800
0.891920 0.333309 0.366341
0.892921 0.334310 0.483880
0.893934 0.335323 0.602911
0.894958 0.336347 0.723135
0.895991 0.337380 0.844359
0.896864 0.338253 0.946944
0.899061 0.456486 0.055457
0.899851 0.457276 0.148215
0.900809 0.458234 0.260673
0.901793 0.459218 0.376214
0.902793 0.460219 0.493753
0.903807 0.461232 0.612783
0.904831 0.462256 0.733008
0.905863 0.463288 0.854231
0.906737 0.464162 0.956817
0.909069 0.584124 0.065465
0.909859 0.584914 0.158223
0.910817 0.585871 0.270681
0.911801 0.586855 0.386222
0.912802 0.587856 0.503761
0.913815 0.588870 0.622791
0.914839 0.589894 0.743016
0.915872 0.590926 0.864239
0.916745 0.591800 0.966825
0.919184 0.713124 0.075580
0.919974 0.713914 0.168338
0.920932 0.714871 0.280796
0.921916 0.715855 0.396337
0.922917 0.716856 0.513876
0.923930 0.717870 0.632906
0.924954 0.718894 0.753131
0.925987 0.719926 0.874354
0.926860 0.720800 0.976940
0.929388 0.843251 0.085783
0.930178 0.844041 0.178542
0.931135 0.844998 0.290999
0.932119 0.845982 0.406541
0.933120 0.846983 0.524080
0.934134 0.847997 0.643110
0.935158 0.849021 0.763335
0.936190 0.850053 0.884558
0.937064 0.850927 0.987144
0.939666 0.974340 0.096062
0.940456 0.975130 0.188821
0.941414 0.976088 0.301278
0.942398 0.977071 0.416820
0.943399 0.978072 0.534359
0.944413 0.979086 0.653389
0.945437 0.980110 0.773614
0.946469 0.981142 0.894837
0.947342 0.982016 0.997423
