skills/editops-orchestrator/assets/grade/luts/product_clean_v08.cube
TITLE "product_clean_v08"
LUT_3D_SIZE 9
DOMAIN_MIN 0.0 0.0 0.0
DOMAIN_MAX 1.0 1.0 1.0
0.000000 0.000000 0.000000
0.000000 0.000000 0.120514
0.000000 0.000000 0.250428
0.000000 0.000000 0.380341
0.000000 0.000000 0.510255
0.000000 0.000000 0.640168
0.000000 0.000000 0.770082
0.000000 0.000000 0.899995
0.000000 0.000000 1.000000
0.000000 0.118836 0.000000
0.000000 0.118647 0.118647
0.000000 0.118444 0.248561
0.000000 0.118241 0.378474
0.000000 0.118038 0.508388
0.000000 0.117834 0.638301
0.000000 0.117631 0.768215
0.000000 0.117428 0.898128
0.000000 0.117240 1.000000
0.000000 0.246940 0.000000
0.000000 0.246751 0.116634
0.000000 0.246548 0.246548
0.000000 0.246345 0.376462
0.000000 0.246142 0.506375
0.000000 0.245938 0.636289
0.000000 0.245735 0.766202
0.000000 0.245532 0.896116
0.000000 0.245344 1.000000
0.000000 0.375044 0.000000
0.000000 0.374855 0.114622
0.000000 0.374652 0.244535
0.000000 0.374449 0.374449
0.000000 0.374246 0.504362
0.000000 0.374043 0.634276
0.000000 0.373839 0.764189
0.000000 0.373636 0.894103
0.000000 0.373448 1.000000
0.000000 0.503148 0.000000
0.000000 0.502959 0.112609
0.000000 0.502756 0.242523
0.000000 0.502553 0.372436
0.000000 0.502350 0.502350
0.000000 0.502147 0.632263
0.000000 0.501943 0.762177
0.000000 0.501740 0.892090
0.000000 0.501552 1.000000
0.000000 0.631252 0.000000
0.000000 0.631063 0.110597
0.000000 0.630860 0.240510
0.000000 0.630657 0.370424
0.000000 0.630454 0.500337
0.000000 0.630251 0.630251
0.000000 0.630048 0.760164
0.000000 0.629844 0.890078
0.000000 0.629656 1.000000
0.000000 0.759356 0.000000
0.000000 0.759167 0.108584
0.000000 0.758964 0.238498
0.000000 0.758761 0.368411
0.000000 0.758558 0.498325
0.000000 0.758355 0.628238
0.000000 0.758152 0.758152
0.000000 0.757948 0.888065
0.000000 0.757760 1.000000
0.000000 0.887460 0.000000
0.000000 0.887272 0.106571
0.000000 0.887068 0.236485
0.000000 0.886865 0.366398
0.000000 0.886662 0.496312
0.000000 0.886459 0.626225
0.000000 0.886256 0.756139
0.000000 0.886052 0.886052
0.000000 0.885864 1.000000
0.000000 1.000000 0.000000
0.000000 1.000000 0.104704
0.000000 1.000000 0.234618
0.000000 1.000000 0.364531
0.000000 1.000000 0.494445
0.000000 1.000000 0.624358
0.000000 1.000000 0.754272
0.000000 1.000000 0.884185
0.000000 1.000000 1.000000
0.120148 0.000000 0.000000
0.119959 0.000000 0.119959
0.119756 0.000000 0.249873
0.119553 0.000000 0.379786
0.119350 0.000000 0.509700
0.119146 0.000000 0.639613
0.118943 0.000000 0.769527
0.118740 0.000000 0.899440
0.118552 0.000000 1.000000
0.118281 0.118281 0.000000
0.118092 0.118092 0.118092
0.117889 0.117889 0.248006
0.117686 0.117686 0.377919
0.117483 0.117483 0.507833
0.117279 0.117279 0.637746
0.117076 0.117076 0.767660
0.116873 0.116873 0.897573
0.116685 0.116685 1.000000
0.116268 0.246385 0.000000
0.116079 0.246196 0.116079
0.115876 0.245993 0.245993
0.115673 0.245790 0.375907
0.115470 0.245587 0.505820
0.115267 0.245383 0.635734
0.115064 0.245180 0.765647
0.114860 0.244977 0.895561
0.114672 0.244789 1.000000
0.114255 0.374489 0.000000
0.114067 0.374300 0.114067
0.113864 0.374097 0.243980
0.113661 0.373894 0.373894
0.113457 0.373691 0.503807
0.113254 0.373488 0.633721
0.113051 0.373284 0.763634
0.112848 0.373081 0.893548
0.112659 0.372893 1.000000
0.112243 0.502593 0.000000
0.112054 0.502404 0.112054
0.111851 0.502201 0.241968
0.111648 0.501998 0.371881
0.111445 0.501795 0.501795
0.111242 0.501592 0.631708
0.111038 0.501388 0.761622
0.110835 0.501185 0.891535
0.110647 0.500997 1.000000
0.110230 0.630697 0.000000
0.110042 0.630508 0.110042
0.109838 0.630305 0.239955
0.109635 0.630102 0.369869
0.109432 0.629899 0.499782
0.109229 0.629696 0.629696
0.109026 0.629493 0.759609
0.108823 0.629289 0.889523
0.108634 0.629101 1.000000
0.108218 0.758801 0.000000
0.108029 0.758612 0.108029
0.107826 0.758409 0.237943
0.107623 0.758206 0.367856
0.107420 0.758003 0.497770
0.107216 0.757800 0.627683
0.107013 0.757597 0.757597
0.106810 0.757393 0.887510
0.106622 0.757205 1.000000
0.106205 0.886905 0.000000
0.106016 0.886717 0.106016
0.105813 0.886513 0.235930
0.105610 0.886310 0.365843
0.105407 0.886107 0.495757
0.105204 0.885904 0.625670
0.105001 0.885701 0.755584
0.104797 0.885498 0.885498
0.104609 0.885309 1.000000
0.104338 1.000000 0.000000
0.104149 1.000000 0.104149
0.103946 1.000000 0.234063
0.103743 1.000000 0.363976
0.103540 1.000000 0.493890
0.103337 1.000000 0.623803
0.103134 1.000000 0.753717
0.102930 1.000000 0.883631
0.102742 1.000000 1.000000
0.249666 0.000000 0.000000
0.249478 0.000000 0.119361
0.249274 0.000000 0.249274
0.249071 0.000000 0.379188
0.248868 0.000000 0.509101
0.248665 0.000000 0.639015
0.248462 0.000000 0.768928
0.248258 0.000000 0.898842
0.248070 0.000000 1.000000
0.247799 0.117682 0.000000
0.247611 0.117494 0.117494
0.247407 0.117291 0.247407
0.247204 0.117087 0.377321
0.247001 0.116884 0.507234
0.246798 0.116681 0.637148
0.246595 0.116478 0.767061
0.246391 0.116275 0.896975
0.246203 0.116086 1.000000
0.245786 0.245786 0.000000
0.245598 0.245598 0.115481
0.245395 0.245395 0.245395
0.245192 0.245192 0.375308
0.244988 0.244988 0.505222
0.244785 0.244785 0.635135
0.244582 0.244582 0.765049
0.244379 0.244379 0.894962
0.244190 0.244190 1.000000
0.243774 0.373890 0.000000
0.243585 0.373702 0.113469
0.243382 0.373499 0.243382
0.243179 0.373296 0.373296
0.242976 0.373092 0.503209
0.242773 0.372889 0.633123
0.242569 0.372686 0.763036
0.242366 0.372483 0.892950
0.242178 0.372294 1.000000
0.241761 0.501995 0.000000
0.241573 0.501806 0.111456
0.241370 0.501603 0.241370
0.241166 0.501400 0.371283
0.240963 0.501197 0.501197
0.240760 0.500993 0.631110
0.240557 0.500790 0.761024
0.240354 0.500587 0.890937
0.240165 0.500399 1.000000
0.239749 0.630099 0.000000
0.239560 0.629910 0.109443
0.239357 0.629707 0.239357
0.239154 0.629504 0.369270
0.238951 0.629301 0.499184
0.238747 0.629097 0.629097
0.238544 0.628894 0.759011
0.238341 0.628691 0.888924
0.238153 0.628503 1.000000
0.237736 0.758203 0.000000
0.237547 0.758014 0.107431
0.237344 0.757811 0.237344
0.237141 0.757608 0.367258
0.236938 0.757405 0.497171
0.236735 0.757202 0.627085
0.236532 0.756998 0.756998
0.236328 0.756795 0.886912
0.236140 0.756607 1.000000
0.235723 0.886307 0.000000
0.235535 0.886118 0.105418
0.235332 0.885915 0.235332
0.235128 0.885712 0.365245
0.234925 0.885509 0.495159
0.234722 0.885306 0.625072
0.234519 0.885102 0.754986
0.234316 0.884899 0.884899
0.234127 0.884711 1.000000
0.233856 1.000000 0.000000
0.233668 1.000000 0.103551
0.233465 1.000000 0.233465
0.233261 1.000000 0.363378
0.233058 1.000000 0.493292
0.232855 1.000000 0.623205
0.232652 1.000000 0.753119
0.232449 1.000000 0.883032
0.232260 1.000000 1.000000
0.379184 0.000000 0.000000
0.378996 0.000000 0.118763
0.378793 0.000000 0.248676
0.378590 0.000000 0.378590
0.378386 0.000000 0.508503
0.378183 0.000000 0.638417
0.377980 0.000000 0.768330
0.377777 0.000000 0.898244
0.377588 0.000000 1.000000
0.377317 0.117084 0.000000
0.377129 0.116896 0.116896
0.376926 0.116692 0.246809
0.376723 0.116489 0.376723
0.376519 0.116286 0.506636
0.376316 0.116083 0.636550
0.376113 0.115880 0.766463
0.375910 0.115677 0.896377
0.375721 0.115488 1.000000
0.375305 0.245188 0.000000
0.375116 0.245000 0.114883
0.374913 0.244796 0.244796
0.374710 0.244593 0.374710
0.374507 0.244390 0.504623
0.374304 0.244187 0.634537
0.374100 0.243984 0.764451
0.373897 0.243781 0.894364
0.373709 0.243592 1.000000
0.373292 0.373292 0.000000
0.373104 0.373104 0.112870
0.372901 0.372901 0.242784
0.372697 0.372697 0.372697
0.372494 0.372494 0.502611
0.372291 0.372291 0.632524
0.372088 0.372088 0.762438
0.371885 0.371885 0.892351
0.371696 0.371696 1.000000
0.371280 0.501396 0.000000
0.371091 0.501208 0.110858
0.370888 0.501005 0.240771
0.370685 0.500801 0.370685
0.370482 0.500598 0.500598
0.370278 0.500395 0.630512
0.370075 0.500192 0.760425
0.369872 0.499989 0.890339
0.369684 0.499800 1.000000
0.369267 0.629500 0.000000
0.369078 0.629312 0.108845
0.368875 0.629109 0.238759
0.368672 0.628906 0.368672
0.368469 0.628702 0.498586
0.368266 0.628499 0.628499
0.368063 0.628296 0.758413
0.367859 0.628093 0.888326
0.367671 0.627904 1.000000
0.367254 0.757604 0.000000
0.367066 0.757416 0.106832
0.366863 0.757213 0.236746
0.366660 0.757010 0.366660
0.366456 0.756806 0.496573
0.366253 0.756603 0.626487
0.366050 0.756400 0.756400
0.365847 0.756197 0.886314
0.365658 0.756008 1.000000
0.365242 0.885708 0.000000
0.365053 0.885520 0.104820
0.364850 0.885317 0.234733
0.364647 0.885114 0.364647
0.364444 0.884910 0.494560
0.364241 0.884707 0.624474
0.364037 0.884504 0.754387
0.363834 0.884301 0.884301
0.363646 0.884112 1.000000
0.363375 1.000000 0.000000
0.363186 1.000000 0.102953
0.362983 1.000000 0.232866
0.362780 1.000000 0.362780
0.362577 1.000000 0.492693
0.362374 1.000000 0.622607
0.362170 1.000000 0.752520
0.361967 1.000000 0.882434
0.361779 1.000000 1.000000
0.508703 0.000000 0.000000
0.508514 0.000000 0.118164
0.508311 0.000000 0.248078
0.508108 0.000000 0.377991
0.507905 0.000000 0.507905
0.507702 0.000000 0.637818
0.507498 0.000000 0.767732
0.507295 0.000000 0.897645
0.507107 0.000000 1.000000
0.506836 0.116486 0.000000
0.506647 0.116297 0.116297
0.506444 0.116094 0.246211
0.506241 0.115891 0.376124
0.506038 0.115688 0.506038
0.505835 0.115485 0.635951
0.505631 0.115281 0.765865
0.505428 0.115078 0.895778
0.505240 0.114890 1.000000
0.504823 0.244590 0.000000
0.504635 0.244401 0.114285
0.504432 0.244198 0.244198
0.504228 0.243995 0.374112
0.504025 0.243792 0.504025
0.503822 0.243589 0.633939
0.503619 0.243385 0.763852
0.503416 0.243182 0.893766
0.503227 0.242994 1.000000
0.502811 0.372694 0.000000
0.502622 0.372505 0.112272
0.502419 0.372302 0.242186
0.502216 0.372099 0.372099
0.502013 0.371896 0.502013
0.501809 0.371693 0.631926
0.501606 0.371490 0.761840
0.501403 0.371286 0.891753
0.501215 0.371098 1.000000
0.500798 0.500798 0.000000
0.500610 0.500610 0.110259
0.500406 0.500406 0.240173
0.500203 0.500203 0.370086
0.500000 0.500000 0.500000
0.499797 0.499797 0.629914
0.499594 0.499594 0.759827
0.499390 0.499390 0.889741
0.499202 0.499202 1.000000
0.498785 0.628902 0.000000
0.498597 0.628714 0.108247
0.498394 0.628510 0.238160
0.498191 0.628307 0.368074
0.497987 0.628104 0.497987
0.497784 0.627901 0.627901
0.497581 0.627698 0.757814
0.497378 0.627495 0.887728
0.497189 0.627306 1.000000
0.496773 0.757006 0.000000
0.496584 0.756818 0.106234
0.496381 0.756615 0.236148
0.496178 0.756411 0.366061
0.495975 0.756208 0.495975
0.495772 0.756005 0.625888
0.495568 0.755802 0.755802
0.495365 0.755599 0.885715
0.495177 0.755410 1.000000
0.494760 0.885110 0.000000
0.494572 0.884922 0.104222
0.494369 0.884719 0.234135
0.494165 0.884515 0.364049
0.493962 0.884312 0.493962
0.493759 0.884109 0.623876
0.493556 0.883906 0.753789
0.493353 0.883703 0.883703
0.493164 0.883514 1.000000
0.492893 1.000000 0.000000
0.492705 1.000000 0.102355
0.492502 1.000000 0.232268
0.492298 1.000000 0.362182
0.492095 1.000000 0.492095
0.491892 1.000000 0.622009
0.491689 1.000000 0.751922
0.491486 1.000000 0.881836
0.491297 1.000000 1.000000
0.638221 0.000000 0.000000
0.638033 0.000000 0.117566
0.637830 0.000000 0.247480
0.637626 0.000000 0.377393
0.637423 0.000000 0.507307
0.637220 0.000000 0.637220
0.637017 0.000000 0.767134
0.636814 0.000000 0.897047
0.636625 0.000000 1.000000
0.636354 0.115888 0.000000
0.636166 0.115699 0.115699
0.635963 0.115496 0.245613
0.635759 0.115293 0.375526
0.635556 0.115090 0.505440
0.635353 0.114886 0.635353
0.635150 0.114683 0.765267
0.634947 0.114480 0.895180
0.634758 0.114292 1.000000
0.634342 0.243992 0.000000
0.634153 0.243803 0.113686
0.633950 0.243600 0.243600
0.633747 0.243397 0.373513
0.633544 0.243194 0.503427
0.633340 0.242990 0.633340
0.633137 0.242787 0.763254
0.632934 0.242584 0.893168
0.632746 0.242396 1.000000
0.632329 0.372096 0.000000
0.632141 0.371907 0.111674
0.631937 0.371704 0.241587
0.631734 0.371501 0.371501
0.631531 0.371298 0.501414
0.631328 0.371094 0.631328
0.631125 0.370891 0.761241
0.630922 0.370688 0.891155
0.630733 0.370500 1.000000
0.630316 0.500200 0.000000
0.630128 0.500011 0.109661
0.629925 0.499808 0.239575
0.629722 0.499605 0.369488
0.629518 0.499402 0.499402
0.629315 0.499199 0.629315
0.629112 0.498995 0.759229
0.628909 0.498792 0.889142
0.628720 0.498604 1.000000
0.628304 0.628304 0.000000
0.628115 0.628115 0.107649
0.627912 0.627912 0.237562
0.627709 0.627709 0.367476
0.627506 0.627506 0.497389
0.627303 0.627303 0.627303
0.627099 0.627099 0.757216
0.626896 0.626896 0.887130
0.626708 0.626708 1.000000
0.626291 0.756408 0.000000
0.626103 0.756219 0.105636
0.625900 0.756016 0.235549
0.625696 0.755813 0.365463
0.625493 0.755610 0.495377
0.625290 0.755407 0.625290
0.625087 0.755204 0.755204
0.624884 0.755000 0.885117
0.624695 0.754812 1.000000
0.624279 0.884512 0.000000
0.624090 0.884323 0.103623
0.623887 0.884120 0.233537
0.623684 0.883917 0.363450
0.623481 0.883714 0.493364
0.623277 0.883511 0.623277
0.623074 0.883308 0.753191
0.622871 0.883104 0.883104
0.622683 0.882916 1.000000
0.622412 1.000000 0.000000
0.622223 1.000000 0.101756
0.622020 1.000000 0.231670
0.621817 1.000000 0.361583
0.621614 1.000000 0.491497
0.621410 1.000000 0.621410
0.621207 1.000000 0.751324
0.621004 1.000000 0.881237
0.620816 1.000000 1.000000
0.767740 0.000000 0.000000
0.767551 0.000000 0.116968
0.767348 0.000000 0.246881
0.767145 0.000000 0.376795
0.766942 0.000000 0.506708
0.766739 0.000000 0.636622
0.766535 0.000000 0.766535
0.766332 0.000000 0.896449
0.766144 0.000000 1.000000
0.765873 0.115289 0.000000
0.765684 0.115101 0.115101
0.765481 0.114898 0.245014
0.765278 0.114694 0.374928
0.765075 0.114491 0.504841
0.764872 0.114288 0.634755
0.764668 0.114085 0.764668
0.764465 0.113882 0.894582
0.764277 0.113693 1.000000
0.763860 0.243393 0.000000
0.763672 0.243205 0.113088
0.763468 0.243002 0.243002
0.763265 0.242798 0.372915
0.763062 0.242595 0.502829
0.762859 0.242392 0.632742
0.762656 0.242189 0.762656
0.762453 0.241986 0.892569
0.762264 0.241797 1.000000
0.761847 0.371497 0.000000
0.761659 0.371309 0.111076
0.761456 0.371106 0.240989
0.761253 0.370903 0.370903
0.761049 0.370699 0.500816
0.760846 0.370496 0.630730
0.760643 0.370293 0.760643
0.760440 0.370090 0.890557
0.760251 0.369901 1.000000
0.759835 0.499601 0.000000
0.759646 0.499413 0.109063
0.759443 0.499210 0.238976
0.759240 0.499007 0.368890
0.759037 0.498803 0.498803
0.758834 0.498600 0.628717
0.758630 0.498397 0.758630
0.758427 0.498194 0.888544
0.758239 0.498005 1.000000
0.757822 0.627706 0.000000
0.757634 0.627517 0.107050
0.757431 0.627314 0.236964
0.757227 0.627111 0.366877
0.757024 0.626908 0.496791
0.756821 0.626704 0.626704
0.756618 0.626501 0.756618
0.756415 0.626298 0.886531
0.756226 0.626110 1.000000
0.755810 0.755810 0.000000
0.755621 0.755621 0.105038
0.755418 0.755418 0.234951
0.755215 0.755215 0.364865
0.755012 0.755012 0.494778
0.754808 0.754808 0.624692
0.754605 0.754605 0.754605
0.754402 0.754402 0.884519
0.754214 0.754214 1.000000
0.753797 0.883914 0.000000
0.753609 0.883725 0.103025
0.753405 0.883522 0.232939
0.753202 0.883319 0.362852
0.752999 0.883116 0.492766
0.752796 0.882913 0.622679
0.752593 0.882709 0.752593
0.752389 0.882506 0.882506
0.752201 0.882318 1.000000
0.751930 1.000000 0.000000
0.751742 1.000000 0.101158
0.751538 1.000000 0.231072
0.751335 1.000000 0.360985
0.751132 1.000000 0.490899
0.750929 1.000000 0.620812
0.750726 1.000000 0.750726
0.750522 1.000000 0.880639
0.750334 1.000000 1.000000
0.897258 0.000000 0.000000
0.897070 0.000000 0.116369
0.896866 0.000000 0.246283
0.896663 0.000000 0.376197
0.896460 0.000000 0.506110
0.896257 0.000000 0.636024
0.896054 0.000000 0.765937
0.895851 0.000000 0.895851
0.895662 0.000000 1.000000
0.895391 0.114691 0.000000
0.895203 0.114502 0.114502
0.894999 0.114299 0.244416
0.894796 0.114096 0.374330
0.894593 0.113893 0.504243
0.894390 0.113690 0.634157
0.894187 0.113487 0.764070
0.893984 0.113283 0.893984
0.893795 0.113095 1.000000
0.893378 0.242795 0.000000
0.893190 0.242607 0.112490
0.892987 0.242403 0.242403
0.892784 0.242200 0.372317
0.892580 0.241997 0.502230
0.892377 0.241794 0.632144
0.892174 0.241591 0.762057
0.891971 0.241388 0.891971
0.891782 0.241199 1.000000
0.891366 0.370899 0.000000
0.891177 0.370711 0.110477
0.890974 0.370507 0.240391
0.890771 0.370304 0.370304
0.890568 0.370101 0.500218
0.890365 0.369898 0.630131
0.890162 0.369695 0.760045
0.889958 0.369492 0.889958
0.889770 0.369303 1.000000
0.889353 0.499003 0.000000
0.889165 0.498815 0.108465
0.888962 0.498612 0.238378
0.888758 0.498408 0.368292
0.888555 0.498205 0.498205
0.888352 0.498002 0.628119
0.888149 0.497799 0.758032
0.887946 0.497596 0.887946
0.887757 0.497407 1.000000
0.887341 0.627107 0.000000
0.887152 0.626919 0.106452
0.886949 0.626716 0.236366
0.886746 0.626512 0.366279
0.886543 0.626309 0.496193
0.886339 0.626106 0.626106
0.886136 0.625903 0.756020
0.885933 0.625700 0.885933
0.885745 0.625511 1.000000
0.885328 0.755211 0.000000
0.885140 0.755023 0.104439
0.884936 0.754820 0.234353
0.884733 0.754617 0.364266
0.884530 0.754413 0.494180
0.884327 0.754210 0.624093
0.884124 0.754007 0.754007
0.883921 0.753804 0.883921
0.883732 0.753615 1.000000
0.883315 0.883315 0.000000
0.883127 0.883127 0.102427
0.882924 0.882924 0.232340
0.882721 0.882721 0.362254
0.882517 0.882517 0.492167
0.882314 0.882314 0.622081
0.882111 0.882111 0.751994
0.881908 0.881908 0.881908
0.881719 0.881719 1.000000
0.881448 1.000000 0.000000
0.881260 1.000000 0.100560
0.881057 1.000000 0.230473
0.880854 1.000000 0.360387
0.880650 1.000000 0.490300
0.880447 1.000000 0.620214
0.880244 1.000000 0.750127
0.880041 1.000000 0.880041
0.879852 1.000000 1.000000
1.000000 0.000000 0.000000
1.000000 0.000000 0.115815
1.000000 0.000000 0.245728
1.000000 0.000000 0.375642
1.000000 0.000000 0.505555
1.000000 0.000000 0.635469
1.000000 0.000000 0.765382
1.000000 0.000000 0.895296
1.000000 0.000000 1.000000
1.000000 0.114136 0.000000
1.000000 0.113948 0.113948
1.000000 0.113744 0.243861
1.000000 0.113541 0.373775
1.000000 0.113338 0.503688
1.000000 0.113135 0.633602
1.000000 0.112932 0.763515
1.000000 0.112728 0.893429
1.000000 0.112540 1.000000
1.000000 0.242240 0.000000
1.000000 0.242052 0.111935
1.000000 0.241848 0.241848
1.000000 0.241645 0.371762
1.000000 0.241442 0.501675
1.000000 0.241239 0.631589
1.000000 0.241036 0.761502
1.000000 0.240833 0.891416
1.000000 0.240644 1.000000
1.000000 0.370344 0.000000
1.000000 0.370156 0.109922
1.000000 0.369952 0.239836
1.000000 0.369749 0.369749
1.000000 0.369546 0.499663
1.000000 0.369343 0.629576
1.000000 0.369140 0.759490
1.000000 0.368937 0.889403
1.000000 0.368748 1.000000
1.000000 0.498448 0.000000
1.000000 0.498260 0.107910
1.000000 0.498057 0.237823
1.000000 0.497853 0.367737
1.000000 0.497650 0.497650
1.000000 0.497447 0.627564
1.000000 0.497244 0.757477
1.000000 0.497041 0.887391
1.000000 0.496852 1.000000
1.000000 0.626552 0.000000
1.000000 0.626364 0.105897
1.000000 0.626161 0.235811
1.000000 0.625957 0.365724
1.000000 0.625754 0.495638
1.000000 0.625551 0.625551
1.000000 0.625348 0.755465
1.000000 0.625145 0.885378
1.000000 0.624956 1.000000
1.000000 0.754656 0.000000
1.000000 0.754468 0.103884
1.000000 0.754265 0.233798
1.000000 0.754062 0.363711
1.000000 0.753858 0.493625
1.000000 0.753655 0.623538
1.000000 0.753452 0.753452
1.000000 0.753249 0.883366
1.000000 0.753060 1.000000
1.000000 0.882760 0.000000
1.000000 0.882572 0.101872
1.000000 0.882369 0.231785
1.000000 0.882166 0.361699
1.000000 0.881962 0.491612
1.000000 0.881759 0.621526
1.000000 0.881556 0.751439
1.000000 0.881353 0.881353
1.000000 0.881164 1.000000
1.000000 1.000000 0.000000
1.000000 1.000000 0.100005
1.000000 1.000000 0.229918
1.000000 1.000000 0.359832
1.000000 1.000000 0.489745
1.000000 1.000000 0.619659
1.000000 1.000000 0.749572
1.000000 1.000000 0.879486
1.000000 1.000000 1.000000
