skills/editops-orchestrator/assets/grade/luts/product_clean_v10.cube
TITLE "product_clean_v10"
LUT_3D_SIZE 17
DOMAIN_MIN 0.0 0.0 0.0
DOMAIN_MAX 1.0 1.0 1.0
0.000000 0.000000 0.000000
0.000000 0.000000 0.053513
0.000000 0.000000 0.119180
0.000000 0.000000 0.184848
0.000000 0.000000 0.250515
0.000000 0.000000 0.316182
0.000000 0.000000 0.381850
0.000000 0.000000 0.447517
0.000000 0.000000 0.513185
0.000000 0.000000 0.578852
0.000000 0.000000 0.644519
0.000000 0.000000 0.710187
0.000000 0.000000 0.775854
0.000000 0.000000 0.841521
0.000000 0.000000 0.907189
0.000000 0.000000 0.972856
0.000000 0.000000 1.000000
0.000000 0.052560 0.000000
0.000000 0.052453 0.052453
0.000000 0.052322 0.118121
0.000000 0.052191 0.183788
0.000000 0.052059 0.249455
0.000000 0.051928 0.315123
0.000000 0.051797 0.380790
0.000000 0.051665 0.446457
0.000000 0.051534 0.512125
0.000000 0.051403 0.577792
0.000000 0.051272 0.643459
0.000000 0.051140 0.709127
0.000000 0.051009 0.774794
0.000000 0.050878 0.840462
0.000000 0.050746 0.906129
0.000000 0.050615 0.971796
0.000000 0.050508 1.000000
0.000000 0.117058 0.000000
0.000000 0.116951 0.051153
0.000000 0.116820 0.116820
0.000000 0.116689 0.182487
0.000000 0.116557 0.248155
0.000000 0.116426 0.313822
0.000000 0.116295 0.379489
0.000000 0.116164 0.445157
0.000000 0.116032 0.510824
0.000000 0.115901 0.576492
0.000000 0.115770 0.642159
0.000000 0.115638 0.707826
0.000000 0.115507 0.773494
0.000000 0.115376 0.839161
0.000000 0.115245 0.904828
0.000000 0.115113 0.970496
0.000000 0.115006 1.000000
0.000000 0.181556 0.000000
0.000000 0.181449 0.049852
0.000000 0.181318 0.115520
0.000000 0.181187 0.181187
0.000000 0.181056 0.246854
0.000000 0.180924 0.312522
0.000000 0.180793 0.378189
0.000000 0.180662 0.443856
0.000000 0.180530 0.509524
0.000000 0.180399 0.575191
0.000000 0.180268 0.640858
0.000000 0.180137 0.706526
0.000000 0.180005 0.772193
0.000000 0.179874 0.837861
0.000000 0.179743 0.903528
0.000000 0.179611 0.969195
0.000000 0.179504 1.000000
0.000000 0.246055 0.000000
0.000000 0.245948 0.048552
0.000000 0.245816 0.114219
0.000000 0.245685 0.179886
0.000000 0.245554 0.245554
0.000000 0.245422 0.311221
0.000000 0.245291 0.376888
0.000000 0.245160 0.442556
0.000000 0.245029 0.508223
0.000000 0.244897 0.573891
0.000000 0.244766 0.639558
0.000000 0.244635 0.705225
0.000000 0.244503 0.770893
0.000000 0.244372 0.836560
0.000000 0.244241 0.902227
0.000000 0.244110 0.967895
0.000000 0.244003 1.000000
0.000000 0.310553 0.000000
0.000000 0.310446 0.047251
0.000000 0.310314 0.112919
0.000000 0.310183 0.178586
0.000000 0.310052 0.244253
0.000000 0.309921 0.309921
0.000000 0.309789 0.375588
0.000000 0.309658 0.441255
0.000000 0.309527 0.506923
0.000000 0.309395 0.572590
0.000000 0.309264 0.638257
0.000000 0.309133 0.703925
0.000000 0.309002 0.769592
0.000000 0.308870 0.835259
0.000000 0.308739 0.900927
0.000000 0.308608 0.966594
0.000000 0.308501 1.000000
0.000000 0.375051 0.000000
0.000000 0.374944 0.045951
0.000000 0.374813 0.111618
0.000000 0.374681 0.177285
0.000000 0.374550 0.242953
0.000000 0.374419 0.308620
0.000000 0.374287 0.374287
0.000000 0.374156 0.439955
0.000000 0.374025 0.505622
0.000000 0.373894 0.571290
0.000000 0.373762 0.636957
0.000000 0.373631 0.702624
0.000000 0.373500 0.768292
0.000000 0.373368 0.833959
0.000000 0.373237 0.899626
0.000000 0.373106 0.965294
0.000000 0.372999 1.000000
0.000000 0.439549 0.000000
0.000000 0.439442 0.044650
0.000000 0.439311 0.110317
0.000000 0.439179 0.175985
0.000000 0.439048 0.241652
0.000000 0.438917 0.307320
0.000000 0.438786 0.372987
0.000000 0.438654 0.438654
0.000000 0.438523 0.504322
0.000000 0.438392 0.569989
0.000000 0.438260 0.635656
0.000000 0.438129 0.701324
0.000000 0.437998 0.766991
0.000000 0.437867 0.832658
0.000000 0.437735 0.898326
0.000000 0.437604 0.963993
0.000000 0.437497 1.000000
0.000000 0.504047 0.000000
0.000000 0.503940 0.043350
0.000000 0.503809 0.109017
0.000000 0.503678 0.174684
0.000000 0.503546 0.240352
0.000000 0.503415 0.306019
0.000000 0.503284 0.371686
0.000000 0.503152 0.437354
0.000000 0.503021 0.503021
0.000000 0.502890 0.568689
0.000000 0.502759 0.634356
0.000000 0.502627 0.700023
0.000000 0.502496 0.765691
0.000000 0.502365 0.831358
0.000000 0.502233 0.897025
0.000000 0.502102 0.962693
0.000000 0.501995 1.000000
0.000000 0.568545 0.000000
0.000000 0.568438 0.042049
0.000000 0.568307 0.107716
0.000000 0.568176 0.173384
0.000000 0.568044 0.239051
0.000000 0.567913 0.304719
0.000000 0.567782 0.370386
0.000000 0.567651 0.436053
0.000000 0.567519 0.501721
0.000000 0.567388 0.567388
0.000000 0.567257 0.633055
0.000000 0.567125 0.698723
0.000000 0.566994 0.764390
0.000000 0.566863 0.830057
0.000000 0.566732 0.895725
0.000000 0.566600 0.961392
0.000000 0.566493 1.000000
0.000000 0.633043 0.000000
0.000000 0.632936 0.040749
0.000000 0.632805 0.106416
0.000000 0.632674 0.172083
0.000000 0.632543 0.237751
0.000000 0.632411 0.303418
0.000000 0.632280 0.369085
0.000000 0.632149 0.434753
0.000000 0.632017 0.500420
0.000000 0.631886 0.566088
0.000000 0.631755 0.631755
0.000000 0.631624 0.697422
0.000000 0.631492 0.763090
0.000000 0.631361 0.828757
0.000000 0.631230 0.894424
0.000000 0.631098 0.960092
0.000000 0.630991 1.000000
0.000000 0.697542 0.000000
0.000000 0.697435 0.039448
0.000000 0.697303 0.105115
0.000000 0.697172 0.170783
0.000000 0.697041 0.236450
0.000000 0.696909 0.302118
0.000000 0.696778 0.367785
0.000000 0.696647 0.433452
0.000000 0.696516 0.499120
0.000000 0.696384 0.564787
0.000000 0.696253 0.630454
0.000000 0.696122 0.696122
0.000000 0.695990 0.761789
0.000000 0.695859 0.827456
0.000000 0.695728 0.893124
0.000000 0.695597 0.958791
0.000000 0.695490 1.000000
0.000000 0.762040 0.000000
0.000000 0.761933 0.038148
0.000000 0.761801 0.103815
0.000000 0.761670 0.169482
0.000000 0.761539 0.235150
0.000000 0.761408 0.300817
0.000000 0.761276 0.366484
0.000000 0.761145 0.432152
0.000000 0.761014 0.497819
0.000000 0.760882 0.563486
0.000000 0.760751 0.629154
0.000000 0.760620 0.694821
0.000000 0.760489 0.760489
0.000000 0.760357 0.826156
0.000000 0.760226 0.891823
0.000000 0.760095 0.957491
0.000000 0.759988 1.000000
0.000000 0.826538 0.000000
0.000000 0.826431 0.036847
0.000000 0.826300 0.102514
0.000000 0.826168 0.168182
0.000000 0.826037 0.233849
0.000000 0.825906 0.299517
0.000000 0.825774 0.365184
0.000000 0.825643 0.430851
0.000000 0.825512 0.496519
0.000000 0.825381 0.562186
0.000000 0.825249 0.627853
0.000000 0.825118 0.693521
0.000000 0.824987 0.759188
0.000000 0.824855 0.824855
0.000000 0.824724 0.890523
0.000000 0.824593 0.956190
0.000000 0.824486 1.000000
0.000000 0.891036 0.000000
0.000000 0.890929 0.035547
0.000000 0.890798 0.101214
0.000000 0.890666 0.166881
0.000000 0.890535 0.232549
0.000000 0.890404 0.298216
0.000000 0.890273 0.363883
0.000000 0.890141 0.429551
0.000000 0.890010 0.495218
0.000000 0.889879 0.560885
0.000000 0.889747 0.626553
0.000000 0.889616 0.692220
0.000000 0.889485 0.757888
0.000000 0.889354 0.823555
0.000000 0.889222 0.889222
0.000000 0.889091 0.954890
0.000000 0.888984 1.000000
0.000000 0.955534 0.000000
0.000000 0.955427 0.034246
0.000000 0.955296 0.099913
0.000000 0.955165 0.165581
0.000000 0.955033 0.231248
0.000000 0.954902 0.296916
0.000000 0.954771 0.362583
0.000000 0.954639 0.428250
0.000000 0.954508 0.493918
0.000000 0.954377 0.559585
0.000000 0.954246 0.625252
0.000000 0.954114 0.690920
0.000000 0.953983 0.756587
0.000000 0.953852 0.822254
0.000000 0.953720 0.887922
0.000000 0.953589 0.953589
0.000000 0.953482 1.000000
0.000000 1.000000 0.000000
0.000000 1.000000 0.033186
0.000000 1.000000 0.098854
0.000000 1.000000 0.164521
0.000000 1.000000 0.230188
0.000000 1.000000 0.295856
0.000000 1.000000 0.361523
0.000000 1.000000 0.427190
0.000000 1.000000 0.492858
0.000000 1.000000 0.558525
0.000000 1.000000 0.624193
0.000000 1.000000 0.689860
0.000000 1.000000 0.755527
0.000000 1.000000 0.821195
0.000000 1.000000 0.886862
0.000000 1.000000 0.952529
0.000000 1.000000 1.000000
0.053305 0.000000 0.000000
0.053198 0.000000 0.053198
0.053067 0.000000 0.118865
0.052935 0.000000 0.184533
0.052804 0.000000 0.250200
0.052673 0.000000 0.315867
0.052542 0.000000 0.381535
0.052410 0.000000 0.447202
0.052279 0.000000 0.512869
0.052148 0.000000 0.578537
0.052016 0.000000 0.644204
0.051885 0.000000 0.709872
0.051754 0.000000 0.775539
0.051623 0.000000 0.841206
0.051491 0.000000 0.906874
0.051360 0.000000 0.972541
0.051253 0.000000 1.000000
0.052245 0.052245 0.000000
0.052138 0.052138 0.052138
0.052007 0.052007 0.117806
0.051876 0.051876 0.183473
0.051744 0.051744 0.249140
0.051613 0.051613 0.314808
0.051482 0.051482 0.380475
0.051350 0.051350 0.446142
0.051219 0.051219 0.511810
0.051088 0.051088 0.577477
0.050957 0.050957 0.643144
0.050825 0.050825 0.708812
0.050694 0.050694 0.774479
0.050563 0.050563 0.840147
0.050431 0.050431 0.905814
0.050300 0.050300 0.971481
0.050193 0.050193 1.000000
0.050945 0.116743 0.000000
0.050838 0.116636 0.050838
0.050706 0.116505 0.116505
0.050575 0.116374 0.182172
0.050444 0.116242 0.247840
0.050312 0.116111 0.313507
0.050181 0.115980 0.379174
0.050050 0.115849 0.444842
0.049919 0.115717 0.510509
0.049787 0.115586 0.576177
0.049656 0.115455 0.641844
0.049525 0.115323 0.707511
0.049393 0.115192 0.773179
0.049262 0.115061 0.838846
0.049131 0.114930 0.904513
0.049000 0.114798 0.970181
0.048893 0.114691 1.000000
0.049644 0.181241 0.000000
0.049537 0.181134 0.049537
0.049406 0.181003 0.115205
0.049275 0.180872 0.180872
0.049143 0.180741 0.246539
0.049012 0.180609 0.312207
0.048881 0.180478 0.377874
0.048749 0.180347 0.443541
0.048618 0.180215 0.509209
0.048487 0.180084 0.574876
0.048356 0.179953 0.640543
0.048224 0.179822 0.706211
0.048093 0.179690 0.771878
0.047962 0.179559 0.837545
0.047830 0.179428 0.903213
0.047699 0.179296 0.968880
0.047592 0.179189 1.000000
0.048344 0.245740 0.000000
0.048237 0.245633 0.048237
0.048105 0.245501 0.113904
0.047974 0.245370 0.179571
0.047843 0.245239 0.245239
0.047711 0.245107 0.310906
0.047580 0.244976 0.376573
0.047449 0.244845 0.442241
0.047318 0.244714 0.507908
0.047186 0.244582 0.573576
0.047055 0.244451 0.639243
0.046924 0.244320 0.704910
0.046792 0.244188 0.770578
0.046661 0.244057 0.836245
0.046530 0.243926 0.901912
0.046399 0.243795 0.967580
0.046292 0.243688 1.000000
0.047043 0.310238 0.000000
0.046936 0.310131 0.046936
0.046805 0.309999 0.112603
0.046674 0.309868 0.178271
0.046542 0.309737 0.243938
0.046411 0.309606 0.309606
0.046280 0.309474 0.375273
0.046148 0.309343 0.440940
0.046017 0.309212 0.506608
0.045886 0.309080 0.572275
0.045755 0.308949 0.637942
0.045623 0.308818 0.703610
0.045492 0.308687 0.769277
0.045361 0.308555 0.834944
0.045229 0.308424 0.900612
0.045098 0.308293 0.966279
0.044991 0.308186 1.000000
0.045743 0.374736 0.000000
0.045636 0.374629 0.045636
0.045504 0.374498 0.111303
0.045373 0.374366 0.176970
0.045242 0.374235 0.242638
0.045110 0.374104 0.308305
0.044979 0.373972 0.373972
0.044848 0.373841 0.439640
0.044717 0.373710 0.505307
0.044585 0.373579 0.570975
0.044454 0.373447 0.636642
0.044323 0.373316 0.702309
0.044191 0.373185 0.767977
0.044060 0.373053 0.833644
0.043929 0.372922 0.899311
0.043798 0.372791 0.964979
0.043691 0.372684 1.000000
0.044442 0.439234 0.000000
0.044335 0.439127 0.044335
0.044204 0.438996 0.110002
0.044073 0.438864 0.175670
0.043941 0.438733 0.241337
0.043810 0.438602 0.307005
0.043679 0.438471 0.372672
0.043547 0.438339 0.438339
0.043416 0.438208 0.504007
0.043285 0.438077 0.569674
0.043154 0.437945 0.635341
0.043022 0.437814 0.701009
0.042891 0.437683 0.766676
0.042760 0.437552 0.832343
0.042628 0.437420 0.898011
0.042497 0.437289 0.963678
0.042390 0.437182 1.000000
0.043142 0.503732 0.000000
0.043035 0.503625 0.043035
0.042903 0.503494 0.108702
0.042772 0.503363 0.174369
0.042641 0.503231 0.240037
0.042509 0.503100 0.305704
0.042378 0.502969 0.371371
0.042247 0.502837 0.437039
0.042116 0.502706 0.502706
0.041984 0.502575 0.568373
0.041853 0.502444 0.634041
0.041722 0.502312 0.699708
0.041590 0.502181 0.765376
0.041459 0.502050 0.831043
0.041328 0.501918 0.896710
0.041197 0.501787 0.962378
0.041090 0.501680 1.000000
0.041841 0.568230 0.000000
0.041734 0.568123 0.041734
0.041603 0.567992 0.107401
0.041472 0.567861 0.173069
0.041340 0.567729 0.238736
0.041209 0.567598 0.304404
0.041078 0.567467 0.370071
0.040946 0.567336 0.435738
0.040815 0.567204 0.501406
0.040684 0.567073 0.567073
0.040552 0.566942 0.632740
0.040421 0.566810 0.698408
0.040290 0.566679 0.764075
0.040159 0.566548 0.829742
0.040027 0.566417 0.895410
0.039896 0.566285 0.961077
0.039789 0.566178 1.000000
0.040541 0.632728 0.000000
0.040434 0.632621 0.040434
0.040302 0.632490 0.106101
0.040171 0.632359 0.171768
0.040040 0.632228 0.237436
0.039908 0.632096 0.303103
0.039777 0.631965 0.368770
0.039646 0.631834 0.434438
0.039515 0.631702 0.500105
0.039383 0.631571 0.565772
0.039252 0.631440 0.631440
0.039121 0.631309 0.697107
0.038989 0.631177 0.762775
0.038858 0.631046 0.828442
0.038727 0.630915 0.894109
0.038596 0.630783 0.959777
0.038489 0.630676 1.000000
0.039240 0.697227 0.000000
0.039133 0.697120 0.039133
0.039002 0.696988 0.104800
0.038870 0.696857 0.170468
0.038739 0.696726 0.236135
0.038608 0.696594 0.301803
0.038477 0.696463 0.367470
0.038345 0.696332 0.433137
0.038214 0.696201 0.498805
0.038083 0.696069 0.564472
0.037951 0.695938 0.630139
0.037820 0.695807 0.695807
0.037689 0.695675 0.761474
0.037558 0.695544 0.827141
0.037426 0.695413 0.892809
0.037295 0.695282 0.958476
0.037188 0.695175 1.000000
0.037940 0.761725 0.000000
0.037833 0.761618 0.037833
0.037701 0.761486 0.103500
0.037570 0.761355 0.169167
0.037439 0.761224 0.234835
0.037307 0.761093 0.300502
0.037176 0.760961 0.366169
0.037045 0.760830 0.431837
0.036914 0.760699 0.497504
0.036782 0.760567 0.563171
0.036651 0.760436 0.628839
0.036520 0.760305 0.694506
0.036388 0.760174 0.760174
0.036257 0.760042 0.825841
0.036126 0.759911 0.891508
0.035995 0.759780 0.957176
0.035888 0.759673 1.000000
0.036639 0.826223 0.000000
0.036532 0.826116 0.036532
0.036401 0.825985 0.102199
0.036269 0.825853 0.167867
0.036138 0.825722 0.233534
0.036007 0.825591 0.299201
0.035876 0.825459 0.364869
0.035744 0.825328 0.430536
0.035613 0.825197 0.496204
0.035482 0.825066 0.561871
0.035350 0.824934 0.627538
0.035219 0.824803 0.693206
0.035088 0.824672 0.758873
0.034957 0.824540 0.824540
0.034825 0.824409 0.890208
0.034694 0.824278 0.955875
0.034587 0.824171 1.000000
0.035339 0.890721 0.000000
0.035232 0.890614 0.035232
0.035100 0.890483 0.100899
0.034969 0.890351 0.166566
0.034838 0.890220 0.232234
0.034706 0.890089 0.297901
0.034575 0.889958 0.363568
0.034444 0.889826 0.429236
0.034313 0.889695 0.494903
0.034181 0.889564 0.560570
0.034050 0.889432 0.626238
0.033919 0.889301 0.691905
0.033787 0.889170 0.757573
0.033656 0.889039 0.823240
0.033525 0.888907 0.888907
0.033394 0.888776 0.954575
0.033287 0.888669 1.000000
0.034038 0.955219 0.000000
0.033931 0.955112 0.033931
0.033800 0.954981 0.099598
0.033668 0.954850 0.165266
0.033537 0.954718 0.230933
0.033406 0.954587 0.296600
0.033275 0.954456 0.362268
0.033143 0.954324 0.427935
0.033012 0.954193 0.493603
0.032881 0.954062 0.559270
0.032749 0.953931 0.624937
0.032618 0.953799 0.690605
0.032487 0.953668 0.756272
0.032356 0.953537 0.821939
0.032224 0.953405 0.887607
0.032093 0.953274 0.953274
0.031986 0.953167 1.000000
0.032978 1.000000 0.000000
0.032871 1.000000 0.032871
0.032740 1.000000 0.098539
0.032609 1.000000 0.164206
0.032477 1.000000 0.229873
0.032346 1.000000 0.295541
0.032215 1.000000 0.361208
0.032083 1.000000 0.426875
0.031952 1.000000 0.492543
0.031821 1.000000 0.558210
0.031690 1.000000 0.623877
0.031558 1.000000 0.689545
0.031427 1.000000 0.755212
0.031296 1.000000 0.820880
0.031164 1.000000 0.886547
0.031033 1.000000 0.952214
0.030926 1.000000 1.000000
0.118717 0.000000 0.000000
0.118610 0.000000 0.052811
0.118479 0.000000 0.118479
0.118347 0.000000 0.184146
0.118216 0.000000 0.249813
0.118085 0.000000 0.315481
0.117954 0.000000 0.381148
0.117822 0.000000 0.446816
0.117691 0.000000 0.512483
0.117560 0.000000 0.578150
0.117428 0.000000 0.643818
0.117297 0.000000 0.709485
0.117166 0.000000 0.775152
0.117035 0.000000 0.840820
0.116903 0.000000 0.906487
0.116772 0.000000 0.972154
0.116665 0.000000 1.000000
0.117657 0.051859 0.000000
0.117550 0.051752 0.051752
0.117419 0.051620 0.117419
0.117288 0.051489 0.183086
0.117156 0.051358 0.248754
0.117025 0.051226 0.314421
0.116894 0.051095 0.380088
0.116762 0.050964 0.445756
0.116631 0.050833 0.511423
0.116500 0.050701 0.577090
0.116369 0.050570 0.642758
0.116237 0.050439 0.708425
0.116106 0.050307 0.774093
0.115975 0.050176 0.839760
0.115843 0.050045 0.905427
0.115712 0.049914 0.971095
0.115605 0.049807 1.000000
0.116357 0.116357 0.000000
0.116250 0.116250 0.050451
0.116118 0.116118 0.116118
0.115987 0.115987 0.181786
0.115856 0.115856 0.247453
0.115725 0.115725 0.313121
0.115593 0.115593 0.378788
0.115462 0.115462 0.444455
0.115331 0.115331 0.510123
0.115199 0.115199 0.575790
0.115068 0.115068 0.641457
0.114937 0.114937 0.707125
0.114806 0.114806 0.772792
0.114674 0.114674 0.838459
0.114543 0.114543 0.904127
0.114412 0.114412 0.969794
0.114305 0.114305 1.000000
0.115056 0.180855 0.000000
0.114949 0.180748 0.049151
0.114818 0.180617 0.114818
0.114687 0.180485 0.180485
0.114555 0.180354 0.246153
0.114424 0.180223 0.311820
0.114293 0.180091 0.377487
0.114161 0.179960 0.443155
0.114030 0.179829 0.508822
0.113899 0.179698 0.574489
0.113768 0.179566 0.640157
0.113636 0.179435 0.705824
0.113505 0.179304 0.771492
0.113374 0.179172 0.837159
0.113242 0.179041 0.902826
0.113111 0.178910 0.968494
0.113004 0.178803 1.000000
0.113756 0.245353 0.000000
0.113649 0.245246 0.047850
0.113517 0.245115 0.113517
0.113386 0.244983 0.179185
0.113255 0.244852 0.244852
0.113124 0.244721 0.310519
0.112992 0.244590 0.376187
0.112861 0.244458 0.441854
0.112730 0.244327 0.507522
0.112598 0.244196 0.573189
0.112467 0.244064 0.638856
0.112336 0.243933 0.704524
0.112205 0.243802 0.770191
0.112073 0.243671 0.835858
0.111942 0.243539 0.901526
0.111811 0.243408 0.967193
0.111704 0.243301 1.000000
0.112455 0.309851 0.000000
0.112348 0.309744 0.046550
0.112217 0.309613 0.112217
0.112086 0.309482 0.177884
0.111954 0.309350 0.243552
0.111823 0.309219 0.309219
0.111692 0.309088 0.374886
0.111560 0.308956 0.440554
0.111429 0.308825 0.506221
0.111298 0.308694 0.571888
0.111167 0.308563 0.637556
0.111035 0.308431 0.703223
0.110904 0.308300 0.768891
0.110773 0.308169 0.834558
0.110641 0.308037 0.900225
0.110510 0.307906 0.965893
0.110403 0.307799 1.000000
0.111155 0.374349 0.000000
0.111048 0.374242 0.045249
0.110916 0.374111 0.110916
0.110785 0.373980 0.176584
0.110654 0.373848 0.242251
0.110523 0.373717 0.307918
0.110391 0.373586 0.373586
0.110260 0.373455 0.439253
0.110129 0.373323 0.504921
0.109997 0.373192 0.570588
0.109866 0.373061 0.636255
0.109735 0.372929 0.701923
0.109604 0.372798 0.767590
0.109472 0.372667 0.833257
0.109341 0.372536 0.898925
0.109210 0.372404 0.964592
0.109103 0.372297 1.000000
0.109854 0.438847 0.000000
0.109747 0.438740 0.043949
0.109616 0.438609 0.109616
0.109485 0.438478 0.175283
0.109353 0.438347 0.240951
0.109222 0.438215 0.306618
0.109091 0.438084 0.372285
0.108959 0.437953 0.437953
0.108828 0.437821 0.503620
0.108697 0.437690 0.569287
0.108566 0.437559 0.634955
0.108434 0.437428 0.700622
0.108303 0.437296 0.766289
0.108172 0.437165 0.831957
0.108040 0.437034 0.897624
0.107909 0.436902 0.963292
0.107802 0.436795 1.000000
0.108554 0.503346 0.000000
0.108447 0.503239 0.042648
0.108315 0.503107 0.108315
0.108184 0.502976 0.173983
0.108053 0.502845 0.239650
0.107921 0.502713 0.305317
0.107790 0.502582 0.370985
0.107659 0.502451 0.436652
0.107528 0.502320 0.502320
0.107396 0.502188 0.567987
0.107265 0.502057 0.633654
0.107134 0.501926 0.699322
0.107002 0.501794 0.764989
0.106871 0.501663 0.830656
0.106740 0.501532 0.896324
0.106609 0.501401 0.961991
0.106502 0.501294 1.000000
0.107253 0.567844 0.000000
0.107146 0.567737 0.041347
0.107015 0.567605 0.107015
0.106884 0.567474 0.172682
0.106752 0.567343 0.238350
0.106621 0.567212 0.304017
0.106490 0.567080 0.369684
0.106358 0.566949 0.435352
0.106227 0.566818 0.501019
0.106096 0.566686 0.566686
0.105965 0.566555 0.632354
0.105833 0.566424 0.698021
0.105702 0.566293 0.763688
0.105571 0.566161 0.829356
0.105439 0.566030 0.895023
0.105308 0.565899 0.960691
0.105201 0.565792 1.000000
0.105953 0.632342 0.000000
0.105846 0.632235 0.040047
0.105714 0.632104 0.105714
0.105583 0.631972 0.171382
0.105452 0.631841 0.237049
0.105320 0.631710 0.302716
0.105189 0.631578 0.368384
0.105058 0.631447 0.434051
0.104927 0.631316 0.499719
0.104795 0.631185 0.565386
0.104664 0.631053 0.631053
0.104533 0.630922 0.696721
0.104401 0.630791 0.762388
0.104270 0.630659 0.828055
0.104139 0.630528 0.893723
0.104008 0.630397 0.959390
0.103901 0.630290 1.000000
0.104652 0.696840 0.000000
0.104545 0.696733 0.038746
0.104414 0.696602 0.104414
0.104283 0.696470 0.170081
0.104151 0.696339 0.235749
0.104020 0.696208 0.301416
0.103889 0.696077 0.367083
0.103757 0.695945 0.432751
0.103626 0.695814 0.498418
0.103495 0.695683 0.564085
0.103364 0.695551 0.629753
0.103232 0.695420 0.695420
0.103101 0.695289 0.761087
0.102970 0.695158 0.826755
0.102838 0.695026 0.892422
0.102707 0.694895 0.958090
0.102600 0.694788 1.000000
0.103352 0.761338 0.000000
0.103245 0.761231 0.037446
0.103113 0.761100 0.103113
0.102982 0.760969 0.168781
0.102851 0.760837 0.234448
0.102719 0.760706 0.300115
0.102588 0.760575 0.365783
0.102457 0.760443 0.431450
0.102326 0.760312 0.497117
0.102194 0.760181 0.562785
0.102063 0.760050 0.628452
0.101932 0.759918 0.694120
0.101800 0.759787 0.759787
0.101669 0.759656 0.825454
0.101538 0.759524 0.891122
0.101407 0.759393 0.956789
0.101300 0.759286 1.000000
0.102051 0.825836 0.000000
0.101944 0.825729 0.036145
0.101813 0.825598 0.101813
0.101682 0.825467 0.167480
0.101550 0.825335 0.233148
0.101419 0.825204 0.298815
0.101288 0.825073 0.364482
0.101156 0.824942 0.430150
0.101025 0.824810 0.495817
0.100894 0.824679 0.561484
0.100763 0.824548 0.627152
0.100631 0.824416 0.692819
0.100500 0.824285 0.758486
0.100369 0.824154 0.824154
0.100237 0.824023 0.889821
0.100106 0.823891 0.955489
0.099999 0.823784 1.000000
0.100751 0.890334 0.000000
0.100644 0.890227 0.034845
0.100512 0.890096 0.100512
0.100381 0.889965 0.166180
0.100250 0.889834 0.231847
0.100118 0.889702 0.297514
0.099987 0.889571 0.363182
0.099856 0.889440 0.428849
0.099725 0.889308 0.494516
0.099593 0.889177 0.560184
0.099462 0.889046 0.625851
0.099331 0.888915 0.691519
0.099199 0.888783 0.757186
0.099068 0.888652 0.822853
0.098937 0.888521 0.888521
0.098806 0.888389 0.954188
0.098699 0.888282 1.000000
0.099450 0.954833 0.000000
0.099343 0.954726 0.033544
0.099212 0.954594 0.099212
0.099081 0.954463 0.164879
0.098949 0.954332 0.230547
0.098818 0.954200 0.296214
0.098687 0.954069 0.361881
0.098555 0.953938 0.427549
0.098424 0.953807 0.493216
0.098293 0.953675 0.558883
0.098161 0.953544 0.624551
0.098030 0.953413 0.690218
0.097899 0.953281 0.755885
0.097768 0.953150 0.821553
0.097636 0.953019 0.887220
0.097505 0.952887 0.952887
0.097398 0.952781 1.000000
0.098390 1.000000 0.000000
0.098283 1.000000 0.032485
0.098152 1.000000 0.098152
0.098021 1.000000 0.163819
0.097889 1.000000 0.229487
0.097758 1.000000 0.295154
0.097627 1.000000 0.360821
0.097496 1.000000 0.426489
0.097364 1.000000 0.492156
0.097233 1.000000 0.557824
0.097102 1.000000 0.623491
0.096970 1.000000 0.689158
0.096839 1.000000 0.754826
0.096708 1.000000 0.820493
0.096577 1.000000 0.886160
0.096445 1.000000 0.951828
0.096338 1.000000 1.000000
0.184129 0.000000 0.000000
0.184022 0.000000 0.052425
0.183891 0.000000 0.118092
0.183760 0.000000 0.183760
0.183628 0.000000 0.249427
0.183497 0.000000 0.315094
0.183366 0.000000 0.380762
0.183234 0.000000 0.446429
0.183103 0.000000 0.512096
0.182972 0.000000 0.577764
0.182840 0.000000 0.643431
0.182709 0.000000 0.709098
0.182578 0.000000 0.774766
0.182447 0.000000 0.840433
0.182315 0.000000 0.906100
0.182184 0.000000 0.971768
0.182077 0.000000 1.000000
0.183069 0.051472 0.000000
