skills/editops-orchestrator/assets/grade/luts/product_clean_v18.cube
TITLE "product_clean_v18"
LUT_3D_SIZE 5
DOMAIN_MIN 0.0 0.0 0.0
DOMAIN_MAX 1.0 1.0 1.0
0.000000 0.000000 0.000000
0.000000 0.000000 0.250711
0.000000 0.000000 0.524904
0.000000 0.000000 0.799097
0.000000 0.000000 1.000000
0.000000 0.242467 0.000000
0.000000 0.241541 0.241541
0.000000 0.240529 0.515735
0.000000 0.239517 0.789928
0.000000 0.238591 1.000000
0.000000 0.507645 0.000000
0.000000 0.506719 0.231513
0.000000 0.505707 0.505707
0.000000 0.504694 0.779900
0.000000 0.503769 1.000000
0.000000 0.772822 0.000000
0.000000 0.771897 0.221485
0.000000 0.770884 0.495678
0.000000 0.769872 0.769872
0.000000 0.768946 1.000000
0.000000 1.000000 0.000000
0.000000 1.000000 0.212316
0.000000 1.000000 0.486509
0.000000 1.000000 0.760702
0.000000 1.000000 1.000000
0.248911 0.000000 0.000000
0.247985 0.000000 0.247985
0.246973 0.000000 0.522178
0.245960 0.000000 0.796372
0.245035 0.000000 1.000000
0.239741 0.239741 0.000000
0.238816 0.238816 0.238816
0.237803 0.237803 0.513009
0.236791 0.236791 0.787202
0.235865 0.235865 1.000000
0.229713 0.504919 0.000000
0.228788 0.503993 0.228788
0.227775 0.502981 0.502981
0.226763 0.501969 0.777174
0.225837 0.501043 1.000000
0.219685 0.770096 0.000000
0.218759 0.769171 0.218759
0.217747 0.768158 0.492953
0.216735 0.767146 0.767146
0.215809 0.766220 1.000000
0.210516 1.000000 0.000000
0.209590 1.000000 0.209590
0.208578 1.000000 0.483783
0.207565 1.000000 0.757977
0.206640 1.000000 1.000000
0.521135 0.000000 0.000000
0.520210 0.000000 0.245004
0.519197 0.000000 0.519197
0.518185 0.000000 0.793391
0.517259 0.000000 1.000000
0.511966 0.236760 0.000000
0.511041 0.235835 0.235835
0.510028 0.234822 0.510028
0.509016 0.233810 0.784221
0.508090 0.232884 1.000000
0.501938 0.501938 0.000000
0.501012 0.501012 0.225807
0.500000 0.500000 0.500000
0.498988 0.498988 0.774193
0.498062 0.498062 1.000000
0.491910 0.767116 0.000000
0.490984 0.766190 0.215779
0.489972 0.765178 0.489972
0.488959 0.764165 0.764165
0.488034 0.763240 1.000000
0.482741 1.000000 0.000000
0.481815 1.000000 0.206609
0.480803 1.000000 0.480803
0.479790 1.000000 0.754996
0.478865 1.000000 1.000000
0.793360 0.000000 0.000000
0.792435 0.000000 0.242023
0.791422 0.000000 0.516217
0.790410 0.000000 0.790410
0.789484 0.000000 1.000000
0.784191 0.233780 0.000000
0.783265 0.232854 0.232854
0.782253 0.231842 0.507047
0.781241 0.230829 0.781241
0.780315 0.229904 1.000000
0.774163 0.498957 0.000000
0.773237 0.498031 0.222826
0.772225 0.497019 0.497019
0.771212 0.496007 0.771212
0.770287 0.495081 1.000000
0.764135 0.764135 0.000000
0.763209 0.763209 0.212798
0.762197 0.762197 0.486991
0.761184 0.761184 0.761184
0.760259 0.760259 1.000000
0.754965 1.000000 0.000000
0.754040 1.000000 0.203628
0.753027 1.000000 0.477822
0.752015 1.000000 0.752015
0.751089 1.000000 1.000000
1.000000 0.000000 0.000000
1.000000 0.000000 0.239298
1.000000 0.000000 0.513491
1.000000 0.000000 0.787684
1.000000 0.000000 1.000000
1.000000 0.231054 0.000000
1.000000 0.230128 0.230128
1.000000 0.229116 0.504322
1.000000 0.228103 0.778515
1.000000 0.227178 1.000000
1.000000 0.496231 0.000000
1.000000 0.495306 0.220100
1.000000 0.494293 0.494293
1.000000 0.493281 0.768487
1.000000 0.492355 1.000000
1.000000 0.761409 0.000000
1.000000 0.760483 0.210072
1.000000 0.759471 0.484265
1.000000 0.758459 0.758459
1.000000 0.757533 1.000000
1.000000 1.000000 0.000000
1.000000 1.000000 0.200903
1.000000 1.000000 0.475096
1.000000 1.000000 0.749289
1.000000 1.000000 1.000000
