skills/editops-orchestrator/assets/grade/luts/product_clean_v06.cube
TITLE "product_clean_v06"
LUT_3D_SIZE 5
DOMAIN_MIN 0.0 0.0 0.0
DOMAIN_MAX 1.0 1.0 1.0
0.000000 0.000000 0.000000
0.000000 0.000000 0.250325
0.000000 0.000000 0.507325
0.000000 0.000000 0.764325
0.000000 0.000000 1.000000
0.000000 0.247820 0.000000
0.000000 0.247539 0.247539
0.000000 0.247250 0.504539
0.000000 0.246961 0.761539
0.000000 0.246680 1.000000
0.000000 0.502248 0.000000
0.000000 0.501967 0.244678
0.000000 0.501678 0.501678
0.000000 0.501390 0.758678
0.000000 0.501108 1.000000
0.000000 0.756677 0.000000
0.000000 0.756396 0.241818
0.000000 0.756107 0.498818
0.000000 0.755818 0.755818
0.000000 0.755537 1.000000
0.000000 1.000000 0.000000
0.000000 1.000000 0.239032
0.000000 1.000000 0.496032
0.000000 1.000000 0.753032
0.000000 1.000000 1.000000
0.249778 0.000000 0.000000
0.249497 0.000000 0.249497
0.249208 0.000000 0.506497
0.248919 0.000000 0.763497
0.248638 0.000000 1.000000
0.246992 0.246992 0.000000
0.246711 0.246711 0.246711
0.246422 0.246422 0.503711
0.246133 0.246133 0.760711
0.245852 0.245852 1.000000
0.244131 0.501420 0.000000
0.243850 0.501139 0.243850
0.243561 0.500850 0.500850
0.243273 0.500562 0.757850
0.242991 0.500280 1.000000
0.241271 0.755849 0.000000
0.240990 0.755567 0.240990
0.240701 0.755279 0.497990
0.240412 0.754990 0.754990
0.240131 0.754709 1.000000
0.238485 1.000000 0.000000
0.238204 1.000000 0.238204
0.237915 1.000000 0.495204
0.237626 1.000000 0.752204
0.237345 1.000000 1.000000
0.506216 0.000000 0.000000
0.505935 0.000000 0.248646
0.505646 0.000000 0.505646
0.505358 0.000000 0.762646
0.505076 0.000000 1.000000
0.503430 0.246142 0.000000
0.503149 0.245860 0.245860
0.502860 0.245572 0.502860
0.502572 0.245283 0.759860
0.502290 0.245002 1.000000
0.500570 0.500570 0.000000
0.500289 0.500289 0.243000
0.500000 0.500000 0.500000
0.499711 0.499711 0.757000
0.499430 0.499430 1.000000
0.497710 0.754998 0.000000
0.497428 0.754717 0.240140
0.497140 0.754428 0.497140
0.496851 0.754140 0.754140
0.496570 0.753858 1.000000
0.494924 1.000000 0.000000
0.494642 1.000000 0.237354
0.494354 1.000000 0.494354
0.494065 1.000000 0.751354
0.493784 1.000000 1.000000
0.762655 0.000000 0.000000
0.762374 0.000000 0.247796
0.762085 0.000000 0.504796
0.761796 0.000000 0.761796
0.761515 0.000000 1.000000
0.759869 0.245291 0.000000
0.759588 0.245010 0.245010
0.759299 0.244721 0.502010
0.759010 0.244433 0.759010
0.758729 0.244151 1.000000
0.757009 0.499720 0.000000
0.756727 0.499438 0.242150
0.756439 0.499150 0.499150
0.756150 0.498861 0.756150
0.755869 0.498580 1.000000
0.754148 0.754148 0.000000
0.753867 0.753867 0.239289
0.753578 0.753578 0.496289
0.753289 0.753289 0.753289
0.753008 0.753008 1.000000
0.751362 1.000000 0.000000
0.751081 1.000000 0.236503
0.750792 1.000000 0.493503
0.750503 1.000000 0.750503
0.750222 1.000000 1.000000
1.000000 0.000000 0.000000
1.000000 0.000000 0.246968
1.000000 0.000000 0.503968
1.000000 0.000000 0.760968
1.000000 0.000000 1.000000
1.000000 0.244463 0.000000
1.000000 0.244182 0.244182
1.000000 0.243893 0.501182
1.000000 0.243604 0.758182
1.000000 0.243323 1.000000
1.000000 0.498892 0.000000
1.000000 0.498610 0.241322
1.000000 0.498322 0.498322
1.000000 0.498033 0.755322
1.000000 0.497752 1.000000
1.000000 0.753320 0.000000
1.000000 0.753039 0.238461
1.000000 0.752750 0.495461
1.000000 0.752461 0.752461
1.000000 0.752180 1.000000
1.000000 1.000000 0.000000
1.000000 1.000000 0.235675
1.000000 1.000000 0.492675
1.000000 1.000000 0.749675
1.000000 1.000000 1.000000
