skills/editops-orchestrator/assets/grade/luts/product_clean_v07.cube
TITLE "product_clean_v07"
LUT_3D_SIZE 17
DOMAIN_MIN 0.0 0.0 0.0
DOMAIN_MAX 1.0 1.0 1.0
0.000000 0.000000 0.000000
0.000000 0.000000 0.056569
0.000000 0.000000 0.121172
0.000000 0.000000 0.185775
0.000000 0.000000 0.250378
0.000000 0.000000 0.314981
0.000000 0.000000 0.379584
0.000000 0.000000 0.444187
0.000000 0.000000 0.508790
0.000000 0.000000 0.573393
0.000000 0.000000 0.637995
0.000000 0.000000 0.702598
0.000000 0.000000 0.767201
0.000000 0.000000 0.831804
0.000000 0.000000 0.896407
0.000000 0.000000 0.961010
0.000000 0.000000 1.000000
0.000000 0.055892 0.000000
0.000000 0.055816 0.055816
0.000000 0.055729 0.120419
0.000000 0.055642 0.185022
0.000000 0.055555 0.249625
0.000000 0.055469 0.314228
0.000000 0.055382 0.378831
0.000000 0.055295 0.443433
0.000000 0.055208 0.508036
0.000000 0.055121 0.572639
0.000000 0.055034 0.637242
0.000000 0.054948 0.701845
0.000000 0.054861 0.766448
0.000000 0.054774 0.831051
0.000000 0.054687 0.895654
0.000000 0.054600 0.960257
0.000000 0.054524 1.000000
0.000000 0.119722 0.000000
0.000000 0.119645 0.054956
0.000000 0.119559 0.119559
0.000000 0.119472 0.184162
0.000000 0.119385 0.248764
0.000000 0.119298 0.313367
0.000000 0.119211 0.377970
0.000000 0.119124 0.442573
0.000000 0.119038 0.507176
0.000000 0.118951 0.571779
0.000000 0.118864 0.636382
0.000000 0.118777 0.700985
0.000000 0.118690 0.765588
0.000000 0.118603 0.830191
0.000000 0.118516 0.894793
0.000000 0.118430 0.959396
0.000000 0.118354 1.000000
0.000000 0.183551 0.000000
0.000000 0.183475 0.054095
0.000000 0.183388 0.118698
0.000000 0.183301 0.183301
0.000000 0.183214 0.247904
0.000000 0.183128 0.312507
0.000000 0.183041 0.377110
0.000000 0.182954 0.441713
0.000000 0.182867 0.506316
0.000000 0.182780 0.570919
0.000000 0.182693 0.635522
0.000000 0.182606 0.700124
0.000000 0.182520 0.764727
0.000000 0.182433 0.829330
0.000000 0.182346 0.893933
0.000000 0.182259 0.958536
0.000000 0.182183 1.000000
0.000000 0.247380 0.000000
0.000000 0.247304 0.053235
0.000000 0.247217 0.117838
0.000000 0.247131 0.182441
0.000000 0.247044 0.247044
0.000000 0.246957 0.311647
0.000000 0.246870 0.376250
0.000000 0.246783 0.440852
0.000000 0.246696 0.505455
0.000000 0.246610 0.570058
0.000000 0.246523 0.634661
0.000000 0.246436 0.699264
0.000000 0.246349 0.763867
0.000000 0.246262 0.828470
0.000000 0.246175 0.893073
0.000000 0.246088 0.957676
0.000000 0.246012 1.000000
0.000000 0.311210 0.000000
0.000000 0.311134 0.052375
0.000000 0.311047 0.116978
0.000000 0.310960 0.181581
0.000000 0.310873 0.246183
0.000000 0.310786 0.310786
0.000000 0.310700 0.375389
0.000000 0.310613 0.439992
0.000000 0.310526 0.504595
0.000000 0.310439 0.569198
0.000000 0.310352 0.633801
0.000000 0.310265 0.698404
0.000000 0.310178 0.763007
0.000000 0.310092 0.827610
0.000000 0.310005 0.892212
0.000000 0.309918 0.956815
0.000000 0.309842 1.000000
0.000000 0.375039 0.000000
0.000000 0.374963 0.051514
0.000000 0.374876 0.116117
0.000000 0.374789 0.180720
0.000000 0.374703 0.245323
0.000000 0.374616 0.309926
0.000000 0.374529 0.374529
0.000000 0.374442 0.439132
0.000000 0.374355 0.503735
0.000000 0.374268 0.568338
0.000000 0.374182 0.632941
0.000000 0.374095 0.697543
0.000000 0.374008 0.762146
0.000000 0.373921 0.826749
0.000000 0.373834 0.891352
0.000000 0.373747 0.955955
0.000000 0.373671 1.000000
0.000000 0.438869 0.000000
0.000000 0.438793 0.050654
0.000000 0.438706 0.115257
0.000000 0.438619 0.179860
0.000000 0.438532 0.244463
0.000000 0.438445 0.309066
0.000000 0.438358 0.373669
0.000000 0.438272 0.438272
0.000000 0.438185 0.502874
0.000000 0.438098 0.567477
0.000000 0.438011 0.632080
0.000000 0.437924 0.696683
0.000000 0.437837 0.761286
0.000000 0.437750 0.825889
0.000000 0.437664 0.890492
0.000000 0.437577 0.955095
0.000000 0.437501 1.000000
0.000000 0.502698 0.000000
0.000000 0.502622 0.049794
0.000000 0.502535 0.114397
0.000000 0.502448 0.179000
0.000000 0.502362 0.243603
0.000000 0.502275 0.308205
0.000000 0.502188 0.372808
0.000000 0.502101 0.437411
0.000000 0.502014 0.502014
0.000000 0.501927 0.566617
0.000000 0.501840 0.631220
0.000000 0.501754 0.695823
0.000000 0.501667 0.760426
0.000000 0.501580 0.825029
0.000000 0.501493 0.889632
0.000000 0.501406 0.954234
0.000000 0.501330 1.000000
0.000000 0.566528 0.000000
0.000000 0.566451 0.048933
0.000000 0.566365 0.113536
0.000000 0.566278 0.178139
0.000000 0.566191 0.242742
0.000000 0.566104 0.307345
0.000000 0.566017 0.371948
0.000000 0.565930 0.436551
0.000000 0.565844 0.501154
0.000000 0.565757 0.565757
0.000000 0.565670 0.630360
0.000000 0.565583 0.694962
0.000000 0.565496 0.759565
0.000000 0.565409 0.824168
0.000000 0.565322 0.888771
0.000000 0.565236 0.953374
0.000000 0.565160 1.000000
0.000000 0.630357 0.000000
0.000000 0.630281 0.048073
0.000000 0.630194 0.112676
0.000000 0.630107 0.177279
0.000000 0.630020 0.241882
0.000000 0.629934 0.306485
0.000000 0.629847 0.371088
0.000000 0.629760 0.435691
0.000000 0.629673 0.500293
0.000000 0.629586 0.564896
0.000000 0.629499 0.629499
0.000000 0.629412 0.694102
0.000000 0.629326 0.758705
0.000000 0.629239 0.823308
0.000000 0.629152 0.887911
0.000000 0.629065 0.952514
0.000000 0.628989 1.000000
0.000000 0.694186 0.000000
0.000000 0.694110 0.047213
0.000000 0.694023 0.111816
0.000000 0.693937 0.176419
0.000000 0.693850 0.241022
0.000000 0.693763 0.305624
0.000000 0.693676 0.370227
0.000000 0.693589 0.434830
0.000000 0.693502 0.499433
0.000000 0.693416 0.564036
0.000000 0.693329 0.628639
0.000000 0.693242 0.693242
0.000000 0.693155 0.757845
0.000000 0.693068 0.822448
0.000000 0.692981 0.887051
0.000000 0.692894 0.951653
0.000000 0.692818 1.000000
0.000000 0.758016 0.000000
0.000000 0.757940 0.046353
0.000000 0.757853 0.110955
0.000000 0.757766 0.175558
0.000000 0.757679 0.240161
0.000000 0.757592 0.304764
0.000000 0.757506 0.369367
0.000000 0.757419 0.433970
0.000000 0.757332 0.498573
0.000000 0.757245 0.563176
0.000000 0.757158 0.627779
0.000000 0.757071 0.692382
0.000000 0.756984 0.756984
0.000000 0.756898 0.821587
0.000000 0.756811 0.886190
0.000000 0.756724 0.950793
0.000000 0.756648 1.000000
0.000000 0.821845 0.000000
0.000000 0.821769 0.045492
0.000000 0.821682 0.110095
0.000000 0.821596 0.174698
0.000000 0.821509 0.239301
0.000000 0.821422 0.303904
0.000000 0.821335 0.368507
0.000000 0.821248 0.433110
0.000000 0.821161 0.497713
0.000000 0.821074 0.562315
0.000000 0.820988 0.626918
0.000000 0.820901 0.691521
0.000000 0.820814 0.756124
0.000000 0.820727 0.820727
0.000000 0.820640 0.885330
0.000000 0.820553 0.949933
0.000000 0.820477 1.000000
0.000000 0.885675 0.000000
0.000000 0.885599 0.044632
0.000000 0.885512 0.109235
0.000000 0.885425 0.173838
0.000000 0.885338 0.238441
0.000000 0.885251 0.303043
0.000000 0.885164 0.367646
0.000000 0.885078 0.432249
0.000000 0.884991 0.496852
0.000000 0.884904 0.561455
0.000000 0.884817 0.626058
0.000000 0.884730 0.690661
0.000000 0.884643 0.755264
0.000000 0.884556 0.819867
0.000000 0.884470 0.884470
0.000000 0.884383 0.949072
0.000000 0.884307 1.000000
0.000000 0.949504 0.000000
0.000000 0.949428 0.043772
0.000000 0.949341 0.108374
0.000000 0.949254 0.172977
0.000000 0.949168 0.237580
0.000000 0.949081 0.302183
0.000000 0.948994 0.366786
0.000000 0.948907 0.431389
0.000000 0.948820 0.495992
0.000000 0.948733 0.560595
0.000000 0.948646 0.625198
0.000000 0.948560 0.689801
0.000000 0.948473 0.754403
0.000000 0.948386 0.819006
0.000000 0.948299 0.883609
0.000000 0.948212 0.948212
0.000000 0.948136 1.000000
0.000000 1.000000 0.000000
0.000000 1.000000 0.043018
0.000000 1.000000 0.107621
0.000000 1.000000 0.172224
0.000000 1.000000 0.236827
0.000000 1.000000 0.301430
0.000000 1.000000 0.366033
0.000000 1.000000 0.430636
0.000000 1.000000 0.495239
0.000000 1.000000 0.559841
0.000000 1.000000 0.624444
0.000000 1.000000 0.689047
0.000000 1.000000 0.753650
0.000000 1.000000 0.818253
0.000000 1.000000 0.882856
0.000000 1.000000 0.947459
0.000000 1.000000 1.000000
0.056421 0.000000 0.000000
0.056345 0.000000 0.056345
0.056259 0.000000 0.120948
0.056172 0.000000 0.185551
0.056085 0.000000 0.250154
0.055998 0.000000 0.314757
0.055911 0.000000 0.379360
0.055824 0.000000 0.443963
0.055737 0.000000 0.508566
0.055651 0.000000 0.573169
0.055564 0.000000 0.637772
0.055477 0.000000 0.702374
0.055390 0.000000 0.766977
0.055303 0.000000 0.831580
0.055216 0.000000 0.896183
0.055130 0.000000 0.960786
0.055053 0.000000 1.000000
0.055668 0.055668 0.000000
0.055592 0.055592 0.055592
0.055505 0.055505 0.120195
0.055418 0.055418 0.184798
0.055332 0.055332 0.249401
0.055245 0.055245 0.314004
0.055158 0.055158 0.378607
0.055071 0.055071 0.443210
0.054984 0.054984 0.507812
0.054897 0.054897 0.572415
0.054810 0.054810 0.637018
0.054724 0.054724 0.701621
0.054637 0.054637 0.766224
0.054550 0.054550 0.830827
0.054463 0.054463 0.895430
0.054376 0.054376 0.960033
0.054300 0.054300 1.000000
0.054808 0.119498 0.000000
0.054732 0.119422 0.054732
0.054645 0.119335 0.119335
0.054558 0.119248 0.183938
0.054471 0.119161 0.248540
0.054384 0.119074 0.313143
0.054298 0.118987 0.377746
0.054211 0.118900 0.442349
0.054124 0.118814 0.506952
0.054037 0.118727 0.571555
0.053950 0.118640 0.636158
0.053863 0.118553 0.700761
0.053776 0.118466 0.765364
0.053690 0.118379 0.829967
0.053603 0.118292 0.894569
0.053516 0.118206 0.959172
0.053440 0.118130 1.000000
0.053948 0.183327 0.000000
0.053871 0.183251 0.053871
0.053785 0.183164 0.118474
0.053698 0.183077 0.183077
0.053611 0.182990 0.247680
0.053524 0.182904 0.312283
0.053437 0.182817 0.376886
0.053350 0.182730 0.441489
0.053264 0.182643 0.506092
0.053177 0.182556 0.570695
0.053090 0.182469 0.635298
0.053003 0.182382 0.699900
0.052916 0.182296 0.764503
0.052829 0.182209 0.829106
0.052742 0.182122 0.893709
0.052656 0.182035 0.958312
0.052580 0.181959 1.000000
0.053087 0.247156 0.000000
0.053011 0.247080 0.053011
0.052924 0.246994 0.117614
0.052837 0.246907 0.182217
0.052751 0.246820 0.246820
0.052664 0.246733 0.311423
0.052577 0.246646 0.376026
0.052490 0.246559 0.440629
0.052403 0.246472 0.505231
0.052316 0.246386 0.569834
0.052229 0.246299 0.634437
0.052143 0.246212 0.699040
0.052056 0.246125 0.763643
0.051969 0.246038 0.828246
0.051882 0.245951 0.892849
0.051795 0.245864 0.957452
0.051719 0.245788 1.000000
0.052227 0.310986 0.000000
0.052151 0.310910 0.052151
0.052064 0.310823 0.116754
0.051977 0.310736 0.181357
0.051890 0.310649 0.245960
0.051803 0.310562 0.310562
0.051717 0.310476 0.375165
0.051630 0.310389 0.439768
0.051543 0.310302 0.504371
0.051456 0.310215 0.568974
0.051369 0.310128 0.633577
0.051282 0.310041 0.698180
0.051195 0.309954 0.762783
0.051109 0.309868 0.827386
0.051022 0.309781 0.891989
0.050935 0.309694 0.956591
0.050859 0.309618 1.000000
0.051367 0.374815 0.000000
0.051291 0.374739 0.051291
0.051204 0.374652 0.115893
0.051117 0.374566 0.180496
0.051030 0.374479 0.245099
0.050943 0.374392 0.309702
0.050856 0.374305 0.374305
0.050769 0.374218 0.438908
0.050683 0.374131 0.503511
0.050596 0.374044 0.568114
0.050509 0.373958 0.632717
0.050422 0.373871 0.697320
0.050335 0.373784 0.761922
0.050248 0.373697 0.826525
0.050161 0.373610 0.891128
0.050075 0.373523 0.955731
0.049999 0.373447 1.000000
0.050506 0.438645 0.000000
0.050430 0.438569 0.050430
0.050343 0.438482 0.115033
0.050256 0.438395 0.179636
0.050170 0.438308 0.244239
0.050083 0.438221 0.308842
0.049996 0.438134 0.373445
0.049909 0.438048 0.438048
0.049822 0.437961 0.502650
0.049735 0.437874 0.567253
0.049649 0.437787 0.631856
0.049562 0.437700 0.696459
0.049475 0.437613 0.761062
0.049388 0.437526 0.825665
0.049301 0.437440 0.890268
0.049214 0.437353 0.954871
0.049138 0.437277 1.000000
0.049646 0.502474 0.000000
0.049570 0.502398 0.049570
0.049483 0.502311 0.114173
0.049396 0.502224 0.178776
0.049309 0.502138 0.243379
0.049222 0.502051 0.307981
0.049136 0.501964 0.372584
0.049049 0.501877 0.437187
0.048962 0.501790 0.501790
0.048875 0.501703 0.566393
0.048788 0.501616 0.630996
0.048701 0.501530 0.695599
0.048615 0.501443 0.760202
0.048528 0.501356 0.824805
0.048441 0.501269 0.889408
0.048354 0.501182 0.954010
0.048278 0.501106 1.000000
0.048786 0.566304 0.000000
0.048710 0.566228 0.048710
0.048623 0.566141 0.113312
0.048536 0.566054 0.177915
0.048449 0.565967 0.242518
0.048362 0.565880 0.307121
0.048275 0.565793 0.371724
0.048188 0.565706 0.436327
0.048102 0.565620 0.500930
0.048015 0.565533 0.565533
0.047928 0.565446 0.630136
0.047841 0.565359 0.694739
0.047754 0.565272 0.759341
0.047667 0.565185 0.823944
0.047580 0.565098 0.888547
0.047494 0.565012 0.953150
0.047418 0.564936 1.000000
0.047925 0.630133 0.000000
0.047849 0.630057 0.047849
0.047762 0.629970 0.112452
0.047676 0.629883 0.177055
0.047589 0.629796 0.241658
0.047502 0.629710 0.306261
0.047415 0.629623 0.370864
0.047328 0.629536 0.435467
0.047241 0.629449 0.500070
0.047154 0.629362 0.564672
0.047068 0.629275 0.629275
0.046981 0.629188 0.693878
0.046894 0.629102 0.758481
0.046807 0.629015 0.823084
0.046720 0.628928 0.887687
0.046633 0.628841 0.952290
0.046557 0.628765 1.000000
0.047065 0.693962 0.000000
0.046989 0.693886 0.046989
0.046902 0.693800 0.111592
0.046815 0.693713 0.176195
0.046728 0.693626 0.240798
0.046642 0.693539 0.305401
0.046555 0.693452 0.370003
0.046468 0.693365 0.434606
0.046381 0.693278 0.499209
0.046294 0.693192 0.563812
0.046207 0.693105 0.628415
0.046120 0.693018 0.693018
0.046034 0.692931 0.757621
0.045947 0.692844 0.822224
0.045860 0.692757 0.886827
0.045773 0.692671 0.951430
0.045697 0.692594 1.000000
0.046205 0.757792 0.000000
0.046129 0.757716 0.046129
0.046042 0.757629 0.110731
0.045955 0.757542 0.175334
0.045868 0.757455 0.239937
0.045781 0.757368 0.304540
0.045694 0.757282 0.369143
0.045607 0.757195 0.433746
0.045521 0.757108 0.498349
0.045434 0.757021 0.562952
0.045347 0.756934 0.627555
0.045260 0.756847 0.692158
0.045173 0.756760 0.756760
0.045086 0.756674 0.821363
0.045000 0.756587 0.885966
0.044913 0.756500 0.950569
0.044837 0.756424 1.000000
0.045344 0.821621 0.000000
0.045268 0.821545 0.045268
0.045181 0.821458 0.109871
0.045095 0.821372 0.174474
0.045008 0.821285 0.239077
0.044921 0.821198 0.303680
0.044834 0.821111 0.368283
0.044747 0.821024 0.432886
0.044660 0.820937 0.497489
0.044573 0.820850 0.562091
0.044487 0.820764 0.626694
0.044400 0.820677 0.691297
0.044313 0.820590 0.755900
0.044226 0.820503 0.820503
0.044139 0.820416 0.885106
0.044052 0.820329 0.949709
0.043976 0.820253 1.000000
0.044484 0.885451 0.000000
0.044408 0.885375 0.044408
0.044321 0.885288 0.109011
0.044234 0.885201 0.173614
0.044147 0.885114 0.238217
0.044061 0.885027 0.302820
0.043974 0.884940 0.367422
0.043887 0.884854 0.432025
0.043800 0.884767 0.496628
0.043713 0.884680 0.561231
0.043626 0.884593 0.625834
0.043539 0.884506 0.690437
0.043453 0.884419 0.755040
0.043366 0.884333 0.819643
0.043279 0.884246 0.884246
0.043192 0.884159 0.948849
0.043116 0.884083 1.000000
0.043624 0.949280 0.000000
0.043548 0.949204 0.043548
0.043461 0.949117 0.108151
0.043374 0.949030 0.172753
0.043287 0.948944 0.237356
0.043200 0.948857 0.301959
0.043113 0.948770 0.366562
0.043027 0.948683 0.431165
0.042940 0.948596 0.495768
0.042853 0.948509 0.560371
0.042766 0.948422 0.624974
0.042679 0.948336 0.689577
0.042592 0.948249 0.754180
0.042505 0.948162 0.818782
0.042419 0.948075 0.883385
0.042332 0.947988 0.947988
0.042256 0.947912 1.000000
0.042870 1.000000 0.000000
0.042794 1.000000 0.042794
0.042707 1.000000 0.107397
0.042621 1.000000 0.172000
0.042534 1.000000 0.236603
0.042447 1.000000 0.301206
0.042360 1.000000 0.365809
0.042273 1.000000 0.430412
0.042186 1.000000 0.495015
0.042099 1.000000 0.559617
0.042013 1.000000 0.624220
0.041926 1.000000 0.688823
0.041839 1.000000 0.753426
0.041752 1.000000 0.818029
0.041665 1.000000 0.882632
0.041578 1.000000 0.947235
0.041502 1.000000 1.000000
0.120856 0.000000 0.000000
0.120779 0.000000 0.056090
0.120693 0.000000 0.120693
0.120606 0.000000 0.185296
0.120519 0.000000 0.249898
0.120432 0.000000 0.314501
0.120345 0.000000 0.379104
0.120258 0.000000 0.443707
0.120172 0.000000 0.508310
0.120085 0.000000 0.572913
0.119998 0.000000 0.637516
0.119911 0.000000 0.702119
0.119824 0.000000 0.766722
0.119737 0.000000 0.831325
0.119650 0.000000 0.895927
0.119564 0.000000 0.960530
0.119488 0.000000 1.000000
0.120102 0.055412 0.000000
0.120026 0.055336 0.055336
0.119939 0.055250 0.119939
0.119852 0.055163 0.184542
0.119766 0.055076 0.249145
0.119679 0.054989 0.313748
0.119592 0.054902 0.378351
0.119505 0.054815 0.442954
0.119418 0.054728 0.507557
0.119331 0.054642 0.572160
0.119244 0.054555 0.636762
0.119158 0.054468 0.701365
0.119071 0.054381 0.765968
0.118984 0.054294 0.830571
0.118897 0.054207 0.895174
0.118810 0.054120 0.959777
0.118734 0.054044 1.000000
0.119242 0.119242 0.000000
0.119166 0.119166 0.054476
0.119079 0.119079 0.119079
0.118992 0.118992 0.183682
0.118905 0.118905 0.248285
0.118818 0.118818 0.312888
0.118732 0.118732 0.377491
0.118645 0.118645 0.442093
0.118558 0.118558 0.506696
0.118471 0.118471 0.571299
0.118384 0.118384 0.635902
0.118297 0.118297 0.700505
0.118210 0.118210 0.765108
0.118124 0.118124 0.829711
0.118037 0.118037 0.894314
0.117950 0.117950 0.958917
0.117874 0.117874 1.000000
0.118382 0.183071 0.000000
0.118305 0.182995 0.053616
0.118219 0.182908 0.118219
0.118132 0.182822 0.182822
0.118045 0.182735 0.247424
0.117958 0.182648 0.312027
0.117871 0.182561 0.376630
0.117784 0.182474 0.441233
0.117698 0.182387 0.505836
0.117611 0.182300 0.570439
0.117524 0.182214 0.635042
0.117437 0.182127 0.699645
0.117350 0.182040 0.764248
0.117263 0.181953 0.828851
0.117176 0.181866 0.893453
0.117090 0.181779 0.958056
0.117014 0.181703 1.000000
0.117521 0.246901 0.000000
0.117445 0.246825 0.052755
0.117358 0.246738 0.117358
0.117271 0.246651 0.181961
0.117185 0.246564 0.246564
0.117098 0.246477 0.311167
0.117011 0.246390 0.375770
0.116924 0.246304 0.440373
0.116837 0.246217 0.504976
0.116750 0.246130 0.569579
0.116664 0.246043 0.634182
0.116577 0.245956 0.698784
0.116490 0.245869 0.763387
0.116403 0.245782 0.827990
0.116316 0.245696 0.892593
0.116229 0.245609 0.957196
0.116153 0.245533 1.000000
0.116661 0.310730 0.000000
0.116585 0.310654 0.051895
0.116498 0.310567 0.116498
0.116411 0.310480 0.181101
0.116324 0.310394 0.245704
0.116237 0.310307 0.310307
0.116151 0.310220 0.374910
0.116064 0.310133 0.439512
0.115977 0.310046 0.504115
0.115890 0.309959 0.568718
0.115803 0.309872 0.633321
0.115716 0.309786 0.697924
0.115629 0.309699 0.762527
0.115543 0.309612 0.827130
0.115456 0.309525 0.891733
0.115369 0.309438 0.956336
0.115293 0.309362 1.000000
0.115801 0.374560 0.000000
0.115725 0.374484 0.051035
0.115638 0.374397 0.115638
0.115551 0.374310 0.180241
0.115464 0.374223 0.244843
0.115377 0.374136 0.309446
0.115290 0.374049 0.374049
0.115203 0.373962 0.438652
0.115117 0.373876 0.503255
0.115030 0.373789 0.567858
0.114943 0.373702 0.632461
0.114856 0.373615 0.697064
0.114769 0.373528 0.761667
0.114682 0.373441 0.826270
0.114595 0.373354 0.890872
0.114509 0.373268 0.955475
0.114433 0.373192 1.000000
0.114940 0.438389 0.000000
0.114864 0.438313 0.050174
0.114777 0.438226 0.114777
0.114690 0.438139 0.179380
0.114604 0.438052 0.243983
0.114517 0.437966 0.308586
0.114430 0.437879 0.373189
0.114343 0.437792 0.437792
0.114256 0.437705 0.502395
0.114169 0.437618 0.566998
0.114083 0.437531 0.631601
0.113996 0.437444 0.696203
0.113909 0.437358 0.760806
0.113822 0.437271 0.825409
0.113735 0.437184 0.890012
0.113648 0.437097 0.954615
0.113572 0.437021 1.000000
0.114080 0.502218 0.000000
0.114004 0.502142 0.049314
0.113917 0.502056 0.113917
0.113830 0.501969 0.178520
0.113743 0.501882 0.243123
0.113656 0.501795 0.307726
0.113570 0.501708 0.372329
0.113483 0.501621 0.436932
0.113396 0.501534 0.501534
0.113309 0.501448 0.566137
0.113222 0.501361 0.630740
0.113135 0.501274 0.695343
0.113049 0.501187 0.759946
0.112962 0.501100 0.824549
0.112875 0.501013 0.889152
0.112788 0.500926 0.953755
0.112712 0.500850 1.000000
0.113220 0.566048 0.000000
0.113144 0.565972 0.048454
0.113057 0.565885 0.113057
0.112970 0.565798 0.177660
0.112883 0.565711 0.242263
0.112796 0.565624 0.306865
0.112709 0.565538 0.371468
0.112622 0.565451 0.436071
0.112536 0.565364 0.500674
0.112449 0.565277 0.565277
0.112362 0.565190 0.629880
0.112275 0.565103 0.694483
0.112188 0.565016 0.759086
0.112101 0.564930 0.823689
0.112015 0.564843 0.888292
0.111928 0.564756 0.952894
0.111852 0.564680 1.000000
0.112359 0.629877 0.000000
0.112283 0.629801 0.047593
0.112196 0.629714 0.112196
0.112110 0.629628 0.176799
0.112023 0.629541 0.241402
0.111936 0.629454 0.306005
0.111849 0.629367 0.370608
0.111762 0.629280 0.435211
0.111675 0.629193 0.499814
0.111588 0.629106 0.564417
0.111502 0.629020 0.629020
0.111415 0.628933 0.693622
0.111328 0.628846 0.758225
0.111241 0.628759 0.822828
0.111154 0.628672 0.887431
0.111067 0.628585 0.952034
0.110991 0.628509 1.000000
0.111499 0.693707 0.000000
0.111423 0.693631 0.046733
0.111336 0.693544 0.111336
0.111249 0.693457 0.175939
0.111162 0.693370 0.240542
0.111076 0.693283 0.305145
0.110989 0.693196 0.369748
0.110902 0.693110 0.434351
0.110815 0.693023 0.498953
0.110728 0.692936 0.563556
0.110641 0.692849 0.628159
0.110554 0.692762 0.692762
0.110468 0.692675 0.757365
0.110381 0.692588 0.821968
0.110294 0.692502 0.886571
0.110207 0.692415 0.951174
0.110131 0.692339 1.000000
0.110639 0.757536 0.000000
0.110563 0.757460 0.045873
0.110476 0.757373 0.110476
0.110389 0.757286 0.175079
0.110302 0.757200 0.239682
0.110215 0.757113 0.304284
0.110128 0.757026 0.368887
0.110041 0.756939 0.433490
0.109955 0.756852 0.498093
0.109868 0.756765 0.562696
0.109781 0.756678 0.627299
0.109694 0.756592 0.691902
0.109607 0.756505 0.756505
0.109520 0.756418 0.821108
0.109434 0.756331 0.885711
0.109347 0.756244 0.950313
0.109271 0.756168 1.000000
0.109778 0.821366 0.000000
0.109702 0.821290 0.045013
0.109615 0.821203 0.109615
0.109529 0.821116 0.174218
0.109442 0.821029 0.238821
0.109355 0.820942 0.303424
0.109268 0.820855 0.368027
0.109181 0.820768 0.432630
0.109094 0.820682 0.497233
0.109007 0.820595 0.561836
0.108921 0.820508 0.626439
0.108834 0.820421 0.691042
0.108747 0.820334 0.755644
0.108660 0.820247 0.820247
0.108573 0.820160 0.884850
0.108486 0.820074 0.949453
0.108410 0.819998 1.000000
0.108918 0.885195 0.000000
0.108842 0.885119 0.044152
0.108755 0.885032 0.108755
0.108668 0.884945 0.173358
0.108581 0.884858 0.237961
0.108495 0.884772 0.302564
0.108408 0.884685 0.367167
0.108321 0.884598 0.431770
0.108234 0.884511 0.496373
0.108147 0.884424 0.560975
0.108060 0.884337 0.625578
0.107973 0.884250 0.690181
0.107887 0.884164 0.754784
0.107800 0.884077 0.819387
0.107713 0.883990 0.883990
0.107626 0.883903 0.948593
0.107550 0.883827 1.000000
0.108058 0.949024 0.000000
0.107982 0.948948 0.043292
0.107895 0.948862 0.107895
0.107808 0.948775 0.172498
0.107721 0.948688 0.237101
0.107634 0.948601 0.301703
0.107547 0.948514 0.366306
0.107461 0.948427 0.430909
0.107374 0.948340 0.495512
0.107287 0.948254 0.560115
0.107200 0.948167 0.624718
0.107113 0.948080 0.689321
0.107026 0.947993 0.753924
0.106939 0.947906 0.818527
0.106853 0.947819 0.883130
0.106766 0.947732 0.947732
0.106690 0.947656 1.000000
0.107304 1.000000 0.000000
0.107228 1.000000 0.042539
0.107141 1.000000 0.107141
0.107055 1.000000 0.171744
0.106968 1.000000 0.236347
0.106881 1.000000 0.300950
0.106794 1.000000 0.365553
0.106707 1.000000 0.430156
0.106620 1.000000 0.494759
0.106533 1.000000 0.559362
0.106447 1.000000 0.623965
0.106360 1.000000 0.688568
0.106273 1.000000 0.753170
0.106186 1.000000 0.817773
0.106099 1.000000 0.882376
0.106012 1.000000 0.946979
0.105936 1.000000 1.000000
0.185290 0.000000 0.000000
0.185213 0.000000 0.055834
0.185127 0.000000 0.120437
0.185040 0.000000 0.185040
0.184953 0.000000 0.249643
0.184866 0.000000 0.314246
0.184779 0.000000 0.378848
0.184692 0.000000 0.443451
0.184606 0.000000 0.508054
0.184519 0.000000 0.572657
0.184432 0.000000 0.637260
0.184345 0.000000 0.701863
0.184258 0.000000 0.766466
0.184171 0.000000 0.831069
0.184084 0.000000 0.895672
0.183998 0.000000 0.960275
0.183922 0.000000 1.000000
0.184536 0.055157 0.000000
