skills/editops-orchestrator/assets/grade/luts/product_clean_v11.cube
TITLE "product_clean_v11"
LUT_3D_SIZE 17
DOMAIN_MIN 0.0 0.0 0.0
DOMAIN_MAX 1.0 1.0 1.0
0.000000 0.000000 0.000000
0.000000 0.000000 0.052481
0.000000 0.000000 0.118505
0.000000 0.000000 0.184529
0.000000 0.000000 0.250553
0.000000 0.000000 0.316577
0.000000 0.000000 0.382601
0.000000 0.000000 0.448625
0.000000 0.000000 0.514649
0.000000 0.000000 0.580674
0.000000 0.000000 0.646698
0.000000 0.000000 0.712722
0.000000 0.000000 0.778746
0.000000 0.000000 0.844770
0.000000 0.000000 0.910794
0.000000 0.000000 0.976818
0.000000 0.000000 1.000000
0.000000 0.051445 0.000000
0.000000 0.051329 0.051329
0.000000 0.051183 0.117353
0.000000 0.051037 0.183377
0.000000 0.050890 0.249401
0.000000 0.050744 0.315426
0.000000 0.050598 0.381450
0.000000 0.050452 0.447474
0.000000 0.050305 0.513498
0.000000 0.050159 0.579522
0.000000 0.050013 0.645546
0.000000 0.049867 0.711570
0.000000 0.049720 0.777594
0.000000 0.049574 0.843618
0.000000 0.049428 0.909643
0.000000 0.049282 0.975667
0.000000 0.049165 1.000000
0.000000 0.116167 0.000000
0.000000 0.116051 0.049880
0.000000 0.115905 0.115905
0.000000 0.115758 0.181929
0.000000 0.115612 0.247953
0.000000 0.115466 0.313977
0.000000 0.115320 0.380001
0.000000 0.115173 0.446025
0.000000 0.115027 0.512049
0.000000 0.114881 0.578073
0.000000 0.114735 0.644097
0.000000 0.114588 0.710122
0.000000 0.114442 0.776146
0.000000 0.114296 0.842170
0.000000 0.114150 0.908194
0.000000 0.114003 0.974218
0.000000 0.113887 1.000000
0.000000 0.180889 0.000000
0.000000 0.180772 0.048432
0.000000 0.180626 0.114456
0.000000 0.180480 0.180480
0.000000 0.180334 0.246504
0.000000 0.180187 0.312528
0.000000 0.180041 0.378552
0.000000 0.179895 0.444576
0.000000 0.179749 0.510600
0.000000 0.179602 0.576625
0.000000 0.179456 0.642649
0.000000 0.179310 0.708673
0.000000 0.179164 0.774697
0.000000 0.179017 0.840721
0.000000 0.178871 0.906745
0.000000 0.178725 0.972769
0.000000 0.178609 1.000000
0.000000 0.245610 0.000000
0.000000 0.245494 0.046983
0.000000 0.245348 0.113007
0.000000 0.245202 0.179031
0.000000 0.245055 0.245055
0.000000 0.244909 0.311079
0.000000 0.244763 0.377104
0.000000 0.244617 0.443128
0.000000 0.244470 0.509152
0.000000 0.244324 0.575176
0.000000 0.244178 0.641200
0.000000 0.244032 0.707224
0.000000 0.243885 0.773248
0.000000 0.243739 0.839272
0.000000 0.243593 0.905296
0.000000 0.243447 0.971321
0.000000 0.243330 1.000000
0.000000 0.310332 0.000000
0.000000 0.310216 0.045534
0.000000 0.310069 0.111558
0.000000 0.309923 0.177582
0.000000 0.309777 0.243607
0.000000 0.309631 0.309631
0.000000 0.309484 0.375655
0.000000 0.309338 0.441679
0.000000 0.309192 0.507703
0.000000 0.309046 0.573727
0.000000 0.308899 0.639751
0.000000 0.308753 0.705775
0.000000 0.308607 0.771799
0.000000 0.308461 0.837824
0.000000 0.308314 0.903848
0.000000 0.308168 0.969872
0.000000 0.308052 1.000000
0.000000 0.375054 0.000000
0.000000 0.374937 0.044086
0.000000 0.374791 0.110110
0.000000 0.374645 0.176134
0.000000 0.374499 0.242158
0.000000 0.374352 0.308182
0.000000 0.374206 0.374206
0.000000 0.374060 0.440230
0.000000 0.373914 0.506254
0.000000 0.373767 0.572278
0.000000 0.373621 0.638303
0.000000 0.373475 0.704327
0.000000 0.373329 0.770351
0.000000 0.373182 0.836375
0.000000 0.373036 0.902399
0.000000 0.372890 0.968423
0.000000 0.372774 1.000000
0.000000 0.439775 0.000000
0.000000 0.439659 0.042637
0.000000 0.439513 0.108661
0.000000 0.439366 0.174685
0.000000 0.439220 0.240709
0.000000 0.439074 0.306733
0.000000 0.438928 0.372757
0.000000 0.438781 0.438781
0.000000 0.438635 0.504806
0.000000 0.438489 0.570830
0.000000 0.438343 0.636854
0.000000 0.438196 0.702878
0.000000 0.438050 0.768902
0.000000 0.437904 0.834926
0.000000 0.437758 0.900950
0.000000 0.437611 0.966974
0.000000 0.437495 1.000000
0.000000 0.504497 0.000000
0.000000 0.504381 0.041188
0.000000 0.504234 0.107212
0.000000 0.504088 0.173236
0.000000 0.503942 0.239260
0.000000 0.503796 0.305285
0.000000 0.503649 0.371309
0.000000 0.503503 0.437333
0.000000 0.503357 0.503357
0.000000 0.503211 0.569381
0.000000 0.503064 0.635405
0.000000 0.502918 0.701429
0.000000 0.502772 0.767453
0.000000 0.502626 0.833477
0.000000 0.502479 0.899502
0.000000 0.502333 0.965526
0.000000 0.502217 1.000000
0.000000 0.569218 0.000000
0.000000 0.569102 0.039739
0.000000 0.568956 0.105763
0.000000 0.568810 0.171788
0.000000 0.568663 0.237812
0.000000 0.568517 0.303836
0.000000 0.568371 0.369860
0.000000 0.568225 0.435884
0.000000 0.568078 0.501908
0.000000 0.567932 0.567932
0.000000 0.567786 0.633956
0.000000 0.567640 0.699980
0.000000 0.567493 0.766005
0.000000 0.567347 0.832029
0.000000 0.567201 0.898053
0.000000 0.567055 0.964077
0.000000 0.566938 1.000000
0.000000 0.633940 0.000000
0.000000 0.633824 0.038291
0.000000 0.633678 0.104315
0.000000 0.633531 0.170339
0.000000 0.633385 0.236363
0.000000 0.633239 0.302387
0.000000 0.633093 0.368411
0.000000 0.632946 0.434435
0.000000 0.632800 0.500459
0.000000 0.632654 0.566484
0.000000 0.632508 0.632508
0.000000 0.632361 0.698532
0.000000 0.632215 0.764556
0.000000 0.632069 0.830580
0.000000 0.631923 0.896604
0.000000 0.631776 0.962628
0.000000 0.631660 1.000000
0.000000 0.698662 0.000000
0.000000 0.698545 0.036842
0.000000 0.698399 0.102866
0.000000 0.698253 0.168890
0.000000 0.698107 0.234914
0.000000 0.697960 0.300938
0.000000 0.697814 0.366962
0.000000 0.697668 0.432987
0.000000 0.697522 0.499011
0.000000 0.697375 0.565035
0.000000 0.697229 0.631059
0.000000 0.697083 0.697083
0.000000 0.696937 0.763107
0.000000 0.696790 0.829131
0.000000 0.696644 0.895155
0.000000 0.696498 0.961179
0.000000 0.696382 1.000000
0.000000 0.763383 0.000000
0.000000 0.763267 0.035393
0.000000 0.763121 0.101417
0.000000 0.762975 0.167441
0.000000 0.762828 0.233465
0.000000 0.762682 0.299490
0.000000 0.762536 0.365514
0.000000 0.762390 0.431538
0.000000 0.762243 0.497562
0.000000 0.762097 0.563586
0.000000 0.761951 0.629610
0.000000 0.761805 0.695634
0.000000 0.761658 0.761658
0.000000 0.761512 0.827682
0.000000 0.761366 0.893707
0.000000 0.761220 0.959731
0.000000 0.761103 1.000000
0.000000 0.828105 0.000000
0.000000 0.827989 0.033944
0.000000 0.827843 0.099969
0.000000 0.827696 0.165993
0.000000 0.827550 0.232017
0.000000 0.827404 0.298041
0.000000 0.827258 0.364065
0.000000 0.827111 0.430089
0.000000 0.826965 0.496113
0.000000 0.826819 0.562137
0.000000 0.826673 0.628161
0.000000 0.826526 0.694186
0.000000 0.826380 0.760210
0.000000 0.826234 0.826234
0.000000 0.826088 0.892258
0.000000 0.825941 0.958282
0.000000 0.825825 1.000000
0.000000 0.892827 0.000000
0.000000 0.892710 0.032496
0.000000 0.892564 0.098520
0.000000 0.892418 0.164544
0.000000 0.892272 0.230568
0.000000 0.892125 0.296592
0.000000 0.891979 0.362616
0.000000 0.891833 0.428640
0.000000 0.891687 0.494664
0.000000 0.891540 0.560689
0.000000 0.891394 0.626713
0.000000 0.891248 0.692737
0.000000 0.891102 0.758761
0.000000 0.890955 0.824785
0.000000 0.890809 0.890809
0.000000 0.890663 0.956833
0.000000 0.890547 1.000000
0.000000 0.957548 0.000000
0.000000 0.957432 0.031047
0.000000 0.957286 0.097071
0.000000 0.957140 0.163095
0.000000 0.956993 0.229119
0.000000 0.956847 0.295143
0.000000 0.956701 0.361168
0.000000 0.956555 0.427192
0.000000 0.956408 0.493216
0.000000 0.956262 0.559240
0.000000 0.956116 0.625264
0.000000 0.955970 0.691288
0.000000 0.955823 0.757312
0.000000 0.955677 0.823336
0.000000 0.955531 0.889360
0.000000 0.955385 0.955385
0.000000 0.955268 1.000000
0.000000 1.000000 0.000000
0.000000 1.000000 0.029895
0.000000 1.000000 0.095920
0.000000 1.000000 0.161944
0.000000 1.000000 0.227968
0.000000 1.000000 0.293992
0.000000 1.000000 0.360016
0.000000 1.000000 0.426040
0.000000 1.000000 0.492064
0.000000 1.000000 0.558088
0.000000 1.000000 0.624112
0.000000 1.000000 0.690137
0.000000 1.000000 0.756161
0.000000 1.000000 0.822185
0.000000 1.000000 0.888209
0.000000 1.000000 0.954233
0.000000 1.000000 1.000000
0.052255 0.000000 0.000000
0.052138 0.000000 0.052138
0.051992 0.000000 0.118163
0.051846 0.000000 0.184187
0.051700 0.000000 0.250211
0.051553 0.000000 0.316235
0.051407 0.000000 0.382259
0.051261 0.000000 0.448283
0.051115 0.000000 0.514307
0.050968 0.000000 0.580331
0.050822 0.000000 0.646355
0.050676 0.000000 0.712379
0.050530 0.000000 0.778404
0.050383 0.000000 0.844428
0.050237 0.000000 0.910452
0.050091 0.000000 0.976476
0.049975 0.000000 1.000000
0.051103 0.051103 0.000000
0.050987 0.050987 0.050987
0.050841 0.050841 0.117011
0.050694 0.050694 0.183035
0.050548 0.050548 0.249059
0.050402 0.050402 0.315083
0.050256 0.050256 0.381107
0.050109 0.050109 0.447132
0.049963 0.049963 0.513156
0.049817 0.049817 0.579180
0.049671 0.049671 0.645204
0.049524 0.049524 0.711228
0.049378 0.049378 0.777252
0.049232 0.049232 0.843276
0.049086 0.049086 0.909300
0.048939 0.048939 0.975324
0.048823 0.048823 1.000000
0.049654 0.115825 0.000000
0.049538 0.115708 0.049538
0.049392 0.115562 0.115562
0.049246 0.115416 0.181586
0.049099 0.115270 0.247610
0.048953 0.115123 0.313635
0.048807 0.114977 0.379659
0.048661 0.114831 0.445683
0.048514 0.114685 0.511707
0.048368 0.114538 0.577731
0.048222 0.114392 0.643755
0.048076 0.114246 0.709779
0.047929 0.114100 0.775803
0.047783 0.113953 0.841827
0.047637 0.113807 0.907852
0.047491 0.113661 0.973876
0.047374 0.113545 1.000000
0.048206 0.180546 0.000000
0.048089 0.180430 0.048089
0.047943 0.180284 0.114114
0.047797 0.180138 0.180138
0.047651 0.179991 0.246162
0.047504 0.179845 0.312186
0.047358 0.179699 0.378210
0.047212 0.179553 0.444234
0.047066 0.179406 0.510258
0.046919 0.179260 0.576282
0.046773 0.179114 0.642306
0.046627 0.178968 0.708330
0.046481 0.178821 0.774355
0.046334 0.178675 0.840379
0.046188 0.178529 0.906403
0.046042 0.178383 0.972427
0.045926 0.178266 1.000000
0.046757 0.245268 0.000000
0.046641 0.245152 0.046641
0.046494 0.245005 0.112665
0.046348 0.244859 0.178689
0.046202 0.244713 0.244713
0.046056 0.244567 0.310737
0.045909 0.244420 0.376761
0.045763 0.244274 0.442785
0.045617 0.244128 0.508809
0.045471 0.243982 0.574834
0.045324 0.243835 0.640858
0.045178 0.243689 0.706882
0.045032 0.243543 0.772906
0.044886 0.243397 0.838930
0.044739 0.243250 0.904954
0.044593 0.243104 0.970978
0.044477 0.242988 1.000000
0.045308 0.309990 0.000000
0.045192 0.309873 0.045192
0.045046 0.309727 0.111216
0.044899 0.309581 0.177240
0.044753 0.309435 0.243264
0.044607 0.309288 0.309288
0.044461 0.309142 0.375312
0.044314 0.308996 0.441337
0.044168 0.308850 0.507361
0.044022 0.308703 0.573385
0.043876 0.308557 0.639409
0.043729 0.308411 0.705433
0.043583 0.308265 0.771457
0.043437 0.308118 0.837481
0.043291 0.307972 0.903505
0.043144 0.307826 0.969529
0.043028 0.307710 1.000000
0.043859 0.374711 0.000000
0.043743 0.374595 0.043743
0.043597 0.374449 0.109767
0.043451 0.374303 0.175791
0.043304 0.374156 0.241816
0.043158 0.374010 0.307840
0.043012 0.373864 0.373864
0.042866 0.373718 0.439888
0.042719 0.373571 0.505912
0.042573 0.373425 0.571936
0.042427 0.373279 0.637960
0.042281 0.373133 0.703984
0.042134 0.372986 0.770008
0.041988 0.372840 0.836033
0.041842 0.372694 0.902057
0.041696 0.372548 0.968081
0.041579 0.372431 1.000000
0.042411 0.439433 0.000000
0.042294 0.439317 0.042294
0.042148 0.439170 0.108319
0.042002 0.439024 0.174343
0.041856 0.438878 0.240367
0.041709 0.438732 0.306391
0.041563 0.438585 0.372415
0.041417 0.438439 0.438439
0.041271 0.438293 0.504463
0.041124 0.438147 0.570487
0.040978 0.438000 0.636511
0.040832 0.437854 0.702536
0.040686 0.437708 0.768560
0.040539 0.437562 0.834584
0.040393 0.437415 0.900608
0.040247 0.437269 0.966632
0.040131 0.437153 1.000000
0.040962 0.504155 0.000000
0.040846 0.504038 0.040846
0.040700 0.503892 0.106870
0.040553 0.503746 0.172894
0.040407 0.503600 0.238918
0.040261 0.503453 0.304942
0.040115 0.503307 0.370966
0.039968 0.503161 0.436990
0.039822 0.503015 0.503015
0.039676 0.502868 0.569039
0.039530 0.502722 0.635063
0.039383 0.502576 0.701087
0.039237 0.502430 0.767111
0.039091 0.502283 0.833135
0.038945 0.502137 0.899159
0.038798 0.501991 0.965183
0.038682 0.501875 1.000000
0.039513 0.568876 0.000000
0.039397 0.568760 0.039397
0.039251 0.568614 0.105421
0.039105 0.568467 0.171445
0.038958 0.568321 0.237469
0.038812 0.568175 0.303493
0.038666 0.568029 0.369518
0.038520 0.567882 0.435542
0.038373 0.567736 0.501566
0.038227 0.567590 0.567590
0.038081 0.567444 0.633614
0.037935 0.567297 0.699638
0.037788 0.567151 0.765662
0.037642 0.567005 0.831686
0.037496 0.566859 0.897710
0.037350 0.566712 0.963735
0.037233 0.566596 1.000000
0.038065 0.633598 0.000000
0.037948 0.633482 0.037948
0.037802 0.633335 0.103972
0.037656 0.633189 0.169997
0.037510 0.633043 0.236021
0.037363 0.632897 0.302045
0.037217 0.632750 0.368069
0.037071 0.632604 0.434093
0.036925 0.632458 0.500117
0.036778 0.632312 0.566141
0.036632 0.632165 0.632165
0.036486 0.632019 0.698189
0.036340 0.631873 0.764214
0.036193 0.631727 0.830238
0.036047 0.631580 0.896262
0.035901 0.631434 0.962286
0.035785 0.631318 1.000000
0.036616 0.698319 0.000000
0.036500 0.698203 0.036500
0.036353 0.698057 0.102524
0.036207 0.697911 0.168548
0.036061 0.697764 0.234572
0.035915 0.697618 0.300596
0.035768 0.697472 0.366620
0.035622 0.697326 0.432644
0.035476 0.697179 0.498668
0.035330 0.697033 0.564692
0.035183 0.696887 0.630717
0.035037 0.696741 0.696741
0.034891 0.696594 0.762765
0.034745 0.696448 0.828789
0.034598 0.696302 0.894813
0.034452 0.696156 0.960837
0.034336 0.696039 1.000000
0.035167 0.763041 0.000000
0.035051 0.762925 0.035051
0.034905 0.762779 0.101075
0.034758 0.762632 0.167099
0.034612 0.762486 0.233123
0.034466 0.762340 0.299147
0.034320 0.762194 0.365171
0.034173 0.762047 0.431196
0.034027 0.761901 0.497220
0.033881 0.761755 0.563244
0.033735 0.761609 0.629268
0.033588 0.761462 0.695292
0.033442 0.761316 0.761316
0.033296 0.761170 0.827340
0.033150 0.761024 0.893364
0.033003 0.760877 0.959388
0.032887 0.760761 1.000000
0.033718 0.827763 0.000000
0.033602 0.827646 0.033602
0.033456 0.827500 0.099626
0.033310 0.827354 0.165650
0.033163 0.827208 0.231674
0.033017 0.827061 0.297699
0.032871 0.826915 0.363723
0.032725 0.826769 0.429747
0.032578 0.826623 0.495771
0.032432 0.826476 0.561795
0.032286 0.826330 0.627819
0.032140 0.826184 0.693843
0.031993 0.826038 0.759867
0.031847 0.825891 0.825891
0.031701 0.825745 0.891916
0.031555 0.825599 0.957940
0.031438 0.825483 1.000000
0.032270 0.892484 0.000000
0.032153 0.892368 0.032153
0.032007 0.892222 0.098178
0.031861 0.892076 0.164202
0.031715 0.891929 0.230226
0.031568 0.891783 0.296250
0.031422 0.891637 0.362274
0.031276 0.891491 0.428298
0.031130 0.891344 0.494322
0.030983 0.891198 0.560346
0.030837 0.891052 0.626370
0.030691 0.890906 0.692395
0.030545 0.890759 0.758419
0.030398 0.890613 0.824443
0.030252 0.890467 0.890467
0.030106 0.890321 0.956491
0.029990 0.890204 1.000000
0.030821 0.957206 0.000000
0.030705 0.957090 0.030705
0.030558 0.956943 0.096729
0.030412 0.956797 0.162753
0.030266 0.956651 0.228777
0.030120 0.956505 0.294801
0.029973 0.956358 0.360825
0.029827 0.956212 0.426849
0.029681 0.956066 0.492873
0.029535 0.955920 0.558898
0.029388 0.955773 0.624922
0.029242 0.955627 0.690946
0.029096 0.955481 0.756970
0.028950 0.955335 0.822994
0.028803 0.955188 0.889018
0.028657 0.955042 0.955042
0.028541 0.954926 1.000000
0.029669 1.000000 0.000000
0.029553 1.000000 0.029553
0.029407 1.000000 0.095577
0.029261 1.000000 0.161601
0.029114 1.000000 0.227625
0.028968 1.000000 0.293650
0.028822 1.000000 0.359674
0.028676 1.000000 0.425698
0.028529 1.000000 0.491722
0.028383 1.000000 0.557746
0.028237 1.000000 0.623770
0.028091 1.000000 0.689794
0.027944 1.000000 0.755818
0.027798 1.000000 0.821842
0.027652 1.000000 0.887867
0.027506 1.000000 0.953891
0.027389 1.000000 1.000000
0.117994 0.000000 0.000000
0.117878 0.000000 0.051708
0.117732 0.000000 0.117732
0.117586 0.000000 0.183756
0.117439 0.000000 0.249780
0.117293 0.000000 0.315804
0.117147 0.000000 0.381828
0.117001 0.000000 0.447852
0.116854 0.000000 0.513877
0.116708 0.000000 0.579901
0.116562 0.000000 0.645925
0.116416 0.000000 0.711949
0.116269 0.000000 0.777973
0.116123 0.000000 0.843997
0.115977 0.000000 0.910021
0.115831 0.000000 0.976045
0.115714 0.000000 1.000000
0.116843 0.050672 0.000000
0.116727 0.050556 0.050556
0.116580 0.050410 0.116580
0.116434 0.050264 0.182604
0.116288 0.050117 0.248629
0.116142 0.049971 0.314653
0.115995 0.049825 0.380677
0.115849 0.049679 0.446701
0.115703 0.049532 0.512725
0.115557 0.049386 0.578749
0.115410 0.049240 0.644773
0.115264 0.049094 0.710797
0.115118 0.048947 0.776821
0.114972 0.048801 0.842846
0.114825 0.048655 0.908870
0.114679 0.048509 0.974894
0.114563 0.048392 1.000000
0.115394 0.115394 0.000000
0.115278 0.115278 0.049107
0.115132 0.115132 0.115132
0.114985 0.114985 0.181156
0.114839 0.114839 0.247180
0.114693 0.114693 0.313204
0.114547 0.114547 0.379228
0.114400 0.114400 0.445252
0.114254 0.114254 0.511276
0.114108 0.114108 0.577300
0.113962 0.113962 0.643324
0.113815 0.113815 0.709349
0.113669 0.113669 0.775373
0.113523 0.113523 0.841397
0.113377 0.113377 0.907421
0.113230 0.113230 0.973445
0.113114 0.113114 1.000000
0.113945 0.180116 0.000000
0.113829 0.179999 0.047659
0.113683 0.179853 0.113683
0.113537 0.179707 0.179707
0.113390 0.179561 0.245731
0.113244 0.179414 0.311755
0.113098 0.179268 0.377779
0.112952 0.179122 0.443803
0.112805 0.178976 0.509828
0.112659 0.178829 0.575852
0.112513 0.178683 0.641876
0.112367 0.178537 0.707900
0.112220 0.178391 0.773924
0.112074 0.178244 0.839948
0.111928 0.178098 0.905972
0.111782 0.177952 0.971996
0.111665 0.177836 1.000000
0.112497 0.244837 0.000000
0.112380 0.244721 0.046210
0.112234 0.244575 0.112234
0.112088 0.244429 0.178258
0.111942 0.244282 0.244282
0.111795 0.244136 0.310306
0.111649 0.243990 0.376331
0.111503 0.243844 0.442355
0.111357 0.243697 0.508379
0.111210 0.243551 0.574403
0.111064 0.243405 0.640427
0.110918 0.243259 0.706451
0.110772 0.243112 0.772475
0.110625 0.242966 0.838499
0.110479 0.242820 0.904523
0.110333 0.242674 0.970548
0.110217 0.242557 1.000000
0.111048 0.309559 0.000000
0.110932 0.309443 0.044761
0.110785 0.309296 0.110785
0.110639 0.309150 0.176810
0.110493 0.309004 0.242834
0.110347 0.308858 0.308858
0.110200 0.308711 0.374882
0.110054 0.308565 0.440906
0.109908 0.308419 0.506930
0.109762 0.308273 0.572954
0.109615 0.308126 0.638978
0.109469 0.307980 0.705002
0.109323 0.307834 0.771027
0.109177 0.307688 0.837051
0.109030 0.307541 0.903075
0.108884 0.307395 0.969099
0.108768 0.307279 1.000000
0.109599 0.374281 0.000000
0.109483 0.374164 0.043313
0.109337 0.374018 0.109337
0.109190 0.373872 0.175361
0.109044 0.373726 0.241385
0.108898 0.373579 0.307409
0.108752 0.373433 0.373433
0.108605 0.373287 0.439457
0.108459 0.373141 0.505481
0.108313 0.372994 0.571505
0.108167 0.372848 0.637530
0.108020 0.372702 0.703554
0.107874 0.372556 0.769578
0.107728 0.372409 0.835602
0.107582 0.372263 0.901626
0.107435 0.372117 0.967650
0.107319 0.372001 1.000000
0.108150 0.439002 0.000000
0.108034 0.438886 0.041864
0.107888 0.438740 0.107888
0.107742 0.438594 0.173912
0.107595 0.438447 0.239936
0.107449 0.438301 0.305960
0.107303 0.438155 0.371984
0.107157 0.438009 0.438009
0.107010 0.437862 0.504033
0.106864 0.437716 0.570057
0.106718 0.437570 0.636081
0.106572 0.437424 0.702105
0.106425 0.437277 0.768129
0.106279 0.437131 0.834153
0.106133 0.436985 0.900177
0.105987 0.436839 0.966201
0.105870 0.436722 1.000000
0.106702 0.503724 0.000000
0.106585 0.503608 0.040415
0.106439 0.503461 0.106439
0.106293 0.503315 0.172463
0.106147 0.503169 0.238487
0.106000 0.503023 0.304512
0.105854 0.502876 0.370536
0.105708 0.502730 0.436560
0.105562 0.502584 0.502584
0.105415 0.502438 0.568608
0.105269 0.502291 0.634632
0.105123 0.502145 0.700656
0.104977 0.501999 0.766680
0.104830 0.501853 0.832704
0.104684 0.501706 0.898729
0.104538 0.501560 0.964753
0.104422 0.501444 1.000000
0.105253 0.568446 0.000000
0.105137 0.568329 0.038966
0.104990 0.568183 0.104990
0.104844 0.568037 0.171015
0.104698 0.567891 0.237039
0.104552 0.567744 0.303063
0.104405 0.567598 0.369087
0.104259 0.567452 0.435111
0.104113 0.567306 0.501135
0.103967 0.567159 0.567159
0.103820 0.567013 0.633183
0.103674 0.566867 0.699207
0.103528 0.566721 0.765232
0.103382 0.566574 0.831256
0.103235 0.566428 0.897280
0.103089 0.566282 0.963304
0.102973 0.566166 1.000000
0.103804 0.633167 0.000000
0.103688 0.633051 0.037518
0.103542 0.632905 0.103542
0.103396 0.632758 0.169566
0.103249 0.632612 0.235590
0.103103 0.632466 0.301614
0.102957 0.632320 0.367638
0.102811 0.632173 0.433662
0.102664 0.632027 0.499686
0.102518 0.631881 0.565711
0.102372 0.631735 0.631735
0.102226 0.631588 0.697759
0.102079 0.631442 0.763783
0.101933 0.631296 0.829807
0.101787 0.631150 0.895831
0.101641 0.631003 0.961855
0.101524 0.630887 1.000000
0.102356 0.697889 0.000000
0.102239 0.697773 0.036069
0.102093 0.697626 0.102093
0.101947 0.697480 0.168117
0.101801 0.697334 0.234141
0.101654 0.697188 0.300165
0.101508 0.697041 0.366189
0.101362 0.696895 0.432214
0.101216 0.696749 0.498238
0.101069 0.696603 0.564262
0.100923 0.696456 0.630286
0.100777 0.696310 0.696310
0.100631 0.696164 0.762334
0.100484 0.696018 0.828358
0.100338 0.695871 0.894382
0.100192 0.695725 0.960406
0.100076 0.695609 1.000000
0.100907 0.762610 0.000000
0.100791 0.762494 0.034620
0.100644 0.762348 0.100644
0.100498 0.762202 0.166668
0.100352 0.762055 0.232693
0.100206 0.761909 0.298717
0.100059 0.761763 0.364741
0.099913 0.761617 0.430765
0.099767 0.761470 0.496789
0.099621 0.761324 0.562813
0.099474 0.761178 0.628837
0.099328 0.761032 0.694861
0.099182 0.760885 0.760885
0.099036 0.760739 0.826910
0.098889 0.760593 0.892934
0.098743 0.760447 0.958958
0.098627 0.760330 1.000000
0.099458 0.827332 0.000000
0.099342 0.827216 0.033171
0.099196 0.827070 0.099196
0.099049 0.826923 0.165220
0.098903 0.826777 0.231244
0.098757 0.826631 0.297268
0.098611 0.826485 0.363292
0.098464 0.826338 0.429316
0.098318 0.826192 0.495340
0.098172 0.826046 0.561364
0.098026 0.825900 0.627388
0.097879 0.825753 0.693413
0.097733 0.825607 0.759437
0.097587 0.825461 0.825461
0.097441 0.825315 0.891485
0.097294 0.825168 0.957509
0.097178 0.825052 1.000000
0.098009 0.892054 0.000000
0.097893 0.891937 0.031723
0.097747 0.891791 0.097747
0.097601 0.891645 0.163771
0.097454 0.891499 0.229795
0.097308 0.891352 0.295819
0.097162 0.891206 0.361843
0.097016 0.891060 0.427867
0.096869 0.890914 0.493892
0.096723 0.890767 0.559916
0.096577 0.890621 0.625940
0.096431 0.890475 0.691964
0.096284 0.890329 0.757988
0.096138 0.890182 0.824012
0.095992 0.890036 0.890036
0.095846 0.889890 0.956060
0.095729 0.889774 1.000000
0.096561 0.956775 0.000000
0.096444 0.956659 0.030274
0.096298 0.956513 0.096298
0.096152 0.956367 0.162322
0.096006 0.956220 0.228346
0.095859 0.956074 0.294370
0.095713 0.955928 0.360395
0.095567 0.955782 0.426419
0.095421 0.955635 0.492443
0.095274 0.955489 0.558467
0.095128 0.955343 0.624491
0.094982 0.955197 0.690515
0.094836 0.955050 0.756539
0.094689 0.954904 0.822563
0.094543 0.954758 0.888587
0.094397 0.954612 0.954612
0.094281 0.954495 1.000000
0.095409 1.000000 0.000000
0.095293 1.000000 0.029122
0.095147 1.000000 0.095147
0.095000 1.000000 0.161171
0.094854 1.000000 0.227195
0.094708 1.000000 0.293219
0.094562 1.000000 0.359243
0.094415 1.000000 0.425267
0.094269 1.000000 0.491291
0.094123 1.000000 0.557315
0.093977 1.000000 0.623339
0.093830 1.000000 0.689364
0.093684 1.000000 0.755388
0.093538 1.000000 0.821412
0.093392 1.000000 0.887436
0.093245 1.000000 0.953460
0.093129 1.000000 1.000000
0.183734 0.000000 0.000000
0.183618 0.000000 0.051277
0.183472 0.000000 0.117301
0.183325 0.000000 0.183325
0.183179 0.000000 0.249349
0.183033 0.000000 0.315374
0.182887 0.000000 0.381398
0.182740 0.000000 0.447422
0.182594 0.000000 0.513446
0.182448 0.000000 0.579470
0.182302 0.000000 0.645494
0.182155 0.000000 0.711518
0.182009 0.000000 0.777542
0.181863 0.000000 0.843566
0.181717 0.000000 0.909591
0.181570 0.000000 0.975615
0.181454 0.000000 1.000000
0.182583 0.050242 0.000000
