skills/editops-orchestrator/assets/grade/luts/product_clean_v05.cube
TITLE "product_clean_v05"
LUT_3D_SIZE 5
DOMAIN_MIN 0.0 0.0 0.0
DOMAIN_MAX 1.0 1.0 1.0
0.000000 0.000000 0.000000
0.000000 0.000000 0.250267
0.000000 0.000000 0.505860
0.000000 0.000000 0.761452
0.000000 0.000000 1.000000
0.000000 0.248258 0.000000
0.000000 0.248033 0.248033
0.000000 0.247802 0.503625
0.000000 0.247572 0.759217
0.000000 0.247346 1.000000
0.000000 0.501799 0.000000
0.000000 0.501573 0.245750
0.000000 0.501343 0.501343
0.000000 0.501112 0.756935
0.000000 0.500887 1.000000
0.000000 0.755339 0.000000
0.000000 0.755114 0.243468
0.000000 0.754883 0.499060
0.000000 0.754653 0.754653
0.000000 0.754427 1.000000
0.000000 1.000000 0.000000
0.000000 1.000000 0.241233
0.000000 1.000000 0.496826
0.000000 1.000000 0.752418
0.000000 1.000000 1.000000
0.249829 0.000000 0.000000
0.249603 0.000000 0.249603
0.249373 0.000000 0.505195
0.249142 0.000000 0.760788
0.248917 0.000000 1.000000
0.247594 0.247594 0.000000
0.247368 0.247368 0.247368
0.247138 0.247138 0.502961
0.246908 0.246908 0.758553
0.246682 0.246682 1.000000
0.245312 0.501134 0.000000
0.245086 0.500909 0.245086
0.244856 0.500678 0.500678
0.244625 0.500448 0.756271
0.244400 0.500222 1.000000
0.243029 0.754675 0.000000
0.242804 0.754449 0.242804
0.242573 0.754219 0.498396
0.242343 0.753988 0.753988
0.242117 0.753763 1.000000
0.240795 1.000000 0.000000
0.240569 1.000000 0.240569
0.240339 1.000000 0.496161
0.240108 1.000000 0.751754
0.239883 1.000000 1.000000
0.504973 0.000000 0.000000
0.504747 0.000000 0.248925
0.504517 0.000000 0.504517
0.504287 0.000000 0.760109
0.504061 0.000000 1.000000
0.502738 0.246916 0.000000
0.502513 0.246690 0.246690
0.502282 0.246460 0.502282
0.502052 0.246229 0.757875
0.501826 0.246004 1.000000
0.500456 0.500456 0.000000
0.500230 0.500230 0.244408
0.500000 0.500000 0.500000
0.499770 0.499770 0.755592
0.499544 0.499544 1.000000
0.498174 0.753996 0.000000
0.497948 0.753771 0.242125
0.497718 0.753540 0.497718
0.497487 0.753310 0.753310
0.497262 0.753084 1.000000
0.495939 1.000000 0.000000
0.495713 1.000000 0.239891
0.495483 1.000000 0.495483
0.495253 1.000000 0.751075
0.495027 1.000000 1.000000
0.760117 0.000000 0.000000
0.759892 0.000000 0.248246
0.759661 0.000000 0.503839
0.759431 0.000000 0.759431
0.759205 0.000000 1.000000
0.757883 0.246237 0.000000
0.757657 0.246012 0.246012
0.757427 0.245781 0.501604
0.757196 0.245551 0.757196
0.756971 0.245325 1.000000
0.755600 0.499778 0.000000
0.755375 0.499552 0.243729
0.755144 0.499322 0.499322
0.754914 0.499091 0.754914
0.754688 0.498866 1.000000
0.753318 0.753318 0.000000
0.753092 0.753092 0.241447
0.752862 0.752862 0.497039
0.752632 0.752632 0.752632
0.752406 0.752406 1.000000
0.751083 1.000000 0.000000
0.750858 1.000000 0.239212
0.750627 1.000000 0.494805
0.750397 1.000000 0.750397
0.750171 1.000000 1.000000
1.000000 0.000000 0.000000
1.000000 0.000000 0.247582
1.000000 0.000000 0.503174
1.000000 0.000000 0.758767
1.000000 0.000000 1.000000
1.000000 0.245573 0.000000
1.000000 0.245347 0.245347
1.000000 0.245117 0.500940
1.000000 0.244886 0.756532
1.000000 0.244661 1.000000
1.000000 0.499113 0.000000
1.000000 0.498888 0.243065
1.000000 0.498657 0.498657
1.000000 0.498427 0.754250
1.000000 0.498201 1.000000
1.000000 0.752654 0.000000
1.000000 0.752428 0.240783
1.000000 0.752198 0.496375
1.000000 0.751967 0.751967
1.000000 0.751742 1.000000
1.000000 1.000000 0.000000
1.000000 1.000000 0.238548
1.000000 1.000000 0.494140
1.000000 1.000000 0.749733
1.000000 1.000000 1.000000
