skills/editops-orchestrator/assets/grade/luts/product_clean_v13.cube
TITLE "product_clean_v13"
LUT_3D_SIZE 17
DOMAIN_MIN 0.0 0.0 0.0
DOMAIN_MAX 1.0 1.0 1.0
0.000000 0.000000 0.000000
0.000000 0.000000 0.050396
0.000000 0.000000 0.117136
0.000000 0.000000 0.183877
0.000000 0.000000 0.250617
0.000000 0.000000 0.317358
0.000000 0.000000 0.384098
0.000000 0.000000 0.450839
0.000000 0.000000 0.517579
0.000000 0.000000 0.584320
0.000000 0.000000 0.651060
0.000000 0.000000 0.717801
0.000000 0.000000 0.784541
0.000000 0.000000 0.851282
0.000000 0.000000 0.918022
0.000000 0.000000 0.984763
0.000000 0.000000 1.000000
0.000000 0.049210 0.000000
0.000000 0.049076 0.049076
0.000000 0.048900 0.115817
0.000000 0.048724 0.182557
0.000000 0.048547 0.249298
0.000000 0.048371 0.316038
0.000000 0.048194 0.382779
0.000000 0.048018 0.449519
0.000000 0.047842 0.516260
0.000000 0.047665 0.583000
0.000000 0.047489 0.649741
0.000000 0.047312 0.716481
0.000000 0.047136 0.783222
0.000000 0.046960 0.849962
0.000000 0.046783 0.916703
0.000000 0.046607 0.983443
0.000000 0.046474 1.000000
0.000000 0.114379 0.000000
0.000000 0.114246 0.047329
0.000000 0.114070 0.114070
0.000000 0.113893 0.180810
0.000000 0.113717 0.247551
0.000000 0.113540 0.314291
0.000000 0.113364 0.381032
0.000000 0.113188 0.447772
0.000000 0.113011 0.514513
0.000000 0.112835 0.581253
0.000000 0.112658 0.647994
0.000000 0.112482 0.714734
0.000000 0.112306 0.781475
0.000000 0.112129 0.848215
0.000000 0.111953 0.914956
0.000000 0.111776 0.981696
0.000000 0.111643 1.000000
0.000000 0.179549 0.000000
0.000000 0.179415 0.045582
0.000000 0.179239 0.112322
0.000000 0.179063 0.179063
0.000000 0.178886 0.245803
0.000000 0.178710 0.312544
0.000000 0.178533 0.379284
0.000000 0.178357 0.446025
0.000000 0.178181 0.512765
0.000000 0.178004 0.579506
0.000000 0.177828 0.646246
0.000000 0.177651 0.712987
0.000000 0.177475 0.779727
0.000000 0.177299 0.846468
0.000000 0.177122 0.913208
0.000000 0.176946 0.979949
0.000000 0.176813 1.000000
0.000000 0.244718 0.000000
0.000000 0.244585 0.043834
0.000000 0.244409 0.110575
0.000000 0.244232 0.177315
0.000000 0.244056 0.244056
0.000000 0.243879 0.310796
0.000000 0.243703 0.377537
0.000000 0.243527 0.444277
0.000000 0.243350 0.511018
0.000000 0.243174 0.577758
0.000000 0.242997 0.644499
0.000000 0.242821 0.711239
0.000000 0.242645 0.777980
0.000000 0.242468 0.844720
0.000000 0.242292 0.911461
0.000000 0.242115 0.978201
0.000000 0.241982 1.000000
0.000000 0.309888 0.000000
0.000000 0.309754 0.042087
0.000000 0.309578 0.108827
0.000000 0.309402 0.175568
0.000000 0.309225 0.242308
0.000000 0.309049 0.309049
0.000000 0.308872 0.375789
0.000000 0.308696 0.442530
0.000000 0.308520 0.509270
0.000000 0.308343 0.576011
0.000000 0.308167 0.642751
0.000000 0.307990 0.709492
0.000000 0.307814 0.776232
0.000000 0.307638 0.842973
0.000000 0.307461 0.909713
0.000000 0.307285 0.976454
0.000000 0.307152 1.000000
0.000000 0.375057 0.000000
0.000000 0.374924 0.040340
0.000000 0.374748 0.107080
0.000000 0.374571 0.173820
0.000000 0.374395 0.240561
0.000000 0.374218 0.307301
0.000000 0.374042 0.374042
0.000000 0.373866 0.440782
0.000000 0.373689 0.507523
0.000000 0.373513 0.574263
0.000000 0.373336 0.641004
0.000000 0.373160 0.707744
0.000000 0.372984 0.774485
0.000000 0.372807 0.841225
0.000000 0.372631 0.907966
0.000000 0.372454 0.974706
0.000000 0.372321 1.000000
0.000000 0.440227 0.000000
0.000000 0.440093 0.038592
0.000000 0.439917 0.105333
0.000000 0.439741 0.172073
0.000000 0.439564 0.238814
0.000000 0.439388 0.305554
0.000000 0.439211 0.372295
0.000000 0.439035 0.439035
0.000000 0.438859 0.505776
0.000000 0.438682 0.572516
0.000000 0.438506 0.639257
0.000000 0.438329 0.705997
0.000000 0.438153 0.772738
0.000000 0.437977 0.839478
0.000000 0.437800 0.906219
0.000000 0.437624 0.972959
0.000000 0.437491 1.000000
0.000000 0.505396 0.000000
0.000000 0.505263 0.036845
0.000000 0.505087 0.103585
0.000000 0.504910 0.170326
0.000000 0.504734 0.237066
0.000000 0.504557 0.303807
0.000000 0.504381 0.370547
0.000000 0.504205 0.437288
0.000000 0.504028 0.504028
0.000000 0.503852 0.570769
0.000000 0.503675 0.637509
0.000000 0.503499 0.704250
0.000000 0.503323 0.770990
0.000000 0.503146 0.837731
0.000000 0.502970 0.904471
0.000000 0.502793 0.971212
0.000000 0.502660 1.000000
0.000000 0.570566 0.000000
0.000000 0.570433 0.035097
0.000000 0.570256 0.101838
0.000000 0.570080 0.168578
0.000000 0.569903 0.235319
0.000000 0.569727 0.302059
0.000000 0.569551 0.368800
0.000000 0.569374 0.435540
0.000000 0.569198 0.502281
0.000000 0.569021 0.569021
0.000000 0.568845 0.635762
0.000000 0.568669 0.702502
0.000000 0.568492 0.769243
0.000000 0.568316 0.835983
0.000000 0.568139 0.902724
0.000000 0.567963 0.969464
0.000000 0.567830 1.000000
0.000000 0.635735 0.000000
0.000000 0.635602 0.033350
0.000000 0.635426 0.100090
0.000000 0.635249 0.166831
0.000000 0.635073 0.233571
0.000000 0.634896 0.300312
0.000000 0.634720 0.367052
0.000000 0.634544 0.433793
0.000000 0.634367 0.500533
0.000000 0.634191 0.567274
0.000000 0.634014 0.634014
0.000000 0.633838 0.700755
0.000000 0.633662 0.767495
0.000000 0.633485 0.834236
0.000000 0.633309 0.900976
0.000000 0.633132 0.967717
0.000000 0.632999 1.000000
0.000000 0.700905 0.000000
0.000000 0.700772 0.031603
0.000000 0.700595 0.098343
0.000000 0.700419 0.165084
0.000000 0.700242 0.231824
0.000000 0.700066 0.298565
0.000000 0.699890 0.365305
0.000000 0.699713 0.432046
0.000000 0.699537 0.498786
0.000000 0.699360 0.565527
0.000000 0.699184 0.632267
0.000000 0.699008 0.699008
0.000000 0.698831 0.765748
0.000000 0.698655 0.832489
0.000000 0.698478 0.899229
0.000000 0.698302 0.965970
0.000000 0.698169 1.000000
0.000000 0.766074 0.000000
0.000000 0.765941 0.029855
0.000000 0.765765 0.096596
0.000000 0.765588 0.163336
0.000000 0.765412 0.230077
0.000000 0.765235 0.296817
0.000000 0.765059 0.363558
0.000000 0.764883 0.430298
0.000000 0.764706 0.497039
0.000000 0.764530 0.563779
0.000000 0.764353 0.630520
0.000000 0.764177 0.697260
0.000000 0.764001 0.764001
0.000000 0.763824 0.830741
0.000000 0.763648 0.897482
0.000000 0.763471 0.964222
0.000000 0.763338 1.000000
0.000000 0.831244 0.000000
0.000000 0.831111 0.028108
0.000000 0.830934 0.094848
0.000000 0.830758 0.161589
0.000000 0.830581 0.228329
0.000000 0.830405 0.295070
0.000000 0.830229 0.361810
0.000000 0.830052 0.428551
0.000000 0.829876 0.495291
0.000000 0.829699 0.562032
0.000000 0.829523 0.628772
0.000000 0.829347 0.695513
0.000000 0.829170 0.762253
0.000000 0.828994 0.828994
0.000000 0.828817 0.895734
0.000000 0.828641 0.962475
0.000000 0.828508 1.000000
0.000000 0.896413 0.000000
0.000000 0.896280 0.026360
0.000000 0.896104 0.093101
0.000000 0.895927 0.159841
0.000000 0.895751 0.226582
0.000000 0.895574 0.293322
0.000000 0.895398 0.360063
0.000000 0.895222 0.426803
0.000000 0.895045 0.493544
0.000000 0.894869 0.560284
0.000000 0.894692 0.627025
0.000000 0.894516 0.693765
0.000000 0.894340 0.760506
0.000000 0.894163 0.827246
0.000000 0.893987 0.893987
0.000000 0.893810 0.960727
0.000000 0.893677 1.000000
0.000000 0.961583 0.000000
0.000000 0.961450 0.024613
0.000000 0.961273 0.091354
0.000000 0.961097 0.158094
0.000000 0.960920 0.224835
0.000000 0.960744 0.291575
0.000000 0.960568 0.358316
0.000000 0.960391 0.425056
0.000000 0.960215 0.491797
0.000000 0.960038 0.558537
0.000000 0.959862 0.625278
0.000000 0.959686 0.692018
0.000000 0.959509 0.758758
0.000000 0.959333 0.825499
0.000000 0.959156 0.892239
0.000000 0.958980 0.958980
0.000000 0.958847 1.000000
0.000000 1.000000 0.000000
0.000000 1.000000 0.023294
0.000000 1.000000 0.090034
0.000000 1.000000 0.156775
0.000000 1.000000 0.223515
0.000000 1.000000 0.290256
0.000000 1.000000 0.356996
0.000000 1.000000 0.423737
0.000000 1.000000 0.490477
0.000000 1.000000 0.557218
0.000000 1.000000 0.623958
0.000000 1.000000 0.690699
0.000000 1.000000 0.757439
0.000000 1.000000 0.824180
0.000000 1.000000 0.890920
0.000000 1.000000 0.957661
0.000000 1.000000 1.000000
0.050137 0.000000 0.000000
0.050004 0.000000 0.050004
0.049827 0.000000 0.116744
0.049651 0.000000 0.183485
0.049474 0.000000 0.250225
0.049298 0.000000 0.316966
0.049122 0.000000 0.383706
0.048945 0.000000 0.450447
0.048769 0.000000 0.517187
0.048592 0.000000 0.583928
0.048416 0.000000 0.650668
0.048240 0.000000 0.717409
0.048063 0.000000 0.784149
0.047887 0.000000 0.850890
0.047710 0.000000 0.917630
0.047534 0.000000 0.984371
0.047401 0.000000 1.000000
0.048817 0.048817 0.000000
0.048684 0.048684 0.048684
0.048508 0.048508 0.115425
0.048331 0.048331 0.182165
0.048155 0.048155 0.248906
0.047979 0.047979 0.315646
0.047802 0.047802 0.382387
0.047626 0.047626 0.449127
0.047449 0.047449 0.515868
0.047273 0.047273 0.582608
0.047097 0.047097 0.649349
0.046920 0.046920 0.716089
0.046744 0.046744 0.782830
0.046567 0.046567 0.849570
0.046391 0.046391 0.916311
0.046215 0.046215 0.983051
0.046081 0.046081 1.000000
0.047070 0.113987 0.000000
0.046937 0.113854 0.046937
0.046760 0.113677 0.113677
0.046584 0.113501 0.180418
0.046408 0.113325 0.247158
0.046231 0.113148 0.313899
0.046055 0.112972 0.380639
0.045878 0.112795 0.447380
0.045702 0.112619 0.514120
0.045526 0.112443 0.580861
0.045349 0.112266 0.647601
0.045173 0.112090 0.714342
0.044996 0.111913 0.781082
0.044820 0.111737 0.847823
0.044644 0.111561 0.914563
0.044467 0.111384 0.981304
0.044334 0.111251 1.000000
0.045323 0.179156 0.000000
0.045189 0.179023 0.045189
0.045013 0.178847 0.111930
0.044837 0.178670 0.178670
0.044660 0.178494 0.245411
0.044484 0.178318 0.312151
0.044307 0.178141 0.378892
0.044131 0.177965 0.445632
0.043955 0.177788 0.512373
0.043778 0.177612 0.579113
0.043602 0.177436 0.645854
0.043425 0.177259 0.712594
0.043249 0.177083 0.779335
0.043073 0.176906 0.846075
0.042896 0.176730 0.912816
0.042720 0.176554 0.979556
0.042587 0.176420 1.000000
0.043575 0.244326 0.000000
0.043442 0.244193 0.043442
0.043266 0.244016 0.110183
0.043089 0.243840 0.176923
0.042913 0.243664 0.243664
0.042736 0.243487 0.310404
0.042560 0.243311 0.377145
0.042384 0.243134 0.443885
0.042207 0.242958 0.510626
0.042031 0.242782 0.577366
0.041854 0.242605 0.644107
0.041678 0.242429 0.710847
0.041502 0.242252 0.777588
0.041325 0.242076 0.844328
0.041149 0.241900 0.911069
0.040972 0.241723 0.977809
0.040839 0.241590 1.000000
0.041828 0.309495 0.000000
0.041695 0.309362 0.041695
0.041518 0.309186 0.108435
0.041342 0.309009 0.175176
0.041165 0.308833 0.241916
0.040989 0.308657 0.308657
0.040813 0.308480 0.375397
0.040636 0.308304 0.442138
0.040460 0.308127 0.508878
0.040283 0.307951 0.575619
0.040107 0.307775 0.642359
0.039931 0.307598 0.709100
0.039754 0.307422 0.775840
0.039578 0.307245 0.842581
0.039401 0.307069 0.909321
0.039225 0.306893 0.976062
0.039092 0.306759 1.000000
0.040080 0.374665 0.000000
0.039947 0.374532 0.039947
0.039771 0.374355 0.106688
0.039594 0.374179 0.173428
0.039418 0.374003 0.240169
0.039242 0.373826 0.306909
0.039065 0.373650 0.373650
0.038889 0.373473 0.440390
0.038712 0.373297 0.507131
0.038536 0.373121 0.573871
0.038360 0.372944 0.640612
0.038183 0.372768 0.707352
0.038007 0.372591 0.774093
0.037830 0.372415 0.840833
0.037654 0.372239 0.907574
0.037478 0.372062 0.974314
0.037344 0.371929 1.000000
0.038333 0.439834 0.000000
0.038200 0.439701 0.038200
0.038023 0.439525 0.104940
0.037847 0.439348 0.171681
0.037671 0.439172 0.238421
0.037494 0.438996 0.305162
0.037318 0.438819 0.371902
0.037141 0.438643 0.438643
0.036965 0.438466 0.505383
0.036789 0.438290 0.572124
0.036612 0.438114 0.638864
0.036436 0.437937 0.705605
0.036259 0.437761 0.772345
0.036083 0.437584 0.839086
0.035907 0.437408 0.905826
0.035730 0.437232 0.972567
0.035597 0.437098 1.000000
0.036586 0.505004 0.000000
0.036453 0.504871 0.036453
0.036276 0.504694 0.103193
0.036100 0.504518 0.169934
0.035923 0.504342 0.236674
0.035747 0.504165 0.303414
0.035571 0.503989 0.370155
0.035394 0.503812 0.436895
0.035218 0.503636 0.503636
0.035041 0.503460 0.570376
0.034865 0.503283 0.637117
0.034689 0.503107 0.703857
0.034512 0.502930 0.770598
0.034336 0.502754 0.837338
0.034159 0.502578 0.904079
0.033983 0.502401 0.970819
0.033850 0.502268 1.000000
0.034838 0.570174 0.000000
0.034705 0.570040 0.034705
0.034529 0.569864 0.101446
0.034352 0.569688 0.168186
0.034176 0.569511 0.234927
0.034000 0.569335 0.301667
0.033823 0.569158 0.368408
0.033647 0.568982 0.435148
0.033470 0.568806 0.501889
0.033294 0.568629 0.568629
0.033118 0.568453 0.635370
0.032941 0.568276 0.702110
0.032765 0.568100 0.768851
0.032588 0.567924 0.835591
0.032412 0.567747 0.902332
0.032236 0.567571 0.969072
0.032102 0.567438 1.000000
0.033091 0.635343 0.000000
0.032958 0.635210 0.032958
0.032781 0.635033 0.099698
0.032605 0.634857 0.166439
0.032429 0.634681 0.233179
0.032252 0.634504 0.299920
0.032076 0.634328 0.366660
0.031899 0.634151 0.433401
0.031723 0.633975 0.500141
0.031547 0.633799 0.566882
0.031370 0.633622 0.633622
0.031194 0.633446 0.700363
0.031017 0.633269 0.767103
0.030841 0.633093 0.833844
0.030665 0.632917 0.900584
0.030488 0.632740 0.967325
0.030355 0.632607 1.000000
0.031344 0.700513 0.000000
0.031210 0.700379 0.031210
0.031034 0.700203 0.097951
0.030858 0.700027 0.164691
0.030681 0.699850 0.231432
0.030505 0.699674 0.298172
0.030328 0.699497 0.364913
0.030152 0.699321 0.431653
0.029976 0.699145 0.498394
0.029799 0.698968 0.565134
0.029623 0.698792 0.631875
0.029446 0.698615 0.698615
0.029270 0.698439 0.765356
0.029094 0.698263 0.832096
0.028917 0.698086 0.898837
0.028741 0.697910 0.965577
0.028608 0.697777 1.000000
0.029596 0.765682 0.000000
0.029463 0.765549 0.029463
0.029287 0.765372 0.096203
0.029110 0.765196 0.162944
0.028934 0.765020 0.229684
0.028757 0.764843 0.296425
0.028581 0.764667 0.363165
0.028405 0.764490 0.429906
0.028228 0.764314 0.496646
0.028052 0.764138 0.563387
0.027875 0.763961 0.630127
0.027699 0.763785 0.696868
0.027523 0.763608 0.763608
0.027346 0.763432 0.830349
0.027170 0.763256 0.897089
0.026993 0.763079 0.963830
0.026860 0.762946 1.000000
0.027849 0.830852 0.000000
0.027716 0.830718 0.027716
0.027539 0.830542 0.094456
0.027363 0.830366 0.161197
0.027186 0.830189 0.227937
0.027010 0.830013 0.294678
0.026834 0.829836 0.361418
0.026657 0.829660 0.428159
0.026481 0.829484 0.494899
0.026304 0.829307 0.561640
0.026128 0.829131 0.628380
0.025952 0.828954 0.695121
0.025775 0.828778 0.761861
0.025599 0.828602 0.828602
0.025422 0.828425 0.895342
0.025246 0.828249 0.962083
0.025113 0.828116 1.000000
0.026101 0.896021 0.000000
0.025968 0.895888 0.025968
0.025792 0.895711 0.092709
0.025615 0.895535 0.159449
0.025439 0.895359 0.226190
0.025263 0.895182 0.292930
0.025086 0.895006 0.359671
0.024910 0.894829 0.426411
0.024733 0.894653 0.493152
0.024557 0.894477 0.559892
0.024381 0.894300 0.626633
0.024204 0.894124 0.693373
0.024028 0.893947 0.760114
0.023851 0.893771 0.826854
0.023675 0.893595 0.893595
0.023499 0.893418 0.960335
0.023365 0.893285 1.000000
0.024354 0.961191 0.000000
0.024221 0.961057 0.024221
0.024044 0.960881 0.090961
0.023868 0.960705 0.157702
0.023692 0.960528 0.224442
0.023515 0.960352 0.291183
0.023339 0.960175 0.357923
0.023162 0.959999 0.424664
0.022986 0.959823 0.491404
0.022810 0.959646 0.558145
0.022633 0.959470 0.624885
0.022457 0.959293 0.691626
0.022280 0.959117 0.758366
0.022104 0.958941 0.825107
0.021928 0.958764 0.891847
0.021751 0.958588 0.958588
0.021618 0.958455 1.000000
0.023035 1.000000 0.000000
0.022901 1.000000 0.022901
0.022725 1.000000 0.089642
0.022549 1.000000 0.156382
0.022372 1.000000 0.223123
0.022196 1.000000 0.289863
0.022019 1.000000 0.356604
0.021843 1.000000 0.423344
0.021667 1.000000 0.490085
0.021490 1.000000 0.556825
0.021314 1.000000 0.623566
0.021137 1.000000 0.690306
0.020961 1.000000 0.757047
0.020785 1.000000 0.823787
0.020608 1.000000 0.890528
0.020432 1.000000 0.957268
0.020299 1.000000 1.000000
0.116534 0.000000 0.000000
0.116401 0.000000 0.049484
0.116225 0.000000 0.116225
0.116048 0.000000 0.182965
0.115872 0.000000 0.249706
0.115696 0.000000 0.316446
0.115519 0.000000 0.383187
0.115343 0.000000 0.449927
0.115166 0.000000 0.516668
0.114990 0.000000 0.583408
0.114814 0.000000 0.650149
0.114637 0.000000 0.716889
0.114461 0.000000 0.783630
0.114284 0.000000 0.850370
0.114108 0.000000 0.917111
0.113932 0.000000 0.983851
0.113798 0.000000 1.000000
0.115215 0.048298 0.000000
0.115082 0.048165 0.048165
0.114905 0.047988 0.114905
0.114729 0.047812 0.181646
0.114552 0.047636 0.248386
0.114376 0.047459 0.315127
0.114200 0.047283 0.381867
0.114023 0.047106 0.448608
0.113847 0.046930 0.515348
0.113670 0.046754 0.582089
0.113494 0.046577 0.648829
0.113318 0.046401 0.715570
0.113141 0.046224 0.782310
0.112965 0.046048 0.849051
0.112788 0.045872 0.915791
0.112612 0.045695 0.982532
0.112479 0.045562 1.000000
0.113467 0.113467 0.000000
0.113334 0.113334 0.046417
0.113158 0.113158 0.113158
0.112981 0.112981 0.179898
0.112805 0.112805 0.246639
0.112629 0.112629 0.313379
0.112452 0.112452 0.380120
0.112276 0.112276 0.446860
0.112099 0.112099 0.513601
0.111923 0.111923 0.580341
0.111747 0.111747 0.647082
0.111570 0.111570 0.713822
0.111394 0.111394 0.780563
0.111217 0.111217 0.847303
0.111041 0.111041 0.914044
0.110865 0.110865 0.980784
0.110731 0.110731 1.000000
0.111720 0.178637 0.000000
0.111587 0.178504 0.044670
0.111411 0.178327 0.111411
0.111234 0.178151 0.178151
0.111058 0.177975 0.244892
0.110881 0.177798 0.311632
0.110705 0.177622 0.378372
0.110529 0.177445 0.445113
0.110352 0.177269 0.511853
0.110176 0.177093 0.578594
0.109999 0.176916 0.645334
0.109823 0.176740 0.712075
0.109647 0.176563 0.778815
0.109470 0.176387 0.845556
0.109294 0.176211 0.912296
0.109117 0.176034 0.979037
0.108984 0.175901 1.000000
0.109973 0.243807 0.000000
0.109840 0.243673 0.042923
0.109663 0.243497 0.109663
0.109487 0.243321 0.176404
0.109310 0.243144 0.243144
0.109134 0.242968 0.309885
0.108958 0.242791 0.376625
0.108781 0.242615 0.443366
0.108605 0.242439 0.510106
0.108428 0.242262 0.576847
0.108252 0.242086 0.643587
0.108076 0.241909 0.710328
0.107899 0.241733 0.777068
0.107723 0.241557 0.843809
0.107546 0.241380 0.910549
0.107370 0.241204 0.977290
0.107237 0.241071 1.000000
0.108225 0.308976 0.000000
0.108092 0.308843 0.041175
0.107916 0.308666 0.107916
0.107739 0.308490 0.174656
0.107563 0.308314 0.241397
0.107387 0.308137 0.308137
0.107210 0.307961 0.374878
0.107034 0.307784 0.441618
0.106857 0.307608 0.508359
0.106681 0.307432 0.575099
0.106505 0.307255 0.641840
0.106328 0.307079 0.708580
0.106152 0.306902 0.775321
0.105975 0.306726 0.842061
0.105799 0.306550 0.908802
0.105623 0.306373 0.975542
0.105489 0.306240 1.000000
0.106478 0.374146 0.000000
0.106345 0.374012 0.039428
0.106168 0.373836 0.106168
0.105992 0.373660 0.172909
0.105816 0.373483 0.239649
0.105639 0.373307 0.306390
0.105463 0.373130 0.373130
0.105286 0.372954 0.439871
0.105110 0.372778 0.506611
0.104934 0.372601 0.573352
0.104757 0.372425 0.640092
0.104581 0.372248 0.706833
0.104404 0.372072 0.773573
0.104228 0.371896 0.840314
0.104052 0.371719 0.907054
0.103875 0.371543 0.973795
0.103742 0.371410 1.000000
0.104731 0.439315 0.000000
0.104597 0.439182 0.037680
0.104421 0.439005 0.104421
0.104245 0.438829 0.171161
0.104068 0.438653 0.237902
0.103892 0.438476 0.304642
0.103715 0.438300 0.371383
0.103539 0.438123 0.438123
0.103363 0.437947 0.504864
0.103186 0.437771 0.571604
0.103010 0.437594 0.638345
0.102833 0.437418 0.705085
0.102657 0.437241 0.771826
0.102481 0.437065 0.838566
0.102304 0.436889 0.905307
0.102128 0.436712 0.972047
0.101995 0.436579 1.000000
0.102983 0.504485 0.000000
0.102850 0.504351 0.035933
0.102674 0.504175 0.102674
0.102497 0.503999 0.169414
0.102321 0.503822 0.236155
0.102144 0.503646 0.302895
0.101968 0.503469 0.369636
0.101792 0.503293 0.436376
0.101615 0.503117 0.503117
0.101439 0.502940 0.569857
0.101262 0.502764 0.636598
0.101086 0.502587 0.703338
0.100910 0.502411 0.770079
0.100733 0.502235 0.836819
0.100557 0.502058 0.903560
0.100380 0.501882 0.970300
0.100247 0.501749 1.000000
0.101236 0.569654 0.000000
0.101103 0.569521 0.034186
0.100926 0.569344 0.100926
0.100750 0.569168 0.167667
0.100573 0.568992 0.234407
0.100397 0.568815 0.301148
0.100221 0.568639 0.367888
0.100044 0.568462 0.434629
0.099868 0.568286 0.501369
0.099691 0.568110 0.568110
0.099515 0.567933 0.634850
0.099339 0.567757 0.701591
0.099162 0.567580 0.768331
0.098986 0.567404 0.835072
0.098809 0.567228 0.901812
0.098633 0.567051 0.968553
0.098500 0.566918 1.000000
0.099488 0.634824 0.000000
0.099355 0.634690 0.032438
0.099179 0.634514 0.099179
0.099002 0.634338 0.165919
0.098826 0.634161 0.232660
0.098650 0.633985 0.299400
0.098473 0.633808 0.366141
0.098297 0.633632 0.432881
0.098120 0.633456 0.499622
0.097944 0.633279 0.566362
0.097768 0.633103 0.633103
0.097591 0.632926 0.699843
0.097415 0.632750 0.766584
0.097238 0.632574 0.833324
0.097062 0.632397 0.900065
0.096886 0.632221 0.966805
0.096752 0.632088 1.000000
0.097741 0.699993 0.000000
0.097608 0.699860 0.030691
0.097431 0.699683 0.097431
0.097255 0.699507 0.164172
0.097079 0.699331 0.230912
0.096902 0.699154 0.297653
0.096726 0.698978 0.364393
0.096549 0.698801 0.431134
0.096373 0.698625 0.497874
0.096197 0.698449 0.564615
0.096020 0.698272 0.631355
0.095844 0.698096 0.698096
0.095667 0.697919 0.764836
0.095491 0.697743 0.831577
0.095315 0.697567 0.898317
0.095138 0.697390 0.965058
0.095005 0.697257 1.000000
0.095994 0.765163 0.000000
0.095860 0.765029 0.028944
0.095684 0.764853 0.095684
0.095508 0.764677 0.162425
0.095331 0.764500 0.229165
0.095155 0.764324 0.295906
0.094978 0.764147 0.362646
0.094802 0.763971 0.429387
0.094626 0.763795 0.496127
0.094449 0.763618 0.562868
0.094273 0.763442 0.629608
0.094096 0.763265 0.696349
0.093920 0.763089 0.763089
0.093744 0.762913 0.829830
0.093567 0.762736 0.896570
0.093391 0.762560 0.963311
0.093258 0.762427 1.000000
0.094246 0.830332 0.000000
0.094113 0.830199 0.027196
0.093937 0.830023 0.093937
0.093760 0.829846 0.160677
0.093584 0.829670 0.227418
0.093407 0.829493 0.294158
0.093231 0.829317 0.360899
0.093055 0.829141 0.427639
0.092878 0.828964 0.494380
0.092702 0.828788 0.561120
0.092525 0.828611 0.627861
0.092349 0.828435 0.694601
0.092173 0.828259 0.761342
0.091996 0.828082 0.828082
0.091820 0.827906 0.894823
0.091643 0.827729 0.961563
0.091510 0.827596 1.000000
0.092499 0.895502 0.000000
0.092366 0.895368 0.025449
0.092189 0.895192 0.092189
0.092013 0.895016 0.158930
0.091836 0.894839 0.225670
0.091660 0.894663 0.292411
0.091484 0.894486 0.359151
0.091307 0.894310 0.425892
0.091131 0.894134 0.492632
0.090954 0.893957 0.559373
0.090778 0.893781 0.626113
0.090602 0.893604 0.692854
0.090425 0.893428 0.759594
0.090249 0.893252 0.826335
0.090072 0.893075 0.893075
0.089896 0.892899 0.959816
0.089763 0.892766 1.000000
0.090751 0.960671 0.000000
0.090618 0.960538 0.023701
0.090442 0.960362 0.090442
0.090265 0.960185 0.157182
0.090089 0.960009 0.223923
0.089913 0.959832 0.290663
0.089736 0.959656 0.357404
0.089560 0.959480 0.424144
0.089383 0.959303 0.490885
0.089207 0.959127 0.557625
0.089031 0.958950 0.624366
0.088854 0.958774 0.691106
0.088678 0.958598 0.757847
0.088501 0.958421 0.824587
0.088325 0.958245 0.891328
0.088149 0.958068 0.958068
0.088015 0.957935 1.000000
0.089432 1.000000 0.000000
0.089299 1.000000 0.022382
0.089122 1.000000 0.089122
0.088946 1.000000 0.155863
0.088770 1.000000 0.222603
0.088593 1.000000 0.289344
0.088417 1.000000 0.356084
0.088240 1.000000 0.422825
0.088064 1.000000 0.489565
0.087888 1.000000 0.556306
0.087711 1.000000 0.623046
0.087535 1.000000 0.689787
0.087358 1.000000 0.756527
0.087182 1.000000 0.823268
0.087006 1.000000 0.890008
0.086829 1.000000 0.956749
0.086696 1.000000 1.000000
0.182932 0.000000 0.000000
0.182799 0.000000 0.048965
0.182622 0.000000 0.115705
0.182446 0.000000 0.182446
0.182269 0.000000 0.249186
0.182093 0.000000 0.315927
0.181917 0.000000 0.382667
0.181740 0.000000 0.449408
0.181564 0.000000 0.516148
0.181387 0.000000 0.582889
0.181211 0.000000 0.649629
0.181035 0.000000 0.716370
0.180858 0.000000 0.783110
0.180682 0.000000 0.849851
0.180505 0.000000 0.916591
0.180329 0.000000 0.983332
0.180196 0.000000 1.000000
0.181612 0.047779 0.000000
