skills/editops-orchestrator/assets/grade/luts/product_clean_v03.cube
TITLE "product_clean_v03"
LUT_3D_SIZE 9
DOMAIN_MIN 0.0 0.0 0.0
DOMAIN_MAX 1.0 1.0 1.0
0.000000 0.000000 0.000000
0.000000 0.000000 0.123747
0.000000 0.000000 0.250141
0.000000 0.000000 0.376536
0.000000 0.000000 0.502930
0.000000 0.000000 0.629324
0.000000 0.000000 0.755718
0.000000 0.000000 0.882113
0.000000 0.000000 1.000000
0.000000 0.123248 0.000000
0.000000 0.123192 0.123192
0.000000 0.123134 0.249586
0.000000 0.123077 0.375980
0.000000 0.123020 0.502374
0.000000 0.122962 0.628768
0.000000 0.122905 0.755163
0.000000 0.122848 0.881557
0.000000 0.122792 1.000000
0.000000 0.249132 0.000000
0.000000 0.249075 0.122624
0.000000 0.249018 0.249018
0.000000 0.248961 0.375412
0.000000 0.248904 0.501807
0.000000 0.248846 0.628201
0.000000 0.248789 0.754595
0.000000 0.248732 0.880989
0.000000 0.248676 1.000000
0.000000 0.375015 0.000000
0.000000 0.374959 0.122056
0.000000 0.374902 0.248451
0.000000 0.374845 0.374845
0.000000 0.374787 0.501239
0.000000 0.374730 0.627633
0.000000 0.374673 0.754027
0.000000 0.374616 0.880422
0.000000 0.374559 1.000000
0.000000 0.500899 0.000000
0.000000 0.500843 0.121489
0.000000 0.500786 0.247883
0.000000 0.500729 0.374277
0.000000 0.500671 0.500671
0.000000 0.500614 0.627066
0.000000 0.500557 0.753460
0.000000 0.500499 0.879854
0.000000 0.500443 1.000000
0.000000 0.626783 0.000000
0.000000 0.626727 0.120921
0.000000 0.626670 0.247315
0.000000 0.626613 0.373710
0.000000 0.626555 0.500104
0.000000 0.626498 0.626498
0.000000 0.626441 0.752892
0.000000 0.626383 0.879286
0.000000 0.626327 1.000000
0.000000 0.752667 0.000000
0.000000 0.752611 0.120353
0.000000 0.752554 0.246748
0.000000 0.752497 0.373142
0.000000 0.752439 0.499536
0.000000 0.752382 0.625930
0.000000 0.752325 0.752325
0.000000 0.752267 0.878719
0.000000 0.752211 1.000000
0.000000 0.878551 0.000000
0.000000 0.878495 0.119786
0.000000 0.878438 0.246180
0.000000 0.878380 0.372574
0.000000 0.878323 0.498969
0.000000 0.878266 0.625363
0.000000 0.878209 0.751757
0.000000 0.878151 0.878151
0.000000 0.878095 1.000000
0.000000 1.000000 0.000000
0.000000 1.000000 0.119230
0.000000 1.000000 0.245624
0.000000 1.000000 0.372019
0.000000 1.000000 0.498413
0.000000 1.000000 0.624807
0.000000 1.000000 0.751201
0.000000 1.000000 0.877596
0.000000 1.000000 1.000000
0.123638 0.000000 0.000000
0.123582 0.000000 0.123582
0.123525 0.000000 0.249976
0.123467 0.000000 0.376370
0.123410 0.000000 0.502765
0.123353 0.000000 0.629159
0.123296 0.000000 0.755553
0.123238 0.000000 0.881947
0.123182 0.000000 1.000000
0.123082 0.123082 0.000000
0.123026 0.123026 0.123026
0.122969 0.122969 0.249421
0.122912 0.122912 0.375815
0.122854 0.122854 0.502209
0.122797 0.122797 0.628603
0.122740 0.122740 0.754997
0.122683 0.122683 0.881392
0.122626 0.122626 1.000000
0.122515 0.248966 0.000000
0.122459 0.248910 0.122459
0.122401 0.248853 0.248853
0.122344 0.248796 0.375247
0.122287 0.248738 0.501641
0.122230 0.248681 0.628036
0.122172 0.248624 0.754430
0.122115 0.248566 0.880824
0.122059 0.248510 1.000000
0.121947 0.374850 0.000000
0.121891 0.374794 0.121891
0.121834 0.374737 0.248285
0.121777 0.374680 0.374680
0.121719 0.374622 0.501074
0.121662 0.374565 0.627468
0.121605 0.374508 0.753862
0.121547 0.374450 0.880256
0.121491 0.374394 1.000000
0.121380 0.500734 0.000000
0.121324 0.500678 0.121324
0.121266 0.500621 0.247718
0.121209 0.500563 0.374112
0.121152 0.500506 0.500506
0.121094 0.500449 0.626900
0.121037 0.500392 0.753295
0.120980 0.500334 0.879689
0.120924 0.500278 1.000000
0.120812 0.626618 0.000000
0.120756 0.626562 0.120756
0.120699 0.626505 0.247150
0.120641 0.626447 0.373544
0.120584 0.626390 0.499939
0.120527 0.626333 0.626333
0.120469 0.626275 0.752727
0.120412 0.626218 0.879121
0.120356 0.626162 1.000000
0.120244 0.752502 0.000000
0.120188 0.752446 0.120188
0.120131 0.752389 0.246583
0.120074 0.752331 0.372977
0.120016 0.752274 0.499371
0.119959 0.752217 0.625765
0.119902 0.752159 0.752159
0.119844 0.752102 0.878554
0.119788 0.752046 1.000000
0.119677 0.878386 0.000000
0.119621 0.878330 0.119621
0.119563 0.878273 0.246015
0.119506 0.878215 0.372409
0.119449 0.878158 0.498803
0.119391 0.878101 0.625198
0.119334 0.878043 0.751592
0.119277 0.877986 0.877986
0.119221 0.877930 1.000000
0.119121 1.000000 0.000000
0.119065 1.000000 0.119065
0.119008 1.000000 0.245459
0.118950 1.000000 0.371853
0.118893 1.000000 0.498248
0.118836 1.000000 0.624642
0.118778 1.000000 0.751036
0.118721 1.000000 0.877430
0.118665 1.000000 1.000000
0.249921 0.000000 0.000000
0.249865 0.000000 0.123413
0.249808 0.000000 0.249808
0.249750 0.000000 0.376202
0.249693 0.000000 0.502596
0.249636 0.000000 0.628990
0.249578 0.000000 0.755384
0.249521 0.000000 0.881779
0.249465 0.000000 1.000000
0.249365 0.122914 0.000000
0.249309 0.122858 0.122858
0.249252 0.122800 0.249252
0.249195 0.122743 0.375646
0.249137 0.122686 0.502040
0.249080 0.122628 0.628434
0.249023 0.122571 0.754829
0.248965 0.122514 0.881223
0.248909 0.122458 1.000000
0.248798 0.248798 0.000000
0.248742 0.248742 0.122290
0.248684 0.248684 0.248684
0.248627 0.248627 0.375078
0.248570 0.248570 0.501473
0.248512 0.248512 0.627867
0.248455 0.248455 0.754261
0.248398 0.248398 0.880655
0.248342 0.248342 1.000000
0.248230 0.374682 0.000000
0.248174 0.374625 0.121722
0.248117 0.374568 0.248117
0.248059 0.374511 0.374511
0.248002 0.374454 0.500905
0.247945 0.374396 0.627299
0.247887 0.374339 0.753694
0.247830 0.374282 0.880088
0.247774 0.374226 1.000000
0.247662 0.500565 0.000000
0.247606 0.500509 0.121155
0.247549 0.500452 0.247549
0.247492 0.500395 0.373943
0.247434 0.500337 0.500337
0.247377 0.500280 0.626732
0.247320 0.500223 0.753126
0.247263 0.500166 0.879520
0.247206 0.500109 1.000000
0.247095 0.626449 0.000000
0.247039 0.626393 0.120587
0.246981 0.626336 0.246981
0.246924 0.626279 0.373376
0.246867 0.626221 0.499770
0.246810 0.626164 0.626164
0.246752 0.626107 0.752558
0.246695 0.626049 0.878953
0.246639 0.625993 1.000000
0.246527 0.752333 0.000000
0.246471 0.752277 0.120020
0.246414 0.752220 0.246414
0.246356 0.752163 0.372808
0.246299 0.752105 0.499202
0.246242 0.752048 0.625596
0.246185 0.751991 0.751991
0.246127 0.751933 0.878385
0.246071 0.751877 1.000000
0.245960 0.878217 0.000000
0.245903 0.878161 0.119452
0.245846 0.878104 0.245846
0.245789 0.878047 0.372240
0.245732 0.877989 0.498635
0.245674 0.877932 0.625029
0.245617 0.877875 0.751423
0.245560 0.877817 0.877817
0.245504 0.877761 1.000000
0.245404 1.000000 0.000000
0.245348 1.000000 0.118896
0.245290 1.000000 0.245290
0.245233 1.000000 0.371685
0.245176 1.000000 0.498079
0.245119 1.000000 0.624473
0.245061 1.000000 0.750867
0.245004 1.000000 0.877262
0.244948 1.000000 1.000000
0.376204 0.000000 0.000000
0.376148 0.000000 0.123245
0.376090 0.000000 0.249639
0.376033 0.000000 0.376033
0.375976 0.000000 0.502427
0.375918 0.000000 0.628821
0.375861 0.000000 0.755216
0.375804 0.000000 0.881610
0.375748 0.000000 1.000000
0.375648 0.122745 0.000000
0.375592 0.122689 0.122689
0.375535 0.122632 0.249083
0.375477 0.122574 0.375477
0.375420 0.122517 0.501872
0.375363 0.122460 0.628266
0.375305 0.122402 0.754660
0.375248 0.122345 0.881054
0.375192 0.122289 1.000000
0.375080 0.248629 0.000000
0.375024 0.248573 0.122121
0.374967 0.248515 0.248515
0.374910 0.248458 0.374910
0.374852 0.248401 0.501304
0.374795 0.248344 0.627698
0.374738 0.248286 0.754092
0.374681 0.248229 0.880487
0.374624 0.248173 1.000000
0.374513 0.374513 0.000000
0.374457 0.374457 0.121554
0.374399 0.374399 0.247948
0.374342 0.374342 0.374342
0.374285 0.374285 0.500736
0.374228 0.374228 0.627131
0.374170 0.374170 0.753525
0.374113 0.374113 0.879919
0.374057 0.374057 1.000000
0.373945 0.500397 0.000000
0.373889 0.500341 0.120986
0.373832 0.500283 0.247380
0.373775 0.500226 0.373775
0.373717 0.500169 0.500169
0.373660 0.500111 0.626563
0.373603 0.500054 0.752957
0.373545 0.499997 0.879351
0.373489 0.499941 1.000000
0.373378 0.626281 0.000000
0.373321 0.626225 0.120418
0.373264 0.626167 0.246813
0.373207 0.626110 0.373207
0.373150 0.626053 0.499601
0.373092 0.625995 0.625995
0.373035 0.625938 0.752390
0.372978 0.625881 0.878784
0.372922 0.625825 1.000000
0.372810 0.752165 0.000000
0.372754 0.752108 0.119851
0.372697 0.752051 0.246245
0.372639 0.751994 0.372639
0.372582 0.751937 0.499034
0.372525 0.751879 0.625428
0.372467 0.751822 0.751822
0.372410 0.751765 0.878216
0.372354 0.751709 1.000000
0.372242 0.878048 0.000000
0.372186 0.877992 0.119283
0.372129 0.877935 0.245677
0.372072 0.877878 0.372072
0.372014 0.877820 0.498466
0.371957 0.877763 0.624860
0.371900 0.877706 0.751254
0.371842 0.877649 0.877649
0.371786 0.877592 1.000000
0.371687 1.000000 0.000000
0.371631 1.000000 0.118728
0.371573 1.000000 0.245122
0.371516 1.000000 0.371516
0.371459 1.000000 0.497910
0.371401 1.000000 0.624304
0.371344 1.000000 0.750699
0.371287 1.000000 0.877093
0.371231 1.000000 1.000000
0.502487 0.000000 0.000000
0.502430 0.000000 0.123076
0.502373 0.000000 0.249470
0.502316 0.000000 0.375864
0.502259 0.000000 0.502259
0.502201 0.000000 0.628653
0.502144 0.000000 0.755047
0.502087 0.000000 0.881441
0.502031 0.000000 1.000000
0.501931 0.122576 0.000000
0.501875 0.122520 0.122520
0.501817 0.122463 0.248914
0.501760 0.122406 0.375309
0.501703 0.122348 0.501703
0.501646 0.122291 0.628097
0.501588 0.122234 0.754491
0.501531 0.122176 0.880885
0.501475 0.122120 1.000000
0.501363 0.248460 0.000000
0.501307 0.248404 0.121953
0.501250 0.248347 0.248347
0.501193 0.248289 0.374741
0.501135 0.248232 0.501135
0.501078 0.248175 0.627529
0.501021 0.248118 0.753924
0.500963 0.248060 0.880318
0.500907 0.248004 1.000000
0.500796 0.374344 0.000000
0.500740 0.374288 0.121385
0.500682 0.374231 0.247779
0.500625 0.374173 0.374173
0.500568 0.374116 0.500568
0.500510 0.374059 0.626962
0.500453 0.374001 0.753356
0.500396 0.373944 0.879750
0.500340 0.373888 1.000000
0.500228 0.500228 0.000000
0.500172 0.500172 0.120817
0.500115 0.500115 0.247212
0.500057 0.500057 0.373606
0.500000 0.500000 0.500000
0.499943 0.499943 0.626394
0.499885 0.499885 0.752788
0.499828 0.499828 0.879183
0.499772 0.499772 1.000000
0.499660 0.626112 0.000000
0.499604 0.626056 0.120250
0.499547 0.625999 0.246644
0.499490 0.625941 0.373038
0.499432 0.625884 0.499432
0.499375 0.625827 0.625827
0.499318 0.625769 0.752221
0.499260 0.625712 0.878615
0.499204 0.625656 1.000000
0.499093 0.751996 0.000000
0.499037 0.751940 0.119682
0.498979 0.751882 0.246076
0.498922 0.751825 0.372471
0.498865 0.751768 0.498865
0.498807 0.751711 0.625259
0.498750 0.751653 0.751653
0.498693 0.751596 0.878047
0.498637 0.751540 1.000000
0.498525 0.877880 0.000000
0.498469 0.877824 0.119115
0.498412 0.877766 0.245509
0.498354 0.877709 0.371903
0.498297 0.877652 0.498297
0.498240 0.877594 0.624691
0.498183 0.877537 0.751086
0.498125 0.877480 0.877480
0.498069 0.877424 1.000000
0.497969 1.000000 0.000000
0.497913 1.000000 0.118559
0.497856 1.000000 0.244953
0.497799 1.000000 0.371347
0.497741 1.000000 0.497741
0.497684 1.000000 0.624136
0.497627 1.000000 0.750530
0.497570 1.000000 0.876924
0.497513 1.000000 1.000000
0.628769 0.000000 0.000000
0.628713 0.000000 0.122907
0.628656 0.000000 0.249301
0.628599 0.000000 0.375696
0.628541 0.000000 0.502090
0.628484 0.000000 0.628484
0.628427 0.000000 0.754878
0.628369 0.000000 0.881272
0.628313 0.000000 1.000000
0.628214 0.122408 0.000000
0.628158 0.122351 0.122351
0.628100 0.122294 0.248746
0.628043 0.122237 0.375140
0.627986 0.122180 0.501534
0.627928 0.122122 0.627928
0.627871 0.122065 0.754323
0.627814 0.122008 0.880717
0.627758 0.121952 1.000000
0.627646 0.248291 0.000000
0.627590 0.248235 0.121784
0.627533 0.248178 0.248178
0.627475 0.248121 0.374572
0.627418 0.248063 0.500966
0.627361 0.248006 0.627361
0.627303 0.247949 0.753755
0.627246 0.247892 0.880149
0.627190 0.247835 1.000000
0.627078 0.374175 0.000000
0.627022 0.374119 0.121216
0.626965 0.374062 0.247610
0.626908 0.374005 0.374005
0.626850 0.373947 0.500399
0.626793 0.373890 0.626793
0.626736 0.373833 0.753187
0.626679 0.373775 0.879582
0.626622 0.373719 1.000000
0.626511 0.500059 0.000000
0.626455 0.500003 0.120649
0.626397 0.499946 0.247043
0.626340 0.499889 0.373437
0.626283 0.499831 0.499831
0.626225 0.499774 0.626225
0.626168 0.499717 0.752620
0.626111 0.499659 0.879014
0.626055 0.499603 1.000000
0.625943 0.625943 0.000000
0.625887 0.625887 0.120081
0.625830 0.625830 0.246475
0.625772 0.625772 0.372869
0.625715 0.625715 0.499264
0.625658 0.625658 0.625658
0.625601 0.625601 0.752052
0.625543 0.625543 0.878446
0.625487 0.625487 1.000000
0.625376 0.751827 0.000000
0.625319 0.751771 0.119513
0.625262 0.751714 0.245908
0.625205 0.751656 0.372302
0.625148 0.751599 0.498696
0.625090 0.751542 0.625090
0.625033 0.751485 0.751485
0.624976 0.751427 0.877879
0.624920 0.751371 1.000000
0.624808 0.877711 0.000000
0.624752 0.877655 0.118946
0.624695 0.877598 0.245340
0.624637 0.877540 0.371734
0.624580 0.877483 0.498128
0.624523 0.877426 0.624523
0.624465 0.877368 0.750917
0.624408 0.877311 0.877311
0.624352 0.877255 1.000000
0.624252 1.000000 0.000000
0.624196 1.000000 0.118390
0.624139 1.000000 0.244784
0.624082 1.000000 0.371179
0.624024 1.000000 0.497573
0.623967 1.000000 0.623967
0.623910 1.000000 0.750361
0.623852 1.000000 0.876755
0.623796 1.000000 1.000000
0.755052 0.000000 0.000000
0.754996 0.000000 0.122738
0.754939 0.000000 0.249133
0.754881 0.000000 0.375527
0.754824 0.000000 0.501921
0.754767 0.000000 0.628315
0.754710 0.000000 0.754710
0.754652 0.000000 0.881104
0.754596 0.000000 1.000000
0.754496 0.122239 0.000000
0.754440 0.122183 0.122183
0.754383 0.122125 0.248577
0.754326 0.122068 0.374971
0.754268 0.122011 0.501365
0.754211 0.121953 0.627760
0.754154 0.121896 0.754154
0.754097 0.121839 0.880548
0.754040 0.121783 1.000000
0.753929 0.248123 0.000000
0.753873 0.248067 0.121615
0.753815 0.248009 0.248009
0.753758 0.247952 0.374404
0.753701 0.247895 0.500798
0.753644 0.247837 0.627192
0.753586 0.247780 0.753586
0.753529 0.247723 0.879980
0.753473 0.247667 1.000000
0.753361 0.374007 0.000000
0.753305 0.373951 0.121047
0.753248 0.373893 0.247442
0.753190 0.373836 0.373836
0.753133 0.373779 0.500230
0.753076 0.373721 0.626624
0.753019 0.373664 0.753019
0.752961 0.373607 0.879413
0.752905 0.373551 1.000000
0.752794 0.499891 0.000000
0.752737 0.499834 0.120480
0.752680 0.499777 0.246874
0.752623 0.499720 0.373268
0.752566 0.499663 0.499663
0.752508 0.499605 0.626057
0.752451 0.499548 0.752451
0.752394 0.499491 0.878845
0.752338 0.499435 1.000000
0.752226 0.625774 0.000000
0.752170 0.625718 0.119912
0.752113 0.625661 0.246306
0.752055 0.625604 0.372701
0.751998 0.625546 0.499095
0.751941 0.625489 0.625489
0.751883 0.625432 0.751883
0.751826 0.625375 0.878278
0.751770 0.625318 1.000000
0.751658 0.751658 0.000000
0.751602 0.751602 0.119345
0.751545 0.751545 0.245739
0.751488 0.751488 0.372133
0.751430 0.751430 0.498527
0.751373 0.751373 0.624922
0.751316 0.751316 0.751316
0.751258 0.751258 0.877710
0.751202 0.751202 1.000000
0.751091 0.877542 0.000000
0.751035 0.877486 0.118777
0.750977 0.877429 0.245171
0.750920 0.877372 0.371566
0.750863 0.877314 0.497960
0.750805 0.877257 0.624354
0.750748 0.877200 0.750748
0.750691 0.877142 0.877142
0.750635 0.877086 1.000000
0.750535 1.000000 0.000000
0.750479 1.000000 0.118221
0.750422 1.000000 0.244616
0.750364 1.000000 0.371010
0.750307 1.000000 0.497404
0.750250 1.000000 0.623798
0.750192 1.000000 0.750192
0.750135 1.000000 0.876587
0.750079 1.000000 1.000000
0.881335 0.000000 0.000000
0.881279 0.000000 0.122570
0.881222 0.000000 0.248964
0.881164 0.000000 0.375358
0.881107 0.000000 0.501752
0.881050 0.000000 0.628147
0.880992 0.000000 0.754541
0.880935 0.000000 0.880935
0.880879 0.000000 1.000000
0.880779 0.122070 0.000000
0.880723 0.122014 0.122014
0.880666 0.121957 0.248408
0.880609 0.121899 0.374802
0.880551 0.121842 0.501197
0.880494 0.121785 0.627591
0.880437 0.121727 0.753985
0.880379 0.121670 0.880379
0.880323 0.121614 1.000000
0.880212 0.247954 0.000000
0.880156 0.247898 0.121446
0.880098 0.247841 0.247841
0.880041 0.247783 0.374235
0.879984 0.247726 0.500629
0.879926 0.247669 0.627023
0.879869 0.247611 0.753417
0.879812 0.247554 0.879812
0.879756 0.247498 1.000000
0.879644 0.373838 0.000000
0.879588 0.373782 0.120879
0.879531 0.373725 0.247273
0.879473 0.373667 0.373667
0.879416 0.373610 0.500061
0.879359 0.373553 0.626456
0.879301 0.373495 0.752850
0.879244 0.373438 0.879244
0.879188 0.373382 1.000000
0.879076 0.499722 0.000000
0.879020 0.499666 0.120311
0.878963 0.499608 0.246705
0.878906 0.499551 0.373100
0.878848 0.499494 0.499494
0.878791 0.499437 0.625888
0.878734 0.499379 0.752282
0.878676 0.499322 0.878676
0.878620 0.499266 1.000000
0.878509 0.625606 0.000000
0.878453 0.625550 0.119744
0.878395 0.625492 0.246138
0.878338 0.625435 0.372532
0.878281 0.625378 0.498926
0.878223 0.625320 0.625320
0.878166 0.625263 0.751715
0.878109 0.625206 0.878109
0.878053 0.625150 1.000000
0.877941 0.751490 0.000000
0.877885 0.751434 0.119176
0.877828 0.751376 0.245570
0.877770 0.751319 0.371964
0.877713 0.751262 0.498359
0.877656 0.751204 0.624753
0.877599 0.751147 0.751147
0.877541 0.751090 0.877541
0.877485 0.751034 1.000000
0.877374 0.877374 0.000000
0.877317 0.877317 0.118608
0.877260 0.877260 0.245003
0.877203 0.877203 0.371397
0.877146 0.877146 0.497791
0.877088 0.877088 0.624185
0.877031 0.877031 0.750579
0.876974 0.876974 0.876974
0.876918 0.876918 1.000000
0.876818 1.000000 0.000000
0.876762 1.000000 0.118053
0.876704 1.000000 0.244447
0.876647 1.000000 0.370841
0.876590 1.000000 0.497235
0.876533 1.000000 0.623630
0.876475 1.000000 0.750024
0.876418 1.000000 0.876418
0.876362 1.000000 1.000000
1.000000 0.000000 0.000000
1.000000 0.000000 0.122404
1.000000 0.000000 0.248799
1.000000 0.000000 0.375193
1.000000 0.000000 0.501587
1.000000 0.000000 0.627981
1.000000 0.000000 0.754376
1.000000 0.000000 0.880770
1.000000 0.000000 1.000000
1.000000 0.121905 0.000000
1.000000 0.121849 0.121849
1.000000 0.121791 0.248243
1.000000 0.121734 0.374637
1.000000 0.121677 0.501031
1.000000 0.121620 0.627426
1.000000 0.121562 0.753820
1.000000 0.121505 0.880214
1.000000 0.121449 1.000000
1.000000 0.247789 0.000000
1.000000 0.247733 0.121281
1.000000 0.247675 0.247675
1.000000 0.247618 0.374070
1.000000 0.247561 0.500464
1.000000 0.247503 0.626858
1.000000 0.247446 0.753252
1.000000 0.247389 0.879647
1.000000 0.247333 1.000000
1.000000 0.373673 0.000000
1.000000 0.373617 0.120714
1.000000 0.373559 0.247108
1.000000 0.373502 0.373502
1.000000 0.373445 0.499896
1.000000 0.373387 0.626290
1.000000 0.373330 0.752685
1.000000 0.373273 0.879079
1.000000 0.373217 1.000000
1.000000 0.499557 0.000000
1.000000 0.499501 0.120146
1.000000 0.499443 0.246540
1.000000 0.499386 0.372934
1.000000 0.499329 0.499329
1.000000 0.499271 0.625723
1.000000 0.499214 0.752117
1.000000 0.499157 0.878511
1.000000 0.499101 1.000000
1.000000 0.625441 0.000000
1.000000 0.625384 0.119578
1.000000 0.625327 0.245973
1.000000 0.625270 0.372367
1.000000 0.625213 0.498761
1.000000 0.625155 0.625155
1.000000 0.625098 0.751549
1.000000 0.625041 0.877944
1.000000 0.624985 1.000000
1.000000 0.751324 0.000000
1.000000 0.751268 0.119011
1.000000 0.751211 0.245405
1.000000 0.751154 0.371799
1.000000 0.751096 0.498193
1.000000 0.751039 0.624588
1.000000 0.750982 0.750982
1.000000 0.750925 0.877376
1.000000 0.750868 1.000000
1.000000 0.877208 0.000000
1.000000 0.877152 0.118443
1.000000 0.877095 0.244837
1.000000 0.877038 0.371232
1.000000 0.876980 0.497626
1.000000 0.876923 0.624020
1.000000 0.876866 0.750414
1.000000 0.876808 0.876808
1.000000 0.876752 1.000000
1.000000 1.000000 0.000000
1.000000 1.000000 0.117887
1.000000 1.000000 0.244282
1.000000 1.000000 0.370676
1.000000 1.000000 0.497070
1.000000 1.000000 0.623464
1.000000 1.000000 0.749859
1.000000 1.000000 0.876253
1.000000 1.000000 1.000000
