skills/editops-orchestrator/assets/grade/luts/product_clean_v03.cube
TITLE "product_clean_v03"
LUT_3D_SIZE 17
DOMAIN_MIN 0.0 0.0 0.0
DOMAIN_MAX 1.0 1.0 1.0
0.000000 0.000000 0.000000
0.000000 0.000000 0.060550
0.000000 0.000000 0.123747
0.000000 0.000000 0.186944
0.000000 0.000000 0.250141
0.000000 0.000000 0.313339
0.000000 0.000000 0.376536
0.000000 0.000000 0.439733
0.000000 0.000000 0.502930
0.000000 0.000000 0.566127
0.000000 0.000000 0.629324
0.000000 0.000000 0.692521
0.000000 0.000000 0.755718
0.000000 0.000000 0.818915
0.000000 0.000000 0.882113
0.000000 0.000000 0.945310
0.000000 0.000000 1.000000
0.000000 0.060306 0.000000
0.000000 0.060278 0.060278
0.000000 0.060250 0.123475
0.000000 0.060221 0.186672
0.000000 0.060192 0.249870
0.000000 0.060164 0.313067
0.000000 0.060135 0.376264
0.000000 0.060106 0.439461
0.000000 0.060078 0.502658
0.000000 0.060049 0.565855
0.000000 0.060020 0.629052
0.000000 0.059992 0.692249
0.000000 0.059963 0.755446
0.000000 0.059934 0.818644
0.000000 0.059906 0.881841
0.000000 0.059877 0.945038
0.000000 0.059850 1.000000
0.000000 0.123248 0.000000
0.000000 0.123220 0.059994
0.000000 0.123192 0.123192
0.000000 0.123163 0.186389
0.000000 0.123134 0.249586
0.000000 0.123106 0.312783
0.000000 0.123077 0.375980
0.000000 0.123048 0.439177
0.000000 0.123020 0.502374
0.000000 0.122991 0.565571
0.000000 0.122962 0.628768
0.000000 0.122934 0.691966
0.000000 0.122905 0.755163
0.000000 0.122876 0.818360
0.000000 0.122848 0.881557
0.000000 0.122819 0.944754
0.000000 0.122792 1.000000
0.000000 0.186190 0.000000
0.000000 0.186162 0.059711
0.000000 0.186133 0.122908
0.000000 0.186105 0.186105
0.000000 0.186076 0.249302
0.000000 0.186048 0.312499
0.000000 0.186019 0.375696
0.000000 0.185990 0.438893
0.000000 0.185962 0.502090
0.000000 0.185933 0.565287
0.000000 0.185904 0.628485
0.000000 0.185876 0.691682
0.000000 0.185847 0.754879
0.000000 0.185818 0.818076
0.000000 0.185790 0.881273
0.000000 0.185761 0.944470
0.000000 0.185734 1.000000
0.000000 0.249132 0.000000
0.000000 0.249104 0.059427
0.000000 0.249075 0.122624
0.000000 0.249047 0.185821
0.000000 0.249018 0.249018
0.000000 0.248989 0.312215
0.000000 0.248961 0.375412
0.000000 0.248932 0.438609
0.000000 0.248904 0.501807
0.000000 0.248875 0.565004
0.000000 0.248846 0.628201
0.000000 0.248818 0.691398
0.000000 0.248789 0.754595
0.000000 0.248760 0.817792
0.000000 0.248732 0.880989
0.000000 0.248703 0.944186
0.000000 0.248676 1.000000
0.000000 0.312073 0.000000
0.000000 0.312046 0.059143
0.000000 0.312017 0.122340
0.000000 0.311989 0.185537
0.000000 0.311960 0.248734
0.000000 0.311931 0.311931
0.000000 0.311903 0.375129
0.000000 0.311874 0.438326
0.000000 0.311845 0.501523
0.000000 0.311817 0.564720
0.000000 0.311788 0.627917
0.000000 0.311760 0.691114
0.000000 0.311731 0.754311
0.000000 0.311702 0.817508
0.000000 0.311674 0.880705
0.000000 0.311645 0.943903
0.000000 0.311617 1.000000
0.000000 0.375015 0.000000
0.000000 0.374988 0.058859
0.000000 0.374959 0.122056
0.000000 0.374931 0.185253
0.000000 0.374902 0.248451
0.000000 0.374873 0.311648
0.000000 0.374845 0.374845
0.000000 0.374816 0.438042
0.000000 0.374787 0.501239
0.000000 0.374759 0.564436
0.000000 0.374730 0.627633
0.000000 0.374701 0.690830
0.000000 0.374673 0.754027
0.000000 0.374644 0.817225
0.000000 0.374616 0.880422
0.000000 0.374587 0.943619
0.000000 0.374559 1.000000
0.000000 0.437957 0.000000
0.000000 0.437930 0.058575
0.000000 0.437901 0.121772
0.000000 0.437873 0.184970
0.000000 0.437844 0.248167
0.000000 0.437815 0.311364
0.000000 0.437787 0.374561
0.000000 0.437758 0.437758
0.000000 0.437729 0.500955
0.000000 0.437701 0.564152
0.000000 0.437672 0.627349
0.000000 0.437643 0.690547
0.000000 0.437615 0.753744
0.000000 0.437586 0.816941
0.000000 0.437558 0.880138
0.000000 0.437529 0.943335
0.000000 0.437501 1.000000
0.000000 0.500899 0.000000
0.000000 0.500872 0.058292
0.000000 0.500843 0.121489
0.000000 0.500815 0.184686
0.000000 0.500786 0.247883
0.000000 0.500757 0.311080
0.000000 0.500729 0.374277
0.000000 0.500700 0.437474
0.000000 0.500671 0.500671
0.000000 0.500643 0.563868
0.000000 0.500614 0.627066
0.000000 0.500585 0.690263
0.000000 0.500557 0.753460
0.000000 0.500528 0.816657
0.000000 0.500499 0.879854
0.000000 0.500471 0.943051
0.000000 0.500443 1.000000
0.000000 0.563841 0.000000
0.000000 0.563814 0.058008
0.000000 0.563785 0.121205
0.000000 0.563757 0.184402
0.000000 0.563728 0.247599
0.000000 0.563699 0.310796
0.000000 0.563671 0.373993
0.000000 0.563642 0.437190
0.000000 0.563613 0.500388
0.000000 0.563585 0.563585
0.000000 0.563556 0.626782
0.000000 0.563527 0.689979
0.000000 0.563499 0.753176
0.000000 0.563470 0.816373
0.000000 0.563441 0.879570
0.000000 0.563413 0.942767
0.000000 0.563385 1.000000
0.000000 0.626783 0.000000
0.000000 0.626756 0.057724
0.000000 0.626727 0.120921
0.000000 0.626699 0.184118
0.000000 0.626670 0.247315
0.000000 0.626641 0.310512
0.000000 0.626613 0.373710
0.000000 0.626584 0.436907
0.000000 0.626555 0.500104
0.000000 0.626527 0.563301
0.000000 0.626498 0.626498
0.000000 0.626469 0.689695
0.000000 0.626441 0.752892
0.000000 0.626412 0.816089
0.000000 0.626383 0.879286
0.000000 0.626355 0.942484
0.000000 0.626327 1.000000
0.000000 0.689725 0.000000
0.000000 0.689698 0.057440
0.000000 0.689669 0.120637
0.000000 0.689640 0.183834
0.000000 0.689612 0.247032
0.000000 0.689583 0.310229
0.000000 0.689555 0.373426
0.000000 0.689526 0.436623
0.000000 0.689497 0.499820
0.000000 0.689469 0.563017
0.000000 0.689440 0.626214
0.000000 0.689411 0.689411
0.000000 0.689383 0.752608
0.000000 0.689354 0.815806
0.000000 0.689325 0.879003
0.000000 0.689297 0.942200
0.000000 0.689269 1.000000
0.000000 0.752667 0.000000
0.000000 0.752640 0.057156
0.000000 0.752611 0.120353
0.000000 0.752582 0.183551
0.000000 0.752554 0.246748
0.000000 0.752525 0.309945
0.000000 0.752497 0.373142
0.000000 0.752468 0.436339
0.000000 0.752439 0.499536
0.000000 0.752411 0.562733
0.000000 0.752382 0.625930
0.000000 0.752353 0.689127
0.000000 0.752325 0.752325
0.000000 0.752296 0.815522
0.000000 0.752267 0.878719
0.000000 0.752239 0.941916
0.000000 0.752211 1.000000
0.000000 0.815609 0.000000
0.000000 0.815582 0.056873
0.000000 0.815553 0.120070
0.000000 0.815524 0.183267
0.000000 0.815496 0.246464
0.000000 0.815467 0.309661
0.000000 0.815438 0.372858
0.000000 0.815410 0.436055
0.000000 0.815381 0.499252
0.000000 0.815353 0.562449
0.000000 0.815324 0.625647
0.000000 0.815295 0.688844
0.000000 0.815267 0.752041
0.000000 0.815238 0.815238
0.000000 0.815209 0.878435
0.000000 0.815181 0.941632
0.000000 0.815153 1.000000
0.000000 0.878551 0.000000
0.000000 0.878524 0.056589
0.000000 0.878495 0.119786
0.000000 0.878466 0.182983
0.000000 0.878438 0.246180
0.000000 0.878409 0.309377
0.000000 0.878380 0.372574
0.000000 0.878352 0.435771
0.000000 0.878323 0.498969
0.000000 0.878294 0.562166
0.000000 0.878266 0.625363
0.000000 0.878237 0.688560
0.000000 0.878209 0.751757
0.000000 0.878180 0.814954
0.000000 0.878151 0.878151
0.000000 0.878123 0.941348
0.000000 0.878095 1.000000
0.000000 0.941493 0.000000
0.000000 0.941466 0.056305
0.000000 0.941437 0.119502
0.000000 0.941408 0.182699
0.000000 0.941380 0.245896
0.000000 0.941351 0.309093
0.000000 0.941322 0.372291
0.000000 0.941294 0.435488
0.000000 0.941265 0.498685
0.000000 0.941236 0.561882
0.000000 0.941208 0.625079
0.000000 0.941179 0.688276
0.000000 0.941150 0.751473
0.000000 0.941122 0.814670
0.000000 0.941093 0.877867
0.000000 0.941065 0.941065
0.000000 0.941037 1.000000
0.000000 1.000000 0.000000
0.000000 1.000000 0.056033
0.000000 1.000000 0.119230
0.000000 1.000000 0.182427
0.000000 1.000000 0.245624
0.000000 1.000000 0.308822
0.000000 1.000000 0.372019
0.000000 1.000000 0.435216
0.000000 1.000000 0.498413
0.000000 1.000000 0.561610
0.000000 1.000000 0.624807
0.000000 1.000000 0.688004
0.000000 1.000000 0.751201
0.000000 1.000000 0.814398
0.000000 1.000000 0.877596
0.000000 1.000000 0.940793
0.000000 1.000000 1.000000
0.060497 0.000000 0.000000
0.060469 0.000000 0.060469
0.060441 0.000000 0.123666
0.060412 0.000000 0.186864
0.060383 0.000000 0.250061
0.060355 0.000000 0.313258
0.060326 0.000000 0.376455
0.060297 0.000000 0.439652
0.060269 0.000000 0.502849
0.060240 0.000000 0.566046
0.060211 0.000000 0.629243
0.060183 0.000000 0.692440
0.060154 0.000000 0.755638
0.060125 0.000000 0.818835
0.060097 0.000000 0.882032
0.060068 0.000000 0.945229
0.060041 0.000000 1.000000
0.060225 0.060225 0.000000
0.060197 0.060197 0.060197
0.060169 0.060169 0.123394
0.060140 0.060140 0.186592
0.060111 0.060111 0.249789
0.060083 0.060083 0.312986
0.060054 0.060054 0.376183
0.060025 0.060025 0.439380
0.059997 0.059997 0.502577
0.059968 0.059968 0.565774
0.059940 0.059940 0.628971
0.059911 0.059911 0.692168
0.059882 0.059882 0.755366
0.059854 0.059854 0.818563
0.059825 0.059825 0.881760
0.059796 0.059796 0.944957
0.059769 0.059769 1.000000
0.059941 0.123167 0.000000
0.059914 0.123139 0.059914
0.059885 0.123111 0.123111
0.059856 0.123082 0.186308
0.059828 0.123053 0.249505
0.059799 0.123025 0.312702
0.059770 0.122996 0.375899
0.059742 0.122967 0.439096
0.059713 0.122939 0.502293
0.059684 0.122910 0.565490
0.059656 0.122881 0.628688
0.059627 0.122853 0.691885
0.059598 0.122824 0.755082
0.059570 0.122796 0.818279
0.059541 0.122767 0.881476
0.059512 0.122738 0.944673
0.059485 0.122711 1.000000
0.059657 0.186109 0.000000
0.059630 0.186081 0.059630
0.059601 0.186053 0.122827
0.059572 0.186024 0.186024
0.059544 0.185995 0.249221
0.059515 0.185967 0.312418
0.059487 0.185938 0.375615
0.059458 0.185909 0.438812
0.059429 0.185881 0.502010
0.059401 0.185852 0.565207
0.059372 0.185823 0.628404
0.059343 0.185795 0.691601
0.059315 0.185766 0.754798
0.059286 0.185737 0.817995
0.059257 0.185709 0.881192
0.059229 0.185680 0.944389
0.059201 0.185653 1.000000
0.059373 0.249051 0.000000
0.059346 0.249023 0.059346
0.059317 0.248995 0.122543
0.059289 0.248966 0.185740
0.059260 0.248937 0.248937
0.059231 0.248909 0.312134
0.059203 0.248880 0.375332
0.059174 0.248851 0.438529
0.059145 0.248823 0.501726
0.059117 0.248794 0.564923
0.059088 0.248765 0.628120
0.059059 0.248737 0.691317
0.059031 0.248708 0.754514
0.059002 0.248679 0.817711
0.058974 0.248651 0.880908
0.058945 0.248622 0.944106
0.058917 0.248595 1.000000
0.059090 0.311993 0.000000
0.059062 0.311965 0.059062
0.059034 0.311937 0.122259
0.059005 0.311908 0.185456
0.058976 0.311879 0.248653
0.058948 0.311851 0.311851
0.058919 0.311822 0.375048
0.058890 0.311793 0.438245
0.058862 0.311765 0.501442
0.058833 0.311736 0.564639
0.058804 0.311707 0.627836
0.058776 0.311679 0.691033
0.058747 0.311650 0.754230
0.058718 0.311621 0.817428
0.058690 0.311593 0.880625
0.058661 0.311564 0.943822
0.058634 0.311537 1.000000
0.058806 0.374935 0.000000
0.058778 0.374907 0.058778
0.058750 0.374879 0.121975
0.058721 0.374850 0.185173
0.058692 0.374821 0.248370
0.058664 0.374793 0.311567
0.058635 0.374764 0.374764
0.058606 0.374735 0.437961
0.058578 0.374707 0.501158
0.058549 0.374678 0.564355
0.058521 0.374649 0.627552
0.058492 0.374621 0.690749
0.058463 0.374592 0.753947
0.058435 0.374563 0.817144
0.058406 0.374535 0.880341
0.058377 0.374506 0.943538
0.058350 0.374479 1.000000
0.058522 0.437877 0.000000
0.058495 0.437849 0.058495
0.058466 0.437820 0.121692
0.058437 0.437792 0.184889
0.058409 0.437763 0.248086
0.058380 0.437735 0.311283
0.058351 0.437706 0.374480
0.058323 0.437677 0.437677
0.058294 0.437649 0.500874
0.058265 0.437620 0.564071
0.058237 0.437591 0.627269
0.058208 0.437563 0.690466
0.058179 0.437534 0.753663
0.058151 0.437505 0.816860
0.058122 0.437477 0.880057
0.058093 0.437448 0.943254
0.058066 0.437421 1.000000
0.058238 0.500819 0.000000
0.058211 0.500791 0.058211
0.058182 0.500762 0.121408
0.058153 0.500734 0.184605
0.058125 0.500705 0.247802
0.058096 0.500676 0.310999
0.058068 0.500648 0.374196
0.058039 0.500619 0.437393
0.058010 0.500591 0.500591
0.057982 0.500562 0.563788
0.057953 0.500533 0.626985
0.057924 0.500505 0.690182
0.057896 0.500476 0.753379
0.057867 0.500447 0.816576
0.057838 0.500419 0.879773
0.057810 0.500390 0.942970
0.057782 0.500363 1.000000
0.057954 0.563760 0.000000
0.057927 0.563733 0.057927
0.057898 0.563704 0.121124
0.057870 0.563676 0.184321
0.057841 0.563647 0.247518
0.057812 0.563618 0.310715
0.057784 0.563590 0.373913
0.057755 0.563561 0.437110
0.057726 0.563532 0.500307
0.057698 0.563504 0.563504
0.057669 0.563475 0.626701
0.057640 0.563447 0.689898
0.057612 0.563418 0.753095
0.057583 0.563389 0.816292
0.057555 0.563361 0.879489
0.057526 0.563332 0.942687
0.057498 0.563304 1.000000
0.057671 0.626702 0.000000
0.057643 0.626675 0.057643
0.057615 0.626646 0.120840
0.057586 0.626618 0.184037
0.057557 0.626589 0.247234
0.057529 0.626560 0.310432
0.057500 0.626532 0.373629
0.057471 0.626503 0.436826
0.057443 0.626474 0.500023
0.057414 0.626446 0.563220
0.057385 0.626417 0.626417
0.057357 0.626389 0.689614
0.057328 0.626360 0.752811
0.057299 0.626331 0.816008
0.057271 0.626303 0.879206
0.057242 0.626274 0.942403
0.057215 0.626246 1.000000
0.057387 0.689644 0.000000
0.057359 0.689617 0.057359
0.057331 0.689588 0.120556
0.057302 0.689560 0.183754
0.057273 0.689531 0.246951
0.057245 0.689502 0.310148
0.057216 0.689474 0.373345
0.057187 0.689445 0.436542
0.057159 0.689416 0.499739
0.057130 0.689388 0.562936
0.057102 0.689359 0.626133
0.057073 0.689330 0.689330
0.057044 0.689302 0.752528
0.057016 0.689273 0.815725
0.056987 0.689245 0.878922
0.056958 0.689216 0.942119
0.056931 0.689188 1.000000
0.057103 0.752586 0.000000
0.057076 0.752559 0.057076
0.057047 0.752530 0.120273
0.057018 0.752502 0.183470
0.056990 0.752473 0.246667
0.056961 0.752444 0.309864
0.056932 0.752416 0.373061
0.056904 0.752387 0.436258
0.056875 0.752358 0.499455
0.056846 0.752330 0.562652
0.056818 0.752301 0.625850
0.056789 0.752272 0.689047
0.056760 0.752244 0.752244
0.056732 0.752215 0.815441
0.056703 0.752186 0.878638
0.056674 0.752158 0.941835
0.056647 0.752130 1.000000
0.056819 0.815528 0.000000
0.056792 0.815501 0.056792
0.056763 0.815472 0.119989
0.056734 0.815444 0.183186
0.056706 0.815415 0.246383
0.056677 0.815386 0.309580
0.056648 0.815358 0.372777
0.056620 0.815329 0.435974
0.056591 0.815300 0.499172
0.056563 0.815272 0.562369
0.056534 0.815243 0.625566
0.056505 0.815214 0.688763
0.056477 0.815186 0.751960
0.056448 0.815157 0.815157
0.056419 0.815128 0.878354
0.056391 0.815100 0.941551
0.056363 0.815072 1.000000
0.056535 0.878470 0.000000
0.056508 0.878443 0.056508
0.056479 0.878414 0.119705
0.056451 0.878386 0.182902
0.056422 0.878357 0.246099
0.056393 0.878328 0.309296
0.056365 0.878300 0.372494
0.056336 0.878271 0.435691
0.056307 0.878242 0.498888
0.056279 0.878214 0.562085
0.056250 0.878185 0.625282
0.056221 0.878156 0.688479
0.056193 0.878128 0.751676
0.056164 0.878099 0.814873
0.056135 0.878070 0.878070
0.056107 0.878042 0.941268
0.056079 0.878014 1.000000
0.056252 0.941412 0.000000
0.056224 0.941385 0.056224
0.056195 0.941356 0.119421
0.056167 0.941328 0.182618
0.056138 0.941299 0.245815
0.056110 0.941270 0.309013
0.056081 0.941242 0.372210
0.056052 0.941213 0.435407
0.056024 0.941184 0.498604
0.055995 0.941156 0.561801
0.055966 0.941127 0.624998
0.055938 0.941098 0.688195
0.055909 0.941070 0.751392
0.055880 0.941041 0.814589
0.055852 0.941012 0.877787
0.055823 0.940984 0.940984
0.055796 0.940956 1.000000
0.055980 1.000000 0.000000
0.055952 1.000000 0.055952
0.055924 1.000000 0.119149
0.055895 1.000000 0.182346
0.055866 1.000000 0.245544
0.055838 1.000000 0.308741
0.055809 1.000000 0.371938
0.055780 1.000000 0.435135
0.055752 1.000000 0.498332
0.055723 1.000000 0.561529
0.055694 1.000000 0.624726
0.055666 1.000000 0.687923
0.055637 1.000000 0.751120
0.055608 1.000000 0.814318
0.055580 1.000000 0.877515
0.055551 1.000000 0.940712
0.055524 1.000000 1.000000
0.123638 0.000000 0.000000
0.123611 0.000000 0.060385
0.123582 0.000000 0.123582
0.123553 0.000000 0.186779
0.123525 0.000000 0.249976
0.123496 0.000000 0.313173
0.123467 0.000000 0.376370
0.123439 0.000000 0.439568
0.123410 0.000000 0.502765
0.123381 0.000000 0.565962
0.123353 0.000000 0.629159
0.123324 0.000000 0.692356
0.123296 0.000000 0.755553
0.123267 0.000000 0.818750
0.123238 0.000000 0.881947
0.123210 0.000000 0.945144
0.123182 0.000000 1.000000
0.123366 0.060140 0.000000
0.123339 0.060113 0.060113
0.123310 0.060084 0.123310
0.123281 0.060056 0.186507
0.123253 0.060027 0.249704
0.123224 0.059998 0.312901
0.123196 0.059970 0.376099
0.123167 0.059941 0.439296
0.123138 0.059912 0.502493
0.123110 0.059884 0.565690
0.123081 0.059855 0.628887
0.123052 0.059827 0.692084
0.123024 0.059798 0.755281
0.122995 0.059769 0.818478
0.122966 0.059741 0.881675
0.122938 0.059712 0.944873
0.122910 0.059684 1.000000
0.123082 0.123082 0.000000
0.123055 0.123055 0.059829
0.123026 0.123026 0.123026
0.122998 0.122998 0.186223
0.122969 0.122969 0.249421
0.122940 0.122940 0.312618
0.122912 0.122912 0.375815
0.122883 0.122883 0.439012
0.122854 0.122854 0.502209
0.122826 0.122826 0.565406
0.122797 0.122797 0.628603
0.122768 0.122768 0.691800
0.122740 0.122740 0.754997
0.122711 0.122711 0.818195
0.122683 0.122683 0.881392
0.122654 0.122654 0.944589
0.122626 0.122626 1.000000
0.122799 0.186024 0.000000
0.122771 0.185997 0.059545
0.122743 0.185968 0.122743
0.122714 0.185940 0.185940
0.122685 0.185911 0.249137
0.122657 0.185882 0.312334
0.122628 0.185854 0.375531
0.122599 0.185825 0.438728
0.122571 0.185796 0.501925
0.122542 0.185768 0.565122
0.122513 0.185739 0.628319
0.122485 0.185710 0.691517
0.122456 0.185682 0.754714
0.122427 0.185653 0.817911
0.122399 0.185624 0.881108
0.122370 0.185596 0.944305
0.122343 0.185568 1.000000
0.122515 0.248966 0.000000
0.122487 0.248939 0.059262
0.122459 0.248910 0.122459
0.122430 0.248882 0.185656
0.122401 0.248853 0.248853
0.122373 0.248824 0.312050
0.122344 0.248796 0.375247
0.122315 0.248767 0.438444
0.122287 0.248738 0.501641
0.122258 0.248710 0.564838
0.122230 0.248681 0.628036
0.122201 0.248652 0.691233
0.122172 0.248624 0.754430
0.122144 0.248595 0.817627
0.122115 0.248566 0.880824
0.122086 0.248538 0.944021
0.122059 0.248510 1.000000
0.122231 0.311908 0.000000
0.122204 0.311881 0.058978
0.122175 0.311852 0.122175
0.122146 0.311824 0.185372
0.122118 0.311795 0.248569
0.122089 0.311766 0.311766
0.122060 0.311738 0.374963
0.122032 0.311709 0.438160
0.122003 0.311680 0.501358
0.121974 0.311652 0.564555
0.121946 0.311623 0.627752
0.121917 0.311594 0.690949
0.121888 0.311566 0.754146
0.121860 0.311537 0.817343
0.121831 0.311508 0.880540
0.121802 0.311480 0.943737
0.121775 0.311452 1.000000
0.121947 0.374850 0.000000
0.121920 0.374823 0.058694
0.121891 0.374794 0.121891
0.121862 0.374766 0.185088
0.121834 0.374737 0.248285
0.121805 0.374708 0.311482
0.121777 0.374680 0.374680
0.121748 0.374651 0.437877
0.121719 0.374622 0.501074
0.121691 0.374594 0.564271
0.121662 0.374565 0.627468
0.121633 0.374536 0.690665
0.121605 0.374508 0.753862
0.121576 0.374479 0.817059
0.121547 0.374450 0.880256
0.121519 0.374422 0.943454
0.121491 0.374394 1.000000
0.121663 0.437792 0.000000
0.121636 0.437765 0.058410
0.121607 0.437736 0.121607
0.121579 0.437707 0.184804
0.121550 0.437679 0.248002
0.121521 0.437650 0.311199
0.121493 0.437622 0.374396
0.121464 0.437593 0.437593
0.121435 0.437564 0.500790
0.121407 0.437536 0.563987
0.121378 0.437507 0.627184
0.121349 0.437478 0.690381
0.121321 0.437450 0.753578
0.121292 0.437421 0.816776
0.121264 0.437392 0.879973
0.121235 0.437364 0.943170
0.121207 0.437336 1.000000
0.121380 0.500734 0.000000
0.121352 0.500707 0.058126
0.121324 0.500678 0.121324
0.121295 0.500649 0.184521
0.121266 0.500621 0.247718
0.121238 0.500592 0.310915
0.121209 0.500563 0.374112
0.121180 0.500535 0.437309
0.121152 0.500506 0.500506
0.121123 0.500478 0.563703
0.121094 0.500449 0.626900
0.121066 0.500420 0.690098
0.121037 0.500392 0.753295
0.121008 0.500363 0.816492
0.120980 0.500334 0.879689
0.120951 0.500306 0.942886
0.120924 0.500278 1.000000
0.121096 0.563676 0.000000
0.121068 0.563649 0.057843
0.121040 0.563620 0.121040
0.121011 0.563591 0.184237
0.120982 0.563563 0.247434
0.120954 0.563534 0.310631
0.120925 0.563505 0.373828
0.120896 0.563477 0.437025
0.120868 0.563448 0.500222
0.120839 0.563419 0.563419
0.120811 0.563391 0.626617
0.120782 0.563362 0.689814
0.120753 0.563334 0.753011
0.120725 0.563305 0.816208
0.120696 0.563276 0.879405
0.120667 0.563248 0.942602
0.120640 0.563220 1.000000
0.120812 0.626618 0.000000
0.120785 0.626591 0.057559
0.120756 0.626562 0.120756
0.120727 0.626533 0.183953
0.120699 0.626505 0.247150
0.120670 0.626476 0.310347
0.120641 0.626447 0.373544
0.120613 0.626419 0.436741
0.120584 0.626390 0.499939
0.120555 0.626361 0.563136
0.120527 0.626333 0.626333
0.120498 0.626304 0.689530
0.120469 0.626275 0.752727
0.120441 0.626247 0.815924
0.120412 0.626218 0.879121
0.120383 0.626190 0.942318
0.120356 0.626162 1.000000
0.120528 0.689560 0.000000
0.120501 0.689533 0.057275
0.120472 0.689504 0.120472
0.120443 0.689475 0.183669
0.120415 0.689447 0.246866
0.120386 0.689418 0.310063
0.120358 0.689389 0.373261
0.120329 0.689361 0.436458
0.120300 0.689332 0.499655
0.120272 0.689303 0.562852
0.120243 0.689275 0.626049
0.120214 0.689246 0.689246
0.120186 0.689217 0.752443
0.120157 0.689189 0.815640
0.120128 0.689160 0.878837
0.120100 0.689132 0.942035
0.120072 0.689104 1.000000
0.120244 0.752502 0.000000
0.120217 0.752475 0.056991
0.120188 0.752446 0.120188
0.120160 0.752417 0.183385
0.120131 0.752389 0.246583
0.120102 0.752360 0.309780
0.120074 0.752331 0.372977
0.120045 0.752303 0.436174
0.120016 0.752274 0.499371
0.119988 0.752245 0.562568
0.119959 0.752217 0.625765
0.119930 0.752188 0.688962
0.119902 0.752159 0.752159
0.119873 0.752131 0.815357
0.119844 0.752102 0.878554
0.119816 0.752073 0.941751
0.119788 0.752046 1.000000
0.119961 0.815444 0.000000
0.119933 0.815417 0.056707
0.119904 0.815388 0.119904
0.119876 0.815359 0.183102
0.119847 0.815331 0.246299
0.119819 0.815302 0.309496
0.119790 0.815273 0.372693
0.119761 0.815245 0.435890
0.119733 0.815216 0.499087
0.119704 0.815187 0.562284
0.119675 0.815159 0.625481
0.119647 0.815130 0.688679
0.119618 0.815101 0.751876
0.119589 0.815073 0.815073
0.119561 0.815044 0.878270
0.119532 0.815015 0.941467
0.119505 0.814988 1.000000
0.119677 0.878386 0.000000
0.119649 0.878358 0.056424
0.119621 0.878330 0.119621
0.119592 0.878301 0.182818
0.119563 0.878273 0.246015
0.119535 0.878244 0.309212
0.119506 0.878215 0.372409
0.119477 0.878187 0.435606
0.119449 0.878158 0.498803
0.119420 0.878129 0.562000
0.119391 0.878101 0.625198
0.119363 0.878072 0.688395
0.119334 0.878043 0.751592
0.119306 0.878015 0.814789
0.119277 0.877986 0.877986
0.119248 0.877957 0.941183
0.119221 0.877930 1.000000
0.119393 0.941328 0.000000
0.119366 0.941300 0.056140
0.119337 0.941272 0.119337
0.119308 0.941243 0.182534
0.119280 0.941214 0.245731
0.119251 0.941186 0.308928
0.119222 0.941157 0.372125
0.119194 0.941129 0.435322
0.119165 0.941100 0.498520
0.119136 0.941071 0.561717
0.119108 0.941043 0.624914
0.119079 0.941014 0.688111
0.119050 0.940985 0.751308
0.119022 0.940957 0.814505
0.118993 0.940928 0.877702
0.118964 0.940899 0.940899
0.118937 0.940872 1.000000
0.119121 1.000000 0.000000
0.119094 1.000000 0.055868
0.119065 1.000000 0.119065
0.119036 1.000000 0.182262
0.119008 1.000000 0.245459
0.118979 1.000000 0.308656
0.118950 1.000000 0.371853
0.118922 1.000000 0.435051
0.118893 1.000000 0.498248
0.118864 1.000000 0.561445
0.118836 1.000000 0.624642
0.118807 1.000000 0.687839
0.118778 1.000000 0.751036
0.118750 1.000000 0.814233
0.118721 1.000000 0.877430
0.118693 1.000000 0.940627
0.118665 1.000000 1.000000
0.186780 0.000000 0.000000
0.186752 0.000000 0.060301
0.186723 0.000000 0.123498
0.186695 0.000000 0.186695
0.186666 0.000000 0.249892
0.186637 0.000000 0.313089
0.186609 0.000000 0.376286
0.186580 0.000000 0.439483
0.186552 0.000000 0.502680
0.186523 0.000000 0.565877
0.186494 0.000000 0.629075
0.186466 0.000000 0.692272
0.186437 0.000000 0.755469
0.186408 0.000000 0.818666
0.186380 0.000000 0.881863
0.186351 0.000000 0.945060
0.186324 0.000000 1.000000
0.186508 0.060056 0.000000
