skills/editops-orchestrator/assets/grade/luts/product_clean_v03.cube
TITLE "product_clean_v03"
LUT_3D_SIZE 5
DOMAIN_MIN 0.0 0.0 0.0
DOMAIN_MAX 1.0 1.0 1.0
0.000000 0.000000 0.000000
0.000000 0.000000 0.250141
0.000000 0.000000 0.502930
0.000000 0.000000 0.755718
0.000000 0.000000 1.000000
0.000000 0.249132 0.000000
0.000000 0.249018 0.249018
0.000000 0.248904 0.501807
0.000000 0.248789 0.754595
0.000000 0.248676 1.000000
0.000000 0.500899 0.000000
0.000000 0.500786 0.247883
0.000000 0.500671 0.500671
0.000000 0.500557 0.753460
0.000000 0.500443 1.000000
0.000000 0.752667 0.000000
0.000000 0.752554 0.246748
0.000000 0.752439 0.499536
0.000000 0.752325 0.752325
0.000000 0.752211 1.000000
0.000000 1.000000 0.000000
0.000000 1.000000 0.245624
0.000000 1.000000 0.498413
0.000000 1.000000 0.751201
0.000000 1.000000 1.000000
0.249921 0.000000 0.000000
0.249808 0.000000 0.249808
0.249693 0.000000 0.502596
0.249578 0.000000 0.755384
0.249465 0.000000 1.000000
0.248798 0.248798 0.000000
0.248684 0.248684 0.248684
0.248570 0.248570 0.501473
0.248455 0.248455 0.754261
0.248342 0.248342 1.000000
0.247662 0.500565 0.000000
0.247549 0.500452 0.247549
0.247434 0.500337 0.500337
0.247320 0.500223 0.753126
0.247206 0.500109 1.000000
0.246527 0.752333 0.000000
0.246414 0.752220 0.246414
0.246299 0.752105 0.499202
0.246185 0.751991 0.751991
0.246071 0.751877 1.000000
0.245404 1.000000 0.000000
0.245290 1.000000 0.245290
0.245176 1.000000 0.498079
0.245061 1.000000 0.750867
0.244948 1.000000 1.000000
0.502487 0.000000 0.000000
0.502373 0.000000 0.249470
0.502259 0.000000 0.502259
0.502144 0.000000 0.755047
0.502031 0.000000 1.000000
0.501363 0.248460 0.000000
0.501250 0.248347 0.248347
0.501135 0.248232 0.501135
0.501021 0.248118 0.753924
0.500907 0.248004 1.000000
0.500228 0.500228 0.000000
0.500115 0.500115 0.247212
0.500000 0.500000 0.500000
0.499885 0.499885 0.752788
0.499772 0.499772 1.000000
0.499093 0.751996 0.000000
0.498979 0.751882 0.246076
0.498865 0.751768 0.498865
0.498750 0.751653 0.751653
0.498637 0.751540 1.000000
0.497969 1.000000 0.000000
0.497856 1.000000 0.244953
0.497741 1.000000 0.497741
0.497627 1.000000 0.750530
0.497513 1.000000 1.000000
0.755052 0.000000 0.000000
0.754939 0.000000 0.249133
0.754824 0.000000 0.501921
0.754710 0.000000 0.754710
0.754596 0.000000 1.000000
0.753929 0.248123 0.000000
0.753815 0.248009 0.248009
0.753701 0.247895 0.500798
0.753586 0.247780 0.753586
0.753473 0.247667 1.000000
0.752794 0.499891 0.000000
0.752680 0.499777 0.246874
0.752566 0.499663 0.499663
0.752451 0.499548 0.752451
0.752338 0.499435 1.000000
0.751658 0.751658 0.000000
0.751545 0.751545 0.245739
0.751430 0.751430 0.498527
0.751316 0.751316 0.751316
0.751202 0.751202 1.000000
0.750535 1.000000 0.000000
0.750422 1.000000 0.244616
0.750307 1.000000 0.497404
0.750192 1.000000 0.750192
0.750079 1.000000 1.000000
1.000000 0.000000 0.000000
1.000000 0.000000 0.248799
1.000000 0.000000 0.501587
1.000000 0.000000 0.754376
1.000000 0.000000 1.000000
1.000000 0.247789 0.000000
1.000000 0.247675 0.247675
1.000000 0.247561 0.500464
1.000000 0.247446 0.753252
1.000000 0.247333 1.000000
1.000000 0.499557 0.000000
1.000000 0.499443 0.246540
1.000000 0.499329 0.499329
1.000000 0.499214 0.752117
1.000000 0.499101 1.000000
1.000000 0.751324 0.000000
1.000000 0.751211 0.245405
1.000000 0.751096 0.498193
1.000000 0.750982 0.750982
1.000000 0.750868 1.000000
1.000000 1.000000 0.000000
1.000000 1.000000 0.244282
1.000000 1.000000 0.497070
1.000000 1.000000 0.749859
1.000000 1.000000 1.000000
