skills/editops-orchestrator/assets/grade/luts/product_clean_v11.cube
TITLE "product_clean_v11"
LUT_3D_SIZE 5
DOMAIN_MIN 0.0 0.0 0.0
DOMAIN_MAX 1.0 1.0 1.0
0.000000 0.000000 0.000000
0.000000 0.000000 0.250553
0.000000 0.000000 0.514649
0.000000 0.000000 0.778746
0.000000 0.000000 1.000000
0.000000 0.245610 0.000000
0.000000 0.245055 0.245055
0.000000 0.244470 0.509152
0.000000 0.243885 0.773248
0.000000 0.243330 1.000000
0.000000 0.504497 0.000000
0.000000 0.503942 0.239260
0.000000 0.503357 0.503357
0.000000 0.502772 0.767453
0.000000 0.502217 1.000000
0.000000 0.763383 0.000000
0.000000 0.762828 0.233465
0.000000 0.762243 0.497562
0.000000 0.761658 0.761658
0.000000 0.761103 1.000000
0.000000 1.000000 0.000000
0.000000 1.000000 0.227968
0.000000 1.000000 0.492064
0.000000 1.000000 0.756161
0.000000 1.000000 1.000000
0.249474 0.000000 0.000000
0.248919 0.000000 0.248919
0.248334 0.000000 0.513015
0.247749 0.000000 0.777112
0.247194 0.000000 1.000000
0.243976 0.243976 0.000000
0.243421 0.243421 0.243421
0.242836 0.242836 0.507517
0.242251 0.242251 0.771614
0.241696 0.241696 1.000000
0.238181 0.502863 0.000000
0.237626 0.502308 0.237626
0.237041 0.501723 0.501723
0.236456 0.501138 0.765819
0.235901 0.500583 1.000000
0.232386 0.761749 0.000000
0.231831 0.761194 0.231831
0.231246 0.760609 0.495928
0.230661 0.760024 0.760024
0.230106 0.759469 1.000000
0.226889 1.000000 0.000000
0.226334 1.000000 0.226334
0.225749 1.000000 0.490430
0.225164 1.000000 0.754526
0.224609 1.000000 1.000000
0.512433 0.000000 0.000000
0.511878 0.000000 0.247196
0.511293 0.000000 0.511293
0.510708 0.000000 0.775389
0.510153 0.000000 1.000000
0.506935 0.242253 0.000000
0.506380 0.241698 0.241698
0.505795 0.241113 0.505795
0.505210 0.240528 0.769891
0.504655 0.239973 1.000000
0.501140 0.501140 0.000000
0.500585 0.500585 0.235904
0.500000 0.500000 0.500000
0.499415 0.499415 0.764096
0.498860 0.498860 1.000000
0.495345 0.760027 0.000000
0.494790 0.759472 0.230109
0.494205 0.758887 0.494205
0.493620 0.758302 0.758302
0.493065 0.757747 1.000000
0.489847 1.000000 0.000000
0.489292 1.000000 0.224611
0.488707 1.000000 0.488707
0.488122 1.000000 0.752804
0.487567 1.000000 1.000000
0.775391 0.000000 0.000000
0.774836 0.000000 0.245474
0.774251 0.000000 0.509570
0.773666 0.000000 0.773666
0.773111 0.000000 1.000000
0.769894 0.240531 0.000000
0.769339 0.239976 0.239976
0.768754 0.239391 0.504072
0.768169 0.238806 0.768169
0.767614 0.238251 1.000000
0.764099 0.499417 0.000000
0.763544 0.498862 0.234181
0.762959 0.498277 0.498277
0.762374 0.497692 0.762374
0.761819 0.497137 1.000000
0.758304 0.758304 0.000000
0.757749 0.757749 0.228386
0.757164 0.757164 0.492483
0.756579 0.756579 0.756579
0.756024 0.756024 1.000000
0.752806 1.000000 0.000000
0.752251 1.000000 0.222888
0.751666 1.000000 0.486985
0.751081 1.000000 0.751081
0.750526 1.000000 1.000000
1.000000 0.000000 0.000000
1.000000 0.000000 0.243839
1.000000 0.000000 0.507936
1.000000 0.000000 0.772032
1.000000 0.000000 1.000000
1.000000 0.238897 0.000000
1.000000 0.238342 0.238342
1.000000 0.237757 0.502438
1.000000 0.237172 0.766535
1.000000 0.236617 1.000000
1.000000 0.497783 0.000000
1.000000 0.497228 0.232547
1.000000 0.496643 0.496643
1.000000 0.496058 0.760740
1.000000 0.495503 1.000000
1.000000 0.756670 0.000000
1.000000 0.756115 0.226752
1.000000 0.755530 0.490848
1.000000 0.754945 0.754945
1.000000 0.754390 1.000000
1.000000 1.000000 0.000000
1.000000 1.000000 0.221254
1.000000 1.000000 0.485351
1.000000 1.000000 0.749447
1.000000 1.000000 1.000000
