skills/editops-orchestrator/assets/grade/luts/product_clean_v13.cube
TITLE "product_clean_v13"
LUT_3D_SIZE 9
DOMAIN_MIN 0.0 0.0 0.0
DOMAIN_MAX 1.0 1.0 1.0
0.000000 0.000000 0.000000
0.000000 0.000000 0.117136
0.000000 0.000000 0.250617
0.000000 0.000000 0.384098
0.000000 0.000000 0.517579
0.000000 0.000000 0.651060
0.000000 0.000000 0.784541
0.000000 0.000000 0.918022
0.000000 0.000000 1.000000
0.000000 0.114379 0.000000
0.000000 0.114070 0.114070
0.000000 0.113717 0.247551
0.000000 0.113364 0.381032
0.000000 0.113011 0.514513
0.000000 0.112658 0.647994
0.000000 0.112306 0.781475
0.000000 0.111953 0.914956
0.000000 0.111643 1.000000
0.000000 0.244718 0.000000
0.000000 0.244409 0.110575
0.000000 0.244056 0.244056
0.000000 0.243703 0.377537
0.000000 0.243350 0.511018
0.000000 0.242997 0.644499
0.000000 0.242645 0.777980
0.000000 0.242292 0.911461
0.000000 0.241982 1.000000
0.000000 0.375057 0.000000
0.000000 0.374748 0.107080
0.000000 0.374395 0.240561
0.000000 0.374042 0.374042
0.000000 0.373689 0.507523
0.000000 0.373336 0.641004
0.000000 0.372984 0.774485
0.000000 0.372631 0.907966
0.000000 0.372321 1.000000
0.000000 0.505396 0.000000
0.000000 0.505087 0.103585
0.000000 0.504734 0.237066
0.000000 0.504381 0.370547
0.000000 0.504028 0.504028
0.000000 0.503675 0.637509
0.000000 0.503323 0.770990
0.000000 0.502970 0.904471
0.000000 0.502660 1.000000
0.000000 0.635735 0.000000
0.000000 0.635426 0.100090
0.000000 0.635073 0.233571
0.000000 0.634720 0.367052
0.000000 0.634367 0.500533
0.000000 0.634014 0.634014
0.000000 0.633662 0.767495
0.000000 0.633309 0.900976
0.000000 0.632999 1.000000
0.000000 0.766074 0.000000
0.000000 0.765765 0.096596
0.000000 0.765412 0.230077
0.000000 0.765059 0.363558
0.000000 0.764706 0.497039
0.000000 0.764353 0.630520
0.000000 0.764001 0.764001
0.000000 0.763648 0.897482
0.000000 0.763338 1.000000
0.000000 0.896413 0.000000
0.000000 0.896104 0.093101
0.000000 0.895751 0.226582
0.000000 0.895398 0.360063
0.000000 0.895045 0.493544
0.000000 0.894692 0.627025
0.000000 0.894340 0.760506
0.000000 0.893987 0.893987
0.000000 0.893677 1.000000
0.000000 1.000000 0.000000
0.000000 1.000000 0.090034
0.000000 1.000000 0.223515
0.000000 1.000000 0.356996
0.000000 1.000000 0.490477
0.000000 1.000000 0.623958
0.000000 1.000000 0.757439
0.000000 1.000000 0.890920
0.000000 1.000000 1.000000
0.116534 0.000000 0.000000
0.116225 0.000000 0.116225
0.115872 0.000000 0.249706
0.115519 0.000000 0.383187
0.115166 0.000000 0.516668
0.114814 0.000000 0.650149
0.114461 0.000000 0.783630
0.114108 0.000000 0.917111
0.113798 0.000000 1.000000
0.113467 0.113467 0.000000
0.113158 0.113158 0.113158
0.112805 0.112805 0.246639
0.112452 0.112452 0.380120
0.112099 0.112099 0.513601
0.111747 0.111747 0.647082
0.111394 0.111394 0.780563
0.111041 0.111041 0.914044
0.110731 0.110731 1.000000
0.109973 0.243807 0.000000
0.109663 0.243497 0.109663
0.109310 0.243144 0.243144
0.108958 0.242791 0.376625
0.108605 0.242439 0.510106
0.108252 0.242086 0.643587
0.107899 0.241733 0.777068
0.107546 0.241380 0.910549
0.107237 0.241071 1.000000
0.106478 0.374146 0.000000
0.106168 0.373836 0.106168
0.105816 0.373483 0.239649
0.105463 0.373130 0.373130
0.105110 0.372778 0.506611
0.104757 0.372425 0.640092
0.104404 0.372072 0.773573
0.104052 0.371719 0.907054
0.103742 0.371410 1.000000
0.102983 0.504485 0.000000
0.102674 0.504175 0.102674
0.102321 0.503822 0.236155
0.101968 0.503469 0.369636
0.101615 0.503117 0.503117
0.101262 0.502764 0.636598
0.100910 0.502411 0.770079
0.100557 0.502058 0.903560
0.100247 0.501749 1.000000
0.099488 0.634824 0.000000
0.099179 0.634514 0.099179
0.098826 0.634161 0.232660
0.098473 0.633808 0.366141
0.098120 0.633456 0.499622
0.097768 0.633103 0.633103
0.097415 0.632750 0.766584
0.097062 0.632397 0.900065
0.096752 0.632088 1.000000
0.095994 0.765163 0.000000
0.095684 0.764853 0.095684
0.095331 0.764500 0.229165
0.094978 0.764147 0.362646
0.094626 0.763795 0.496127
0.094273 0.763442 0.629608
0.093920 0.763089 0.763089
0.093567 0.762736 0.896570
0.093258 0.762427 1.000000
0.092499 0.895502 0.000000
0.092189 0.895192 0.092189
0.091836 0.894839 0.225670
0.091484 0.894486 0.359151
0.091131 0.894134 0.492632
0.090778 0.893781 0.626113
0.090425 0.893428 0.759594
0.090072 0.893075 0.893075
0.089763 0.892766 1.000000
0.089432 1.000000 0.000000
0.089122 1.000000 0.089122
0.088770 1.000000 0.222603
0.088417 1.000000 0.356084
0.088064 1.000000 0.489565
0.087711 1.000000 0.623046
0.087358 1.000000 0.756527
0.087006 1.000000 0.890008
0.086696 1.000000 1.000000
0.249329 0.000000 0.000000
0.249020 0.000000 0.115186
0.248667 0.000000 0.248667
0.248314 0.000000 0.382148
0.247961 0.000000 0.515629
0.247608 0.000000 0.649110
0.247256 0.000000 0.782591
0.246903 0.000000 0.916072
0.246593 0.000000 1.000000
0.246262 0.112429 0.000000
0.245953 0.112119 0.112119
0.245600 0.111766 0.245600
0.245247 0.111413 0.379081
0.244894 0.111061 0.512562
0.244542 0.110708 0.646043
0.244189 0.110355 0.779524
0.243836 0.110002 0.913005
0.243526 0.109693 1.000000
0.242768 0.242768 0.000000
0.242458 0.242458 0.108624
0.242105 0.242105 0.242105
0.241752 0.241752 0.375586
0.241400 0.241400 0.509067
0.241047 0.241047 0.642548
0.240694 0.240694 0.776029
0.240341 0.240341 0.909510
0.240032 0.240032 1.000000
0.239273 0.373107 0.000000
0.238963 0.372797 0.105129
0.238610 0.372444 0.238610
0.238258 0.372091 0.372091
0.237905 0.371739 0.505572
0.237552 0.371386 0.639053
0.237199 0.371033 0.772534
0.236846 0.370680 0.906015
0.236537 0.370371 1.000000
0.235778 0.503446 0.000000
0.235469 0.503136 0.101635
0.235116 0.502783 0.235116
0.234763 0.502431 0.368597
0.234410 0.502078 0.502078
0.234057 0.501725 0.635559
0.233705 0.501372 0.769040
0.233352 0.501019 0.902521
0.233042 0.500710 1.000000
0.232283 0.633785 0.000000
0.231974 0.633475 0.098140
0.231621 0.633122 0.231621
0.231268 0.632770 0.365102
0.230915 0.632417 0.498583
0.230563 0.632064 0.632064
0.230210 0.631711 0.765545
0.229857 0.631358 0.899026
0.229547 0.631049 1.000000
0.228789 0.764124 0.000000
0.228479 0.763814 0.094645
0.228126 0.763461 0.228126
0.227773 0.763109 0.361607
0.227421 0.762756 0.495088
0.227068 0.762403 0.628569
0.226715 0.762050 0.762050
0.226362 0.761697 0.895531
0.226053 0.761388 1.000000
0.225294 0.894463 0.000000
0.224984 0.894153 0.091150
0.224631 0.893800 0.224631
0.224279 0.893448 0.358112
0.223926 0.893095 0.491593
0.223573 0.892742 0.625074
0.223220 0.892389 0.758555
0.222867 0.892036 0.892036
0.222558 0.891727 1.000000
0.222227 1.000000 0.000000
0.221917 1.000000 0.088084
0.221565 1.000000 0.221565
0.221212 1.000000 0.355046
0.220859 1.000000 0.488527
0.220506 1.000000 0.622008
0.220153 1.000000 0.755489
0.219801 1.000000 0.888970
0.219491 1.000000 1.000000
0.382124 0.000000 0.000000
0.381815 0.000000 0.114147
0.381462 0.000000 0.247628
0.381109 0.000000 0.381109
0.380756 0.000000 0.514590
0.380403 0.000000 0.648071
0.380051 0.000000 0.781552
0.379698 0.000000 0.915033
0.379388 0.000000 1.000000
0.379057 0.111390 0.000000
0.378748 0.111080 0.111080
0.378395 0.110727 0.244561
0.378042 0.110375 0.378042
0.377689 0.110022 0.511523
0.377337 0.109669 0.645004
0.376984 0.109316 0.778485
0.376631 0.108963 0.911966
0.376321 0.108654 1.000000
0.375563 0.241729 0.000000
0.375253 0.241419 0.107585
0.374900 0.241066 0.241066
0.374547 0.240714 0.374547
0.374195 0.240361 0.508028
0.373842 0.240008 0.641509
0.373489 0.239655 0.774990
0.373136 0.239302 0.908471
0.372827 0.238993 1.000000
0.372068 0.372068 0.000000
0.371758 0.371758 0.104091
0.371405 0.371405 0.237572
0.371053 0.371053 0.371053
0.370700 0.370700 0.504534
0.370347 0.370347 0.638015
0.369994 0.369994 0.771496
0.369641 0.369641 0.904977
0.369332 0.369332 1.000000
0.368573 0.502407 0.000000
0.368263 0.502097 0.100596
0.367911 0.501744 0.234077
0.367558 0.501392 0.367558
0.367205 0.501039 0.501039
0.366852 0.500686 0.634520
0.366499 0.500333 0.768001
0.366147 0.499980 0.901482
0.365837 0.499671 1.000000
0.365078 0.632746 0.000000
0.364769 0.632436 0.097101
0.364416 0.632083 0.230582
0.364063 0.631731 0.364063
0.363710 0.631378 0.497544
0.363357 0.631025 0.631025
0.363005 0.630672 0.764506
0.362652 0.630319 0.897987
0.362342 0.630010 1.000000
0.361584 0.763085 0.000000
0.361274 0.762775 0.093606
0.360921 0.762422 0.227087
0.360568 0.762070 0.360568
0.360216 0.761717 0.494049
0.359863 0.761364 0.627530
0.359510 0.761011 0.761011
0.359157 0.760658 0.894492
0.358848 0.760349 1.000000
0.358089 0.893424 0.000000
0.357779 0.893114 0.090112
0.357426 0.892762 0.223593
0.357074 0.892409 0.357074
0.356721 0.892056 0.490555
0.356368 0.891703 0.624036
0.356015 0.891350 0.757517
0.355662 0.890998 0.890998
0.355353 0.890688 1.000000
0.355022 1.000000 0.000000
0.354712 1.000000 0.087045
0.354360 1.000000 0.220526
0.354007 1.000000 0.354007
0.353654 1.000000 0.487488
0.353301 1.000000 0.620969
0.352948 1.000000 0.754450
0.352596 1.000000 0.887931
0.352286 1.000000 1.000000
0.514919 0.000000 0.000000
0.514610 0.000000 0.113108
0.514257 0.000000 0.246589
0.513904 0.000000 0.380070
0.513551 0.000000 0.513551
0.513198 0.000000 0.647032
0.512846 0.000000 0.780513
0.512493 0.000000 0.913994
0.512183 0.000000 1.000000
0.511852 0.110351 0.000000
0.511543 0.110041 0.110041
0.511190 0.109689 0.243522
0.510837 0.109336 0.377003
0.510484 0.108983 0.510484
0.510132 0.108630 0.643965
0.509779 0.108277 0.777446
0.509426 0.107925 0.910927
0.509116 0.107615 1.000000
0.508358 0.240690 0.000000
0.508048 0.240380 0.106547
0.507695 0.240028 0.240028
0.507342 0.239675 0.373509
0.506990 0.239322 0.506990
0.506637 0.238969 0.640471
0.506284 0.238616 0.773952
0.505931 0.238264 0.907433
0.505622 0.237954 1.000000
0.504863 0.371029 0.000000
0.504553 0.370719 0.103052
0.504200 0.370367 0.236533
0.503848 0.370014 0.370014
0.503495 0.369661 0.503495
0.503142 0.369308 0.636976
0.502789 0.368955 0.770457
0.502436 0.368603 0.903938
0.502127 0.368293 1.000000
0.501368 0.501368 0.000000
0.501058 0.501058 0.099557
0.500706 0.500706 0.233038
0.500353 0.500353 0.366519
0.500000 0.500000 0.500000
0.499647 0.499647 0.633481
0.499294 0.499294 0.766962
0.498942 0.498942 0.900443
0.498632 0.498632 1.000000
0.497873 0.631707 0.000000
0.497564 0.631397 0.096062
0.497211 0.631045 0.229543
0.496858 0.630692 0.363024
0.496505 0.630339 0.496505
0.496152 0.629986 0.629986
0.495800 0.629633 0.763467
0.495447 0.629281 0.896948
0.495137 0.628971 1.000000
0.494378 0.762046 0.000000
0.494069 0.761736 0.092567
0.493716 0.761384 0.226048
0.493363 0.761031 0.359529
0.493010 0.760678 0.493010
0.492658 0.760325 0.626491
0.492305 0.759972 0.759972
0.491952 0.759620 0.893453
0.491642 0.759310 1.000000
0.490884 0.892385 0.000000
0.490574 0.892075 0.089073
0.490221 0.891723 0.222554
0.489868 0.891370 0.356035
0.489516 0.891017 0.489516
0.489163 0.890664 0.622997
0.488810 0.890311 0.756478
0.488457 0.889959 0.889959
0.488148 0.889649 1.000000
0.487817 1.000000 0.000000
0.487507 1.000000 0.086006
0.487154 1.000000 0.219487
0.486802 1.000000 0.352968
0.486449 1.000000 0.486449
0.486096 1.000000 0.619930
0.485743 1.000000 0.753411
0.485390 1.000000 0.886892
0.485081 1.000000 1.000000
0.647714 0.000000 0.000000
0.647404 0.000000 0.112069
0.647052 0.000000 0.245550
0.646699 0.000000 0.379031
0.646346 0.000000 0.512512
0.645993 0.000000 0.645993
0.645640 0.000000 0.779474
0.645288 0.000000 0.912955
0.644978 0.000000 1.000000
0.644647 0.109312 0.000000
0.644338 0.109002 0.109002
0.643985 0.108650 0.242483
0.643632 0.108297 0.375964
0.643279 0.107944 0.509445
0.642926 0.107591 0.642926
0.642574 0.107238 0.776407
0.642221 0.106886 0.909888
0.641911 0.106576 1.000000
0.641152 0.239651 0.000000
0.640843 0.239342 0.105508
0.640490 0.238989 0.238989
0.640137 0.238636 0.372470
0.639784 0.238283 0.505951
0.639432 0.237930 0.639432
0.639079 0.237578 0.772913
0.638726 0.237225 0.906394
0.638416 0.236915 1.000000
0.637658 0.369990 0.000000
0.637348 0.369681 0.102013
0.636995 0.369328 0.235494
0.636643 0.368975 0.368975
0.636290 0.368622 0.502456
0.635937 0.368269 0.635937
0.635584 0.367917 0.769418
0.635231 0.367564 0.902899
0.634922 0.367254 1.000000
0.634163 0.500329 0.000000
0.633853 0.500020 0.098518
0.633501 0.499667 0.231999
0.633148 0.499314 0.365480
0.632795 0.498961 0.498961
0.632442 0.498608 0.632442
0.632089 0.498256 0.765923
0.631737 0.497903 0.899404
0.631427 0.497593 1.000000
0.630668 0.630668 0.000000
0.630359 0.630359 0.095023
0.630006 0.630006 0.228504
0.629653 0.629653 0.361985
0.629300 0.629300 0.495466
0.628947 0.628947 0.628947
0.628595 0.628595 0.762428
0.628242 0.628242 0.895909
0.627932 0.627932 1.000000
0.627173 0.761007 0.000000
0.626864 0.760698 0.091529
0.626511 0.760345 0.225010
0.626158 0.759992 0.358491
0.625805 0.759639 0.491972
0.625453 0.759286 0.625453
0.625100 0.758934 0.758934
0.624747 0.758581 0.892415
0.624437 0.758271 1.000000
0.623679 0.891346 0.000000
0.623369 0.891037 0.088034
0.623016 0.890684 0.221515
0.622663 0.890331 0.354996
0.622311 0.889978 0.488477
0.621958 0.889625 0.621958
0.621605 0.889273 0.755439
0.621252 0.888920 0.888920
0.620943 0.888610 1.000000
0.620612 1.000000 0.000000
0.620302 1.000000 0.084967
0.619949 1.000000 0.218448
0.619597 1.000000 0.351929
0.619244 1.000000 0.485410
0.618891 1.000000 0.618891
0.618538 1.000000 0.752372
0.618185 1.000000 0.885853
0.617876 1.000000 1.000000
0.780509 0.000000 0.000000
0.780199 0.000000 0.111030
0.779847 0.000000 0.244511
0.779494 0.000000 0.377992
0.779141 0.000000 0.511473
0.778788 0.000000 0.644954
0.778435 0.000000 0.778435
0.778083 0.000000 0.911916
0.777773 0.000000 1.000000
0.777442 0.108273 0.000000
0.777133 0.107964 0.107964
0.776780 0.107611 0.241445
0.776427 0.107258 0.374926
0.776074 0.106905 0.508407
0.775721 0.106552 0.641888
0.775369 0.106200 0.775369
0.775016 0.105847 0.908850
0.774706 0.105537 1.000000
0.773947 0.238612 0.000000
0.773638 0.238303 0.104469
0.773285 0.237950 0.237950
0.772932 0.237597 0.371431
0.772579 0.237244 0.504912
0.772227 0.236891 0.638393
0.771874 0.236539 0.771874
0.771521 0.236186 0.905355
0.771211 0.235876 1.000000
0.770453 0.368951 0.000000
0.770143 0.368642 0.100974
0.769790 0.368289 0.234455
0.769437 0.367936 0.367936
0.769085 0.367583 0.501417
0.768732 0.367230 0.634898
0.768379 0.366878 0.768379
0.768026 0.366525 0.901860
0.767717 0.366215 1.000000
0.766958 0.499290 0.000000
0.766648 0.498981 0.097479
0.766295 0.498628 0.230960
0.765943 0.498275 0.364441
0.765590 0.497922 0.497922
0.765237 0.497569 0.631403
0.764884 0.497217 0.764884
0.764531 0.496864 0.898365
0.764222 0.496554 1.000000
0.763463 0.629629 0.000000
0.763154 0.629320 0.093985
0.762801 0.628967 0.227466
0.762448 0.628614 0.360947
0.762095 0.628261 0.494428
0.761742 0.627909 0.627909
0.761390 0.627556 0.761390
0.761037 0.627203 0.894871
0.760727 0.626893 1.000000
0.759968 0.759968 0.000000
0.759659 0.759659 0.090490
0.759306 0.759306 0.223971
0.758953 0.758953 0.357452
0.758600 0.758600 0.490933
0.758248 0.758248 0.624414
0.757895 0.757895 0.757895
0.757542 0.757542 0.891376
0.757232 0.757232 1.000000
0.756474 0.890307 0.000000
0.756164 0.889998 0.086995
0.755811 0.889645 0.220476
0.755458 0.889292 0.353957
0.755106 0.888939 0.487438
0.754753 0.888587 0.620919
0.754400 0.888234 0.754400
0.754047 0.887881 0.887881
0.753738 0.887571 1.000000
0.753407 1.000000 0.000000
0.753097 1.000000 0.083928
0.752744 1.000000 0.217409
0.752392 1.000000 0.350890
0.752039 1.000000 0.484371
0.751686 1.000000 0.617852
0.751333 1.000000 0.751333
0.750980 1.000000 0.884814
0.750671 1.000000 1.000000
0.913304 0.000000 0.000000
0.912994 0.000000 0.109992
0.912642 0.000000 0.243473
0.912289 0.000000 0.376954
0.911936 0.000000 0.510435
0.911583 0.000000 0.643916
0.911230 0.000000 0.777397
0.910878 0.000000 0.910878
0.910568 0.000000 1.000000
0.910237 0.107234 0.000000
0.909928 0.106925 0.106925
0.909575 0.106572 0.240406
0.909222 0.106219 0.373887
0.908869 0.105866 0.507368
0.908516 0.105514 0.640849
0.908164 0.105161 0.774330
0.907811 0.104808 0.907811
0.907501 0.104498 1.000000
0.906742 0.237573 0.000000
0.906433 0.237264 0.103430
0.906080 0.236911 0.236911
0.905727 0.236558 0.370392
0.905374 0.236205 0.503873
0.905022 0.235853 0.637354
0.904669 0.235500 0.770835
0.904316 0.235147 0.904316
0.904006 0.234837 1.000000
0.903248 0.367912 0.000000
0.902938 0.367603 0.099935
0.902585 0.367250 0.233416
0.902232 0.366897 0.366897
0.901880 0.366544 0.500378
0.901527 0.366192 0.633859
0.901174 0.365839 0.767340
0.900821 0.365486 0.900821
0.900512 0.365176 1.000000
0.899753 0.498251 0.000000
0.899443 0.497942 0.096440
0.899090 0.497589 0.229921
0.898738 0.497236 0.363402
0.898385 0.496883 0.496883
0.898032 0.496531 0.630364
0.897679 0.496178 0.763845
0.897326 0.495825 0.897326
0.897017 0.495515 1.000000
0.896258 0.628590 0.000000
0.895948 0.628281 0.092946
0.895596 0.627928 0.226427
0.895243 0.627575 0.359908
0.894890 0.627222 0.493389
0.894537 0.626870 0.626870
0.894184 0.626517 0.760351
0.893832 0.626164 0.893832
0.893522 0.625854 1.000000
0.892763 0.758929 0.000000
0.892454 0.758620 0.089451
0.892101 0.758267 0.222932
0.891748 0.757914 0.356413
0.891395 0.757561 0.489894
0.891042 0.757209 0.623375
0.890690 0.756856 0.756856
0.890337 0.756503 0.890337
0.890027 0.756193 1.000000
0.889269 0.889269 0.000000
0.888959 0.888959 0.085956
0.888606 0.888606 0.219437
0.888253 0.888253 0.352918
0.887901 0.887901 0.486399
0.887548 0.887548 0.619880
0.887195 0.887195 0.753361
0.886842 0.886842 0.886842
0.886533 0.886533 1.000000
0.886202 1.000000 0.000000
0.885892 1.000000 0.082889
0.885539 1.000000 0.216370
0.885186 1.000000 0.349851
0.884834 1.000000 0.483332
0.884481 1.000000 0.616813
0.884128 1.000000 0.750294
0.883775 1.000000 0.883775
0.883466 1.000000 1.000000
1.000000 0.000000 0.000000
1.000000 0.000000 0.109080
1.000000 0.000000 0.242561
1.000000 0.000000 0.376042
1.000000 0.000000 0.509523
1.000000 0.000000 0.643004
1.000000 0.000000 0.776485
1.000000 0.000000 0.909966
1.000000 0.000000 1.000000
1.000000 0.106323 0.000000
1.000000 0.106013 0.106013
1.000000 0.105660 0.239494
1.000000 0.105308 0.372975
1.000000 0.104955 0.506456
1.000000 0.104602 0.639937
1.000000 0.104249 0.773418
1.000000 0.103896 0.906899
1.000000 0.103587 1.000000
1.000000 0.236662 0.000000
1.000000 0.236352 0.102518
1.000000 0.235999 0.235999
1.000000 0.235647 0.369480
1.000000 0.235294 0.502961
1.000000 0.234941 0.636442
1.000000 0.234588 0.769923
1.000000 0.234235 0.903404
1.000000 0.233926 1.000000
1.000000 0.367001 0.000000
1.000000 0.366691 0.099024
1.000000 0.366338 0.232505
1.000000 0.365986 0.365986
1.000000 0.365633 0.499467
1.000000 0.365280 0.632948
1.000000 0.364927 0.766429
1.000000 0.364574 0.899910
1.000000 0.364265 1.000000
1.000000 0.497340 0.000000
1.000000 0.497030 0.095529
1.000000 0.496677 0.229010
1.000000 0.496325 0.362491
1.000000 0.495972 0.495972
1.000000 0.495619 0.629453
1.000000 0.495266 0.762934
1.000000 0.494913 0.896415
1.000000 0.494604 1.000000
1.000000 0.627679 0.000000
1.000000 0.627369 0.092034
1.000000 0.627016 0.225515
1.000000 0.626664 0.358996
1.000000 0.626311 0.492477
1.000000 0.625958 0.625958
1.000000 0.625605 0.759439
1.000000 0.625252 0.892920
1.000000 0.624943 1.000000
1.000000 0.758018 0.000000
1.000000 0.757708 0.088539
1.000000 0.757355 0.222020
1.000000 0.757003 0.355501
1.000000 0.756650 0.488982
1.000000 0.756297 0.622463
1.000000 0.755944 0.755944
1.000000 0.755591 0.889425
1.000000 0.755282 1.000000
1.000000 0.888357 0.000000
1.000000 0.888047 0.085044
1.000000 0.887694 0.218525
1.000000 0.887342 0.352006
1.000000 0.886989 0.485487
1.000000 0.886636 0.618968
1.000000 0.886283 0.752449
1.000000 0.885930 0.885930
1.000000 0.885621 1.000000
1.000000 1.000000 0.000000
1.000000 1.000000 0.081978
1.000000 1.000000 0.215459
1.000000 1.000000 0.348940
1.000000 1.000000 0.482421
1.000000 1.000000 0.615902
1.000000 1.000000 0.749383
1.000000 1.000000 0.882864
1.000000 1.000000 1.000000
