skills/editops-orchestrator/assets/grade/luts/product_clean_v08.cube
TITLE "product_clean_v08"
LUT_3D_SIZE 5
DOMAIN_MIN 0.0 0.0 0.0
DOMAIN_MAX 1.0 1.0 1.0
0.000000 0.000000 0.000000
0.000000 0.000000 0.250428
0.000000 0.000000 0.510255
0.000000 0.000000 0.770082
0.000000 0.000000 1.000000
0.000000 0.246940 0.000000
0.000000 0.246548 0.246548
0.000000 0.246142 0.506375
0.000000 0.245735 0.766202
0.000000 0.245344 1.000000
0.000000 0.503148 0.000000
0.000000 0.502756 0.242523
0.000000 0.502350 0.502350
0.000000 0.501943 0.762177
0.000000 0.501552 1.000000
0.000000 0.759356 0.000000
0.000000 0.758964 0.238498
0.000000 0.758558 0.498325
0.000000 0.758152 0.758152
0.000000 0.757760 1.000000
0.000000 1.000000 0.000000
0.000000 1.000000 0.234618
0.000000 1.000000 0.494445
0.000000 1.000000 0.754272
0.000000 1.000000 1.000000
0.249666 0.000000 0.000000
0.249274 0.000000 0.249274
0.248868 0.000000 0.509101
0.248462 0.000000 0.768928
0.248070 0.000000 1.000000
0.245786 0.245786 0.000000
0.245395 0.245395 0.245395
0.244988 0.244988 0.505222
0.244582 0.244582 0.765049
0.244190 0.244190 1.000000
0.241761 0.501995 0.000000
0.241370 0.501603 0.241370
0.240963 0.501197 0.501197
0.240557 0.500790 0.761024
0.240165 0.500399 1.000000
0.237736 0.758203 0.000000
0.237344 0.757811 0.237344
0.236938 0.757405 0.497171
0.236532 0.756998 0.756998
0.236140 0.756607 1.000000
0.233856 1.000000 0.000000
0.233465 1.000000 0.233465
0.233058 1.000000 0.493292
0.232652 1.000000 0.753119
0.232260 1.000000 1.000000
0.508703 0.000000 0.000000
0.508311 0.000000 0.248078
0.507905 0.000000 0.507905
0.507498 0.000000 0.767732
0.507107 0.000000 1.000000
0.504823 0.244590 0.000000
0.504432 0.244198 0.244198
0.504025 0.243792 0.504025
0.503619 0.243385 0.763852
0.503227 0.242994 1.000000
0.500798 0.500798 0.000000
0.500406 0.500406 0.240173
0.500000 0.500000 0.500000
0.499594 0.499594 0.759827
0.499202 0.499202 1.000000
0.496773 0.757006 0.000000
0.496381 0.756615 0.236148
0.495975 0.756208 0.495975
0.495568 0.755802 0.755802
0.495177 0.755410 1.000000
0.492893 1.000000 0.000000
0.492502 1.000000 0.232268
0.492095 1.000000 0.492095
0.491689 1.000000 0.751922
0.491297 1.000000 1.000000
0.767740 0.000000 0.000000
0.767348 0.000000 0.246881
0.766942 0.000000 0.506708
0.766535 0.000000 0.766535
0.766144 0.000000 1.000000
0.763860 0.243393 0.000000
0.763468 0.243002 0.243002
0.763062 0.242595 0.502829
0.762656 0.242189 0.762656
0.762264 0.241797 1.000000
0.759835 0.499601 0.000000
0.759443 0.499210 0.238976
0.759037 0.498803 0.498803
0.758630 0.498397 0.758630
0.758239 0.498005 1.000000
0.755810 0.755810 0.000000
0.755418 0.755418 0.234951
0.755012 0.755012 0.494778
0.754605 0.754605 0.754605
0.754214 0.754214 1.000000
0.751930 1.000000 0.000000
0.751538 1.000000 0.231072
0.751132 1.000000 0.490899
0.750726 1.000000 0.750726
0.750334 1.000000 1.000000
1.000000 0.000000 0.000000
1.000000 0.000000 0.245728
1.000000 0.000000 0.505555
1.000000 0.000000 0.765382
1.000000 0.000000 1.000000
1.000000 0.242240 0.000000
1.000000 0.241848 0.241848
1.000000 0.241442 0.501675
1.000000 0.241036 0.761502
1.000000 0.240644 1.000000
1.000000 0.498448 0.000000
1.000000 0.498057 0.237823
1.000000 0.497650 0.497650
1.000000 0.497244 0.757477
1.000000 0.496852 1.000000
1.000000 0.754656 0.000000
1.000000 0.754265 0.233798
1.000000 0.753858 0.493625
1.000000 0.753452 0.753452
1.000000 0.753060 1.000000
1.000000 1.000000 0.000000
1.000000 1.000000 0.229918
1.000000 1.000000 0.489745
1.000000 1.000000 0.749572
1.000000 1.000000 1.000000
