skills/editops-orchestrator/assets/grade/luts/product_clean_v09.cube
TITLE "product_clean_v09"
LUT_3D_SIZE 5
DOMAIN_MIN 0.0 0.0 0.0
DOMAIN_MAX 1.0 1.0 1.0
0.000000 0.000000 0.000000
0.000000 0.000000 0.250473
0.000000 0.000000 0.511720
0.000000 0.000000 0.772966
0.000000 0.000000 1.000000
0.000000 0.246498 0.000000
0.000000 0.246051 0.246051
0.000000 0.245586 0.507298
0.000000 0.245120 0.768544
0.000000 0.244674 1.000000
0.000000 0.503597 0.000000
0.000000 0.503151 0.241439
0.000000 0.502685 0.502685
0.000000 0.502220 0.763932
0.000000 0.501773 1.000000
0.000000 0.760697 0.000000
0.000000 0.760251 0.236827
0.000000 0.759785 0.498073
0.000000 0.759320 0.759320
0.000000 0.758873 1.000000
0.000000 1.000000 0.000000
0.000000 1.000000 0.232405
0.000000 1.000000 0.493651
0.000000 1.000000 0.754898
0.000000 1.000000 1.000000
0.249605 0.000000 0.000000
0.249159 0.000000 0.249159
0.248693 0.000000 0.510405
0.248228 0.000000 0.771651
0.247781 0.000000 1.000000
0.245183 0.245183 0.000000
0.244737 0.244737 0.244737
0.244271 0.244271 0.505983
0.243806 0.243806 0.767229
0.243359 0.243359 1.000000
0.240571 0.502283 0.000000
0.240125 0.501837 0.240125
0.239659 0.501371 0.501371
0.239193 0.500905 0.762617
0.238747 0.500459 1.000000
0.235959 0.759383 0.000000
0.235513 0.758936 0.235513
0.235047 0.758471 0.496759
0.234581 0.758005 0.758005
0.234135 0.757559 1.000000
0.231537 1.000000 0.000000
0.231091 1.000000 0.231091
0.230625 1.000000 0.492337
0.230159 1.000000 0.753583
0.229713 1.000000 1.000000
0.509946 0.000000 0.000000
0.509500 0.000000 0.247788
0.509034 0.000000 0.509034
0.508569 0.000000 0.770280
0.508122 0.000000 1.000000
0.505524 0.243812 0.000000
0.505078 0.243366 0.243366
0.504612 0.242900 0.504612
0.504147 0.242435 0.765858
0.503700 0.241988 1.000000
0.500912 0.500912 0.000000
0.500466 0.500466 0.238754
0.500000 0.500000 0.500000
0.499534 0.499534 0.761246
0.499088 0.499088 1.000000
0.496300 0.758012 0.000000
0.495853 0.757565 0.234142
0.495388 0.757100 0.495388
0.494922 0.756634 0.756634
0.494476 0.756188 1.000000
0.491878 1.000000 0.000000
0.491431 1.000000 0.229720
0.490966 1.000000 0.490966
0.490500 1.000000 0.752212
0.490054 1.000000 1.000000
0.770287 0.000000 0.000000
0.769841 0.000000 0.246417
0.769375 0.000000 0.507663
0.768909 0.000000 0.768909
0.768463 0.000000 1.000000
0.765865 0.242441 0.000000
0.765419 0.241995 0.241995
0.764953 0.241529 0.503241
0.764487 0.241064 0.764487
0.764041 0.240617 1.000000
0.761253 0.499541 0.000000
0.760807 0.499095 0.237383
0.760341 0.498629 0.498629
0.759875 0.498163 0.759875
0.759429 0.497717 1.000000
0.756641 0.756641 0.000000
0.756194 0.756194 0.232771
0.755729 0.755729 0.494017
0.755263 0.755263 0.755263
0.754817 0.754817 1.000000
0.752219 1.000000 0.000000
0.751772 1.000000 0.228349
0.751307 1.000000 0.489595
0.750841 1.000000 0.750841
0.750395 1.000000 1.000000
1.000000 0.000000 0.000000
1.000000 0.000000 0.245102
1.000000 0.000000 0.506349
1.000000 0.000000 0.767595
1.000000 0.000000 1.000000
1.000000 0.241127 0.000000
1.000000 0.240680 0.240680
1.000000 0.240215 0.501927
1.000000 0.239749 0.763173
1.000000 0.239303 1.000000
1.000000 0.498227 0.000000
1.000000 0.497780 0.236068
1.000000 0.497315 0.497315
1.000000 0.496849 0.758561
1.000000 0.496403 1.000000
1.000000 0.755326 0.000000
1.000000 0.754880 0.231456
1.000000 0.754414 0.492702
1.000000 0.753949 0.753949
1.000000 0.753502 1.000000
1.000000 1.000000 0.000000
1.000000 1.000000 0.227034
1.000000 1.000000 0.488280
1.000000 1.000000 0.749527
1.000000 1.000000 1.000000
