skills/editops-orchestrator/assets/grade/luts/product_clean_v20.cube
TITLE "product_clean_v20"
LUT_3D_SIZE 9
DOMAIN_MIN 0.0 0.0 0.0
DOMAIN_MAX 1.0 1.0 1.0
0.000000 0.000000 0.000000
0.000000 0.000000 0.112165
0.000000 0.000000 0.250721
0.000000 0.000000 0.389278
0.000000 0.000000 0.527834
0.000000 0.000000 0.666390
0.000000 0.000000 0.804947
0.000000 0.000000 0.943503
0.000000 0.000000 1.000000
0.000000 0.108066 0.000000
0.000000 0.107605 0.107605
0.000000 0.107037 0.246162
0.000000 0.106468 0.384718
0.000000 0.105900 0.523275
0.000000 0.105331 0.661831
0.000000 0.104762 0.800387
0.000000 0.104194 0.938944
0.000000 0.103734 1.000000
0.000000 0.241558 0.000000
0.000000 0.241098 0.101973
0.000000 0.240530 0.240530
0.000000 0.239961 0.379086
0.000000 0.239392 0.517642
0.000000 0.238824 0.656199
0.000000 0.238255 0.794755
0.000000 0.237687 0.933312
0.000000 0.237226 1.000000
0.000000 0.375051 0.000000
0.000000 0.374591 0.096341
0.000000 0.374022 0.234897
0.000000 0.373454 0.373454
0.000000 0.372885 0.512010
0.000000 0.372317 0.650567
0.000000 0.371748 0.789123
0.000000 0.371179 0.927679
0.000000 0.370719 1.000000
0.000000 0.508544 0.000000
0.000000 0.508084 0.090709
0.000000 0.507515 0.229265
0.000000 0.506947 0.367822
0.000000 0.506378 0.506378
0.000000 0.505809 0.644934
0.000000 0.505241 0.783491
0.000000 0.504672 0.922047
0.000000 0.504212 1.000000
0.000000 0.642037 0.000000
0.000000 0.641577 0.085077
0.000000 0.641008 0.223633
0.000000 0.640439 0.362189
0.000000 0.639871 0.500746
0.000000 0.639302 0.639302
0.000000 0.638734 0.777859
0.000000 0.638165 0.916415
0.000000 0.637705 1.000000
0.000000 0.775530 0.000000
0.000000 0.775069 0.079444
0.000000 0.774501 0.218001
0.000000 0.773932 0.356557
0.000000 0.773364 0.495114
0.000000 0.772795 0.633670
0.000000 0.772226 0.772226
0.000000 0.771658 0.910783
0.000000 0.771198 1.000000
0.000000 0.909022 0.000000
0.000000 0.908562 0.073812
0.000000 0.907994 0.212369
0.000000 0.907425 0.350925
0.000000 0.906856 0.489481
0.000000 0.906288 0.628038
0.000000 0.905719 0.766594
0.000000 0.905151 0.905151
0.000000 0.904690 1.000000
0.000000 1.000000 0.000000
0.000000 1.000000 0.069253
0.000000 1.000000 0.207809
0.000000 1.000000 0.346366
0.000000 1.000000 0.484922
0.000000 1.000000 0.623478
0.000000 1.000000 0.762035
0.000000 1.000000 0.900591
0.000000 1.000000 1.000000
0.111270 0.000000 0.000000
0.110809 0.000000 0.110809
0.110241 0.000000 0.249366
0.109672 0.000000 0.387922
0.109104 0.000000 0.526479
0.108535 0.000000 0.665035
0.107967 0.000000 0.803592
0.107398 0.000000 0.942148
0.106938 0.000000 1.000000
0.106710 0.106710 0.000000
0.106250 0.106250 0.106250
0.105681 0.105681 0.244806
0.105113 0.105113 0.383363
0.104544 0.104544 0.521919
0.103976 0.103976 0.660476
0.103407 0.103407 0.799032
0.102839 0.102839 0.937589
0.102378 0.102378 1.000000
0.101078 0.240203 0.000000
0.100618 0.239743 0.100618
0.100049 0.239174 0.239174
0.099481 0.238606 0.377731
0.098912 0.238037 0.516287
0.098343 0.237468 0.654844
0.097775 0.236900 0.793400
0.097206 0.236331 0.931956
0.096746 0.235871 1.000000
0.095446 0.373696 0.000000
0.094986 0.373236 0.094986
0.094417 0.372667 0.233542
0.093848 0.372098 0.372098
0.093280 0.371530 0.510655
0.092711 0.370961 0.649211
0.092143 0.370393 0.787768
0.091574 0.369824 0.926324
0.091114 0.369364 1.000000
0.089814 0.507189 0.000000
0.089353 0.506728 0.089353
0.088785 0.506160 0.227910
0.088216 0.505591 0.366466
0.087648 0.505023 0.505023
0.087079 0.504454 0.643579
0.086511 0.503886 0.782136
0.085942 0.503317 0.920692
0.085482 0.502857 1.000000
0.084181 0.640681 0.000000
0.083721 0.640221 0.083721
0.083153 0.639653 0.222278
0.082584 0.639084 0.360834
0.082015 0.638515 0.499390
0.081447 0.637947 0.637947
0.080878 0.637378 0.776503
0.080310 0.636810 0.915060
0.079849 0.636349 1.000000
0.078549 0.774174 0.000000
0.078089 0.773714 0.078089
0.077520 0.773145 0.216645
0.076952 0.772577 0.355202
0.076383 0.772008 0.493758
0.075815 0.771440 0.632315
0.075246 0.770871 0.770871
0.074678 0.770303 0.909428
0.074217 0.769842 1.000000
0.072917 0.907667 0.000000
0.072457 0.907207 0.072457
0.071888 0.906638 0.211013
0.071320 0.906070 0.349570
0.070751 0.905501 0.488126
0.070182 0.904933 0.626683
0.069614 0.904364 0.765239
0.069045 0.903795 0.903795
0.068585 0.903335 1.000000
0.068358 1.000000 0.000000
0.067897 1.000000 0.067897
0.067329 1.000000 0.206454
0.066760 1.000000 0.345010
0.066192 1.000000 0.483567
0.065623 1.000000 0.622123
0.065055 1.000000 0.760680
0.064486 1.000000 0.899236
0.064026 1.000000 1.000000
0.248720 0.000000 0.000000
0.248260 0.000000 0.109135
0.247692 0.000000 0.247692
0.247123 0.000000 0.386248
0.246554 0.000000 0.524804
0.245986 0.000000 0.663361
0.245417 0.000000 0.801917
0.244849 0.000000 0.940474
0.244388 0.000000 1.000000
0.244161 0.105036 0.000000
0.243701 0.104576 0.104576
0.243132 0.104007 0.243132
0.242564 0.103439 0.381689
0.241995 0.102870 0.520245
0.241426 0.102301 0.658801
0.240858 0.101733 0.797358
0.240289 0.101164 0.935914
0.239829 0.100704 1.000000
0.238529 0.238529 0.000000
0.238069 0.238069 0.098944
0.237500 0.237500 0.237500
0.236931 0.236931 0.376056
0.236363 0.236363 0.514613
0.235794 0.235794 0.653169
0.235226 0.235226 0.791726
0.234657 0.234657 0.930282
0.234197 0.234197 1.000000
0.232897 0.372022 0.000000
0.232436 0.371561 0.093311
0.231868 0.370993 0.231868
0.231299 0.370424 0.370424
0.230731 0.369856 0.508981
0.230162 0.369287 0.647537
0.229593 0.368719 0.786094
0.229025 0.368150 0.924650
0.228565 0.367690 1.000000
0.227264 0.505514 0.000000
0.226804 0.505054 0.087679
0.226236 0.504486 0.226236
0.225667 0.503917 0.364792
0.225098 0.503348 0.503348
0.224530 0.502780 0.641905
0.223961 0.502211 0.780461
0.223393 0.501643 0.919018
0.222932 0.501182 1.000000
0.221632 0.639007 0.000000
0.221172 0.638547 0.082047
0.220603 0.637978 0.220603
0.220035 0.637410 0.359160
0.219466 0.636841 0.497716
0.218898 0.636273 0.636273
0.218329 0.635704 0.774829
0.217761 0.635136 0.913386
0.217300 0.634675 1.000000
0.216000 0.772500 0.000000
0.215540 0.772040 0.076415
0.214971 0.771471 0.214971
0.214403 0.770903 0.353528
0.213834 0.770334 0.492084
0.213265 0.769765 0.630640
0.212697 0.769197 0.769197
0.212128 0.768628 0.907753
0.211668 0.768168 1.000000
0.210368 0.905993 0.000000
0.209908 0.905533 0.070783
0.209339 0.904964 0.209339
0.208770 0.904395 0.347895
0.208202 0.903827 0.486452
0.207633 0.903258 0.625008
0.207065 0.902690 0.763565
0.206496 0.902121 0.902121
0.206036 0.901661 1.000000
0.205808 1.000000 0.000000
0.205348 1.000000 0.066223
0.204780 1.000000 0.204780
0.204211 1.000000 0.343336
0.203642 1.000000 0.481892
0.203074 1.000000 0.620449
0.202505 1.000000 0.759005
0.201937 1.000000 0.897562
0.201476 1.000000 1.000000
0.386171 0.000000 0.000000
0.385711 0.000000 0.107461
0.385142 0.000000 0.246017
0.384574 0.000000 0.384574
0.384005 0.000000 0.523130
0.383437 0.000000 0.661687
0.382868 0.000000 0.800243
0.382300 0.000000 0.938800
0.381839 0.000000 1.000000
0.381612 0.103362 0.000000
0.381152 0.102902 0.102902
0.380583 0.102333 0.241458
0.380014 0.101764 0.380014
0.379446 0.101196 0.518571
0.378877 0.100627 0.657127
0.378309 0.100059 0.795684
0.377740 0.099490 0.934240
0.377280 0.099030 1.000000
0.375980 0.236855 0.000000
0.375519 0.236394 0.097269
0.374951 0.235826 0.235826
0.374382 0.235257 0.374382
0.373814 0.234689 0.512939
0.373245 0.234120 0.651495
0.372676 0.233551 0.790051
0.372108 0.232983 0.928608
0.371648 0.232523 1.000000
0.370347 0.370347 0.000000
0.369887 0.369887 0.091637
0.369319 0.369319 0.230194
0.368750 0.368750 0.368750
0.368181 0.368181 0.507306
0.367613 0.367613 0.645863
0.367044 0.367044 0.784419
0.366476 0.366476 0.922976
0.366015 0.366015 1.000000
0.364715 0.503840 0.000000
0.364255 0.503380 0.086005
0.363686 0.502811 0.224561
0.363118 0.502243 0.363118
0.362549 0.501674 0.501674
0.361981 0.501106 0.640231
0.361412 0.500537 0.778787
0.360843 0.499968 0.917344
0.360383 0.499508 1.000000
0.359083 0.637333 0.000000
0.358623 0.636873 0.080373
0.358054 0.636304 0.218929
0.357486 0.635736 0.357486
0.356917 0.635167 0.496042
0.356348 0.634598 0.634598
0.355780 0.634030 0.773155
0.355211 0.633461 0.911711
0.354751 0.633001 1.000000
0.353451 0.770826 0.000000
0.352991 0.770366 0.074741
0.352422 0.769797 0.213297
0.351853 0.769228 0.351853
0.351285 0.768660 0.490410
0.350716 0.768091 0.628966
0.350148 0.767523 0.767523
0.349579 0.766954 0.906079
0.349119 0.766494 1.000000
0.347819 0.904319 0.000000
0.347358 0.903858 0.069108
0.346790 0.903290 0.207665
0.346221 0.902721 0.346221
0.345653 0.902153 0.484778
0.345084 0.901584 0.623334
0.344515 0.901015 0.761890
0.343947 0.900447 0.900447
0.343487 0.899987 1.000000
0.343259 1.000000 0.000000
0.342799 1.000000 0.064549
0.342230 1.000000 0.203105
0.341662 1.000000 0.341662
0.341093 1.000000 0.480218
0.340525 1.000000 0.618775
0.339956 1.000000 0.757331
0.339387 1.000000 0.895888
0.338927 1.000000 1.000000
0.523622 0.000000 0.000000
0.523162 0.000000 0.105787
0.522593 0.000000 0.244343
0.522025 0.000000 0.382900
0.521456 0.000000 0.521456
0.520887 0.000000 0.660012
0.520319 0.000000 0.798569
0.519750 0.000000 0.937125
0.519290 0.000000 1.000000
0.519063 0.101688 0.000000
0.518602 0.101227 0.101227
0.518034 0.100659 0.239784
0.517465 0.100090 0.378340
0.516897 0.099522 0.516897
0.516328 0.098953 0.655453
0.515759 0.098384 0.794009
0.515191 0.097816 0.932566
0.514731 0.097356 1.000000
0.513430 0.235180 0.000000
0.512970 0.234720 0.095595
0.512402 0.234152 0.234152
0.511833 0.233583 0.372708
0.511264 0.233014 0.511264
0.510696 0.232446 0.649821
0.510127 0.231877 0.788377
0.509559 0.231309 0.926934
0.509098 0.230848 1.000000
0.507798 0.368673 0.000000
0.507338 0.368213 0.089963
0.506769 0.367644 0.228519
0.506201 0.367076 0.367076
0.505632 0.366507 0.505632
0.505064 0.365939 0.644189
0.504495 0.365370 0.782745
0.503926 0.364801 0.921301
0.503466 0.364341 1.000000
0.502166 0.502166 0.000000
0.501706 0.501706 0.084331
0.501137 0.501137 0.222887
0.500569 0.500569 0.361444
0.500000 0.500000 0.500000
0.499431 0.499431 0.638556
0.498863 0.498863 0.777113
0.498294 0.498294 0.915669
0.497834 0.497834 1.000000
0.496534 0.635659 0.000000
0.496074 0.635199 0.078699
0.495505 0.634630 0.217255
0.494936 0.634061 0.355811
0.494368 0.633493 0.494368
0.493799 0.632924 0.632924
0.493231 0.632356 0.771481
0.492662 0.631787 0.910037
0.492202 0.631327 1.000000
0.490902 0.769152 0.000000
0.490441 0.768691 0.073066
0.489873 0.768123 0.211623
0.489304 0.767554 0.350179
0.488736 0.766986 0.488736
0.488167 0.766417 0.627292
0.487598 0.765848 0.765848
0.487030 0.765280 0.904405
0.486570 0.764820 1.000000
0.485269 0.902644 0.000000
0.484809 0.902184 0.067434
0.484241 0.901616 0.205991
0.483672 0.901047 0.344547
0.483103 0.900478 0.483103
0.482535 0.899910 0.621660
0.481966 0.899341 0.760216
0.481398 0.898773 0.898773
0.480937 0.898312 1.000000
0.480710 1.000000 0.000000
0.480250 1.000000 0.062875
0.479681 1.000000 0.201431
0.479113 1.000000 0.339988
0.478544 1.000000 0.478544
0.477975 1.000000 0.617100
0.477407 1.000000 0.755657
0.476838 1.000000 0.894213
0.476378 1.000000 1.000000
0.661073 0.000000 0.000000
0.660613 0.000000 0.104112
0.660044 0.000000 0.242669
0.659475 0.000000 0.381225
0.658907 0.000000 0.519782
0.658338 0.000000 0.658338
0.657770 0.000000 0.796895
0.657201 0.000000 0.935451
0.656741 0.000000 1.000000
0.656513 0.100013 0.000000
0.656053 0.099553 0.099553
0.655485 0.098985 0.238110
0.654916 0.098416 0.376666
0.654347 0.097847 0.515222
0.653779 0.097279 0.653779
0.653210 0.096710 0.792335
0.652642 0.096142 0.930892
0.652181 0.095681 1.000000
0.650881 0.233506 0.000000
0.650421 0.233046 0.093921
0.649852 0.232477 0.232477
0.649284 0.231909 0.371034
0.648715 0.231340 0.509590
0.648147 0.230772 0.648147
0.647578 0.230203 0.786703
0.647009 0.229634 0.925259
0.646549 0.229174 1.000000
0.645249 0.366999 0.000000
0.644789 0.366539 0.088289
0.644220 0.365970 0.226845
0.643652 0.365402 0.365402
0.643083 0.364833 0.503958
0.642514 0.364264 0.642514
0.641946 0.363696 0.781071
0.641377 0.363127 0.919627
0.640917 0.362667 1.000000
0.639617 0.500492 0.000000
0.639157 0.500031 0.082656
0.638588 0.499463 0.221213
0.638019 0.498894 0.359769
0.637451 0.498326 0.498326
0.636882 0.497757 0.636882
0.636314 0.497189 0.775439
0.635745 0.496620 0.913995
0.635285 0.496160 1.000000
0.633985 0.633985 0.000000
0.633524 0.633524 0.077024
0.632956 0.632956 0.215581
0.632387 0.632387 0.354137
0.631819 0.631819 0.492694
0.631250 0.631250 0.631250
0.630681 0.630681 0.769806
0.630113 0.630113 0.908363
0.629653 0.629653 1.000000
0.628352 0.767477 0.000000
0.627892 0.767017 0.071392
0.627324 0.766449 0.209949
0.626755 0.765880 0.348505
0.626186 0.765311 0.487061
0.625618 0.764743 0.625618
0.625049 0.764174 0.764174
0.624481 0.763606 0.902731
0.624020 0.763145 1.000000
0.622720 0.900970 0.000000
0.622260 0.900510 0.065760
0.621691 0.899941 0.204316
0.621123 0.899373 0.342873
0.620554 0.898804 0.481429
0.619986 0.898236 0.619986
0.619417 0.897667 0.758542
0.618848 0.897098 0.897098
0.618388 0.896638 1.000000
0.618161 1.000000 0.000000
0.617700 1.000000 0.061200
0.617132 1.000000 0.199757
0.616563 1.000000 0.338313
0.615995 1.000000 0.476870
0.615426 1.000000 0.615426
0.614858 1.000000 0.753983
0.614289 1.000000 0.892539
0.613829 1.000000 1.000000
0.798524 0.000000 0.000000
0.798063 0.000000 0.102438
0.797495 0.000000 0.240995
0.796926 0.000000 0.379551
0.796358 0.000000 0.518108
0.795789 0.000000 0.656664
0.795220 0.000000 0.795220
0.794652 0.000000 0.933777
0.794192 0.000000 1.000000
0.793964 0.098339 0.000000
0.793504 0.097879 0.097879
0.792935 0.097310 0.236435
0.792367 0.096742 0.374992
0.791798 0.096173 0.513548
0.791230 0.095605 0.652105
0.790661 0.095036 0.790661
0.790092 0.094467 0.929217
0.789632 0.094007 1.000000
0.788332 0.231832 0.000000
0.787872 0.231372 0.092247
0.787303 0.230803 0.230803
0.786735 0.230235 0.369360
0.786166 0.229666 0.507916
0.785597 0.229097 0.646472
0.785029 0.228529 0.785029
0.784460 0.227960 0.923585
0.784000 0.227500 1.000000
0.782700 0.365325 0.000000
0.782239 0.364864 0.086614
0.781671 0.364296 0.225171
0.781102 0.363727 0.363727
0.780534 0.363159 0.502284
0.779965 0.362590 0.640840
0.779397 0.362022 0.779397
0.778828 0.361453 0.917953
0.778368 0.360993 1.000000
0.777068 0.498818 0.000000
0.776607 0.498357 0.080982
0.776039 0.497789 0.219539
0.775470 0.497220 0.358095
0.774902 0.496652 0.496652
0.774333 0.496083 0.635208
0.773764 0.495514 0.773764
0.773196 0.494946 0.912321
0.772736 0.494486 1.000000
0.771435 0.632310 0.000000
0.770975 0.631850 0.075350
0.770406 0.631281 0.213906
0.769838 0.630713 0.352463
0.769269 0.630144 0.491019
0.768701 0.629576 0.629576
0.768132 0.629007 0.768132
0.767564 0.628439 0.906689
0.767103 0.627978 1.000000
0.765803 0.765803 0.000000
0.765343 0.765343 0.069718
0.764774 0.764774 0.208274
0.764206 0.764206 0.346831
0.763637 0.763637 0.485387
0.763069 0.763069 0.623944
0.762500 0.762500 0.762500
0.761931 0.761931 0.901056
0.761471 0.761471 1.000000
0.760171 0.899296 0.000000
0.759711 0.898836 0.064086
0.759142 0.898267 0.202642
0.758574 0.897699 0.341199
0.758005 0.897130 0.479755
0.757436 0.896561 0.618311
0.756868 0.895993 0.756868
0.756299 0.895424 0.895424
0.755839 0.894964 1.000000
0.755612 1.000000 0.000000
0.755151 1.000000 0.059526
0.754583 1.000000 0.198083
0.754014 1.000000 0.336639
0.753446 1.000000 0.475196
0.752877 1.000000 0.613752
0.752308 1.000000 0.752308
0.751740 1.000000 0.890865
0.751280 1.000000 1.000000
0.935974 0.000000 0.000000
0.935514 0.000000 0.100764
0.934945 0.000000 0.239320
0.934377 0.000000 0.377877
0.933808 0.000000 0.516433
0.933240 0.000000 0.654990
0.932671 0.000000 0.793546
0.932103 0.000000 0.932103
0.931642 0.000000 1.000000
0.931415 0.096665 0.000000
0.930955 0.096205 0.096205
0.930386 0.095636 0.234761
0.929818 0.095067 0.373318
0.929249 0.094499 0.511874
0.928680 0.093930 0.650430
0.928112 0.093362 0.788987
0.927543 0.092793 0.927543
0.927083 0.092333 1.000000
0.925783 0.230158 0.000000
0.925322 0.229697 0.090572
0.924754 0.229129 0.229129
0.924185 0.228560 0.367685
0.923617 0.227992 0.506242
0.923048 0.227423 0.644798
0.922480 0.226855 0.783355
0.921911 0.226286 0.921911
0.921451 0.225826 1.000000
0.920151 0.363651 0.000000
0.919690 0.363190 0.084940
0.919122 0.362622 0.223497
0.918553 0.362053 0.362053
0.917985 0.361485 0.500610
0.917416 0.360916 0.639166
0.916847 0.360347 0.777722
0.916279 0.359779 0.916279
0.915819 0.359319 1.000000
0.914518 0.497143 0.000000
0.914058 0.496683 0.079308
0.913489 0.496114 0.217864
0.912921 0.495546 0.356421
0.912352 0.494977 0.494977
0.911784 0.494409 0.633534
0.911215 0.493840 0.772090
0.910647 0.493272 0.910647
0.910186 0.492811 1.000000
0.908886 0.630636 0.000000
0.908426 0.630176 0.073676
0.907857 0.629607 0.212232
0.907289 0.629039 0.350789
0.906720 0.628470 0.489345
0.906152 0.627902 0.627902
0.905583 0.627333 0.766458
0.905014 0.626764 0.905014
0.904554 0.626304 1.000000
0.903254 0.764129 0.000000
0.902794 0.763669 0.068044
0.902225 0.763100 0.206600
0.901657 0.762531 0.345157
0.901088 0.761963 0.483713
0.900519 0.761394 0.622269
0.899951 0.760826 0.760826
0.899382 0.760257 0.899382
0.898922 0.759797 1.000000
0.897622 0.897622 0.000000
0.897161 0.897161 0.062411
0.896593 0.896593 0.200968
0.896024 0.896024 0.339524
0.895456 0.895456 0.478081
0.894887 0.894887 0.616637
0.894319 0.894319 0.755194
0.893750 0.893750 0.893750
0.893290 0.893290 1.000000
0.893062 1.000000 0.000000
0.892602 1.000000 0.057852
0.892033 1.000000 0.196408
0.891465 1.000000 0.334965
0.890896 1.000000 0.473521
0.890328 1.000000 0.612078
0.889759 1.000000 0.750634
0.889191 1.000000 0.889191
0.888730 1.000000 1.000000
1.000000 0.000000 0.000000
1.000000 0.000000 0.099409
1.000000 0.000000 0.237965
1.000000 0.000000 0.376522
1.000000 0.000000 0.515078
1.000000 0.000000 0.653634
1.000000 0.000000 0.792191
1.000000 0.000000 0.930747
1.000000 0.000000 1.000000
1.000000 0.095310 0.000000
1.000000 0.094849 0.094849
1.000000 0.094281 0.233406
1.000000 0.093712 0.371962
1.000000 0.093144 0.510519
1.000000 0.092575 0.649075
1.000000 0.092006 0.787631
1.000000 0.091438 0.926188
1.000000 0.090978 1.000000
1.000000 0.228802 0.000000
1.000000 0.228342 0.089217
1.000000 0.227774 0.227774
1.000000 0.227205 0.366330
1.000000 0.226636 0.504886
1.000000 0.226068 0.643443
1.000000 0.225499 0.781999
1.000000 0.224931 0.920556
1.000000 0.224470 1.000000
1.000000 0.362295 0.000000
1.000000 0.361835 0.083585
1.000000 0.361266 0.222141
1.000000 0.360698 0.360698
1.000000 0.360129 0.499254
1.000000 0.359561 0.637811
1.000000 0.358992 0.776367
1.000000 0.358423 0.914923
1.000000 0.357963 1.000000
1.000000 0.495788 0.000000
1.000000 0.495328 0.077953
1.000000 0.494759 0.216509
1.000000 0.494191 0.355066
1.000000 0.493622 0.493622
1.000000 0.493053 0.632178
1.000000 0.492485 0.770735
1.000000 0.491916 0.909291
1.000000 0.491456 1.000000
1.000000 0.629281 0.000000
1.000000 0.628821 0.072321
1.000000 0.628252 0.210877
1.000000 0.627683 0.349433
1.000000 0.627115 0.487990
1.000000 0.626546 0.626546
1.000000 0.625978 0.765103
1.000000 0.625409 0.903659
1.000000 0.624949 1.000000
1.000000 0.762774 0.000000
1.000000 0.762313 0.066688
1.000000 0.761745 0.205245
1.000000 0.761176 0.343801
1.000000 0.760608 0.482358
1.000000 0.760039 0.620914
1.000000 0.759470 0.759470
1.000000 0.758902 0.898027
1.000000 0.758442 1.000000
1.000000 0.896266 0.000000
1.000000 0.895806 0.061056
1.000000 0.895238 0.199613
1.000000 0.894669 0.338169
1.000000 0.894100 0.476725
1.000000 0.893532 0.615282
1.000000 0.892963 0.753838
1.000000 0.892395 0.892395
1.000000 0.891934 1.000000
1.000000 1.000000 0.000000
1.000000 1.000000 0.056497
1.000000 1.000000 0.195053
1.000000 1.000000 0.333610
1.000000 1.000000 0.472166
1.000000 1.000000 0.610722
1.000000 1.000000 0.749279
1.000000 1.000000 0.887835
1.000000 1.000000 1.000000
