skills/editops-orchestrator/assets/grade/luts/product_clean_v07.cube
TITLE "product_clean_v07"
LUT_3D_SIZE 9
DOMAIN_MIN 0.0 0.0 0.0
DOMAIN_MAX 1.0 1.0 1.0
0.000000 0.000000 0.000000
0.000000 0.000000 0.121172
0.000000 0.000000 0.250378
0.000000 0.000000 0.379584
0.000000 0.000000 0.508790
0.000000 0.000000 0.637995
0.000000 0.000000 0.767201
0.000000 0.000000 0.896407
0.000000 0.000000 1.000000
0.000000 0.119722 0.000000
0.000000 0.119559 0.119559
0.000000 0.119385 0.248764
0.000000 0.119211 0.377970
0.000000 0.119038 0.507176
0.000000 0.118864 0.636382
0.000000 0.118690 0.765588
0.000000 0.118516 0.894793
0.000000 0.118354 1.000000
0.000000 0.247380 0.000000
0.000000 0.247217 0.117838
0.000000 0.247044 0.247044
0.000000 0.246870 0.376250
0.000000 0.246696 0.505455
0.000000 0.246523 0.634661
0.000000 0.246349 0.763867
0.000000 0.246175 0.893073
0.000000 0.246012 1.000000
0.000000 0.375039 0.000000
0.000000 0.374876 0.116117
0.000000 0.374703 0.245323
0.000000 0.374529 0.374529
0.000000 0.374355 0.503735
0.000000 0.374182 0.632941
0.000000 0.374008 0.762146
0.000000 0.373834 0.891352
0.000000 0.373671 1.000000
0.000000 0.502698 0.000000
0.000000 0.502535 0.114397
0.000000 0.502362 0.243603
0.000000 0.502188 0.372808
0.000000 0.502014 0.502014
0.000000 0.501840 0.631220
0.000000 0.501667 0.760426
0.000000 0.501493 0.889632
0.000000 0.501330 1.000000
0.000000 0.630357 0.000000
0.000000 0.630194 0.112676
0.000000 0.630020 0.241882
0.000000 0.629847 0.371088
0.000000 0.629673 0.500293
0.000000 0.629499 0.629499
0.000000 0.629326 0.758705
0.000000 0.629152 0.887911
0.000000 0.628989 1.000000
0.000000 0.758016 0.000000
0.000000 0.757853 0.110955
0.000000 0.757679 0.240161
0.000000 0.757506 0.369367
0.000000 0.757332 0.498573
0.000000 0.757158 0.627779
0.000000 0.756984 0.756984
0.000000 0.756811 0.886190
0.000000 0.756648 1.000000
0.000000 0.885675 0.000000
0.000000 0.885512 0.109235
0.000000 0.885338 0.238441
0.000000 0.885164 0.367646
0.000000 0.884991 0.496852
0.000000 0.884817 0.626058
0.000000 0.884643 0.755264
0.000000 0.884470 0.884470
0.000000 0.884307 1.000000
0.000000 1.000000 0.000000
0.000000 1.000000 0.107621
0.000000 1.000000 0.236827
0.000000 1.000000 0.366033
0.000000 1.000000 0.495239
0.000000 1.000000 0.624444
0.000000 1.000000 0.753650
0.000000 1.000000 0.882856
0.000000 1.000000 1.000000
0.120856 0.000000 0.000000
0.120693 0.000000 0.120693
0.120519 0.000000 0.249898
0.120345 0.000000 0.379104
0.120172 0.000000 0.508310
0.119998 0.000000 0.637516
0.119824 0.000000 0.766722
0.119650 0.000000 0.895927
0.119488 0.000000 1.000000
0.119242 0.119242 0.000000
0.119079 0.119079 0.119079
0.118905 0.118905 0.248285
0.118732 0.118732 0.377491
0.118558 0.118558 0.506696
0.118384 0.118384 0.635902
0.118210 0.118210 0.765108
0.118037 0.118037 0.894314
0.117874 0.117874 1.000000
0.117521 0.246901 0.000000
0.117358 0.246738 0.117358
0.117185 0.246564 0.246564
0.117011 0.246390 0.375770
0.116837 0.246217 0.504976
0.116664 0.246043 0.634182
0.116490 0.245869 0.763387
0.116316 0.245696 0.892593
0.116153 0.245533 1.000000
0.115801 0.374560 0.000000
0.115638 0.374397 0.115638
0.115464 0.374223 0.244843
0.115290 0.374049 0.374049
0.115117 0.373876 0.503255
0.114943 0.373702 0.632461
0.114769 0.373528 0.761667
0.114595 0.373354 0.890872
0.114433 0.373192 1.000000
0.114080 0.502218 0.000000
0.113917 0.502056 0.113917
0.113743 0.501882 0.243123
0.113570 0.501708 0.372329
0.113396 0.501534 0.501534
0.113222 0.501361 0.630740
0.113049 0.501187 0.759946
0.112875 0.501013 0.889152
0.112712 0.500850 1.000000
0.112359 0.629877 0.000000
0.112196 0.629714 0.112196
0.112023 0.629541 0.241402
0.111849 0.629367 0.370608
0.111675 0.629193 0.499814
0.111502 0.629020 0.629020
0.111328 0.628846 0.758225
0.111154 0.628672 0.887431
0.110991 0.628509 1.000000
0.110639 0.757536 0.000000
0.110476 0.757373 0.110476
0.110302 0.757200 0.239682
0.110128 0.757026 0.368887
0.109955 0.756852 0.498093
0.109781 0.756678 0.627299
0.109607 0.756505 0.756505
0.109434 0.756331 0.885711
0.109271 0.756168 1.000000
0.108918 0.885195 0.000000
0.108755 0.885032 0.108755
0.108581 0.884858 0.237961
0.108408 0.884685 0.367167
0.108234 0.884511 0.496373
0.108060 0.884337 0.625578
0.107887 0.884164 0.754784
0.107713 0.883990 0.883990
0.107550 0.883827 1.000000
0.107304 1.000000 0.000000
0.107141 1.000000 0.107141
0.106968 1.000000 0.236347
0.106794 1.000000 0.365553
0.106620 1.000000 0.494759
0.106447 1.000000 0.623965
0.106273 1.000000 0.753170
0.106099 1.000000 0.882376
0.105936 1.000000 1.000000
0.249724 0.000000 0.000000
0.249561 0.000000 0.120181
0.249387 0.000000 0.249387
0.249213 0.000000 0.378593
0.249040 0.000000 0.507799
0.248866 0.000000 0.637004
0.248692 0.000000 0.766210
0.248518 0.000000 0.895416
0.248356 0.000000 1.000000
0.248110 0.118730 0.000000
0.247947 0.118567 0.118567
0.247773 0.118394 0.247773
0.247600 0.118220 0.376979
0.247426 0.118046 0.506185
0.247252 0.117873 0.635391
0.247078 0.117699 0.764596
0.246905 0.117525 0.893802
0.246742 0.117362 1.000000
0.246389 0.246389 0.000000
0.246226 0.246226 0.116847
0.246053 0.246053 0.246053
0.245879 0.245879 0.375258
0.245705 0.245705 0.504464
0.245532 0.245532 0.633670
0.245358 0.245358 0.762876
0.245184 0.245184 0.892082
0.245021 0.245021 1.000000
0.244669 0.374048 0.000000
0.244506 0.373885 0.115126
0.244332 0.373711 0.244332
0.244158 0.373538 0.373538
0.243985 0.373364 0.502744
0.243811 0.373190 0.631949
0.243637 0.373017 0.761155
0.243463 0.372843 0.890361
0.243301 0.372680 1.000000
0.242948 0.501707 0.000000
0.242785 0.501544 0.113406
0.242611 0.501370 0.242611
0.242438 0.501197 0.371817
0.242264 0.501023 0.501023
0.242090 0.500849 0.630229
0.241917 0.500676 0.759435
0.241743 0.500502 0.888640
0.241580 0.500339 1.000000
0.241227 0.629366 0.000000
0.241064 0.629203 0.111685
0.240891 0.629029 0.240891
0.240717 0.628856 0.370097
0.240543 0.628682 0.499302
0.240370 0.628508 0.628508
0.240196 0.628334 0.757714
0.240022 0.628161 0.886920
0.239859 0.627998 1.000000
0.239507 0.757025 0.000000
0.239344 0.756862 0.109964
0.239170 0.756688 0.239170
0.238996 0.756514 0.368376
0.238823 0.756341 0.497582
0.238649 0.756167 0.626787
0.238475 0.755993 0.755993
0.238302 0.755820 0.885199
0.238139 0.755657 1.000000
0.237786 0.884684 0.000000
0.237623 0.884521 0.108244
0.237449 0.884347 0.237449
0.237276 0.884173 0.366655
0.237102 0.884000 0.495861
0.236928 0.883826 0.625067
0.236755 0.883652 0.754273
0.236581 0.883478 0.883478
0.236418 0.883316 1.000000
0.236172 1.000000 0.000000
0.236009 1.000000 0.106630
0.235836 1.000000 0.235836
0.235662 1.000000 0.365042
0.235488 1.000000 0.494247
0.235315 1.000000 0.623453
0.235141 1.000000 0.752659
0.234967 1.000000 0.881865
0.234804 1.000000 1.000000
0.378592 0.000000 0.000000
0.378429 0.000000 0.119670
0.378255 0.000000 0.248875
0.378081 0.000000 0.378081
0.377908 0.000000 0.507287
0.377734 0.000000 0.636493
0.377560 0.000000 0.765699
0.377386 0.000000 0.894904
0.377224 0.000000 1.000000
0.376978 0.118219 0.000000
0.376815 0.118056 0.118056
0.376641 0.117882 0.247262
0.376468 0.117709 0.376468
0.376294 0.117535 0.505673
0.376120 0.117361 0.634879
0.375946 0.117187 0.764085
0.375773 0.117014 0.893291
0.375610 0.116851 1.000000
0.375257 0.245878 0.000000
0.375094 0.245715 0.116335
0.374921 0.245541 0.245541
0.374747 0.245367 0.374747
0.374573 0.245194 0.503953
0.374400 0.245020 0.633159
0.374226 0.244846 0.762364
0.374052 0.244673 0.891570
0.373889 0.244510 1.000000
0.373537 0.373537 0.000000
0.373374 0.373374 0.114615
0.373200 0.373200 0.243821
0.373026 0.373026 0.373026
0.372853 0.372853 0.502232
0.372679 0.372679 0.631438
0.372505 0.372505 0.760644
0.372332 0.372332 0.889850
0.372169 0.372169 1.000000
0.371816 0.501195 0.000000
0.371653 0.501033 0.112894
0.371479 0.500859 0.242100
0.371306 0.500685 0.371306
0.371132 0.500511 0.500511
0.370958 0.500338 0.629717
0.370785 0.500164 0.758923
0.370611 0.499990 0.888129
0.370448 0.499827 1.000000
0.370095 0.628854 0.000000
0.369932 0.628691 0.111173
0.369759 0.628518 0.240379
0.369585 0.628344 0.369585
0.369411 0.628170 0.498791
0.369238 0.627997 0.627997
0.369064 0.627823 0.757202
0.368890 0.627649 0.886408
0.368727 0.627486 1.000000
0.368375 0.756513 0.000000
0.368212 0.756350 0.109453
0.368038 0.756177 0.238659
0.367864 0.756003 0.367864
0.367691 0.755829 0.497070
0.367517 0.755655 0.626276
0.367343 0.755482 0.755482
0.367170 0.755308 0.884688
0.367007 0.755145 1.000000
0.366654 0.884172 0.000000
0.366491 0.884009 0.107732
0.366317 0.883835 0.236938
0.366144 0.883662 0.366144
0.365970 0.883488 0.495350
0.365796 0.883314 0.624555
0.365623 0.883141 0.753761
0.365449 0.882967 0.882967
0.365286 0.882804 1.000000
0.365040 1.000000 0.000000
0.364877 1.000000 0.106118
0.364704 1.000000 0.235324
0.364530 1.000000 0.364530
0.364356 1.000000 0.493736
0.364183 1.000000 0.622942
0.364009 1.000000 0.752148
0.363835 1.000000 0.881353
0.363672 1.000000 1.000000
0.507460 0.000000 0.000000
0.507297 0.000000 0.119158
0.507123 0.000000 0.248364
0.506949 0.000000 0.377570
0.506776 0.000000 0.506776
0.506602 0.000000 0.635981
0.506428 0.000000 0.765187
0.506254 0.000000 0.894393
0.506092 0.000000 1.000000
0.505846 0.117707 0.000000
0.505683 0.117545 0.117545
0.505509 0.117371 0.246750
0.505336 0.117197 0.375956
0.505162 0.117023 0.505162
0.504988 0.116850 0.634368
0.504815 0.116676 0.763574
0.504641 0.116502 0.892779
0.504478 0.116339 1.000000
0.504125 0.245366 0.000000
0.503962 0.245203 0.115824
0.503789 0.245030 0.245030
0.503615 0.244856 0.374235
0.503441 0.244682 0.503441
0.503268 0.244509 0.632647
0.503094 0.244335 0.761853
0.502920 0.244161 0.891059
0.502757 0.243998 1.000000
0.502405 0.373025 0.000000
0.502242 0.372862 0.114103
0.502068 0.372689 0.243309
0.501894 0.372515 0.372515
0.501721 0.372341 0.501721
0.501547 0.372167 0.630926
0.501373 0.371994 0.760132
0.501200 0.371820 0.889338
0.501037 0.371657 1.000000
0.500684 0.500684 0.000000
0.500521 0.500521 0.112383
0.500347 0.500347 0.241588
0.500174 0.500174 0.370794
0.500000 0.500000 0.500000
0.499826 0.499826 0.629206
0.499653 0.499653 0.758412
0.499479 0.499479 0.887617
0.499316 0.499316 1.000000
0.498963 0.628343 0.000000
0.498800 0.628180 0.110662
0.498627 0.628006 0.239868
0.498453 0.627833 0.369074
0.498279 0.627659 0.498279
0.498106 0.627485 0.627485
0.497932 0.627311 0.756691
0.497758 0.627138 0.885897
0.497595 0.626975 1.000000
0.497243 0.756002 0.000000
0.497080 0.755839 0.108941
0.496906 0.755665 0.238147
0.496732 0.755491 0.367353
0.496559 0.755318 0.496559
0.496385 0.755144 0.625765
0.496211 0.754970 0.754970
0.496038 0.754797 0.884176
0.495875 0.754634 1.000000
0.495522 0.883661 0.000000
0.495359 0.883498 0.107221
0.495185 0.883324 0.236426
0.495012 0.883150 0.365632
0.494838 0.882977 0.494838
0.494664 0.882803 0.624044
0.494491 0.882629 0.753250
0.494317 0.882455 0.882455
0.494154 0.882293 1.000000
0.493908 1.000000 0.000000
0.493746 1.000000 0.105607
0.493572 1.000000 0.234813
0.493398 1.000000 0.364019
0.493224 1.000000 0.493224
0.493051 1.000000 0.622430
0.492877 1.000000 0.751636
0.492703 1.000000 0.880842
0.492540 1.000000 1.000000
0.636328 0.000000 0.000000
0.636165 0.000000 0.118647
0.635991 0.000000 0.247852
0.635817 0.000000 0.377058
0.635644 0.000000 0.506264
0.635470 0.000000 0.635470
0.635296 0.000000 0.764676
0.635123 0.000000 0.893882
0.634960 0.000000 1.000000
0.634714 0.117196 0.000000
0.634551 0.117033 0.117033
0.634377 0.116859 0.246239
0.634204 0.116686 0.375445
0.634030 0.116512 0.504650
0.633856 0.116338 0.633856
0.633683 0.116165 0.763062
0.633509 0.115991 0.892268
0.633346 0.115828 1.000000
0.632993 0.244855 0.000000
0.632830 0.244692 0.115312
0.632657 0.244518 0.244518
0.632483 0.244345 0.373724
0.632309 0.244171 0.502930
0.632136 0.243997 0.632136
0.631962 0.243823 0.761341
0.631788 0.243650 0.890547
0.631625 0.243487 1.000000
0.631273 0.372514 0.000000
0.631110 0.372351 0.113592
0.630936 0.372177 0.242798
0.630762 0.372003 0.372003
0.630589 0.371830 0.501209
0.630415 0.371656 0.630415
0.630241 0.371482 0.759621
0.630068 0.371309 0.888827
0.629905 0.371146 1.000000
0.629552 0.500173 0.000000
0.629389 0.500010 0.111871
0.629215 0.499836 0.241077
0.629042 0.499662 0.370283
0.628868 0.499489 0.499489
0.628694 0.499315 0.628694
0.628521 0.499141 0.757900
0.628347 0.498967 0.887106
0.628184 0.498805 1.000000
0.627831 0.627831 0.000000
0.627668 0.627668 0.110150
0.627495 0.627495 0.239356
0.627321 0.627321 0.368562
0.627147 0.627147 0.497768
0.626974 0.626974 0.626974
0.626800 0.626800 0.756179
0.626626 0.626626 0.885385
0.626463 0.626463 1.000000
0.626111 0.755490 0.000000
0.625948 0.755327 0.108430
0.625774 0.755154 0.237636
0.625600 0.754980 0.366841
0.625427 0.754806 0.496047
0.625253 0.754633 0.625253
0.625079 0.754459 0.754459
0.624906 0.754285 0.883665
0.624743 0.754122 1.000000
0.624390 0.883149 0.000000
0.624227 0.882986 0.106709
0.624054 0.882813 0.235915
0.623880 0.882639 0.365121
0.623706 0.882465 0.494327
0.623532 0.882291 0.623532
0.623359 0.882118 0.752738
0.623185 0.881944 0.881944
0.623022 0.881781 1.000000
0.622776 1.000000 0.000000
0.622614 1.000000 0.105096
0.622440 1.000000 0.234301
0.622266 1.000000 0.363507
0.622092 1.000000 0.492713
0.621919 1.000000 0.621919
0.621745 1.000000 0.751125
0.621571 1.000000 0.880330
0.621408 1.000000 1.000000
0.765196 0.000000 0.000000
0.765033 0.000000 0.118135
0.764859 0.000000 0.247341
0.764685 0.000000 0.376547
0.764512 0.000000 0.505753
0.764338 0.000000 0.634958
0.764164 0.000000 0.764164
0.763991 0.000000 0.893370
0.763828 0.000000 1.000000
0.763582 0.116684 0.000000
0.763419 0.116522 0.116522
0.763245 0.116348 0.245727
0.763072 0.116174 0.374933
0.762898 0.116000 0.504139
0.762724 0.115827 0.633345
0.762551 0.115653 0.762551
0.762377 0.115479 0.891756
0.762214 0.115316 1.000000
0.761861 0.244343 0.000000
0.761698 0.244180 0.114801
0.761525 0.244007 0.244007
0.761351 0.243833 0.373213
0.761177 0.243659 0.502418
0.761004 0.243486 0.631624
0.760830 0.243312 0.760830
0.760656 0.243138 0.890036
0.760493 0.242975 1.000000
0.760141 0.372002 0.000000
0.759978 0.371839 0.113080
0.759804 0.371666 0.242286
0.759630 0.371492 0.371492
0.759457 0.371318 0.500698
0.759283 0.371144 0.629903
0.759109 0.370971 0.759109
0.758936 0.370797 0.888315
0.758773 0.370634 1.000000
0.758420 0.499661 0.000000
0.758257 0.499498 0.111360
0.758083 0.499324 0.240565
0.757910 0.499151 0.369771
0.757736 0.498977 0.498977
0.757562 0.498803 0.628183
0.757389 0.498630 0.757389
0.757215 0.498456 0.886594
0.757052 0.498293 1.000000
0.756699 0.627320 0.000000
0.756537 0.627157 0.109639
0.756363 0.626983 0.238845
0.756189 0.626810 0.368051
0.756015 0.626636 0.497256
0.755842 0.626462 0.626462
0.755668 0.626289 0.755668
0.755494 0.626115 0.884874
0.755331 0.625952 1.000000
0.754979 0.754979 0.000000
0.754816 0.754816 0.107918
0.754642 0.754642 0.237124
0.754468 0.754468 0.366330
0.754295 0.754295 0.495536
0.754121 0.754121 0.624742
0.753947 0.753947 0.753947
0.753774 0.753774 0.883153
0.753611 0.753611 1.000000
0.753258 0.882638 0.000000
0.753095 0.882475 0.106198
0.752922 0.882301 0.235404
0.752748 0.882127 0.364609
0.752574 0.881954 0.493815
0.752400 0.881780 0.623021
0.752227 0.881606 0.752227
0.752053 0.881433 0.881433
0.751890 0.881270 1.000000
0.751644 1.000000 0.000000
0.751482 1.000000 0.104584
0.751308 1.000000 0.233790
0.751134 1.000000 0.362996
0.750960 1.000000 0.492201
0.750787 1.000000 0.621407
0.750613 1.000000 0.750613
0.750439 1.000000 0.879819
0.750276 1.000000 1.000000
0.894064 0.000000 0.000000
0.893901 0.000000 0.117624
0.893727 0.000000 0.246830
0.893553 0.000000 0.376035
0.893380 0.000000 0.505241
0.893206 0.000000 0.634447
0.893032 0.000000 0.763653
0.892859 0.000000 0.892859
0.892696 0.000000 1.000000
0.892450 0.116173 0.000000
0.892287 0.116010 0.116010
0.892113 0.115836 0.245216
0.891940 0.115663 0.374422
0.891766 0.115489 0.503627
0.891592 0.115315 0.632833
0.891419 0.115142 0.762039
0.891245 0.114968 0.891245
0.891082 0.114805 1.000000
0.890729 0.243832 0.000000
0.890566 0.243669 0.114289
0.890393 0.243495 0.243495
0.890219 0.243322 0.372701
0.890045 0.243148 0.501907
0.889872 0.242974 0.631113
0.889698 0.242800 0.760318
0.889524 0.242627 0.889524
0.889361 0.242464 1.000000
0.889009 0.371491 0.000000
0.888846 0.371328 0.112569
0.888672 0.371154 0.241775
0.888498 0.370980 0.370980
0.888325 0.370807 0.500186
0.888151 0.370633 0.629392
0.887977 0.370459 0.758598
0.887804 0.370286 0.887804
0.887641 0.370123 1.000000
0.887288 0.499150 0.000000
0.887125 0.498987 0.110848
0.886951 0.498813 0.240054
0.886778 0.498639 0.369260
0.886604 0.498466 0.498466
0.886430 0.498292 0.627671
0.886257 0.498118 0.756877
0.886083 0.497944 0.886083
0.885920 0.497782 1.000000
0.885567 0.626808 0.000000
0.885405 0.626646 0.109128
0.885231 0.626472 0.238333
0.885057 0.626298 0.367539
0.884883 0.626124 0.496745
0.884710 0.625951 0.625951
0.884536 0.625777 0.755157
0.884362 0.625603 0.884362
0.884199 0.625440 1.000000
0.883847 0.754467 0.000000
0.883684 0.754304 0.107407
0.883510 0.754131 0.236613
0.883336 0.753957 0.365818
0.883163 0.753783 0.495024
0.882989 0.753610 0.624230
0.882815 0.753436 0.753436
0.882642 0.753262 0.882642
0.882479 0.753099 1.000000
0.882126 0.882126 0.000000
0.881963 0.881963 0.105686
0.881790 0.881790 0.234892
0.881616 0.881616 0.364098
0.881442 0.881442 0.493304
0.881268 0.881268 0.622509
0.881095 0.881095 0.751715
0.880921 0.880921 0.880921
0.880758 0.880758 1.000000
0.880512 1.000000 0.000000
0.880350 1.000000 0.104073
0.880176 1.000000 0.233278
0.880002 1.000000 0.362484
0.879828 1.000000 0.491690
0.879655 1.000000 0.620896
0.879481 1.000000 0.750102
0.879307 1.000000 0.879307
0.879144 1.000000 1.000000
1.000000 0.000000 0.000000
1.000000 0.000000 0.117144
1.000000 0.000000 0.246350
1.000000 0.000000 0.375556
1.000000 0.000000 0.504761
1.000000 0.000000 0.633967
1.000000 0.000000 0.763173
1.000000 0.000000 0.892379
1.000000 0.000000 1.000000
1.000000 0.115693 0.000000
1.000000 0.115530 0.115530
1.000000 0.115357 0.244736
1.000000 0.115183 0.373942
1.000000 0.115009 0.503148
1.000000 0.114836 0.632354
1.000000 0.114662 0.761559
1.000000 0.114488 0.890765
1.000000 0.114325 1.000000
1.000000 0.243352 0.000000
1.000000 0.243189 0.113810
1.000000 0.243016 0.243016
1.000000 0.242842 0.372221
1.000000 0.242668 0.501427
1.000000 0.242494 0.630633
1.000000 0.242321 0.759839
1.000000 0.242147 0.889045
1.000000 0.241984 1.000000
1.000000 0.371011 0.000000
1.000000 0.370848 0.112089
1.000000 0.370674 0.241295
1.000000 0.370501 0.370501
1.000000 0.370327 0.499707
1.000000 0.370153 0.628912
1.000000 0.369980 0.758118
1.000000 0.369806 0.887324
1.000000 0.369643 1.000000
1.000000 0.498670 0.000000
1.000000 0.498507 0.110368
1.000000 0.498333 0.239574
1.000000 0.498160 0.368780
1.000000 0.497986 0.497986
1.000000 0.497812 0.627192
1.000000 0.497638 0.756397
1.000000 0.497465 0.885603
1.000000 0.497302 1.000000
1.000000 0.626329 0.000000
1.000000 0.626166 0.108648
1.000000 0.625992 0.237854
1.000000 0.625818 0.367059
1.000000 0.625645 0.496265
1.000000 0.625471 0.625471
1.000000 0.625297 0.754677
1.000000 0.625124 0.883883
1.000000 0.624961 1.000000
1.000000 0.753988 0.000000
1.000000 0.753825 0.106927
1.000000 0.753651 0.236133
1.000000 0.753477 0.365339
1.000000 0.753304 0.494545
1.000000 0.753130 0.623750
1.000000 0.752956 0.752956
1.000000 0.752783 0.882162
1.000000 0.752620 1.000000
1.000000 0.881646 0.000000
1.000000 0.881484 0.105207
1.000000 0.881310 0.234412
1.000000 0.881136 0.363618
1.000000 0.880962 0.492824
1.000000 0.880789 0.622030
1.000000 0.880615 0.751236
1.000000 0.880441 0.880441
1.000000 0.880278 1.000000
1.000000 1.000000 0.000000
1.000000 1.000000 0.103593
1.000000 1.000000 0.232799
1.000000 1.000000 0.362005
1.000000 1.000000 0.491210
1.000000 1.000000 0.620416
1.000000 1.000000 0.749622
1.000000 1.000000 0.878828
1.000000 1.000000 1.000000
