skills/editops-orchestrator/assets/grade/luts/product_clean_v09.cube
TITLE "product_clean_v09"
LUT_3D_SIZE 9
DOMAIN_MIN 0.0 0.0 0.0
DOMAIN_MAX 1.0 1.0 1.0
0.000000 0.000000 0.000000
0.000000 0.000000 0.119850
0.000000 0.000000 0.250473
0.000000 0.000000 0.381096
0.000000 0.000000 0.511720
0.000000 0.000000 0.642343
0.000000 0.000000 0.772966
0.000000 0.000000 0.903589
0.000000 0.000000 1.000000
0.000000 0.117948 0.000000
0.000000 0.117734 0.117734
0.000000 0.117501 0.248357
0.000000 0.117269 0.378981
0.000000 0.117036 0.509604
0.000000 0.116803 0.640227
0.000000 0.116570 0.770850
0.000000 0.116337 0.901473
0.000000 0.116124 1.000000
0.000000 0.246498 0.000000
0.000000 0.246284 0.115428
0.000000 0.246051 0.246051
0.000000 0.245819 0.376674
0.000000 0.245586 0.507298
0.000000 0.245353 0.637921
0.000000 0.245120 0.768544
0.000000 0.244887 0.899167
0.000000 0.244674 1.000000
0.000000 0.375048 0.000000
0.000000 0.374834 0.113122
0.000000 0.374601 0.243745
0.000000 0.374368 0.374368
0.000000 0.374136 0.504992
0.000000 0.373903 0.635615
0.000000 0.373670 0.766238
0.000000 0.373437 0.896861
0.000000 0.373224 1.000000
0.000000 0.503597 0.000000
0.000000 0.503384 0.110816
0.000000 0.503151 0.241439
0.000000 0.502918 0.372062
0.000000 0.502685 0.502685
0.000000 0.502453 0.633309
0.000000 0.502220 0.763932
0.000000 0.501987 0.894555
0.000000 0.501773 1.000000
0.000000 0.632147 0.000000
0.000000 0.631934 0.108510
0.000000 0.631701 0.239133
0.000000 0.631468 0.369756
0.000000 0.631235 0.500379
0.000000 0.631003 0.631003
0.000000 0.630770 0.761626
0.000000 0.630537 0.892249
0.000000 0.630323 1.000000
0.000000 0.760697 0.000000
0.000000 0.760484 0.106204
0.000000 0.760251 0.236827
0.000000 0.760018 0.367450
0.000000 0.759785 0.498073
0.000000 0.759552 0.628696
0.000000 0.759320 0.759320
0.000000 0.759087 0.889943
0.000000 0.758873 1.000000
0.000000 0.889247 0.000000
0.000000 0.889034 0.103898
0.000000 0.888801 0.234521
0.000000 0.888568 0.365144
0.000000 0.888335 0.495767
0.000000 0.888102 0.626390
0.000000 0.887870 0.757014
0.000000 0.887637 0.887637
0.000000 0.887423 1.000000
0.000000 1.000000 0.000000
0.000000 1.000000 0.101782
0.000000 1.000000 0.232405
0.000000 1.000000 0.363028
0.000000 1.000000 0.493651
0.000000 1.000000 0.624275
0.000000 1.000000 0.754898
0.000000 1.000000 0.885521
0.000000 1.000000 1.000000
0.119435 0.000000 0.000000
0.119221 0.000000 0.119221
0.118988 0.000000 0.249844
0.118756 0.000000 0.380467
0.118523 0.000000 0.511091
0.118290 0.000000 0.641714
0.118057 0.000000 0.772337
0.117824 0.000000 0.902960
0.117611 0.000000 1.000000
0.117319 0.117319 0.000000
0.117105 0.117105 0.117105
0.116872 0.116872 0.247728
0.116640 0.116640 0.378352
0.116407 0.116407 0.508975
0.116174 0.116174 0.639598
0.115941 0.115941 0.770221
0.115708 0.115708 0.900844
0.115495 0.115495 1.000000
0.115013 0.245869 0.000000
0.114799 0.245655 0.114799
0.114566 0.245422 0.245422
0.114334 0.245190 0.376046
0.114101 0.244957 0.506669
0.113868 0.244724 0.637292
0.113635 0.244491 0.767915
0.113402 0.244258 0.898538
0.113189 0.244045 1.000000
0.112707 0.374419 0.000000
0.112493 0.374205 0.112493
0.112260 0.373972 0.243116
0.112028 0.373739 0.373739
0.111795 0.373507 0.504363
0.111562 0.373274 0.634986
0.111329 0.373041 0.765609
0.111096 0.372808 0.896232
0.110883 0.372595 1.000000
0.110401 0.502969 0.000000
0.110187 0.502755 0.110187
0.109954 0.502522 0.240810
0.109721 0.502289 0.371433
0.109489 0.502057 0.502057
0.109256 0.501824 0.632680
0.109023 0.501591 0.763303
0.108790 0.501358 0.893926
0.108577 0.501145 1.000000
0.108095 0.631518 0.000000
0.107881 0.631305 0.107881
0.107648 0.631072 0.238504
0.107415 0.630839 0.369127
0.107183 0.630606 0.499750
0.106950 0.630374 0.630374
0.106717 0.630141 0.760997
0.106484 0.629908 0.891620
0.106271 0.629694 1.000000
0.105788 0.760068 0.000000
0.105575 0.759855 0.105575
0.105342 0.759622 0.236198
0.105109 0.759389 0.366821
0.104876 0.759156 0.497444
0.104644 0.758923 0.628068
0.104411 0.758691 0.758691
0.104178 0.758458 0.889314
0.103964 0.758244 1.000000
0.103482 0.888618 0.000000
0.103269 0.888405 0.103269
0.103036 0.888172 0.233892
0.102803 0.887939 0.364515
0.102570 0.887706 0.495138
0.102338 0.887473 0.625761
0.102105 0.887241 0.756385
0.101872 0.887008 0.887008
0.101658 0.886794 1.000000
0.101367 1.000000 0.000000
0.101153 1.000000 0.101153
0.100920 1.000000 0.231776
0.100687 1.000000 0.362399
0.100455 1.000000 0.493022
0.100222 1.000000 0.623646
0.099989 1.000000 0.754269
0.099756 1.000000 0.884892
0.099543 1.000000 1.000000
0.249605 0.000000 0.000000
0.249392 0.000000 0.118536
0.249159 0.000000 0.249159
0.248926 0.000000 0.379782
0.248693 0.000000 0.510405
0.248460 0.000000 0.641028
0.248228 0.000000 0.771651
0.247995 0.000000 0.902275
0.247781 0.000000 1.000000
0.247489 0.116633 0.000000
0.247276 0.116420 0.116420
0.247043 0.116187 0.247043
0.246810 0.115954 0.377666
0.246577 0.115721 0.508289
0.246345 0.115489 0.638912
0.246112 0.115256 0.769536
0.245879 0.115023 0.900159
0.245665 0.114809 1.000000
0.245183 0.245183 0.000000
0.244970 0.244970 0.114114
0.244737 0.244737 0.244737
0.244504 0.244504 0.375360
0.244271 0.244271 0.505983
0.244038 0.244038 0.636606
0.243806 0.243806 0.767229
0.243573 0.243573 0.897853
0.243359 0.243359 1.000000
0.242877 0.373733 0.000000
0.242664 0.373520 0.111808
0.242431 0.373287 0.242431
0.242198 0.373054 0.373054
0.241965 0.372821 0.503677
0.241732 0.372588 0.634300
0.241500 0.372356 0.764923
0.241267 0.372123 0.895547
0.241053 0.371909 1.000000
0.240571 0.502283 0.000000
0.240357 0.502069 0.109502
0.240125 0.501837 0.240125
0.239892 0.501604 0.370748
0.239659 0.501371 0.501371
0.239426 0.501138 0.631994
0.239193 0.500905 0.762617
0.238961 0.500673 0.893240
0.238747 0.500459 1.000000
0.238265 0.630833 0.000000
0.238051 0.630619 0.107195
0.237819 0.630386 0.237819
0.237586 0.630154 0.368442
0.237353 0.629921 0.499065
0.237120 0.629688 0.629688
0.236887 0.629455 0.760311
0.236655 0.629222 0.890934
0.236441 0.629009 1.000000
0.235959 0.759383 0.000000
0.235745 0.759169 0.104889
0.235513 0.758936 0.235513
0.235280 0.758704 0.366136
0.235047 0.758471 0.496759
0.234814 0.758238 0.627382
0.234581 0.758005 0.758005
0.234349 0.757772 0.888628
0.234135 0.757559 1.000000
0.233653 0.887933 0.000000
0.233439 0.887719 0.102583
0.233206 0.887486 0.233206
0.232974 0.887253 0.363830
0.232741 0.887021 0.494453
0.232508 0.886788 0.625076
0.232275 0.886555 0.755699
0.232042 0.886322 0.886322
0.231829 0.886109 1.000000
0.231537 1.000000 0.000000
0.231323 1.000000 0.100467
0.231091 1.000000 0.231091
0.230858 1.000000 0.361714
0.230625 1.000000 0.492337
0.230392 1.000000 0.622960
0.230159 1.000000 0.753583
0.229927 1.000000 0.884206
0.229713 1.000000 1.000000
0.379776 0.000000 0.000000
0.379562 0.000000 0.117850
0.379329 0.000000 0.248473
0.379096 0.000000 0.379096
0.378864 0.000000 0.509720
0.378631 0.000000 0.640343
0.378398 0.000000 0.770966
0.378165 0.000000 0.901589
0.377952 0.000000 1.000000
0.377660 0.115948 0.000000
0.377446 0.115734 0.115734
0.377213 0.115501 0.246357
0.376981 0.115269 0.376981
0.376748 0.115036 0.507604
0.376515 0.114803 0.638227
0.376282 0.114570 0.768850
0.376049 0.114337 0.899473
0.375836 0.114124 1.000000
0.375354 0.244498 0.000000
0.375140 0.244284 0.113428
0.374907 0.244051 0.244051
0.374674 0.243819 0.374674
0.374442 0.243586 0.505298
0.374209 0.243353 0.635921
0.373976 0.243120 0.766544
0.373743 0.242887 0.897167
0.373530 0.242674 1.000000
0.373048 0.373048 0.000000
0.372834 0.372834 0.111122
0.372601 0.372601 0.241745
0.372368 0.372368 0.372368
0.372136 0.372136 0.502992
0.371903 0.371903 0.633615
0.371670 0.371670 0.764238
0.371437 0.371437 0.894861
0.371224 0.371224 1.000000
0.370742 0.501598 0.000000
0.370528 0.501384 0.108816
0.370295 0.501151 0.239439
0.370062 0.500918 0.370062
0.369830 0.500686 0.500686
0.369597 0.500453 0.631309
0.369364 0.500220 0.761932
0.369131 0.499987 0.892555
0.368918 0.499774 1.000000
0.368435 0.630147 0.000000
0.368222 0.629934 0.106510
0.367989 0.629701 0.237133
0.367756 0.629468 0.367756
0.367523 0.629235 0.498379
0.367291 0.629003 0.629003
0.367058 0.628770 0.759626
0.366825 0.628537 0.890249
0.366611 0.628323 1.000000
0.366129 0.758697 0.000000
0.365916 0.758484 0.104204
0.365683 0.758251 0.234827
0.365450 0.758018 0.365450
0.365217 0.757785 0.496073
0.364985 0.757552 0.626697
0.364752 0.757320 0.757320
0.364519 0.757087 0.887943
0.364305 0.756873 1.000000
0.363823 0.887247 0.000000
0.363610 0.887034 0.101898
0.363377 0.886801 0.232521
0.363144 0.886568 0.363144
0.362911 0.886335 0.493767
0.362679 0.886102 0.624390
0.362446 0.885870 0.755014
0.362213 0.885637 0.885637
0.361999 0.885423 1.000000
0.361707 1.000000 0.000000
0.361494 1.000000 0.099782
0.361261 1.000000 0.230405
0.361028 1.000000 0.361028
0.360795 1.000000 0.491651
0.360563 1.000000 0.622275
0.360330 1.000000 0.752898
0.360097 1.000000 0.883521
0.359883 1.000000 1.000000
0.509946 0.000000 0.000000
0.509733 0.000000 0.117165
0.509500 0.000000 0.247788
0.509267 0.000000 0.378411
0.509034 0.000000 0.509034
0.508801 0.000000 0.639657
0.508569 0.000000 0.770280
0.508336 0.000000 0.900904
0.508122 0.000000 1.000000
0.507830 0.115262 0.000000
0.507617 0.115049 0.115049
0.507384 0.114816 0.245672
0.507151 0.114583 0.376295
0.506918 0.114350 0.506918
0.506685 0.114118 0.637541
0.506453 0.113885 0.768165
0.506220 0.113652 0.898788
0.506006 0.113438 1.000000
0.505524 0.243812 0.000000
0.505311 0.243599 0.112743
0.505078 0.243366 0.243366
0.504845 0.243133 0.373989
0.504612 0.242900 0.504612
0.504379 0.242667 0.635235
0.504147 0.242435 0.765858
0.503914 0.242202 0.896482
0.503700 0.241988 1.000000
0.503218 0.372362 0.000000
0.503004 0.372149 0.110437
0.502772 0.371916 0.241060
0.502539 0.371683 0.371683
0.502306 0.371450 0.502306
0.502073 0.371217 0.632929
0.501840 0.370985 0.763552
0.501608 0.370752 0.894176
0.501394 0.370538 1.000000
0.500912 0.500912 0.000000
0.500698 0.500698 0.108131
0.500466 0.500466 0.238754
0.500233 0.500233 0.369377
0.500000 0.500000 0.500000
0.499767 0.499767 0.630623
0.499534 0.499534 0.761246
0.499302 0.499302 0.891869
0.499088 0.499088 1.000000
0.498606 0.629462 0.000000
0.498392 0.629248 0.105824
0.498160 0.629015 0.236448
0.497927 0.628783 0.367071
0.497694 0.628550 0.497694
0.497461 0.628317 0.628317
0.497228 0.628084 0.758940
0.496996 0.627851 0.889563
0.496782 0.627638 1.000000
0.496300 0.758012 0.000000
0.496086 0.757798 0.103518
0.495853 0.757565 0.234142
0.495621 0.757333 0.364765
0.495388 0.757100 0.495388
0.495155 0.756867 0.626011
0.494922 0.756634 0.756634
0.494689 0.756401 0.887257
0.494476 0.756188 1.000000
0.493994 0.886562 0.000000
0.493780 0.886348 0.101212
0.493547 0.886115 0.231835
0.493315 0.885882 0.362459
0.493082 0.885650 0.493082
0.492849 0.885417 0.623705
0.492616 0.885184 0.754328
0.492383 0.884951 0.884951
0.492170 0.884738 1.000000
0.491878 1.000000 0.000000
0.491664 1.000000 0.099096
0.491431 1.000000 0.229720
0.491199 1.000000 0.360343
0.490966 1.000000 0.490966
0.490733 1.000000 0.621589
0.490500 1.000000 0.752212
0.490267 1.000000 0.882835
0.490054 1.000000 1.000000
0.640117 0.000000 0.000000
0.639903 0.000000 0.116479
0.639670 0.000000 0.247102
0.639437 0.000000 0.377725
0.639205 0.000000 0.508349
0.638972 0.000000 0.638972
0.638739 0.000000 0.769595
0.638506 0.000000 0.900218
0.638293 0.000000 1.000000
0.638001 0.114577 0.000000
0.637787 0.114363 0.114363
0.637554 0.114130 0.244986
0.637321 0.113898 0.375610
0.637089 0.113665 0.506233
0.636856 0.113432 0.636856
0.636623 0.113199 0.767479
0.636390 0.112966 0.898102
0.636177 0.112753 1.000000
0.635695 0.243127 0.000000
0.635481 0.242913 0.112057
0.635248 0.242680 0.242680
0.635015 0.242448 0.373303
0.634783 0.242215 0.503927
0.634550 0.241982 0.634550
0.634317 0.241749 0.765173
0.634084 0.241516 0.895796
0.633871 0.241303 1.000000
0.633389 0.371677 0.000000
0.633175 0.371463 0.109751
0.632942 0.371230 0.240374
0.632709 0.370997 0.370997
0.632477 0.370765 0.501621
0.632244 0.370532 0.632244
0.632011 0.370299 0.762867
0.631778 0.370066 0.893490
0.631565 0.369853 1.000000
0.631082 0.500226 0.000000
0.630869 0.500013 0.107445
0.630636 0.499780 0.238068
0.630403 0.499547 0.368691
0.630170 0.499314 0.499314
0.629938 0.499082 0.629938
0.629705 0.498849 0.760561
0.629472 0.498616 0.891184
0.629258 0.498402 1.000000
0.628776 0.628776 0.000000
0.628563 0.628563 0.105139
0.628330 0.628330 0.235762
0.628097 0.628097 0.366385
0.627864 0.627864 0.497008
0.627632 0.627632 0.627632
0.627399 0.627399 0.758255
0.627166 0.627166 0.888878
0.626952 0.626952 1.000000
0.626470 0.757326 0.000000
0.626257 0.757113 0.102833
0.626024 0.756880 0.233456
0.625791 0.756647 0.364079
0.625558 0.756414 0.494702
0.625326 0.756181 0.625326
0.625093 0.755949 0.755949
0.624860 0.755716 0.886572
0.624646 0.755502 1.000000
0.624164 0.885876 0.000000
0.623951 0.885663 0.100527
0.623718 0.885430 0.231150
0.623485 0.885197 0.361773
0.623252 0.884964 0.492396
0.623019 0.884731 0.623019
0.622787 0.884499 0.753643
0.622554 0.884266 0.884266
0.622340 0.884052 1.000000
0.622048 1.000000 0.000000
0.621835 1.000000 0.098411
0.621602 1.000000 0.229034
0.621369 1.000000 0.359657
0.621136 1.000000 0.490280
0.620904 1.000000 0.620904
0.620671 1.000000 0.751527
0.620438 1.000000 0.882150
0.620224 1.000000 1.000000
0.770287 0.000000 0.000000
0.770073 0.000000 0.115794
0.769841 0.000000 0.246417
0.769608 0.000000 0.377040
0.769375 0.000000 0.507663
0.769142 0.000000 0.638286
0.768909 0.000000 0.768909
0.768677 0.000000 0.899533
0.768463 0.000000 1.000000
0.768171 0.113891 0.000000
0.767958 0.113678 0.113678
0.767725 0.113445 0.244301
0.767492 0.113212 0.374924
0.767259 0.112979 0.505547
0.767026 0.112747 0.636170
0.766794 0.112514 0.766794
0.766561 0.112281 0.897417
0.766347 0.112067 1.000000
0.765865 0.242441 0.000000
0.765651 0.242228 0.111372
0.765419 0.241995 0.241995
0.765186 0.241762 0.372618
0.764953 0.241529 0.503241
0.764720 0.241296 0.633864
0.764487 0.241064 0.764487
0.764255 0.240831 0.895111
0.764041 0.240617 1.000000
0.763559 0.370991 0.000000
0.763345 0.370778 0.109066
0.763113 0.370545 0.239689
0.762880 0.370312 0.370312
0.762647 0.370079 0.500935
0.762414 0.369846 0.631558
0.762181 0.369614 0.762181
0.761949 0.369381 0.892805
0.761735 0.369167 1.000000
0.761253 0.499541 0.000000
0.761039 0.499327 0.106760
0.760807 0.499095 0.237383
0.760574 0.498862 0.368006
0.760341 0.498629 0.498629
0.760108 0.498396 0.629252
0.759875 0.498163 0.759875
0.759643 0.497931 0.890498
0.759429 0.497717 1.000000
0.758947 0.628091 0.000000
0.758733 0.627877 0.104453
0.758500 0.627644 0.235077
0.758268 0.627412 0.365700
0.758035 0.627179 0.496323
0.757802 0.626946 0.626946
0.757569 0.626713 0.757569
0.757336 0.626480 0.888192
0.757123 0.626267 1.000000
0.756641 0.756641 0.000000
0.756427 0.756427 0.102147
0.756194 0.756194 0.232771
0.755962 0.755962 0.363394
0.755729 0.755729 0.494017
0.755496 0.755496 0.624640
0.755263 0.755263 0.755263
0.755030 0.755030 0.885886
0.754817 0.754817 1.000000
0.754335 0.885191 0.000000
0.754121 0.884977 0.099841
0.753888 0.884744 0.230464
0.753655 0.884511 0.361088
0.753423 0.884279 0.491711
0.753190 0.884046 0.622334
0.752957 0.883813 0.752957
0.752724 0.883580 0.883580
0.752511 0.883367 1.000000
0.752219 1.000000 0.000000
0.752005 1.000000 0.097725
0.751772 1.000000 0.228349
0.751540 1.000000 0.358972
0.751307 1.000000 0.489595
0.751074 1.000000 0.620218
0.750841 1.000000 0.750841
0.750608 1.000000 0.881464
0.750395 1.000000 1.000000
0.900457 0.000000 0.000000
0.900244 0.000000 0.115108
0.900011 0.000000 0.245731
0.899778 0.000000 0.376354
0.899545 0.000000 0.506978
0.899313 0.000000 0.637601
0.899080 0.000000 0.768224
0.898847 0.000000 0.898847
0.898633 0.000000 1.000000
0.898342 0.113206 0.000000
0.898128 0.112992 0.112992
0.897895 0.112759 0.243615
0.897662 0.112527 0.374239
0.897430 0.112294 0.504862
0.897197 0.112061 0.635485
0.896964 0.111828 0.766108
0.896731 0.111595 0.896731
0.896518 0.111382 1.000000
0.896036 0.241756 0.000000
0.895822 0.241542 0.110686
0.895589 0.241309 0.241309
0.895356 0.241077 0.371932
0.895124 0.240844 0.502556
0.894891 0.240611 0.633179
0.894658 0.240378 0.763802
0.894425 0.240145 0.894425
0.894212 0.239932 1.000000
0.893729 0.370306 0.000000
0.893516 0.370092 0.108380
0.893283 0.369859 0.239003
0.893050 0.369626 0.369626
0.892817 0.369394 0.500250
0.892585 0.369161 0.630873
0.892352 0.368928 0.761496
0.892119 0.368695 0.892119
0.891905 0.368482 1.000000
0.891423 0.498855 0.000000
0.891210 0.498642 0.106074
0.890977 0.498409 0.236697
0.890744 0.498176 0.367320
0.890511 0.497943 0.497943
0.890279 0.497711 0.628567
0.890046 0.497478 0.759190
0.889813 0.497245 0.889813
0.889599 0.497031 1.000000
0.889117 0.627405 0.000000
0.888904 0.627192 0.103768
0.888671 0.626959 0.234391
0.888438 0.626726 0.365014
0.888205 0.626493 0.495637
0.887972 0.626261 0.626261
0.887740 0.626028 0.756884
0.887507 0.625795 0.887507
0.887293 0.625581 1.000000
0.886811 0.755955 0.000000
0.886598 0.755742 0.101462
0.886365 0.755509 0.232085
0.886132 0.755276 0.362708
0.885899 0.755043 0.493331
0.885666 0.754810 0.623954
0.885434 0.754578 0.754578
0.885201 0.754345 0.885201
0.884987 0.754131 1.000000
0.884505 0.884505 0.000000
0.884292 0.884292 0.099156
0.884059 0.884059 0.229779
0.883826 0.883826 0.360402
0.883593 0.883593 0.491025
0.883360 0.883360 0.621648
0.883128 0.883128 0.752272
0.882895 0.882895 0.882895
0.882681 0.882681 1.000000
0.882389 1.000000 0.000000
0.882176 1.000000 0.097040
0.881943 1.000000 0.227663
0.881710 1.000000 0.358286
0.881477 1.000000 0.488909
0.881244 1.000000 0.619533
0.881012 1.000000 0.750156
0.880779 1.000000 0.880779
0.880565 1.000000 1.000000
1.000000 0.000000 0.000000
1.000000 0.000000 0.114479
1.000000 0.000000 0.245102
1.000000 0.000000 0.375725
1.000000 0.000000 0.506349
1.000000 0.000000 0.636972
1.000000 0.000000 0.767595
1.000000 0.000000 0.898218
1.000000 0.000000 1.000000
1.000000 0.112577 0.000000
1.000000 0.112363 0.112363
1.000000 0.112130 0.242986
1.000000 0.111898 0.373610
1.000000 0.111665 0.504233
1.000000 0.111432 0.634856
1.000000 0.111199 0.765479
1.000000 0.110966 0.896102
1.000000 0.110753 1.000000
1.000000 0.241127 0.000000
1.000000 0.240913 0.110057
1.000000 0.240680 0.240680
1.000000 0.240448 0.371304
1.000000 0.240215 0.501927
1.000000 0.239982 0.632550
1.000000 0.239749 0.763173
1.000000 0.239516 0.893796
1.000000 0.239303 1.000000
1.000000 0.369677 0.000000
1.000000 0.369463 0.107751
1.000000 0.369230 0.238374
1.000000 0.368997 0.368997
1.000000 0.368765 0.499621
1.000000 0.368532 0.630244
1.000000 0.368299 0.760867
1.000000 0.368066 0.891490
1.000000 0.367853 1.000000
1.000000 0.498227 0.000000
1.000000 0.498013 0.105445
1.000000 0.497780 0.236068
1.000000 0.497547 0.366691
1.000000 0.497315 0.497315
1.000000 0.497082 0.627938
1.000000 0.496849 0.758561
1.000000 0.496616 0.889184
1.000000 0.496403 1.000000
1.000000 0.626776 0.000000
1.000000 0.626563 0.103139
1.000000 0.626330 0.233762
1.000000 0.626097 0.364385
1.000000 0.625864 0.495008
1.000000 0.625632 0.625632
1.000000 0.625399 0.756255
1.000000 0.625166 0.886878
1.000000 0.624952 1.000000
1.000000 0.755326 0.000000
1.000000 0.755113 0.100833
1.000000 0.754880 0.231456
1.000000 0.754647 0.362079
1.000000 0.754414 0.492702
1.000000 0.754181 0.623326
1.000000 0.753949 0.753949
1.000000 0.753716 0.884572
1.000000 0.753502 1.000000
1.000000 0.883876 0.000000
1.000000 0.883663 0.098527
1.000000 0.883430 0.229150
1.000000 0.883197 0.359773
1.000000 0.882964 0.490396
1.000000 0.882731 0.621019
1.000000 0.882499 0.751643
1.000000 0.882266 0.882266
1.000000 0.882052 1.000000
1.000000 1.000000 0.000000
1.000000 1.000000 0.096411
1.000000 1.000000 0.227034
1.000000 1.000000 0.357657
1.000000 1.000000 0.488280
1.000000 1.000000 0.618904
1.000000 1.000000 0.749527
1.000000 1.000000 0.880150
1.000000 1.000000 1.000000
