skills/editops-orchestrator/assets/grade/luts/product_clean_v18.cube
TITLE "product_clean_v18"
LUT_3D_SIZE 9
DOMAIN_MIN 0.0 0.0 0.0
DOMAIN_MAX 1.0 1.0 1.0
0.000000 0.000000 0.000000
0.000000 0.000000 0.113614
0.000000 0.000000 0.250711
0.000000 0.000000 0.387807
0.000000 0.000000 0.524904
0.000000 0.000000 0.662001
0.000000 0.000000 0.799097
0.000000 0.000000 0.936194
0.000000 0.000000 1.000000
0.000000 0.109878 0.000000
0.000000 0.109459 0.109459
0.000000 0.108953 0.246556
0.000000 0.108447 0.383652
0.000000 0.107940 0.520749
0.000000 0.107434 0.657846
0.000000 0.106928 0.794942
0.000000 0.106422 0.932039
0.000000 0.106002 1.000000
0.000000 0.242467 0.000000
0.000000 0.242048 0.104445
0.000000 0.241541 0.241541
0.000000 0.241035 0.378638
0.000000 0.240529 0.515735
0.000000 0.240023 0.652831
0.000000 0.239517 0.789928
0.000000 0.239011 0.927025
0.000000 0.238591 1.000000
0.000000 0.375056 0.000000
0.000000 0.374636 0.099431
0.000000 0.374130 0.236527
0.000000 0.373624 0.373624
0.000000 0.373118 0.510721
0.000000 0.372612 0.647817
0.000000 0.372106 0.784914
0.000000 0.371599 0.922011
0.000000 0.371180 1.000000
0.000000 0.507645 0.000000
0.000000 0.507225 0.094417
0.000000 0.506719 0.231513
0.000000 0.506213 0.368610
0.000000 0.505707 0.505707
0.000000 0.505200 0.642803
0.000000 0.504694 0.779900
0.000000 0.504188 0.916997
0.000000 0.503769 1.000000
0.000000 0.640233 0.000000
0.000000 0.639814 0.089403
0.000000 0.639308 0.226499
0.000000 0.638802 0.363596
0.000000 0.638295 0.500693
0.000000 0.637789 0.637789
0.000000 0.637283 0.774886
0.000000 0.636777 0.911983
0.000000 0.636357 1.000000
0.000000 0.772822 0.000000
0.000000 0.772403 0.084388
0.000000 0.771897 0.221485
0.000000 0.771390 0.358582
0.000000 0.770884 0.495678
0.000000 0.770378 0.632775
0.000000 0.769872 0.769872
0.000000 0.769366 0.906968
0.000000 0.768946 1.000000
0.000000 0.905411 0.000000
0.000000 0.904991 0.079374
0.000000 0.904485 0.216471
0.000000 0.903979 0.353568
0.000000 0.903473 0.490664
0.000000 0.902967 0.627761
0.000000 0.902461 0.764858
0.000000 0.901954 0.901954
0.000000 0.901535 1.000000
0.000000 1.000000 0.000000
0.000000 1.000000 0.075219
0.000000 1.000000 0.212316
0.000000 1.000000 0.349412
0.000000 1.000000 0.486509
0.000000 1.000000 0.623606
0.000000 1.000000 0.760702
0.000000 1.000000 0.897799
0.000000 1.000000 1.000000
0.112798 0.000000 0.000000
0.112379 0.000000 0.112379
0.111873 0.000000 0.249476
0.111367 0.000000 0.386572
0.110860 0.000000 0.523669
0.110354 0.000000 0.660766
0.109848 0.000000 0.797862
0.109342 0.000000 0.934959
0.108922 0.000000 1.000000
0.108643 0.108643 0.000000
0.108224 0.108224 0.108224
0.107718 0.107718 0.245320
0.107211 0.107211 0.382417
0.106705 0.106705 0.519514
0.106199 0.106199 0.656610
0.105693 0.105693 0.793707
0.105187 0.105187 0.930804
0.104767 0.104767 1.000000
0.103629 0.241232 0.000000
0.103210 0.240812 0.103210
0.102703 0.240306 0.240306
0.102197 0.239800 0.377403
0.101691 0.239294 0.514500
0.101185 0.238788 0.651596
0.100679 0.238282 0.788693
0.100173 0.237775 0.925790
0.099753 0.237356 1.000000
0.098615 0.373821 0.000000
0.098196 0.373401 0.098196
0.097689 0.372895 0.235292
0.097183 0.372389 0.372389
0.096677 0.371883 0.509486
0.096171 0.371377 0.646582
0.095665 0.370870 0.783679
0.095158 0.370364 0.920776
0.094739 0.369945 1.000000
0.093601 0.506409 0.000000
0.093181 0.505990 0.093181
0.092675 0.505484 0.230278
0.092169 0.504978 0.367375
0.091663 0.504471 0.504471
0.091157 0.503965 0.641568
0.090651 0.503459 0.778665
0.090144 0.502953 0.915761
0.089725 0.502533 1.000000
0.088587 0.638998 0.000000
0.088167 0.638579 0.088167
0.087661 0.638073 0.225264
0.087155 0.637566 0.362361
0.086649 0.637060 0.499457
0.086143 0.636554 0.636554
0.085637 0.636048 0.773651
0.085130 0.635542 0.910747
0.084711 0.635122 1.000000
0.083573 0.771587 0.000000
0.083153 0.771167 0.083153
0.082647 0.770661 0.220250
0.082141 0.770155 0.357347
0.081635 0.769649 0.494443
0.081129 0.769143 0.631540
0.080622 0.768637 0.768637
0.080116 0.768130 0.905733
0.079697 0.767711 1.000000
0.078559 0.904176 0.000000
0.078139 0.903756 0.078139
0.077633 0.903250 0.215236
0.077127 0.902744 0.352333
0.076621 0.902238 0.489429
0.076115 0.901732 0.626526
0.075608 0.901225 0.763623
0.075102 0.900719 0.900719
0.074683 0.900300 1.000000
0.074403 1.000000 0.000000
0.073984 1.000000 0.073984
0.073478 1.000000 0.211081
0.072972 1.000000 0.348177
0.072465 1.000000 0.485274
0.071959 1.000000 0.622371
0.071453 1.000000 0.759467
0.070947 1.000000 0.896564
0.070527 1.000000 1.000000
0.248911 0.000000 0.000000
0.248491 0.000000 0.110888
0.247985 0.000000 0.247985
0.247479 0.000000 0.385082
0.246973 0.000000 0.522178
0.246467 0.000000 0.659275
0.245960 0.000000 0.796372
0.245454 0.000000 0.933468
0.245035 0.000000 1.000000
0.244756 0.107153 0.000000
0.244336 0.106733 0.106733
0.243830 0.106227 0.243830
0.243324 0.105721 0.380927
0.242818 0.105215 0.518023
0.242311 0.104709 0.655120
0.241805 0.104202 0.792217
0.241299 0.103696 0.929313
0.240880 0.103277 1.000000
0.239741 0.239741 0.000000
0.239322 0.239322 0.101719
0.238816 0.238816 0.238816
0.238310 0.238310 0.375912
0.237803 0.237803 0.513009
0.237297 0.237297 0.650106
0.236791 0.236791 0.787202
0.236285 0.236285 0.924299
0.235865 0.235865 1.000000
0.234727 0.372330 0.000000
0.234308 0.371911 0.096705
0.233802 0.371405 0.233802
0.233296 0.370898 0.370898
0.232789 0.370392 0.507995
0.232283 0.369886 0.645092
0.231777 0.369380 0.782188
0.231271 0.368874 0.919285
0.230851 0.368454 1.000000
0.229713 0.504919 0.000000
0.229294 0.504499 0.091691
0.228788 0.503993 0.228788
0.228281 0.503487 0.365884
0.227775 0.502981 0.502981
0.227269 0.502475 0.640078
0.226763 0.501969 0.777174
0.226257 0.501462 0.914271
0.225837 0.501043 1.000000
0.224699 0.637508 0.000000
0.224280 0.637088 0.086677
0.223774 0.636582 0.223774
0.223267 0.636076 0.360870
0.222761 0.635570 0.497967
0.222255 0.635064 0.635064
0.221749 0.634557 0.772160
0.221243 0.634051 0.909257
0.220823 0.633632 1.000000
0.219685 0.770096 0.000000
0.219266 0.769677 0.081663
0.218759 0.769171 0.218759
0.218253 0.768665 0.355856
0.217747 0.768158 0.492953
0.217241 0.767652 0.630049
0.216735 0.767146 0.767146
0.216229 0.766640 0.904243
0.215809 0.766220 1.000000
0.214671 0.902685 0.000000
0.214252 0.902266 0.076649
0.213745 0.901760 0.213745
0.213239 0.901253 0.350842
0.212733 0.900747 0.487939
0.212227 0.900241 0.625035
0.211721 0.899735 0.762132
0.211215 0.899229 0.899229
0.210795 0.898809 1.000000
0.210516 1.000000 0.000000
0.210096 1.000000 0.072493
0.209590 1.000000 0.209590
0.209084 1.000000 0.346687
0.208578 1.000000 0.483783
0.208072 1.000000 0.620880
0.207565 1.000000 0.757977
0.207059 1.000000 0.895073
0.206640 1.000000 1.000000
0.385023 0.000000 0.000000
0.384604 0.000000 0.109398
0.384097 0.000000 0.246495
0.383591 0.000000 0.383591
0.383085 0.000000 0.520688
0.382579 0.000000 0.657785
0.382073 0.000000 0.794881
0.381567 0.000000 0.931978
0.381147 0.000000 1.000000
0.380868 0.105662 0.000000
0.380448 0.105243 0.105243
0.379942 0.104737 0.242339
0.379436 0.104230 0.379436
0.378930 0.103724 0.516533
0.378424 0.103218 0.653629
0.377918 0.102712 0.790726
0.377411 0.102206 0.927823
0.376992 0.101786 1.000000
0.375854 0.238251 0.000000
0.375434 0.237831 0.100229
0.374928 0.237325 0.237325
0.374422 0.236819 0.374422
0.373916 0.236313 0.511519
0.373410 0.235807 0.648615
0.372903 0.235301 0.785712
0.372397 0.234794 0.922809
0.371978 0.234375 1.000000
0.370840 0.370840 0.000000
0.370420 0.370420 0.095215
0.369914 0.369914 0.232311
0.369408 0.369408 0.369408
0.368902 0.368902 0.506505
0.368396 0.368396 0.643601
0.367889 0.367889 0.780698
0.367383 0.367383 0.917795
0.366964 0.366964 1.000000
0.365826 0.503428 0.000000
0.365406 0.503009 0.090200
0.364900 0.502503 0.227297
0.364394 0.501997 0.364394
0.363888 0.501490 0.501490
0.363381 0.500984 0.638587
0.362875 0.500478 0.775684
0.362369 0.499972 0.912780
0.361950 0.499552 1.000000
0.360812 0.636017 0.000000
0.360392 0.635598 0.085186
0.359886 0.635092 0.222283
0.359380 0.634585 0.359380
0.358874 0.634079 0.496476
0.358367 0.633573 0.633573
0.357861 0.633067 0.770670
0.357355 0.632561 0.907766
0.356936 0.632141 1.000000
0.355797 0.768606 0.000000
0.355378 0.768187 0.080172
0.354872 0.767680 0.217269
0.354366 0.767174 0.354366
0.353859 0.766668 0.491462
0.353353 0.766162 0.628559
0.352847 0.765656 0.765656
0.352341 0.765149 0.902752
0.351921 0.764730 1.000000
0.350783 0.901195 0.000000
0.350364 0.900775 0.075158
0.349858 0.900269 0.212255
0.349352 0.899763 0.349352
0.348845 0.899257 0.486448
0.348339 0.898751 0.623545
0.347833 0.898244 0.760642
0.347327 0.897738 0.897738
0.346907 0.897319 1.000000
0.346628 1.000000 0.000000
0.346209 1.000000 0.071003
0.345703 1.000000 0.208100
0.345196 1.000000 0.345196
0.344690 1.000000 0.482293
0.344184 1.000000 0.619390
0.343678 1.000000 0.756486
0.343172 1.000000 0.893583
0.342752 1.000000 1.000000
0.521135 0.000000 0.000000
0.520716 0.000000 0.107907
0.520210 0.000000 0.245004
0.519704 0.000000 0.382101
0.519197 0.000000 0.519197
0.518691 0.000000 0.656294
0.518185 0.000000 0.793391
0.517679 0.000000 0.930487
0.517259 0.000000 1.000000
0.516980 0.104172 0.000000
0.516561 0.103752 0.103752
0.516055 0.103246 0.240849
0.515548 0.102740 0.377946
0.515042 0.102234 0.515042
0.514536 0.101728 0.652139
0.514030 0.101221 0.789236
0.513524 0.100715 0.926332
0.513104 0.100296 1.000000
0.511966 0.236760 0.000000
0.511547 0.236341 0.098738
0.511041 0.235835 0.235835
0.510534 0.235329 0.372931
0.510028 0.234822 0.510028
0.509522 0.234316 0.647125
0.509016 0.233810 0.784221
0.508510 0.233304 0.921318
0.508090 0.232884 1.000000
0.506952 0.369349 0.000000
0.506533 0.368930 0.093724
0.506026 0.368424 0.230821
0.505520 0.367917 0.367917
0.505014 0.367411 0.505014
0.504508 0.366905 0.642111
0.504002 0.366399 0.779207
0.503496 0.365893 0.916304
0.503076 0.365473 1.000000
0.501938 0.501938 0.000000
0.501519 0.501519 0.088710
0.501012 0.501012 0.225807
0.500506 0.500506 0.362903
0.500000 0.500000 0.500000
0.499494 0.499494 0.637097
0.498988 0.498988 0.774193
0.498481 0.498481 0.911290
0.498062 0.498062 1.000000
0.496924 0.634527 0.000000
0.496504 0.634107 0.083696
0.495998 0.633601 0.220793
0.495492 0.633095 0.357889
0.494986 0.632589 0.494986
0.494480 0.632083 0.632083
0.493974 0.631576 0.769179
0.493467 0.631070 0.906276
0.493048 0.630651 1.000000
0.491910 0.767116 0.000000
0.491490 0.766696 0.078682
0.490984 0.766190 0.215779
0.490478 0.765684 0.352875
0.489972 0.765178 0.489972
0.489466 0.764671 0.627069
0.488959 0.764165 0.764165
0.488453 0.763659 0.901262
0.488034 0.763240 1.000000
0.486896 0.899704 0.000000
0.486476 0.899285 0.073668
0.485970 0.898779 0.210764
0.485464 0.898272 0.347861
0.484958 0.897766 0.484958
0.484452 0.897260 0.622054
0.483945 0.896754 0.759151
0.483439 0.896248 0.896248
0.483020 0.895828 1.000000
0.482741 1.000000 0.000000
0.482321 1.000000 0.069513
0.481815 1.000000 0.206609
0.481309 1.000000 0.343706
0.480803 1.000000 0.480803
0.480296 1.000000 0.617899
0.479790 1.000000 0.754996
0.479284 1.000000 0.892093
0.478865 1.000000 1.000000
0.657248 0.000000 0.000000
0.656828 0.000000 0.106417
0.656322 0.000000 0.243514
0.655816 0.000000 0.380610
0.655310 0.000000 0.517707
0.654804 0.000000 0.654804
0.654297 0.000000 0.791900
0.653791 0.000000 0.928997
0.653372 0.000000 1.000000
0.653093 0.102681 0.000000
0.652673 0.102262 0.102262
0.652167 0.101756 0.239358
0.651661 0.101249 0.376455
0.651155 0.100743 0.513552
0.650648 0.100237 0.650648
0.650142 0.099731 0.787745
0.649636 0.099225 0.924842
0.649217 0.098805 1.000000
0.648079 0.235270 0.000000
0.647659 0.234851 0.097248
0.647153 0.234344 0.234344
0.646647 0.233838 0.371441
0.646141 0.233332 0.508538
0.645634 0.232826 0.645634
0.645128 0.232320 0.782731
0.644622 0.231813 0.919828
0.644203 0.231394 1.000000
0.643064 0.367859 0.000000
0.642645 0.367439 0.092234
0.642139 0.366933 0.229330
0.641633 0.366427 0.366427
0.641126 0.365921 0.503524
0.640620 0.365415 0.640620
0.640114 0.364908 0.777717
0.639608 0.364402 0.914814
0.639188 0.363983 1.000000
0.638050 0.500448 0.000000
0.637631 0.500028 0.087220
0.637125 0.499522 0.224316
0.636619 0.499016 0.361413
0.636112 0.498510 0.498510
0.635606 0.498003 0.635606
0.635100 0.497497 0.772703
0.634594 0.496991 0.909800
0.634174 0.496572 1.000000
0.633036 0.633036 0.000000
0.632617 0.632617 0.082205
0.632111 0.632111 0.219302
0.631604 0.631604 0.356399
0.631098 0.631098 0.493495
0.630592 0.630592 0.630592
0.630086 0.630086 0.767689
0.629580 0.629580 0.904785
0.629160 0.629160 1.000000
0.628022 0.765625 0.000000
0.627603 0.765206 0.077191
0.627097 0.764699 0.214288
0.626590 0.764193 0.351385
0.626084 0.763687 0.488481
0.625578 0.763181 0.625578
0.625072 0.762675 0.762675
0.624566 0.762169 0.899771
0.624146 0.761749 1.000000
0.623008 0.898214 0.000000
0.622589 0.897794 0.072177
0.622082 0.897288 0.209274
0.621576 0.896782 0.346371
0.621070 0.896276 0.483467
0.620564 0.895770 0.620564
0.620058 0.895263 0.757661
0.619552 0.894757 0.894757
0.619132 0.894338 1.000000
0.618853 1.000000 0.000000
0.618433 1.000000 0.068022
0.617927 1.000000 0.205119
0.617421 1.000000 0.342215
0.616915 1.000000 0.479312
0.616409 1.000000 0.616409
0.615903 1.000000 0.753505
0.615396 1.000000 0.890602
0.614977 1.000000 1.000000
0.793360 0.000000 0.000000
0.792941 0.000000 0.104927
0.792435 0.000000 0.242023
0.791928 0.000000 0.379120
0.791422 0.000000 0.516217
0.790916 0.000000 0.653313
0.790410 0.000000 0.790410
0.789904 0.000000 0.927507
0.789484 0.000000 1.000000
0.789205 0.101191 0.000000
0.788785 0.100771 0.100771
0.788279 0.100265 0.237868
0.787773 0.099759 0.374965
0.787267 0.099253 0.512061
0.786761 0.098747 0.649158
0.786255 0.098240 0.786255
0.785748 0.097734 0.923351
0.785329 0.097315 1.000000
0.784191 0.233780 0.000000
0.783771 0.233360 0.095757
0.783265 0.232854 0.232854
0.782759 0.232348 0.369951
0.782253 0.231842 0.507047
0.781747 0.231335 0.644144
0.781241 0.230829 0.781241
0.780734 0.230323 0.918337
0.780315 0.229904 1.000000
0.779177 0.366368 0.000000
0.778757 0.365949 0.090743
0.778251 0.365443 0.227840
0.777745 0.364936 0.364936
0.777239 0.364430 0.502033
0.776733 0.363924 0.639130
0.776226 0.363418 0.776226
0.775720 0.362912 0.913323
0.775301 0.362492 1.000000
0.774163 0.498957 0.000000
0.773743 0.498538 0.085729
0.773237 0.498031 0.222826
0.772731 0.497525 0.359922
0.772225 0.497019 0.497019
0.771719 0.496513 0.634116
0.771212 0.496007 0.771212
0.770706 0.495501 0.908309
0.770287 0.495081 1.000000
0.769149 0.631546 0.000000
0.768729 0.631126 0.080715
0.768223 0.630620 0.217812
0.767717 0.630114 0.354908
0.767211 0.629608 0.492005
0.766704 0.629102 0.629102
0.766198 0.628595 0.766198
0.765692 0.628089 0.903295
0.765273 0.627670 1.000000
0.764135 0.764135 0.000000
0.763715 0.763715 0.075701
0.763209 0.763209 0.212798
0.762703 0.762703 0.349894
0.762197 0.762197 0.486991
0.761690 0.761690 0.624088
0.761184 0.761184 0.761184
0.760678 0.760678 0.898281
0.760259 0.760259 1.000000
0.759120 0.896723 0.000000
0.758701 0.896304 0.070687
0.758195 0.895798 0.207783
0.757689 0.895291 0.344880
0.757182 0.894785 0.481977
0.756676 0.894279 0.619073
0.756170 0.893773 0.756170
0.755664 0.893267 0.893267
0.755244 0.892847 1.000000
0.754965 1.000000 0.000000
0.754546 1.000000 0.066532
0.754040 1.000000 0.203628
0.753533 1.000000 0.340725
0.753027 1.000000 0.477822
0.752521 1.000000 0.614918
0.752015 1.000000 0.752015
0.751509 1.000000 0.889112
0.751089 1.000000 1.000000
0.929473 0.000000 0.000000
0.929053 0.000000 0.103436
0.928547 0.000000 0.240533
0.928041 0.000000 0.377629
0.927535 0.000000 0.514726
0.927028 0.000000 0.651823
0.926522 0.000000 0.788919
0.926016 0.000000 0.926016
0.925597 0.000000 1.000000
0.925317 0.099700 0.000000
0.924898 0.099281 0.099281
0.924392 0.098775 0.236377
0.923885 0.098268 0.373474
0.923379 0.097762 0.510571
0.922873 0.097256 0.647667
0.922367 0.096750 0.784764
0.921861 0.096244 0.921861
0.921441 0.095824 1.000000
0.920303 0.232289 0.000000
0.919884 0.231870 0.094267
0.919378 0.231363 0.231363
0.918871 0.230857 0.368460
0.918365 0.230351 0.505557
0.917859 0.229845 0.642653
0.917353 0.229339 0.779750
0.916847 0.228833 0.916847
0.916427 0.228413 1.000000
0.915289 0.364878 0.000000
0.914870 0.364458 0.089253
0.914363 0.363952 0.226349
0.913857 0.363446 0.363446
0.913351 0.362940 0.500543
0.912845 0.362434 0.637639
0.912339 0.361927 0.774736
0.911833 0.361421 0.911833
0.911413 0.361002 1.000000
0.910275 0.497467 0.000000
0.909856 0.497047 0.084239
0.909349 0.496541 0.221335
0.908843 0.496035 0.358432
0.908337 0.495529 0.495529
0.907831 0.495022 0.632625
0.907325 0.494516 0.769722
0.906819 0.494010 0.906819
0.906399 0.493591 1.000000
0.905261 0.630055 0.000000
0.904842 0.629636 0.079224
0.904335 0.629130 0.216321
0.903829 0.628623 0.353418
0.903323 0.628117 0.490514
0.902817 0.627611 0.627611
0.902311 0.627105 0.764708
0.901804 0.626599 0.901804
0.901385 0.626179 1.000000
0.900247 0.762644 0.000000
0.899827 0.762225 0.074210
0.899321 0.761718 0.211307
0.898815 0.761212 0.348404
0.898309 0.760706 0.485500
0.897803 0.760200 0.622597
0.897297 0.759694 0.759694
0.896790 0.759188 0.896790
0.896371 0.758768 1.000000
0.895233 0.895233 0.000000
0.894813 0.894813 0.069196
0.894307 0.894307 0.206293
0.893801 0.893801 0.343390
0.893295 0.893295 0.480486
0.892789 0.892789 0.617583
0.892282 0.892282 0.754680
0.891776 0.891776 0.891776
0.891357 0.891357 1.000000
0.891078 1.000000 0.000000
0.890658 1.000000 0.065041
0.890152 1.000000 0.202138
0.889646 1.000000 0.339234
0.889140 1.000000 0.476331
0.888633 1.000000 0.613428
0.888127 1.000000 0.750524
0.887621 1.000000 0.887621
0.887202 1.000000 1.000000
1.000000 0.000000 0.000000
1.000000 0.000000 0.102201
1.000000 0.000000 0.239298
1.000000 0.000000 0.376394
1.000000 0.000000 0.513491
1.000000 0.000000 0.650588
1.000000 0.000000 0.787684
1.000000 0.000000 0.924781
1.000000 0.000000 1.000000
1.000000 0.098465 0.000000
1.000000 0.098046 0.098046
1.000000 0.097539 0.235142
1.000000 0.097033 0.372239
1.000000 0.096527 0.509336
1.000000 0.096021 0.646432
1.000000 0.095515 0.783529
1.000000 0.095009 0.920626
1.000000 0.094589 1.000000
1.000000 0.231054 0.000000
1.000000 0.230634 0.093032
1.000000 0.230128 0.230128
1.000000 0.229622 0.367225
1.000000 0.229116 0.504322
1.000000 0.228610 0.641418
1.000000 0.228103 0.778515
1.000000 0.227597 0.915612
1.000000 0.227178 1.000000
1.000000 0.363643 0.000000
1.000000 0.363223 0.088017
1.000000 0.362717 0.225114
1.000000 0.362211 0.362211
1.000000 0.361705 0.499307
1.000000 0.361198 0.636404
1.000000 0.360692 0.773501
1.000000 0.360186 0.910597
1.000000 0.359767 1.000000
1.000000 0.496231 0.000000
1.000000 0.495812 0.083003
1.000000 0.495306 0.220100
1.000000 0.494800 0.357197
1.000000 0.494293 0.494293
1.000000 0.493787 0.631390
1.000000 0.493281 0.768487
1.000000 0.492775 0.905583
1.000000 0.492355 1.000000
1.000000 0.628820 0.000000
1.000000 0.628401 0.077989
1.000000 0.627894 0.215086
1.000000 0.627388 0.352183
1.000000 0.626882 0.489279
1.000000 0.626376 0.626376
1.000000 0.625870 0.763473
1.000000 0.625364 0.900569
1.000000 0.624944 1.000000
1.000000 0.761409 0.000000
1.000000 0.760989 0.072975
1.000000 0.760483 0.210072
1.000000 0.759977 0.347169
1.000000 0.759471 0.484265
1.000000 0.758965 0.621362
1.000000 0.758459 0.758459
1.000000 0.757952 0.895555
1.000000 0.757533 1.000000
1.000000 0.893998 0.000000
1.000000 0.893578 0.067961
1.000000 0.893072 0.205058
1.000000 0.892566 0.342154
1.000000 0.892060 0.479251
1.000000 0.891553 0.616348
1.000000 0.891047 0.753444
1.000000 0.890541 0.890541
1.000000 0.890122 1.000000
1.000000 1.000000 0.000000
1.000000 1.000000 0.063806
1.000000 1.000000 0.200903
1.000000 1.000000 0.337999
1.000000 1.000000 0.475096
1.000000 1.000000 0.612193
1.000000 1.000000 0.749289
1.000000 1.000000 0.886386
1.000000 1.000000 1.000000
