skills/editops-orchestrator/assets/grade/luts/product_clean_v12.cube
TITLE "product_clean_v12"
LUT_3D_SIZE 5
DOMAIN_MIN 0.0 0.0 0.0
DOMAIN_MAX 1.0 1.0 1.0
0.000000 0.000000 0.000000
0.000000 0.000000 0.250587
0.000000 0.000000 0.516114
0.000000 0.000000 0.781642
0.000000 0.000000 1.000000
0.000000 0.245165 0.000000
0.000000 0.244556 0.244556
0.000000 0.243911 0.510083
0.000000 0.243266 0.775611
0.000000 0.242657 1.000000
0.000000 0.504947 0.000000
0.000000 0.504338 0.238165
0.000000 0.503693 0.503693
0.000000 0.503047 0.769220
0.000000 0.502439 1.000000
0.000000 0.764728 0.000000
0.000000 0.764119 0.231775
0.000000 0.763474 0.497302
0.000000 0.762829 0.762829
0.000000 0.762220 1.000000
0.000000 1.000000 0.000000
0.000000 1.000000 0.225743
0.000000 1.000000 0.491271
0.000000 1.000000 0.756798
0.000000 1.000000 1.000000
0.249403 0.000000 0.000000
0.248794 0.000000 0.248794
0.248149 0.000000 0.514322
0.247504 0.000000 0.779849
0.246895 0.000000 1.000000
0.243372 0.243372 0.000000
0.242763 0.242763 0.242763
0.242118 0.242118 0.508290
0.241473 0.241473 0.773818
0.240864 0.240864 1.000000
0.236981 0.503154 0.000000
0.236372 0.502545 0.236372
0.235727 0.501900 0.501900
0.235082 0.501255 0.767427
0.234473 0.500646 1.000000
0.230591 0.762935 0.000000
0.229982 0.762327 0.229982
0.229337 0.761681 0.495509
0.228691 0.761036 0.761036
0.228083 0.760427 1.000000
0.224559 1.000000 0.000000
0.223951 1.000000 0.223951
0.223305 1.000000 0.489478
0.222660 1.000000 0.755005
0.222051 1.000000 1.000000
0.513676 0.000000 0.000000
0.513067 0.000000 0.246895
0.512422 0.000000 0.512422
0.511777 0.000000 0.777949
0.511168 0.000000 1.000000
0.507645 0.241472 0.000000
0.507036 0.240863 0.240863
0.506391 0.240218 0.506391
0.505746 0.239573 0.771918
0.505137 0.238964 1.000000
0.501254 0.501254 0.000000
0.500645 0.500645 0.234473
0.500000 0.500000 0.500000
0.499355 0.499355 0.765527
0.498746 0.498746 1.000000
0.494863 0.761036 0.000000
0.494254 0.760427 0.228082
0.493609 0.759782 0.493609
0.492964 0.759137 0.759137
0.492355 0.758528 1.000000
0.488832 1.000000 0.000000
0.488223 1.000000 0.222051
0.487578 1.000000 0.487578
0.486933 1.000000 0.753105
0.486324 1.000000 1.000000
0.777949 0.000000 0.000000
0.777340 0.000000 0.244995
0.776695 0.000000 0.510522
0.776049 0.000000 0.776049
0.775441 0.000000 1.000000
0.771917 0.239573 0.000000
0.771309 0.238964 0.238964
0.770663 0.238319 0.504491
0.770018 0.237673 0.770018
0.769409 0.237065 1.000000
0.765527 0.499354 0.000000
0.764918 0.498745 0.232573
0.764273 0.498100 0.498100
0.763628 0.497455 0.763628
0.763019 0.496846 1.000000
0.759136 0.759136 0.000000
0.758527 0.758527 0.226182
0.757882 0.757882 0.491710
0.757237 0.757237 0.757237
0.756628 0.756628 1.000000
0.753105 1.000000 0.000000
0.752496 1.000000 0.220151
0.751851 1.000000 0.485678
0.751206 1.000000 0.751206
0.750597 1.000000 1.000000
1.000000 0.000000 0.000000
1.000000 0.000000 0.243202
1.000000 0.000000 0.508729
1.000000 0.000000 0.774257
1.000000 0.000000 1.000000
1.000000 0.237780 0.000000
1.000000 0.237171 0.237171
1.000000 0.236526 0.502698
1.000000 0.235881 0.768225
1.000000 0.235272 1.000000
1.000000 0.497561 0.000000
1.000000 0.496953 0.230780
1.000000 0.496307 0.496307
1.000000 0.495662 0.761835
1.000000 0.495053 1.000000
1.000000 0.757343 0.000000
1.000000 0.756734 0.224389
1.000000 0.756089 0.489917
1.000000 0.755444 0.755444
1.000000 0.754835 1.000000
1.000000 1.000000 0.000000
1.000000 1.000000 0.218358
1.000000 1.000000 0.483886
1.000000 1.000000 0.749413
1.000000 1.000000 1.000000
