skills/editops-orchestrator/assets/grade/luts/product_clean_v13.cube
TITLE "product_clean_v13"
LUT_3D_SIZE 5
DOMAIN_MIN 0.0 0.0 0.0
DOMAIN_MAX 1.0 1.0 1.0
0.000000 0.000000 0.000000
0.000000 0.000000 0.250617
0.000000 0.000000 0.517579
0.000000 0.000000 0.784541
0.000000 0.000000 1.000000
0.000000 0.244718 0.000000
0.000000 0.244056 0.244056
0.000000 0.243350 0.511018
0.000000 0.242645 0.777980
0.000000 0.241982 1.000000
0.000000 0.505396 0.000000
0.000000 0.504734 0.237066
0.000000 0.504028 0.504028
0.000000 0.503323 0.770990
0.000000 0.502660 1.000000
0.000000 0.766074 0.000000
0.000000 0.765412 0.230077
0.000000 0.764706 0.497039
0.000000 0.764001 0.764001
0.000000 0.763338 1.000000
0.000000 1.000000 0.000000
0.000000 1.000000 0.223515
0.000000 1.000000 0.490477
0.000000 1.000000 0.757439
0.000000 1.000000 1.000000
0.249329 0.000000 0.000000
0.248667 0.000000 0.248667
0.247961 0.000000 0.515629
0.247256 0.000000 0.782591
0.246593 0.000000 1.000000
0.242768 0.242768 0.000000
0.242105 0.242105 0.242105
0.241400 0.241400 0.509067
0.240694 0.240694 0.776029
0.240032 0.240032 1.000000
0.235778 0.503446 0.000000
0.235116 0.502783 0.235116
0.234410 0.502078 0.502078
0.233705 0.501372 0.769040
0.233042 0.500710 1.000000
0.228789 0.764124 0.000000
0.228126 0.763461 0.228126
0.227421 0.762756 0.495088
0.226715 0.762050 0.762050
0.226053 0.761388 1.000000
0.222227 1.000000 0.000000
0.221565 1.000000 0.221565
0.220859 1.000000 0.488527
0.220153 1.000000 0.755489
0.219491 1.000000 1.000000
0.514919 0.000000 0.000000
0.514257 0.000000 0.246589
0.513551 0.000000 0.513551
0.512846 0.000000 0.780513
0.512183 0.000000 1.000000
0.508358 0.240690 0.000000
0.507695 0.240028 0.240028
0.506990 0.239322 0.506990
0.506284 0.238616 0.773952
0.505622 0.237954 1.000000
0.501368 0.501368 0.000000
0.500706 0.500706 0.233038
0.500000 0.500000 0.500000
0.499294 0.499294 0.766962
0.498632 0.498632 1.000000
0.494378 0.762046 0.000000
0.493716 0.761384 0.226048
0.493010 0.760678 0.493010
0.492305 0.759972 0.759972
0.491642 0.759310 1.000000
0.487817 1.000000 0.000000
0.487154 1.000000 0.219487
0.486449 1.000000 0.486449
0.485743 1.000000 0.753411
0.485081 1.000000 1.000000
0.780509 0.000000 0.000000
0.779847 0.000000 0.244511
0.779141 0.000000 0.511473
0.778435 0.000000 0.778435
0.777773 0.000000 1.000000
0.773947 0.238612 0.000000
0.773285 0.237950 0.237950
0.772579 0.237244 0.504912
0.771874 0.236539 0.771874
0.771211 0.235876 1.000000
0.766958 0.499290 0.000000
0.766295 0.498628 0.230960
0.765590 0.497922 0.497922
0.764884 0.497217 0.764884
0.764222 0.496554 1.000000
0.759968 0.759968 0.000000
0.759306 0.759306 0.223971
0.758600 0.758600 0.490933
0.757895 0.757895 0.757895
0.757232 0.757232 1.000000
0.753407 1.000000 0.000000
0.752744 1.000000 0.217409
0.752039 1.000000 0.484371
0.751333 1.000000 0.751333
0.750671 1.000000 1.000000
1.000000 0.000000 0.000000
1.000000 0.000000 0.242561
1.000000 0.000000 0.509523
1.000000 0.000000 0.776485
1.000000 0.000000 1.000000
1.000000 0.236662 0.000000
1.000000 0.235999 0.235999
1.000000 0.235294 0.502961
1.000000 0.234588 0.769923
1.000000 0.233926 1.000000
1.000000 0.497340 0.000000
1.000000 0.496677 0.229010
1.000000 0.495972 0.495972
1.000000 0.495266 0.762934
1.000000 0.494604 1.000000
1.000000 0.758018 0.000000
1.000000 0.757355 0.222020
1.000000 0.756650 0.488982
1.000000 0.755944 0.755944
1.000000 0.755282 1.000000
1.000000 1.000000 0.000000
1.000000 1.000000 0.215459
1.000000 1.000000 0.482421
1.000000 1.000000 0.749383
1.000000 1.000000 1.000000
