skills/editops-orchestrator/assets/grade/luts/product_clean_v10.cube
TITLE "product_clean_v10"
LUT_3D_SIZE 5
DOMAIN_MIN 0.0 0.0 0.0
DOMAIN_MAX 1.0 1.0 1.0
0.000000 0.000000 0.000000
0.000000 0.000000 0.250515
0.000000 0.000000 0.513185
0.000000 0.000000 0.775854
0.000000 0.000000 1.000000
0.000000 0.246055 0.000000
0.000000 0.245554 0.245554
0.000000 0.245029 0.508223
0.000000 0.244503 0.770893
0.000000 0.244003 1.000000
0.000000 0.504047 0.000000
0.000000 0.503546 0.240352
0.000000 0.503021 0.503021
0.000000 0.502496 0.765691
0.000000 0.501995 1.000000
0.000000 0.762040 0.000000
0.000000 0.761539 0.235150
0.000000 0.761014 0.497819
0.000000 0.760489 0.760489
0.000000 0.759988 1.000000
0.000000 1.000000 0.000000
0.000000 1.000000 0.230188
0.000000 1.000000 0.492858
0.000000 1.000000 0.755527
0.000000 1.000000 1.000000
0.249541 0.000000 0.000000
0.249040 0.000000 0.249040
0.248515 0.000000 0.511710
0.247990 0.000000 0.774379
0.247489 0.000000 1.000000
0.244580 0.244580 0.000000
0.244079 0.244079 0.244079
0.243554 0.243554 0.506748
0.243029 0.243029 0.769418
0.242528 0.242528 1.000000
0.239378 0.502572 0.000000
0.238877 0.502072 0.238877
0.238352 0.501546 0.501546
0.237827 0.501021 0.764216
0.237326 0.500520 1.000000
0.234176 0.760565 0.000000
0.233675 0.760064 0.233675
0.233150 0.759539 0.496344
0.232625 0.759014 0.759014
0.232124 0.758513 1.000000
0.229214 1.000000 0.000000
0.228714 1.000000 0.228714
0.228188 1.000000 0.491383
0.227663 1.000000 0.754052
0.227162 1.000000 1.000000
0.511189 0.000000 0.000000
0.510689 0.000000 0.247494
0.510163 0.000000 0.510163
0.509638 0.000000 0.772833
0.509137 0.000000 1.000000
0.506228 0.243033 0.000000
0.505727 0.242533 0.242533
0.505202 0.242007 0.505202
0.504677 0.241482 0.767871
0.504176 0.240981 1.000000
0.501026 0.501026 0.000000
0.500525 0.500525 0.237331
0.500000 0.500000 0.500000
0.499475 0.499475 0.762669
0.498974 0.498974 1.000000
0.495824 0.759019 0.000000
0.495323 0.758518 0.232129
0.494798 0.757993 0.494798
0.494273 0.757467 0.757467
0.493772 0.756967 1.000000
0.490863 1.000000 0.000000
0.490362 1.000000 0.227167
0.489837 1.000000 0.489837
0.489311 1.000000 0.752506
0.488811 1.000000 1.000000
0.772838 0.000000 0.000000
0.772337 0.000000 0.245948
0.771812 0.000000 0.508617
0.771286 0.000000 0.771286
0.770786 0.000000 1.000000
0.767876 0.241487 0.000000
0.767375 0.240986 0.240986
0.766850 0.240461 0.503656
0.766325 0.239936 0.766325
0.765824 0.239435 1.000000
0.762674 0.499480 0.000000
0.762173 0.498979 0.235784
0.761648 0.498454 0.498454
0.761123 0.497928 0.761123
0.760622 0.497428 1.000000
0.757472 0.757472 0.000000
0.756971 0.756971 0.230582
0.756446 0.756446 0.493252
0.755921 0.755921 0.755921
0.755420 0.755420 1.000000
0.752511 1.000000 0.000000
0.752010 1.000000 0.225621
0.751485 1.000000 0.488290
0.750960 1.000000 0.750960
0.750459 1.000000 1.000000
1.000000 0.000000 0.000000
1.000000 0.000000 0.244473
1.000000 0.000000 0.507142
1.000000 0.000000 0.769812
1.000000 0.000000 1.000000
1.000000 0.240012 0.000000
1.000000 0.239511 0.239511
1.000000 0.238986 0.502181
1.000000 0.238461 0.764850
1.000000 0.237960 1.000000
1.000000 0.498005 0.000000
1.000000 0.497504 0.234309
1.000000 0.496979 0.496979
1.000000 0.496454 0.759648
1.000000 0.495953 1.000000
1.000000 0.755997 0.000000
1.000000 0.755497 0.229107
1.000000 0.754971 0.491777
1.000000 0.754446 0.754446
1.000000 0.753945 1.000000
1.000000 1.000000 0.000000
1.000000 1.000000 0.224146
1.000000 1.000000 0.486815
1.000000 1.000000 0.749485
1.000000 1.000000 1.000000
