skills/editops-orchestrator/assets/grade/luts/product_clean_v15.cube
TITLE "product_clean_v15"
LUT_3D_SIZE 5
DOMAIN_MIN 0.0 0.0 0.0
DOMAIN_MAX 1.0 1.0 1.0
0.000000 0.000000 0.000000
0.000000 0.000000 0.250666
0.000000 0.000000 0.520509
0.000000 0.000000 0.790352
0.000000 0.000000 1.000000
0.000000 0.243821 0.000000
0.000000 0.243053 0.243053
0.000000 0.242225 0.512896
0.000000 0.241398 0.782739
0.000000 0.240629 1.000000
0.000000 0.506296 0.000000
0.000000 0.505527 0.234857
0.000000 0.504700 0.504700
0.000000 0.503872 0.774543
0.000000 0.503104 1.000000
0.000000 0.768770 0.000000
0.000000 0.768001 0.226661
0.000000 0.767174 0.496504
0.000000 0.766346 0.766346
0.000000 0.765578 1.000000
0.000000 1.000000 0.000000
0.000000 1.000000 0.219047
0.000000 1.000000 0.488890
0.000000 1.000000 0.758733
0.000000 1.000000 1.000000
0.249172 0.000000 0.000000
0.248403 0.000000 0.248403
0.247576 0.000000 0.518246
0.246748 0.000000 0.788089
0.245980 0.000000 1.000000
0.241558 0.241558 0.000000
0.240789 0.240789 0.240789
0.239962 0.239962 0.510632
0.239135 0.239135 0.780475
0.238366 0.238366 1.000000
0.233362 0.504032 0.000000
0.232593 0.503264 0.232593
0.231766 0.502436 0.502436
0.230939 0.501609 0.772279
0.230170 0.500840 1.000000
0.225166 0.766507 0.000000
0.224397 0.765738 0.224397
0.223570 0.764911 0.494240
0.222743 0.764083 0.764083
0.221974 0.763315 1.000000
0.217552 1.000000 0.000000
0.216784 1.000000 0.216784
0.215956 1.000000 0.486627
0.215129 1.000000 0.756470
0.214360 1.000000 1.000000
0.517406 0.000000 0.000000
0.516637 0.000000 0.245967
0.515810 0.000000 0.515810
0.514982 0.000000 0.785653
0.514214 0.000000 1.000000
0.509792 0.239122 0.000000
0.509023 0.238353 0.238353
0.508196 0.237526 0.508196
0.507369 0.236698 0.778039
0.506600 0.235930 1.000000
0.501596 0.501596 0.000000
0.500827 0.500827 0.230157
0.500000 0.500000 0.500000
0.499173 0.499173 0.769843
0.498404 0.498404 1.000000
0.493400 0.764070 0.000000
0.492631 0.763302 0.221961
0.491804 0.762474 0.491804
0.490977 0.761647 0.761647
0.490208 0.760878 1.000000
0.485786 1.000000 0.000000
0.485018 1.000000 0.214347
0.484190 1.000000 0.484190
0.483363 1.000000 0.754033
0.482594 1.000000 1.000000
0.785640 0.000000 0.000000
0.784871 0.000000 0.243530
0.784044 0.000000 0.513373
0.783216 0.000000 0.783216
0.782448 0.000000 1.000000
0.778026 0.236685 0.000000
0.777257 0.235917 0.235917
0.776430 0.235089 0.505760
0.775603 0.234262 0.775603
0.774834 0.233493 1.000000
0.769830 0.499160 0.000000
0.769061 0.498391 0.227721
0.768234 0.497564 0.497564
0.767407 0.496736 0.767407
0.766638 0.495968 1.000000
0.761634 0.761634 0.000000
0.760865 0.760865 0.219525
0.760038 0.760038 0.489368
0.759211 0.759211 0.759211
0.758442 0.758442 1.000000
0.754020 1.000000 0.000000
0.753252 1.000000 0.211911
0.752424 1.000000 0.481754
0.751597 1.000000 0.751597
0.750828 1.000000 1.000000
1.000000 0.000000 0.000000
1.000000 0.000000 0.241267
1.000000 0.000000 0.511110
1.000000 0.000000 0.780953
1.000000 0.000000 1.000000
1.000000 0.234422 0.000000
1.000000 0.233654 0.233654
1.000000 0.232826 0.503496
1.000000 0.231999 0.773339
1.000000 0.231230 1.000000
1.000000 0.496896 0.000000
1.000000 0.496128 0.225457
1.000000 0.495300 0.495300
1.000000 0.494473 0.765143
1.000000 0.493704 1.000000
1.000000 0.759371 0.000000
1.000000 0.758602 0.217261
1.000000 0.757775 0.487104
1.000000 0.756947 0.756947
1.000000 0.756179 1.000000
1.000000 1.000000 0.000000
1.000000 1.000000 0.209648
1.000000 1.000000 0.479491
1.000000 1.000000 0.749334
1.000000 1.000000 1.000000
