skills/editops-orchestrator/assets/grade/luts/product_clean_v15.cube
TITLE "product_clean_v15"
LUT_3D_SIZE 17
DOMAIN_MIN 0.0 0.0 0.0
DOMAIN_MAX 1.0 1.0 1.0
0.000000 0.000000 0.000000
0.000000 0.000000 0.048284
0.000000 0.000000 0.115745
0.000000 0.000000 0.183206
0.000000 0.000000 0.250666
0.000000 0.000000 0.318127
0.000000 0.000000 0.385588
0.000000 0.000000 0.453049
0.000000 0.000000 0.520509
0.000000 0.000000 0.587970
0.000000 0.000000 0.655431
0.000000 0.000000 0.722891
0.000000 0.000000 0.790352
0.000000 0.000000 0.857813
0.000000 0.000000 0.925274
0.000000 0.000000 0.992734
0.000000 0.000000 1.000000
0.000000 0.046966 0.000000
0.000000 0.046818 0.046818
0.000000 0.046611 0.114278
0.000000 0.046404 0.181739
0.000000 0.046197 0.249200
0.000000 0.045990 0.316660
0.000000 0.045783 0.384121
0.000000 0.045576 0.451582
0.000000 0.045370 0.519043
0.000000 0.045163 0.586503
0.000000 0.044956 0.653964
0.000000 0.044749 0.721425
0.000000 0.044542 0.788886
0.000000 0.044335 0.856346
0.000000 0.044128 0.923807
0.000000 0.043922 0.991268
0.000000 0.043774 1.000000
0.000000 0.112584 0.000000
0.000000 0.112436 0.044769
0.000000 0.112229 0.112229
0.000000 0.112022 0.179690
0.000000 0.111816 0.247151
0.000000 0.111609 0.314611
0.000000 0.111402 0.382072
0.000000 0.111195 0.449533
0.000000 0.110988 0.516994
0.000000 0.110781 0.584454
0.000000 0.110574 0.651915
0.000000 0.110368 0.719376
0.000000 0.110161 0.786837
0.000000 0.109954 0.854297
0.000000 0.109747 0.921758
0.000000 0.109540 0.989219
0.000000 0.109392 1.000000
0.000000 0.178203 0.000000
0.000000 0.178055 0.042719
0.000000 0.177848 0.110180
0.000000 0.177641 0.177641
0.000000 0.177434 0.245102
0.000000 0.177227 0.312562
0.000000 0.177020 0.380023
0.000000 0.176814 0.447484
0.000000 0.176607 0.514945
0.000000 0.176400 0.582405
0.000000 0.176193 0.649866
0.000000 0.175986 0.717327
0.000000 0.175779 0.784788
0.000000 0.175572 0.852248
0.000000 0.175366 0.919709
0.000000 0.175159 0.987170
0.000000 0.175011 1.000000
0.000000 0.243821 0.000000
0.000000 0.243673 0.040670
0.000000 0.243466 0.108131
0.000000 0.243260 0.175592
0.000000 0.243053 0.243053
0.000000 0.242846 0.310513
0.000000 0.242639 0.377974
0.000000 0.242432 0.445435
0.000000 0.242225 0.512896
0.000000 0.242018 0.580356
0.000000 0.241812 0.647817
0.000000 0.241605 0.715278
0.000000 0.241398 0.782739
0.000000 0.241191 0.850199
0.000000 0.240984 0.917660
0.000000 0.240777 0.985121
0.000000 0.240629 1.000000
0.000000 0.309440 0.000000
0.000000 0.309292 0.038621
0.000000 0.309085 0.106082
0.000000 0.308878 0.173543
0.000000 0.308671 0.241004
0.000000 0.308464 0.308464
0.000000 0.308258 0.375925
0.000000 0.308051 0.443386
0.000000 0.307844 0.510847
0.000000 0.307637 0.578307
0.000000 0.307430 0.645768
0.000000 0.307223 0.713229
0.000000 0.307016 0.780690
0.000000 0.306810 0.848150
0.000000 0.306603 0.915611
0.000000 0.306396 0.983072
0.000000 0.306248 1.000000
0.000000 0.375058 0.000000
0.000000 0.374910 0.036572
0.000000 0.374704 0.104033
0.000000 0.374497 0.171494
0.000000 0.374290 0.238955
0.000000 0.374083 0.306415
0.000000 0.373876 0.373876
0.000000 0.373669 0.441337
0.000000 0.373462 0.508798
0.000000 0.373256 0.576258
0.000000 0.373049 0.643719
0.000000 0.372842 0.711180
0.000000 0.372635 0.778641
0.000000 0.372428 0.846101
0.000000 0.372221 0.913562
0.000000 0.372014 0.981023
0.000000 0.371866 1.000000
0.000000 0.440677 0.000000
0.000000 0.440529 0.034523
0.000000 0.440322 0.101984
0.000000 0.440115 0.169445
0.000000 0.439908 0.236906
0.000000 0.439702 0.304366
0.000000 0.439495 0.371827
0.000000 0.439288 0.439288
0.000000 0.439081 0.506749
0.000000 0.438874 0.574209
0.000000 0.438667 0.641670
0.000000 0.438460 0.709131
0.000000 0.438254 0.776592
0.000000 0.438047 0.844052
0.000000 0.437840 0.911513
0.000000 0.437633 0.978974
0.000000 0.437485 1.000000
0.000000 0.506296 0.000000
0.000000 0.506148 0.032474
0.000000 0.505941 0.099935
0.000000 0.505734 0.167396
0.000000 0.505527 0.234857
0.000000 0.505320 0.302317
0.000000 0.505113 0.369778
0.000000 0.504906 0.437239
0.000000 0.504700 0.504700
0.000000 0.504493 0.572160
0.000000 0.504286 0.639621
0.000000 0.504079 0.707082
0.000000 0.503872 0.774543
0.000000 0.503665 0.842003
0.000000 0.503458 0.909464
0.000000 0.503252 0.976925
0.000000 0.503104 1.000000
0.000000 0.571914 0.000000
0.000000 0.571766 0.030425
0.000000 0.571559 0.097886
0.000000 0.571352 0.165347
0.000000 0.571146 0.232808
0.000000 0.570939 0.300268
0.000000 0.570732 0.367729
0.000000 0.570525 0.435190
0.000000 0.570318 0.502651
0.000000 0.570111 0.570111
0.000000 0.569904 0.637572
0.000000 0.569698 0.705033
0.000000 0.569491 0.772494
0.000000 0.569284 0.839954
0.000000 0.569077 0.907415
0.000000 0.568870 0.974876
0.000000 0.568722 1.000000
0.000000 0.637533 0.000000
0.000000 0.637385 0.028376
0.000000 0.637178 0.095837
0.000000 0.636971 0.163298
0.000000 0.636764 0.230759
0.000000 0.636557 0.298219
0.000000 0.636350 0.365680
0.000000 0.636144 0.433141
0.000000 0.635937 0.500602
0.000000 0.635730 0.568062
0.000000 0.635523 0.635523
0.000000 0.635316 0.702984
0.000000 0.635109 0.770445
0.000000 0.634902 0.837905
0.000000 0.634696 0.905366
0.000000 0.634489 0.972827
0.000000 0.634341 1.000000
0.000000 0.703151 0.000000
0.000000 0.703003 0.026327
0.000000 0.702796 0.093788
0.000000 0.702590 0.161249
0.000000 0.702383 0.228710
0.000000 0.702176 0.296170
0.000000 0.701969 0.363631
0.000000 0.701762 0.431092
0.000000 0.701555 0.498553
0.000000 0.701348 0.566013
0.000000 0.701142 0.633474
0.000000 0.700935 0.700935
0.000000 0.700728 0.768395
0.000000 0.700521 0.835856
0.000000 0.700314 0.903317
0.000000 0.700107 0.970778
0.000000 0.699959 1.000000
0.000000 0.768770 0.000000
0.000000 0.768622 0.024278
0.000000 0.768415 0.091739
0.000000 0.768208 0.159200
0.000000 0.768001 0.226661
0.000000 0.767794 0.294121
0.000000 0.767588 0.361582
0.000000 0.767381 0.429043
0.000000 0.767174 0.496504
0.000000 0.766967 0.563964
0.000000 0.766760 0.631425
0.000000 0.766553 0.698886
0.000000 0.766346 0.766346
0.000000 0.766140 0.833807
0.000000 0.765933 0.901268
0.000000 0.765726 0.968729
0.000000 0.765578 1.000000
0.000000 0.834388 0.000000
0.000000 0.834240 0.022229
0.000000 0.834034 0.089690
0.000000 0.833827 0.157151
0.000000 0.833620 0.224612
0.000000 0.833413 0.292072
0.000000 0.833206 0.359533
0.000000 0.832999 0.426994
0.000000 0.832792 0.494454
0.000000 0.832586 0.561915
0.000000 0.832379 0.629376
0.000000 0.832172 0.696837
0.000000 0.831965 0.764297
0.000000 0.831758 0.831758
0.000000 0.831551 0.899219
0.000000 0.831344 0.966680
0.000000 0.831196 1.000000
0.000000 0.900007 0.000000
0.000000 0.899859 0.020180
0.000000 0.899652 0.087641
0.000000 0.899445 0.155102
0.000000 0.899238 0.222563
0.000000 0.899032 0.290023
0.000000 0.898825 0.357484
0.000000 0.898618 0.424945
0.000000 0.898411 0.492405
0.000000 0.898204 0.559866
0.000000 0.897997 0.627327
0.000000 0.897790 0.694788
0.000000 0.897584 0.762248
0.000000 0.897377 0.829709
0.000000 0.897170 0.897170
0.000000 0.896963 0.964631
0.000000 0.896815 1.000000
0.000000 0.965626 0.000000
0.000000 0.965478 0.018131
0.000000 0.965271 0.085592
0.000000 0.965064 0.153053
0.000000 0.964857 0.220513
0.000000 0.964650 0.287974
0.000000 0.964443 0.355435
0.000000 0.964236 0.422896
0.000000 0.964030 0.490356
0.000000 0.963823 0.557817
0.000000 0.963616 0.625278
0.000000 0.963409 0.692739
0.000000 0.963202 0.760199
0.000000 0.962995 0.827660
0.000000 0.962788 0.895121
0.000000 0.962582 0.962582
0.000000 0.962434 1.000000
0.000000 1.000000 0.000000
0.000000 1.000000 0.016665
0.000000 1.000000 0.084125
0.000000 1.000000 0.151586
0.000000 1.000000 0.219047
0.000000 1.000000 0.286508
0.000000 1.000000 0.353968
0.000000 1.000000 0.421429
0.000000 1.000000 0.488890
0.000000 1.000000 0.556351
0.000000 1.000000 0.623811
0.000000 1.000000 0.691272
0.000000 1.000000 0.758733
0.000000 1.000000 0.826194
0.000000 1.000000 0.893654
0.000000 1.000000 0.961115
0.000000 1.000000 1.000000
0.047996 0.000000 0.000000
0.047848 0.000000 0.047848
0.047641 0.000000 0.115309
0.047434 0.000000 0.182770
0.047228 0.000000 0.250230
0.047021 0.000000 0.317691
0.046814 0.000000 0.385152
0.046607 0.000000 0.452613
0.046400 0.000000 0.520073
0.046193 0.000000 0.587534
0.045986 0.000000 0.654995
0.045780 0.000000 0.722456
0.045573 0.000000 0.789916
0.045366 0.000000 0.857377
0.045159 0.000000 0.924838
0.044952 0.000000 0.992298
0.044804 0.000000 1.000000
0.046530 0.046530 0.000000
0.046382 0.046382 0.046382
0.046175 0.046175 0.113842
0.045968 0.045968 0.181303
0.045761 0.045761 0.248764
0.045554 0.045554 0.316225
0.045347 0.045347 0.383685
0.045140 0.045140 0.451146
0.044934 0.044934 0.518607
0.044727 0.044727 0.586067
0.044520 0.044520 0.653528
0.044313 0.044313 0.720989
0.044106 0.044106 0.788450
0.043899 0.043899 0.855910
0.043693 0.043693 0.923371
0.043486 0.043486 0.990832
0.043338 0.043338 1.000000
0.044481 0.112148 0.000000
0.044333 0.112000 0.044333
0.044126 0.111793 0.111793
0.043919 0.111586 0.179254
0.043712 0.111380 0.246715
0.043505 0.111173 0.314176
0.043298 0.110966 0.381636
0.043091 0.110759 0.449097
0.042885 0.110552 0.516558
0.042678 0.110345 0.584018
0.042471 0.110139 0.651479
0.042264 0.109932 0.718940
0.042057 0.109725 0.786401
0.041850 0.109518 0.853861
0.041644 0.109311 0.921322
0.041437 0.109104 0.988783
0.041289 0.108956 1.000000
0.042432 0.177767 0.000000
0.042284 0.177619 0.042284
0.042077 0.177412 0.109744
0.041870 0.177205 0.177205
0.041663 0.176998 0.244666
0.041456 0.176791 0.312127
0.041249 0.176584 0.379587
0.041042 0.176378 0.447048
0.040836 0.176171 0.514509
0.040629 0.175964 0.581969
0.040422 0.175757 0.649430
0.040215 0.175550 0.716891
0.040008 0.175343 0.784352
0.039801 0.175137 0.851812
0.039594 0.174930 0.919273
0.039388 0.174723 0.986734
0.039240 0.174575 1.000000
0.040383 0.243385 0.000000
0.040235 0.243237 0.040235
0.040028 0.243030 0.107695
0.039821 0.242824 0.175156
0.039614 0.242617 0.242617
0.039407 0.242410 0.310077
0.039200 0.242203 0.377538
0.038993 0.241996 0.444999
0.038787 0.241789 0.512460
0.038580 0.241582 0.579920
0.038373 0.241376 0.647381
0.038166 0.241169 0.714842
0.037959 0.240962 0.782303
0.037752 0.240755 0.849763
0.037545 0.240548 0.917224
0.037339 0.240341 0.984685
0.037191 0.240193 1.000000
0.038334 0.309004 0.000000
0.038186 0.308856 0.038186
0.037979 0.308649 0.105646
0.037772 0.308442 0.173107
0.037565 0.308235 0.240568
0.037358 0.308028 0.308028
0.037151 0.307822 0.375489
0.036944 0.307615 0.442950
0.036738 0.307408 0.510411
0.036531 0.307201 0.577871
0.036324 0.306994 0.645332
0.036117 0.306787 0.712793
0.035910 0.306581 0.780254
0.035703 0.306374 0.847714
0.035496 0.306167 0.915175
0.035290 0.305960 0.982636
0.035142 0.305812 1.000000
0.036285 0.374622 0.000000
0.036136 0.374474 0.036136
0.035930 0.374268 0.103597
0.035723 0.374061 0.171058
0.035516 0.373854 0.238519
0.035309 0.373647 0.305979
0.035102 0.373440 0.373440
0.034895 0.373233 0.440901
0.034689 0.373026 0.508362
0.034482 0.372820 0.575822
0.034275 0.372613 0.643283
0.034068 0.372406 0.710744
0.033861 0.372199 0.778205
0.033654 0.371992 0.845665
0.033447 0.371785 0.913126
0.033241 0.371579 0.980587
0.033093 0.371430 1.000000
0.034236 0.440241 0.000000
0.034087 0.440093 0.034087
0.033881 0.439886 0.101548
0.033674 0.439679 0.169009
0.033467 0.439472 0.236470
0.033260 0.439266 0.303930
0.033053 0.439059 0.371391
0.032846 0.438852 0.438852
0.032640 0.438645 0.506313
0.032433 0.438438 0.573773
0.032226 0.438231 0.641234
0.032019 0.438025 0.708695
0.031812 0.437818 0.776156
0.031605 0.437611 0.843616
0.031398 0.437404 0.911077
0.031192 0.437197 0.978538
0.031044 0.437049 1.000000
0.032187 0.505860 0.000000
0.032038 0.505712 0.032038
0.031832 0.505505 0.099499
0.031625 0.505298 0.166960
0.031418 0.505091 0.234421
0.031211 0.504884 0.301881
0.031004 0.504677 0.369342
0.030797 0.504470 0.436803
0.030591 0.504264 0.504264
0.030384 0.504057 0.571724
0.030177 0.503850 0.639185
0.029970 0.503643 0.706646
0.029763 0.503436 0.774107
0.029556 0.503229 0.841567
0.029349 0.503023 0.909028
0.029143 0.502816 0.976489
0.028995 0.502668 1.000000
0.030137 0.571478 0.000000
0.029989 0.571330 0.029989
0.029783 0.571123 0.097450
0.029576 0.570916 0.164911
0.029369 0.570710 0.232372
0.029162 0.570503 0.299832
0.028955 0.570296 0.367293
0.028748 0.570089 0.434754
0.028541 0.569882 0.502215
0.028335 0.569675 0.569675
0.028128 0.569469 0.637136
0.027921 0.569262 0.704597
0.027714 0.569055 0.772058
0.027507 0.568848 0.839518
0.027300 0.568641 0.906979
0.027094 0.568434 0.974440
0.026945 0.568286 1.000000
0.028088 0.637097 0.000000
0.027940 0.636949 0.027940
0.027734 0.636742 0.095401
0.027527 0.636535 0.162862
0.027320 0.636328 0.230323
0.027113 0.636121 0.297783
0.026906 0.635914 0.365244
0.026699 0.635708 0.432705
0.026492 0.635501 0.500166
0.026286 0.635294 0.567626
0.026079 0.635087 0.635087
0.025872 0.634880 0.702548
0.025665 0.634673 0.770009
0.025458 0.634467 0.837469
0.025251 0.634260 0.904930
0.025045 0.634053 0.972391
0.024896 0.633905 1.000000
0.026039 0.702715 0.000000
0.025891 0.702567 0.025891
0.025685 0.702360 0.093352
0.025478 0.702154 0.160813
0.025271 0.701947 0.228274
0.025064 0.701740 0.295734
0.024857 0.701533 0.363195
0.024650 0.701326 0.430656
0.024443 0.701119 0.498117
0.024237 0.700912 0.565577
0.024030 0.700706 0.633038
0.023823 0.700499 0.700499
0.023616 0.700292 0.767960
0.023409 0.700085 0.835420
0.023202 0.699878 0.902881
0.022995 0.699671 0.970342
0.022847 0.699523 1.000000
0.023990 0.768334 0.000000
0.023842 0.768186 0.023842
0.023636 0.767979 0.091303
0.023429 0.767772 0.158764
0.023222 0.767565 0.226225
0.023015 0.767358 0.293685
0.022808 0.767152 0.361146
0.022601 0.766945 0.428607
0.022394 0.766738 0.496068
0.022188 0.766531 0.563528
0.021981 0.766324 0.630989
0.021774 0.766117 0.698450
0.021567 0.765911 0.765911
0.021360 0.765704 0.833371
0.021153 0.765497 0.900832
0.020946 0.765290 0.968293
0.020798 0.765142 1.000000
0.021941 0.833952 0.000000
0.021793 0.833804 0.021793
0.021587 0.833598 0.089254
0.021380 0.833391 0.156715
0.021173 0.833184 0.224176
0.020966 0.832977 0.291636
0.020759 0.832770 0.359097
0.020552 0.832563 0.426558
0.020345 0.832356 0.494019
0.020139 0.832150 0.561479
0.019932 0.831943 0.628940
0.019725 0.831736 0.696401
0.019518 0.831529 0.763861
0.019311 0.831322 0.831322
0.019104 0.831115 0.898783
0.018897 0.830909 0.966244
0.018749 0.830760 1.000000
0.019892 0.899571 0.000000
0.019744 0.899423 0.019744
0.019537 0.899216 0.087205
0.019331 0.899009 0.154666
0.019124 0.898802 0.222127
0.018917 0.898596 0.289587
0.018710 0.898389 0.357048
0.018503 0.898182 0.424509
0.018296 0.897975 0.491970
0.018090 0.897768 0.559430
0.017883 0.897561 0.626891
0.017676 0.897355 0.694352
0.017469 0.897148 0.761812
0.017262 0.896941 0.829273
0.017055 0.896734 0.896734
0.016848 0.896527 0.964195
0.016700 0.896379 1.000000
0.017843 0.965190 0.000000
0.017695 0.965042 0.017695
0.017488 0.964835 0.085156
0.017282 0.964628 0.152617
0.017075 0.964421 0.220078
0.016868 0.964214 0.287538
0.016661 0.964007 0.354999
0.016454 0.963800 0.422460
0.016247 0.963594 0.489921
0.016041 0.963387 0.557381
0.015834 0.963180 0.624842
0.015627 0.962973 0.692303
0.015420 0.962766 0.759763
0.015213 0.962559 0.827224
0.015006 0.962353 0.894685
0.014799 0.962146 0.962146
0.014651 0.961998 1.000000
0.016377 1.000000 0.000000
0.016229 1.000000 0.016229
0.016022 1.000000 0.083690
0.015815 1.000000 0.151150
0.015608 1.000000 0.218611
0.015401 1.000000 0.286072
0.015195 1.000000 0.353532
0.014988 1.000000 0.420993
0.014781 1.000000 0.488454
0.014574 1.000000 0.555915
0.014367 1.000000 0.623375
0.014160 1.000000 0.690836
0.013953 1.000000 0.758297
0.013747 1.000000 0.825758
0.013540 1.000000 0.893218
0.013333 1.000000 0.960679
0.013185 1.000000 1.000000
0.115055 0.000000 0.000000
0.114907 0.000000 0.047239
0.114700 0.000000 0.114700
0.114493 0.000000 0.182161
0.114286 0.000000 0.249621
0.114079 0.000000 0.317082
0.113872 0.000000 0.384543
0.113666 0.000000 0.452003
0.113459 0.000000 0.519464
0.113252 0.000000 0.586925
0.113045 0.000000 0.654386
0.112838 0.000000 0.721846
0.112631 0.000000 0.789307
0.112424 0.000000 0.856768
0.112218 0.000000 0.924229
0.112011 0.000000 0.991689
0.111863 0.000000 1.000000
0.113588 0.045921 0.000000
0.113440 0.045772 0.045772
0.113233 0.045566 0.113233
0.113026 0.045359 0.180694
0.112820 0.045152 0.248155
0.112613 0.044945 0.315615
0.112406 0.044738 0.383076
0.112199 0.044531 0.450537
0.111992 0.044325 0.517998
0.111785 0.044118 0.585458
0.111578 0.043911 0.652919
0.111372 0.043704 0.720380
0.111165 0.043497 0.787841
0.110958 0.043290 0.855301
0.110751 0.043083 0.922762
0.110544 0.042877 0.990223
0.110396 0.042729 1.000000
0.111539 0.111539 0.000000
0.111391 0.111391 0.043723
0.111184 0.111184 0.111184
0.110977 0.110977 0.178645
0.110771 0.110771 0.246106
0.110564 0.110564 0.313566
0.110357 0.110357 0.381027
0.110150 0.110150 0.448488
0.109943 0.109943 0.515949
0.109736 0.109736 0.583409
0.109529 0.109529 0.650870
0.109323 0.109323 0.718331
0.109116 0.109116 0.785792
0.108909 0.108909 0.853252
0.108702 0.108702 0.920713
0.108495 0.108495 0.988174
0.108347 0.108347 1.000000
0.109490 0.177158 0.000000
0.109342 0.177010 0.041674
0.109135 0.176803 0.109135
0.108928 0.176596 0.176596
0.108721 0.176389 0.244057
0.108515 0.176182 0.311517
0.108308 0.175975 0.378978
0.108101 0.175769 0.446439
0.107894 0.175562 0.513900
0.107687 0.175355 0.581360
0.107480 0.175148 0.648821
0.107274 0.174941 0.716282
0.107067 0.174734 0.783743
0.106860 0.174527 0.851203
0.106653 0.174321 0.918664
0.106446 0.174114 0.986125
0.106298 0.173966 1.000000
0.107441 0.242776 0.000000
0.107293 0.242628 0.039625
0.107086 0.242421 0.107086
0.106879 0.242215 0.174547
0.106672 0.242008 0.242008
0.106466 0.241801 0.309468
0.106259 0.241594 0.376929
0.106052 0.241387 0.444390
0.105845 0.241180 0.511851
0.105638 0.240973 0.579311
0.105431 0.240767 0.646772
0.105225 0.240560 0.714233
0.105018 0.240353 0.781694
0.104811 0.240146 0.849154
0.104604 0.239939 0.916615
0.104397 0.239732 0.984076
0.104249 0.239584 1.000000
0.105392 0.308395 0.000000
0.105244 0.308247 0.037576
0.105037 0.308040 0.105037
0.104830 0.307833 0.172498
0.104623 0.307626 0.239959
0.104417 0.307419 0.307419
0.104210 0.307213 0.374880
0.104003 0.307006 0.442341
0.103796 0.306799 0.509802
0.103589 0.306592 0.577262
0.103382 0.306385 0.644723
0.103176 0.306178 0.712184
0.102969 0.305971 0.779645
0.102762 0.305765 0.847105
0.102555 0.305558 0.914566
0.102348 0.305351 0.982027
0.102200 0.305203 1.000000
0.103343 0.374013 0.000000
0.103195 0.373865 0.035527
0.102988 0.373658 0.102988
0.102781 0.373452 0.170449
0.102574 0.373245 0.237910
0.102368 0.373038 0.305370
0.102161 0.372831 0.372831
0.101954 0.372624 0.440292
0.101747 0.372417 0.507753
0.101540 0.372211 0.575213
0.101333 0.372004 0.642674
0.101126 0.371797 0.710135
0.100920 0.371590 0.777596
0.100713 0.371383 0.845056
0.100506 0.371176 0.912517
0.100299 0.370969 0.979978
0.100151 0.370821 1.000000
0.101294 0.439632 0.000000
0.101146 0.439484 0.033478
0.100939 0.439277 0.100939
0.100732 0.439070 0.168400
0.100525 0.438863 0.235861
0.100319 0.438657 0.303321
0.100112 0.438450 0.370782
0.099905 0.438243 0.438243
0.099698 0.438036 0.505704
0.099491 0.437829 0.573164
0.099284 0.437622 0.640625
0.099077 0.437415 0.708086
0.098871 0.437209 0.775547
0.098664 0.437002 0.843007
0.098457 0.436795 0.910468
0.098250 0.436588 0.977929
0.098102 0.436440 1.000000
0.099245 0.505251 0.000000
0.099097 0.505102 0.031429
0.098890 0.504896 0.098890
0.098683 0.504689 0.166351
0.098476 0.504482 0.233812
0.098270 0.504275 0.301272
0.098063 0.504068 0.368733
0.097856 0.503861 0.436194
0.097649 0.503655 0.503655
0.097442 0.503448 0.571115
0.097235 0.503241 0.638576
0.097028 0.503034 0.706037
0.096822 0.502827 0.773498
0.096615 0.502620 0.840958
0.096408 0.502413 0.908419
0.096201 0.502207 0.975880
0.096053 0.502059 1.000000
0.097196 0.570869 0.000000
0.097048 0.570721 0.029380
0.096841 0.570514 0.096841
0.096634 0.570307 0.164302
0.096427 0.570101 0.231763
0.096221 0.569894 0.299223
0.096014 0.569687 0.366684
0.095807 0.569480 0.434145
0.095600 0.569273 0.501606
0.095393 0.569066 0.569066
0.095186 0.568859 0.636527
0.094979 0.568653 0.703988
0.094773 0.568446 0.771448
0.094566 0.568239 0.838909
0.094359 0.568032 0.906370
0.094152 0.567825 0.973831
0.094004 0.567677 1.000000
0.095147 0.636488 0.000000
0.094999 0.636340 0.027331
0.094792 0.636133 0.094792
0.094585 0.635926 0.162253
0.094378 0.635719 0.229714
0.094172 0.635512 0.297174
0.093965 0.635305 0.364635
0.093758 0.635099 0.432096
0.093551 0.634892 0.499557
0.093344 0.634685 0.567017
0.093137 0.634478 0.634478
0.092930 0.634271 0.701939
0.092724 0.634064 0.769399
0.092517 0.633857 0.836860
0.092310 0.633651 0.904321
0.092103 0.633444 0.971782
0.091955 0.633296 1.000000
0.093098 0.702106 0.000000
0.092950 0.701958 0.025282
0.092743 0.701751 0.092743
0.092536 0.701545 0.160204
0.092329 0.701338 0.227665
0.092122 0.701131 0.295125
0.091916 0.700924 0.362586
0.091709 0.700717 0.430047
0.091502 0.700510 0.497507
0.091295 0.700303 0.564968
0.091088 0.700097 0.632429
0.090881 0.699890 0.699890
0.090675 0.699683 0.767350
0.090468 0.699476 0.834811
0.090261 0.699269 0.902272
0.090054 0.699062 0.969733
0.089906 0.698914 1.000000
0.091049 0.767725 0.000000
0.090901 0.767577 0.023233
0.090694 0.767370 0.090694
0.090487 0.767163 0.158155
0.090280 0.766956 0.225616
0.090073 0.766749 0.293076
0.089867 0.766543 0.360537
0.089660 0.766336 0.427998
0.089453 0.766129 0.495458
0.089246 0.765922 0.562919
0.089039 0.765715 0.630380
0.088832 0.765508 0.697841
0.088626 0.765301 0.765301
0.088419 0.765095 0.832762
0.088212 0.764888 0.900223
0.088005 0.764681 0.967684
0.087857 0.764533 1.000000
0.089000 0.833343 0.000000
0.088852 0.833195 0.021184
0.088645 0.832988 0.088645
0.088438 0.832782 0.156106
0.088231 0.832575 0.223566
0.088024 0.832368 0.291027
0.087818 0.832161 0.358488
0.087611 0.831954 0.425949
0.087404 0.831747 0.493409
0.087197 0.831541 0.560870
0.086990 0.831334 0.628331
0.086783 0.831127 0.695792
0.086577 0.830920 0.763252
0.086370 0.830713 0.830713
0.086163 0.830506 0.898174
0.085956 0.830299 0.965635
0.085808 0.830151 1.000000
0.086951 0.898962 0.000000
0.086803 0.898814 0.019135
0.086596 0.898607 0.086596
0.086389 0.898400 0.154057
0.086182 0.898193 0.221517
0.085975 0.897987 0.288978
0.085769 0.897780 0.356439
0.085562 0.897573 0.423900
0.085355 0.897366 0.491360
0.085148 0.897159 0.558821
0.084941 0.896952 0.626282
0.084734 0.896745 0.693743
0.084527 0.896539 0.761203
0.084321 0.896332 0.828664
0.084114 0.896125 0.896125
0.083907 0.895918 0.963586
0.083759 0.895770 1.000000
0.084902 0.964581 0.000000
0.084754 0.964432 0.017086
0.084547 0.964226 0.084547
0.084340 0.964019 0.152008
0.084133 0.963812 0.219468
0.083926 0.963605 0.286929
0.083720 0.963398 0.354390
0.083513 0.963191 0.421851
0.083306 0.962985 0.489311
0.083099 0.962778 0.556772
0.082892 0.962571 0.624233
0.082685 0.962364 0.691694
0.082478 0.962157 0.759154
0.082272 0.961950 0.826615
0.082065 0.961743 0.894076
0.081858 0.961537 0.961537
0.081710 0.961389 1.000000
0.083435 1.000000 0.000000
0.083287 1.000000 0.015620
0.083080 1.000000 0.083080
0.082874 1.000000 0.150541
0.082667 1.000000 0.218002
0.082460 1.000000 0.285463
0.082253 1.000000 0.352923
0.082046 1.000000 0.420384
0.081839 1.000000 0.487845
0.081632 1.000000 0.555306
0.081426 1.000000 0.622766
0.081219 1.000000 0.690227
0.081012 1.000000 0.757688
0.080805 1.000000 0.825149
0.080598 1.000000 0.892609
0.080391 1.000000 0.960070
0.080243 1.000000 1.000000
0.182113 0.000000 0.000000
0.181965 0.000000 0.046630
0.181758 0.000000 0.114091
0.181551 0.000000 0.181551
0.181345 0.000000 0.249012
0.181138 0.000000 0.316473
0.180931 0.000000 0.383934
0.180724 0.000000 0.451394
0.180517 0.000000 0.518855
0.180310 0.000000 0.586316
0.180103 0.000000 0.653777
0.179897 0.000000 0.721237
0.179690 0.000000 0.788698
0.179483 0.000000 0.856159
0.179276 0.000000 0.923620
0.179069 0.000000 0.991080
0.178921 0.000000 1.000000
0.180647 0.045311 0.000000
