skills/editops-orchestrator/assets/grade/luts/product_clean_v02.cube
TITLE "product_clean_v02"
LUT_3D_SIZE 9
DOMAIN_MIN 0.0 0.0 0.0
DOMAIN_MAX 1.0 1.0 1.0
0.000000 0.000000 0.000000
0.000000 0.000000 0.124377
0.000000 0.000000 0.250073
0.000000 0.000000 0.375769
0.000000 0.000000 0.501465
0.000000 0.000000 0.627161
0.000000 0.000000 0.752857
0.000000 0.000000 0.878553
0.000000 0.000000 1.000000
0.000000 0.124125 0.000000
0.000000 0.124096 0.124096
0.000000 0.124068 0.249793
0.000000 0.124039 0.375489
0.000000 0.124011 0.501185
0.000000 0.123982 0.626881
0.000000 0.123954 0.752577
0.000000 0.123925 0.878273
0.000000 0.123897 1.000000
0.000000 0.249566 0.000000
0.000000 0.249538 0.123813
0.000000 0.249510 0.249510
0.000000 0.249481 0.375206
0.000000 0.249452 0.500902
0.000000 0.249424 0.626598
0.000000 0.249395 0.752294
0.000000 0.249367 0.877990
0.000000 0.249338 1.000000
0.000000 0.375008 0.000000
0.000000 0.374980 0.123530
0.000000 0.374951 0.249226
0.000000 0.374923 0.374923
0.000000 0.374894 0.500619
0.000000 0.374865 0.626315
0.000000 0.374837 0.752011
0.000000 0.374808 0.877707
0.000000 0.374780 1.000000
0.000000 0.500450 0.000000
0.000000 0.500421 0.123247
0.000000 0.500393 0.248943
0.000000 0.500364 0.374640
0.000000 0.500336 0.500336
0.000000 0.500307 0.626032
0.000000 0.500279 0.751728
0.000000 0.500250 0.877424
0.000000 0.500222 1.000000
0.000000 0.625891 0.000000
0.000000 0.625863 0.122964
0.000000 0.625834 0.248660
0.000000 0.625806 0.374356
0.000000 0.625777 0.500053
0.000000 0.625749 0.625749
0.000000 0.625720 0.751445
0.000000 0.625692 0.877141
0.000000 0.625663 1.000000
0.000000 0.751333 0.000000
0.000000 0.751305 0.122681
0.000000 0.751276 0.248377
0.000000 0.751248 0.374073
0.000000 0.751219 0.499770
0.000000 0.751190 0.625466
0.000000 0.751162 0.751162
0.000000 0.751133 0.876858
0.000000 0.751105 1.000000
0.000000 0.876775 0.000000
0.000000 0.876746 0.122398
0.000000 0.876718 0.248094
0.000000 0.876689 0.373790
0.000000 0.876661 0.499487
0.000000 0.876632 0.625183
0.000000 0.876604 0.750879
0.000000 0.876575 0.876575
0.000000 0.876547 1.000000
0.000000 1.000000 0.000000
0.000000 1.000000 0.122118
0.000000 1.000000 0.247814
0.000000 1.000000 0.373510
0.000000 1.000000 0.499206
0.000000 1.000000 0.624903
0.000000 1.000000 0.750599
0.000000 1.000000 0.876295
0.000000 1.000000 1.000000
0.124322 0.000000 0.000000
0.124293 0.000000 0.124293
0.124265 0.000000 0.249989
0.124236 0.000000 0.375686
0.124208 0.000000 0.501382
0.124179 0.000000 0.627078
0.124150 0.000000 0.752774
0.124122 0.000000 0.878470
0.124094 0.000000 1.000000
0.124041 0.124041 0.000000
0.124013 0.124013 0.124013
0.123985 0.123985 0.249709
0.123956 0.123956 0.375405
0.123927 0.123927 0.501102
0.123899 0.123899 0.626798
0.123870 0.123870 0.752494
0.123842 0.123842 0.878190
0.123813 0.123813 1.000000
0.123758 0.249483 0.000000
0.123730 0.249455 0.123730
0.123702 0.249426 0.249426
0.123673 0.249398 0.375122
0.123644 0.249369 0.500819
0.123616 0.249341 0.626515
0.123587 0.249312 0.752211
0.123559 0.249283 0.877907
0.123530 0.249255 1.000000
0.123475 0.374925 0.000000
0.123447 0.374896 0.123447
0.123418 0.374868 0.249143
0.123390 0.374839 0.374839
0.123361 0.374811 0.500535
0.123333 0.374782 0.626232
0.123304 0.374754 0.751928
0.123276 0.374725 0.877624
0.123247 0.374697 1.000000
0.123192 0.500366 0.000000
0.123164 0.500338 0.123164
0.123135 0.500310 0.248860
0.123107 0.500281 0.374556
0.123078 0.500252 0.500252
0.123050 0.500224 0.625949
0.123021 0.500195 0.751645
0.122993 0.500167 0.877341
0.122964 0.500138 1.000000
0.122909 0.625808 0.000000
0.122881 0.625780 0.122881
0.122852 0.625751 0.248577
0.122824 0.625723 0.374273
0.122795 0.625694 0.499969
0.122767 0.625666 0.625666
0.122738 0.625637 0.751362
0.122709 0.625608 0.877058
0.122681 0.625580 1.000000
0.122626 0.751250 0.000000
0.122598 0.751221 0.122598
0.122569 0.751193 0.248294
0.122541 0.751164 0.373990
0.122512 0.751136 0.499686
0.122484 0.751107 0.625382
0.122455 0.751079 0.751079
0.122426 0.751050 0.876775
0.122398 0.751022 1.000000
0.122343 0.876691 0.000000
0.122315 0.876663 0.122315
0.122286 0.876635 0.248011
0.122258 0.876606 0.373707
0.122229 0.876577 0.499403
0.122201 0.876549 0.625099
0.122172 0.876520 0.750796
0.122143 0.876492 0.876492
0.122115 0.876463 1.000000
0.122063 1.000000 0.000000
0.122035 1.000000 0.122035
0.122006 1.000000 0.247731
0.121978 1.000000 0.373427
0.121949 1.000000 0.499123
0.121920 1.000000 0.624819
0.121892 1.000000 0.750515
0.121863 1.000000 0.876212
0.121835 1.000000 1.000000
0.249962 0.000000 0.000000
0.249934 0.000000 0.124209
0.249905 0.000000 0.249905
0.249877 0.000000 0.375601
0.249848 0.000000 0.501298
0.249820 0.000000 0.626994
0.249791 0.000000 0.752690
0.249762 0.000000 0.878386
0.249734 0.000000 1.000000
0.249682 0.123957 0.000000
0.249654 0.123929 0.123929
0.249625 0.123900 0.249625
0.249597 0.123872 0.375321
0.249568 0.123843 0.501017
0.249539 0.123815 0.626714
0.249511 0.123786 0.752410
0.249482 0.123758 0.878106
0.249454 0.123729 1.000000
0.249399 0.249399 0.000000
0.249371 0.249371 0.123646
0.249342 0.249342 0.249342
0.249314 0.249314 0.375038
0.249285 0.249285 0.500734
0.249256 0.249256 0.626431
0.249228 0.249228 0.752127
0.249199 0.249199 0.877823
0.249171 0.249171 1.000000
0.249116 0.374841 0.000000
0.249088 0.374812 0.123363
0.249059 0.374784 0.249059
0.249030 0.374755 0.374755
0.249002 0.374727 0.500451
0.248973 0.374698 0.626147
0.248945 0.374669 0.751844
0.248916 0.374641 0.877540
0.248888 0.374613 1.000000
0.248833 0.500282 0.000000
0.248805 0.500254 0.123080
0.248776 0.500225 0.248776
0.248747 0.500197 0.374472
0.248719 0.500168 0.500168
0.248690 0.500140 0.625864
0.248662 0.500111 0.751561
0.248633 0.500083 0.877257
0.248605 0.500054 1.000000
0.248550 0.625724 0.000000
0.248522 0.625696 0.122797
0.248493 0.625667 0.248493
0.248464 0.625639 0.374189
0.248436 0.625610 0.499885
0.248407 0.625581 0.625581
0.248379 0.625553 0.751278
0.248350 0.625524 0.876974
0.248322 0.625496 1.000000
0.248267 0.751166 0.000000
0.248238 0.751137 0.122514
0.248210 0.751109 0.248210
0.248181 0.751080 0.373906
0.248153 0.751052 0.499602
0.248124 0.751023 0.625298
0.248096 0.750994 0.750994
0.248067 0.750966 0.876691
0.248039 0.750938 1.000000
0.247984 0.876607 0.000000
0.247955 0.876579 0.122231
0.247927 0.876550 0.247927
0.247898 0.876522 0.373623
0.247870 0.876493 0.499319
0.247841 0.876465 0.625015
0.247813 0.876436 0.750711
0.247784 0.876408 0.876408
0.247756 0.876379 1.000000
0.247704 1.000000 0.000000
0.247675 1.000000 0.121951
0.247647 1.000000 0.247647
0.247618 1.000000 0.373343
0.247590 1.000000 0.499039
0.247561 1.000000 0.624735
0.247532 1.000000 0.750431
0.247504 1.000000 0.876127
0.247476 1.000000 1.000000
0.375603 0.000000 0.000000
0.375574 0.000000 0.124125
0.375546 0.000000 0.249821
0.375517 0.000000 0.375517
0.375489 0.000000 0.501213
0.375460 0.000000 0.626910
0.375432 0.000000 0.752606
0.375403 0.000000 0.878302
0.375375 0.000000 1.000000
0.375323 0.123873 0.000000
0.375294 0.123845 0.123845
0.375266 0.123816 0.249541
0.375237 0.123788 0.375237
0.375209 0.123759 0.500933
0.375180 0.123731 0.626629
0.375151 0.123702 0.752326
0.375123 0.123673 0.878022
0.375095 0.123645 1.000000
0.375040 0.249315 0.000000
0.375011 0.249287 0.123562
0.374983 0.249258 0.249258
0.374954 0.249229 0.374954
0.374926 0.249201 0.500650
0.374897 0.249172 0.626346
0.374868 0.249144 0.752043
0.374840 0.249115 0.877739
0.374812 0.249087 1.000000
0.374756 0.374756 0.000000
0.374728 0.374728 0.123279
0.374700 0.374700 0.248975
0.374671 0.374671 0.374671
0.374642 0.374642 0.500367
0.374614 0.374614 0.626063
0.374585 0.374585 0.751759
0.374557 0.374557 0.877456
0.374528 0.374528 1.000000
0.374473 0.500198 0.000000
0.374445 0.500170 0.122996
0.374417 0.500141 0.248692
0.374388 0.500113 0.374388
0.374359 0.500084 0.500084
0.374331 0.500056 0.625780
0.374302 0.500027 0.751476
0.374274 0.499998 0.877173
0.374245 0.499970 1.000000
0.374190 0.625640 0.000000
0.374162 0.625612 0.122713
0.374134 0.625583 0.248409
0.374105 0.625554 0.374105
0.374076 0.625526 0.499801
0.374048 0.625497 0.625497
0.374019 0.625469 0.751193
0.373991 0.625440 0.876890
0.373962 0.625412 1.000000
0.373907 0.751081 0.000000
0.373879 0.751053 0.122430
0.373850 0.751025 0.248126
0.373822 0.750996 0.373822
0.373793 0.750967 0.499518
0.373765 0.750939 0.625214
0.373736 0.750910 0.750910
0.373708 0.750882 0.876606
0.373679 0.750853 1.000000
0.373624 0.876523 0.000000
0.373596 0.876495 0.122147
0.373567 0.876466 0.247843
0.373539 0.876438 0.373539
0.373510 0.876409 0.499235
0.373482 0.876381 0.624931
0.373453 0.876352 0.750627
0.373425 0.876323 0.876323
0.373396 0.876295 1.000000
0.373344 1.000000 0.000000
0.373316 1.000000 0.121866
0.373287 1.000000 0.247563
0.373259 1.000000 0.373259
0.373230 1.000000 0.498955
0.373202 1.000000 0.624651
0.373173 1.000000 0.750347
0.373144 1.000000 0.876043
0.373116 1.000000 1.000000
0.501243 0.000000 0.000000
0.501215 0.000000 0.124041
0.501186 0.000000 0.249737
0.501158 0.000000 0.375433
0.501129 0.000000 0.501129
0.501101 0.000000 0.626825
0.501072 0.000000 0.752522
0.501044 0.000000 0.878218
0.501015 0.000000 1.000000
0.500963 0.123789 0.000000
0.500935 0.123761 0.123761
0.500906 0.123732 0.249457
0.500878 0.123704 0.375153
0.500849 0.123675 0.500849
0.500821 0.123646 0.626545
0.500792 0.123618 0.752241
0.500763 0.123589 0.877938
0.500735 0.123561 1.000000
0.500680 0.249231 0.000000
0.500652 0.249202 0.123478
0.500623 0.249174 0.249174
0.500595 0.249145 0.374870
0.500566 0.249117 0.500566
0.500538 0.249088 0.626262
0.500509 0.249060 0.751958
0.500480 0.249031 0.877655
0.500452 0.249003 1.000000
0.500397 0.374672 0.000000
0.500369 0.374644 0.123195
0.500340 0.374615 0.248891
0.500312 0.374587 0.374587
0.500283 0.374558 0.500283
0.500254 0.374530 0.625979
0.500226 0.374501 0.751675
0.500197 0.374473 0.877372
0.500169 0.374444 1.000000
0.500114 0.500114 0.000000
0.500086 0.500086 0.122912
0.500057 0.500057 0.248608
0.500029 0.500029 0.374304
0.500000 0.500000 0.500000
0.499971 0.499971 0.625696
0.499943 0.499943 0.751392
0.499914 0.499914 0.877088
0.499886 0.499886 1.000000
0.499831 0.625556 0.000000
0.499803 0.625527 0.122628
0.499774 0.625499 0.248325
0.499746 0.625470 0.374021
0.499717 0.625442 0.499717
0.499688 0.625413 0.625413
0.499660 0.625385 0.751109
0.499631 0.625356 0.876805
0.499603 0.625328 1.000000
0.499548 0.750997 0.000000
0.499520 0.750969 0.122345
0.499491 0.750940 0.248042
0.499462 0.750912 0.373738
0.499434 0.750883 0.499434
0.499405 0.750855 0.625130
0.499377 0.750826 0.750826
0.499348 0.750798 0.876522
0.499320 0.750769 1.000000
0.499265 0.876439 0.000000
0.499237 0.876411 0.122062
0.499208 0.876382 0.247759
0.499179 0.876354 0.373455
0.499151 0.876325 0.499151
0.499122 0.876296 0.624847
0.499094 0.876268 0.750543
0.499065 0.876239 0.876239
0.499037 0.876211 1.000000
0.498985 1.000000 0.000000
0.498956 1.000000 0.121782
0.498928 1.000000 0.247478
0.498899 1.000000 0.373175
0.498871 1.000000 0.498871
0.498842 1.000000 0.624567
0.498814 1.000000 0.750263
0.498785 1.000000 0.875959
0.498757 1.000000 1.000000
0.626884 0.000000 0.000000
0.626856 0.000000 0.123957
0.626827 0.000000 0.249653
0.626798 0.000000 0.375349
0.626770 0.000000 0.501045
0.626741 0.000000 0.626741
0.626713 0.000000 0.752437
0.626684 0.000000 0.878134
0.626656 0.000000 1.000000
0.626604 0.123705 0.000000
0.626575 0.123677 0.123677
0.626547 0.123648 0.249373
0.626518 0.123619 0.375069
0.626490 0.123591 0.500765
0.626461 0.123562 0.626461
0.626433 0.123534 0.752157
0.626404 0.123505 0.877853
0.626376 0.123477 1.000000
0.626321 0.249147 0.000000
0.626292 0.249118 0.123394
0.626264 0.249090 0.249090
0.626235 0.249061 0.374786
0.626207 0.249033 0.500482
0.626178 0.249004 0.626178
0.626150 0.248975 0.751874
0.626121 0.248947 0.877570
0.626093 0.248919 1.000000
0.626038 0.374588 0.000000
0.626009 0.374560 0.123110
0.625981 0.374531 0.248807
0.625952 0.374503 0.374503
0.625924 0.374474 0.500199
0.625895 0.374446 0.625895
0.625866 0.374417 0.751591
0.625838 0.374388 0.877287
0.625810 0.374360 1.000000
0.625755 0.500030 0.000000
0.625726 0.500002 0.122827
0.625698 0.499973 0.248524
0.625669 0.499944 0.374220
0.625641 0.499916 0.499916
0.625612 0.499887 0.625612
0.625583 0.499859 0.751308
0.625555 0.499830 0.877004
0.625527 0.499802 1.000000
0.625472 0.625472 0.000000
0.625443 0.625443 0.122544
0.625415 0.625415 0.248241
0.625386 0.625386 0.373937
0.625358 0.625358 0.499633
0.625329 0.625329 0.625329
0.625300 0.625300 0.751025
0.625272 0.625272 0.876721
0.625244 0.625244 1.000000
0.625188 0.750913 0.000000
0.625160 0.750885 0.122261
0.625132 0.750856 0.247957
0.625103 0.750828 0.373654
0.625074 0.750799 0.499350
0.625046 0.750771 0.625046
0.625017 0.750742 0.750742
0.624989 0.750713 0.876438
0.624960 0.750685 1.000000
0.624905 0.876355 0.000000
0.624877 0.876327 0.121978
0.624849 0.876298 0.247674
0.624820 0.876269 0.373371
0.624791 0.876241 0.499067
0.624763 0.876212 0.624763
0.624734 0.876184 0.750459
0.624706 0.876155 0.876155
0.624677 0.876127 1.000000
0.624625 1.000000 0.000000
0.624597 1.000000 0.121698
0.624568 1.000000 0.247394
0.624540 1.000000 0.373090
0.624511 1.000000 0.498787
0.624483 1.000000 0.624483
0.624454 1.000000 0.750179
0.624426 1.000000 0.875875
0.624397 1.000000 1.000000
0.752524 0.000000 0.000000
0.752496 0.000000 0.123873
0.752468 0.000000 0.249569
0.752439 0.000000 0.375265
0.752410 0.000000 0.500961
0.752382 0.000000 0.626657
0.752353 0.000000 0.752353
0.752325 0.000000 0.878049
0.752296 0.000000 1.000000
0.752244 0.123621 0.000000
0.752216 0.123592 0.123592
0.752187 0.123564 0.249289
0.752159 0.123535 0.374985
0.752130 0.123507 0.500681
0.752102 0.123478 0.626377
0.752073 0.123450 0.752073
0.752045 0.123421 0.877769
0.752016 0.123393 1.000000
0.751961 0.249062 0.000000
0.751933 0.249034 0.123309
0.751904 0.249006 0.249006
0.751876 0.248977 0.374702
0.751847 0.248948 0.500398
0.751819 0.248920 0.626094
0.751790 0.248891 0.751790
0.751762 0.248863 0.877486
0.751733 0.248834 1.000000
0.751678 0.374504 0.000000
0.751650 0.374476 0.123026
0.751621 0.374447 0.248722
0.751593 0.374419 0.374419
0.751564 0.374390 0.500115
0.751536 0.374361 0.625811
0.751507 0.374333 0.751507
0.751478 0.374304 0.877203
0.751450 0.374276 1.000000
0.751395 0.499946 0.000000
0.751367 0.499917 0.122743
0.751338 0.499889 0.248439
0.751310 0.499860 0.374136
0.751281 0.499832 0.499832
0.751253 0.499803 0.625528
0.751224 0.499775 0.751224
0.751195 0.499746 0.876920
0.751167 0.499718 1.000000
0.751112 0.625387 0.000000
0.751084 0.625359 0.122460
0.751055 0.625331 0.248156
0.751027 0.625302 0.373853
0.750998 0.625273 0.499549
0.750970 0.625245 0.625245
0.750941 0.625216 0.750941
0.750912 0.625188 0.876637
0.750884 0.625159 1.000000
0.750829 0.750829 0.000000
0.750801 0.750801 0.122177
0.750772 0.750772 0.247873
0.750744 0.750744 0.373569
0.750715 0.750715 0.499266
0.750686 0.750686 0.624962
0.750658 0.750658 0.750658
0.750629 0.750629 0.876354
0.750601 0.750601 1.000000
0.750546 0.876271 0.000000
0.750518 0.876242 0.121894
0.750489 0.876214 0.247590
0.750461 0.876185 0.373286
0.750432 0.876157 0.498983
0.750403 0.876128 0.624679
0.750375 0.876100 0.750375
0.750346 0.876071 0.876071
0.750318 0.876043 1.000000
0.750266 1.000000 0.000000
0.750238 1.000000 0.121614
0.750209 1.000000 0.247310
0.750180 1.000000 0.373006
0.750152 1.000000 0.498702
0.750123 1.000000 0.624399
0.750095 1.000000 0.750095
0.750066 1.000000 0.875791
0.750038 1.000000 1.000000
0.878165 0.000000 0.000000
0.878137 0.000000 0.123788
0.878108 0.000000 0.249485
0.878080 0.000000 0.375181
0.878051 0.000000 0.500877
0.878022 0.000000 0.626573
0.877994 0.000000 0.752269
0.877965 0.000000 0.877965
0.877937 0.000000 1.000000
0.877885 0.123537 0.000000
0.877857 0.123508 0.123508
0.877828 0.123480 0.249204
0.877799 0.123451 0.374901
0.877771 0.123423 0.500597
0.877742 0.123394 0.626293
0.877714 0.123365 0.751989
0.877685 0.123337 0.877685
0.877657 0.123309 1.000000
0.877602 0.248978 0.000000
0.877574 0.248950 0.123225
0.877545 0.248921 0.248921
0.877516 0.248893 0.374618
0.877488 0.248864 0.500314
0.877459 0.248836 0.626010
0.877431 0.248807 0.751706
0.877402 0.248779 0.877402
0.877374 0.248750 1.000000
0.877319 0.374420 0.000000
0.877291 0.374392 0.122942
0.877262 0.374363 0.248638
0.877233 0.374334 0.374334
0.877205 0.374306 0.500031
0.877176 0.374277 0.625727
0.877148 0.374249 0.751423
0.877119 0.374220 0.877119
0.877091 0.374192 1.000000
0.877036 0.499862 0.000000
0.877007 0.499833 0.122659
0.876979 0.499805 0.248355
0.876950 0.499776 0.374051
0.876922 0.499748 0.499748
0.876893 0.499719 0.625444
0.876865 0.499690 0.751140
0.876836 0.499662 0.876836
0.876808 0.499634 1.000000
0.876753 0.625303 0.000000
0.876724 0.625275 0.122376
0.876696 0.625246 0.248072
0.876667 0.625218 0.373768
0.876639 0.625189 0.499465
0.876610 0.625161 0.625161
0.876582 0.625132 0.750857
0.876553 0.625104 0.876553
0.876525 0.625075 1.000000
0.876470 0.750745 0.000000
0.876441 0.750717 0.122093
0.876413 0.750688 0.247789
0.876384 0.750659 0.373485
0.876356 0.750631 0.499181
0.876327 0.750602 0.624878
0.876298 0.750574 0.750574
0.876270 0.750545 0.876270
0.876242 0.750517 1.000000
0.876187 0.876187 0.000000
0.876158 0.876158 0.121810
0.876130 0.876130 0.247506
0.876101 0.876101 0.373202
0.876073 0.876073 0.498898
0.876044 0.876044 0.624595
0.876015 0.876015 0.750291
0.875987 0.875987 0.875987
0.875959 0.875959 1.000000
0.875906 1.000000 0.000000
0.875878 1.000000 0.121530
0.875850 1.000000 0.247226
0.875821 1.000000 0.372922
0.875792 1.000000 0.498618
0.875764 1.000000 0.624314
0.875735 1.000000 0.750011
0.875707 1.000000 0.875707
0.875678 1.000000 1.000000
1.000000 0.000000 0.000000
1.000000 0.000000 0.123705
1.000000 0.000000 0.249401
1.000000 0.000000 0.375097
1.000000 0.000000 0.500794
1.000000 0.000000 0.626490
1.000000 0.000000 0.752186
1.000000 0.000000 0.877882
1.000000 0.000000 1.000000
1.000000 0.123453 0.000000
1.000000 0.123425 0.123425
1.000000 0.123396 0.249121
1.000000 0.123368 0.374817
1.000000 0.123339 0.500513
1.000000 0.123311 0.626210
1.000000 0.123282 0.751906
1.000000 0.123254 0.877602
1.000000 0.123225 1.000000
1.000000 0.248895 0.000000
1.000000 0.248867 0.123142
1.000000 0.248838 0.248838
1.000000 0.248810 0.374534
1.000000 0.248781 0.500230
1.000000 0.248752 0.625927
1.000000 0.248724 0.751623
1.000000 0.248695 0.877319
1.000000 0.248667 1.000000
1.000000 0.374337 0.000000
1.000000 0.374308 0.122859
1.000000 0.374280 0.248555
1.000000 0.374251 0.374251
1.000000 0.374223 0.499947
1.000000 0.374194 0.625644
1.000000 0.374166 0.751340
1.000000 0.374137 0.877036
1.000000 0.374109 1.000000
1.000000 0.499778 0.000000
1.000000 0.499750 0.122576
1.000000 0.499721 0.248272
1.000000 0.499693 0.373968
1.000000 0.499664 0.499664
1.000000 0.499636 0.625360
1.000000 0.499607 0.751057
1.000000 0.499579 0.876753
1.000000 0.499550 1.000000
1.000000 0.625220 0.000000
1.000000 0.625192 0.122293
1.000000 0.625163 0.247989
1.000000 0.625135 0.373685
1.000000 0.625106 0.499381
1.000000 0.625077 0.625077
1.000000 0.625049 0.750774
1.000000 0.625020 0.876470
1.000000 0.624992 1.000000
1.000000 0.750662 0.000000
1.000000 0.750633 0.122010
1.000000 0.750605 0.247706
1.000000 0.750576 0.373402
1.000000 0.750548 0.499098
1.000000 0.750519 0.624794
1.000000 0.750490 0.750490
1.000000 0.750462 0.876187
1.000000 0.750434 1.000000
1.000000 0.876103 0.000000
1.000000 0.876075 0.121727
1.000000 0.876046 0.247423
1.000000 0.876018 0.373119
1.000000 0.875989 0.498815
1.000000 0.875961 0.624511
1.000000 0.875932 0.750207
1.000000 0.875904 0.875904
1.000000 0.875875 1.000000
1.000000 1.000000 0.000000
1.000000 1.000000 0.121447
1.000000 1.000000 0.247143
1.000000 1.000000 0.372839
1.000000 1.000000 0.498535
1.000000 1.000000 0.624231
1.000000 1.000000 0.749927
1.000000 1.000000 0.875623
1.000000 1.000000 1.000000
