skills/editops-orchestrator/assets/grade/luts/product_clean_v10.cube
TITLE "product_clean_v10"
LUT_3D_SIZE 9
DOMAIN_MIN 0.0 0.0 0.0
DOMAIN_MAX 1.0 1.0 1.0
0.000000 0.000000 0.000000
0.000000 0.000000 0.119180
0.000000 0.000000 0.250515
0.000000 0.000000 0.381850
0.000000 0.000000 0.513185
0.000000 0.000000 0.644519
0.000000 0.000000 0.775854
0.000000 0.000000 0.907189
0.000000 0.000000 1.000000
0.000000 0.117058 0.000000
0.000000 0.116820 0.116820
0.000000 0.116557 0.248155
0.000000 0.116295 0.379489
0.000000 0.116032 0.510824
0.000000 0.115770 0.642159
0.000000 0.115507 0.773494
0.000000 0.115245 0.904828
0.000000 0.115006 1.000000
0.000000 0.246055 0.000000
0.000000 0.245816 0.114219
0.000000 0.245554 0.245554
0.000000 0.245291 0.376888
0.000000 0.245029 0.508223
0.000000 0.244766 0.639558
0.000000 0.244503 0.770893
0.000000 0.244241 0.902227
0.000000 0.244003 1.000000
0.000000 0.375051 0.000000
0.000000 0.374813 0.111618
0.000000 0.374550 0.242953
0.000000 0.374287 0.374287
0.000000 0.374025 0.505622
0.000000 0.373762 0.636957
0.000000 0.373500 0.768292
0.000000 0.373237 0.899626
0.000000 0.372999 1.000000
0.000000 0.504047 0.000000
0.000000 0.503809 0.109017
0.000000 0.503546 0.240352
0.000000 0.503284 0.371686
0.000000 0.503021 0.503021
0.000000 0.502759 0.634356
0.000000 0.502496 0.765691
0.000000 0.502233 0.897025
0.000000 0.501995 1.000000
0.000000 0.633043 0.000000
0.000000 0.632805 0.106416
0.000000 0.632543 0.237751
0.000000 0.632280 0.369085
0.000000 0.632017 0.500420
0.000000 0.631755 0.631755
0.000000 0.631492 0.763090
0.000000 0.631230 0.894424
0.000000 0.630991 1.000000
0.000000 0.762040 0.000000
0.000000 0.761801 0.103815
0.000000 0.761539 0.235150
0.000000 0.761276 0.366484
0.000000 0.761014 0.497819
0.000000 0.760751 0.629154
0.000000 0.760489 0.760489
0.000000 0.760226 0.891823
0.000000 0.759988 1.000000
0.000000 0.891036 0.000000
0.000000 0.890798 0.101214
0.000000 0.890535 0.232549
0.000000 0.890273 0.363883
0.000000 0.890010 0.495218
0.000000 0.889747 0.626553
0.000000 0.889485 0.757888
0.000000 0.889222 0.889222
0.000000 0.888984 1.000000
0.000000 1.000000 0.000000
0.000000 1.000000 0.098854
0.000000 1.000000 0.230188
0.000000 1.000000 0.361523
0.000000 1.000000 0.492858
0.000000 1.000000 0.624193
0.000000 1.000000 0.755527
0.000000 1.000000 0.886862
0.000000 1.000000 1.000000
0.118717 0.000000 0.000000
0.118479 0.000000 0.118479
0.118216 0.000000 0.249813
0.117954 0.000000 0.381148
0.117691 0.000000 0.512483
0.117428 0.000000 0.643818
0.117166 0.000000 0.775152
0.116903 0.000000 0.906487
0.116665 0.000000 1.000000
0.116357 0.116357 0.000000
0.116118 0.116118 0.116118
0.115856 0.115856 0.247453
0.115593 0.115593 0.378788
0.115331 0.115331 0.510123
0.115068 0.115068 0.641457
0.114806 0.114806 0.772792
0.114543 0.114543 0.904127
0.114305 0.114305 1.000000
0.113756 0.245353 0.000000
0.113517 0.245115 0.113517
0.113255 0.244852 0.244852
0.112992 0.244590 0.376187
0.112730 0.244327 0.507522
0.112467 0.244064 0.638856
0.112205 0.243802 0.770191
0.111942 0.243539 0.901526
0.111704 0.243301 1.000000
0.111155 0.374349 0.000000
0.110916 0.374111 0.110916
0.110654 0.373848 0.242251
0.110391 0.373586 0.373586
0.110129 0.373323 0.504921
0.109866 0.373061 0.636255
0.109604 0.372798 0.767590
0.109341 0.372536 0.898925
0.109103 0.372297 1.000000
0.108554 0.503346 0.000000
0.108315 0.503107 0.108315
0.108053 0.502845 0.239650
0.107790 0.502582 0.370985
0.107528 0.502320 0.502320
0.107265 0.502057 0.633654
0.107002 0.501794 0.764989
0.106740 0.501532 0.896324
0.106502 0.501294 1.000000
0.105953 0.632342 0.000000
0.105714 0.632104 0.105714
0.105452 0.631841 0.237049
0.105189 0.631578 0.368384
0.104927 0.631316 0.499719
0.104664 0.631053 0.631053
0.104401 0.630791 0.762388
0.104139 0.630528 0.893723
0.103901 0.630290 1.000000
0.103352 0.761338 0.000000
0.103113 0.761100 0.103113
0.102851 0.760837 0.234448
0.102588 0.760575 0.365783
0.102326 0.760312 0.497117
0.102063 0.760050 0.628452
0.101800 0.759787 0.759787
0.101538 0.759524 0.891122
0.101300 0.759286 1.000000
0.100751 0.890334 0.000000
0.100512 0.890096 0.100512
0.100250 0.889834 0.231847
0.099987 0.889571 0.363182
0.099725 0.889308 0.494516
0.099462 0.889046 0.625851
0.099199 0.888783 0.757186
0.098937 0.888521 0.888521
0.098699 0.888282 1.000000
0.098390 1.000000 0.000000
0.098152 1.000000 0.098152
0.097889 1.000000 0.229487
0.097627 1.000000 0.360821
0.097364 1.000000 0.492156
0.097102 1.000000 0.623491
0.096839 1.000000 0.754826
0.096577 1.000000 0.886160
0.096338 1.000000 1.000000
0.249541 0.000000 0.000000
0.249303 0.000000 0.117706
0.249040 0.000000 0.249040
0.248778 0.000000 0.380375
0.248515 0.000000 0.511710
0.248253 0.000000 0.643044
0.247990 0.000000 0.774379
0.247727 0.000000 0.905714
0.247489 0.000000 1.000000
0.247181 0.115584 0.000000
0.246943 0.115345 0.115345
0.246680 0.115083 0.246680
0.246417 0.114820 0.378015
0.246155 0.114558 0.509349
0.245892 0.114295 0.640684
0.245630 0.114032 0.772019
0.245367 0.113770 0.903354
0.245129 0.113532 1.000000
0.244580 0.244580 0.000000
0.244342 0.244342 0.112744
0.244079 0.244079 0.244079
0.243816 0.243816 0.375414
0.243554 0.243554 0.506748
0.243291 0.243291 0.638083
0.243029 0.243029 0.769418
0.242766 0.242766 0.900753
0.242528 0.242528 1.000000
0.241979 0.373576 0.000000
0.241741 0.373338 0.110143
0.241478 0.373075 0.241478
0.241215 0.372813 0.372813
0.240953 0.372550 0.504147
0.240690 0.372288 0.635482
0.240428 0.372025 0.766817
0.240165 0.371762 0.898152
0.239927 0.371524 1.000000
0.239378 0.502572 0.000000
0.239139 0.502334 0.107542
0.238877 0.502072 0.238877
0.238614 0.501809 0.370212
0.238352 0.501546 0.501546
0.238089 0.501284 0.632881
0.237827 0.501021 0.764216
0.237564 0.500759 0.895551
0.237326 0.500520 1.000000
0.236777 0.631569 0.000000
0.236538 0.631330 0.104941
0.236276 0.631068 0.236276
0.236013 0.630805 0.367611
0.235751 0.630543 0.498945
0.235488 0.630280 0.630280
0.235226 0.630017 0.761615
0.234963 0.629755 0.892950
0.234725 0.629517 1.000000
0.234176 0.760565 0.000000
0.233937 0.760327 0.102340
0.233675 0.760064 0.233675
0.233412 0.759801 0.365010
0.233150 0.759539 0.496344
0.232887 0.759276 0.627679
0.232625 0.759014 0.759014
0.232362 0.758751 0.890348
0.232124 0.758513 1.000000
0.231575 0.889561 0.000000
0.231336 0.889323 0.099739
0.231074 0.889060 0.231074
0.230811 0.888798 0.362409
0.230549 0.888535 0.493743
0.230286 0.888273 0.625078
0.230024 0.888010 0.756413
0.229761 0.887747 0.887747
0.229523 0.887509 1.000000
0.229214 1.000000 0.000000
0.228976 1.000000 0.097379
0.228714 1.000000 0.228714
0.228451 1.000000 0.360048
0.228188 1.000000 0.491383
0.227926 1.000000 0.622718
0.227663 1.000000 0.754052
0.227401 1.000000 0.885387
0.227162 1.000000 1.000000
0.380365 0.000000 0.000000
0.380127 0.000000 0.116932
0.379864 0.000000 0.248267
0.379602 0.000000 0.379602
0.379339 0.000000 0.510937
0.379077 0.000000 0.642271
0.378814 0.000000 0.773606
0.378552 0.000000 0.904941
0.378313 0.000000 1.000000
0.378005 0.114810 0.000000
0.377767 0.114572 0.114572
0.377504 0.114309 0.245907
0.377242 0.114047 0.377242
0.376979 0.113784 0.508576
0.376716 0.113522 0.639911
0.376454 0.113259 0.771246
0.376191 0.112997 0.902580
0.375953 0.112758 1.000000
0.375404 0.243807 0.000000
0.375166 0.243568 0.111971
0.374903 0.243306 0.243306
0.374640 0.243043 0.374640
0.374378 0.242781 0.505975
0.374115 0.242518 0.637310
0.373853 0.242255 0.768645
0.373590 0.241993 0.899979
0.373352 0.241755 1.000000
0.372803 0.372803 0.000000
0.372565 0.372565 0.109370
0.372302 0.372302 0.240705
0.372039 0.372039 0.372039
0.371777 0.371777 0.503374
0.371514 0.371514 0.634709
0.371252 0.371252 0.766044
0.370989 0.370989 0.897378
0.370751 0.370751 1.000000
0.370202 0.501799 0.000000
0.369964 0.501561 0.106769
0.369701 0.501298 0.238104
0.369438 0.501036 0.369438
0.369176 0.500773 0.500773
0.368913 0.500511 0.632108
0.368651 0.500248 0.763443
0.368388 0.499985 0.894777
0.368150 0.499747 1.000000
0.367601 0.630795 0.000000
0.367363 0.630557 0.104168
0.367100 0.630295 0.235503
0.366837 0.630032 0.366837
0.366575 0.629769 0.498172
0.366312 0.629507 0.629507
0.366050 0.629244 0.760842
0.365787 0.628982 0.892176
0.365549 0.628743 1.000000
0.365000 0.759792 0.000000
0.364762 0.759553 0.101567
0.364499 0.759291 0.232902
0.364236 0.759028 0.364236
0.363974 0.758766 0.495571
0.363711 0.758503 0.626906
0.363449 0.758241 0.758241
0.363186 0.757978 0.889575
0.362948 0.757740 1.000000
0.362399 0.888788 0.000000
0.362161 0.888550 0.098966
0.361898 0.888287 0.230301
0.361635 0.888025 0.361635
0.361373 0.887762 0.492970
0.361110 0.887499 0.624305
0.360848 0.887237 0.755640
0.360585 0.886974 0.886974
0.360347 0.886736 1.000000
0.360039 1.000000 0.000000
0.359800 1.000000 0.096606
0.359538 1.000000 0.227940
0.359275 1.000000 0.359275
0.359013 1.000000 0.490610
0.358750 1.000000 0.621945
0.358487 1.000000 0.753279
0.358225 1.000000 0.884614
0.357987 1.000000 1.000000
0.511189 0.000000 0.000000
0.510951 0.000000 0.116159
0.510689 0.000000 0.247494
0.510426 0.000000 0.378829
0.510163 0.000000 0.510163
0.509901 0.000000 0.641498
0.509638 0.000000 0.772833
0.509376 0.000000 0.904168
0.509137 0.000000 1.000000
0.508829 0.114037 0.000000
0.508591 0.113799 0.113799
0.508328 0.113536 0.245134
0.508066 0.113274 0.376468
0.507803 0.113011 0.507803
0.507540 0.112749 0.639138
0.507278 0.112486 0.770473
0.507015 0.112223 0.901807
0.506777 0.111985 1.000000
0.506228 0.243033 0.000000
0.505990 0.242795 0.111198
0.505727 0.242533 0.242533
0.505465 0.242270 0.373867
0.505202 0.242007 0.505202
0.504939 0.241745 0.636537
0.504677 0.241482 0.767871
0.504414 0.241220 0.899206
0.504176 0.240981 1.000000
0.503627 0.372030 0.000000
0.503389 0.371791 0.108597
0.503126 0.371529 0.239932
0.502864 0.371266 0.371266
0.502601 0.371004 0.502601
0.502338 0.370741 0.633936
0.502076 0.370479 0.765270
0.501813 0.370216 0.896605
0.501575 0.369978 1.000000
0.501026 0.501026 0.000000
0.500788 0.500788 0.105996
0.500525 0.500525 0.237331
0.500263 0.500263 0.368665
0.500000 0.500000 0.500000
0.499737 0.499737 0.631335
0.499475 0.499475 0.762669
0.499212 0.499212 0.894004
0.498974 0.498974 1.000000
0.498425 0.630022 0.000000
0.498187 0.629784 0.103395
0.497924 0.629521 0.234730
0.497662 0.629259 0.366064
0.497399 0.628996 0.497399
0.497136 0.628734 0.628734
0.496874 0.628471 0.760068
0.496611 0.628209 0.891403
0.496373 0.627970 1.000000
0.495824 0.759019 0.000000
0.495586 0.758780 0.100794
0.495323 0.758518 0.232129
0.495061 0.758255 0.363463
0.494798 0.757993 0.494798
0.494535 0.757730 0.626133
0.494273 0.757467 0.757467
0.494010 0.757205 0.888802
0.493772 0.756967 1.000000
0.493223 0.888015 0.000000
0.492985 0.887777 0.098193
0.492722 0.887514 0.229527
0.492460 0.887251 0.360862
0.492197 0.886989 0.492197
0.491934 0.886726 0.623532
0.491672 0.886464 0.754866
0.491409 0.886201 0.886201
0.491171 0.885963 1.000000
0.490863 1.000000 0.000000
0.490624 1.000000 0.095832
0.490362 1.000000 0.227167
0.490099 1.000000 0.358502
0.489837 1.000000 0.489837
0.489574 1.000000 0.621171
0.489311 1.000000 0.752506
0.489049 1.000000 0.883841
0.488811 1.000000 1.000000
0.642013 0.000000 0.000000
0.641775 0.000000 0.115386
0.641513 0.000000 0.246721
0.641250 0.000000 0.378055
0.640987 0.000000 0.509390
0.640725 0.000000 0.640725
0.640462 0.000000 0.772060
0.640200 0.000000 0.903394
0.639961 0.000000 1.000000
0.639653 0.113264 0.000000
0.639415 0.113026 0.113026
0.639152 0.112763 0.244360
0.638890 0.112501 0.375695
0.638627 0.112238 0.507030
0.638365 0.111975 0.638365
0.638102 0.111713 0.769699
0.637839 0.111450 0.901034
0.637601 0.111212 1.000000
0.637052 0.242260 0.000000
0.636814 0.242022 0.110425
0.636551 0.241759 0.241759
0.636289 0.241497 0.373094
0.636026 0.241234 0.504429
0.635764 0.240972 0.635764
0.635501 0.240709 0.767098
0.635238 0.240447 0.898433
0.635000 0.240208 1.000000
0.634451 0.371257 0.000000
0.634213 0.371018 0.107824
0.633950 0.370756 0.239158
0.633688 0.370493 0.370493
0.633425 0.370231 0.501828
0.633163 0.369968 0.633163
0.632900 0.369705 0.764497
0.632637 0.369443 0.895832
0.632399 0.369205 1.000000
0.631850 0.500253 0.000000
0.631612 0.500015 0.105223
0.631349 0.499752 0.236557
0.631087 0.499489 0.367892
0.630824 0.499227 0.499227
0.630562 0.498964 0.630562
0.630299 0.498702 0.761896
0.630036 0.498439 0.893231
0.629798 0.498201 1.000000
0.629249 0.629249 0.000000
0.629011 0.629011 0.102622
0.628748 0.628748 0.233956
0.628486 0.628486 0.365291
0.628223 0.628223 0.496626
0.627961 0.627961 0.627961
0.627698 0.627698 0.759295
0.627435 0.627435 0.890630
0.627197 0.627197 1.000000
0.626648 0.758245 0.000000
0.626410 0.758007 0.100021
0.626147 0.757745 0.231355
0.625885 0.757482 0.362690
0.625622 0.757219 0.494025
0.625360 0.756957 0.625360
0.625097 0.756694 0.756694
0.624834 0.756432 0.888029
0.624596 0.756193 1.000000
0.624047 0.887242 0.000000
0.623809 0.887003 0.097420
0.623546 0.886741 0.228754
0.623284 0.886478 0.360089
0.623021 0.886216 0.491424
0.622758 0.885953 0.622758
0.622496 0.885691 0.754093
0.622233 0.885428 0.885428
0.621995 0.885190 1.000000
0.621687 1.000000 0.000000
0.621448 1.000000 0.095059
0.621186 1.000000 0.226394
0.620923 1.000000 0.357729
0.620661 1.000000 0.489063
0.620398 1.000000 0.620398
0.620136 1.000000 0.751733
0.619873 1.000000 0.883068
0.619635 1.000000 1.000000
0.772838 0.000000 0.000000
0.772599 0.000000 0.114613
0.772337 0.000000 0.245948
0.772074 0.000000 0.377282
0.771812 0.000000 0.508617
0.771549 0.000000 0.639952
0.771286 0.000000 0.771286
0.771024 0.000000 0.902621
0.770786 0.000000 1.000000
0.770477 0.112491 0.000000
0.770239 0.112253 0.112253
0.769976 0.111990 0.243587
0.769714 0.111727 0.374922
0.769451 0.111465 0.506257
0.769189 0.111202 0.637591
0.768926 0.110940 0.768926
0.768664 0.110677 0.900261
0.768425 0.110439 1.000000
0.767876 0.241487 0.000000
0.767638 0.241249 0.109652
0.767375 0.240986 0.240986
0.767113 0.240724 0.372321
0.766850 0.240461 0.503656
0.766588 0.240199 0.634990
0.766325 0.239936 0.766325
0.766063 0.239673 0.897660
0.765824 0.239435 1.000000
0.765275 0.370483 0.000000
0.765037 0.370245 0.107050
0.764774 0.369983 0.238385
0.764512 0.369720 0.369720
0.764249 0.369457 0.501055
0.763987 0.369195 0.632389
0.763724 0.368932 0.763724
0.763462 0.368670 0.895059
0.763223 0.368431 1.000000
0.762674 0.499480 0.000000
0.762436 0.499241 0.104449
0.762173 0.498979 0.235784
0.761911 0.498716 0.367119
0.761648 0.498454 0.498454
0.761386 0.498191 0.629788
0.761123 0.497928 0.761123
0.760861 0.497666 0.892458
0.760622 0.497428 1.000000
0.760073 0.628476 0.000000
0.759835 0.628238 0.101848
0.759572 0.627975 0.233183
0.759310 0.627712 0.364518
0.759047 0.627450 0.495853
0.758785 0.627187 0.627187
0.758522 0.626925 0.758522
0.758259 0.626662 0.889857
0.758021 0.626424 1.000000
0.757472 0.757472 0.000000
0.757234 0.757234 0.099247
0.756971 0.756971 0.230582
0.756709 0.756709 0.361917
0.756446 0.756446 0.493252
0.756184 0.756184 0.624586
0.755921 0.755921 0.755921
0.755658 0.755658 0.887256
0.755420 0.755420 1.000000
0.754871 0.886468 0.000000
0.754633 0.886230 0.096646
0.754370 0.885968 0.227981
0.754108 0.885705 0.359316
0.753845 0.885442 0.490651
0.753583 0.885180 0.621985
0.753320 0.884917 0.753320
0.753057 0.884655 0.884655
0.752819 0.884416 1.000000
0.752511 1.000000 0.000000
0.752273 1.000000 0.094286
0.752010 1.000000 0.225621
0.751747 1.000000 0.356956
0.751485 1.000000 0.488290
0.751222 1.000000 0.619625
0.750960 1.000000 0.750960
0.750697 1.000000 0.882294
0.750459 1.000000 1.000000
0.903662 0.000000 0.000000
0.903423 0.000000 0.113840
0.903161 0.000000 0.245174
0.902898 0.000000 0.376509
0.902636 0.000000 0.507844
0.902373 0.000000 0.639179
0.902111 0.000000 0.770513
0.901848 0.000000 0.901848
0.901610 0.000000 1.000000
0.901301 0.111718 0.000000
0.901063 0.111479 0.111479
0.900801 0.111217 0.242814
0.900538 0.110954 0.374149
0.900275 0.110692 0.505484
0.900013 0.110429 0.636818
0.899750 0.110166 0.768153
0.899488 0.109904 0.899488
0.899249 0.109666 1.000000
0.898700 0.240714 0.000000
0.898462 0.240476 0.108878
0.898200 0.240213 0.240213
0.897937 0.239950 0.371548
0.897674 0.239688 0.502883
0.897412 0.239425 0.634217
0.897149 0.239163 0.765552
0.896887 0.238900 0.896887
0.896648 0.238662 1.000000
0.896099 0.369710 0.000000
0.895861 0.369472 0.106277
0.895599 0.369209 0.237612
0.895336 0.368947 0.368947
0.895073 0.368684 0.500281
0.894811 0.368422 0.631616
0.894548 0.368159 0.762951
0.894286 0.367896 0.894286
0.894047 0.367658 1.000000
0.893498 0.498706 0.000000
0.893260 0.498468 0.103676
0.892998 0.498206 0.235011
0.892735 0.497943 0.366346
0.892472 0.497680 0.497680
0.892210 0.497418 0.629015
0.891947 0.497155 0.760350
0.891685 0.496893 0.891685
0.891446 0.496654 1.000000
0.890897 0.627703 0.000000
0.890659 0.627464 0.101075
0.890396 0.627202 0.232410
0.890134 0.626939 0.363745
0.889871 0.626677 0.495079
0.889609 0.626414 0.626414
0.889346 0.626152 0.757749
0.889084 0.625889 0.889084
0.888845 0.625651 1.000000
0.888296 0.756699 0.000000
0.888058 0.756461 0.098474
0.887795 0.756198 0.229809
0.887533 0.755936 0.361144
0.887270 0.755673 0.492478
0.887008 0.755410 0.623813
0.886745 0.755148 0.755148
0.886483 0.754885 0.886483
0.886244 0.754647 1.000000
0.885695 0.885695 0.000000
0.885457 0.885457 0.095873
0.885194 0.885194 0.227208
0.884932 0.884932 0.358543
0.884669 0.884669 0.489877
0.884407 0.884407 0.621212
0.884144 0.884144 0.752547
0.883882 0.883882 0.883882
0.883643 0.883643 1.000000
0.883335 1.000000 0.000000
0.883097 1.000000 0.093513
0.882834 1.000000 0.224848
0.882572 1.000000 0.356182
0.882309 1.000000 0.487517
0.882046 1.000000 0.618852
0.881784 1.000000 0.750187
0.881521 1.000000 0.881521
0.881283 1.000000 1.000000
1.000000 0.000000 0.000000
1.000000 0.000000 0.113138
1.000000 0.000000 0.244473
1.000000 0.000000 0.375807
1.000000 0.000000 0.507142
1.000000 0.000000 0.638477
1.000000 0.000000 0.769812
1.000000 0.000000 0.901146
1.000000 0.000000 1.000000
1.000000 0.111016 0.000000
1.000000 0.110778 0.110778
1.000000 0.110515 0.242112
1.000000 0.110253 0.373447
1.000000 0.109990 0.504782
1.000000 0.109727 0.636117
1.000000 0.109465 0.767451
1.000000 0.109202 0.898786
1.000000 0.108964 1.000000
1.000000 0.240012 0.000000
1.000000 0.239774 0.108177
1.000000 0.239511 0.239511
1.000000 0.239249 0.370846
1.000000 0.238986 0.502181
1.000000 0.238724 0.633516
1.000000 0.238461 0.764850
1.000000 0.238199 0.896185
1.000000 0.237960 1.000000
1.000000 0.369009 0.000000
1.000000 0.368770 0.105576
1.000000 0.368508 0.236910
1.000000 0.368245 0.368245
1.000000 0.367983 0.499580
1.000000 0.367720 0.630915
1.000000 0.367457 0.762249
1.000000 0.367195 0.893584
1.000000 0.366957 1.000000
1.000000 0.498005 0.000000
1.000000 0.497767 0.102975
1.000000 0.497504 0.234309
1.000000 0.497241 0.365644
1.000000 0.496979 0.496979
1.000000 0.496716 0.628314
1.000000 0.496454 0.759648
1.000000 0.496191 0.890983
1.000000 0.495953 1.000000
1.000000 0.627001 0.000000
1.000000 0.626763 0.100374
1.000000 0.626500 0.231708
1.000000 0.626238 0.363043
1.000000 0.625975 0.494378
1.000000 0.625713 0.625713
1.000000 0.625450 0.757047
1.000000 0.625187 0.888382
1.000000 0.624949 1.000000
1.000000 0.755997 0.000000
1.000000 0.755759 0.097773
1.000000 0.755497 0.229107
1.000000 0.755234 0.360442
1.000000 0.754971 0.491777
1.000000 0.754709 0.623112
1.000000 0.754446 0.754446
1.000000 0.754184 0.885781
1.000000 0.753945 1.000000
1.000000 0.884994 0.000000
1.000000 0.884755 0.095172
1.000000 0.884493 0.226506
1.000000 0.884230 0.357841
1.000000 0.883968 0.489176
1.000000 0.883705 0.620511
1.000000 0.883443 0.751845
1.000000 0.883180 0.883180
1.000000 0.882942 1.000000
1.000000 1.000000 0.000000
1.000000 1.000000 0.092811
1.000000 1.000000 0.224146
1.000000 1.000000 0.355481
1.000000 1.000000 0.486815
1.000000 1.000000 0.618150
1.000000 1.000000 0.749485
1.000000 1.000000 0.880820
1.000000 1.000000 1.000000
