skills/editops-orchestrator/assets/grade/luts/product_clean_v15.cube
TITLE "product_clean_v15"
LUT_3D_SIZE 9
DOMAIN_MIN 0.0 0.0 0.0
DOMAIN_MAX 1.0 1.0 1.0
0.000000 0.000000 0.000000
0.000000 0.000000 0.115745
0.000000 0.000000 0.250666
0.000000 0.000000 0.385588
0.000000 0.000000 0.520509
0.000000 0.000000 0.655431
0.000000 0.000000 0.790352
0.000000 0.000000 0.925274
0.000000 0.000000 1.000000
0.000000 0.112584 0.000000
0.000000 0.112229 0.112229
0.000000 0.111816 0.247151
0.000000 0.111402 0.382072
0.000000 0.110988 0.516994
0.000000 0.110574 0.651915
0.000000 0.110161 0.786837
0.000000 0.109747 0.921758
0.000000 0.109392 1.000000
0.000000 0.243821 0.000000
0.000000 0.243466 0.108131
0.000000 0.243053 0.243053
0.000000 0.242639 0.377974
0.000000 0.242225 0.512896
0.000000 0.241812 0.647817
0.000000 0.241398 0.782739
0.000000 0.240984 0.917660
0.000000 0.240629 1.000000
0.000000 0.375058 0.000000
0.000000 0.374704 0.104033
0.000000 0.374290 0.238955
0.000000 0.373876 0.373876
0.000000 0.373462 0.508798
0.000000 0.373049 0.643719
0.000000 0.372635 0.778641
0.000000 0.372221 0.913562
0.000000 0.371866 1.000000
0.000000 0.506296 0.000000
0.000000 0.505941 0.099935
0.000000 0.505527 0.234857
0.000000 0.505113 0.369778
0.000000 0.504700 0.504700
0.000000 0.504286 0.639621
0.000000 0.503872 0.774543
0.000000 0.503458 0.909464
0.000000 0.503104 1.000000
0.000000 0.637533 0.000000
0.000000 0.637178 0.095837
0.000000 0.636764 0.230759
0.000000 0.636350 0.365680
0.000000 0.635937 0.500602
0.000000 0.635523 0.635523
0.000000 0.635109 0.770445
0.000000 0.634696 0.905366
0.000000 0.634341 1.000000
0.000000 0.768770 0.000000
0.000000 0.768415 0.091739
0.000000 0.768001 0.226661
0.000000 0.767588 0.361582
0.000000 0.767174 0.496504
0.000000 0.766760 0.631425
0.000000 0.766346 0.766346
0.000000 0.765933 0.901268
0.000000 0.765578 1.000000
0.000000 0.900007 0.000000
0.000000 0.899652 0.087641
0.000000 0.899238 0.222563
0.000000 0.898825 0.357484
0.000000 0.898411 0.492405
0.000000 0.897997 0.627327
0.000000 0.897584 0.762248
0.000000 0.897170 0.897170
0.000000 0.896815 1.000000
0.000000 1.000000 0.000000
0.000000 1.000000 0.084125
0.000000 1.000000 0.219047
0.000000 1.000000 0.353968
0.000000 1.000000 0.488890
0.000000 1.000000 0.623811
0.000000 1.000000 0.758733
0.000000 1.000000 0.893654
0.000000 1.000000 1.000000
0.115055 0.000000 0.000000
0.114700 0.000000 0.114700
0.114286 0.000000 0.249621
0.113872 0.000000 0.384543
0.113459 0.000000 0.519464
0.113045 0.000000 0.654386
0.112631 0.000000 0.789307
0.112218 0.000000 0.924229
0.111863 0.000000 1.000000
0.111539 0.111539 0.000000
0.111184 0.111184 0.111184
0.110771 0.110771 0.246106
0.110357 0.110357 0.381027
0.109943 0.109943 0.515949
0.109529 0.109529 0.650870
0.109116 0.109116 0.785792
0.108702 0.108702 0.920713
0.108347 0.108347 1.000000
0.107441 0.242776 0.000000
0.107086 0.242421 0.107086
0.106672 0.242008 0.242008
0.106259 0.241594 0.376929
0.105845 0.241180 0.511851
0.105431 0.240767 0.646772
0.105018 0.240353 0.781694
0.104604 0.239939 0.916615
0.104249 0.239584 1.000000
0.103343 0.374013 0.000000
0.102988 0.373658 0.102988
0.102574 0.373245 0.237910
0.102161 0.372831 0.372831
0.101747 0.372417 0.507753
0.101333 0.372004 0.642674
0.100920 0.371590 0.777596
0.100506 0.371176 0.912517
0.100151 0.370821 1.000000
0.099245 0.505251 0.000000
0.098890 0.504896 0.098890
0.098476 0.504482 0.233812
0.098063 0.504068 0.368733
0.097649 0.503655 0.503655
0.097235 0.503241 0.638576
0.096822 0.502827 0.773498
0.096408 0.502413 0.908419
0.096053 0.502059 1.000000
0.095147 0.636488 0.000000
0.094792 0.636133 0.094792
0.094378 0.635719 0.229714
0.093965 0.635305 0.364635
0.093551 0.634892 0.499557
0.093137 0.634478 0.634478
0.092724 0.634064 0.769399
0.092310 0.633651 0.904321
0.091955 0.633296 1.000000
0.091049 0.767725 0.000000
0.090694 0.767370 0.090694
0.090280 0.766956 0.225616
0.089867 0.766543 0.360537
0.089453 0.766129 0.495458
0.089039 0.765715 0.630380
0.088626 0.765301 0.765301
0.088212 0.764888 0.900223
0.087857 0.764533 1.000000
0.086951 0.898962 0.000000
0.086596 0.898607 0.086596
0.086182 0.898193 0.221517
0.085769 0.897780 0.356439
0.085355 0.897366 0.491360
0.084941 0.896952 0.626282
0.084527 0.896539 0.761203
0.084114 0.896125 0.896125
0.083759 0.895770 1.000000
0.083435 1.000000 0.000000
0.083080 1.000000 0.083080
0.082667 1.000000 0.218002
0.082253 1.000000 0.352923
0.081839 1.000000 0.487845
0.081426 1.000000 0.622766
0.081012 1.000000 0.757688
0.080598 1.000000 0.892609
0.080243 1.000000 1.000000
0.249172 0.000000 0.000000
0.248817 0.000000 0.113482
0.248403 0.000000 0.248403
0.247989 0.000000 0.383325
0.247576 0.000000 0.518246
0.247162 0.000000 0.653168
0.246748 0.000000 0.788089
0.246335 0.000000 0.923010
0.245980 0.000000 1.000000
0.245656 0.110321 0.000000
0.245301 0.109966 0.109966
0.244888 0.109552 0.244888
0.244474 0.109139 0.379809
0.244060 0.108725 0.514730
0.243646 0.108311 0.649652
0.243233 0.107898 0.784573
0.242819 0.107484 0.919495
0.242464 0.107129 1.000000
0.241558 0.241558 0.000000
0.241203 0.241203 0.105868
0.240789 0.240789 0.240789
0.240376 0.240376 0.375711
0.239962 0.239962 0.510632
0.239548 0.239548 0.645554
0.239135 0.239135 0.780475
0.238721 0.238721 0.915397
0.238366 0.238366 1.000000
0.237460 0.372795 0.000000
0.237105 0.372440 0.101770
0.236691 0.372027 0.236691
0.236278 0.371613 0.371613
0.235864 0.371199 0.506534
0.235450 0.370786 0.641456
0.235037 0.370372 0.776377
0.234623 0.369958 0.911299
0.234268 0.369603 1.000000
0.233362 0.504032 0.000000
0.233007 0.503677 0.097672
0.232593 0.503264 0.232593
0.232180 0.502850 0.367515
0.231766 0.502436 0.502436
0.231352 0.502023 0.637358
0.230939 0.501609 0.772279
0.230525 0.501195 0.907201
0.230170 0.500840 1.000000
0.229264 0.635270 0.000000
0.228909 0.634915 0.093574
0.228495 0.634501 0.228495
0.228082 0.634087 0.363417
0.227668 0.633674 0.498338
0.227254 0.633260 0.633260
0.226841 0.632846 0.768181
0.226427 0.632432 0.903103
0.226072 0.632078 1.000000
0.225166 0.766507 0.000000
0.224811 0.766152 0.089476
0.224397 0.765738 0.224397
0.223984 0.765324 0.359319
0.223570 0.764911 0.494240
0.223156 0.764497 0.629162
0.222743 0.764083 0.764083
0.222329 0.763670 0.899005
0.221974 0.763315 1.000000
0.221068 0.897744 0.000000
0.220713 0.897389 0.085378
0.220299 0.896975 0.220299
0.219886 0.896561 0.355221
0.219472 0.896148 0.490142
0.219058 0.895734 0.625064
0.218644 0.895320 0.759985
0.218231 0.894907 0.894907
0.217876 0.894552 1.000000
0.217552 1.000000 0.000000
0.217197 1.000000 0.081862
0.216784 1.000000 0.216784
0.216370 1.000000 0.351705
0.215956 1.000000 0.486627
0.215543 1.000000 0.621548
0.215129 1.000000 0.756470
0.214715 1.000000 0.891391
0.214360 1.000000 1.000000
0.383289 0.000000 0.000000
0.382934 0.000000 0.112263
0.382520 0.000000 0.247185
0.382106 0.000000 0.382106
0.381693 0.000000 0.517028
0.381279 0.000000 0.651949
0.380865 0.000000 0.786871
0.380452 0.000000 0.921792
0.380097 0.000000 1.000000
0.379773 0.109103 0.000000
0.379418 0.108748 0.108748
0.379005 0.108334 0.243669
0.378591 0.107920 0.378591
0.378177 0.107507 0.513512
0.377763 0.107093 0.648434
0.377350 0.106679 0.783355
0.376936 0.106266 0.918277
0.376581 0.105911 1.000000
0.375675 0.240340 0.000000
0.375320 0.239985 0.104650
0.374906 0.239571 0.239571
0.374493 0.239158 0.374493
0.374079 0.238744 0.509414
0.373665 0.238330 0.644336
0.373252 0.237916 0.779257
0.372838 0.237503 0.914179
0.372483 0.237148 1.000000
0.371577 0.371577 0.000000
0.371222 0.371222 0.100552
0.370808 0.370808 0.235473
0.370395 0.370395 0.370395
0.369981 0.369981 0.505316
0.369567 0.369567 0.640238
0.369154 0.369154 0.775159
0.368740 0.368740 0.910081
0.368385 0.368385 1.000000
0.367479 0.502814 0.000000
0.367124 0.502459 0.096454
0.366710 0.502046 0.231375
0.366297 0.501632 0.366297
0.365883 0.501218 0.501218
0.365469 0.500804 0.636140
0.365056 0.500391 0.771061
0.364642 0.499977 0.905983
0.364287 0.499622 1.000000
0.363381 0.634051 0.000000
0.363026 0.633696 0.092356
0.362612 0.633283 0.227277
0.362199 0.632869 0.362199
0.361785 0.632455 0.497120
0.361371 0.632042 0.632042
0.360958 0.631628 0.766963
0.360544 0.631214 0.901885
0.360189 0.630859 1.000000
0.359283 0.765288 0.000000
0.358928 0.764934 0.088258
0.358514 0.764520 0.223179
0.358101 0.764106 0.358101
0.357687 0.763692 0.493022
0.357273 0.763279 0.627944
0.356860 0.762865 0.762865
0.356446 0.762451 0.897787
0.356091 0.762096 1.000000
0.355185 0.896526 0.000000
0.354830 0.896171 0.084160
0.354416 0.895757 0.219081
0.354003 0.895343 0.354003
0.353589 0.894930 0.488924
0.353175 0.894516 0.623846
0.352761 0.894102 0.758767
0.352348 0.893689 0.893689
0.351993 0.893334 1.000000
0.351669 1.000000 0.000000
0.351314 1.000000 0.080644
0.350901 1.000000 0.215566
0.350487 1.000000 0.350487
0.350073 1.000000 0.485408
0.349660 1.000000 0.620330
0.349246 1.000000 0.755251
0.348832 1.000000 0.890173
0.348477 1.000000 1.000000
0.517406 0.000000 0.000000
0.517051 0.000000 0.111045
0.516637 0.000000 0.245967
0.516223 0.000000 0.380888
0.515810 0.000000 0.515810
0.515396 0.000000 0.650731
0.514982 0.000000 0.785653
0.514569 0.000000 0.920574
0.514214 0.000000 1.000000
0.513890 0.107885 0.000000
0.513535 0.107530 0.107530
0.513122 0.107116 0.242451
0.512708 0.106702 0.377373
0.512294 0.106289 0.512294
0.511880 0.105875 0.647216
0.511467 0.105461 0.782137
0.511053 0.105047 0.917059
0.510698 0.104693 1.000000
0.509792 0.239122 0.000000
0.509437 0.238767 0.103432
0.509023 0.238353 0.238353
0.508610 0.237939 0.373275
0.508196 0.237526 0.508196
0.507782 0.237112 0.643118
0.507369 0.236698 0.778039
0.506955 0.236285 0.912961
0.506600 0.235930 1.000000
0.505694 0.370359 0.000000
0.505339 0.370004 0.099334
0.504925 0.369590 0.234255
0.504512 0.369177 0.369177
0.504098 0.368763 0.504098
0.503684 0.368349 0.639020
0.503271 0.367935 0.773941
0.502857 0.367522 0.908862
0.502502 0.367167 1.000000
0.501596 0.501596 0.000000
0.501241 0.501241 0.095236
0.500827 0.500827 0.230157
0.500414 0.500414 0.365079
0.500000 0.500000 0.500000
0.499586 0.499586 0.634921
0.499173 0.499173 0.769843
0.498759 0.498759 0.904764
0.498404 0.498404 1.000000
0.497498 0.632833 0.000000
0.497143 0.632478 0.091138
0.496729 0.632065 0.226059
0.496316 0.631651 0.360980
0.495902 0.631237 0.495902
0.495488 0.630823 0.630823
0.495075 0.630410 0.765745
0.494661 0.629996 0.900666
0.494306 0.629641 1.000000
0.493400 0.764070 0.000000
0.493045 0.763715 0.087039
0.492631 0.763302 0.221961
0.492218 0.762888 0.356882
0.491804 0.762474 0.491804
0.491390 0.762061 0.626725
0.490977 0.761647 0.761647
0.490563 0.761233 0.896568
0.490208 0.760878 1.000000
0.489302 0.895307 0.000000
0.488947 0.894953 0.082941
0.488533 0.894539 0.217863
0.488120 0.894125 0.352784
0.487706 0.893711 0.487706
0.487292 0.893298 0.622627
0.486878 0.892884 0.757549
0.486465 0.892470 0.892470
0.486110 0.892115 1.000000
0.485786 1.000000 0.000000
0.485431 1.000000 0.079426
0.485018 1.000000 0.214347
0.484604 1.000000 0.349269
0.484190 1.000000 0.484190
0.483777 1.000000 0.619112
0.483363 1.000000 0.754033
0.482949 1.000000 0.888955
0.482594 1.000000 1.000000
0.651523 0.000000 0.000000
0.651168 0.000000 0.109827
0.650754 0.000000 0.244749
0.650340 0.000000 0.379670
0.649927 0.000000 0.514592
0.649513 0.000000 0.649513
0.649099 0.000000 0.784434
0.648686 0.000000 0.919356
0.648331 0.000000 1.000000
0.648007 0.106666 0.000000
0.647652 0.106311 0.106311
0.647239 0.105898 0.241233
0.646825 0.105484 0.376154
0.646411 0.105070 0.511076
0.645997 0.104657 0.645997
0.645584 0.104243 0.780919
0.645170 0.103829 0.915840
0.644815 0.103474 1.000000
0.643909 0.237904 0.000000
0.643554 0.237549 0.102213
0.643140 0.237135 0.237135
0.642727 0.236721 0.372056
0.642313 0.236308 0.506978
0.641899 0.235894 0.641899
0.641486 0.235480 0.776821
0.641072 0.235066 0.911742
0.640717 0.234712 1.000000
0.639811 0.369141 0.000000
0.639456 0.368786 0.098115
0.639042 0.368372 0.233037
0.638629 0.367958 0.367958
0.638215 0.367545 0.502880
0.637801 0.367131 0.637801
0.637388 0.366717 0.772723
0.636974 0.366304 0.907644
0.636619 0.365949 1.000000
0.635713 0.500378 0.000000
0.635358 0.500023 0.094017
0.634944 0.499609 0.228939
0.634531 0.499196 0.363860
0.634117 0.498782 0.498782
0.633703 0.498368 0.633703
0.633290 0.497954 0.768625
0.632876 0.497541 0.903546
0.632521 0.497186 1.000000
0.631615 0.631615 0.000000
0.631260 0.631260 0.089919
0.630846 0.630846 0.224841
0.630433 0.630433 0.359762
0.630019 0.630019 0.494684
0.629605 0.629605 0.629605
0.629192 0.629192 0.764527
0.628778 0.628778 0.899448
0.628423 0.628423 1.000000
0.627517 0.762852 0.000000
0.627162 0.762497 0.085821
0.626748 0.762084 0.220743
0.626335 0.761670 0.355664
0.625921 0.761256 0.490586
0.625507 0.760842 0.625507
0.625094 0.760429 0.760429
0.624680 0.760015 0.895350
0.624325 0.759660 1.000000
0.623419 0.894089 0.000000
0.623064 0.893734 0.081723
0.622650 0.893321 0.216645
0.622237 0.892907 0.351566
0.621823 0.892493 0.486488
0.621409 0.892080 0.621409
0.620995 0.891666 0.756331
0.620582 0.891252 0.891252
0.620227 0.890897 1.000000
0.619903 1.000000 0.000000
0.619548 1.000000 0.078208
0.619135 1.000000 0.213129
0.618721 1.000000 0.348051
0.618307 1.000000 0.482972
0.617894 1.000000 0.617894
0.617480 1.000000 0.752815
0.617066 1.000000 0.887737
0.616711 1.000000 1.000000
0.785640 0.000000 0.000000
0.785285 0.000000 0.108609
0.784871 0.000000 0.243530
0.784457 0.000000 0.378452
0.784044 0.000000 0.513373
0.783630 0.000000 0.648295
0.783216 0.000000 0.783216
0.782803 0.000000 0.918138
0.782448 0.000000 1.000000
0.782124 0.105448 0.000000
0.781769 0.105093 0.105093
0.781356 0.104680 0.240015
0.780942 0.104266 0.374936
0.780528 0.103852 0.509858
0.780114 0.103439 0.644779
0.779701 0.103025 0.779701
0.779287 0.102611 0.914622
0.778932 0.102256 1.000000
0.778026 0.236685 0.000000
0.777671 0.236330 0.100995
0.777257 0.235917 0.235917
0.776844 0.235503 0.370838
0.776430 0.235089 0.505760
0.776016 0.234676 0.640681
0.775603 0.234262 0.775603
0.775189 0.233848 0.910524
0.774834 0.233493 1.000000
0.773928 0.367922 0.000000
0.773573 0.367568 0.096897
0.773159 0.367154 0.231819
0.772746 0.366740 0.366740
0.772332 0.366326 0.501662
0.771918 0.365913 0.636583
0.771505 0.365499 0.771505
0.771091 0.365085 0.906426
0.770736 0.364730 1.000000
0.769830 0.499160 0.000000
0.769475 0.498805 0.092799
0.769061 0.498391 0.227721
0.768648 0.497977 0.362642
0.768234 0.497564 0.497564
0.767820 0.497150 0.632485
0.767407 0.496736 0.767407
0.766993 0.496323 0.902328
0.766638 0.495968 1.000000
0.765732 0.630397 0.000000
0.765377 0.630042 0.088701
0.764963 0.629628 0.223623
0.764550 0.629214 0.358544
0.764136 0.628801 0.493466
0.763722 0.628387 0.628387
0.763309 0.627973 0.763309
0.762895 0.627560 0.898230
0.762540 0.627205 1.000000
0.761634 0.761634 0.000000
0.761279 0.761279 0.084603
0.760865 0.760865 0.219525
0.760452 0.760452 0.354446
0.760038 0.760038 0.489368
0.759624 0.759624 0.624289
0.759211 0.759211 0.759211
0.758797 0.758797 0.894132
0.758442 0.758442 1.000000
0.757536 0.892871 0.000000
0.757181 0.892516 0.080505
0.756767 0.892102 0.215427
0.756354 0.891689 0.350348
0.755940 0.891275 0.485270
0.755526 0.890861 0.620191
0.755112 0.890448 0.755112
0.754699 0.890034 0.890034
0.754344 0.889679 1.000000
0.754020 1.000000 0.000000
0.753665 1.000000 0.076990
0.753252 1.000000 0.211911
0.752838 1.000000 0.346832
0.752424 1.000000 0.481754
0.752011 1.000000 0.616675
0.751597 1.000000 0.751597
0.751183 1.000000 0.886518
0.750828 1.000000 1.000000
0.919757 0.000000 0.000000
0.919402 0.000000 0.107391
0.918988 0.000000 0.242312
0.918574 0.000000 0.377234
0.918161 0.000000 0.512155
0.917747 0.000000 0.647077
0.917333 0.000000 0.781998
0.916920 0.000000 0.916920
0.916565 0.000000 1.000000
0.916241 0.104230 0.000000
0.915886 0.103875 0.103875
0.915473 0.103461 0.238797
0.915059 0.103048 0.373718
0.914645 0.102634 0.508640
0.914231 0.102220 0.643561
0.913818 0.101807 0.778483
0.913404 0.101393 0.913404
0.913049 0.101038 1.000000
0.912143 0.235467 0.000000
0.911788 0.235112 0.099777
0.911374 0.234699 0.234699
0.910961 0.234285 0.369620
0.910547 0.233871 0.504542
0.910133 0.233457 0.639463
0.909720 0.233044 0.774384
0.909306 0.232630 0.909306
0.908951 0.232275 1.000000
0.908045 0.366704 0.000000
0.907690 0.366349 0.095679
0.907276 0.365936 0.230601
0.906863 0.365522 0.365522
0.906449 0.365108 0.500443
0.906035 0.364695 0.635365
0.905622 0.364281 0.770286
0.905208 0.363867 0.905208
0.904853 0.363512 1.000000
0.903947 0.497941 0.000000
0.903592 0.497587 0.091581
0.903178 0.497173 0.226502
0.902765 0.496759 0.361424
0.902351 0.496345 0.496345
0.901937 0.495932 0.631267
0.901524 0.495518 0.766188
0.901110 0.495104 0.901110
0.900755 0.494749 1.000000
0.899849 0.629179 0.000000
0.899494 0.628824 0.087483
0.899080 0.628410 0.222404
0.898667 0.627996 0.357326
0.898253 0.627583 0.492247
0.897839 0.627169 0.627169
0.897426 0.626755 0.762090
0.897012 0.626342 0.897012
0.896657 0.625987 1.000000
0.895751 0.760416 0.000000
0.895396 0.760061 0.083385
0.894982 0.759647 0.218306
0.894569 0.759233 0.353228
0.894155 0.758820 0.488149
0.893741 0.758406 0.623071
0.893328 0.757992 0.757992
0.892914 0.757579 0.892914
0.892559 0.757224 1.000000
0.891653 0.891653 0.000000
0.891298 0.891298 0.079287
0.890884 0.890884 0.214208
0.890471 0.890471 0.349130
0.890057 0.890057 0.484051
0.889643 0.889643 0.618973
0.889229 0.889229 0.753894
0.888816 0.888816 0.888816
0.888461 0.888461 1.000000
0.888137 1.000000 0.000000
0.887782 1.000000 0.075771
0.887369 1.000000 0.210693
0.886955 1.000000 0.345614
0.886541 1.000000 0.480536
0.886128 1.000000 0.615457
0.885714 1.000000 0.750379
0.885300 1.000000 0.885300
0.884945 1.000000 1.000000
1.000000 0.000000 0.000000
1.000000 0.000000 0.106346
1.000000 0.000000 0.241267
1.000000 0.000000 0.376189
1.000000 0.000000 0.511110
1.000000 0.000000 0.646032
1.000000 0.000000 0.780953
1.000000 0.000000 0.915875
1.000000 0.000000 1.000000
1.000000 0.103185 0.000000
1.000000 0.102830 0.102830
1.000000 0.102416 0.237752
1.000000 0.102003 0.372673
1.000000 0.101589 0.507595
1.000000 0.101175 0.642516
1.000000 0.100762 0.777437
1.000000 0.100348 0.912359
1.000000 0.099993 1.000000
1.000000 0.234422 0.000000
1.000000 0.234067 0.098732
1.000000 0.233654 0.233654
1.000000 0.233240 0.368575
1.000000 0.232826 0.503496
1.000000 0.232412 0.638418
1.000000 0.231999 0.773339
1.000000 0.231585 0.908261
1.000000 0.231230 1.000000
1.000000 0.365659 0.000000
1.000000 0.365304 0.094634
1.000000 0.364891 0.229555
1.000000 0.364477 0.364477
1.000000 0.364063 0.499398
1.000000 0.363650 0.634320
1.000000 0.363236 0.769241
1.000000 0.362822 0.904163
1.000000 0.362467 1.000000
1.000000 0.496896 0.000000
1.000000 0.496542 0.090536
1.000000 0.496128 0.225457
1.000000 0.495714 0.360379
1.000000 0.495300 0.495300
1.000000 0.494887 0.630222
1.000000 0.494473 0.765143
1.000000 0.494059 0.900065
1.000000 0.493704 1.000000
1.000000 0.628134 0.000000
1.000000 0.627779 0.086438
1.000000 0.627365 0.221359
1.000000 0.626951 0.356281
1.000000 0.626538 0.491202
1.000000 0.626124 0.626124
1.000000 0.625710 0.761045
1.000000 0.625296 0.895967
1.000000 0.624942 1.000000
1.000000 0.759371 0.000000
1.000000 0.759016 0.082340
1.000000 0.758602 0.217261
1.000000 0.758188 0.352183
1.000000 0.757775 0.487104
1.000000 0.757361 0.622026
1.000000 0.756947 0.756947
1.000000 0.756534 0.891869
1.000000 0.756179 1.000000
1.000000 0.890608 0.000000
1.000000 0.890253 0.078242
1.000000 0.889839 0.213163
1.000000 0.889426 0.348085
1.000000 0.889012 0.483006
1.000000 0.888598 0.617928
1.000000 0.888184 0.752849
1.000000 0.887771 0.887771
1.000000 0.887416 1.000000
1.000000 1.000000 0.000000
1.000000 1.000000 0.074726
1.000000 1.000000 0.209648
1.000000 1.000000 0.344569
1.000000 1.000000 0.479491
1.000000 1.000000 0.614412
1.000000 1.000000 0.749334
1.000000 1.000000 0.884255
1.000000 1.000000 1.000000
