skills/editops-orchestrator/assets/grade/luts/product_clean_v11.cube
TITLE "product_clean_v11"
LUT_3D_SIZE 9
DOMAIN_MIN 0.0 0.0 0.0
DOMAIN_MAX 1.0 1.0 1.0
0.000000 0.000000 0.000000
0.000000 0.000000 0.118505
0.000000 0.000000 0.250553
0.000000 0.000000 0.382601
0.000000 0.000000 0.514649
0.000000 0.000000 0.646698
0.000000 0.000000 0.778746
0.000000 0.000000 0.910794
0.000000 0.000000 1.000000
0.000000 0.116167 0.000000
0.000000 0.115905 0.115905
0.000000 0.115612 0.247953
0.000000 0.115320 0.380001
0.000000 0.115027 0.512049
0.000000 0.114735 0.644097
0.000000 0.114442 0.776146
0.000000 0.114150 0.908194
0.000000 0.113887 1.000000
0.000000 0.245610 0.000000
0.000000 0.245348 0.113007
0.000000 0.245055 0.245055
0.000000 0.244763 0.377104
0.000000 0.244470 0.509152
0.000000 0.244178 0.641200
0.000000 0.243885 0.773248
0.000000 0.243593 0.905296
0.000000 0.243330 1.000000
0.000000 0.375054 0.000000
0.000000 0.374791 0.110110
0.000000 0.374499 0.242158
0.000000 0.374206 0.374206
0.000000 0.373914 0.506254
0.000000 0.373621 0.638303
0.000000 0.373329 0.770351
0.000000 0.373036 0.902399
0.000000 0.372774 1.000000
0.000000 0.504497 0.000000
0.000000 0.504234 0.107212
0.000000 0.503942 0.239260
0.000000 0.503649 0.371309
0.000000 0.503357 0.503357
0.000000 0.503064 0.635405
0.000000 0.502772 0.767453
0.000000 0.502479 0.899502
0.000000 0.502217 1.000000
0.000000 0.633940 0.000000
0.000000 0.633678 0.104315
0.000000 0.633385 0.236363
0.000000 0.633093 0.368411
0.000000 0.632800 0.500459
0.000000 0.632508 0.632508
0.000000 0.632215 0.764556
0.000000 0.631923 0.896604
0.000000 0.631660 1.000000
0.000000 0.763383 0.000000
0.000000 0.763121 0.101417
0.000000 0.762828 0.233465
0.000000 0.762536 0.365514
0.000000 0.762243 0.497562
0.000000 0.761951 0.629610
0.000000 0.761658 0.761658
0.000000 0.761366 0.893707
0.000000 0.761103 1.000000
0.000000 0.892827 0.000000
0.000000 0.892564 0.098520
0.000000 0.892272 0.230568
0.000000 0.891979 0.362616
0.000000 0.891687 0.494664
0.000000 0.891394 0.626713
0.000000 0.891102 0.758761
0.000000 0.890809 0.890809
0.000000 0.890547 1.000000
0.000000 1.000000 0.000000
0.000000 1.000000 0.095920
0.000000 1.000000 0.227968
0.000000 1.000000 0.360016
0.000000 1.000000 0.492064
0.000000 1.000000 0.624112
0.000000 1.000000 0.756161
0.000000 1.000000 0.888209
0.000000 1.000000 1.000000
0.117994 0.000000 0.000000
0.117732 0.000000 0.117732
0.117439 0.000000 0.249780
0.117147 0.000000 0.381828
0.116854 0.000000 0.513877
0.116562 0.000000 0.645925
0.116269 0.000000 0.777973
0.115977 0.000000 0.910021
0.115714 0.000000 1.000000
0.115394 0.115394 0.000000
0.115132 0.115132 0.115132
0.114839 0.114839 0.247180
0.114547 0.114547 0.379228
0.114254 0.114254 0.511276
0.113962 0.113962 0.643324
0.113669 0.113669 0.775373
0.113377 0.113377 0.907421
0.113114 0.113114 1.000000
0.112497 0.244837 0.000000
0.112234 0.244575 0.112234
0.111942 0.244282 0.244282
0.111649 0.243990 0.376331
0.111357 0.243697 0.508379
0.111064 0.243405 0.640427
0.110772 0.243112 0.772475
0.110479 0.242820 0.904523
0.110217 0.242557 1.000000
0.109599 0.374281 0.000000
0.109337 0.374018 0.109337
0.109044 0.373726 0.241385
0.108752 0.373433 0.373433
0.108459 0.373141 0.505481
0.108167 0.372848 0.637530
0.107874 0.372556 0.769578
0.107582 0.372263 0.901626
0.107319 0.372001 1.000000
0.106702 0.503724 0.000000
0.106439 0.503461 0.106439
0.106147 0.503169 0.238487
0.105854 0.502876 0.370536
0.105562 0.502584 0.502584
0.105269 0.502291 0.634632
0.104977 0.501999 0.766680
0.104684 0.501706 0.898729
0.104422 0.501444 1.000000
0.103804 0.633167 0.000000
0.103542 0.632905 0.103542
0.103249 0.632612 0.235590
0.102957 0.632320 0.367638
0.102664 0.632027 0.499686
0.102372 0.631735 0.631735
0.102079 0.631442 0.763783
0.101787 0.631150 0.895831
0.101524 0.630887 1.000000
0.100907 0.762610 0.000000
0.100644 0.762348 0.100644
0.100352 0.762055 0.232693
0.100059 0.761763 0.364741
0.099767 0.761470 0.496789
0.099474 0.761178 0.628837
0.099182 0.760885 0.760885
0.098889 0.760593 0.892934
0.098627 0.760330 1.000000
0.098009 0.892054 0.000000
0.097747 0.891791 0.097747
0.097454 0.891499 0.229795
0.097162 0.891206 0.361843
0.096869 0.890914 0.493892
0.096577 0.890621 0.625940
0.096284 0.890329 0.757988
0.095992 0.890036 0.890036
0.095729 0.889774 1.000000
0.095409 1.000000 0.000000
0.095147 1.000000 0.095147
0.094854 1.000000 0.227195
0.094562 1.000000 0.359243
0.094269 1.000000 0.491291
0.093977 1.000000 0.623339
0.093684 1.000000 0.755388
0.093392 1.000000 0.887436
0.093129 1.000000 1.000000
0.249474 0.000000 0.000000
0.249211 0.000000 0.116871
0.248919 0.000000 0.248919
0.248626 0.000000 0.380967
0.248334 0.000000 0.513015
0.248041 0.000000 0.645063
0.247749 0.000000 0.777112
0.247456 0.000000 0.909160
0.247194 0.000000 1.000000
0.246874 0.114533 0.000000
0.246611 0.114270 0.114270
0.246319 0.113978 0.246319
0.246026 0.113685 0.378367
0.245734 0.113393 0.510415
0.245441 0.113100 0.642463
0.245149 0.112808 0.774511
0.244856 0.112515 0.906560
0.244594 0.112253 1.000000
0.243976 0.243976 0.000000
0.243714 0.243714 0.111373
0.243421 0.243421 0.243421
0.243129 0.243129 0.375469
0.242836 0.242836 0.507517
0.242544 0.242544 0.639566
0.242251 0.242251 0.771614
0.241959 0.241959 0.903662
0.241696 0.241696 1.000000
0.241079 0.373419 0.000000
0.240816 0.373157 0.108475
0.240524 0.372864 0.240524
0.240231 0.372572 0.372572
0.239939 0.372279 0.504620
0.239646 0.371987 0.636668
0.239354 0.371694 0.768716
0.239061 0.371402 0.900765
0.238799 0.371139 1.000000
0.238181 0.502863 0.000000
0.237919 0.502600 0.105578
0.237626 0.502308 0.237626
0.237334 0.502015 0.369674
0.237041 0.501723 0.501723
0.236749 0.501430 0.633771
0.236456 0.501138 0.765819
0.236164 0.500845 0.897867
0.235901 0.500583 1.000000
0.235284 0.632306 0.000000
0.235021 0.632043 0.102680
0.234729 0.631751 0.234729
0.234436 0.631458 0.366777
0.234144 0.631166 0.498825
0.233851 0.630873 0.630873
0.233559 0.630581 0.762922
0.233266 0.630288 0.894970
0.233004 0.630026 1.000000
0.232386 0.761749 0.000000
0.232124 0.761487 0.099783
0.231831 0.761194 0.231831
0.231539 0.760902 0.363879
0.231246 0.760609 0.495928
0.230954 0.760317 0.627976
0.230661 0.760024 0.760024
0.230369 0.759732 0.892072
0.230106 0.759469 1.000000
0.229489 0.891192 0.000000
0.229226 0.890930 0.096886
0.228934 0.890637 0.228934
0.228641 0.890345 0.360982
0.228349 0.890052 0.493030
0.228056 0.889760 0.625078
0.227764 0.889467 0.757127
0.227471 0.889175 0.889175
0.227209 0.888912 1.000000
0.226889 1.000000 0.000000
0.226626 1.000000 0.094285
0.226334 1.000000 0.226334
0.226041 1.000000 0.358382
0.225749 1.000000 0.490430
0.225456 1.000000 0.622478
0.225164 1.000000 0.754526
0.224871 1.000000 0.886575
0.224609 1.000000 1.000000
0.380953 0.000000 0.000000
0.380691 0.000000 0.116009
0.380398 0.000000 0.248057
0.380106 0.000000 0.380106
0.379813 0.000000 0.512154
0.379521 0.000000 0.644202
0.379228 0.000000 0.776250
0.378936 0.000000 0.908299
0.378673 0.000000 1.000000
0.378353 0.113671 0.000000
0.378090 0.113409 0.113409
0.377798 0.113116 0.245457
0.377505 0.112824 0.377505
0.377213 0.112531 0.509554
0.376920 0.112239 0.641602
0.376628 0.111946 0.773650
0.376335 0.111654 0.905698
0.376073 0.111391 1.000000
0.375455 0.243115 0.000000
0.375193 0.242852 0.110512
0.374900 0.242560 0.242560
0.374608 0.242267 0.374608
0.374315 0.241975 0.506656
0.374023 0.241682 0.638704
0.373730 0.241390 0.770753
0.373438 0.241097 0.902801
0.373175 0.240835 1.000000
0.372558 0.372558 0.000000
0.372296 0.372296 0.107614
0.372003 0.372003 0.239662
0.371711 0.371711 0.371711
0.371418 0.371418 0.503759
0.371126 0.371126 0.635807
0.370833 0.370833 0.767855
0.370541 0.370541 0.899903
0.370278 0.370278 1.000000
0.369661 0.502001 0.000000
0.369398 0.501739 0.104717
0.369106 0.501446 0.236765
0.368813 0.501154 0.368813
0.368521 0.500861 0.500861
0.368228 0.500569 0.632910
0.367936 0.500276 0.764958
0.367643 0.499984 0.897006
0.367381 0.499721 1.000000
0.366763 0.631445 0.000000
0.366501 0.631182 0.101819
0.366208 0.630890 0.233867
0.365916 0.630597 0.365916
0.365623 0.630305 0.497964
0.365331 0.630012 0.630012
0.365038 0.629720 0.762060
0.364746 0.629427 0.894109
0.364483 0.629165 1.000000
0.363866 0.760888 0.000000
0.363603 0.760625 0.098922
0.363311 0.760333 0.230970
0.363018 0.760040 0.363018
0.362726 0.759748 0.495066
0.362433 0.759455 0.627115
0.362141 0.759163 0.759163
0.361848 0.758870 0.891211
0.361586 0.758608 1.000000
0.360968 0.890331 0.000000
0.360706 0.890069 0.096024
0.360413 0.889776 0.228072
0.360121 0.889484 0.360121
0.359828 0.889191 0.492169
0.359536 0.888899 0.624217
0.359243 0.888606 0.756265
0.358951 0.888314 0.888314
0.358688 0.888051 1.000000
0.358368 1.000000 0.000000
0.358105 1.000000 0.093424
0.357813 1.000000 0.225472
0.357520 1.000000 0.357520
0.357228 1.000000 0.489569
0.356935 1.000000 0.621617
0.356643 1.000000 0.753665
0.356350 1.000000 0.885713
0.356088 1.000000 1.000000
0.512433 0.000000 0.000000
0.512170 0.000000 0.115148
0.511878 0.000000 0.247196
0.511585 0.000000 0.379244
0.511293 0.000000 0.511293
0.511000 0.000000 0.643341
0.510708 0.000000 0.775389
0.510415 0.000000 0.907437
0.510153 0.000000 1.000000
0.509832 0.112810 0.000000
0.509570 0.112548 0.112548
0.509277 0.112255 0.244596
0.508985 0.111963 0.376644
0.508692 0.111670 0.508692
0.508400 0.111378 0.640741
0.508107 0.111085 0.772789
0.507815 0.110793 0.904837
0.507552 0.110530 1.000000
0.506935 0.242253 0.000000
0.506672 0.241991 0.109650
0.506380 0.241698 0.241698
0.506087 0.241406 0.373747
0.505795 0.241113 0.505795
0.505502 0.240821 0.637843
0.505210 0.240528 0.769891
0.504917 0.240236 0.901940
0.504655 0.239973 1.000000
0.504037 0.371697 0.000000
0.503775 0.371434 0.106753
0.503482 0.371142 0.238801
0.503190 0.370849 0.370849
0.502897 0.370557 0.502897
0.502605 0.370264 0.634946
0.502312 0.369972 0.766994
0.502020 0.369679 0.899042
0.501757 0.369417 1.000000
0.501140 0.501140 0.000000
0.500877 0.500877 0.103855
0.500585 0.500585 0.235904
0.500293 0.500293 0.367952
0.500000 0.500000 0.500000
0.499708 0.499708 0.632048
0.499415 0.499415 0.764096
0.499123 0.499123 0.896145
0.498860 0.498860 1.000000
0.498243 0.630583 0.000000
0.497980 0.630321 0.100958
0.497688 0.630028 0.233006
0.497395 0.629736 0.365054
0.497103 0.629443 0.497103
0.496810 0.629151 0.629151
0.496518 0.628858 0.761199
0.496225 0.628566 0.893247
0.495963 0.628303 1.000000
0.495345 0.760027 0.000000
0.495083 0.759764 0.098060
0.494790 0.759472 0.230109
0.494498 0.759179 0.362157
0.494205 0.758887 0.494205
0.493913 0.758594 0.626253
0.493620 0.758302 0.758302
0.493328 0.758009 0.890350
0.493065 0.757747 1.000000
0.492448 0.889470 0.000000
0.492185 0.889207 0.095163
0.491893 0.888915 0.227211
0.491600 0.888622 0.359259
0.491308 0.888330 0.491308
0.491015 0.888037 0.623356
0.490723 0.887745 0.755404
0.490430 0.887452 0.887452
0.490168 0.887190 1.000000
0.489847 1.000000 0.000000
0.489585 1.000000 0.092563
0.489292 1.000000 0.224611
0.489000 1.000000 0.356659
0.488707 1.000000 0.488707
0.488415 1.000000 0.620756
0.488122 1.000000 0.752804
0.487830 1.000000 0.884852
0.487567 1.000000 1.000000
0.643912 0.000000 0.000000
0.643650 0.000000 0.114287
0.643357 0.000000 0.246335
0.643065 0.000000 0.378383
0.642772 0.000000 0.510431
0.642480 0.000000 0.642480
0.642187 0.000000 0.774528
0.641895 0.000000 0.906576
0.641632 0.000000 1.000000
0.641312 0.111949 0.000000
0.641049 0.111686 0.111686
0.640757 0.111394 0.243735
0.640464 0.111101 0.375783
0.640172 0.110809 0.507831
0.639879 0.110516 0.639879
0.639587 0.110224 0.771927
0.639294 0.109931 0.903976
0.639032 0.109669 1.000000
0.638414 0.241392 0.000000
0.638152 0.241130 0.108789
0.637859 0.240837 0.240837
0.637567 0.240545 0.372885
0.637274 0.240252 0.504934
0.636982 0.239960 0.636982
0.636689 0.239667 0.769030
0.636397 0.239375 0.901078
0.636134 0.239112 1.000000
0.635517 0.370835 0.000000
0.635254 0.370573 0.105891
0.634962 0.370280 0.237940
0.634669 0.369988 0.369988
0.634377 0.369695 0.502036
0.634084 0.369403 0.634084
0.633792 0.369110 0.766133
0.633499 0.368818 0.898181
0.633237 0.368555 1.000000
0.632619 0.500279 0.000000
0.632357 0.500016 0.102994
0.632064 0.499724 0.235042
0.631772 0.499431 0.367090
0.631479 0.499139 0.499139
0.631187 0.498846 0.631187
0.630894 0.498554 0.763235
0.630602 0.498261 0.895283
0.630339 0.497999 1.000000
0.629722 0.629722 0.000000
0.629459 0.629459 0.100097
0.629167 0.629167 0.232145
0.628874 0.628874 0.364193
0.628582 0.628582 0.496241
0.628289 0.628289 0.628289
0.627997 0.627997 0.760338
0.627704 0.627704 0.892386
0.627442 0.627442 1.000000
0.626825 0.759165 0.000000
0.626562 0.758903 0.097199
0.626270 0.758610 0.229247
0.625977 0.758318 0.361296
0.625685 0.758025 0.493344
0.625392 0.757733 0.625392
0.625100 0.757440 0.757440
0.624807 0.757148 0.889488
0.624545 0.756885 1.000000
0.623927 0.888609 0.000000
0.623665 0.888346 0.094302
0.623372 0.888054 0.226350
0.623080 0.887761 0.358398
0.622787 0.887469 0.490446
0.622495 0.887176 0.622495
0.622202 0.886884 0.754543
0.621910 0.886591 0.886591
0.621647 0.886329 1.000000
0.621327 1.000000 0.000000
0.621064 1.000000 0.091701
0.620772 1.000000 0.223750
0.620479 1.000000 0.355798
0.620187 1.000000 0.487846
0.619894 1.000000 0.619894
0.619602 1.000000 0.751943
0.619309 1.000000 0.883991
0.619047 1.000000 1.000000
0.775391 0.000000 0.000000
0.775129 0.000000 0.113425
0.774836 0.000000 0.245474
0.774544 0.000000 0.377522
0.774251 0.000000 0.509570
0.773959 0.000000 0.641618
0.773666 0.000000 0.773666
0.773374 0.000000 0.905715
0.773111 0.000000 1.000000
0.772791 0.111088 0.000000
0.772529 0.110825 0.110825
0.772236 0.110533 0.242873
0.771944 0.110240 0.374922
0.771651 0.109948 0.506970
0.771359 0.109655 0.639018
0.771066 0.109363 0.771066
0.770774 0.109070 0.903114
0.770511 0.108808 1.000000
0.769894 0.240531 0.000000
0.769631 0.240268 0.107928
0.769339 0.239976 0.239976
0.769046 0.239683 0.372024
0.768754 0.239391 0.504072
0.768461 0.239098 0.636121
0.768169 0.238806 0.768169
0.767876 0.238513 0.900217
0.767614 0.238251 1.000000
0.766996 0.369974 0.000000
0.766734 0.369712 0.105030
0.766441 0.369419 0.237078
0.766149 0.369127 0.369127
0.765856 0.368834 0.501175
0.765564 0.368542 0.633223
0.765271 0.368249 0.765271
0.764979 0.367957 0.897320
0.764716 0.367694 1.000000
0.764099 0.499417 0.000000
0.763836 0.499155 0.102133
0.763544 0.498862 0.234181
0.763251 0.498570 0.366229
0.762959 0.498277 0.498277
0.762666 0.497985 0.630326
0.762374 0.497692 0.762374
0.762081 0.497400 0.894422
0.761819 0.497137 1.000000
0.761201 0.628861 0.000000
0.760939 0.628598 0.099235
0.760646 0.628306 0.231284
0.760354 0.628013 0.363332
0.760061 0.627721 0.495380
0.759769 0.627428 0.627428
0.759476 0.627136 0.759476
0.759184 0.626843 0.891525
0.758921 0.626581 1.000000
0.758304 0.758304 0.000000
0.758041 0.758041 0.096338
0.757749 0.757749 0.228386
0.757456 0.757456 0.360434
0.757164 0.757164 0.492483
0.756871 0.756871 0.624531
0.756579 0.756579 0.756579
0.756286 0.756286 0.888627
0.756024 0.756024 1.000000
0.755406 0.887747 0.000000
0.755144 0.887485 0.093440
0.754851 0.887192 0.225489
0.754559 0.886900 0.357537
0.754266 0.886607 0.489585
0.753974 0.886315 0.621633
0.753681 0.886022 0.753681
0.753389 0.885730 0.885730
0.753126 0.885467 1.000000
0.752806 1.000000 0.000000
0.752544 1.000000 0.090840
0.752251 1.000000 0.222888
0.751959 1.000000 0.354937
0.751666 1.000000 0.486985
0.751374 1.000000 0.619033
0.751081 1.000000 0.751081
0.750789 1.000000 0.883129
0.750526 1.000000 1.000000
0.906871 0.000000 0.000000
0.906608 0.000000 0.112564
0.906316 0.000000 0.244612
0.906023 0.000000 0.376661
0.905731 0.000000 0.508709
0.905438 0.000000 0.640757
0.905146 0.000000 0.772805
0.904853 0.000000 0.904853
0.904591 0.000000 1.000000
0.904271 0.110226 0.000000
0.904008 0.109964 0.109964
0.903716 0.109671 0.242012
0.903423 0.109379 0.374060
0.903131 0.109086 0.506108
0.902838 0.108794 0.638157
0.902546 0.108501 0.770205
0.902253 0.108209 0.902253
0.901991 0.107946 1.000000
0.901373 0.239670 0.000000
0.901111 0.239407 0.107066
0.900818 0.239115 0.239115
0.900526 0.238822 0.371163
0.900233 0.238530 0.503211
0.899941 0.238237 0.635259
0.899648 0.237945 0.767307
0.899356 0.237652 0.899356
0.899093 0.237390 1.000000
0.898476 0.369113 0.000000
0.898213 0.368850 0.104169
0.897921 0.368558 0.236217
0.897628 0.368265 0.368265
0.897336 0.367973 0.500314
0.897043 0.367680 0.632362
0.896751 0.367388 0.764410
0.896458 0.367095 0.896458
0.896196 0.366833 1.000000
0.895578 0.498556 0.000000
0.895316 0.498294 0.101271
0.895023 0.498001 0.233320
0.894731 0.497709 0.365368
0.894438 0.497416 0.497416
0.894146 0.497124 0.629464
0.893853 0.496831 0.761513
0.893561 0.496539 0.893561
0.893298 0.496276 1.000000
0.892681 0.627999 0.000000
0.892418 0.627737 0.098374
0.892126 0.627444 0.230422
0.891833 0.627152 0.362470
0.891541 0.626859 0.494519
0.891248 0.626567 0.626567
0.890956 0.626274 0.758615
0.890663 0.625982 0.890663
0.890401 0.625719 1.000000
0.889783 0.757443 0.000000
0.889521 0.757180 0.095477
0.889228 0.756888 0.227525
0.888936 0.756595 0.359573
0.888643 0.756303 0.491621
0.888351 0.756010 0.623669
0.888058 0.755718 0.755718
0.887766 0.755425 0.887766
0.887503 0.755163 1.000000
0.886886 0.886886 0.000000
0.886623 0.886623 0.092579
0.886331 0.886331 0.224627
0.886038 0.886038 0.356676
0.885746 0.885746 0.488724
0.885453 0.885453 0.620772
0.885161 0.885161 0.752820
0.884868 0.884868 0.884868
0.884606 0.884606 1.000000
0.884286 1.000000 0.000000
0.884023 1.000000 0.089979
0.883731 1.000000 0.222027
0.883438 1.000000 0.354075
0.883146 1.000000 0.486123
0.882853 1.000000 0.618172
0.882561 1.000000 0.750220
0.882268 1.000000 0.882268
0.882006 1.000000 1.000000
1.000000 0.000000 0.000000
1.000000 0.000000 0.111791
1.000000 0.000000 0.243839
1.000000 0.000000 0.375888
1.000000 0.000000 0.507936
1.000000 0.000000 0.639984
1.000000 0.000000 0.772032
1.000000 0.000000 0.904080
1.000000 0.000000 1.000000
1.000000 0.109453 0.000000
1.000000 0.109191 0.109191
1.000000 0.108898 0.241239
1.000000 0.108606 0.373287
1.000000 0.108313 0.505336
1.000000 0.108021 0.637384
1.000000 0.107728 0.769432
1.000000 0.107436 0.901480
1.000000 0.107173 1.000000
1.000000 0.238897 0.000000
1.000000 0.238634 0.106293
1.000000 0.238342 0.238342
1.000000 0.238049 0.370390
1.000000 0.237757 0.502438
1.000000 0.237464 0.634486
1.000000 0.237172 0.766535
1.000000 0.236879 0.898583
1.000000 0.236617 1.000000
1.000000 0.368340 0.000000
1.000000 0.368077 0.103396
1.000000 0.367785 0.235444
1.000000 0.367492 0.367492
1.000000 0.367200 0.499541
1.000000 0.366907 0.631589
1.000000 0.366615 0.763637
1.000000 0.366322 0.895685
1.000000 0.366060 1.000000
1.000000 0.497783 0.000000
1.000000 0.497521 0.100498
1.000000 0.497228 0.232547
1.000000 0.496936 0.364595
1.000000 0.496643 0.496643
1.000000 0.496351 0.628691
1.000000 0.496058 0.760740
1.000000 0.495766 0.892788
1.000000 0.495503 1.000000
1.000000 0.627226 0.000000
1.000000 0.626964 0.097601
1.000000 0.626671 0.229649
1.000000 0.626379 0.361697
1.000000 0.626086 0.493746
1.000000 0.625794 0.625794
1.000000 0.625501 0.757842
1.000000 0.625209 0.889890
1.000000 0.624946 1.000000
1.000000 0.756670 0.000000
1.000000 0.756407 0.094704
1.000000 0.756115 0.226752
1.000000 0.755822 0.358800
1.000000 0.755530 0.490848
1.000000 0.755237 0.622896
1.000000 0.754945 0.754945
1.000000 0.754652 0.886993
1.000000 0.754390 1.000000
1.000000 0.886113 0.000000
1.000000 0.885850 0.091806
1.000000 0.885558 0.223854
1.000000 0.885265 0.355903
1.000000 0.884973 0.487951
1.000000 0.884680 0.619999
1.000000 0.884388 0.752047
1.000000 0.884095 0.884095
1.000000 0.883833 1.000000
1.000000 1.000000 0.000000
1.000000 1.000000 0.089206
1.000000 1.000000 0.221254
1.000000 1.000000 0.353302
1.000000 1.000000 0.485351
1.000000 1.000000 0.617399
1.000000 1.000000 0.749447
1.000000 1.000000 0.881495
1.000000 1.000000 1.000000
