skills/editops-orchestrator/assets/grade/luts/product_clean_v20.cube
TITLE "product_clean_v20"
LUT_3D_SIZE 17
DOMAIN_MIN 0.0 0.0 0.0
DOMAIN_MAX 1.0 1.0 1.0
0.000000 0.000000 0.000000
0.000000 0.000000 0.042887
0.000000 0.000000 0.112165
0.000000 0.000000 0.181443
0.000000 0.000000 0.250721
0.000000 0.000000 0.319999
0.000000 0.000000 0.389278
0.000000 0.000000 0.458556
0.000000 0.000000 0.527834
0.000000 0.000000 0.597112
0.000000 0.000000 0.666390
0.000000 0.000000 0.735669
0.000000 0.000000 0.804947
0.000000 0.000000 0.874225
0.000000 0.000000 0.943503
0.000000 0.000000 1.000000
0.000000 0.000000 1.000000
0.000000 0.041319 0.000000
0.000000 0.041143 0.041143
0.000000 0.040859 0.110421
0.000000 0.040575 0.179700
0.000000 0.040290 0.248978
0.000000 0.040006 0.318256
0.000000 0.039722 0.387534
0.000000 0.039437 0.456812
0.000000 0.039153 0.526091
0.000000 0.038869 0.595369
0.000000 0.038585 0.664647
0.000000 0.038300 0.733925
0.000000 0.038016 0.803204
0.000000 0.037732 0.872482
0.000000 0.037447 0.941760
0.000000 0.037163 1.000000
0.000000 0.036987 1.000000
0.000000 0.108066 0.000000
0.000000 0.107890 0.038327
0.000000 0.107605 0.107605
0.000000 0.107321 0.176884
0.000000 0.107037 0.246162
0.000000 0.106752 0.315440
0.000000 0.106468 0.384718
0.000000 0.106184 0.453996
0.000000 0.105900 0.523275
0.000000 0.105615 0.592553
0.000000 0.105331 0.661831
0.000000 0.105047 0.731109
0.000000 0.104762 0.800387
0.000000 0.104478 0.869666
0.000000 0.104194 0.938944
0.000000 0.103910 1.000000
0.000000 0.103734 1.000000
0.000000 0.174812 0.000000
0.000000 0.174636 0.035511
0.000000 0.174352 0.104789
0.000000 0.174067 0.174067
0.000000 0.173783 0.243346
0.000000 0.173499 0.312624
0.000000 0.173215 0.381902
0.000000 0.172930 0.451180
0.000000 0.172646 0.520459
0.000000 0.172362 0.589737
0.000000 0.172077 0.659015
0.000000 0.171793 0.728293
0.000000 0.171509 0.797571
0.000000 0.171225 0.866850
0.000000 0.170940 0.936128
0.000000 0.170656 1.000000
0.000000 0.170480 1.000000
0.000000 0.241558 0.000000
0.000000 0.241382 0.032695
0.000000 0.241098 0.101973
0.000000 0.240814 0.171251
0.000000 0.240530 0.240530
0.000000 0.240245 0.309808
0.000000 0.239961 0.379086
0.000000 0.239677 0.448364
0.000000 0.239392 0.517642
0.000000 0.239108 0.586921
0.000000 0.238824 0.656199
0.000000 0.238540 0.725477
0.000000 0.238255 0.794755
0.000000 0.237971 0.864033
0.000000 0.237687 0.933312
0.000000 0.237402 1.000000
0.000000 0.237226 1.000000
0.000000 0.308305 0.000000
0.000000 0.308129 0.029879
0.000000 0.307845 0.099157
0.000000 0.307560 0.168435
0.000000 0.307276 0.237713
0.000000 0.306992 0.306992
0.000000 0.306707 0.376270
0.000000 0.306423 0.445548
0.000000 0.306139 0.514826
0.000000 0.305855 0.584105
0.000000 0.305570 0.653383
0.000000 0.305286 0.722661
0.000000 0.305002 0.791939
0.000000 0.304717 0.861217
0.000000 0.304433 0.930496
0.000000 0.304149 0.999774
0.000000 0.303973 1.000000
0.000000 0.375051 0.000000
0.000000 0.374875 0.027063
0.000000 0.374591 0.096341
0.000000 0.374307 0.165619
0.000000 0.374022 0.234897
0.000000 0.373738 0.304176
0.000000 0.373454 0.373454
0.000000 0.373169 0.442732
0.000000 0.372885 0.512010
0.000000 0.372601 0.581288
0.000000 0.372317 0.650567
0.000000 0.372032 0.719845
0.000000 0.371748 0.789123
0.000000 0.371464 0.858401
0.000000 0.371179 0.927679
0.000000 0.370895 0.996958
0.000000 0.370719 1.000000
0.000000 0.441798 0.000000
0.000000 0.441622 0.024247
0.000000 0.441337 0.093525
0.000000 0.441053 0.162803
0.000000 0.440769 0.232081
0.000000 0.440484 0.301359
0.000000 0.440200 0.370638
0.000000 0.439916 0.439916
0.000000 0.439632 0.509194
0.000000 0.439347 0.578472
0.000000 0.439063 0.647751
0.000000 0.438779 0.717029
0.000000 0.438494 0.786307
0.000000 0.438210 0.855585
0.000000 0.437926 0.924863
0.000000 0.437642 0.994142
0.000000 0.437466 1.000000
0.000000 0.508544 0.000000
0.000000 0.508368 0.021431
0.000000 0.508084 0.090709
0.000000 0.507799 0.159987
0.000000 0.507515 0.229265
0.000000 0.507231 0.298543
0.000000 0.506947 0.367822
0.000000 0.506662 0.437100
0.000000 0.506378 0.506378
0.000000 0.506094 0.575656
0.000000 0.505809 0.644934
0.000000 0.505525 0.714213
0.000000 0.505241 0.783491
0.000000 0.504957 0.852769
0.000000 0.504672 0.922047
0.000000 0.504388 0.991325
0.000000 0.504212 1.000000
0.000000 0.575290 0.000000
0.000000 0.575114 0.018614
0.000000 0.574830 0.087893
0.000000 0.574546 0.157171
0.000000 0.574262 0.226449
0.000000 0.573977 0.295727
0.000000 0.573693 0.365005
0.000000 0.573409 0.434284
0.000000 0.573124 0.503562
0.000000 0.572840 0.572840
0.000000 0.572556 0.642118
0.000000 0.572272 0.711397
0.000000 0.571987 0.780675
0.000000 0.571703 0.849953
0.000000 0.571419 0.919231
0.000000 0.571134 0.988509
0.000000 0.570958 1.000000
0.000000 0.642037 0.000000
0.000000 0.641861 0.015798
0.000000 0.641577 0.085077
0.000000 0.641292 0.154355
0.000000 0.641008 0.223633
0.000000 0.640724 0.292911
0.000000 0.640439 0.362189
0.000000 0.640155 0.431468
0.000000 0.639871 0.500746
0.000000 0.639587 0.570024
0.000000 0.639302 0.639302
0.000000 0.639018 0.708580
0.000000 0.638734 0.777859
0.000000 0.638449 0.847137
0.000000 0.638165 0.916415
0.000000 0.637881 0.985693
0.000000 0.637705 1.000000
0.000000 0.708783 0.000000
0.000000 0.708607 0.012982
0.000000 0.708323 0.082260
0.000000 0.708039 0.151539
0.000000 0.707754 0.220817
0.000000 0.707470 0.290095
0.000000 0.707186 0.359373
0.000000 0.706901 0.428651
0.000000 0.706617 0.497930
0.000000 0.706333 0.567208
0.000000 0.706049 0.636486
0.000000 0.705764 0.705764
0.000000 0.705480 0.775043
0.000000 0.705196 0.844321
0.000000 0.704911 0.913599
0.000000 0.704627 0.982877
0.000000 0.704451 1.000000
0.000000 0.775530 0.000000
0.000000 0.775354 0.010166
0.000000 0.775069 0.079444
0.000000 0.774785 0.148723
0.000000 0.774501 0.218001
0.000000 0.774216 0.287279
0.000000 0.773932 0.356557
0.000000 0.773648 0.425835
0.000000 0.773364 0.495114
0.000000 0.773079 0.564392
0.000000 0.772795 0.633670
0.000000 0.772511 0.702948
0.000000 0.772226 0.772226
0.000000 0.771942 0.841505
0.000000 0.771658 0.910783
0.000000 0.771374 0.980061
0.000000 0.771198 1.000000
0.000000 0.842276 0.000000
0.000000 0.842100 0.007350
0.000000 0.841816 0.076628
0.000000 0.841531 0.145906
0.000000 0.841247 0.215185
0.000000 0.840963 0.284463
0.000000 0.840679 0.353741
0.000000 0.840394 0.423019
0.000000 0.840110 0.492297
0.000000 0.839826 0.561576
0.000000 0.839541 0.630854
0.000000 0.839257 0.700132
0.000000 0.838973 0.769410
0.000000 0.838689 0.838689
0.000000 0.838404 0.907967
0.000000 0.838120 0.977245
0.000000 0.837944 1.000000
0.000000 0.909022 0.000000
0.000000 0.908846 0.004534
0.000000 0.908562 0.073812
0.000000 0.908278 0.143090
0.000000 0.907994 0.212369
0.000000 0.907709 0.281647
0.000000 0.907425 0.350925
0.000000 0.907141 0.420203
0.000000 0.906856 0.489481
0.000000 0.906572 0.558760
0.000000 0.906288 0.628038
0.000000 0.906004 0.697316
0.000000 0.905719 0.766594
0.000000 0.905435 0.835872
0.000000 0.905151 0.905151
0.000000 0.904866 0.974429
0.000000 0.904690 1.000000
0.000000 0.975769 0.000000
0.000000 0.975593 0.001718
0.000000 0.975309 0.070996
0.000000 0.975024 0.140274
0.000000 0.974740 0.209552
0.000000 0.974456 0.278831
0.000000 0.974171 0.348109
0.000000 0.973887 0.417387
0.000000 0.973603 0.486665
0.000000 0.973319 0.555944
0.000000 0.973034 0.625222
0.000000 0.972750 0.694500
0.000000 0.972466 0.763778
0.000000 0.972181 0.833056
0.000000 0.971897 0.902335
0.000000 0.971613 0.971613
0.000000 0.971437 1.000000
0.000000 1.000000 0.000000
0.000000 1.000000 0.000000
0.000000 1.000000 0.069253
0.000000 1.000000 0.138531
0.000000 1.000000 0.207809
0.000000 1.000000 0.277087
0.000000 1.000000 0.346366
0.000000 1.000000 0.415644
0.000000 1.000000 0.484922
0.000000 1.000000 0.554200
0.000000 1.000000 0.623478
0.000000 1.000000 0.692757
0.000000 1.000000 0.762035
0.000000 1.000000 0.831313
0.000000 1.000000 0.900591
0.000000 1.000000 0.969869
0.000000 1.000000 1.000000
0.042544 0.000000 0.000000
0.042368 0.000000 0.042368
0.042084 0.000000 0.111647
0.041800 0.000000 0.180925
0.041515 0.000000 0.250203
0.041231 0.000000 0.319481
0.040947 0.000000 0.388759
0.040663 0.000000 0.458038
0.040378 0.000000 0.527316
0.040094 0.000000 0.596594
0.039810 0.000000 0.665872
0.039525 0.000000 0.735150
0.039241 0.000000 0.804429
0.038957 0.000000 0.873707
0.038673 0.000000 0.942985
0.038388 0.000000 1.000000
0.038212 0.000000 1.000000
0.040801 0.040801 0.000000
0.040625 0.040625 0.040625
0.040341 0.040341 0.109903
0.040056 0.040056 0.179181
0.039772 0.039772 0.248460
0.039488 0.039488 0.317738
0.039204 0.039204 0.387016
0.038919 0.038919 0.456294
0.038635 0.038635 0.525572
0.038351 0.038351 0.594851
0.038066 0.038066 0.664129
0.037782 0.037782 0.733407
0.037498 0.037498 0.802685
0.037214 0.037214 0.871964
0.036929 0.036929 0.941242
0.036645 0.036645 1.000000
0.036469 0.036469 1.000000
0.037985 0.107547 0.000000
0.037809 0.107371 0.037809
0.037525 0.107087 0.107087
0.037240 0.106803 0.176365
0.036956 0.106519 0.245644
0.036672 0.106234 0.314922
0.036387 0.105950 0.384200
0.036103 0.105666 0.453478
0.035819 0.105381 0.522756
0.035535 0.105097 0.592035
0.035250 0.104813 0.661313
0.034966 0.104529 0.730591
0.034682 0.104244 0.799869
0.034397 0.103960 0.869147
0.034113 0.103676 0.938426
0.033829 0.103391 1.000000
0.033653 0.103215 1.000000
0.035169 0.174294 0.000000
0.034993 0.174118 0.034993
0.034709 0.173834 0.104271
0.034424 0.173549 0.173549
0.034140 0.173265 0.242827
0.033856 0.172981 0.312106
0.033571 0.172696 0.381384
0.033287 0.172412 0.450662
0.033003 0.172128 0.519940
0.032718 0.171844 0.589219
0.032434 0.171559 0.658497
0.032150 0.171275 0.727775
0.031866 0.170991 0.797053
0.031581 0.170706 0.866331
0.031297 0.170422 0.935610
0.031013 0.170138 1.000000
0.030837 0.169962 1.000000
0.032353 0.241040 0.000000
0.032177 0.240864 0.032177
0.031892 0.240580 0.101455
0.031608 0.240296 0.170733
0.031324 0.240011 0.240011
0.031040 0.239727 0.309290
0.030755 0.239443 0.378568
0.030471 0.239158 0.447846
0.030187 0.238874 0.517124
0.029902 0.238590 0.586402
0.029618 0.238306 0.655681
0.029334 0.238021 0.724959
0.029050 0.237737 0.794237
0.028765 0.237453 0.863515
0.028481 0.237168 0.932793
0.028197 0.236884 1.000000
0.028021 0.236708 1.000000
0.029537 0.307787 0.000000
0.029361 0.307611 0.029361
0.029076 0.307326 0.098639
0.028792 0.307042 0.167917
0.028508 0.306758 0.237195
0.028223 0.306473 0.306473
0.027939 0.306189 0.375752
0.027655 0.305905 0.445030
0.027371 0.305621 0.514308
0.027086 0.305336 0.583586
0.026802 0.305052 0.652865
0.026518 0.304768 0.722143
0.026233 0.304483 0.791421
0.025949 0.304199 0.860699
0.025665 0.303915 0.929977
0.025381 0.303631 0.999256
0.025205 0.303455 1.000000
0.026720 0.374533 0.000000
0.026544 0.374357 0.026544
0.026260 0.374073 0.095823
0.025976 0.373788 0.165101
0.025692 0.373504 0.234379
0.025407 0.373220 0.303657
0.025123 0.372936 0.372936
0.024839 0.372651 0.442214
0.024554 0.372367 0.511492
0.024270 0.372083 0.580770
0.023986 0.371798 0.650048
0.023702 0.371514 0.719327
0.023417 0.371230 0.788605
0.023133 0.370946 0.857883
0.022849 0.370661 0.927161
0.022564 0.370377 0.996439
0.022388 0.370201 1.000000
0.023904 0.441279 0.000000
0.023728 0.441103 0.023728
0.023444 0.440819 0.093007
0.023160 0.440535 0.162285
0.022876 0.440251 0.231563
0.022591 0.439966 0.300841
0.022307 0.439682 0.370119
0.022023 0.439398 0.439398
0.021738 0.439113 0.508676
0.021454 0.438829 0.577954
0.021170 0.438545 0.647232
0.020886 0.438261 0.716511
0.020601 0.437976 0.785789
0.020317 0.437692 0.855067
0.020033 0.437408 0.924345
0.019748 0.437123 0.993623
0.019572 0.436947 1.000000
0.021088 0.508026 0.000000
0.020912 0.507850 0.020912
0.020628 0.507566 0.090191
0.020344 0.507281 0.159469
0.020059 0.506997 0.228747
0.019775 0.506713 0.298025
0.019491 0.506428 0.367303
0.019207 0.506144 0.436582
0.018922 0.505860 0.505860
0.018638 0.505575 0.575138
0.018354 0.505291 0.644416
0.018069 0.505007 0.713694
0.017785 0.504723 0.782973
0.017501 0.504438 0.852251
0.017217 0.504154 0.921529
0.016932 0.503870 0.990807
0.016756 0.503694 1.000000
0.018272 0.574772 0.000000
0.018096 0.574596 0.018096
0.017812 0.574312 0.087374
0.017528 0.574028 0.156653
0.017243 0.573743 0.225931
0.016959 0.573459 0.295209
0.016675 0.573175 0.364487
0.016390 0.572890 0.433765
0.016106 0.572606 0.503044
0.015822 0.572322 0.572322
0.015538 0.572038 0.641600
0.015253 0.571753 0.710878
0.014969 0.571469 0.780157
0.014685 0.571185 0.849435
0.014400 0.570900 0.918713
0.014116 0.570616 0.987991
0.013940 0.570440 1.000000
0.015456 0.641519 0.000000
0.015280 0.641343 0.015280
0.014996 0.641058 0.084558
0.014712 0.640774 0.153837
0.014427 0.640490 0.223115
0.014143 0.640205 0.292393
0.013859 0.639921 0.361671
0.013574 0.639637 0.430949
0.013290 0.639353 0.500228
0.013006 0.639068 0.569506
0.012722 0.638784 0.638784
0.012437 0.638500 0.708062
0.012153 0.638215 0.777340
0.011869 0.637931 0.846619
0.011584 0.637647 0.915897
0.011300 0.637363 0.985175
0.011124 0.637187 1.000000
0.012640 0.708265 0.000000
0.012464 0.708089 0.012464
0.012180 0.707805 0.081742
0.011895 0.707520 0.151020
0.011611 0.707236 0.220299
0.011327 0.706952 0.289577
0.011043 0.706668 0.358855
0.010758 0.706383 0.428133
0.010474 0.706099 0.497411
0.010190 0.705815 0.566690
0.009905 0.705530 0.635968
0.009621 0.705246 0.705246
0.009337 0.704962 0.774524
0.009053 0.704678 0.843803
0.008768 0.704393 0.913081
0.008484 0.704109 0.982359
0.008308 0.703933 1.000000
0.009824 0.775011 0.000000
0.009648 0.774835 0.009648
0.009364 0.774551 0.078926
0.009079 0.774267 0.148204
0.008795 0.773983 0.217483
0.008511 0.773698 0.286761
0.008226 0.773414 0.356039
0.007942 0.773130 0.425317
0.007658 0.772845 0.494595
0.007374 0.772561 0.563874
0.007089 0.772277 0.633152
0.006805 0.771993 0.702430
0.006521 0.771708 0.771708
0.006236 0.771424 0.840986
0.005952 0.771140 0.910265
0.005668 0.770855 0.979543
0.005492 0.770679 1.000000
0.007008 0.841758 0.000000
0.006832 0.841582 0.006832
0.006548 0.841298 0.076110
0.006263 0.841013 0.145388
0.005979 0.840729 0.214666
0.005695 0.840445 0.283945
0.005410 0.840160 0.353223
0.005126 0.839876 0.422501
0.004842 0.839592 0.491779
0.004557 0.839307 0.561057
0.004273 0.839023 0.630336
0.003989 0.838739 0.699614
0.003705 0.838455 0.768892
0.003420 0.838170 0.838170
0.003136 0.837886 0.907449
0.002852 0.837602 0.976727
0.002676 0.837426 1.000000
0.004192 0.908504 0.000000
0.004016 0.908328 0.004016
0.003731 0.908044 0.073294
0.003447 0.907760 0.142572
0.003163 0.907475 0.211850
0.002879 0.907191 0.281129
0.002594 0.906907 0.350407
0.002310 0.906622 0.419685
0.002026 0.906338 0.488963
0.001741 0.906054 0.558241
0.001457 0.905770 0.627520
0.001173 0.905485 0.696798
0.000889 0.905201 0.766076
0.000604 0.904917 0.835354
0.000320 0.904632 0.904632
0.000036 0.904348 0.973911
0.000000 0.904172 1.000000
0.001376 0.975251 0.000000
0.001200 0.975075 0.001200
0.000915 0.974790 0.070478
0.000631 0.974506 0.139756
0.000347 0.974222 0.209034
0.000062 0.973937 0.278312
0.000000 0.973653 0.347591
0.000000 0.973369 0.416869
0.000000 0.973085 0.486147
0.000000 0.972800 0.555425
0.000000 0.972516 0.624704
0.000000 0.972232 0.693982
0.000000 0.971947 0.763260
0.000000 0.971663 0.832538
0.000000 0.971379 0.901816
0.000000 0.971095 0.971095
0.000000 0.970919 1.000000
0.000000 1.000000 0.000000
0.000000 1.000000 0.000000
0.000000 1.000000 0.068735
0.000000 1.000000 0.138013
0.000000 1.000000 0.207291
0.000000 1.000000 0.276569
0.000000 1.000000 0.345847
0.000000 1.000000 0.415126
0.000000 1.000000 0.484404
0.000000 1.000000 0.553682
0.000000 1.000000 0.622960
0.000000 1.000000 0.692238
0.000000 1.000000 0.761517
0.000000 1.000000 0.830795
0.000000 1.000000 0.900073
0.000000 1.000000 0.969351
0.000000 1.000000 1.000000
0.111270 0.000000 0.000000
0.111094 0.000000 0.041531
0.110809 0.000000 0.110809
0.110525 0.000000 0.180088
0.110241 0.000000 0.249366
0.109957 0.000000 0.318644
0.109672 0.000000 0.387922
0.109388 0.000000 0.457200
0.109104 0.000000 0.526479
0.108819 0.000000 0.595757
0.108535 0.000000 0.665035
0.108251 0.000000 0.734313
0.107967 0.000000 0.803592
0.107682 0.000000 0.872870
0.107398 0.000000 0.942148
0.107114 0.000000 1.000000
0.106938 0.000000 1.000000
0.109526 0.039964 0.000000
0.109350 0.039788 0.039788
0.109066 0.039504 0.109066
0.108782 0.039219 0.178344
0.108498 0.038935 0.247623
0.108213 0.038651 0.316901
0.107929 0.038366 0.386179
0.107645 0.038082 0.455457
0.107360 0.037798 0.524735
0.107076 0.037514 0.594014
0.106792 0.037229 0.663292
0.106508 0.036945 0.732570
0.106223 0.036661 0.801848
0.105939 0.036376 0.871126
0.105655 0.036092 0.940405
0.105370 0.035808 1.000000
0.105194 0.035632 1.000000
0.106710 0.106710 0.000000
0.106534 0.106534 0.036972
0.106250 0.106250 0.106250
0.105966 0.105966 0.175528
0.105681 0.105681 0.244806
0.105397 0.105397 0.314085
0.105113 0.105113 0.383363
0.104829 0.104829 0.452641
0.104544 0.104544 0.521919
0.104260 0.104260 0.591197
0.103976 0.103976 0.660476
0.103691 0.103691 0.729754
0.103407 0.103407 0.799032
0.103123 0.103123 0.868310
0.102839 0.102839 0.937589
0.102554 0.102554 1.000000
0.102378 0.102378 1.000000
0.103894 0.173457 0.000000
0.103718 0.173281 0.034156
0.103434 0.172996 0.103434
0.103150 0.172712 0.172712
0.102865 0.172428 0.241990
0.102581 0.172144 0.311269
0.102297 0.171859 0.380547
0.102012 0.171575 0.449825
0.101728 0.171291 0.519103
0.101444 0.171006 0.588381
0.101160 0.170722 0.657660
0.100875 0.170438 0.726938
0.100591 0.170154 0.796216
0.100307 0.169869 0.865494
0.100022 0.169585 0.934772
0.099738 0.169301 1.000000
0.099562 0.169125 1.000000
0.101078 0.240203 0.000000
0.100902 0.240027 0.031340
0.100618 0.239743 0.100618
0.100334 0.239459 0.169896
0.100049 0.239174 0.239174
0.099765 0.238890 0.308452
0.099481 0.238606 0.377731
0.099196 0.238321 0.447009
0.098912 0.238037 0.516287
0.098628 0.237753 0.585565
0.098343 0.237468 0.654844
0.098059 0.237184 0.724122
0.097775 0.236900 0.793400
0.097491 0.236616 0.862678
0.097206 0.236331 0.931956
0.096922 0.236047 1.000000
0.096746 0.235871 1.000000
0.098262 0.306949 0.000000
0.098086 0.306773 0.028523
0.097802 0.306489 0.097802
0.097517 0.306205 0.167080
0.097233 0.305921 0.236358
0.096949 0.305636 0.305636
0.096665 0.305352 0.374915
0.096380 0.305068 0.444193
0.096096 0.304783 0.513471
0.095812 0.304499 0.582749
0.095527 0.304215 0.652027
0.095243 0.303931 0.721306
0.094959 0.303646 0.790584
0.094675 0.303362 0.859862
0.094390 0.303078 0.929140
0.094106 0.302793 0.998418
0.093930 0.302617 1.000000
0.095446 0.373696 0.000000
0.095270 0.373520 0.025707
0.094986 0.373236 0.094986
0.094701 0.372951 0.164264
0.094417 0.372667 0.233542
0.094133 0.372383 0.302820
0.093848 0.372098 0.372098
0.093564 0.371814 0.441377
0.093280 0.371530 0.510655
0.092996 0.371246 0.579933
0.092711 0.370961 0.649211
0.092427 0.370677 0.718490
0.092143 0.370393 0.787768
0.091858 0.370108 0.857046
0.091574 0.369824 0.926324
0.091290 0.369540 0.995602
0.091114 0.369364 1.000000
0.092630 0.440442 0.000000
0.092454 0.440266 0.022891
0.092169 0.439982 0.092169
0.091885 0.439698 0.161448
0.091601 0.439413 0.230726
0.091317 0.439129 0.300004
0.091032 0.438845 0.369282
0.090748 0.438561 0.438561
0.090464 0.438276 0.507839
0.090179 0.437992 0.577117
0.089895 0.437708 0.646395
0.089611 0.437423 0.715673
0.089327 0.437139 0.784952
0.089042 0.436855 0.854230
0.088758 0.436571 0.923508
0.088474 0.436286 0.992786
0.088298 0.436110 1.000000
0.089814 0.507189 0.000000
0.089638 0.507013 0.020075
0.089353 0.506728 0.089353
0.089069 0.506444 0.158632
0.088785 0.506160 0.227910
0.088501 0.505876 0.297188
0.088216 0.505591 0.366466
0.087932 0.505307 0.435744
0.087648 0.505023 0.505023
0.087363 0.504738 0.574301
0.087079 0.504454 0.643579
0.086795 0.504170 0.712857
0.086511 0.503886 0.782136
0.086226 0.503601 0.851414
0.085942 0.503317 0.920692
0.085658 0.503033 0.989970
0.085482 0.502857 1.000000
0.086998 0.573935 0.000000
0.086822 0.573759 0.017259
0.086537 0.573475 0.086537
0.086253 0.573191 0.155816
0.085969 0.572906 0.225094
0.085684 0.572622 0.294372
0.085400 0.572338 0.363650
0.085116 0.572053 0.432928
0.084832 0.571769 0.502207
0.084547 0.571485 0.571485
0.084263 0.571200 0.640763
0.083979 0.570916 0.710041
0.083694 0.570632 0.779319
0.083410 0.570348 0.848598
0.083126 0.570063 0.917876
0.082842 0.569779 0.987154
0.082666 0.569603 1.000000
0.084181 0.640681 0.000000
0.084005 0.640505 0.014443
0.083721 0.640221 0.083721
0.083437 0.639937 0.152999
0.083153 0.639653 0.222278
0.082868 0.639368 0.291556
0.082584 0.639084 0.360834
0.082300 0.638800 0.430112
0.082015 0.638515 0.499390
0.081731 0.638231 0.568669
0.081447 0.637947 0.637947
0.081163 0.637663 0.707225
0.080878 0.637378 0.776503
0.080594 0.637094 0.845782
0.080310 0.636810 0.915060
0.080025 0.636525 0.984338
0.079849 0.636349 1.000000
0.081365 0.707428 0.000000
0.081189 0.707252 0.011627
0.080905 0.706968 0.080905
0.080621 0.706683 0.150183
0.080337 0.706399 0.219462
0.080052 0.706115 0.288740
0.079768 0.705830 0.358018
0.079484 0.705546 0.427296
0.079199 0.705262 0.496574
0.078915 0.704978 0.565853
0.078631 0.704693 0.635131
0.078347 0.704409 0.704409
0.078062 0.704125 0.773687
0.077778 0.703840 0.842965
0.077494 0.703556 0.912244
0.077209 0.703272 0.981522
0.077033 0.703096 1.000000
0.078549 0.774174 0.000000
0.078373 0.773998 0.008811
0.078089 0.773714 0.078089
0.077805 0.773430 0.147367
0.077520 0.773145 0.216645
0.077236 0.772861 0.285924
0.076952 0.772577 0.355202
0.076668 0.772293 0.424480
0.076383 0.772008 0.493758
0.076099 0.771724 0.563036
0.075815 0.771440 0.632315
0.075530 0.771155 0.701593
0.075246 0.770871 0.770871
0.074962 0.770587 0.840149
0.074678 0.770303 0.909428
0.074393 0.770018 0.978706
0.074217 0.769842 1.000000
0.075733 0.840921 0.000000
0.075557 0.840745 0.005995
0.075273 0.840460 0.075273
0.074989 0.840176 0.144551
0.074704 0.839892 0.213829
0.074420 0.839608 0.283108
0.074136 0.839323 0.352386
0.073851 0.839039 0.421664
0.073567 0.838755 0.490942
0.073283 0.838470 0.560220
0.072999 0.838186 0.629499
0.072714 0.837902 0.698777
0.072430 0.837618 0.768055
0.072146 0.837333 0.837333
0.071861 0.837049 0.906611
0.071577 0.836765 0.975890
0.071401 0.836589 1.000000
0.072917 0.907667 0.000000
0.072741 0.907491 0.003179
0.072457 0.907207 0.072457
0.072173 0.906923 0.141735
0.071888 0.906638 0.211013
0.071604 0.906354 0.280291
0.071320 0.906070 0.349570
0.071035 0.905785 0.418848
0.070751 0.905501 0.488126
0.070467 0.905217 0.557404
0.070182 0.904933 0.626683
0.069898 0.904648 0.695961
0.069614 0.904364 0.765239
0.069330 0.904080 0.834517
0.069045 0.903795 0.903795
0.068761 0.903511 0.973074
0.068585 0.903335 1.000000
0.070101 0.974413 0.000000
0.069925 0.974237 0.000362
0.069641 0.973953 0.069641
0.069356 0.973669 0.138919
0.069072 0.973385 0.208197
0.068788 0.973100 0.277475
0.068504 0.972816 0.346754
0.068219 0.972532 0.416032
0.067935 0.972247 0.485310
0.067651 0.971963 0.554588
0.067366 0.971679 0.623866
0.067082 0.971395 0.693145
0.066798 0.971110 0.762423
0.066514 0.970826 0.831701
0.066229 0.970542 0.900979
0.065945 0.970257 0.970257
0.065769 0.970081 1.000000
0.068358 1.000000 0.000000
0.068182 1.000000 0.000000
0.067897 1.000000 0.067897
0.067613 1.000000 0.137176
0.067329 1.000000 0.206454
0.067045 1.000000 0.275732
0.066760 1.000000 0.345010
0.066476 1.000000 0.414288
0.066192 1.000000 0.483567
0.065907 1.000000 0.552845
0.065623 1.000000 0.622123
0.065339 1.000000 0.691401
0.065055 1.000000 0.760680
0.064770 1.000000 0.829958
0.064486 1.000000 0.899236
0.064202 1.000000 0.968514
0.064026 1.000000 1.000000
0.179995 0.000000 0.000000
0.179819 0.000000 0.040694
0.179535 0.000000 0.109972
0.179251 0.000000 0.179251
0.178966 0.000000 0.248529
0.178682 0.000000 0.317807
0.178398 0.000000 0.387085
0.178113 0.000000 0.456363
0.177829 0.000000 0.525642
0.177545 0.000000 0.594920
0.177260 0.000000 0.664198
0.176976 0.000000 0.733476
0.176692 0.000000 0.802754
0.176408 0.000000 0.872033
0.176123 0.000000 0.941311
0.175839 0.000000 1.000000
0.175663 0.000000 1.000000
0.178252 0.039127 0.000000
