skills/editops-orchestrator/assets/grade/luts/product_clean_v18.cube
TITLE "product_clean_v18"
LUT_3D_SIZE 17
DOMAIN_MIN 0.0 0.0 0.0
DOMAIN_MAX 1.0 1.0 1.0
0.000000 0.000000 0.000000
0.000000 0.000000 0.045066
0.000000 0.000000 0.113614
0.000000 0.000000 0.182162
0.000000 0.000000 0.250711
0.000000 0.000000 0.319259
0.000000 0.000000 0.387807
0.000000 0.000000 0.456356
0.000000 0.000000 0.524904
0.000000 0.000000 0.593452
0.000000 0.000000 0.662001
0.000000 0.000000 0.730549
0.000000 0.000000 0.799097
0.000000 0.000000 0.867646
0.000000 0.000000 0.936194
0.000000 0.000000 1.000000
0.000000 0.000000 1.000000
0.000000 0.043584 0.000000
0.000000 0.043418 0.043418
0.000000 0.043164 0.111966
0.000000 0.042911 0.180514
0.000000 0.042658 0.249063
0.000000 0.042405 0.317611
0.000000 0.042152 0.386159
0.000000 0.041899 0.454708
0.000000 0.041646 0.523256
0.000000 0.041393 0.591804
0.000000 0.041140 0.660353
0.000000 0.040887 0.728901
0.000000 0.040634 0.797449
0.000000 0.040381 0.865998
0.000000 0.040127 0.934546
0.000000 0.039874 1.000000
0.000000 0.039708 1.000000
0.000000 0.109878 0.000000
0.000000 0.109712 0.040911
0.000000 0.109459 0.109459
0.000000 0.109206 0.178007
0.000000 0.108953 0.246556
0.000000 0.108700 0.315104
0.000000 0.108447 0.383652
0.000000 0.108193 0.452201
0.000000 0.107940 0.520749
0.000000 0.107687 0.589297
0.000000 0.107434 0.657846
0.000000 0.107181 0.726394
0.000000 0.106928 0.794942
0.000000 0.106675 0.863491
0.000000 0.106422 0.932039
0.000000 0.106169 1.000000
0.000000 0.106002 1.000000
0.000000 0.176173 0.000000
0.000000 0.176006 0.038403
0.000000 0.175753 0.106952
0.000000 0.175500 0.175500
0.000000 0.175247 0.244048
0.000000 0.174994 0.312597
0.000000 0.174741 0.381145
0.000000 0.174488 0.449693
0.000000 0.174235 0.518242
0.000000 0.173982 0.586790
0.000000 0.173729 0.655338
0.000000 0.173475 0.723887
0.000000 0.173222 0.792435
0.000000 0.172969 0.860983
0.000000 0.172716 0.929532
0.000000 0.172463 0.998080
0.000000 0.172297 1.000000
0.000000 0.242467 0.000000
0.000000 0.242301 0.035896
0.000000 0.242048 0.104445
0.000000 0.241795 0.172993
0.000000 0.241541 0.241541
0.000000 0.241288 0.310090
0.000000 0.241035 0.378638
0.000000 0.240782 0.447186
0.000000 0.240529 0.515735
0.000000 0.240276 0.584283
0.000000 0.240023 0.652831
0.000000 0.239770 0.721380
0.000000 0.239517 0.789928
0.000000 0.239264 0.858476
0.000000 0.239011 0.927025
0.000000 0.238757 0.995573
0.000000 0.238591 1.000000
0.000000 0.308761 0.000000
0.000000 0.308595 0.033389
0.000000 0.308342 0.101938
0.000000 0.308089 0.170486
0.000000 0.307836 0.239034
0.000000 0.307583 0.307583
0.000000 0.307330 0.376131
0.000000 0.307077 0.444679
0.000000 0.306823 0.513228
0.000000 0.306570 0.581776
0.000000 0.306317 0.650324
0.000000 0.306064 0.718873
0.000000 0.305811 0.787421
0.000000 0.305558 0.855969
0.000000 0.305305 0.924518
0.000000 0.305052 0.993066
0.000000 0.304885 1.000000
0.000000 0.375056 0.000000
0.000000 0.374889 0.030882
0.000000 0.374636 0.099431
0.000000 0.374383 0.167979
0.000000 0.374130 0.236527
0.000000 0.373877 0.305076
0.000000 0.373624 0.373624
0.000000 0.373371 0.442172
0.000000 0.373118 0.510721
0.000000 0.372865 0.579269
0.000000 0.372612 0.647817
0.000000 0.372359 0.716366
0.000000 0.372106 0.784914
0.000000 0.371852 0.853462
0.000000 0.371599 0.922011
0.000000 0.371346 0.990559
0.000000 0.371180 1.000000
0.000000 0.441350 0.000000
0.000000 0.441184 0.028375
0.000000 0.440931 0.096924
0.000000 0.440678 0.165472
0.000000 0.440425 0.234020
0.000000 0.440172 0.302569
0.000000 0.439918 0.371117
0.000000 0.439665 0.439665
0.000000 0.439412 0.508214
0.000000 0.439159 0.576762
0.000000 0.438906 0.645310
0.000000 0.438653 0.713859
0.000000 0.438400 0.782407
0.000000 0.438147 0.850955
0.000000 0.437894 0.919504
0.000000 0.437641 0.988052
0.000000 0.437474 1.000000
0.000000 0.507645 0.000000
0.000000 0.507478 0.025868
0.000000 0.507225 0.094417
0.000000 0.506972 0.162965
0.000000 0.506719 0.231513
0.000000 0.506466 0.300062
0.000000 0.506213 0.368610
0.000000 0.505960 0.437158
0.000000 0.505707 0.505707
0.000000 0.505454 0.574255
0.000000 0.505200 0.642803
0.000000 0.504947 0.711352
0.000000 0.504694 0.779900
0.000000 0.504441 0.848448
0.000000 0.504188 0.916997
0.000000 0.503935 0.985545
0.000000 0.503769 1.000000
0.000000 0.573939 0.000000
0.000000 0.573773 0.023361
0.000000 0.573520 0.091910
0.000000 0.573266 0.160458
0.000000 0.573013 0.229006
0.000000 0.572760 0.297555
0.000000 0.572507 0.366103
0.000000 0.572254 0.434651
0.000000 0.572001 0.503200
0.000000 0.571748 0.571748
0.000000 0.571495 0.640296
0.000000 0.571242 0.708845
0.000000 0.570989 0.777393
0.000000 0.570736 0.845941
0.000000 0.570482 0.914490
0.000000 0.570229 0.983038
0.000000 0.570063 1.000000
0.000000 0.640233 0.000000
0.000000 0.640067 0.020854
0.000000 0.639814 0.089403
0.000000 0.639561 0.157951
0.000000 0.639308 0.226499
0.000000 0.639055 0.295048
0.000000 0.638802 0.363596
0.000000 0.638548 0.432144
0.000000 0.638295 0.500693
0.000000 0.638042 0.569241
0.000000 0.637789 0.637789
0.000000 0.637536 0.706338
0.000000 0.637283 0.774886
0.000000 0.637030 0.843434
0.000000 0.636777 0.911983
0.000000 0.636524 0.980531
0.000000 0.636357 1.000000
0.000000 0.706528 0.000000
0.000000 0.706361 0.018347
0.000000 0.706108 0.086896
0.000000 0.705855 0.155444
0.000000 0.705602 0.223992
0.000000 0.705349 0.292541
0.000000 0.705096 0.361089
0.000000 0.704843 0.429637
0.000000 0.704590 0.498186
0.000000 0.704337 0.566734
0.000000 0.704084 0.635282
0.000000 0.703831 0.703831
0.000000 0.703577 0.772379
0.000000 0.703324 0.840927
0.000000 0.703071 0.909476
0.000000 0.702818 0.978024
0.000000 0.702652 1.000000
0.000000 0.772822 0.000000
0.000000 0.772656 0.015840
0.000000 0.772403 0.084388
0.000000 0.772150 0.152937
0.000000 0.771897 0.221485
0.000000 0.771643 0.290033
0.000000 0.771390 0.358582
0.000000 0.771137 0.427130
0.000000 0.770884 0.495678
0.000000 0.770631 0.564227
0.000000 0.770378 0.632775
0.000000 0.770125 0.701323
0.000000 0.769872 0.769872
0.000000 0.769619 0.838420
0.000000 0.769366 0.906968
0.000000 0.769113 0.975517
0.000000 0.768946 1.000000
0.000000 0.839117 0.000000
0.000000 0.838950 0.013333
0.000000 0.838697 0.081881
0.000000 0.838444 0.150430
0.000000 0.838191 0.218978
0.000000 0.837938 0.287526
0.000000 0.837685 0.356075
0.000000 0.837432 0.424623
0.000000 0.837179 0.493171
0.000000 0.836925 0.561720
0.000000 0.836672 0.630268
0.000000 0.836419 0.698816
0.000000 0.836166 0.767365
0.000000 0.835913 0.835913
0.000000 0.835660 0.904461
0.000000 0.835407 0.973010
0.000000 0.835241 1.000000
0.000000 0.905411 0.000000
0.000000 0.905245 0.010826
0.000000 0.904991 0.079374
0.000000 0.904738 0.147923
0.000000 0.904485 0.216471
0.000000 0.904232 0.285019
0.000000 0.903979 0.353568
0.000000 0.903726 0.422116
0.000000 0.903473 0.490664
0.000000 0.903220 0.559213
0.000000 0.902967 0.627761
0.000000 0.902714 0.696309
0.000000 0.902461 0.764858
0.000000 0.902207 0.833406
0.000000 0.901954 0.901954
0.000000 0.901701 0.970503
0.000000 0.901535 1.000000
0.000000 0.971705 0.000000
0.000000 0.971539 0.008319
0.000000 0.971286 0.076867
0.000000 0.971033 0.145416
0.000000 0.970780 0.213964
0.000000 0.970527 0.282512
0.000000 0.970273 0.351061
0.000000 0.970020 0.419609
0.000000 0.969767 0.488157
0.000000 0.969514 0.556706
0.000000 0.969261 0.625254
0.000000 0.969008 0.693802
0.000000 0.968755 0.762351
0.000000 0.968502 0.830899
0.000000 0.968249 0.899447
0.000000 0.967996 0.967996
0.000000 0.967829 1.000000
0.000000 1.000000 0.000000
0.000000 1.000000 0.006671
0.000000 1.000000 0.075219
0.000000 1.000000 0.143767
0.000000 1.000000 0.212316
0.000000 1.000000 0.280864
0.000000 1.000000 0.349412
0.000000 1.000000 0.417961
0.000000 1.000000 0.486509
0.000000 1.000000 0.555057
0.000000 1.000000 0.623606
0.000000 1.000000 0.692154
0.000000 1.000000 0.760702
0.000000 1.000000 0.829251
0.000000 1.000000 0.897799
0.000000 1.000000 0.966347
0.000000 1.000000 1.000000
0.044742 0.000000 0.000000
0.044576 0.000000 0.044576
0.044323 0.000000 0.113124
0.044070 0.000000 0.181673
0.043817 0.000000 0.250221
0.043563 0.000000 0.318769
0.043310 0.000000 0.387317
0.043057 0.000000 0.455866
0.042804 0.000000 0.524414
0.042551 0.000000 0.592962
0.042298 0.000000 0.661511
0.042045 0.000000 0.730059
0.041792 0.000000 0.798607
0.041539 0.000000 0.867156
0.041286 0.000000 0.935704
0.041033 0.000000 1.000000
0.040866 0.000000 1.000000
0.043094 0.043094 0.000000
0.042928 0.042928 0.042928
0.042675 0.042675 0.111476
0.042421 0.042421 0.180024
0.042168 0.042168 0.248573
0.041915 0.041915 0.317121
0.041662 0.041662 0.385669
0.041409 0.041409 0.454218
0.041156 0.041156 0.522766
0.040903 0.040903 0.591314
0.040650 0.040650 0.659863
0.040397 0.040397 0.728411
0.040144 0.040144 0.796959
0.039891 0.039891 0.865508
0.039637 0.039637 0.934056
0.039384 0.039384 1.000000
0.039218 0.039218 1.000000
0.040587 0.109388 0.000000
0.040421 0.109222 0.040421
0.040168 0.108969 0.108969
0.039914 0.108716 0.177517
0.039661 0.108463 0.246066
0.039408 0.108210 0.314614
0.039155 0.107957 0.383162
0.038902 0.107703 0.451711
0.038649 0.107450 0.520259
0.038396 0.107197 0.588807
0.038143 0.106944 0.657356
0.037890 0.106691 0.725904
0.037637 0.106438 0.794452
0.037384 0.106185 0.863001
0.037130 0.105932 0.931549
0.036877 0.105679 1.000000
0.036711 0.105512 1.000000
0.038080 0.175683 0.000000
0.037914 0.175516 0.037914
0.037660 0.175263 0.106462
0.037407 0.175010 0.175010
0.037154 0.174757 0.243559
0.036901 0.174504 0.312107
0.036648 0.174251 0.380655
0.036395 0.173998 0.449204
0.036142 0.173745 0.517752
0.035889 0.173492 0.586300
0.035636 0.173239 0.654849
0.035383 0.172986 0.723397
0.035130 0.172732 0.791945
0.034877 0.172479 0.860494
0.034623 0.172226 0.929042
0.034370 0.171973 0.997590
0.034204 0.171807 1.000000
0.035573 0.241977 0.000000
0.035407 0.241811 0.035407
0.035153 0.241558 0.103955
0.034900 0.241305 0.172503
0.034647 0.241052 0.241052
0.034394 0.240798 0.309600
0.034141 0.240545 0.378148
0.033888 0.240292 0.446697
0.033635 0.240039 0.515245
0.033382 0.239786 0.583793
0.033129 0.239533 0.652342
0.032876 0.239280 0.720890
0.032623 0.239027 0.789438
0.032369 0.238774 0.857987
0.032116 0.238521 0.926535
0.031863 0.238268 0.995083
0.031697 0.238101 1.000000
0.033066 0.308272 0.000000
0.032899 0.308105 0.032899
0.032646 0.307852 0.101448
0.032393 0.307599 0.169996
0.032140 0.307346 0.238544
0.031887 0.307093 0.307093
0.031634 0.306840 0.375641
0.031381 0.306587 0.444189
0.031128 0.306334 0.512738
0.030875 0.306080 0.581286
0.030622 0.305827 0.649834
0.030369 0.305574 0.718383
0.030116 0.305321 0.786931
0.029862 0.305068 0.855479
0.029609 0.304815 0.924028
0.029356 0.304562 0.992576
0.029190 0.304396 1.000000
0.030559 0.374566 0.000000
0.030392 0.374400 0.030392
0.030139 0.374146 0.098941
0.029886 0.373893 0.167489
0.029633 0.373640 0.236037
0.029380 0.373387 0.304586
0.029127 0.373134 0.373134
0.028874 0.372881 0.441682
0.028621 0.372628 0.510231
0.028368 0.372375 0.578779
0.028115 0.372122 0.647327
0.027862 0.371869 0.715876
0.027608 0.371616 0.784424
0.027355 0.371362 0.852972
0.027102 0.371109 0.921521
0.026849 0.370856 0.990069
0.026683 0.370690 1.000000
0.028052 0.440860 0.000000
0.027885 0.440694 0.027885
0.027632 0.440441 0.096434
0.027379 0.440188 0.164982
0.027126 0.439935 0.233530
0.026873 0.439682 0.302079
0.026620 0.439428 0.370627
0.026367 0.439175 0.439175
0.026114 0.438922 0.507724
0.025861 0.438669 0.576272
0.025608 0.438416 0.644820
0.025355 0.438163 0.713369
0.025101 0.437910 0.781917
0.024848 0.437657 0.850465
0.024595 0.437404 0.919014
0.024342 0.437151 0.987562
0.024176 0.436984 1.000000
0.025545 0.507155 0.000000
0.025378 0.506988 0.025378
0.025125 0.506735 0.093927
0.024872 0.506482 0.162475
0.024619 0.506229 0.231023
0.024366 0.505976 0.299572
0.024113 0.505723 0.368120
0.023860 0.505470 0.436668
0.023607 0.505217 0.505217
0.023354 0.504964 0.573765
0.023101 0.504711 0.642313
0.022847 0.504457 0.710862
0.022594 0.504204 0.779410
0.022341 0.503951 0.847958
0.022088 0.503698 0.916507
0.021835 0.503445 0.985055
0.021669 0.503279 1.000000
0.023038 0.573449 0.000000
0.022871 0.573283 0.022871
0.022618 0.573030 0.091420
0.022365 0.572777 0.159968
0.022112 0.572523 0.228516
0.021859 0.572270 0.297065
0.021606 0.572017 0.365613
0.021353 0.571764 0.434161
0.021100 0.571511 0.502710
0.020847 0.571258 0.571258
0.020594 0.571005 0.639806
0.020340 0.570752 0.708355
0.020087 0.570499 0.776903
0.019834 0.570246 0.845451
0.019581 0.569993 0.914000
0.019328 0.569739 0.982548
0.019162 0.569573 1.000000
0.020531 0.639743 0.000000
0.020364 0.639577 0.020364
0.020111 0.639324 0.088913
0.019858 0.639071 0.157461
0.019605 0.638818 0.226009
0.019352 0.638565 0.294558
0.019099 0.638312 0.363106
0.018846 0.638059 0.431654
0.018593 0.637805 0.500203
0.018340 0.637552 0.568751
0.018086 0.637299 0.637299
0.017833 0.637046 0.705848
0.017580 0.636793 0.774396
0.017327 0.636540 0.842944
0.017074 0.636287 0.911493
0.016821 0.636034 0.980041
0.016655 0.635867 1.000000
0.018024 0.706038 0.000000
0.017857 0.705871 0.017857
0.017604 0.705618 0.086406
0.017351 0.705365 0.154954
0.017098 0.705112 0.223502
0.016845 0.704859 0.292051
0.016592 0.704606 0.360599
0.016339 0.704353 0.429147
0.016086 0.704100 0.497696
0.015833 0.703847 0.566244
0.015579 0.703594 0.634792
0.015326 0.703341 0.703341
0.015073 0.703087 0.771889
0.014820 0.702834 0.840437
0.014567 0.702581 0.908986
0.014314 0.702328 0.977534
0.014148 0.702162 1.000000
0.015517 0.772332 0.000000
0.015350 0.772166 0.015350
0.015097 0.771913 0.083899
0.014844 0.771660 0.152447
0.014591 0.771407 0.220995
0.014338 0.771153 0.289544
0.014085 0.770900 0.358092
0.013832 0.770647 0.426640
0.013579 0.770394 0.495189
0.013326 0.770141 0.563737
0.013072 0.769888 0.632285
0.012819 0.769635 0.700834
0.012566 0.769382 0.769382
0.012313 0.769129 0.837930
0.012060 0.768876 0.906479
0.011807 0.768623 0.975027
0.011641 0.768456 1.000000
0.013010 0.838627 0.000000
0.012843 0.838460 0.012843
0.012590 0.838207 0.081392
0.012337 0.837954 0.149940
0.012084 0.837701 0.218488
0.011831 0.837448 0.287036
0.011578 0.837195 0.355585
0.011325 0.836942 0.424133
0.011072 0.836689 0.492681
0.010818 0.836436 0.561230
0.010565 0.836182 0.629778
0.010312 0.835929 0.698326
0.010059 0.835676 0.766875
0.009806 0.835423 0.835423
0.009553 0.835170 0.903971
0.009300 0.834917 0.972520
0.009134 0.834751 1.000000
0.010503 0.904921 0.000000
0.010336 0.904755 0.010336
0.010083 0.904501 0.078884
0.009830 0.904248 0.147433
0.009577 0.903995 0.215981
0.009324 0.903742 0.284529
0.009071 0.903489 0.353078
0.008818 0.903236 0.421626
0.008565 0.902983 0.490174
0.008311 0.902730 0.558723
0.008058 0.902477 0.627271
0.007805 0.902224 0.695819
0.007552 0.901971 0.764368
0.007299 0.901718 0.832916
0.007046 0.901464 0.901464
0.006793 0.901211 0.970013
0.006627 0.901045 1.000000
0.007995 0.971215 0.000000
0.007829 0.971049 0.007829
0.007576 0.970796 0.076377
0.007323 0.970543 0.144926
0.007070 0.970290 0.213474
0.006817 0.970037 0.282022
0.006564 0.969784 0.350571
0.006311 0.969530 0.419119
0.006057 0.969277 0.487667
0.005804 0.969024 0.556216
0.005551 0.968771 0.624764
0.005298 0.968518 0.693312
0.005045 0.968265 0.761861
0.004792 0.968012 0.830409
0.004539 0.967759 0.898957
0.004286 0.967506 0.967506
0.004119 0.967339 1.000000
0.006347 1.000000 0.000000
0.006181 1.000000 0.006181
0.005928 1.000000 0.074729
0.005675 1.000000 0.143278
0.005422 1.000000 0.211826
0.005169 1.000000 0.280374
0.004915 1.000000 0.348923
0.004662 1.000000 0.417471
0.004409 1.000000 0.486019
0.004156 1.000000 0.554568
0.003903 1.000000 0.623116
0.003650 1.000000 0.691664
0.003397 1.000000 0.760213
0.003144 1.000000 0.828761
0.002891 1.000000 0.897309
0.002638 1.000000 0.965858
0.002471 1.000000 1.000000
0.112798 0.000000 0.000000
0.112632 0.000000 0.043831
0.112379 0.000000 0.112379
0.112126 0.000000 0.180927
0.111873 0.000000 0.249476
0.111620 0.000000 0.318024
0.111367 0.000000 0.386572
0.111113 0.000000 0.455121
0.110860 0.000000 0.523669
0.110607 0.000000 0.592217
0.110354 0.000000 0.660766
0.110101 0.000000 0.729314
0.109848 0.000000 0.797862
0.109595 0.000000 0.866411
0.109342 0.000000 0.934959
0.109089 0.000000 1.000000
0.108922 0.000000 1.000000
0.111150 0.042349 0.000000
0.110984 0.042182 0.042182
0.110731 0.041929 0.110731
0.110478 0.041676 0.179279
0.110225 0.041423 0.247827
0.109971 0.041170 0.316376
0.109718 0.040917 0.384924
0.109465 0.040664 0.453472
0.109212 0.040411 0.522021
0.108959 0.040158 0.590569
0.108706 0.039905 0.659117
0.108453 0.039652 0.727666
0.108200 0.039398 0.796214
0.107947 0.039145 0.864762
0.107694 0.038892 0.933311
0.107441 0.038639 1.000000
0.107274 0.038473 1.000000
0.108643 0.108643 0.000000
0.108477 0.108477 0.039675
0.108224 0.108224 0.108224
0.107971 0.107971 0.176772
0.107718 0.107718 0.245320
0.107464 0.107464 0.313869
0.107211 0.107211 0.382417
0.106958 0.106958 0.450965
0.106705 0.106705 0.519514
0.106452 0.106452 0.588062
0.106199 0.106199 0.656610
0.105946 0.105946 0.725159
0.105693 0.105693 0.793707
0.105440 0.105440 0.862255
0.105187 0.105187 0.930804
0.104934 0.104934 0.999352
0.104767 0.104767 1.000000
0.106136 0.174938 0.000000
0.105970 0.174771 0.037168
0.105717 0.174518 0.105717
0.105464 0.174265 0.174265
0.105210 0.174012 0.242813
0.104957 0.173759 0.311362
0.104704 0.173506 0.379910
0.104451 0.173253 0.448458
0.104198 0.173000 0.517007
0.103945 0.172746 0.585555
0.103692 0.172493 0.654103
0.103439 0.172240 0.722652
0.103186 0.171987 0.791200
0.102933 0.171734 0.859748
0.102680 0.171481 0.928297
0.102427 0.171228 0.996845
0.102260 0.171062 1.000000
0.103629 0.241232 0.000000
0.103463 0.241066 0.034661
0.103210 0.240812 0.103210
0.102957 0.240559 0.171758
0.102703 0.240306 0.240306
0.102450 0.240053 0.308855
0.102197 0.239800 0.377403
0.101944 0.239547 0.445951
0.101691 0.239294 0.514500
0.101438 0.239041 0.583048
0.101185 0.238788 0.651596
0.100932 0.238535 0.720145
0.100679 0.238282 0.788693
0.100426 0.238028 0.857241
0.100173 0.237775 0.925790
0.099919 0.237522 0.994338
0.099753 0.237356 1.000000
0.101122 0.307526 0.000000
0.100956 0.307360 0.032154
0.100703 0.307107 0.100703
0.100449 0.306854 0.169251
0.100196 0.306601 0.237799
0.099943 0.306348 0.306348
0.099690 0.306094 0.374896
0.099437 0.305841 0.443444
0.099184 0.305588 0.511993
0.098931 0.305335 0.580541
0.098678 0.305082 0.649089
0.098425 0.304829 0.717638
0.098172 0.304576 0.786186
0.097919 0.304323 0.854734
0.097666 0.304070 0.923283
0.097412 0.303817 0.991831
0.097246 0.303650 1.000000
0.098615 0.373821 0.000000
0.098449 0.373654 0.029647
0.098196 0.373401 0.098196
0.097942 0.373148 0.166744
0.097689 0.372895 0.235292
0.097436 0.372642 0.303841
0.097183 0.372389 0.372389
0.096930 0.372136 0.440937
0.096677 0.371883 0.509486
0.096424 0.371630 0.578034
0.096171 0.371377 0.646582
0.095918 0.371123 0.715131
0.095665 0.370870 0.783679
0.095412 0.370617 0.852227
0.095158 0.370364 0.920776
0.094905 0.370111 0.989324
0.094739 0.369945 1.000000
0.096108 0.440115 0.000000
0.095942 0.439949 0.027140
0.095688 0.439696 0.095688
0.095435 0.439443 0.164237
0.095182 0.439189 0.232785
0.094929 0.438936 0.301333
0.094676 0.438683 0.369882
0.094423 0.438430 0.438430
0.094170 0.438177 0.506978
0.093917 0.437924 0.575527
0.093664 0.437671 0.644075
0.093411 0.437418 0.712623
0.093158 0.437165 0.781172
0.092905 0.436912 0.849720
0.092651 0.436659 0.918268
0.092398 0.436405 0.986817
0.092232 0.436239 1.000000
0.093601 0.506409 0.000000
0.093435 0.506243 0.024633
0.093181 0.505990 0.093181
0.092928 0.505737 0.161730
0.092675 0.505484 0.230278
0.092422 0.505231 0.298826
0.092169 0.504978 0.367375
0.091916 0.504725 0.435923
0.091663 0.504471 0.504471
0.091410 0.504218 0.573020
0.091157 0.503965 0.641568
0.090904 0.503712 0.710116
0.090651 0.503459 0.778665
0.090397 0.503206 0.847213
0.090144 0.502953 0.915761
0.089891 0.502700 0.984310
0.089725 0.502533 1.000000
0.091094 0.572704 0.000000
0.090928 0.572537 0.022126
0.090674 0.572284 0.090674
0.090421 0.572031 0.159223
0.090168 0.571778 0.227771
0.089915 0.571525 0.296319
0.089662 0.571272 0.364868
0.089409 0.571019 0.433416
0.089156 0.570766 0.501964
0.088903 0.570513 0.570513
0.088650 0.570260 0.639061
0.088397 0.570007 0.707609
0.088144 0.569753 0.776158
0.087890 0.569500 0.844706
0.087637 0.569247 0.913254
0.087384 0.568994 0.981803
0.087218 0.568828 1.000000
0.088587 0.638998 0.000000
0.088420 0.638832 0.019619
0.088167 0.638579 0.088167
0.087914 0.638326 0.156716
0.087661 0.638073 0.225264
0.087408 0.637819 0.293812
0.087155 0.637566 0.362361
0.086902 0.637313 0.430909
0.086649 0.637060 0.499457
0.086396 0.636807 0.568006
0.086143 0.636554 0.636554
0.085890 0.636301 0.705102
0.085637 0.636048 0.773651
0.085383 0.635795 0.842199
0.085130 0.635542 0.910747
0.084877 0.635289 0.979296
0.084711 0.635122 1.000000
0.086080 0.705293 0.000000
0.085913 0.705126 0.017112
0.085660 0.704873 0.085660
0.085407 0.704620 0.154209
0.085154 0.704367 0.222757
0.084901 0.704114 0.291305
0.084648 0.703861 0.359854
0.084395 0.703608 0.428402
0.084142 0.703355 0.496950
0.083889 0.703102 0.565499
0.083636 0.702848 0.634047
0.083383 0.702595 0.702595
0.083129 0.702342 0.771144
0.082876 0.702089 0.839692
0.082623 0.701836 0.908240
0.082370 0.701583 0.976789
0.082204 0.701417 1.000000
0.083573 0.771587 0.000000
0.083406 0.771421 0.014605
0.083153 0.771167 0.083153
0.082900 0.770914 0.151702
0.082647 0.770661 0.220250
0.082394 0.770408 0.288798
0.082141 0.770155 0.357347
0.081888 0.769902 0.425895
0.081635 0.769649 0.494443
0.081382 0.769396 0.562992
0.081129 0.769143 0.631540
0.080876 0.768890 0.700088
0.080622 0.768637 0.768637
0.080369 0.768384 0.837185
0.080116 0.768130 0.905733
0.079863 0.767877 0.974282
0.079697 0.767711 1.000000
0.081066 0.837881 0.000000
0.080899 0.837715 0.012098
0.080646 0.837462 0.080646
0.080393 0.837209 0.149195
0.080140 0.836956 0.217743
0.079887 0.836703 0.286291
0.079634 0.836450 0.354840
0.079381 0.836196 0.423388
0.079128 0.835943 0.491936
0.078875 0.835690 0.560485
0.078622 0.835437 0.629033
0.078368 0.835184 0.697581
0.078115 0.834931 0.766130
0.077862 0.834678 0.834678
0.077609 0.834425 0.903226
0.077356 0.834172 0.971775
0.077190 0.834005 1.000000
0.078559 0.904176 0.000000
0.078392 0.904009 0.009591
0.078139 0.903756 0.078139
0.077886 0.903503 0.146688
0.077633 0.903250 0.215236
0.077380 0.902997 0.283784
0.077127 0.902744 0.352333
0.076874 0.902491 0.420881
0.076621 0.902238 0.489429
0.076368 0.901985 0.557978
0.076115 0.901732 0.626526
0.075861 0.901478 0.695074
0.075608 0.901225 0.763623
0.075355 0.900972 0.832171
0.075102 0.900719 0.900719
0.074849 0.900466 0.969268
0.074683 0.900300 1.000000
0.076052 0.970470 0.000000
0.075885 0.970304 0.007084
0.075632 0.970051 0.075632
0.075379 0.969798 0.144181
0.075126 0.969544 0.212729
0.074873 0.969291 0.281277
0.074620 0.969038 0.349826
0.074367 0.968785 0.418374
0.074114 0.968532 0.486922
0.073861 0.968279 0.555471
0.073607 0.968026 0.624019
0.073354 0.967773 0.692567
0.073101 0.967520 0.761116
0.072848 0.967267 0.829664
0.072595 0.967014 0.898212
0.072342 0.966761 0.966761
0.072176 0.966594 1.000000
0.074403 1.000000 0.000000
0.074237 1.000000 0.005436
0.073984 1.000000 0.073984
0.073731 1.000000 0.142532
0.073478 1.000000 0.211081
0.073225 1.000000 0.279629
0.072972 1.000000 0.348177
0.072719 1.000000 0.416726
0.072465 1.000000 0.485274
0.072212 1.000000 0.553822
0.071959 1.000000 0.622371
0.071706 1.000000 0.690919
0.071453 1.000000 0.759467
0.071200 1.000000 0.828016
0.070947 1.000000 0.896564
0.070694 1.000000 0.965112
0.070527 1.000000 1.000000
0.180855 0.000000 0.000000
0.180688 0.000000 0.043085
0.180435 0.000000 0.111634
0.180182 0.000000 0.180182
0.179929 0.000000 0.248730
0.179676 0.000000 0.317279
0.179423 0.000000 0.385827
0.179170 0.000000 0.454375
0.178917 0.000000 0.522924
0.178663 0.000000 0.591472
0.178410 0.000000 0.660020
0.178157 0.000000 0.728569
0.177904 0.000000 0.797117
0.177651 0.000000 0.865665
0.177398 0.000000 0.934214
0.177145 0.000000 1.000000
0.176979 0.000000 1.000000
0.179206 0.041604 0.000000
