skills/editops-orchestrator/assets/grade/luts/product_clean_v20.cube
TITLE "product_clean_v20"
LUT_3D_SIZE 5
DOMAIN_MIN 0.0 0.0 0.0
DOMAIN_MAX 1.0 1.0 1.0
0.000000 0.000000 0.000000
0.000000 0.000000 0.250721
0.000000 0.000000 0.527834
0.000000 0.000000 0.804947
0.000000 0.000000 1.000000
0.000000 0.241558 0.000000
0.000000 0.240530 0.240530
0.000000 0.239392 0.517642
0.000000 0.238255 0.794755
0.000000 0.237226 1.000000
0.000000 0.508544 0.000000
0.000000 0.507515 0.229265
0.000000 0.506378 0.506378
0.000000 0.505241 0.783491
0.000000 0.504212 1.000000
0.000000 0.775530 0.000000
0.000000 0.774501 0.218001
0.000000 0.773364 0.495114
0.000000 0.772226 0.772226
0.000000 0.771198 1.000000
0.000000 1.000000 0.000000
0.000000 1.000000 0.207809
0.000000 1.000000 0.484922
0.000000 1.000000 0.762035
0.000000 1.000000 1.000000
0.248720 0.000000 0.000000
0.247692 0.000000 0.247692
0.246554 0.000000 0.524804
0.245417 0.000000 0.801917
0.244388 0.000000 1.000000
0.238529 0.238529 0.000000
0.237500 0.237500 0.237500
0.236363 0.236363 0.514613
0.235226 0.235226 0.791726
0.234197 0.234197 1.000000
0.227264 0.505514 0.000000
0.226236 0.504486 0.226236
0.225098 0.503348 0.503348
0.223961 0.502211 0.780461
0.222932 0.501182 1.000000
0.216000 0.772500 0.000000
0.214971 0.771471 0.214971
0.213834 0.770334 0.492084
0.212697 0.769197 0.769197
0.211668 0.768168 1.000000
0.205808 1.000000 0.000000
0.204780 1.000000 0.204780
0.203642 1.000000 0.481892
0.202505 1.000000 0.759005
0.201476 1.000000 1.000000
0.523622 0.000000 0.000000
0.522593 0.000000 0.244343
0.521456 0.000000 0.521456
0.520319 0.000000 0.798569
0.519290 0.000000 1.000000
0.513430 0.235180 0.000000
0.512402 0.234152 0.234152
0.511264 0.233014 0.511264
0.510127 0.231877 0.788377
0.509098 0.230848 1.000000
0.502166 0.502166 0.000000
0.501137 0.501137 0.222887
0.500000 0.500000 0.500000
0.498863 0.498863 0.777113
0.497834 0.497834 1.000000
0.490902 0.769152 0.000000
0.489873 0.768123 0.211623
0.488736 0.766986 0.488736
0.487598 0.765848 0.765848
0.486570 0.764820 1.000000
0.480710 1.000000 0.000000
0.479681 1.000000 0.201431
0.478544 1.000000 0.478544
0.477407 1.000000 0.755657
0.476378 1.000000 1.000000
0.798524 0.000000 0.000000
0.797495 0.000000 0.240995
0.796358 0.000000 0.518108
0.795220 0.000000 0.795220
0.794192 0.000000 1.000000
0.788332 0.231832 0.000000
0.787303 0.230803 0.230803
0.786166 0.229666 0.507916
0.785029 0.228529 0.785029
0.784000 0.227500 1.000000
0.777068 0.498818 0.000000
0.776039 0.497789 0.219539
0.774902 0.496652 0.496652
0.773764 0.495514 0.773764
0.772736 0.494486 1.000000
0.765803 0.765803 0.000000
0.764774 0.764774 0.208274
0.763637 0.763637 0.485387
0.762500 0.762500 0.762500
0.761471 0.761471 1.000000
0.755612 1.000000 0.000000
0.754583 1.000000 0.198083
0.753446 1.000000 0.475196
0.752308 1.000000 0.752308
0.751280 1.000000 1.000000
1.000000 0.000000 0.000000
1.000000 0.000000 0.237965
1.000000 0.000000 0.515078
1.000000 0.000000 0.792191
1.000000 0.000000 1.000000
1.000000 0.228802 0.000000
1.000000 0.227774 0.227774
1.000000 0.226636 0.504886
1.000000 0.225499 0.781999
1.000000 0.224470 1.000000
1.000000 0.495788 0.000000
1.000000 0.494759 0.216509
1.000000 0.493622 0.493622
1.000000 0.492485 0.770735
1.000000 0.491456 1.000000
1.000000 0.762774 0.000000
1.000000 0.761745 0.205245
1.000000 0.760608 0.482358
1.000000 0.759470 0.759470
1.000000 0.758442 1.000000
1.000000 1.000000 0.000000
1.000000 1.000000 0.195053
1.000000 1.000000 0.472166
1.000000 1.000000 0.749279
1.000000 1.000000 1.000000
