skills/editops-orchestrator/assets/grade/luts/product_clean_v12.cube
TITLE "product_clean_v12"
LUT_3D_SIZE 17
DOMAIN_MIN 0.0 0.0 0.0
DOMAIN_MAX 1.0 1.0 1.0
0.000000 0.000000 0.000000
0.000000 0.000000 0.051442
0.000000 0.000000 0.117823
0.000000 0.000000 0.184205
0.000000 0.000000 0.250587
0.000000 0.000000 0.316969
0.000000 0.000000 0.383351
0.000000 0.000000 0.449733
0.000000 0.000000 0.516114
0.000000 0.000000 0.582496
0.000000 0.000000 0.648878
0.000000 0.000000 0.715260
0.000000 0.000000 0.781642
0.000000 0.000000 0.848024
0.000000 0.000000 0.914405
0.000000 0.000000 0.980787
0.000000 0.000000 1.000000
0.000000 0.050329 0.000000
0.000000 0.050204 0.050204
0.000000 0.050042 0.116585
0.000000 0.049881 0.182967
0.000000 0.049720 0.249349
0.000000 0.049558 0.315731
0.000000 0.049397 0.382113
0.000000 0.049236 0.448494
0.000000 0.049075 0.514876
0.000000 0.048913 0.581258
0.000000 0.048752 0.647640
0.000000 0.048591 0.714022
0.000000 0.048429 0.780404
0.000000 0.048268 0.846785
0.000000 0.048107 0.913167
0.000000 0.047946 0.979549
0.000000 0.047821 1.000000
0.000000 0.115274 0.000000
0.000000 0.115149 0.048606
0.000000 0.114988 0.114988
0.000000 0.114826 0.181370
0.000000 0.114665 0.247751
0.000000 0.114504 0.314133
0.000000 0.114343 0.380515
0.000000 0.114181 0.446897
0.000000 0.114020 0.513279
0.000000 0.113859 0.579660
0.000000 0.113697 0.646042
0.000000 0.113536 0.712424
0.000000 0.113375 0.778806
0.000000 0.113214 0.845188
0.000000 0.113052 0.911570
0.000000 0.112891 0.977951
0.000000 0.112766 1.000000
0.000000 0.180219 0.000000
0.000000 0.180094 0.047008
0.000000 0.179933 0.113390
0.000000 0.179772 0.179772
0.000000 0.179611 0.246154
0.000000 0.179449 0.312535
0.000000 0.179288 0.378917
0.000000 0.179127 0.445299
0.000000 0.178965 0.511681
0.000000 0.178804 0.578063
0.000000 0.178643 0.644445
0.000000 0.178482 0.710826
0.000000 0.178320 0.777208
0.000000 0.178159 0.843590
0.000000 0.177998 0.909972
0.000000 0.177836 0.976354
0.000000 0.177711 1.000000
0.000000 0.245165 0.000000
0.000000 0.245040 0.045411
0.000000 0.244879 0.111792
0.000000 0.244717 0.178174
0.000000 0.244556 0.244556
0.000000 0.244395 0.310938
0.000000 0.244233 0.377320
0.000000 0.244072 0.443701
0.000000 0.243911 0.510083
0.000000 0.243750 0.576465
0.000000 0.243588 0.642847
0.000000 0.243427 0.709229
0.000000 0.243266 0.775611
0.000000 0.243104 0.841992
0.000000 0.242943 0.908374
0.000000 0.242782 0.974756
0.000000 0.242657 1.000000
0.000000 0.310110 0.000000
0.000000 0.309985 0.043813
0.000000 0.309824 0.110195
0.000000 0.309663 0.176576
0.000000 0.309501 0.242958
0.000000 0.309340 0.309340
0.000000 0.309179 0.375722
0.000000 0.309018 0.442104
0.000000 0.308856 0.508486
0.000000 0.308695 0.574867
0.000000 0.308534 0.641249
0.000000 0.308372 0.707631
0.000000 0.308211 0.774013
0.000000 0.308050 0.840395
0.000000 0.307889 0.906777
0.000000 0.307727 0.973158
0.000000 0.307602 1.000000
0.000000 0.375056 0.000000
0.000000 0.374931 0.042215
0.000000 0.374769 0.108597
0.000000 0.374608 0.174979
0.000000 0.374447 0.241361
0.000000 0.374286 0.307742
0.000000 0.374124 0.374124
0.000000 0.373963 0.440506
0.000000 0.373802 0.506888
0.000000 0.373640 0.573270
0.000000 0.373479 0.639652
0.000000 0.373318 0.706033
0.000000 0.373157 0.772415
0.000000 0.372995 0.838797
0.000000 0.372834 0.905179
0.000000 0.372673 0.971561
0.000000 0.372548 1.000000
0.000000 0.440001 0.000000
0.000000 0.439876 0.040617
0.000000 0.439715 0.106999
0.000000 0.439554 0.173381
0.000000 0.439392 0.239763
0.000000 0.439231 0.306145
0.000000 0.439070 0.372527
0.000000 0.438908 0.438908
0.000000 0.438747 0.505290
0.000000 0.438586 0.571672
0.000000 0.438425 0.638054
0.000000 0.438263 0.704436
0.000000 0.438102 0.770817
0.000000 0.437941 0.837199
0.000000 0.437779 0.903581
0.000000 0.437618 0.969963
0.000000 0.437493 1.000000
0.000000 0.504947 0.000000
0.000000 0.504822 0.039020
0.000000 0.504660 0.105402
0.000000 0.504499 0.171783
0.000000 0.504338 0.238165
0.000000 0.504176 0.304547
0.000000 0.504015 0.370929
0.000000 0.503854 0.437311
0.000000 0.503693 0.503693
0.000000 0.503531 0.570074
0.000000 0.503370 0.636456
0.000000 0.503209 0.702838
0.000000 0.503047 0.769220
0.000000 0.502886 0.835602
0.000000 0.502725 0.901983
0.000000 0.502564 0.968365
0.000000 0.502439 1.000000
0.000000 0.569892 0.000000
0.000000 0.569767 0.037422
0.000000 0.569606 0.103804
0.000000 0.569444 0.170186
0.000000 0.569283 0.236568
0.000000 0.569122 0.302949
0.000000 0.568961 0.369331
0.000000 0.568799 0.435713
0.000000 0.568638 0.502095
0.000000 0.568477 0.568477
0.000000 0.568315 0.634858
0.000000 0.568154 0.701240
0.000000 0.567993 0.767622
0.000000 0.567832 0.834004
0.000000 0.567670 0.900386
0.000000 0.567509 0.966768
0.000000 0.567384 1.000000
0.000000 0.634837 0.000000
0.000000 0.634712 0.035824
0.000000 0.634551 0.102206
0.000000 0.634390 0.168588
0.000000 0.634229 0.234970
0.000000 0.634067 0.301352
0.000000 0.633906 0.367734
0.000000 0.633745 0.434115
0.000000 0.633583 0.500497
0.000000 0.633422 0.566879
0.000000 0.633261 0.633261
0.000000 0.633100 0.699643
0.000000 0.632938 0.766024
0.000000 0.632777 0.832406
0.000000 0.632616 0.898788
0.000000 0.632454 0.965170
0.000000 0.632329 1.000000
0.000000 0.699783 0.000000
0.000000 0.699658 0.034227
0.000000 0.699497 0.100609
0.000000 0.699335 0.166990
0.000000 0.699174 0.233372
0.000000 0.699013 0.299754
0.000000 0.698851 0.366136
0.000000 0.698690 0.432518
0.000000 0.698529 0.498899
0.000000 0.698368 0.565281
0.000000 0.698206 0.631663
0.000000 0.698045 0.698045
0.000000 0.697884 0.764427
0.000000 0.697722 0.830809
0.000000 0.697561 0.897190
0.000000 0.697400 0.963572
0.000000 0.697275 1.000000
0.000000 0.764728 0.000000
0.000000 0.764603 0.032629
0.000000 0.764442 0.099011
0.000000 0.764281 0.165393
0.000000 0.764119 0.231775
0.000000 0.763958 0.298156
0.000000 0.763797 0.364538
0.000000 0.763636 0.430920
0.000000 0.763474 0.497302
0.000000 0.763313 0.563684
0.000000 0.763152 0.630065
0.000000 0.762990 0.696447
0.000000 0.762829 0.762829
0.000000 0.762668 0.829211
0.000000 0.762507 0.895593
0.000000 0.762345 0.961975
0.000000 0.762220 1.000000
0.000000 0.829674 0.000000
0.000000 0.829549 0.031031
0.000000 0.829387 0.097413
0.000000 0.829226 0.163795
0.000000 0.829065 0.230177
0.000000 0.828904 0.296559
0.000000 0.828742 0.362940
0.000000 0.828581 0.429322
0.000000 0.828420 0.495704
0.000000 0.828258 0.562086
0.000000 0.828097 0.628468
0.000000 0.827936 0.694850
0.000000 0.827775 0.761231
0.000000 0.827613 0.827613
0.000000 0.827452 0.893995
0.000000 0.827291 0.960377
0.000000 0.827166 1.000000
0.000000 0.894619 0.000000
0.000000 0.894494 0.029434
0.000000 0.894333 0.095815
0.000000 0.894172 0.162197
0.000000 0.894010 0.228579
0.000000 0.893849 0.294961
0.000000 0.893688 0.361343
0.000000 0.893526 0.427725
0.000000 0.893365 0.494106
0.000000 0.893204 0.560488
0.000000 0.893043 0.626870
0.000000 0.892881 0.693252
0.000000 0.892720 0.759634
0.000000 0.892559 0.826016
0.000000 0.892397 0.892397
0.000000 0.892236 0.958779
0.000000 0.892111 1.000000
0.000000 0.959565 0.000000
0.000000 0.959440 0.027836
0.000000 0.959278 0.094218
0.000000 0.959117 0.160600
0.000000 0.958956 0.226981
0.000000 0.958794 0.293363
0.000000 0.958633 0.359745
0.000000 0.958472 0.426127
0.000000 0.958311 0.492509
0.000000 0.958149 0.558891
0.000000 0.957988 0.625272
0.000000 0.957827 0.691654
0.000000 0.957665 0.758036
0.000000 0.957504 0.824418
0.000000 0.957343 0.890800
0.000000 0.957181 0.957181
0.000000 0.957057 1.000000
0.000000 1.000000 0.000000
0.000000 1.000000 0.026598
0.000000 1.000000 0.092980
0.000000 1.000000 0.159362
0.000000 1.000000 0.225743
0.000000 1.000000 0.292125
0.000000 1.000000 0.358507
0.000000 1.000000 0.424889
0.000000 1.000000 0.491271
0.000000 1.000000 0.557652
0.000000 1.000000 0.624034
0.000000 1.000000 0.690416
0.000000 1.000000 0.756798
0.000000 1.000000 0.823180
0.000000 1.000000 0.889562
0.000000 1.000000 0.955943
0.000000 1.000000 1.000000
0.051199 0.000000 0.000000
0.051074 0.000000 0.051074
0.050912 0.000000 0.117455
0.050751 0.000000 0.183837
0.050590 0.000000 0.250219
0.050428 0.000000 0.316601
0.050267 0.000000 0.382983
0.050106 0.000000 0.449365
0.049945 0.000000 0.515746
0.049783 0.000000 0.582128
0.049622 0.000000 0.648510
0.049461 0.000000 0.714892
0.049299 0.000000 0.781274
0.049138 0.000000 0.847655
0.048977 0.000000 0.914037
0.048816 0.000000 0.980419
0.048691 0.000000 1.000000
0.049961 0.049961 0.000000
0.049836 0.049836 0.049836
0.049674 0.049674 0.116217
0.049513 0.049513 0.182599
0.049352 0.049352 0.248981
0.049190 0.049190 0.315363
0.049029 0.049029 0.381745
0.048868 0.048868 0.448126
0.048707 0.048707 0.514508
0.048545 0.048545 0.580890
0.048384 0.048384 0.647272
0.048223 0.048223 0.713654
0.048061 0.048061 0.780036
0.047900 0.047900 0.846417
0.047739 0.047739 0.912799
0.047578 0.047578 0.979181
0.047453 0.047453 1.000000
0.048363 0.114906 0.000000
0.048238 0.114781 0.048238
0.048077 0.114620 0.114620
0.047915 0.114458 0.181001
0.047754 0.114297 0.247383
0.047593 0.114136 0.313765
0.047431 0.113975 0.380147
0.047270 0.113813 0.446529
0.047109 0.113652 0.512911
0.046948 0.113491 0.579292
0.046786 0.113329 0.645674
0.046625 0.113168 0.712056
0.046464 0.113007 0.778438
0.046302 0.112846 0.844820
0.046141 0.112684 0.911202
0.045980 0.112523 0.977583
0.045855 0.112398 1.000000
0.046765 0.179851 0.000000
0.046640 0.179726 0.046640
0.046479 0.179565 0.113022
0.046318 0.179404 0.179404
0.046156 0.179243 0.245786
0.045995 0.179081 0.312167
0.045834 0.178920 0.378549
0.045672 0.178759 0.444931
0.045511 0.178597 0.511313
0.045350 0.178436 0.577695
0.045189 0.178275 0.644077
0.045027 0.178114 0.710458
0.044866 0.177952 0.776840
0.044705 0.177791 0.843222
0.044543 0.177630 0.909604
0.044382 0.177468 0.975986
0.044257 0.177343 1.000000
0.045167 0.244797 0.000000
0.045042 0.244672 0.045042
0.044881 0.244511 0.111424
0.044720 0.244349 0.177806
0.044559 0.244188 0.244188
0.044397 0.244027 0.310570
0.044236 0.243865 0.376952
0.044075 0.243704 0.443333
0.043913 0.243543 0.509715
0.043752 0.243382 0.576097
0.043591 0.243220 0.642479
0.043430 0.243059 0.708861
0.043268 0.242898 0.775243
0.043107 0.242736 0.841624
0.042946 0.242575 0.908006
0.042784 0.242414 0.974388
0.042659 0.242289 1.000000
0.043570 0.309742 0.000000
0.043445 0.309617 0.043445
0.043284 0.309456 0.109827
0.043122 0.309295 0.176208
0.042961 0.309133 0.242590
0.042800 0.308972 0.308972
0.042638 0.308811 0.375354
0.042477 0.308650 0.441736
0.042316 0.308488 0.508118
0.042154 0.308327 0.574499
0.041993 0.308166 0.640881
0.041832 0.308004 0.707263
0.041671 0.307843 0.773645
0.041509 0.307682 0.840027
0.041348 0.307520 0.906408
0.041187 0.307359 0.972790
0.041062 0.307234 1.000000
0.041972 0.374688 0.000000
0.041847 0.374563 0.041847
0.041686 0.374401 0.108229
0.041525 0.374240 0.174611
0.041363 0.374079 0.240993
0.041202 0.373918 0.307374
0.041041 0.373756 0.373756
0.040879 0.373595 0.440138
0.040718 0.373434 0.506520
0.040557 0.373272 0.572902
0.040396 0.373111 0.639284
0.040234 0.372950 0.705665
0.040073 0.372788 0.772047
0.039912 0.372627 0.838429
0.039750 0.372466 0.904811
0.039589 0.372305 0.971193
0.039464 0.372180 1.000000
0.040374 0.439633 0.000000
0.040249 0.439508 0.040249
0.040088 0.439347 0.106631
0.039927 0.439186 0.173013
0.039766 0.439024 0.239395
0.039604 0.438863 0.305777
0.039443 0.438702 0.372159
0.039282 0.438540 0.438540
0.039120 0.438379 0.504922
0.038959 0.438218 0.571304
0.038798 0.438056 0.637686
0.038637 0.437895 0.704068
0.038475 0.437734 0.770449
0.038314 0.437573 0.836831
0.038153 0.437411 0.903213
0.037991 0.437250 0.969595
0.037866 0.437125 1.000000
0.038777 0.504578 0.000000
0.038652 0.504454 0.038652
0.038490 0.504292 0.105034
0.038329 0.504131 0.171415
0.038168 0.503970 0.237797
0.038007 0.503808 0.304179
0.037845 0.503647 0.370561
0.037684 0.503486 0.436943
0.037523 0.503324 0.503324
0.037361 0.503163 0.569706
0.037200 0.503002 0.636088
0.037039 0.502841 0.702470
0.036878 0.502679 0.768852
0.036716 0.502518 0.835234
0.036555 0.502357 0.901615
0.036394 0.502195 0.967997
0.036269 0.502070 1.000000
0.037179 0.569524 0.000000
0.037054 0.569399 0.037054
0.036893 0.569238 0.103436
0.036731 0.569076 0.169818
0.036570 0.568915 0.236200
0.036409 0.568754 0.302581
0.036248 0.568592 0.368963
0.036086 0.568431 0.435345
0.035925 0.568270 0.501727
0.035764 0.568109 0.568109
0.035602 0.567947 0.634490
0.035441 0.567786 0.700872
0.035280 0.567625 0.767254
0.035119 0.567463 0.833636
0.034957 0.567302 0.900018
0.034796 0.567141 0.966400
0.034671 0.567016 1.000000
0.035581 0.634469 0.000000
0.035456 0.634344 0.035456
0.035295 0.634183 0.101838
0.035134 0.634022 0.168220
0.034973 0.633860 0.234602
0.034811 0.633699 0.300984
0.034650 0.633538 0.367365
0.034489 0.633377 0.433747
0.034327 0.633215 0.500129
0.034166 0.633054 0.566511
0.034005 0.632893 0.632893
0.033843 0.632731 0.699275
0.033682 0.632570 0.765656
0.033521 0.632409 0.832038
0.033360 0.632248 0.898420
0.033198 0.632086 0.964802
0.033073 0.631961 1.000000
0.033984 0.699415 0.000000
0.033859 0.699290 0.033859
0.033697 0.699128 0.100241
0.033536 0.698967 0.166622
0.033375 0.698806 0.233004
0.033214 0.698645 0.299386
0.033052 0.698483 0.365768
0.032891 0.698322 0.432150
0.032730 0.698161 0.498531
0.032568 0.697999 0.564913
0.032407 0.697838 0.631295
0.032246 0.697677 0.697677
0.032085 0.697516 0.764059
0.031923 0.697354 0.830441
0.031762 0.697193 0.896822
0.031601 0.697032 0.963204
0.031476 0.696907 1.000000
0.032386 0.764360 0.000000
0.032261 0.764235 0.032261
0.032100 0.764074 0.098643
0.031938 0.763913 0.165025
0.031777 0.763751 0.231406
0.031616 0.763590 0.297788
0.031455 0.763429 0.364170
0.031293 0.763267 0.430552
0.031132 0.763106 0.496934
0.030971 0.762945 0.563316
0.030809 0.762784 0.629697
0.030648 0.762622 0.696079
0.030487 0.762461 0.762461
0.030326 0.762300 0.828843
0.030164 0.762138 0.895225
0.030003 0.761977 0.961607
0.029878 0.761852 1.000000
0.030788 0.829306 0.000000
0.030663 0.829181 0.030663
0.030502 0.829019 0.097045
0.030341 0.828858 0.163427
0.030179 0.828697 0.229809
0.030018 0.828535 0.296191
0.029857 0.828374 0.362572
0.029696 0.828213 0.428954
0.029534 0.828052 0.495336
0.029373 0.827890 0.561718
0.029212 0.827729 0.628100
0.029050 0.827568 0.694482
0.028889 0.827406 0.760863
0.028728 0.827245 0.827245
0.028567 0.827084 0.893627
0.028405 0.826923 0.960009
0.028280 0.826798 1.000000
0.029191 0.894251 0.000000
0.029066 0.894126 0.029066
0.028904 0.893965 0.095447
0.028743 0.893803 0.161829
0.028582 0.893642 0.228211
0.028420 0.893481 0.294593
0.028259 0.893320 0.360975
0.028098 0.893158 0.427357
0.027937 0.892997 0.493738
0.027775 0.892836 0.560120
0.027614 0.892674 0.626502
0.027453 0.892513 0.692884
0.027291 0.892352 0.759266
0.027130 0.892191 0.825647
0.026969 0.892029 0.892029
0.026808 0.891868 0.958411
0.026683 0.891743 1.000000
0.027593 0.959196 0.000000
0.027468 0.959071 0.027468
0.027307 0.958910 0.093850
0.027145 0.958749 0.160232
0.026984 0.958588 0.226613
0.026823 0.958426 0.292995
0.026662 0.958265 0.359377
0.026500 0.958104 0.425759
0.026339 0.957942 0.492141
0.026178 0.957781 0.558523
0.026016 0.957620 0.624904
0.025855 0.957459 0.691286
0.025694 0.957297 0.757668
0.025532 0.957136 0.824050
0.025371 0.956975 0.890432
0.025210 0.956813 0.956813
0.025085 0.956688 1.000000
0.026355 1.000000 0.000000
0.026230 1.000000 0.026230
0.026069 1.000000 0.092612
0.025907 1.000000 0.158993
0.025746 1.000000 0.225375
0.025585 1.000000 0.291757
0.025423 1.000000 0.358139
0.025262 1.000000 0.424521
0.025101 1.000000 0.490903
0.024940 1.000000 0.557284
0.024778 1.000000 0.623666
0.024617 1.000000 0.690048
0.024456 1.000000 0.756430
0.024294 1.000000 0.822812
0.024133 1.000000 0.889194
0.023972 1.000000 0.955575
0.023847 1.000000 1.000000
0.117267 0.000000 0.000000
0.117142 0.000000 0.050599
0.116981 0.000000 0.116981
0.116819 0.000000 0.183362
0.116658 0.000000 0.249744
0.116497 0.000000 0.316126
0.116335 0.000000 0.382508
0.116174 0.000000 0.448890
0.116013 0.000000 0.515271
0.115852 0.000000 0.581653
0.115690 0.000000 0.648035
0.115529 0.000000 0.714417
0.115368 0.000000 0.780799
0.115206 0.000000 0.847181
0.115045 0.000000 0.913562
0.114884 0.000000 0.979944
0.114759 0.000000 1.000000
0.116029 0.049486 0.000000
0.115904 0.049361 0.049361
0.115742 0.049199 0.115742
0.115581 0.049038 0.182124
0.115420 0.048877 0.248506
0.115259 0.048715 0.314888
0.115097 0.048554 0.381270
0.114936 0.048393 0.447652
0.114775 0.048232 0.514033
0.114613 0.048070 0.580415
0.114452 0.047909 0.646797
0.114291 0.047748 0.713179
0.114130 0.047586 0.779561
0.113968 0.047425 0.845942
0.113807 0.047264 0.912324
0.113646 0.047103 0.978706
0.113521 0.046978 1.000000
0.114431 0.114431 0.000000
0.114306 0.114306 0.047763
0.114145 0.114145 0.114145
0.113983 0.113983 0.180527
0.113822 0.113822 0.246908
0.113661 0.113661 0.313290
0.113500 0.113500 0.379672
0.113338 0.113338 0.446054
0.113177 0.113177 0.512436
0.113016 0.113016 0.578817
0.112854 0.112854 0.645199
0.112693 0.112693 0.711581
0.112532 0.112532 0.777963
0.112371 0.112371 0.844345
0.112209 0.112209 0.910727
0.112048 0.112048 0.977108
0.111923 0.111923 1.000000
0.112833 0.179376 0.000000
0.112708 0.179251 0.046165
0.112547 0.179090 0.112547
0.112386 0.178929 0.178929
0.112224 0.178768 0.245311
0.112063 0.178606 0.311693
0.111902 0.178445 0.378074
0.111741 0.178284 0.444456
0.111579 0.178122 0.510838
0.111418 0.177961 0.577220
0.111257 0.177800 0.643602
0.111095 0.177639 0.709983
0.110934 0.177477 0.776365
0.110773 0.177316 0.842747
0.110612 0.177155 0.909129
0.110450 0.176993 0.975511
0.110325 0.176868 1.000000
0.111236 0.244322 0.000000
0.111111 0.244197 0.044568
0.110949 0.244036 0.110949
0.110788 0.243874 0.177331
0.110627 0.243713 0.243713
0.110466 0.243552 0.310095
0.110304 0.243390 0.376477
0.110143 0.243229 0.442858
0.109982 0.243068 0.509240
0.109820 0.242907 0.575622
0.109659 0.242745 0.642004
0.109498 0.242584 0.708386
0.109336 0.242423 0.774768
0.109175 0.242261 0.841149
0.109014 0.242100 0.907531
0.108853 0.241939 0.973913
0.108728 0.241814 1.000000
0.109638 0.309267 0.000000
0.109513 0.309142 0.042970
0.109352 0.308981 0.109352
0.109190 0.308820 0.175734
0.109029 0.308658 0.242115
0.108868 0.308497 0.308497
0.108707 0.308336 0.374879
0.108545 0.308175 0.441261
0.108384 0.308013 0.507643
0.108223 0.307852 0.574024
0.108061 0.307691 0.640406
0.107900 0.307529 0.706788
0.107739 0.307368 0.773170
0.107578 0.307207 0.839552
0.107416 0.307046 0.905934
0.107255 0.306884 0.972315
0.107130 0.306759 1.000000
0.108040 0.374213 0.000000
0.107915 0.374088 0.041372
0.107754 0.373926 0.107754
0.107593 0.373765 0.174136
0.107431 0.373604 0.240518
0.107270 0.373443 0.306899
0.107109 0.373281 0.373281
0.106948 0.373120 0.439663
0.106786 0.372959 0.506045
0.106625 0.372797 0.572427
0.106464 0.372636 0.638809
0.106302 0.372475 0.705190
0.106141 0.372314 0.771572
0.105980 0.372152 0.837954
0.105819 0.371991 0.904336
0.105657 0.371830 0.970718
0.105532 0.371705 1.000000
0.106443 0.439158 0.000000
0.106318 0.439033 0.039774
0.106156 0.438872 0.106156
0.105995 0.438711 0.172538
0.105834 0.438549 0.238920
0.105672 0.438388 0.305302
0.105511 0.438227 0.371684
0.105350 0.438065 0.438065
0.105189 0.437904 0.504447
0.105027 0.437743 0.570829
0.104866 0.437582 0.637211
0.104705 0.437420 0.703593
0.104543 0.437259 0.769975
0.104382 0.437098 0.836356
0.104221 0.436936 0.902738
0.104060 0.436775 0.969120
0.103935 0.436650 1.000000
0.104845 0.504104 0.000000
0.104720 0.503979 0.038177
0.104559 0.503817 0.104559
0.104397 0.503656 0.170940
0.104236 0.503495 0.237322
0.104075 0.503333 0.303704
0.103913 0.503172 0.370086
0.103752 0.503011 0.436468
0.103591 0.502850 0.502850
0.103430 0.502688 0.569231
0.103268 0.502527 0.635613
0.103107 0.502366 0.701995
0.102946 0.502204 0.768377
0.102784 0.502043 0.834759
0.102623 0.501882 0.901140
0.102462 0.501721 0.967522
0.102337 0.501596 1.000000
0.103247 0.569049 0.000000
0.103122 0.568924 0.036579
0.102961 0.568763 0.102961
0.102800 0.568601 0.169343
0.102638 0.568440 0.235725
0.102477 0.568279 0.302106
0.102316 0.568118 0.368488
0.102155 0.567956 0.434870
0.101993 0.567795 0.501252
0.101832 0.567634 0.567634
0.101671 0.567472 0.634016
0.101509 0.567311 0.700397
0.101348 0.567150 0.766779
0.101187 0.566989 0.833161
0.101025 0.566827 0.899543
0.100864 0.566666 0.965925
0.100739 0.566541 1.000000
0.101650 0.633994 0.000000
0.101525 0.633869 0.034981
0.101363 0.633708 0.101363
0.101202 0.633547 0.167745
0.101041 0.633386 0.234127
0.100879 0.633224 0.300509
0.100718 0.633063 0.366891
0.100557 0.632902 0.433272
0.100396 0.632740 0.499654
0.100234 0.632579 0.566036
0.100073 0.632418 0.632418
0.099912 0.632257 0.698800
0.099750 0.632095 0.765181
0.099589 0.631934 0.831563
0.099428 0.631773 0.897945
0.099267 0.631611 0.964327
0.099142 0.631486 1.000000
0.100052 0.698940 0.000000
0.099927 0.698815 0.033384
0.099766 0.698654 0.099766
0.099604 0.698492 0.166147
0.099443 0.698331 0.232529
0.099282 0.698170 0.298911
0.099120 0.698008 0.365293
0.098959 0.697847 0.431675
0.098798 0.697686 0.498057
0.098637 0.697525 0.564438
0.098475 0.697363 0.630820
0.098314 0.697202 0.697202
0.098153 0.697041 0.763584
0.097991 0.696879 0.829966
0.097830 0.696718 0.896347
0.097669 0.696557 0.962729
0.097544 0.696432 1.000000
0.098454 0.763885 0.000000
0.098329 0.763760 0.031786
0.098168 0.763599 0.098168
0.098007 0.763438 0.164550
0.097845 0.763276 0.230932
0.097684 0.763115 0.297313
0.097523 0.762954 0.363695
0.097361 0.762793 0.430077
0.097200 0.762631 0.496459
0.097039 0.762470 0.562841
0.096878 0.762309 0.629222
0.096716 0.762147 0.695604
0.096555 0.761986 0.761986
0.096394 0.761825 0.828368
0.096232 0.761664 0.894750
0.096071 0.761502 0.961132
0.095946 0.761377 1.000000
0.096856 0.828831 0.000000
0.096731 0.828706 0.030188
0.096570 0.828544 0.096570
0.096409 0.828383 0.162952
0.096248 0.828222 0.229334
0.096086 0.828061 0.295716
0.095925 0.827899 0.362097
0.095764 0.827738 0.428479
0.095602 0.827577 0.494861
0.095441 0.827415 0.561243
0.095280 0.827254 0.627625
0.095119 0.827093 0.694007
0.094957 0.826932 0.760388
0.094796 0.826770 0.826770
0.094635 0.826609 0.893152
0.094473 0.826448 0.959534
0.094348 0.826323 1.000000
0.095259 0.893776 0.000000
0.095134 0.893651 0.028591
0.094973 0.893490 0.094973
0.094811 0.893329 0.161354
0.094650 0.893167 0.227736
0.094489 0.893006 0.294118
0.094327 0.892845 0.360500
0.094166 0.892683 0.426882
0.094005 0.892522 0.493263
0.093844 0.892361 0.559645
0.093682 0.892200 0.626027
0.093521 0.892038 0.692409
0.093360 0.891877 0.758791
0.093198 0.891716 0.825173
0.093037 0.891554 0.891554
0.092876 0.891393 0.957936
0.092751 0.891268 1.000000
0.093661 0.958722 0.000000
0.093536 0.958597 0.026993
0.093375 0.958435 0.093375
0.093214 0.958274 0.159757
0.093052 0.958113 0.226138
0.092891 0.957951 0.292520
0.092730 0.957790 0.358902
0.092568 0.957629 0.425284
0.092407 0.957468 0.491666
0.092246 0.957306 0.558048
0.092085 0.957145 0.624429
0.091923 0.956984 0.690811
0.091762 0.956822 0.757193
0.091601 0.956661 0.823575
0.091439 0.956500 0.889957
0.091278 0.956339 0.956339
0.091153 0.956214 1.000000
0.092423 1.000000 0.000000
0.092298 1.000000 0.025755
0.092137 1.000000 0.092137
0.091975 1.000000 0.158519
0.091814 1.000000 0.224900
0.091653 1.000000 0.291282
0.091492 1.000000 0.357664
0.091330 1.000000 0.424046
0.091169 1.000000 0.490428
0.091008 1.000000 0.556809
0.090846 1.000000 0.623191
0.090685 1.000000 0.689573
0.090524 1.000000 0.755955
0.090363 1.000000 0.822337
0.090201 1.000000 0.888719
0.090040 1.000000 0.955100
0.089915 1.000000 1.000000
0.183335 0.000000 0.000000
0.183210 0.000000 0.050124
0.183049 0.000000 0.116506
0.182887 0.000000 0.182887
0.182726 0.000000 0.249269
0.182565 0.000000 0.315651
0.182404 0.000000 0.382033
0.182242 0.000000 0.448415
0.182081 0.000000 0.514797
0.181920 0.000000 0.581178
0.181758 0.000000 0.647560
0.181597 0.000000 0.713942
0.181436 0.000000 0.780324
0.181275 0.000000 0.846706
0.181113 0.000000 0.913087
0.180952 0.000000 0.979469
0.180827 0.000000 1.000000
0.182097 0.049011 0.000000
