skills/editops-orchestrator/assets/grade/luts/product_clean_v05.cube
TITLE "product_clean_v05"
LUT_3D_SIZE 9
DOMAIN_MIN 0.0 0.0 0.0
DOMAIN_MAX 1.0 1.0 1.0
0.000000 0.000000 0.000000
0.000000 0.000000 0.122471
0.000000 0.000000 0.250267
0.000000 0.000000 0.378064
0.000000 0.000000 0.505860
0.000000 0.000000 0.633656
0.000000 0.000000 0.761452
0.000000 0.000000 0.889248
0.000000 0.000000 1.000000
0.000000 0.121488 0.000000
0.000000 0.121378 0.121378
0.000000 0.121263 0.249174
0.000000 0.121147 0.376970
0.000000 0.121032 0.504766
0.000000 0.120917 0.632562
0.000000 0.120802 0.760359
0.000000 0.120687 0.888155
0.000000 0.120576 1.000000
0.000000 0.248258 0.000000
0.000000 0.248148 0.120237
0.000000 0.248033 0.248033
0.000000 0.247918 0.375829
0.000000 0.247802 0.503625
0.000000 0.247687 0.631421
0.000000 0.247572 0.759217
0.000000 0.247457 0.887014
0.000000 0.247346 1.000000
0.000000 0.375029 0.000000
0.000000 0.374918 0.119095
0.000000 0.374803 0.246892
0.000000 0.374688 0.374688
0.000000 0.374573 0.502484
0.000000 0.374457 0.630280
0.000000 0.374342 0.758076
0.000000 0.374227 0.885872
0.000000 0.374117 1.000000
0.000000 0.501799 0.000000
0.000000 0.501688 0.117954
0.000000 0.501573 0.245750
0.000000 0.501458 0.373547
0.000000 0.501343 0.501343
0.000000 0.501228 0.629139
0.000000 0.501112 0.756935
0.000000 0.500997 0.884731
0.000000 0.500887 1.000000
0.000000 0.628569 0.000000
0.000000 0.628459 0.116813
0.000000 0.628343 0.244609
0.000000 0.628228 0.372405
0.000000 0.628113 0.500202
0.000000 0.627998 0.627998
0.000000 0.627883 0.755794
0.000000 0.627767 0.883590
0.000000 0.627657 1.000000
0.000000 0.755339 0.000000
0.000000 0.755229 0.115672
0.000000 0.755114 0.243468
0.000000 0.754998 0.371264
0.000000 0.754883 0.499060
0.000000 0.754768 0.626857
0.000000 0.754653 0.754653
0.000000 0.754538 0.882449
0.000000 0.754427 1.000000
0.000000 0.882109 0.000000
0.000000 0.881999 0.114531
0.000000 0.881884 0.242327
0.000000 0.881769 0.370123
0.000000 0.881653 0.497919
0.000000 0.881538 0.625715
0.000000 0.881423 0.753512
0.000000 0.881308 0.881308
0.000000 0.881197 1.000000
0.000000 1.000000 0.000000
0.000000 1.000000 0.113437
0.000000 1.000000 0.241233
0.000000 1.000000 0.369030
0.000000 1.000000 0.496826
0.000000 1.000000 0.624622
0.000000 1.000000 0.752418
0.000000 1.000000 0.880214
0.000000 1.000000 1.000000
0.122257 0.000000 0.000000
0.122146 0.000000 0.122146
0.122031 0.000000 0.249942
0.121916 0.000000 0.377739
0.121801 0.000000 0.505535
0.121685 0.000000 0.633331
0.121570 0.000000 0.761127
0.121455 0.000000 0.888923
0.121345 0.000000 1.000000
0.121163 0.121163 0.000000
0.121053 0.121053 0.121053
0.120937 0.120937 0.248849
0.120822 0.120822 0.376645
0.120707 0.120707 0.504441
0.120592 0.120592 0.632237
0.120477 0.120477 0.760033
0.120361 0.120361 0.887830
0.120251 0.120251 1.000000
0.120022 0.247933 0.000000
0.119911 0.247823 0.119911
0.119796 0.247708 0.247708
0.119681 0.247592 0.375504
0.119566 0.247477 0.503300
0.119451 0.247362 0.631096
0.119335 0.247247 0.758892
0.119220 0.247132 0.886688
0.119110 0.247021 1.000000
0.118881 0.374703 0.000000
0.118770 0.374593 0.118770
0.118655 0.374478 0.246566
0.118540 0.374363 0.374363
0.118425 0.374247 0.502159
0.118310 0.374132 0.629955
0.118194 0.374017 0.757751
0.118079 0.373902 0.885547
0.117969 0.373791 1.000000
0.117740 0.501474 0.000000
0.117629 0.501363 0.117629
0.117514 0.501248 0.245425
0.117399 0.501133 0.373221
0.117284 0.501018 0.501018
0.117168 0.500902 0.628814
0.117053 0.500787 0.756610
0.116938 0.500672 0.884406
0.116828 0.500562 1.000000
0.116598 0.628244 0.000000
0.116488 0.628133 0.116488
0.116373 0.628018 0.244284
0.116258 0.627903 0.372080
0.116142 0.627788 0.499877
0.116027 0.627673 0.627673
0.115912 0.627557 0.755469
0.115797 0.627442 0.883265
0.115686 0.627332 1.000000
0.115457 0.755014 0.000000
0.115347 0.754904 0.115347
0.115232 0.754788 0.243143
0.115116 0.754673 0.370939
0.115001 0.754558 0.498735
0.114886 0.754443 0.626532
0.114771 0.754328 0.754328
0.114656 0.754212 0.882124
0.114545 0.754102 1.000000
0.114316 0.881784 0.000000
0.114206 0.881674 0.114206
0.114091 0.881559 0.242002
0.113975 0.881443 0.369798
0.113860 0.881328 0.497594
0.113745 0.881213 0.625390
0.113630 0.881098 0.753187
0.113515 0.880983 0.880983
0.113404 0.880872 1.000000
0.113223 1.000000 0.000000
0.113112 1.000000 0.113112
0.112997 1.000000 0.240908
0.112882 1.000000 0.368704
0.112767 1.000000 0.496501
0.112651 1.000000 0.624297
0.112536 1.000000 0.752093
0.112421 1.000000 0.879889
0.112311 1.000000 1.000000
0.249829 0.000000 0.000000
0.249718 0.000000 0.121807
0.249603 0.000000 0.249603
0.249488 0.000000 0.377399
0.249373 0.000000 0.505195
0.249258 0.000000 0.632992
0.249142 0.000000 0.760788
0.249027 0.000000 0.888584
0.248917 0.000000 1.000000
0.248735 0.120824 0.000000
0.248625 0.120713 0.120713
0.248510 0.120598 0.248510
0.248394 0.120483 0.376306
0.248279 0.120368 0.504102
0.248164 0.120253 0.631898
0.248049 0.120137 0.759694
0.247934 0.120022 0.887490
0.247823 0.119912 1.000000
0.247594 0.247594 0.000000
0.247484 0.247484 0.119572
0.247368 0.247368 0.247368
0.247253 0.247253 0.375165
0.247138 0.247138 0.502961
0.247023 0.247023 0.630757
0.246908 0.246908 0.758553
0.246792 0.246792 0.886349
0.246682 0.246682 1.000000
0.246453 0.374364 0.000000
0.246342 0.374254 0.118431
0.246227 0.374139 0.246227
0.246112 0.374023 0.374023
0.245997 0.373908 0.501820
0.245882 0.373793 0.629616
0.245766 0.373678 0.757412
0.245651 0.373563 0.885208
0.245541 0.373452 1.000000
0.245312 0.501134 0.000000
0.245201 0.501024 0.117290
0.245086 0.500909 0.245086
0.244971 0.500794 0.372882
0.244856 0.500678 0.500678
0.244741 0.500563 0.628475
0.244625 0.500448 0.756271
0.244510 0.500333 0.884067
0.244400 0.500222 1.000000
0.244171 0.627905 0.000000
0.244060 0.627794 0.116149
0.243945 0.627679 0.243945
0.243830 0.627564 0.371741
0.243715 0.627449 0.499537
0.243599 0.627333 0.627333
0.243484 0.627218 0.755130
0.243369 0.627103 0.882926
0.243259 0.626993 1.000000
0.243029 0.754675 0.000000
0.242919 0.754564 0.115008
0.242804 0.754449 0.242804
0.242689 0.754334 0.370600
0.242573 0.754219 0.498396
0.242458 0.754104 0.626192
0.242343 0.753988 0.753988
0.242228 0.753873 0.881785
0.242117 0.753763 1.000000
0.241888 0.881445 0.000000
0.241778 0.881335 0.113867
0.241663 0.881219 0.241663
0.241547 0.881104 0.369459
0.241432 0.880989 0.497255
0.241317 0.880874 0.625051
0.241202 0.880759 0.752847
0.241087 0.880643 0.880643
0.240976 0.880533 1.000000
0.240795 1.000000 0.000000
0.240684 1.000000 0.112773
0.240569 1.000000 0.240569
0.240454 1.000000 0.368365
0.240339 1.000000 0.496161
0.240223 1.000000 0.623958
0.240108 1.000000 0.751754
0.239993 1.000000 0.879550
0.239883 1.000000 1.000000
0.377401 0.000000 0.000000
0.377291 0.000000 0.121468
0.377175 0.000000 0.249264
0.377060 0.000000 0.377060
0.376945 0.000000 0.504856
0.376830 0.000000 0.632652
0.376715 0.000000 0.760449
0.376599 0.000000 0.888245
0.376489 0.000000 1.000000
0.376307 0.120485 0.000000
0.376197 0.120374 0.120374
0.376082 0.120259 0.248170
0.375967 0.120144 0.375967
0.375851 0.120029 0.503763
0.375736 0.119913 0.631559
0.375621 0.119798 0.759355
0.375506 0.119683 0.887151
0.375395 0.119573 1.000000
0.375166 0.247255 0.000000
0.375056 0.247144 0.119233
0.374941 0.247029 0.247029
0.374825 0.246914 0.374825
0.374710 0.246799 0.502622
0.374595 0.246684 0.630418
0.374480 0.246568 0.758214
0.374365 0.246453 0.886010
0.374254 0.246343 1.000000
0.374025 0.374025 0.000000
0.373915 0.373915 0.118092
0.373799 0.373799 0.245888
0.373684 0.373684 0.373684
0.373569 0.373569 0.501480
0.373454 0.373454 0.629277
0.373339 0.373339 0.757073
0.373223 0.373223 0.884869
0.373113 0.373113 1.000000
0.372884 0.500795 0.000000
0.372773 0.500685 0.116951
0.372658 0.500570 0.244747
0.372543 0.500454 0.372543
0.372428 0.500339 0.500339
0.372313 0.500224 0.628135
0.372197 0.500109 0.755932
0.372082 0.499994 0.883728
0.371972 0.499883 1.000000
0.371743 0.627565 0.000000
0.371632 0.627455 0.115810
0.371517 0.627340 0.243606
0.371402 0.627225 0.371402
0.371287 0.627109 0.499198
0.371172 0.626994 0.626994
0.371056 0.626879 0.754790
0.370941 0.626764 0.882587
0.370831 0.626653 1.000000
0.370602 0.754336 0.000000
0.370491 0.754225 0.114668
0.370376 0.754110 0.242465
0.370261 0.753995 0.370261
0.370146 0.753880 0.498057
0.370030 0.753764 0.625853
0.369915 0.753649 0.753649
0.369800 0.753534 0.881445
0.369690 0.753424 1.000000
0.369460 0.881106 0.000000
0.369350 0.880995 0.113527
0.369235 0.880880 0.241323
0.369120 0.880765 0.369120
0.369004 0.880650 0.496916
0.368889 0.880535 0.624712
0.368774 0.880419 0.752508
0.368659 0.880304 0.880304
0.368548 0.880194 1.000000
0.368367 1.000000 0.000000
0.368256 1.000000 0.112434
0.368141 1.000000 0.240230
0.368026 1.000000 0.368026
0.367911 1.000000 0.495822
0.367796 1.000000 0.623618
0.367680 1.000000 0.751414
0.367565 1.000000 0.879211
0.367455 1.000000 1.000000
0.504973 0.000000 0.000000
0.504863 0.000000 0.121129
0.504747 0.000000 0.248925
0.504632 0.000000 0.376721
0.504517 0.000000 0.504517
0.504402 0.000000 0.632313
0.504287 0.000000 0.760109
0.504171 0.000000 0.887906
0.504061 0.000000 1.000000
0.503879 0.120145 0.000000
0.503769 0.120035 0.120035
0.503654 0.119920 0.247831
0.503539 0.119805 0.375627
0.503423 0.119689 0.503423
0.503308 0.119574 0.631220
0.503193 0.119459 0.759016
0.503078 0.119344 0.886812
0.502967 0.119233 1.000000
0.502738 0.246916 0.000000
0.502628 0.246805 0.118894
0.502513 0.246690 0.246690
0.502398 0.246575 0.374486
0.502282 0.246460 0.502282
0.502167 0.246344 0.630078
0.502052 0.246229 0.757875
0.501937 0.246114 0.885671
0.501826 0.246004 1.000000
0.501597 0.373686 0.000000
0.501487 0.373575 0.117753
0.501372 0.373460 0.245549
0.501256 0.373345 0.373345
0.501141 0.373230 0.501141
0.501026 0.373115 0.628937
0.500911 0.372999 0.756733
0.500796 0.372884 0.884530
0.500685 0.372774 1.000000
0.500456 0.500456 0.000000
0.500346 0.500346 0.116612
0.500230 0.500230 0.244408
0.500115 0.500115 0.372204
0.500000 0.500000 0.500000
0.499885 0.499885 0.627796
0.499770 0.499770 0.755592
0.499654 0.499654 0.883388
0.499544 0.499544 1.000000
0.499315 0.627226 0.000000
0.499204 0.627116 0.115470
0.499089 0.627001 0.243267
0.498974 0.626885 0.371063
0.498859 0.626770 0.498859
0.498744 0.626655 0.626655
0.498628 0.626540 0.754451
0.498513 0.626425 0.882247
0.498403 0.626314 1.000000
0.498174 0.753996 0.000000
0.498063 0.753886 0.114329
0.497948 0.753771 0.242125
0.497833 0.753656 0.369922
0.497718 0.753540 0.497718
0.497602 0.753425 0.625514
0.497487 0.753310 0.753310
0.497372 0.753195 0.881106
0.497262 0.753084 1.000000
0.497033 0.880767 0.000000
0.496922 0.880656 0.113188
0.496807 0.880541 0.240984
0.496692 0.880426 0.368780
0.496577 0.880311 0.496577
0.496461 0.880195 0.624373
0.496346 0.880080 0.752169
0.496231 0.879965 0.879965
0.496121 0.879855 1.000000
0.495939 1.000000 0.000000
0.495829 1.000000 0.112094
0.495713 1.000000 0.239891
0.495598 1.000000 0.367687
0.495483 1.000000 0.495483
0.495368 1.000000 0.623279
0.495253 1.000000 0.751075
0.495137 1.000000 0.878871
0.495027 1.000000 1.000000
0.632545 0.000000 0.000000
0.632435 0.000000 0.120789
0.632320 0.000000 0.248586
0.632204 0.000000 0.376382
0.632089 0.000000 0.504178
0.631974 0.000000 0.631974
0.631859 0.000000 0.759770
0.631744 0.000000 0.887566
0.631633 0.000000 1.000000
0.631452 0.119806 0.000000
0.631341 0.119696 0.119696
0.631226 0.119581 0.247492
0.631111 0.119465 0.375288
0.630996 0.119350 0.503084
0.630880 0.119235 0.630880
0.630765 0.119120 0.758677
0.630650 0.119005 0.886473
0.630540 0.118894 1.000000
0.630310 0.246576 0.000000
0.630200 0.246466 0.118555
0.630085 0.246351 0.246351
0.629970 0.246236 0.374147
0.629854 0.246120 0.501943
0.629739 0.246005 0.629739
0.629624 0.245890 0.757535
0.629509 0.245775 0.885332
0.629398 0.245664 1.000000
0.629169 0.373347 0.000000
0.629059 0.373236 0.117413
0.628944 0.373121 0.245210
0.628828 0.373006 0.373006
0.628713 0.372891 0.500802
0.628598 0.372775 0.628598
0.628483 0.372660 0.756394
0.628368 0.372545 0.884190
0.628257 0.372435 1.000000
0.628028 0.500117 0.000000
0.627918 0.500006 0.116272
0.627803 0.499891 0.244068
0.627687 0.499776 0.371865
0.627572 0.499661 0.499661
0.627457 0.499546 0.627457
0.627342 0.499430 0.755253
0.627227 0.499315 0.883049
0.627116 0.499205 1.000000
0.626887 0.626887 0.000000
0.626777 0.626777 0.115131
0.626661 0.626661 0.242927
0.626546 0.626546 0.370723
0.626431 0.626431 0.498520
0.626316 0.626316 0.626316
0.626201 0.626201 0.754112
0.626085 0.626085 0.881908
0.625975 0.625975 1.000000
0.625746 0.753657 0.000000
0.625635 0.753547 0.113990
0.625520 0.753432 0.241786
0.625405 0.753316 0.369582
0.625290 0.753201 0.497378
0.625175 0.753086 0.625175
0.625059 0.752971 0.752971
0.624944 0.752856 0.880767
0.624834 0.752745 1.000000
0.624605 0.880427 0.000000
0.624494 0.880317 0.112849
0.624379 0.880202 0.240645
0.624264 0.880087 0.368441
0.624149 0.879971 0.496237
0.624033 0.879856 0.624033
0.623918 0.879741 0.751830
0.623803 0.879626 0.879626
0.623693 0.879515 1.000000
0.623511 1.000000 0.000000
0.623401 1.000000 0.111755
0.623285 1.000000 0.239551
0.623170 1.000000 0.367348
0.623055 1.000000 0.495144
0.622940 1.000000 0.622940
0.622825 1.000000 0.750736
0.622709 1.000000 0.878532
0.622599 1.000000 1.000000
0.760117 0.000000 0.000000
0.760007 0.000000 0.120450
0.759892 0.000000 0.248246
0.759777 0.000000 0.376042
0.759661 0.000000 0.503839
0.759546 0.000000 0.631635
0.759431 0.000000 0.759431
0.759316 0.000000 0.887227
0.759205 0.000000 1.000000
0.759024 0.119467 0.000000
0.758913 0.119357 0.119357
0.758798 0.119241 0.247153
0.758683 0.119126 0.374949
0.758568 0.119011 0.502745
0.758453 0.118896 0.630541
0.758337 0.118781 0.758337
0.758222 0.118665 0.886133
0.758112 0.118555 1.000000
0.757883 0.246237 0.000000
0.757772 0.246127 0.118215
0.757657 0.246012 0.246012
0.757542 0.245896 0.373808
0.757427 0.245781 0.501604
0.757311 0.245666 0.629400
0.757196 0.245551 0.757196
0.757081 0.245436 0.884992
0.756971 0.245325 1.000000
0.756741 0.373007 0.000000
0.756631 0.372897 0.117074
0.756516 0.372782 0.244870
0.756401 0.372667 0.372667
0.756285 0.372551 0.500463
0.756170 0.372436 0.628259
0.756055 0.372321 0.756055
0.755940 0.372206 0.883851
0.755829 0.372095 1.000000
0.755600 0.499778 0.000000
0.755490 0.499667 0.115933
0.755375 0.499552 0.243729
0.755259 0.499437 0.371525
0.755144 0.499322 0.499322
0.755029 0.499206 0.627118
0.754914 0.499091 0.754914
0.754799 0.498976 0.882710
0.754688 0.498866 1.000000
0.754459 0.626548 0.000000
0.754349 0.626437 0.114792
0.754234 0.626322 0.242588
0.754118 0.626207 0.370384
0.754003 0.626092 0.498180
0.753888 0.625977 0.625977
0.753773 0.625861 0.753773
0.753658 0.625746 0.881569
0.753547 0.625636 1.000000
0.753318 0.753318 0.000000
0.753208 0.753208 0.113651
0.753092 0.753092 0.241447
0.752977 0.752977 0.369243
0.752862 0.752862 0.497039
0.752747 0.752747 0.624835
0.752632 0.752632 0.752632
0.752516 0.752516 0.880428
0.752406 0.752406 1.000000
0.752177 0.880088 0.000000
0.752066 0.879978 0.112510
0.751951 0.879863 0.240306
0.751836 0.879747 0.368102
0.751721 0.879632 0.495898
0.751606 0.879517 0.623694
0.751490 0.879402 0.751490
0.751375 0.879287 0.879287
0.751265 0.879176 1.000000
0.751083 1.000000 0.000000
0.750973 1.000000 0.111416
0.750858 1.000000 0.239212
0.750742 1.000000 0.367008
0.750627 1.000000 0.494805
0.750512 1.000000 0.622601
0.750397 1.000000 0.750397
0.750282 1.000000 0.878193
0.750171 1.000000 1.000000
0.887689 0.000000 0.000000
0.887579 0.000000 0.120111
0.887464 0.000000 0.247907
0.887349 0.000000 0.375703
0.887233 0.000000 0.503499
0.887118 0.000000 0.631296
0.887003 0.000000 0.759092
0.886888 0.000000 0.886888
0.886777 0.000000 1.000000
0.886596 0.119128 0.000000
0.886485 0.119017 0.119017
0.886370 0.118902 0.246813
0.886255 0.118787 0.374610
0.886140 0.118672 0.502406
0.886025 0.118557 0.630202
0.885909 0.118441 0.757998
0.885794 0.118326 0.885794
0.885684 0.118216 1.000000
0.885455 0.245898 0.000000
0.885344 0.245788 0.117876
0.885229 0.245672 0.245672
0.885114 0.245557 0.373468
0.884999 0.245442 0.501265
0.884884 0.245327 0.629061
0.884768 0.245212 0.756857
0.884653 0.245096 0.884653
0.884543 0.244986 1.000000
0.884314 0.372668 0.000000
0.884203 0.372558 0.116735
0.884088 0.372443 0.244531
0.883973 0.372327 0.372327
0.883858 0.372212 0.500123
0.883742 0.372097 0.627920
0.883627 0.371982 0.755716
0.883512 0.371867 0.883512
0.883402 0.371756 1.000000
0.883172 0.499438 0.000000
0.883062 0.499328 0.115594
0.882947 0.499213 0.243390
0.882832 0.499098 0.371186
0.882716 0.498982 0.498982
0.882601 0.498867 0.626779
0.882486 0.498752 0.754575
0.882371 0.498637 0.882371
0.882260 0.498526 1.000000
0.882031 0.626209 0.000000
0.881921 0.626098 0.114453
0.881806 0.625983 0.242249
0.881690 0.625868 0.370045
0.881575 0.625753 0.497841
0.881460 0.625637 0.625637
0.881345 0.625522 0.753434
0.881230 0.625407 0.881230
0.881119 0.625297 1.000000
0.880890 0.752979 0.000000
0.880780 0.752868 0.113312
0.880665 0.752753 0.241108
0.880549 0.752638 0.368904
0.880434 0.752523 0.496700
0.880319 0.752408 0.624496
0.880204 0.752292 0.752292
0.880089 0.752177 0.880089
0.879978 0.752067 1.000000
0.879749 0.879749 0.000000
0.879639 0.879639 0.112170
0.879523 0.879523 0.239967
0.879408 0.879408 0.367763
0.879293 0.879293 0.495559
0.879178 0.879178 0.623355
0.879063 0.879063 0.751151
0.878947 0.878947 0.878947
0.878837 0.878837 1.000000
0.878655 1.000000 0.000000
0.878545 1.000000 0.111077
0.878430 1.000000 0.238873
0.878315 1.000000 0.366669
0.878199 1.000000 0.494465
0.878084 1.000000 0.622261
0.877969 1.000000 0.750058
0.877854 1.000000 0.877854
0.877743 1.000000 1.000000
1.000000 0.000000 0.000000
1.000000 0.000000 0.119786
1.000000 0.000000 0.247582
1.000000 0.000000 0.375378
1.000000 0.000000 0.503174
1.000000 0.000000 0.630970
1.000000 0.000000 0.758767
1.000000 0.000000 0.886563
1.000000 0.000000 1.000000
1.000000 0.118803 0.000000
1.000000 0.118692 0.118692
1.000000 0.118577 0.246488
1.000000 0.118462 0.374285
1.000000 0.118347 0.502081
1.000000 0.118231 0.629877
1.000000 0.118116 0.757673
1.000000 0.118001 0.885469
1.000000 0.117891 1.000000
1.000000 0.245573 0.000000
1.000000 0.245462 0.117551
1.000000 0.245347 0.245347
1.000000 0.245232 0.373143
1.000000 0.245117 0.500940
1.000000 0.245002 0.628736
1.000000 0.244886 0.756532
1.000000 0.244771 0.884328
1.000000 0.244661 1.000000
1.000000 0.372343 0.000000
1.000000 0.372233 0.116410
1.000000 0.372117 0.244206
1.000000 0.372002 0.372002
1.000000 0.371887 0.499798
1.000000 0.371772 0.627595
1.000000 0.371657 0.755391
1.000000 0.371541 0.883187
1.000000 0.371431 1.000000
1.000000 0.499113 0.000000
1.000000 0.499003 0.115269
1.000000 0.498888 0.243065
1.000000 0.498772 0.370861
1.000000 0.498657 0.498657
1.000000 0.498542 0.626453
1.000000 0.498427 0.754250
1.000000 0.498312 0.882046
1.000000 0.498201 1.000000
1.000000 0.625883 0.000000
1.000000 0.625773 0.114128
1.000000 0.625658 0.241924
1.000000 0.625543 0.369720
1.000000 0.625427 0.497516
1.000000 0.625312 0.625312
1.000000 0.625197 0.753108
1.000000 0.625082 0.880905
1.000000 0.624971 1.000000
1.000000 0.752654 0.000000
1.000000 0.752543 0.112986
1.000000 0.752428 0.240783
1.000000 0.752313 0.368579
1.000000 0.752198 0.496375
1.000000 0.752082 0.624171
1.000000 0.751967 0.751967
1.000000 0.751852 0.879763
1.000000 0.751742 1.000000
1.000000 0.879424 0.000000
1.000000 0.879313 0.111845
1.000000 0.879198 0.239641
1.000000 0.879083 0.367438
1.000000 0.878968 0.495234
1.000000 0.878853 0.623030
1.000000 0.878737 0.750826
1.000000 0.878622 0.878622
1.000000 0.878512 1.000000
1.000000 1.000000 0.000000
1.000000 1.000000 0.110752
1.000000 1.000000 0.238548
1.000000 1.000000 0.366344
1.000000 1.000000 0.494140
1.000000 1.000000 0.621936
1.000000 1.000000 0.749733
1.000000 1.000000 0.877529
1.000000 1.000000 1.000000
