skills/editops-orchestrator/assets/grade/luts/product_clean_v07.cube
TITLE "product_clean_v07"
LUT_3D_SIZE 5
DOMAIN_MIN 0.0 0.0 0.0
DOMAIN_MAX 1.0 1.0 1.0
0.000000 0.000000 0.000000
0.000000 0.000000 0.250378
0.000000 0.000000 0.508790
0.000000 0.000000 0.767201
0.000000 0.000000 1.000000
0.000000 0.247380 0.000000
0.000000 0.247044 0.247044
0.000000 0.246696 0.505455
0.000000 0.246349 0.763867
0.000000 0.246012 1.000000
0.000000 0.502698 0.000000
0.000000 0.502362 0.243603
0.000000 0.502014 0.502014
0.000000 0.501667 0.760426
0.000000 0.501330 1.000000
0.000000 0.758016 0.000000
0.000000 0.757679 0.240161
0.000000 0.757332 0.498573
0.000000 0.756984 0.756984
0.000000 0.756648 1.000000
0.000000 1.000000 0.000000
0.000000 1.000000 0.236827
0.000000 1.000000 0.495239
0.000000 1.000000 0.753650
0.000000 1.000000 1.000000
0.249724 0.000000 0.000000
0.249387 0.000000 0.249387
0.249040 0.000000 0.507799
0.248692 0.000000 0.766210
0.248356 0.000000 1.000000
0.246389 0.246389 0.000000
0.246053 0.246053 0.246053
0.245705 0.245705 0.504464
0.245358 0.245358 0.762876
0.245021 0.245021 1.000000
0.242948 0.501707 0.000000
0.242611 0.501370 0.242611
0.242264 0.501023 0.501023
0.241917 0.500676 0.759435
0.241580 0.500339 1.000000
0.239507 0.757025 0.000000
0.239170 0.756688 0.239170
0.238823 0.756341 0.497582
0.238475 0.755993 0.755993
0.238139 0.755657 1.000000
0.236172 1.000000 0.000000
0.235836 1.000000 0.235836
0.235488 1.000000 0.494247
0.235141 1.000000 0.752659
0.234804 1.000000 1.000000
0.507460 0.000000 0.000000
0.507123 0.000000 0.248364
0.506776 0.000000 0.506776
0.506428 0.000000 0.765187
0.506092 0.000000 1.000000
0.504125 0.245366 0.000000
0.503789 0.245030 0.245030
0.503441 0.244682 0.503441
0.503094 0.244335 0.761853
0.502757 0.243998 1.000000
0.500684 0.500684 0.000000
0.500347 0.500347 0.241588
0.500000 0.500000 0.500000
0.499653 0.499653 0.758412
0.499316 0.499316 1.000000
0.497243 0.756002 0.000000
0.496906 0.755665 0.238147
0.496559 0.755318 0.496559
0.496211 0.754970 0.754970
0.495875 0.754634 1.000000
0.493908 1.000000 0.000000
0.493572 1.000000 0.234813
0.493224 1.000000 0.493224
0.492877 1.000000 0.751636
0.492540 1.000000 1.000000
0.765196 0.000000 0.000000
0.764859 0.000000 0.247341
0.764512 0.000000 0.505753
0.764164 0.000000 0.764164
0.763828 0.000000 1.000000
0.761861 0.244343 0.000000
0.761525 0.244007 0.244007
0.761177 0.243659 0.502418
0.760830 0.243312 0.760830
0.760493 0.242975 1.000000
0.758420 0.499661 0.000000
0.758083 0.499324 0.240565
0.757736 0.498977 0.498977
0.757389 0.498630 0.757389
0.757052 0.498293 1.000000
0.754979 0.754979 0.000000
0.754642 0.754642 0.237124
0.754295 0.754295 0.495536
0.753947 0.753947 0.753947
0.753611 0.753611 1.000000
0.751644 1.000000 0.000000
0.751308 1.000000 0.233790
0.750960 1.000000 0.492201
0.750613 1.000000 0.750613
0.750276 1.000000 1.000000
1.000000 0.000000 0.000000
1.000000 0.000000 0.246350
1.000000 0.000000 0.504761
1.000000 0.000000 0.763173
1.000000 0.000000 1.000000
1.000000 0.243352 0.000000
1.000000 0.243016 0.243016
1.000000 0.242668 0.501427
1.000000 0.242321 0.759839
1.000000 0.241984 1.000000
1.000000 0.498670 0.000000
1.000000 0.498333 0.239574
1.000000 0.497986 0.497986
1.000000 0.497638 0.756397
1.000000 0.497302 1.000000
1.000000 0.753988 0.000000
1.000000 0.753651 0.236133
1.000000 0.753304 0.494545
1.000000 0.752956 0.752956
1.000000 0.752620 1.000000
1.000000 1.000000 0.000000
1.000000 1.000000 0.232799
1.000000 1.000000 0.491210
1.000000 1.000000 0.749622
1.000000 1.000000 1.000000
