skills/editops-orchestrator/assets/grade/luts/product_clean_v06.cube
TITLE "product_clean_v06"
LUT_3D_SIZE 17
DOMAIN_MIN 0.0 0.0 0.0
DOMAIN_MAX 1.0 1.0 1.0
0.000000 0.000000 0.000000
0.000000 0.000000 0.057575
0.000000 0.000000 0.121825
0.000000 0.000000 0.186075
0.000000 0.000000 0.250325
0.000000 0.000000 0.314575
0.000000 0.000000 0.378825
0.000000 0.000000 0.443075
0.000000 0.000000 0.507325
0.000000 0.000000 0.571575
0.000000 0.000000 0.635825
0.000000 0.000000 0.700075
0.000000 0.000000 0.764325
0.000000 0.000000 0.828575
0.000000 0.000000 0.892825
0.000000 0.000000 0.957075
0.000000 0.000000 1.000000
0.000000 0.056999 0.000000
0.000000 0.056934 0.056934
0.000000 0.056862 0.121184
0.000000 0.056790 0.185434
0.000000 0.056717 0.249684
0.000000 0.056645 0.313934
0.000000 0.056573 0.378184
0.000000 0.056501 0.442434
0.000000 0.056429 0.506684
0.000000 0.056356 0.570934
0.000000 0.056284 0.635184
0.000000 0.056212 0.699434
0.000000 0.056140 0.763684
0.000000 0.056068 0.827934
0.000000 0.055995 0.892184
0.000000 0.055923 0.956434
0.000000 0.055859 1.000000
0.000000 0.120606 0.000000
0.000000 0.120541 0.056219
0.000000 0.120469 0.120469
0.000000 0.120397 0.184719
0.000000 0.120324 0.248969
0.000000 0.120252 0.313219
0.000000 0.120180 0.377469
0.000000 0.120108 0.441719
0.000000 0.120036 0.505969
0.000000 0.119964 0.570219
0.000000 0.119891 0.634469
0.000000 0.119819 0.698719
0.000000 0.119747 0.762969
0.000000 0.119675 0.827219
0.000000 0.119603 0.891469
0.000000 0.119530 0.955719
0.000000 0.119466 1.000000
0.000000 0.184213 0.000000
0.000000 0.184148 0.055504
0.000000 0.184076 0.119754
0.000000 0.184004 0.184004
0.000000 0.183932 0.248254
0.000000 0.183859 0.312504
0.000000 0.183787 0.376754
0.000000 0.183715 0.441004
0.000000 0.183643 0.505254
0.000000 0.183571 0.569504
0.000000 0.183498 0.633754
0.000000 0.183426 0.698004
0.000000 0.183354 0.762254
0.000000 0.183282 0.826504
0.000000 0.183210 0.890754
0.000000 0.183138 0.955004
0.000000 0.183073 1.000000
0.000000 0.247820 0.000000
0.000000 0.247755 0.054789
0.000000 0.247683 0.119039
0.000000 0.247611 0.183289
0.000000 0.247539 0.247539
0.000000 0.247467 0.311789
0.000000 0.247394 0.376039
0.000000 0.247322 0.440289
0.000000 0.247250 0.504539
0.000000 0.247178 0.568789
0.000000 0.247106 0.633039
0.000000 0.247033 0.697289
0.000000 0.246961 0.761539
0.000000 0.246889 0.825789
0.000000 0.246817 0.890039
0.000000 0.246745 0.954289
0.000000 0.246680 1.000000
0.000000 0.311427 0.000000
0.000000 0.311362 0.054074
0.000000 0.311290 0.118324
0.000000 0.311218 0.182574
0.000000 0.311146 0.246824
0.000000 0.311074 0.311074
0.000000 0.311001 0.375324
0.000000 0.310929 0.439574
0.000000 0.310857 0.503824
0.000000 0.310785 0.568074
0.000000 0.310713 0.632324
0.000000 0.310641 0.696574
0.000000 0.310568 0.760824
0.000000 0.310496 0.825074
0.000000 0.310424 0.889324
0.000000 0.310352 0.953574
0.000000 0.310287 1.000000
0.000000 0.375034 0.000000
0.000000 0.374969 0.053359
0.000000 0.374897 0.117609
0.000000 0.374825 0.181859
0.000000 0.374753 0.246109
0.000000 0.374681 0.310359
0.000000 0.374609 0.374609
0.000000 0.374536 0.438859
0.000000 0.374464 0.503109
0.000000 0.374392 0.567359
0.000000 0.374320 0.631609
0.000000 0.374248 0.695859
0.000000 0.374175 0.760109
0.000000 0.374103 0.824359
0.000000 0.374031 0.888609
0.000000 0.373959 0.952859
0.000000 0.373894 1.000000
0.000000 0.438641 0.000000
0.000000 0.438577 0.052643
0.000000 0.438504 0.116893
0.000000 0.438432 0.181143
0.000000 0.438360 0.245393
0.000000 0.438288 0.309643
0.000000 0.438216 0.373893
0.000000 0.438143 0.438143
0.000000 0.438071 0.502393
0.000000 0.437999 0.566644
0.000000 0.437927 0.630894
0.000000 0.437855 0.695144
0.000000 0.437783 0.759394
0.000000 0.437710 0.823644
0.000000 0.437638 0.887894
0.000000 0.437566 0.952144
0.000000 0.437501 1.000000
0.000000 0.502248 0.000000
0.000000 0.502184 0.051928
0.000000 0.502112 0.116178
0.000000 0.502039 0.180428
0.000000 0.501967 0.244678
0.000000 0.501895 0.308928
0.000000 0.501823 0.373178
0.000000 0.501751 0.437428
0.000000 0.501678 0.501678
0.000000 0.501606 0.565928
0.000000 0.501534 0.630178
0.000000 0.501462 0.694428
0.000000 0.501390 0.758678
0.000000 0.501317 0.822928
0.000000 0.501245 0.887178
0.000000 0.501173 0.951428
0.000000 0.501108 1.000000
0.000000 0.565856 0.000000
0.000000 0.565791 0.051213
0.000000 0.565719 0.115463
0.000000 0.565646 0.179713
0.000000 0.565574 0.243963
0.000000 0.565502 0.308213
0.000000 0.565430 0.372463
0.000000 0.565358 0.436713
0.000000 0.565286 0.500963
0.000000 0.565213 0.565213
0.000000 0.565141 0.629463
0.000000 0.565069 0.693713
0.000000 0.564997 0.757963
0.000000 0.564925 0.822213
0.000000 0.564852 0.886463
0.000000 0.564780 0.950713
0.000000 0.564716 1.000000
0.000000 0.629463 0.000000
0.000000 0.629398 0.050498
0.000000 0.629326 0.114748
0.000000 0.629254 0.178998
0.000000 0.629181 0.243248
0.000000 0.629109 0.307498
0.000000 0.629037 0.371748
0.000000 0.628965 0.435998
0.000000 0.628893 0.500248
0.000000 0.628820 0.564498
0.000000 0.628748 0.628748
0.000000 0.628676 0.692998
0.000000 0.628604 0.757248
0.000000 0.628532 0.821498
0.000000 0.628460 0.885748
0.000000 0.628387 0.949998
0.000000 0.628323 1.000000
0.000000 0.693070 0.000000
0.000000 0.693005 0.049783
0.000000 0.692933 0.114033
0.000000 0.692861 0.178283
0.000000 0.692789 0.242533
0.000000 0.692716 0.306783
0.000000 0.692644 0.371033
0.000000 0.692572 0.435283
0.000000 0.692500 0.499533
0.000000 0.692428 0.563783
0.000000 0.692355 0.628033
0.000000 0.692283 0.692283
0.000000 0.692211 0.756533
0.000000 0.692139 0.820783
0.000000 0.692067 0.885033
0.000000 0.691994 0.949283
0.000000 0.691930 1.000000
0.000000 0.756677 0.000000
0.000000 0.756612 0.049068
0.000000 0.756540 0.113318
0.000000 0.756468 0.177568
0.000000 0.756396 0.241818
0.000000 0.756323 0.306068
0.000000 0.756251 0.370318
0.000000 0.756179 0.434568
0.000000 0.756107 0.498818
0.000000 0.756035 0.563068
0.000000 0.755963 0.627318
0.000000 0.755890 0.691568
0.000000 0.755818 0.755818
0.000000 0.755746 0.820068
0.000000 0.755674 0.884318
0.000000 0.755602 0.948568
0.000000 0.755537 1.000000
0.000000 0.820284 0.000000
0.000000 0.820219 0.048353
0.000000 0.820147 0.112603
0.000000 0.820075 0.176853
0.000000 0.820003 0.241103
0.000000 0.819931 0.305353
0.000000 0.819858 0.369603
0.000000 0.819786 0.433853
0.000000 0.819714 0.498103
0.000000 0.819642 0.562353
0.000000 0.819570 0.626603
0.000000 0.819497 0.690853
0.000000 0.819425 0.755103
0.000000 0.819353 0.819353
0.000000 0.819281 0.883603
0.000000 0.819209 0.947853
0.000000 0.819144 1.000000
0.000000 0.883891 0.000000
0.000000 0.883826 0.047638
0.000000 0.883754 0.111888
0.000000 0.883682 0.176138
0.000000 0.883610 0.240388
0.000000 0.883538 0.304638
0.000000 0.883466 0.368888
0.000000 0.883393 0.433138
0.000000 0.883321 0.497388
0.000000 0.883249 0.561638
0.000000 0.883177 0.625888
0.000000 0.883105 0.690138
0.000000 0.883032 0.754388
0.000000 0.882960 0.818638
0.000000 0.882888 0.882888
0.000000 0.882816 0.947138
0.000000 0.882751 1.000000
0.000000 0.947498 0.000000
0.000000 0.947434 0.046923
0.000000 0.947361 0.111173
0.000000 0.947289 0.175423
0.000000 0.947217 0.239673
0.000000 0.947145 0.303923
0.000000 0.947073 0.368173
0.000000 0.947000 0.432423
0.000000 0.946928 0.496673
0.000000 0.946856 0.560923
0.000000 0.946784 0.625173
0.000000 0.946712 0.689423
0.000000 0.946640 0.753673
0.000000 0.946567 0.817923
0.000000 0.946495 0.882173
0.000000 0.946423 0.946423
0.000000 0.946358 1.000000
0.000000 1.000000 0.000000
0.000000 1.000000 0.046282
0.000000 1.000000 0.110532
0.000000 1.000000 0.174782
0.000000 1.000000 0.239032
0.000000 1.000000 0.303282
0.000000 1.000000 0.367532
0.000000 1.000000 0.431782
0.000000 1.000000 0.496032
0.000000 1.000000 0.560282
0.000000 1.000000 0.624532
0.000000 1.000000 0.688782
0.000000 1.000000 0.753032
0.000000 1.000000 0.817282
0.000000 1.000000 0.881532
0.000000 1.000000 0.945782
0.000000 1.000000 1.000000
0.057449 0.000000 0.000000
0.057384 0.000000 0.057384
0.057312 0.000000 0.121634
0.057240 0.000000 0.185884
0.057168 0.000000 0.250134
0.057095 0.000000 0.314384
0.057023 0.000000 0.378634
0.056951 0.000000 0.442884
0.056879 0.000000 0.507134
0.056807 0.000000 0.571384
0.056735 0.000000 0.635634
0.056662 0.000000 0.699884
0.056590 0.000000 0.764134
0.056518 0.000000 0.828384
0.056446 0.000000 0.892634
0.056374 0.000000 0.956884
0.056309 0.000000 1.000000
0.056808 0.056808 0.000000
0.056743 0.056743 0.056743
0.056671 0.056671 0.120993
0.056599 0.056599 0.185243
0.056527 0.056527 0.249493
0.056455 0.056455 0.313743
0.056382 0.056382 0.377993
0.056310 0.056310 0.442243
0.056238 0.056238 0.506493
0.056166 0.056166 0.570743
0.056094 0.056094 0.634993
0.056022 0.056022 0.699243
0.055949 0.055949 0.763494
0.055877 0.055877 0.827744
0.055805 0.055805 0.891994
0.055733 0.055733 0.956244
0.055668 0.055668 1.000000
0.056093 0.120415 0.000000
0.056028 0.120351 0.056028
0.055956 0.120278 0.120278
0.055884 0.120206 0.184528
0.055812 0.120134 0.248778
0.055740 0.120062 0.313028
0.055667 0.119990 0.377278
0.055595 0.119917 0.441528
0.055523 0.119845 0.505778
0.055451 0.119773 0.570028
0.055379 0.119701 0.634278
0.055306 0.119629 0.698528
0.055234 0.119556 0.762778
0.055162 0.119484 0.827028
0.055090 0.119412 0.891278
0.055018 0.119340 0.955528
0.054953 0.119275 1.000000
0.055378 0.184022 0.000000
0.055313 0.183958 0.055313
0.055241 0.183885 0.119563
0.055169 0.183813 0.183813
0.055097 0.183741 0.248063
0.055025 0.183669 0.312313
0.054952 0.183597 0.376563
0.054880 0.183525 0.440813
0.054808 0.183452 0.505063
0.054736 0.183380 0.569313
0.054664 0.183308 0.633563
0.054591 0.183236 0.697813
0.054519 0.183164 0.762063
0.054447 0.183091 0.826313
0.054375 0.183019 0.890563
0.054303 0.182947 0.954813
0.054238 0.182882 1.000000
0.054663 0.247629 0.000000
0.054598 0.247565 0.054598
0.054526 0.247493 0.118848
0.054454 0.247420 0.183098
0.054382 0.247348 0.247348
0.054309 0.247276 0.311598
0.054237 0.247204 0.375848
0.054165 0.247132 0.440098
0.054093 0.247059 0.504348
0.054021 0.246987 0.568598
0.053949 0.246915 0.632848
0.053876 0.246843 0.697098
0.053804 0.246771 0.761348
0.053732 0.246699 0.825598
0.053660 0.246626 0.889848
0.053588 0.246554 0.954098
0.053523 0.246489 1.000000
0.053948 0.311237 0.000000
0.053883 0.311172 0.053883
0.053811 0.311100 0.118133
0.053739 0.311028 0.182383
0.053667 0.310955 0.246633
0.053594 0.310883 0.310883
0.053522 0.310811 0.375133
0.053450 0.310739 0.439383
0.053378 0.310667 0.503633
0.053306 0.310594 0.567883
0.053233 0.310522 0.632133
0.053161 0.310450 0.696383
0.053089 0.310378 0.760633
0.053017 0.310306 0.824883
0.052945 0.310233 0.889133
0.052872 0.310161 0.953383
0.052808 0.310097 1.000000
0.053233 0.374844 0.000000
0.053168 0.374779 0.053168
0.053096 0.374707 0.117418
0.053024 0.374635 0.181668
0.052951 0.374562 0.245918
0.052879 0.374490 0.310168
0.052807 0.374418 0.374418
0.052735 0.374346 0.438668
0.052663 0.374274 0.502918
0.052591 0.374202 0.567168
0.052518 0.374129 0.631418
0.052446 0.374057 0.695668
0.052374 0.373985 0.759918
0.052302 0.373913 0.824168
0.052230 0.373841 0.888418
0.052157 0.373768 0.952668
0.052093 0.373704 1.000000
0.052518 0.438451 0.000000
0.052453 0.438386 0.052453
0.052381 0.438314 0.116703
0.052309 0.438242 0.180953
0.052236 0.438170 0.245203
0.052164 0.438097 0.309453
0.052092 0.438025 0.373703
0.052020 0.437953 0.437953
0.051948 0.437881 0.502203
0.051875 0.437809 0.566453
0.051803 0.437736 0.630703
0.051731 0.437664 0.694953
0.051659 0.437592 0.759203
0.051587 0.437520 0.823453
0.051515 0.437448 0.887703
0.051442 0.437376 0.951953
0.051378 0.437311 1.000000
0.051803 0.502058 0.000000
0.051738 0.501993 0.051738
0.051666 0.501921 0.115988
0.051594 0.501849 0.180238
0.051521 0.501777 0.244488
0.051449 0.501705 0.308738
0.051377 0.501632 0.372988
0.051305 0.501560 0.437238
0.051233 0.501488 0.501488
0.051160 0.501416 0.565738
0.051088 0.501344 0.629988
0.051016 0.501271 0.694238
0.050944 0.501199 0.758488
0.050872 0.501127 0.822738
0.050799 0.501055 0.886988
0.050727 0.500983 0.951238
0.050663 0.500918 1.000000
0.051087 0.565665 0.000000
0.051023 0.565600 0.051023
0.050951 0.565528 0.115273
0.050878 0.565456 0.179523
0.050806 0.565384 0.243773
0.050734 0.565312 0.308023
0.050662 0.565239 0.372273
0.050590 0.565167 0.436523
0.050517 0.565095 0.500773
0.050445 0.565023 0.565023
0.050373 0.564951 0.629273
0.050301 0.564878 0.693523
0.050229 0.564806 0.757773
0.050157 0.564734 0.822023
0.050084 0.564662 0.886273
0.050012 0.564590 0.950523
0.049947 0.564525 1.000000
0.050372 0.629272 0.000000
0.050308 0.629207 0.050308
0.050236 0.629135 0.114558
0.050163 0.629063 0.178808
0.050091 0.628991 0.243058
0.050019 0.628919 0.307308
0.049947 0.628847 0.371558
0.049875 0.628774 0.435808
0.049802 0.628702 0.500058
0.049730 0.628630 0.564308
0.049658 0.628558 0.628558
0.049586 0.628486 0.692808
0.049514 0.628413 0.757058
0.049441 0.628341 0.821308
0.049369 0.628269 0.885558
0.049297 0.628197 0.949808
0.049232 0.628132 1.000000
0.049657 0.692879 0.000000
0.049593 0.692815 0.049593
0.049520 0.692742 0.113843
0.049448 0.692670 0.178093
0.049376 0.692598 0.242343
0.049304 0.692526 0.306593
0.049232 0.692454 0.370843
0.049160 0.692381 0.435093
0.049087 0.692309 0.499343
0.049015 0.692237 0.563593
0.048943 0.692165 0.627843
0.048871 0.692093 0.692093
0.048799 0.692021 0.756343
0.048726 0.691948 0.820593
0.048654 0.691876 0.884843
0.048582 0.691804 0.949093
0.048517 0.691739 1.000000
0.048942 0.756486 0.000000
0.048878 0.756422 0.048878
0.048805 0.756350 0.113128
0.048733 0.756277 0.177378
0.048661 0.756205 0.241628
0.048589 0.756133 0.305878
0.048517 0.756061 0.370128
0.048444 0.755989 0.434378
0.048372 0.755916 0.498628
0.048300 0.755844 0.562878
0.048228 0.755772 0.627128
0.048156 0.755700 0.691378
0.048084 0.755628 0.755628
0.048011 0.755555 0.819878
0.047939 0.755483 0.884128
0.047867 0.755411 0.948378
0.047802 0.755346 1.000000
0.048227 0.820094 0.000000
0.048163 0.820029 0.048163
0.048090 0.819957 0.112413
0.048018 0.819884 0.176663
0.047946 0.819812 0.240913
0.047874 0.819740 0.305163
0.047802 0.819668 0.369413
0.047729 0.819596 0.433663
0.047657 0.819524 0.497913
0.047585 0.819451 0.562163
0.047513 0.819379 0.626413
0.047441 0.819307 0.690663
0.047368 0.819235 0.754913
0.047296 0.819163 0.819163
0.047224 0.819090 0.883413
0.047152 0.819018 0.947663
0.047087 0.818954 1.000000
0.047512 0.883701 0.000000
0.047447 0.883636 0.047447
0.047375 0.883564 0.111697
0.047303 0.883492 0.175947
0.047231 0.883419 0.240197
0.047159 0.883347 0.304447
0.047086 0.883275 0.368697
0.047014 0.883203 0.432947
0.046942 0.883131 0.497197
0.046870 0.883058 0.561447
0.046798 0.882986 0.625698
0.046726 0.882914 0.689948
0.046653 0.882842 0.754198
0.046581 0.882770 0.818448
0.046509 0.882698 0.882698
0.046437 0.882625 0.946948
0.046372 0.882561 1.000000
0.046797 0.947308 0.000000
0.046732 0.947243 0.046732
0.046660 0.947171 0.110982
0.046588 0.947099 0.175232
0.046516 0.947027 0.239482
0.046444 0.946954 0.303732
0.046371 0.946882 0.367982
0.046299 0.946810 0.432232
0.046227 0.946738 0.496482
0.046155 0.946666 0.560732
0.046083 0.946593 0.624982
0.046010 0.946521 0.689232
0.045938 0.946449 0.753482
0.045866 0.946377 0.817732
0.045794 0.946305 0.881982
0.045722 0.946232 0.946232
0.045657 0.946168 1.000000
0.046156 1.000000 0.000000
0.046092 1.000000 0.046092
0.046019 1.000000 0.110342
0.045947 1.000000 0.174592
0.045875 1.000000 0.238842
0.045803 1.000000 0.303092
0.045731 1.000000 0.367342
0.045658 1.000000 0.431592
0.045586 1.000000 0.495842
0.045514 1.000000 0.560092
0.045442 1.000000 0.624342
0.045370 1.000000 0.688592
0.045298 1.000000 0.752842
0.045225 1.000000 0.817092
0.045153 1.000000 0.881342
0.045081 1.000000 0.945592
0.045016 1.000000 1.000000
0.121559 0.000000 0.000000
0.121494 0.000000 0.057172
0.121422 0.000000 0.121422
0.121349 0.000000 0.185672
0.121277 0.000000 0.249922
0.121205 0.000000 0.314172
0.121133 0.000000 0.378422
0.121061 0.000000 0.442672
0.120989 0.000000 0.506922
0.120916 0.000000 0.571172
0.120844 0.000000 0.635422
0.120772 0.000000 0.699672
0.120700 0.000000 0.763922
0.120628 0.000000 0.828172
0.120555 0.000000 0.892422
0.120483 0.000000 0.956672
0.120419 0.000000 1.000000
0.120918 0.056596 0.000000
0.120853 0.056531 0.056531
0.120781 0.056459 0.120781
0.120709 0.056386 0.185031
0.120636 0.056314 0.249281
0.120564 0.056242 0.313531
0.120492 0.056170 0.377781
0.120420 0.056098 0.442031
0.120348 0.056026 0.506281
0.120276 0.055953 0.570531
0.120203 0.055881 0.634781
0.120131 0.055809 0.699031
0.120059 0.055737 0.763281
0.119987 0.055665 0.827531
0.119915 0.055592 0.891781
0.119842 0.055520 0.956031
0.119778 0.055456 1.000000
0.120203 0.120203 0.000000
0.120138 0.120138 0.055816
0.120066 0.120066 0.120066
0.119994 0.119994 0.184316
0.119921 0.119921 0.248566
0.119849 0.119849 0.312816
0.119777 0.119777 0.377066
0.119705 0.119705 0.441316
0.119633 0.119633 0.505566
0.119560 0.119560 0.569816
0.119488 0.119488 0.634066
0.119416 0.119416 0.698316
0.119344 0.119344 0.762566
0.119272 0.119272 0.826816
0.119200 0.119200 0.891066
0.119127 0.119127 0.955316
0.119063 0.119063 1.000000
0.119488 0.183810 0.000000
0.119423 0.183745 0.055101
0.119351 0.183673 0.119351
0.119279 0.183601 0.183601
0.119206 0.183529 0.247851
0.119134 0.183456 0.312101
0.119062 0.183384 0.376351
0.118990 0.183312 0.440601
0.118918 0.183240 0.504851
0.118845 0.183168 0.569101
0.118773 0.183095 0.633351
0.118701 0.183023 0.697601
0.118629 0.182951 0.761851
0.118557 0.182879 0.826101
0.118484 0.182807 0.890351
0.118412 0.182734 0.954601
0.118348 0.182670 1.000000
0.118773 0.247417 0.000000
0.118708 0.247352 0.054386
0.118636 0.247280 0.118636
0.118563 0.247208 0.182886
0.118491 0.247136 0.247136
0.118419 0.247063 0.311386
0.118347 0.246991 0.375636
0.118275 0.246919 0.439886
0.118203 0.246847 0.504136
0.118130 0.246775 0.568386
0.118058 0.246703 0.632636
0.117986 0.246630 0.696886
0.117914 0.246558 0.761136
0.117842 0.246486 0.825386
0.117769 0.246414 0.889636
0.117697 0.246342 0.953886
0.117633 0.246277 1.000000
0.118057 0.311024 0.000000
0.117993 0.310959 0.053671
0.117921 0.310887 0.117921
0.117848 0.310815 0.182171
0.117776 0.310743 0.246421
0.117704 0.310671 0.310671
0.117632 0.310598 0.374921
0.117560 0.310526 0.439171
0.117487 0.310454 0.503421
0.117415 0.310382 0.567671
0.117343 0.310310 0.631921
0.117271 0.310237 0.696171
0.117199 0.310165 0.760421
0.117126 0.310093 0.824671
0.117054 0.310021 0.888921
0.116982 0.309949 0.953171
0.116917 0.309884 1.000000
0.117342 0.374631 0.000000
0.117278 0.374566 0.052955
0.117205 0.374494 0.117205
0.117133 0.374422 0.181455
0.117061 0.374350 0.245706
0.116989 0.374278 0.309956
0.116917 0.374206 0.374206
0.116845 0.374133 0.438456
0.116772 0.374061 0.502706
0.116700 0.373989 0.566956
0.116628 0.373917 0.631206
0.116556 0.373845 0.695456
0.116484 0.373772 0.759706
0.116411 0.373700 0.823956
0.116339 0.373628 0.888206
0.116267 0.373556 0.952456
0.116202 0.373491 1.000000
0.116627 0.438238 0.000000
0.116563 0.438174 0.052240
0.116490 0.438101 0.116490
0.116418 0.438029 0.180740
0.116346 0.437957 0.244990
0.116274 0.437885 0.309240
0.116202 0.437813 0.373490
0.116129 0.437740 0.437740
0.116057 0.437668 0.501990
0.115985 0.437596 0.566240
0.115913 0.437524 0.630490
0.115841 0.437452 0.694740
0.115769 0.437380 0.758990
0.115696 0.437307 0.823240
0.115624 0.437235 0.887491
0.115552 0.437163 0.951741
0.115487 0.437098 1.000000
0.115912 0.501845 0.000000
0.115848 0.501781 0.051525
0.115775 0.501709 0.115775
0.115703 0.501636 0.180025
0.115631 0.501564 0.244275
0.115559 0.501492 0.308525
0.115487 0.501420 0.372775
0.115414 0.501348 0.437025
0.115342 0.501275 0.501275
0.115270 0.501203 0.565525
0.115198 0.501131 0.629775
0.115126 0.501059 0.694025
0.115053 0.500987 0.758275
0.114981 0.500914 0.822525
0.114909 0.500842 0.886775
0.114837 0.500770 0.951025
0.114772 0.500705 1.000000
0.115197 0.565452 0.000000
0.115132 0.565388 0.050810
0.115060 0.565316 0.115060
0.114988 0.565243 0.179310
0.114916 0.565171 0.243560
0.114844 0.565099 0.307810
0.114772 0.565027 0.372060
0.114699 0.564955 0.436310
0.114627 0.564882 0.500560
0.114555 0.564810 0.564810
0.114483 0.564738 0.629060
0.114411 0.564666 0.693310
0.114338 0.564594 0.757560
0.114266 0.564522 0.821810
0.114194 0.564449 0.886060
0.114122 0.564377 0.950310
0.114057 0.564312 1.000000
0.114482 0.629060 0.000000
0.114417 0.628995 0.050095
0.114345 0.628923 0.114345
0.114273 0.628851 0.178595
0.114201 0.628778 0.242845
0.114129 0.628706 0.307095
0.114056 0.628634 0.371345
0.113984 0.628562 0.435595
0.113912 0.628490 0.499845
0.113840 0.628417 0.564095
0.113768 0.628345 0.628345
0.113695 0.628273 0.692595
0.113623 0.628201 0.756845
0.113551 0.628129 0.821095
0.113479 0.628056 0.885345
0.113407 0.627984 0.949595
0.113342 0.627920 1.000000
0.113767 0.692667 0.000000
0.113702 0.692602 0.049380
0.113630 0.692530 0.113630
0.113558 0.692458 0.177880
0.113486 0.692385 0.242130
0.113414 0.692313 0.306380
0.113341 0.692241 0.370630
0.113269 0.692169 0.434880
0.113197 0.692097 0.499130
0.113125 0.692025 0.563380
0.113053 0.691952 0.627630
0.112980 0.691880 0.691880
0.112908 0.691808 0.756130
0.112836 0.691736 0.820380
0.112764 0.691664 0.884630
0.112692 0.691591 0.948880
0.112627 0.691527 1.000000
0.113052 0.756274 0.000000
0.112987 0.756209 0.048665
0.112915 0.756137 0.112915
0.112843 0.756065 0.177165
0.112771 0.755993 0.241415
0.112698 0.755920 0.305665
0.112626 0.755848 0.369915
0.112554 0.755776 0.434165
0.112482 0.755704 0.498415
0.112410 0.755632 0.562665
0.112338 0.755559 0.626915
0.112265 0.755487 0.691165
0.112193 0.755415 0.755415
0.112121 0.755343 0.819665
0.112049 0.755271 0.883915
0.111977 0.755199 0.948165
0.111912 0.755134 1.000000
0.112337 0.819881 0.000000
0.112272 0.819816 0.047950
0.112200 0.819744 0.112200
0.112128 0.819672 0.176450
0.112056 0.819600 0.240700
0.111983 0.819528 0.304950
0.111911 0.819455 0.369200
0.111839 0.819383 0.433450
0.111767 0.819311 0.497700
0.111695 0.819239 0.561950
0.111622 0.819167 0.626200
0.111550 0.819094 0.690450
0.111478 0.819022 0.754700
0.111406 0.818950 0.818950
0.111334 0.818878 0.883200
0.111262 0.818806 0.947450
0.111197 0.818741 1.000000
0.111622 0.883488 0.000000
0.111557 0.883423 0.047235
0.111485 0.883351 0.111485
0.111413 0.883279 0.175735
0.111341 0.883207 0.239985
0.111268 0.883135 0.304235
0.111196 0.883062 0.368485
0.111124 0.882990 0.432735
0.111052 0.882918 0.496985
0.110980 0.882846 0.561235
0.110907 0.882774 0.625485
0.110835 0.882702 0.689735
0.110763 0.882629 0.753985
0.110691 0.882557 0.818235
0.110619 0.882485 0.882485
0.110546 0.882413 0.946735
0.110482 0.882348 1.000000
0.110907 0.947095 0.000000
0.110842 0.947031 0.046520
0.110770 0.946958 0.110770
0.110698 0.946886 0.175020
0.110625 0.946814 0.239270
0.110553 0.946742 0.303520
0.110481 0.946670 0.367770
0.110409 0.946597 0.432020
0.110337 0.946525 0.496270
0.110264 0.946453 0.560520
0.110192 0.946381 0.624770
0.110120 0.946309 0.689020
0.110048 0.946236 0.753270
0.109976 0.946164 0.817520
0.109904 0.946092 0.881770
0.109831 0.946020 0.946020
0.109767 0.945955 1.000000
0.110266 1.000000 0.000000
0.110201 1.000000 0.045879
0.110129 1.000000 0.110129
0.110057 1.000000 0.174379
0.109985 1.000000 0.238629
0.109912 1.000000 0.302879
0.109840 1.000000 0.367129
0.109768 1.000000 0.431379
0.109696 1.000000 0.495629
0.109624 1.000000 0.559879
0.109552 1.000000 0.624129
0.109479 1.000000 0.688379
0.109407 1.000000 0.752629
0.109335 1.000000 0.816879
0.109263 1.000000 0.881129
0.109191 1.000000 0.945379
0.109126 1.000000 1.000000
0.185668 0.000000 0.000000
0.185603 0.000000 0.056959
0.185531 0.000000 0.121209
0.185459 0.000000 0.185459
0.185387 0.000000 0.249709
0.185315 0.000000 0.313959
0.185243 0.000000 0.378209
0.185170 0.000000 0.442459
0.185098 0.000000 0.506709
0.185026 0.000000 0.570959
0.184954 0.000000 0.635209
0.184882 0.000000 0.699459
0.184809 0.000000 0.763709
0.184737 0.000000 0.827959
0.184665 0.000000 0.892209
0.184593 0.000000 0.956459
0.184528 0.000000 1.000000
0.185027 0.056383 0.000000
