skills/editops-orchestrator/assets/grade/luts/product_clean_v02.cube
TITLE "product_clean_v02"
LUT_3D_SIZE 17
DOMAIN_MIN 0.0 0.0 0.0
DOMAIN_MAX 1.0 1.0 1.0
0.000000 0.000000 0.000000
0.000000 0.000000 0.061528
0.000000 0.000000 0.124377
0.000000 0.000000 0.187225
0.000000 0.000000 0.250073
0.000000 0.000000 0.312921
0.000000 0.000000 0.375769
0.000000 0.000000 0.438617
0.000000 0.000000 0.501465
0.000000 0.000000 0.564313
0.000000 0.000000 0.627161
0.000000 0.000000 0.690009
0.000000 0.000000 0.752857
0.000000 0.000000 0.815705
0.000000 0.000000 0.878553
0.000000 0.000000 0.941401
0.000000 0.000000 1.000000
0.000000 0.061404 0.000000
0.000000 0.061390 0.061390
0.000000 0.061376 0.124238
0.000000 0.061361 0.187086
0.000000 0.061347 0.249934
0.000000 0.061333 0.312782
0.000000 0.061318 0.375630
0.000000 0.061304 0.438478
0.000000 0.061290 0.501326
0.000000 0.061276 0.564174
0.000000 0.061261 0.627023
0.000000 0.061247 0.689871
0.000000 0.061233 0.752719
0.000000 0.061218 0.815567
0.000000 0.061204 0.878415
0.000000 0.061190 0.941263
0.000000 0.061176 1.000000
0.000000 0.124125 0.000000
0.000000 0.124111 0.061248
0.000000 0.124096 0.124096
0.000000 0.124082 0.186944
0.000000 0.124068 0.249793
0.000000 0.124054 0.312641
0.000000 0.124039 0.375489
0.000000 0.124025 0.438337
0.000000 0.124011 0.501185
0.000000 0.123996 0.564033
0.000000 0.123982 0.626881
0.000000 0.123968 0.689729
0.000000 0.123954 0.752577
0.000000 0.123939 0.815425
0.000000 0.123925 0.878273
0.000000 0.123911 0.941121
0.000000 0.123897 1.000000
0.000000 0.186846 0.000000
0.000000 0.186832 0.061107
0.000000 0.186817 0.123955
0.000000 0.186803 0.186803
0.000000 0.186789 0.249651
0.000000 0.186774 0.312499
0.000000 0.186760 0.375347
0.000000 0.186746 0.438195
0.000000 0.186732 0.501043
0.000000 0.186717 0.563891
0.000000 0.186703 0.626739
0.000000 0.186689 0.689588
0.000000 0.186674 0.752436
0.000000 0.186660 0.815284
0.000000 0.186646 0.878132
0.000000 0.186632 0.940980
0.000000 0.186618 1.000000
0.000000 0.249566 0.000000
0.000000 0.249552 0.060965
0.000000 0.249538 0.123813
0.000000 0.249524 0.186661
0.000000 0.249510 0.249510
0.000000 0.249495 0.312358
0.000000 0.249481 0.375206
0.000000 0.249467 0.438054
0.000000 0.249452 0.500902
0.000000 0.249438 0.563750
0.000000 0.249424 0.626598
0.000000 0.249409 0.689446
0.000000 0.249395 0.752294
0.000000 0.249381 0.815142
0.000000 0.249367 0.877990
0.000000 0.249352 0.940838
0.000000 0.249338 1.000000
0.000000 0.312287 0.000000
0.000000 0.312273 0.060824
0.000000 0.312259 0.123672
0.000000 0.312245 0.186520
0.000000 0.312230 0.249368
0.000000 0.312216 0.312216
0.000000 0.312202 0.375064
0.000000 0.312187 0.437912
0.000000 0.312173 0.500760
0.000000 0.312159 0.563608
0.000000 0.312145 0.626456
0.000000 0.312130 0.689304
0.000000 0.312116 0.752153
0.000000 0.312102 0.815001
0.000000 0.312087 0.877849
0.000000 0.312073 0.940697
0.000000 0.312059 1.000000
0.000000 0.375008 0.000000
0.000000 0.374994 0.060682
0.000000 0.374980 0.123530
0.000000 0.374965 0.186378
0.000000 0.374951 0.249226
0.000000 0.374937 0.312075
0.000000 0.374923 0.374923
0.000000 0.374908 0.437771
0.000000 0.374894 0.500619
0.000000 0.374880 0.563467
0.000000 0.374865 0.626315
0.000000 0.374851 0.689163
0.000000 0.374837 0.752011
0.000000 0.374823 0.814859
0.000000 0.374808 0.877707
0.000000 0.374794 0.940555
0.000000 0.374780 1.000000
0.000000 0.437729 0.000000
0.000000 0.437715 0.060541
0.000000 0.437701 0.123389
0.000000 0.437686 0.186237
0.000000 0.437672 0.249085
0.000000 0.437658 0.311933
0.000000 0.437643 0.374781
0.000000 0.437629 0.437629
0.000000 0.437615 0.500477
0.000000 0.437601 0.563325
0.000000 0.437586 0.626173
0.000000 0.437572 0.689021
0.000000 0.437558 0.751870
0.000000 0.437543 0.814718
0.000000 0.437529 0.877566
0.000000 0.437515 0.940414
0.000000 0.437501 1.000000
0.000000 0.500450 0.000000
0.000000 0.500436 0.060399
0.000000 0.500421 0.123247
0.000000 0.500407 0.186095
0.000000 0.500393 0.248943
0.000000 0.500379 0.311791
0.000000 0.500364 0.374640
0.000000 0.500350 0.437488
0.000000 0.500336 0.500336
0.000000 0.500321 0.563184
0.000000 0.500307 0.626032
0.000000 0.500293 0.688880
0.000000 0.500279 0.751728
0.000000 0.500264 0.814576
0.000000 0.500250 0.877424
0.000000 0.500236 0.940272
0.000000 0.500222 1.000000
0.000000 0.563171 0.000000
0.000000 0.563157 0.060258
0.000000 0.563142 0.123106
0.000000 0.563128 0.185954
0.000000 0.563114 0.248802
0.000000 0.563099 0.311650
0.000000 0.563085 0.374498
0.000000 0.563071 0.437346
0.000000 0.563057 0.500194
0.000000 0.563042 0.563042
0.000000 0.563028 0.625890
0.000000 0.563014 0.688738
0.000000 0.562999 0.751586
0.000000 0.562985 0.814435
0.000000 0.562971 0.877283
0.000000 0.562957 0.940131
0.000000 0.562943 1.000000
0.000000 0.625891 0.000000
0.000000 0.625877 0.060116
0.000000 0.625863 0.122964
0.000000 0.625849 0.185812
0.000000 0.625834 0.248660
0.000000 0.625820 0.311508
0.000000 0.625806 0.374356
0.000000 0.625792 0.437205
0.000000 0.625777 0.500053
0.000000 0.625763 0.562901
0.000000 0.625749 0.625749
0.000000 0.625734 0.688597
0.000000 0.625720 0.751445
0.000000 0.625706 0.814293
0.000000 0.625692 0.877141
0.000000 0.625677 0.939989
0.000000 0.625663 1.000000
0.000000 0.688612 0.000000
0.000000 0.688598 0.059975
0.000000 0.688584 0.122823
0.000000 0.688570 0.185671
0.000000 0.688555 0.248519
0.000000 0.688541 0.311367
0.000000 0.688527 0.374215
0.000000 0.688512 0.437063
0.000000 0.688498 0.499911
0.000000 0.688484 0.562759
0.000000 0.688470 0.625607
0.000000 0.688455 0.688455
0.000000 0.688441 0.751303
0.000000 0.688427 0.814151
0.000000 0.688412 0.877000
0.000000 0.688398 0.939848
0.000000 0.688384 1.000000
0.000000 0.751333 0.000000
0.000000 0.751319 0.059833
0.000000 0.751305 0.122681
0.000000 0.751290 0.185529
0.000000 0.751276 0.248377
0.000000 0.751262 0.311225
0.000000 0.751248 0.374073
0.000000 0.751233 0.436921
0.000000 0.751219 0.499770
0.000000 0.751205 0.562618
0.000000 0.751190 0.625466
0.000000 0.751176 0.688314
0.000000 0.751162 0.751162
0.000000 0.751148 0.814010
0.000000 0.751133 0.876858
0.000000 0.751119 0.939706
0.000000 0.751105 1.000000
0.000000 0.814054 0.000000
0.000000 0.814040 0.059692
0.000000 0.814026 0.122540
0.000000 0.814011 0.185388
0.000000 0.813997 0.248236
0.000000 0.813983 0.311084
0.000000 0.813968 0.373932
0.000000 0.813954 0.436780
0.000000 0.813940 0.499628
0.000000 0.813926 0.562476
0.000000 0.813911 0.625324
0.000000 0.813897 0.688172
0.000000 0.813883 0.751020
0.000000 0.813868 0.813868
0.000000 0.813854 0.876716
0.000000 0.813840 0.939565
0.000000 0.813826 1.000000
0.000000 0.876775 0.000000
0.000000 0.876761 0.059550
0.000000 0.876746 0.122398
0.000000 0.876732 0.185246
0.000000 0.876718 0.248094
0.000000 0.876704 0.310942
0.000000 0.876689 0.373790
0.000000 0.876675 0.436638
0.000000 0.876661 0.499487
0.000000 0.876646 0.562335
0.000000 0.876632 0.625183
0.000000 0.876618 0.688031
0.000000 0.876604 0.750879
0.000000 0.876589 0.813727
0.000000 0.876575 0.876575
0.000000 0.876561 0.939423
0.000000 0.876547 1.000000
0.000000 0.939496 0.000000
0.000000 0.939482 0.059408
0.000000 0.939467 0.122257
0.000000 0.939453 0.185105
0.000000 0.939439 0.247953
0.000000 0.939424 0.310801
0.000000 0.939410 0.373649
0.000000 0.939396 0.436497
0.000000 0.939382 0.499345
0.000000 0.939367 0.562193
0.000000 0.939353 0.625041
0.000000 0.939339 0.687889
0.000000 0.939324 0.750737
0.000000 0.939310 0.813585
0.000000 0.939296 0.876433
0.000000 0.939281 0.939281
0.000000 0.939268 1.000000
0.000000 1.000000 0.000000
0.000000 1.000000 0.059270
0.000000 1.000000 0.122118
0.000000 1.000000 0.184966
0.000000 1.000000 0.247814
0.000000 1.000000 0.310662
0.000000 1.000000 0.373510
0.000000 1.000000 0.436358
0.000000 1.000000 0.499206
0.000000 1.000000 0.562054
0.000000 1.000000 0.624903
0.000000 1.000000 0.687751
0.000000 1.000000 0.750599
0.000000 1.000000 0.813447
0.000000 1.000000 0.876295
0.000000 1.000000 0.939143
0.000000 1.000000 1.000000
0.061501 0.000000 0.000000
0.061487 0.000000 0.061487
0.061473 0.000000 0.124335
0.061459 0.000000 0.187183
0.061444 0.000000 0.250031
0.061430 0.000000 0.312880
0.061416 0.000000 0.375728
0.061402 0.000000 0.438576
0.061387 0.000000 0.501424
0.061373 0.000000 0.564272
0.061359 0.000000 0.627120
0.061344 0.000000 0.689968
0.061330 0.000000 0.752816
0.061316 0.000000 0.815664
0.061302 0.000000 0.878512
0.061287 0.000000 0.941360
0.061273 0.000000 1.000000
0.061363 0.061363 0.000000
0.061349 0.061349 0.061349
0.061334 0.061334 0.124197
0.061320 0.061320 0.187045
0.061306 0.061306 0.249893
0.061292 0.061292 0.312741
0.061277 0.061277 0.375589
0.061263 0.061263 0.438437
0.061249 0.061249 0.501285
0.061234 0.061234 0.564133
0.061220 0.061220 0.626981
0.061206 0.061206 0.689829
0.061192 0.061192 0.752677
0.061177 0.061177 0.815526
0.061163 0.061163 0.878374
0.061149 0.061149 0.941222
0.061135 0.061135 1.000000
0.061221 0.124084 0.000000
0.061207 0.124070 0.061207
0.061193 0.124055 0.124055
0.061179 0.124041 0.186903
0.061164 0.124027 0.249751
0.061150 0.124012 0.312599
0.061136 0.123998 0.375448
0.061121 0.123984 0.438296
0.061107 0.123970 0.501144
0.061093 0.123955 0.563992
0.061079 0.123941 0.626840
0.061064 0.123927 0.689688
0.061050 0.123912 0.752536
0.061036 0.123898 0.815384
0.061021 0.123884 0.878232
0.061007 0.123869 0.941080
0.060993 0.123856 1.000000
0.061080 0.186804 0.000000
0.061066 0.186790 0.061066
0.061051 0.186776 0.123914
0.061037 0.186762 0.186762
0.061023 0.186747 0.249610
0.061008 0.186733 0.312458
0.060994 0.186719 0.375306
0.060980 0.186705 0.438154
0.060966 0.186690 0.501002
0.060951 0.186676 0.563850
0.060937 0.186662 0.626698
0.060923 0.186647 0.689546
0.060908 0.186633 0.752394
0.060894 0.186619 0.815243
0.060880 0.186605 0.878091
0.060866 0.186590 0.940939
0.060852 0.186576 1.000000
0.060938 0.249525 0.000000
0.060924 0.249511 0.060924
0.060910 0.249497 0.123772
0.060896 0.249483 0.186620
0.060881 0.249468 0.249468
0.060867 0.249454 0.312316
0.060853 0.249440 0.375164
0.060838 0.249425 0.438013
0.060824 0.249411 0.500861
0.060810 0.249397 0.563709
0.060796 0.249383 0.626557
0.060781 0.249368 0.689405
0.060767 0.249354 0.752253
0.060753 0.249340 0.815101
0.060738 0.249325 0.877949
0.060724 0.249311 0.940797
0.060710 0.249297 1.000000
0.060797 0.312246 0.000000
0.060783 0.312232 0.060783
0.060768 0.312218 0.123631
0.060754 0.312203 0.186479
0.060740 0.312189 0.249327
0.060725 0.312175 0.312175
0.060711 0.312161 0.375023
0.060697 0.312146 0.437871
0.060683 0.312132 0.500719
0.060668 0.312118 0.563567
0.060654 0.312103 0.626415
0.060640 0.312089 0.689263
0.060625 0.312075 0.752111
0.060611 0.312061 0.814959
0.060597 0.312046 0.877808
0.060583 0.312032 0.940656
0.060569 0.312018 1.000000
0.060655 0.374967 0.000000
0.060641 0.374953 0.060641
0.060627 0.374939 0.123489
0.060612 0.374924 0.186337
0.060598 0.374910 0.249185
0.060584 0.374896 0.312033
0.060570 0.374881 0.374881
0.060555 0.374867 0.437729
0.060541 0.374853 0.500578
0.060527 0.374839 0.563426
0.060512 0.374824 0.626274
0.060498 0.374810 0.689122
0.060484 0.374796 0.751970
0.060470 0.374781 0.814818
0.060455 0.374767 0.877666
0.060441 0.374753 0.940514
0.060427 0.374739 1.000000
0.060513 0.437688 0.000000
0.060500 0.437674 0.060500
0.060485 0.437659 0.123348
0.060471 0.437645 0.186196
0.060457 0.437631 0.249044
0.060442 0.437617 0.311892
0.060428 0.437602 0.374740
0.060414 0.437588 0.437588
0.060399 0.437574 0.500436
0.060385 0.437559 0.563284
0.060371 0.437545 0.626132
0.060357 0.437531 0.688980
0.060342 0.437517 0.751828
0.060328 0.437502 0.814676
0.060314 0.437488 0.877524
0.060299 0.437474 0.940373
0.060285 0.437460 1.000000
0.060372 0.500408 0.000000
0.060358 0.500395 0.060358
0.060344 0.500380 0.123206
0.060329 0.500366 0.186054
0.060315 0.500352 0.248902
0.060301 0.500337 0.311750
0.060287 0.500323 0.374598
0.060272 0.500309 0.437446
0.060258 0.500294 0.500294
0.060244 0.500280 0.563143
0.060229 0.500266 0.625991
0.060215 0.500252 0.688839
0.060201 0.500237 0.751687
0.060187 0.500223 0.814535
0.060172 0.500209 0.877383
0.060158 0.500194 0.940231
0.060144 0.500180 1.000000
0.060230 0.563129 0.000000
0.060216 0.563115 0.060216
0.060202 0.563101 0.123065
0.060188 0.563087 0.185913
0.060174 0.563072 0.248761
0.060159 0.563058 0.311609
0.060145 0.563044 0.374457
0.060131 0.563030 0.437305
0.060116 0.563015 0.500153
0.060102 0.563001 0.563001
0.060088 0.562987 0.625849
0.060074 0.562972 0.688697
0.060059 0.562958 0.751545
0.060045 0.562944 0.814393
0.060031 0.562930 0.877241
0.060016 0.562915 0.940089
0.060002 0.562901 1.000000
0.060089 0.625850 0.000000
0.060075 0.625836 0.060075
0.060061 0.625822 0.122923
0.060046 0.625808 0.185771
0.060032 0.625793 0.248619
0.060018 0.625779 0.311467
0.060003 0.625765 0.374315
0.059989 0.625750 0.437163
0.059975 0.625736 0.500011
0.059961 0.625722 0.562860
0.059946 0.625708 0.625708
0.059932 0.625693 0.688556
0.059918 0.625679 0.751404
0.059903 0.625665 0.814252
0.059889 0.625650 0.877100
0.059875 0.625636 0.939948
0.059861 0.625622 1.000000
0.059947 0.688571 0.000000
0.059933 0.688557 0.059933
0.059919 0.688543 0.122781
0.059905 0.688528 0.185630
0.059891 0.688514 0.248478
0.059876 0.688500 0.311326
0.059862 0.688486 0.374174
0.059848 0.688471 0.437022
0.059833 0.688457 0.499870
0.059819 0.688443 0.562718
0.059805 0.688428 0.625566
0.059791 0.688414 0.688414
0.059776 0.688400 0.751262
0.059762 0.688386 0.814110
0.059748 0.688371 0.876958
0.059733 0.688357 0.939806
0.059719 0.688343 1.000000
0.059806 0.751292 0.000000
0.059792 0.751278 0.059792
0.059778 0.751264 0.122640
0.059763 0.751249 0.185488
0.059749 0.751235 0.248336
0.059735 0.751221 0.311184
0.059720 0.751206 0.374032
0.059706 0.751192 0.436880
0.059692 0.751178 0.499728
0.059678 0.751164 0.562576
0.059663 0.751149 0.625425
0.059649 0.751135 0.688273
0.059635 0.751121 0.751121
0.059620 0.751106 0.813969
0.059606 0.751092 0.876817
0.059592 0.751078 0.939665
0.059578 0.751064 1.000000
0.059664 0.814013 0.000000
0.059650 0.813999 0.059650
0.059636 0.813984 0.122498
0.059622 0.813970 0.185346
0.059607 0.813956 0.248195
0.059593 0.813942 0.311043
0.059579 0.813927 0.373891
0.059565 0.813913 0.436739
0.059550 0.813899 0.499587
0.059536 0.813884 0.562435
0.059522 0.813870 0.625283
0.059507 0.813856 0.688131
0.059493 0.813842 0.750979
0.059479 0.813827 0.813827
0.059465 0.813813 0.876675
0.059450 0.813799 0.939523
0.059436 0.813785 1.000000
0.059523 0.876733 0.000000
0.059509 0.876720 0.059509
0.059495 0.876705 0.122357
0.059480 0.876691 0.185205
0.059466 0.876677 0.248053
0.059452 0.876662 0.310901
0.059437 0.876648 0.373749
0.059423 0.876634 0.436597
0.059409 0.876619 0.499445
0.059395 0.876605 0.562293
0.059380 0.876591 0.625141
0.059366 0.876577 0.687990
0.059352 0.876562 0.750838
0.059337 0.876548 0.813686
0.059323 0.876534 0.876534
0.059309 0.876519 0.939382
0.059295 0.876505 1.000000
0.059381 0.939454 0.000000
0.059367 0.939440 0.059367
0.059353 0.939426 0.122215
0.059339 0.939412 0.185063
0.059324 0.939397 0.247911
0.059310 0.939383 0.310760
0.059296 0.939369 0.373608
0.059282 0.939355 0.436456
0.059267 0.939340 0.499304
0.059253 0.939326 0.562152
0.059239 0.939312 0.625000
0.059224 0.939297 0.687848
0.059210 0.939283 0.750696
0.059196 0.939269 0.813544
0.059182 0.939255 0.876392
0.059167 0.939240 0.939240
0.059153 0.939226 1.000000
0.059243 1.000000 0.000000
0.059229 1.000000 0.059229
0.059214 1.000000 0.122077
0.059200 1.000000 0.184925
0.059186 1.000000 0.247773
0.059172 1.000000 0.310621
0.059157 1.000000 0.373469
0.059143 1.000000 0.436317
0.059129 1.000000 0.499165
0.059114 1.000000 0.562013
0.059100 1.000000 0.624861
0.059086 1.000000 0.687709
0.059072 1.000000 0.750558
0.059057 1.000000 0.813406
0.059043 1.000000 0.876254
0.059029 1.000000 0.939102
0.059015 1.000000 1.000000
0.124322 0.000000 0.000000
0.124308 0.000000 0.061445
0.124293 0.000000 0.124293
0.124279 0.000000 0.187141
0.124265 0.000000 0.249989
0.124250 0.000000 0.312837
0.124236 0.000000 0.375686
0.124222 0.000000 0.438534
0.124208 0.000000 0.501382
0.124193 0.000000 0.564230
0.124179 0.000000 0.627078
0.124165 0.000000 0.689926
0.124150 0.000000 0.752774
0.124136 0.000000 0.815622
0.124122 0.000000 0.878470
0.124108 0.000000 0.941318
0.124094 0.000000 1.000000
0.124183 0.061321 0.000000
0.124169 0.061307 0.061307
0.124155 0.061292 0.124155
0.124140 0.061278 0.187003
0.124126 0.061264 0.249851
0.124112 0.061249 0.312699
0.124098 0.061235 0.375547
0.124083 0.061221 0.438395
0.124069 0.061207 0.501243
0.124055 0.061192 0.564091
0.124040 0.061178 0.626939
0.124026 0.061164 0.689787
0.124012 0.061149 0.752635
0.123998 0.061135 0.815484
0.123983 0.061121 0.878332
0.123969 0.061107 0.941180
0.123955 0.061093 1.000000
0.124041 0.124041 0.000000
0.124027 0.124027 0.061165
0.124013 0.124013 0.124013
0.123999 0.123999 0.186861
0.123985 0.123985 0.249709
0.123970 0.123970 0.312557
0.123956 0.123956 0.375405
0.123942 0.123942 0.438254
0.123927 0.123927 0.501102
0.123913 0.123913 0.563950
0.123899 0.123899 0.626798
0.123885 0.123885 0.689646
0.123870 0.123870 0.752494
0.123856 0.123856 0.815342
0.123842 0.123842 0.878190
0.123827 0.123827 0.941038
0.123813 0.123813 1.000000
0.123900 0.186762 0.000000
0.123886 0.186748 0.061024
0.123872 0.186734 0.123872
0.123857 0.186720 0.186720
0.123843 0.186705 0.249568
0.123829 0.186691 0.312416
0.123814 0.186677 0.375264
0.123800 0.186663 0.438112
0.123786 0.186648 0.500960
0.123772 0.186634 0.563808
0.123757 0.186620 0.626656
0.123743 0.186605 0.689504
0.123729 0.186591 0.752352
0.123714 0.186577 0.815200
0.123700 0.186563 0.878049
0.123686 0.186548 0.940897
0.123672 0.186534 1.000000
0.123758 0.249483 0.000000
0.123744 0.249469 0.060882
0.123730 0.249455 0.123730
0.123716 0.249441 0.186578
0.123702 0.249426 0.249426
0.123687 0.249412 0.312274
0.123673 0.249398 0.375122
0.123659 0.249383 0.437970
0.123644 0.249369 0.500819
0.123630 0.249355 0.563667
0.123616 0.249341 0.626515
0.123602 0.249326 0.689363
0.123587 0.249312 0.752211
0.123573 0.249298 0.815059
0.123559 0.249283 0.877907
0.123544 0.249269 0.940755
0.123530 0.249255 1.000000
0.123617 0.312204 0.000000
0.123603 0.312190 0.060740
0.123589 0.312176 0.123589
0.123574 0.312161 0.186437
0.123560 0.312147 0.249285
0.123546 0.312133 0.312133
0.123531 0.312119 0.374981
0.123517 0.312104 0.437829
0.123503 0.312090 0.500677
0.123489 0.312076 0.563525
0.123474 0.312061 0.626373
0.123460 0.312047 0.689221
0.123446 0.312033 0.752069
0.123431 0.312018 0.814917
0.123417 0.312004 0.877765
0.123403 0.311990 0.940614
0.123389 0.311976 1.000000
0.123475 0.374925 0.000000
0.123461 0.374911 0.060599
0.123447 0.374896 0.123447
0.123433 0.374882 0.186295
0.123418 0.374868 0.249143
0.123404 0.374854 0.311991
0.123390 0.374839 0.374839
0.123376 0.374825 0.437687
0.123361 0.374811 0.500535
0.123347 0.374796 0.563384
0.123333 0.374782 0.626232
0.123318 0.374768 0.689080
0.123304 0.374754 0.751928
0.123290 0.374739 0.814776
0.123276 0.374725 0.877624
0.123261 0.374711 0.940472
0.123247 0.374697 1.000000
0.123334 0.437646 0.000000
0.123320 0.437632 0.060457
0.123306 0.437617 0.123306
0.123291 0.437603 0.186154
0.123277 0.437589 0.249002
0.123263 0.437574 0.311850
0.123248 0.437560 0.374698
0.123234 0.437546 0.437546
0.123220 0.437532 0.500394
0.123205 0.437517 0.563242
0.123191 0.437503 0.626090
0.123177 0.437489 0.688938
0.123163 0.437474 0.751786
0.123148 0.437460 0.814634
0.123134 0.437446 0.877482
0.123120 0.437432 0.940330
0.123106 0.437418 1.000000
0.123192 0.500366 0.000000
0.123178 0.500352 0.060316
0.123164 0.500338 0.123164
0.123150 0.500324 0.186012
0.123135 0.500310 0.248860
0.123121 0.500295 0.311708
0.123107 0.500281 0.374556
0.123093 0.500267 0.437404
0.123078 0.500252 0.500252
0.123064 0.500238 0.563100
0.123050 0.500224 0.625949
0.123035 0.500210 0.688797
0.123021 0.500195 0.751645
0.123007 0.500181 0.814493
0.122993 0.500167 0.877341
0.122978 0.500152 0.940189
0.122964 0.500138 1.000000
0.123051 0.563087 0.000000
0.123037 0.563073 0.060174
0.123022 0.563059 0.123022
0.123008 0.563045 0.185871
0.122994 0.563030 0.248719
0.122980 0.563016 0.311567
0.122965 0.563002 0.374415
0.122951 0.562988 0.437263
0.122937 0.562973 0.500111
0.122922 0.562959 0.562959
0.122908 0.562945 0.625807
0.122894 0.562930 0.688655
0.122880 0.562916 0.751503
0.122865 0.562902 0.814351
0.122851 0.562888 0.877199
0.122837 0.562873 0.940047
0.122823 0.562859 1.000000
0.122909 0.625808 0.000000
0.122895 0.625794 0.060033
0.122881 0.625780 0.122881
0.122867 0.625766 0.185729
0.122852 0.625751 0.248577
0.122838 0.625737 0.311425
0.122824 0.625723 0.374273
0.122809 0.625708 0.437121
0.122795 0.625694 0.499969
0.122781 0.625680 0.562817
0.122767 0.625666 0.625666
0.122752 0.625651 0.688514
0.122738 0.625637 0.751362
0.122724 0.625623 0.814210
0.122709 0.625608 0.877058
0.122695 0.625594 0.939906
0.122681 0.625580 1.000000
0.122768 0.688529 0.000000
0.122754 0.688515 0.059891
0.122739 0.688501 0.122739
0.122725 0.688486 0.185587
0.122711 0.688472 0.248436
0.122697 0.688458 0.311284
0.122682 0.688443 0.374132
0.122668 0.688429 0.436980
0.122654 0.688415 0.499828
0.122639 0.688401 0.562676
0.122625 0.688386 0.625524
0.122611 0.688372 0.688372
0.122597 0.688358 0.751220
0.122582 0.688343 0.814068
0.122568 0.688329 0.876916
0.122554 0.688315 0.939764
0.122540 0.688301 1.000000
0.122626 0.751250 0.000000
0.122612 0.751236 0.059750
0.122598 0.751221 0.122598
0.122584 0.751207 0.185446
0.122569 0.751193 0.248294
0.122555 0.751179 0.311142
0.122541 0.751164 0.373990
0.122526 0.751150 0.436838
0.122512 0.751136 0.499686
0.122498 0.751121 0.562534
0.122484 0.751107 0.625382
0.122469 0.751093 0.688231
0.122455 0.751079 0.751079
0.122441 0.751064 0.813927
0.122426 0.751050 0.876775
0.122412 0.751036 0.939623
0.122398 0.751022 1.000000
0.122485 0.813971 0.000000
0.122471 0.813957 0.059608
0.122456 0.813942 0.122456
0.122442 0.813928 0.185304
0.122428 0.813914 0.248152
0.122413 0.813899 0.311001
0.122399 0.813885 0.373849
0.122385 0.813871 0.436697
0.122371 0.813857 0.499545
0.122356 0.813842 0.562393
0.122342 0.813828 0.625241
0.122328 0.813814 0.688089
0.122313 0.813799 0.750937
0.122299 0.813785 0.813785
0.122285 0.813771 0.876633
0.122271 0.813757 0.939481
0.122257 0.813743 1.000000
0.122343 0.876691 0.000000
0.122329 0.876677 0.059467
0.122315 0.876663 0.122315
0.122301 0.876649 0.185163
0.122286 0.876635 0.248011
0.122272 0.876620 0.310859
0.122258 0.876606 0.373707
0.122243 0.876592 0.436555
0.122229 0.876577 0.499403
0.122215 0.876563 0.562251
0.122201 0.876549 0.625099
0.122186 0.876535 0.687947
0.122172 0.876520 0.750796
0.122158 0.876506 0.813644
0.122143 0.876492 0.876492
0.122129 0.876477 0.939340
0.122115 0.876463 1.000000
0.122202 0.939412 0.000000
0.122188 0.939398 0.059325
0.122173 0.939384 0.122173
0.122159 0.939370 0.185021
0.122145 0.939355 0.247869
0.122130 0.939341 0.310717
0.122116 0.939327 0.373566
0.122102 0.939313 0.436414
0.122088 0.939298 0.499262
0.122073 0.939284 0.562110
0.122059 0.939270 0.624958
0.122045 0.939255 0.687806
0.122030 0.939241 0.750654
0.122016 0.939227 0.813502
0.122002 0.939213 0.876350
0.121988 0.939198 0.939198
0.121974 0.939184 1.000000
0.122063 1.000000 0.000000
0.122049 1.000000 0.059187
0.122035 1.000000 0.122035
0.122020 1.000000 0.184883
0.122006 1.000000 0.247731
0.121992 1.000000 0.310579
0.121978 1.000000 0.373427
0.121963 1.000000 0.436275
0.121949 1.000000 0.499123
0.121935 1.000000 0.561971
0.121920 1.000000 0.624819
0.121906 1.000000 0.687667
0.121892 1.000000 0.750515
0.121878 1.000000 0.813364
0.121863 1.000000 0.876212
0.121849 1.000000 0.939060
0.121835 1.000000 1.000000
0.187142 0.000000 0.000000
0.187128 0.000000 0.061403
0.187114 0.000000 0.124251
0.187099 0.000000 0.187099
0.187085 0.000000 0.249947
0.187071 0.000000 0.312795
0.187056 0.000000 0.375643
0.187042 0.000000 0.438492
0.187028 0.000000 0.501340
0.187014 0.000000 0.564188
0.186999 0.000000 0.627036
0.186985 0.000000 0.689884
0.186971 0.000000 0.752732
0.186956 0.000000 0.815580
0.186942 0.000000 0.878428
0.186928 0.000000 0.941276
0.186914 0.000000 1.000000
0.187003 0.061279 0.000000
