skills/editops-orchestrator/assets/grade/luts/product_clean_v02.cube
TITLE "product_clean_v02"
LUT_3D_SIZE 5
DOMAIN_MIN 0.0 0.0 0.0
DOMAIN_MAX 1.0 1.0 1.0
0.000000 0.000000 0.000000
0.000000 0.000000 0.250073
0.000000 0.000000 0.501465
0.000000 0.000000 0.752857
0.000000 0.000000 1.000000
0.000000 0.249566 0.000000
0.000000 0.249510 0.249510
0.000000 0.249452 0.500902
0.000000 0.249395 0.752294
0.000000 0.249338 1.000000
0.000000 0.500450 0.000000
0.000000 0.500393 0.248943
0.000000 0.500336 0.500336
0.000000 0.500279 0.751728
0.000000 0.500222 1.000000
0.000000 0.751333 0.000000
0.000000 0.751276 0.248377
0.000000 0.751219 0.499770
0.000000 0.751162 0.751162
0.000000 0.751105 1.000000
0.000000 1.000000 0.000000
0.000000 1.000000 0.247814
0.000000 1.000000 0.499206
0.000000 1.000000 0.750599
0.000000 1.000000 1.000000
0.249962 0.000000 0.000000
0.249905 0.000000 0.249905
0.249848 0.000000 0.501298
0.249791 0.000000 0.752690
0.249734 0.000000 1.000000
0.249399 0.249399 0.000000
0.249342 0.249342 0.249342
0.249285 0.249285 0.500734
0.249228 0.249228 0.752127
0.249171 0.249171 1.000000
0.248833 0.500282 0.000000
0.248776 0.500225 0.248776
0.248719 0.500168 0.500168
0.248662 0.500111 0.751561
0.248605 0.500054 1.000000
0.248267 0.751166 0.000000
0.248210 0.751109 0.248210
0.248153 0.751052 0.499602
0.248096 0.750994 0.750994
0.248039 0.750938 1.000000
0.247704 1.000000 0.000000
0.247647 1.000000 0.247647
0.247590 1.000000 0.499039
0.247532 1.000000 0.750431
0.247476 1.000000 1.000000
0.501243 0.000000 0.000000
0.501186 0.000000 0.249737
0.501129 0.000000 0.501129
0.501072 0.000000 0.752522
0.501015 0.000000 1.000000
0.500680 0.249231 0.000000
0.500623 0.249174 0.249174
0.500566 0.249117 0.500566
0.500509 0.249060 0.751958
0.500452 0.249003 1.000000
0.500114 0.500114 0.000000
0.500057 0.500057 0.248608
0.500000 0.500000 0.500000
0.499943 0.499943 0.751392
0.499886 0.499886 1.000000
0.499548 0.750997 0.000000
0.499491 0.750940 0.248042
0.499434 0.750883 0.499434
0.499377 0.750826 0.750826
0.499320 0.750769 1.000000
0.498985 1.000000 0.000000
0.498928 1.000000 0.247478
0.498871 1.000000 0.498871
0.498814 1.000000 0.750263
0.498757 1.000000 1.000000
0.752524 0.000000 0.000000
0.752468 0.000000 0.249569
0.752410 0.000000 0.500961
0.752353 0.000000 0.752353
0.752296 0.000000 1.000000
0.751961 0.249062 0.000000
0.751904 0.249006 0.249006
0.751847 0.248948 0.500398
0.751790 0.248891 0.751790
0.751733 0.248834 1.000000
0.751395 0.499946 0.000000
0.751338 0.499889 0.248439
0.751281 0.499832 0.499832
0.751224 0.499775 0.751224
0.751167 0.499718 1.000000
0.750829 0.750829 0.000000
0.750772 0.750772 0.247873
0.750715 0.750715 0.499266
0.750658 0.750658 0.750658
0.750601 0.750601 1.000000
0.750266 1.000000 0.000000
0.750209 1.000000 0.247310
0.750152 1.000000 0.498702
0.750095 1.000000 0.750095
0.750038 1.000000 1.000000
1.000000 0.000000 0.000000
1.000000 0.000000 0.249401
1.000000 0.000000 0.500794
1.000000 0.000000 0.752186
1.000000 0.000000 1.000000
1.000000 0.248895 0.000000
1.000000 0.248838 0.248838
1.000000 0.248781 0.500230
1.000000 0.248724 0.751623
1.000000 0.248667 1.000000
1.000000 0.499778 0.000000
1.000000 0.499721 0.248272
1.000000 0.499664 0.499664
1.000000 0.499607 0.751057
1.000000 0.499550 1.000000
1.000000 0.750662 0.000000
1.000000 0.750605 0.247706
1.000000 0.750548 0.499098
1.000000 0.750490 0.750490
1.000000 0.750434 1.000000
1.000000 1.000000 0.000000
1.000000 1.000000 0.247143
1.000000 1.000000 0.498535
1.000000 1.000000 0.749927
1.000000 1.000000 1.000000
