skills/editops-orchestrator/assets/grade/luts/product_clean_v06.cube
TITLE "product_clean_v06"
LUT_3D_SIZE 9
DOMAIN_MIN 0.0 0.0 0.0
DOMAIN_MAX 1.0 1.0 1.0
0.000000 0.000000 0.000000
0.000000 0.000000 0.121825
0.000000 0.000000 0.250325
0.000000 0.000000 0.378825
0.000000 0.000000 0.507325
0.000000 0.000000 0.635825
0.000000 0.000000 0.764325
0.000000 0.000000 0.892825
0.000000 0.000000 1.000000
0.000000 0.120606 0.000000
0.000000 0.120469 0.120469
0.000000 0.120324 0.248969
0.000000 0.120180 0.377469
0.000000 0.120036 0.505969
0.000000 0.119891 0.634469
0.000000 0.119747 0.762969
0.000000 0.119603 0.891469
0.000000 0.119466 1.000000
0.000000 0.247820 0.000000
0.000000 0.247683 0.119039
0.000000 0.247539 0.247539
0.000000 0.247394 0.376039
0.000000 0.247250 0.504539
0.000000 0.247106 0.633039
0.000000 0.246961 0.761539
0.000000 0.246817 0.890039
0.000000 0.246680 1.000000
0.000000 0.375034 0.000000
0.000000 0.374897 0.117609
0.000000 0.374753 0.246109
0.000000 0.374609 0.374609
0.000000 0.374464 0.503109
0.000000 0.374320 0.631609
0.000000 0.374175 0.760109
0.000000 0.374031 0.888609
0.000000 0.373894 1.000000
0.000000 0.502248 0.000000
0.000000 0.502112 0.116178
0.000000 0.501967 0.244678
0.000000 0.501823 0.373178
0.000000 0.501678 0.501678
0.000000 0.501534 0.630178
0.000000 0.501390 0.758678
0.000000 0.501245 0.887178
0.000000 0.501108 1.000000
0.000000 0.629463 0.000000
0.000000 0.629326 0.114748
0.000000 0.629181 0.243248
0.000000 0.629037 0.371748
0.000000 0.628893 0.500248
0.000000 0.628748 0.628748
0.000000 0.628604 0.757248
0.000000 0.628460 0.885748
0.000000 0.628323 1.000000
0.000000 0.756677 0.000000
0.000000 0.756540 0.113318
0.000000 0.756396 0.241818
0.000000 0.756251 0.370318
0.000000 0.756107 0.498818
0.000000 0.755963 0.627318
0.000000 0.755818 0.755818
0.000000 0.755674 0.884318
0.000000 0.755537 1.000000
0.000000 0.883891 0.000000
0.000000 0.883754 0.111888
0.000000 0.883610 0.240388
0.000000 0.883466 0.368888
0.000000 0.883321 0.497388
0.000000 0.883177 0.625888
0.000000 0.883032 0.754388
0.000000 0.882888 0.882888
0.000000 0.882751 1.000000
0.000000 1.000000 0.000000
0.000000 1.000000 0.110532
0.000000 1.000000 0.239032
0.000000 1.000000 0.367532
0.000000 1.000000 0.496032
0.000000 1.000000 0.624532
0.000000 1.000000 0.753032
0.000000 1.000000 0.881532
0.000000 1.000000 1.000000
0.121559 0.000000 0.000000
0.121422 0.000000 0.121422
0.121277 0.000000 0.249922
0.121133 0.000000 0.378422
0.120989 0.000000 0.506922
0.120844 0.000000 0.635422
0.120700 0.000000 0.763922
0.120555 0.000000 0.892422
0.120419 0.000000 1.000000
0.120203 0.120203 0.000000
0.120066 0.120066 0.120066
0.119921 0.119921 0.248566
0.119777 0.119777 0.377066
0.119633 0.119633 0.505566
0.119488 0.119488 0.634066
0.119344 0.119344 0.762566
0.119200 0.119200 0.891066
0.119063 0.119063 1.000000
0.118773 0.247417 0.000000
0.118636 0.247280 0.118636
0.118491 0.247136 0.247136
0.118347 0.246991 0.375636
0.118203 0.246847 0.504136
0.118058 0.246703 0.632636
0.117914 0.246558 0.761136
0.117769 0.246414 0.889636
0.117633 0.246277 1.000000
0.117342 0.374631 0.000000
0.117205 0.374494 0.117205
0.117061 0.374350 0.245706
0.116917 0.374206 0.374206
0.116772 0.374061 0.502706
0.116628 0.373917 0.631206
0.116484 0.373772 0.759706
0.116339 0.373628 0.888206
0.116202 0.373491 1.000000
0.115912 0.501845 0.000000
0.115775 0.501709 0.115775
0.115631 0.501564 0.244275
0.115487 0.501420 0.372775
0.115342 0.501275 0.501275
0.115198 0.501131 0.629775
0.115053 0.500987 0.758275
0.114909 0.500842 0.886775
0.114772 0.500705 1.000000
0.114482 0.629060 0.000000
0.114345 0.628923 0.114345
0.114201 0.628778 0.242845
0.114056 0.628634 0.371345
0.113912 0.628490 0.499845
0.113768 0.628345 0.628345
0.113623 0.628201 0.756845
0.113479 0.628056 0.885345
0.113342 0.627920 1.000000
0.113052 0.756274 0.000000
0.112915 0.756137 0.112915
0.112771 0.755993 0.241415
0.112626 0.755848 0.369915
0.112482 0.755704 0.498415
0.112338 0.755559 0.626915
0.112193 0.755415 0.755415
0.112049 0.755271 0.883915
0.111912 0.755134 1.000000
0.111622 0.883488 0.000000
0.111485 0.883351 0.111485
0.111341 0.883207 0.239985
0.111196 0.883062 0.368485
0.111052 0.882918 0.496985
0.110907 0.882774 0.625485
0.110763 0.882629 0.753985
0.110619 0.882485 0.882485
0.110482 0.882348 1.000000
0.110266 1.000000 0.000000
0.110129 1.000000 0.110129
0.109985 1.000000 0.238629
0.109840 1.000000 0.367129
0.109696 1.000000 0.495629
0.109552 1.000000 0.624129
0.109407 1.000000 0.752629
0.109263 1.000000 0.881129
0.109126 1.000000 1.000000
0.249778 0.000000 0.000000
0.249641 0.000000 0.120997
0.249497 0.000000 0.249497
0.249352 0.000000 0.377997
0.249208 0.000000 0.506497
0.249063 0.000000 0.634997
0.248919 0.000000 0.763497
0.248775 0.000000 0.891997
0.248638 0.000000 1.000000
0.248422 0.119778 0.000000
0.248285 0.119641 0.119641
0.248141 0.119496 0.248141
0.247996 0.119352 0.376641
0.247852 0.119208 0.505141
0.247708 0.119063 0.633641
0.247563 0.118919 0.762141
0.247419 0.118774 0.890641
0.247282 0.118638 1.000000
0.246992 0.246992 0.000000
0.246855 0.246855 0.118211
0.246711 0.246711 0.246711
0.246566 0.246566 0.375211
0.246422 0.246422 0.503711
0.246277 0.246277 0.632211
0.246133 0.246133 0.760711
0.245989 0.245989 0.889211
0.245852 0.245852 1.000000
0.245562 0.374206 0.000000
0.245425 0.374069 0.116780
0.245280 0.373925 0.245280
0.245136 0.373780 0.373780
0.244992 0.373636 0.502280
0.244847 0.373492 0.630780
0.244703 0.373347 0.759280
0.244558 0.373203 0.887780
0.244422 0.373066 1.000000
0.244131 0.501420 0.000000
0.243995 0.501283 0.115350
0.243850 0.501139 0.243850
0.243706 0.500995 0.372350
0.243561 0.500850 0.500850
0.243417 0.500706 0.629350
0.243273 0.500562 0.757850
0.243128 0.500417 0.886350
0.242991 0.500280 1.000000
0.242701 0.628634 0.000000
0.242564 0.628498 0.113920
0.242420 0.628353 0.242420
0.242276 0.628209 0.370920
0.242131 0.628064 0.499420
0.241987 0.627920 0.627920
0.241843 0.627776 0.756420
0.241698 0.627631 0.884920
0.241561 0.627494 1.000000
0.241271 0.755849 0.000000
0.241134 0.755712 0.112490
0.240990 0.755567 0.240990
0.240846 0.755423 0.369490
0.240701 0.755279 0.497990
0.240557 0.755134 0.626490
0.240412 0.754990 0.754990
0.240268 0.754846 0.883490
0.240131 0.754709 1.000000
0.239841 0.883063 0.000000
0.239704 0.882926 0.111060
0.239560 0.882782 0.239560
0.239415 0.882637 0.368060
0.239271 0.882493 0.496560
0.239127 0.882349 0.625060
0.238982 0.882204 0.753560
0.238838 0.882060 0.882060
0.238701 0.881923 1.000000
0.238485 1.000000 0.000000
0.238348 1.000000 0.109704
0.238204 1.000000 0.238204
0.238060 1.000000 0.366704
0.237915 1.000000 0.495204
0.237771 1.000000 0.623704
0.237626 1.000000 0.752204
0.237482 1.000000 0.880704
0.237345 1.000000 1.000000
0.377997 0.000000 0.000000
0.377860 0.000000 0.120571
0.377716 0.000000 0.249071
0.377571 0.000000 0.377571
0.377427 0.000000 0.506071
0.377283 0.000000 0.634571
0.377138 0.000000 0.763071
0.376994 0.000000 0.891571
0.376857 0.000000 1.000000
0.376641 0.119352 0.000000
0.376504 0.119216 0.119216
0.376360 0.119071 0.247716
0.376216 0.118927 0.376216
0.376071 0.118782 0.504716
0.375927 0.118638 0.633216
0.375782 0.118494 0.761716
0.375638 0.118349 0.890216
0.375501 0.118212 1.000000
0.375211 0.246567 0.000000
0.375074 0.246430 0.117785
0.374930 0.246285 0.246285
0.374785 0.246141 0.374785
0.374641 0.245997 0.503285
0.374497 0.245852 0.631785
0.374352 0.245708 0.760285
0.374208 0.245564 0.888785
0.374071 0.245427 1.000000
0.373781 0.373781 0.000000
0.373644 0.373644 0.116355
0.373500 0.373500 0.244855
0.373355 0.373355 0.373355
0.373211 0.373211 0.501855
0.373067 0.373067 0.630355
0.372922 0.372922 0.758855
0.372778 0.372778 0.887355
0.372641 0.372641 1.000000
0.372351 0.500995 0.000000
0.372214 0.500858 0.114925
0.372069 0.500714 0.243425
0.371925 0.500570 0.371925
0.371781 0.500425 0.500425
0.371636 0.500281 0.628925
0.371492 0.500136 0.757425
0.371348 0.499992 0.885925
0.371211 0.499855 1.000000
0.370921 0.628209 0.000000
0.370784 0.628072 0.113495
0.370639 0.627928 0.241995
0.370495 0.627784 0.370495
0.370351 0.627639 0.498995
0.370206 0.627495 0.627495
0.370062 0.627351 0.755995
0.369917 0.627206 0.884495
0.369781 0.627069 1.000000
0.369490 0.755424 0.000000
0.369354 0.755287 0.112065
0.369209 0.755142 0.240565
0.369065 0.754998 0.369065
0.368920 0.754854 0.497565
0.368776 0.754709 0.626065
0.368632 0.754565 0.754565
0.368487 0.754420 0.883065
0.368350 0.754284 1.000000
0.368060 0.882638 0.000000
0.367923 0.882501 0.110635
0.367779 0.882357 0.239135
0.367635 0.882212 0.367635
0.367490 0.882068 0.496135
0.367346 0.881923 0.624635
0.367202 0.881779 0.753135
0.367057 0.881635 0.881635
0.366920 0.881498 1.000000
0.366704 1.000000 0.000000
0.366568 1.000000 0.109279
0.366423 1.000000 0.237779
0.366279 1.000000 0.366279
0.366134 1.000000 0.494779
0.365990 1.000000 0.623279
0.365846 1.000000 0.751779
0.365701 1.000000 0.880279
0.365564 1.000000 1.000000
0.506216 0.000000 0.000000
0.506079 0.000000 0.120146
0.505935 0.000000 0.248646
0.505791 0.000000 0.377146
0.505646 0.000000 0.505646
0.505502 0.000000 0.634146
0.505358 0.000000 0.762646
0.505213 0.000000 0.891146
0.505076 0.000000 1.000000
0.504860 0.118927 0.000000
0.504724 0.118790 0.118790
0.504579 0.118646 0.247290
0.504435 0.118502 0.375790
0.504290 0.118357 0.504290
0.504146 0.118213 0.632790
0.504002 0.118069 0.761290
0.503857 0.117924 0.889791
0.503720 0.117787 1.000000
0.503430 0.246142 0.000000
0.503293 0.246005 0.117360
0.503149 0.245860 0.245860
0.503005 0.245716 0.374360
0.502860 0.245572 0.502860
0.502716 0.245427 0.631360
0.502572 0.245283 0.759860
0.502427 0.245138 0.888360
0.502290 0.245002 1.000000
0.502000 0.373356 0.000000
0.501863 0.373219 0.115930
0.501719 0.373075 0.244430
0.501575 0.372930 0.372930
0.501430 0.372786 0.501430
0.501286 0.372641 0.629930
0.501141 0.372497 0.758430
0.500997 0.372353 0.886930
0.500860 0.372216 1.000000
0.500570 0.500570 0.000000
0.500433 0.500433 0.114500
0.500289 0.500289 0.243000
0.500144 0.500144 0.371500
0.500000 0.500000 0.500000
0.499856 0.499856 0.628500
0.499711 0.499711 0.757000
0.499567 0.499567 0.885500
0.499430 0.499430 1.000000
0.499140 0.627784 0.000000
0.499003 0.627647 0.113070
0.498859 0.627503 0.241570
0.498714 0.627359 0.370070
0.498570 0.627214 0.498570
0.498425 0.627070 0.627070
0.498281 0.626925 0.755570
0.498137 0.626781 0.884070
0.498000 0.626644 1.000000
0.497710 0.754998 0.000000
0.497573 0.754862 0.111640
0.497428 0.754717 0.240140
0.497284 0.754573 0.368640
0.497140 0.754428 0.497140
0.496995 0.754284 0.625640
0.496851 0.754140 0.754140
0.496707 0.753995 0.882640
0.496570 0.753858 1.000000
0.496280 0.882213 0.000000
0.496143 0.882076 0.110209
0.495998 0.881931 0.238710
0.495854 0.881787 0.367210
0.495710 0.881643 0.495710
0.495565 0.881498 0.624210
0.495421 0.881354 0.752710
0.495276 0.881210 0.881210
0.495140 0.881073 1.000000
0.494924 1.000000 0.000000
0.494787 1.000000 0.108854
0.494642 1.000000 0.237354
0.494498 1.000000 0.365854
0.494354 1.000000 0.494354
0.494209 1.000000 0.622854
0.494065 1.000000 0.751354
0.493921 1.000000 0.879854
0.493784 1.000000 1.000000
0.634436 0.000000 0.000000
0.634299 0.000000 0.119721
0.634154 0.000000 0.248221
0.634010 0.000000 0.376721
0.633866 0.000000 0.505221
0.633721 0.000000 0.633721
0.633577 0.000000 0.762221
0.633432 0.000000 0.890721
0.633296 0.000000 1.000000
0.633080 0.118502 0.000000
0.632943 0.118365 0.118365
0.632798 0.118221 0.246865
0.632654 0.118077 0.375365
0.632510 0.117932 0.503865
0.632365 0.117788 0.632365
0.632221 0.117643 0.760865
0.632077 0.117499 0.889365
0.631940 0.117362 1.000000
0.631650 0.245716 0.000000
0.631513 0.245580 0.116935
0.631368 0.245435 0.245435
0.631224 0.245291 0.373935
0.631080 0.245146 0.502435
0.630935 0.245002 0.630935
0.630791 0.244858 0.759435
0.630646 0.244713 0.887935
0.630510 0.244576 1.000000
0.630219 0.372931 0.000000
0.630083 0.372794 0.115505
0.629938 0.372649 0.244005
0.629794 0.372505 0.372505
0.629649 0.372361 0.501005
0.629505 0.372216 0.629505
0.629361 0.372072 0.758005
0.629216 0.371928 0.886505
0.629079 0.371791 1.000000
0.628789 0.500145 0.000000
0.628652 0.500008 0.114075
0.628508 0.499864 0.242575
0.628364 0.499719 0.371075
0.628219 0.499575 0.499575
0.628075 0.499430 0.628075
0.627931 0.499286 0.756575
0.627786 0.499142 0.885075
0.627649 0.499005 1.000000
0.627359 0.627359 0.000000
0.627222 0.627222 0.112645
0.627078 0.627078 0.241145
0.626933 0.626933 0.369645
0.626789 0.626789 0.498145
0.626645 0.626645 0.626645
0.626500 0.626500 0.755145
0.626356 0.626356 0.883645
0.626219 0.626219 1.000000
0.625929 0.754573 0.000000
0.625792 0.754436 0.111215
0.625648 0.754292 0.239715
0.625503 0.754148 0.368215
0.625359 0.754003 0.496715
0.625215 0.753859 0.625215
0.625070 0.753715 0.753715
0.624926 0.753570 0.882215
0.624789 0.753433 1.000000
0.624499 0.881788 0.000000
0.624362 0.881651 0.109784
0.624218 0.881506 0.238284
0.624073 0.881362 0.366784
0.623929 0.881218 0.495284
0.623784 0.881073 0.623784
0.623640 0.880929 0.752284
0.623496 0.880784 0.880784
0.623359 0.880648 1.000000
0.623143 1.000000 0.000000
0.623006 1.000000 0.108429
0.622862 1.000000 0.236929
0.622717 1.000000 0.365429
0.622573 1.000000 0.493929
0.622429 1.000000 0.622429
0.622284 1.000000 0.750929
0.622140 1.000000 0.879429
0.622003 1.000000 1.000000
0.762655 0.000000 0.000000
0.762518 0.000000 0.119296
0.762374 0.000000 0.247796
0.762229 0.000000 0.376296
0.762085 0.000000 0.504796
0.761940 0.000000 0.633296
0.761796 0.000000 0.761796
0.761652 0.000000 0.890296
0.761515 0.000000 1.000000
0.761299 0.118077 0.000000
0.761162 0.117940 0.117940
0.761018 0.117796 0.246440
0.760873 0.117651 0.374940
0.760729 0.117507 0.503440
0.760585 0.117363 0.631940
0.760440 0.117218 0.760440
0.760296 0.117074 0.888940
0.760159 0.116937 1.000000
0.759869 0.245291 0.000000
0.759732 0.245154 0.116510
0.759588 0.245010 0.245010
0.759443 0.244866 0.373510
0.759299 0.244721 0.502010
0.759154 0.244577 0.630510
0.759010 0.244433 0.759010
0.758866 0.244288 0.887510
0.758729 0.244151 1.000000
0.758439 0.372506 0.000000
0.758302 0.372369 0.115080
0.758157 0.372224 0.243580
0.758013 0.372080 0.372080
0.757869 0.371936 0.500580
0.757724 0.371791 0.629080
0.757580 0.371647 0.757580
0.757436 0.371502 0.886080
0.757299 0.371366 1.000000
0.757009 0.499720 0.000000
0.756872 0.499583 0.113650
0.756727 0.499438 0.242150
0.756583 0.499294 0.370650
0.756439 0.499150 0.499150
0.756294 0.499005 0.627650
0.756150 0.498861 0.756150
0.756005 0.498717 0.884650
0.755869 0.498580 1.000000
0.755578 0.626934 0.000000
0.755442 0.626797 0.112220
0.755297 0.626653 0.240720
0.755153 0.626508 0.369220
0.755008 0.626364 0.497720
0.754864 0.626220 0.626220
0.754720 0.626075 0.754720
0.754575 0.625931 0.883220
0.754438 0.625794 1.000000
0.754148 0.754148 0.000000
0.754011 0.754011 0.110789
0.753867 0.753867 0.239289
0.753723 0.753723 0.367789
0.753578 0.753578 0.496289
0.753434 0.753434 0.624789
0.753289 0.753289 0.753289
0.753145 0.753145 0.881789
0.753008 0.753008 1.000000
0.752718 0.881362 0.000000
0.752581 0.881226 0.109359
0.752437 0.881081 0.237859
0.752292 0.880937 0.366359
0.752148 0.880792 0.494859
0.752004 0.880648 0.623359
0.751859 0.880504 0.751859
0.751715 0.880359 0.880359
0.751578 0.880222 1.000000
0.751362 1.000000 0.000000
0.751225 1.000000 0.108003
0.751081 1.000000 0.236503
0.750937 1.000000 0.365003
0.750792 1.000000 0.493503
0.750648 1.000000 0.622003
0.750503 1.000000 0.750503
0.750359 1.000000 0.879003
0.750222 1.000000 1.000000
0.890874 0.000000 0.000000
0.890737 0.000000 0.118871
0.890593 0.000000 0.247371
0.890448 0.000000 0.375871
0.890304 0.000000 0.504371
0.890160 0.000000 0.632871
0.890015 0.000000 0.761371
0.889871 0.000000 0.889871
0.889734 0.000000 1.000000
0.889518 0.117652 0.000000
0.889381 0.117515 0.117515
0.889237 0.117371 0.246015
0.889093 0.117226 0.374515
0.888948 0.117082 0.503015
0.888804 0.116938 0.631515
0.888659 0.116793 0.760015
0.888515 0.116649 0.888515
0.888378 0.116512 1.000000
0.888088 0.244866 0.000000
0.887951 0.244729 0.116085
0.887807 0.244585 0.244585
0.887662 0.244441 0.373085
0.887518 0.244296 0.501585
0.887374 0.244152 0.630085
0.887229 0.244007 0.758585
0.887085 0.243863 0.887085
0.886948 0.243726 1.000000
0.886658 0.372080 0.000000
0.886521 0.371944 0.114655
0.886377 0.371799 0.243155
0.886232 0.371655 0.371655
0.886088 0.371510 0.500155
0.885944 0.371366 0.628655
0.885799 0.371222 0.757155
0.885655 0.371077 0.885655
0.885518 0.370940 1.000000
0.885228 0.499295 0.000000
0.885091 0.499158 0.113225
0.884947 0.499013 0.241725
0.884802 0.498869 0.370225
0.884658 0.498725 0.498725
0.884513 0.498580 0.627225
0.884369 0.498436 0.755725
0.884225 0.498291 0.884225
0.884088 0.498155 1.000000
0.883798 0.626509 0.000000
0.883661 0.626372 0.111794
0.883516 0.626228 0.240294
0.883372 0.626083 0.368794
0.883228 0.625939 0.497294
0.883083 0.625794 0.625794
0.882939 0.625650 0.754294
0.882795 0.625506 0.882795
0.882658 0.625369 1.000000
0.882367 0.753723 0.000000
0.882231 0.753586 0.110364
0.882086 0.753442 0.238864
0.881942 0.753297 0.367364
0.881797 0.753153 0.495864
0.881653 0.753009 0.624364
0.881509 0.752864 0.752864
0.881364 0.752720 0.881364
0.881227 0.752583 1.000000
0.880937 0.880937 0.000000
0.880800 0.880800 0.108934
0.880656 0.880656 0.237434
0.880512 0.880512 0.365934
0.880367 0.880367 0.494434
0.880223 0.880223 0.622934
0.880079 0.880079 0.751434
0.879934 0.879934 0.879934
0.879797 0.879797 1.000000
0.879581 1.000000 0.000000
0.879445 1.000000 0.107578
0.879300 1.000000 0.236078
0.879156 1.000000 0.364578
0.879011 1.000000 0.493078
0.878867 1.000000 0.621578
0.878723 1.000000 0.750078
0.878578 1.000000 0.878578
0.878441 1.000000 1.000000
1.000000 0.000000 0.000000
1.000000 0.000000 0.118468
1.000000 0.000000 0.246968
1.000000 0.000000 0.375468
1.000000 0.000000 0.503968
1.000000 0.000000 0.632468
1.000000 0.000000 0.760968
1.000000 0.000000 0.889468
1.000000 0.000000 1.000000
1.000000 0.117249 0.000000
1.000000 0.117112 0.117112
1.000000 0.116968 0.245612
1.000000 0.116823 0.374112
1.000000 0.116679 0.502612
1.000000 0.116534 0.631112
1.000000 0.116390 0.759612
1.000000 0.116246 0.888112
1.000000 0.116109 1.000000
1.000000 0.244463 0.000000
1.000000 0.244326 0.115682
1.000000 0.244182 0.244182
1.000000 0.244037 0.372682
1.000000 0.243893 0.501182
1.000000 0.243749 0.629682
1.000000 0.243604 0.758182
1.000000 0.243460 0.886682
1.000000 0.243323 1.000000
1.000000 0.371677 0.000000
1.000000 0.371540 0.114252
1.000000 0.371396 0.242752
1.000000 0.371252 0.371252
1.000000 0.371107 0.499752
1.000000 0.370963 0.628252
1.000000 0.370819 0.756752
1.000000 0.370674 0.885252
1.000000 0.370537 1.000000
1.000000 0.498892 0.000000
1.000000 0.498755 0.112822
1.000000 0.498610 0.241322
1.000000 0.498466 0.369822
1.000000 0.498322 0.498322
1.000000 0.498177 0.626822
1.000000 0.498033 0.755322
1.000000 0.497888 0.883822
1.000000 0.497752 1.000000
1.000000 0.626106 0.000000
1.000000 0.625969 0.111391
1.000000 0.625825 0.239891
1.000000 0.625680 0.368391
1.000000 0.625536 0.496891
1.000000 0.625391 0.625391
1.000000 0.625247 0.753891
1.000000 0.625103 0.882391
1.000000 0.624966 1.000000
1.000000 0.753320 0.000000
1.000000 0.753183 0.109961
1.000000 0.753039 0.238461
1.000000 0.752894 0.366961
1.000000 0.752750 0.495461
1.000000 0.752606 0.623961
1.000000 0.752461 0.752461
1.000000 0.752317 0.880961
1.000000 0.752180 1.000000
1.000000 0.880534 0.000000
1.000000 0.880397 0.108531
1.000000 0.880253 0.237031
1.000000 0.880109 0.365531
1.000000 0.879964 0.494031
1.000000 0.879820 0.622531
1.000000 0.879676 0.751031
1.000000 0.879531 0.879531
1.000000 0.879394 1.000000
1.000000 1.000000 0.000000
1.000000 1.000000 0.107175
1.000000 1.000000 0.235675
1.000000 1.000000 0.364175
1.000000 1.000000 0.492675
1.000000 1.000000 0.621175
1.000000 1.000000 0.749675
1.000000 1.000000 0.878175
1.000000 1.000000 1.000000
