skills/editops-orchestrator/assets/grade/luts/product_clean_v05.cube
TITLE "product_clean_v05"
LUT_3D_SIZE 17
DOMAIN_MIN 0.0 0.0 0.0
DOMAIN_MAX 1.0 1.0 1.0
0.000000 0.000000 0.000000
0.000000 0.000000 0.058573
0.000000 0.000000 0.122471
0.000000 0.000000 0.186369
0.000000 0.000000 0.250267
0.000000 0.000000 0.314166
0.000000 0.000000 0.378064
0.000000 0.000000 0.441962
0.000000 0.000000 0.505860
0.000000 0.000000 0.569758
0.000000 0.000000 0.633656
0.000000 0.000000 0.697554
0.000000 0.000000 0.761452
0.000000 0.000000 0.825350
0.000000 0.000000 0.889248
0.000000 0.000000 0.953146
0.000000 0.000000 1.000000
0.000000 0.058103 0.000000
0.000000 0.058050 0.058050
0.000000 0.057993 0.121948
0.000000 0.057935 0.185846
0.000000 0.057877 0.249744
0.000000 0.057820 0.313643
0.000000 0.057762 0.377541
0.000000 0.057705 0.441439
0.000000 0.057647 0.505337
0.000000 0.057589 0.569235
0.000000 0.057532 0.633133
0.000000 0.057474 0.697031
0.000000 0.057417 0.760929
0.000000 0.057359 0.824827
0.000000 0.057301 0.888725
0.000000 0.057244 0.952623
0.000000 0.057191 1.000000
0.000000 0.121488 0.000000
0.000000 0.121435 0.057480
0.000000 0.121378 0.121378
0.000000 0.121320 0.185276
0.000000 0.121263 0.249174
0.000000 0.121205 0.313072
0.000000 0.121147 0.376970
0.000000 0.121090 0.440868
0.000000 0.121032 0.504766
0.000000 0.120975 0.568664
0.000000 0.120917 0.632562
0.000000 0.120859 0.696460
0.000000 0.120802 0.760359
0.000000 0.120744 0.824257
0.000000 0.120687 0.888155
0.000000 0.120629 0.952053
0.000000 0.120576 1.000000
0.000000 0.184873 0.000000
0.000000 0.184820 0.056909
0.000000 0.184763 0.120807
0.000000 0.184705 0.184705
0.000000 0.184648 0.248603
0.000000 0.184590 0.312501
0.000000 0.184532 0.376399
0.000000 0.184475 0.440298
0.000000 0.184417 0.504196
0.000000 0.184360 0.568094
0.000000 0.184302 0.631992
0.000000 0.184244 0.695890
0.000000 0.184187 0.759788
0.000000 0.184129 0.823686
0.000000 0.184072 0.887584
0.000000 0.184014 0.951482
0.000000 0.183961 1.000000
0.000000 0.248258 0.000000
0.000000 0.248206 0.056338
0.000000 0.248148 0.120237
0.000000 0.248090 0.184135
0.000000 0.248033 0.248033
0.000000 0.247975 0.311931
0.000000 0.247918 0.375829
0.000000 0.247860 0.439727
0.000000 0.247802 0.503625
0.000000 0.247745 0.567523
0.000000 0.247687 0.631421
0.000000 0.247630 0.695319
0.000000 0.247572 0.759217
0.000000 0.247514 0.823115
0.000000 0.247457 0.887014
0.000000 0.247399 0.950912
0.000000 0.247346 1.000000
0.000000 0.311643 0.000000
0.000000 0.311591 0.055768
0.000000 0.311533 0.119666
0.000000 0.311475 0.183564
0.000000 0.311418 0.247462
0.000000 0.311360 0.311360
0.000000 0.311303 0.375258
0.000000 0.311245 0.439156
0.000000 0.311187 0.503054
0.000000 0.311130 0.566953
0.000000 0.311072 0.630851
0.000000 0.311015 0.694749
0.000000 0.310957 0.758647
0.000000 0.310899 0.822545
0.000000 0.310842 0.886443
0.000000 0.310784 0.950341
0.000000 0.310731 1.000000
0.000000 0.375029 0.000000
0.000000 0.374976 0.055197
0.000000 0.374918 0.119095
0.000000 0.374861 0.182993
0.000000 0.374803 0.246892
0.000000 0.374745 0.310790
0.000000 0.374688 0.374688
0.000000 0.374630 0.438586
0.000000 0.374573 0.502484
0.000000 0.374515 0.566382
0.000000 0.374457 0.630280
0.000000 0.374400 0.694178
0.000000 0.374342 0.758076
0.000000 0.374285 0.821974
0.000000 0.374227 0.885872
0.000000 0.374169 0.949770
0.000000 0.374117 1.000000
0.000000 0.438414 0.000000
0.000000 0.438361 0.054627
0.000000 0.438303 0.118525
0.000000 0.438246 0.182423
0.000000 0.438188 0.246321
0.000000 0.438130 0.310219
0.000000 0.438073 0.374117
0.000000 0.438015 0.438015
0.000000 0.437958 0.501913
0.000000 0.437900 0.565811
0.000000 0.437842 0.629709
0.000000 0.437785 0.693608
0.000000 0.437727 0.757506
0.000000 0.437670 0.821404
0.000000 0.437612 0.885302
0.000000 0.437554 0.949200
0.000000 0.437502 1.000000
0.000000 0.501799 0.000000
0.000000 0.501746 0.054056
0.000000 0.501688 0.117954
0.000000 0.501631 0.181852
0.000000 0.501573 0.245750
0.000000 0.501516 0.309649
0.000000 0.501458 0.373547
0.000000 0.501400 0.437445
0.000000 0.501343 0.501343
0.000000 0.501285 0.565241
0.000000 0.501228 0.629139
0.000000 0.501170 0.693037
0.000000 0.501112 0.756935
0.000000 0.501055 0.820833
0.000000 0.500997 0.884731
0.000000 0.500940 0.948629
0.000000 0.500887 1.000000
0.000000 0.565184 0.000000
0.000000 0.565131 0.053486
0.000000 0.565073 0.117384
0.000000 0.565016 0.181282
0.000000 0.564958 0.245180
0.000000 0.564901 0.309078
0.000000 0.564843 0.372976
0.000000 0.564785 0.436874
0.000000 0.564728 0.500772
0.000000 0.564670 0.564670
0.000000 0.564613 0.628568
0.000000 0.564555 0.692466
0.000000 0.564497 0.756364
0.000000 0.564440 0.820263
0.000000 0.564382 0.884161
0.000000 0.564325 0.948059
0.000000 0.564272 1.000000
0.000000 0.628569 0.000000
0.000000 0.628516 0.052915
0.000000 0.628459 0.116813
0.000000 0.628401 0.180711
0.000000 0.628343 0.244609
0.000000 0.628286 0.308507
0.000000 0.628228 0.372405
0.000000 0.628171 0.436304
0.000000 0.628113 0.500202
0.000000 0.628055 0.564100
0.000000 0.627998 0.627998
0.000000 0.627940 0.691896
0.000000 0.627883 0.755794
0.000000 0.627825 0.819692
0.000000 0.627767 0.883590
0.000000 0.627710 0.947488
0.000000 0.627657 1.000000
0.000000 0.691954 0.000000
0.000000 0.691901 0.052344
0.000000 0.691844 0.116243
0.000000 0.691786 0.180141
0.000000 0.691728 0.244039
0.000000 0.691671 0.307937
0.000000 0.691613 0.371835
0.000000 0.691556 0.435733
0.000000 0.691498 0.499631
0.000000 0.691440 0.563529
0.000000 0.691383 0.627427
0.000000 0.691325 0.691325
0.000000 0.691268 0.755223
0.000000 0.691210 0.819121
0.000000 0.691152 0.883019
0.000000 0.691095 0.946918
0.000000 0.691042 1.000000
0.000000 0.755339 0.000000
0.000000 0.755286 0.051774
0.000000 0.755229 0.115672
0.000000 0.755171 0.179570
0.000000 0.755114 0.243468
0.000000 0.755056 0.307366
0.000000 0.754998 0.371264
0.000000 0.754941 0.435162
0.000000 0.754883 0.499060
0.000000 0.754826 0.562959
0.000000 0.754768 0.626857
0.000000 0.754710 0.690755
0.000000 0.754653 0.754653
0.000000 0.754595 0.818551
0.000000 0.754538 0.882449
0.000000 0.754480 0.946347
0.000000 0.754427 1.000000
0.000000 0.818724 0.000000
0.000000 0.818671 0.051203
0.000000 0.818614 0.115101
0.000000 0.818556 0.178999
0.000000 0.818499 0.242898
0.000000 0.818441 0.306796
0.000000 0.818383 0.370694
0.000000 0.818326 0.434592
0.000000 0.818268 0.498490
0.000000 0.818211 0.562388
0.000000 0.818153 0.626286
0.000000 0.818095 0.690184
0.000000 0.818038 0.754082
0.000000 0.817980 0.817980
0.000000 0.817923 0.881878
0.000000 0.817865 0.945776
0.000000 0.817812 1.000000
0.000000 0.882109 0.000000
0.000000 0.882057 0.050633
0.000000 0.881999 0.114531
0.000000 0.881941 0.178429
0.000000 0.881884 0.242327
0.000000 0.881826 0.306225
0.000000 0.881769 0.370123
0.000000 0.881711 0.434021
0.000000 0.881653 0.497919
0.000000 0.881596 0.561817
0.000000 0.881538 0.625715
0.000000 0.881481 0.689614
0.000000 0.881423 0.753512
0.000000 0.881365 0.817410
0.000000 0.881308 0.881308
0.000000 0.881250 0.945206
0.000000 0.881197 1.000000
0.000000 0.945494 0.000000
0.000000 0.945442 0.050062
0.000000 0.945384 0.113960
0.000000 0.945326 0.177858
0.000000 0.945269 0.241756
0.000000 0.945211 0.305654
0.000000 0.945154 0.369553
0.000000 0.945096 0.433451
0.000000 0.945038 0.497349
0.000000 0.944981 0.561247
0.000000 0.944923 0.625145
0.000000 0.944866 0.689043
0.000000 0.944808 0.752941
0.000000 0.944750 0.816839
0.000000 0.944693 0.880737
0.000000 0.944635 0.944635
0.000000 0.944582 1.000000
0.000000 1.000000 0.000000
0.000000 1.000000 0.049539
0.000000 1.000000 0.113437
0.000000 1.000000 0.177335
0.000000 1.000000 0.241233
0.000000 1.000000 0.305131
0.000000 1.000000 0.369030
0.000000 1.000000 0.432928
0.000000 1.000000 0.496826
0.000000 1.000000 0.560724
0.000000 1.000000 0.624622
0.000000 1.000000 0.688520
0.000000 1.000000 0.752418
0.000000 1.000000 0.816316
0.000000 1.000000 0.880214
0.000000 1.000000 0.944112
0.000000 1.000000 1.000000
0.058471 0.000000 0.000000
0.058418 0.000000 0.058418
0.058360 0.000000 0.122316
0.058303 0.000000 0.186214
0.058245 0.000000 0.250112
0.058187 0.000000 0.314010
0.058130 0.000000 0.377908
0.058072 0.000000 0.441806
0.058015 0.000000 0.505704
0.057957 0.000000 0.569602
0.057899 0.000000 0.633500
0.057842 0.000000 0.697399
0.057784 0.000000 0.761297
0.057727 0.000000 0.825195
0.057669 0.000000 0.889093
0.057611 0.000000 0.952991
0.057559 0.000000 1.000000
0.057948 0.057948 0.000000
0.057895 0.057895 0.057895
0.057837 0.057837 0.121793
0.057780 0.057780 0.185691
0.057722 0.057722 0.249589
0.057664 0.057664 0.313487
0.057607 0.057607 0.377385
0.057549 0.057549 0.441283
0.057492 0.057492 0.505181
0.057434 0.057434 0.569079
0.057376 0.057376 0.632977
0.057319 0.057319 0.696876
0.057261 0.057261 0.760774
0.057204 0.057204 0.824672
0.057146 0.057146 0.888570
0.057088 0.057088 0.952468
0.057036 0.057036 1.000000
0.057377 0.121333 0.000000
0.057324 0.121280 0.057324
0.057267 0.121222 0.121222
0.057209 0.121165 0.185120
0.057151 0.121107 0.249018
0.057094 0.121049 0.312916
0.057036 0.120992 0.376815
0.056979 0.120934 0.440713
0.056921 0.120877 0.504611
0.056863 0.120819 0.568509
0.056806 0.120761 0.632407
0.056748 0.120704 0.696305
0.056691 0.120646 0.760203
0.056633 0.120589 0.824101
0.056575 0.120531 0.887999
0.056518 0.120473 0.951897
0.056465 0.120421 1.000000
0.056806 0.184718 0.000000
0.056754 0.184665 0.056754
0.056696 0.184607 0.120652
0.056638 0.184550 0.184550
0.056581 0.184492 0.248448
0.056523 0.184435 0.312346
0.056466 0.184377 0.376244
0.056408 0.184319 0.440142
0.056350 0.184262 0.504040
0.056293 0.184204 0.567938
0.056235 0.184147 0.631836
0.056178 0.184089 0.695734
0.056120 0.184031 0.759632
0.056062 0.183974 0.823531
0.056005 0.183916 0.887429
0.055947 0.183859 0.951327
0.055894 0.183806 1.000000
0.056236 0.248103 0.000000
0.056183 0.248050 0.056183
0.056125 0.247992 0.120081
0.056068 0.247935 0.183979
0.056010 0.247877 0.247877
0.055953 0.247820 0.311775
0.055895 0.247762 0.375673
0.055837 0.247704 0.439571
0.055780 0.247647 0.503470
0.055722 0.247589 0.567368
0.055665 0.247532 0.631266
0.055607 0.247474 0.695164
0.055549 0.247416 0.759062
0.055492 0.247359 0.822960
0.055434 0.247301 0.886858
0.055377 0.247244 0.950756
0.055324 0.247191 1.000000
0.055665 0.311488 0.000000
0.055612 0.311435 0.055612
0.055555 0.311378 0.119511
0.055497 0.311320 0.183409
0.055440 0.311262 0.247307
0.055382 0.311205 0.311205
0.055324 0.311147 0.375103
0.055267 0.311090 0.439001
0.055209 0.311032 0.502899
0.055152 0.310974 0.566797
0.055094 0.310917 0.630695
0.055036 0.310859 0.694593
0.054979 0.310802 0.758491
0.054921 0.310744 0.822389
0.054864 0.310686 0.886287
0.054806 0.310629 0.950186
0.054753 0.310576 1.000000
0.055095 0.374873 0.000000
0.055042 0.374820 0.055042
0.054984 0.374763 0.118940
0.054927 0.374705 0.182838
0.054869 0.374647 0.246736
0.054811 0.374590 0.310634
0.054754 0.374532 0.374532
0.054696 0.374475 0.438430
0.054639 0.374417 0.502328
0.054581 0.374359 0.566226
0.054523 0.374302 0.630125
0.054466 0.374244 0.694023
0.054408 0.374187 0.757921
0.054351 0.374129 0.821819
0.054293 0.374071 0.885717
0.054235 0.374014 0.949615
0.054183 0.373961 1.000000
0.054524 0.438258 0.000000
0.054471 0.438205 0.054471
0.054414 0.438148 0.118369
0.054356 0.438090 0.182267
0.054298 0.438033 0.246166
0.054241 0.437975 0.310064
0.054183 0.437917 0.373962
0.054126 0.437860 0.437860
0.054068 0.437802 0.501758
0.054010 0.437745 0.565656
0.053953 0.437687 0.629554
0.053895 0.437629 0.693452
0.053838 0.437572 0.757350
0.053780 0.437514 0.821248
0.053722 0.437457 0.885146
0.053665 0.437399 0.949044
0.053612 0.437346 1.000000
0.053954 0.501643 0.000000
0.053901 0.501590 0.053901
0.053843 0.501533 0.117799
0.053786 0.501475 0.181697
0.053728 0.501418 0.245595
0.053670 0.501360 0.309493
0.053613 0.501302 0.373391
0.053555 0.501245 0.437289
0.053498 0.501187 0.501187
0.053440 0.501130 0.565085
0.053382 0.501072 0.628983
0.053325 0.501014 0.692881
0.053267 0.500957 0.756780
0.053210 0.500899 0.820678
0.053152 0.500842 0.884576
0.053094 0.500784 0.948474
0.053042 0.500731 1.000000
0.053383 0.565028 0.000000
0.053330 0.564976 0.053330
0.053273 0.564918 0.117228
0.053215 0.564860 0.181126
0.053157 0.564803 0.245024
0.053100 0.564745 0.308922
0.053042 0.564688 0.372821
0.052985 0.564630 0.436719
0.052927 0.564572 0.500617
0.052869 0.564515 0.564515
0.052812 0.564457 0.628413
0.052754 0.564400 0.692311
0.052697 0.564342 0.756209
0.052639 0.564284 0.820107
0.052581 0.564227 0.884005
0.052524 0.564169 0.947903
0.052471 0.564116 1.000000
0.052812 0.628413 0.000000
0.052760 0.628361 0.052760
0.052702 0.628303 0.116658
0.052644 0.628245 0.180556
0.052587 0.628188 0.244454
0.052529 0.628130 0.308352
0.052472 0.628073 0.372250
0.052414 0.628015 0.436148
0.052356 0.627957 0.500046
0.052299 0.627900 0.563944
0.052241 0.627842 0.627842
0.052184 0.627785 0.691740
0.052126 0.627727 0.755638
0.052068 0.627669 0.819537
0.052011 0.627612 0.883435
0.051953 0.627554 0.947333
0.051900 0.627501 1.000000
0.052242 0.691799 0.000000
0.052189 0.691746 0.052189
0.052131 0.691688 0.116087
0.052074 0.691631 0.179985
0.052016 0.691573 0.243883
0.051959 0.691515 0.307781
0.051901 0.691458 0.371679
0.051843 0.691400 0.435577
0.051786 0.691343 0.499476
0.051728 0.691285 0.563374
0.051671 0.691227 0.627272
0.051613 0.691170 0.691170
0.051555 0.691112 0.755068
0.051498 0.691055 0.818966
0.051440 0.690997 0.882864
0.051383 0.690939 0.946762
0.051330 0.690887 1.000000
0.051671 0.755184 0.000000
0.051618 0.755131 0.051618
0.051561 0.755073 0.115516
0.051503 0.755016 0.179415
0.051446 0.754958 0.243313
0.051388 0.754900 0.307211
0.051330 0.754843 0.371109
0.051273 0.754785 0.435007
0.051215 0.754728 0.498905
0.051158 0.754670 0.562803
0.051100 0.754612 0.626701
0.051042 0.754555 0.690599
0.050985 0.754497 0.754497
0.050927 0.754440 0.818395
0.050870 0.754382 0.882293
0.050812 0.754324 0.946192
0.050759 0.754272 1.000000
0.051101 0.818569 0.000000
0.051048 0.818516 0.051048
0.050990 0.818458 0.114946
0.050933 0.818401 0.178844
0.050875 0.818343 0.242742
0.050817 0.818286 0.306640
0.050760 0.818228 0.370538
0.050702 0.818170 0.434436
0.050645 0.818113 0.498334
0.050587 0.818055 0.562232
0.050529 0.817998 0.626131
0.050472 0.817940 0.690029
0.050414 0.817882 0.753927
0.050357 0.817825 0.817825
0.050299 0.817767 0.881723
0.050241 0.817710 0.945621
0.050189 0.817657 1.000000
0.050530 0.881954 0.000000
0.050477 0.881901 0.050477
0.050420 0.881843 0.114375
0.050362 0.881786 0.178273
0.050304 0.881728 0.242171
0.050247 0.881671 0.306070
0.050189 0.881613 0.369968
0.050132 0.881555 0.433866
0.050074 0.881498 0.497764
0.050016 0.881440 0.561662
0.049959 0.881383 0.625560
0.049901 0.881325 0.689458
0.049844 0.881267 0.753356
0.049786 0.881210 0.817254
0.049728 0.881152 0.881152
0.049671 0.881095 0.945050
0.049618 0.881042 1.000000
0.049959 0.945339 0.000000
0.049907 0.945286 0.049907
0.049849 0.945229 0.113805
0.049791 0.945171 0.177703
0.049734 0.945113 0.241601
0.049676 0.945056 0.305499
0.049619 0.944998 0.369397
0.049561 0.944941 0.433295
0.049503 0.944883 0.497193
0.049446 0.944825 0.561091
0.049388 0.944768 0.624989
0.049331 0.944710 0.688887
0.049273 0.944653 0.752786
0.049215 0.944595 0.816684
0.049158 0.944537 0.880582
0.049100 0.944480 0.944480
0.049047 0.944427 1.000000
0.049436 1.000000 0.000000
0.049384 1.000000 0.049384
0.049326 1.000000 0.113282
0.049268 1.000000 0.177180
0.049211 1.000000 0.241078
0.049153 1.000000 0.304976
0.049096 1.000000 0.368874
0.049038 1.000000 0.432772
0.048980 1.000000 0.496670
0.048923 1.000000 0.560568
0.048865 1.000000 0.624466
0.048808 1.000000 0.688364
0.048750 1.000000 0.752263
0.048692 1.000000 0.816161
0.048635 1.000000 0.880059
0.048577 1.000000 0.943957
0.048524 1.000000 1.000000
0.122257 0.000000 0.000000
0.122204 0.000000 0.058248
0.122146 0.000000 0.122146
0.122089 0.000000 0.186044
0.122031 0.000000 0.249942
0.121973 0.000000 0.313840
0.121916 0.000000 0.377739
0.121858 0.000000 0.441637
0.121801 0.000000 0.505535
0.121743 0.000000 0.569433
0.121685 0.000000 0.633331
0.121628 0.000000 0.697229
0.121570 0.000000 0.761127
0.121513 0.000000 0.825025
0.121455 0.000000 0.888923
0.121397 0.000000 0.952821
0.121345 0.000000 1.000000
0.121734 0.057778 0.000000
0.121681 0.057725 0.057725
0.121623 0.057668 0.121623
0.121566 0.057610 0.185521
0.121508 0.057552 0.249419
0.121450 0.057495 0.313317
0.121393 0.057437 0.377216
0.121335 0.057380 0.441114
0.121278 0.057322 0.505012
0.121220 0.057264 0.568910
0.121162 0.057207 0.632808
0.121105 0.057149 0.696706
0.121047 0.057092 0.760604
0.120990 0.057034 0.824502
0.120932 0.056976 0.888400
0.120874 0.056919 0.952298
0.120822 0.056866 1.000000
0.121163 0.121163 0.000000
0.121110 0.121110 0.057155
0.121053 0.121053 0.121053
0.120995 0.120995 0.184951
0.120937 0.120937 0.248849
0.120880 0.120880 0.312747
0.120822 0.120822 0.376645
0.120765 0.120765 0.440543
0.120707 0.120707 0.504441
0.120649 0.120649 0.568339
0.120592 0.120592 0.632237
0.120534 0.120534 0.696135
0.120477 0.120477 0.760033
0.120419 0.120419 0.823931
0.120361 0.120361 0.887830
0.120304 0.120304 0.951728
0.120251 0.120251 1.000000
0.120592 0.184548 0.000000
0.120540 0.184495 0.056584
0.120482 0.184438 0.120482
0.120424 0.184380 0.184380
0.120367 0.184323 0.248278
0.120309 0.184265 0.312176
0.120252 0.184207 0.376074
0.120194 0.184150 0.439972
0.120136 0.184092 0.503871
0.120079 0.184035 0.567769
0.120021 0.183977 0.631667
0.119964 0.183919 0.695565
0.119906 0.183862 0.759463
0.119848 0.183804 0.823361
0.119791 0.183747 0.887259
0.119733 0.183689 0.951157
0.119680 0.183636 1.000000
0.120022 0.247933 0.000000
0.119969 0.247880 0.056013
0.119911 0.247823 0.119911
0.119854 0.247765 0.183810
0.119796 0.247708 0.247708
0.119739 0.247650 0.311606
0.119681 0.247592 0.375504
0.119623 0.247535 0.439402
0.119566 0.247477 0.503300
0.119508 0.247420 0.567198
0.119451 0.247362 0.631096
0.119393 0.247304 0.694994
0.119335 0.247247 0.758892
0.119278 0.247189 0.822790
0.119220 0.247132 0.886688
0.119163 0.247074 0.950587
0.119110 0.247021 1.000000
0.119451 0.311318 0.000000
0.119399 0.311266 0.055443
0.119341 0.311208 0.119341
0.119283 0.311150 0.183239
0.119226 0.311093 0.247137
0.119168 0.311035 0.311035
0.119111 0.310978 0.374933
0.119053 0.310920 0.438831
0.118995 0.310862 0.502729
0.118938 0.310805 0.566627
0.118880 0.310747 0.630526
0.118823 0.310690 0.694424
0.118765 0.310632 0.758322
0.118707 0.310574 0.822220
0.118650 0.310517 0.886118
0.118592 0.310459 0.950016
0.118539 0.310406 1.000000
0.118881 0.374703 0.000000
0.118828 0.374651 0.054872
0.118770 0.374593 0.118770
0.118713 0.374535 0.182668
0.118655 0.374478 0.246566
0.118598 0.374420 0.310465
0.118540 0.374363 0.374363
0.118482 0.374305 0.438261
0.118425 0.374247 0.502159
0.118367 0.374190 0.566057
0.118310 0.374132 0.629955
0.118252 0.374075 0.693853
0.118194 0.374017 0.757751
0.118137 0.373959 0.821649
0.118079 0.373902 0.885547
0.118022 0.373844 0.949445
0.117969 0.373791 1.000000
0.118310 0.438089 0.000000
0.118257 0.438036 0.054302
0.118200 0.437978 0.118200
0.118142 0.437921 0.182098
0.118085 0.437863 0.245996
0.118027 0.437805 0.309894
0.117969 0.437748 0.373792
0.117912 0.437690 0.437690
0.117854 0.437633 0.501588
0.117797 0.437575 0.565486
0.117739 0.437517 0.629384
0.117681 0.437460 0.693282
0.117624 0.437402 0.757181
0.117566 0.437345 0.821079
0.117509 0.437287 0.884977
0.117451 0.437229 0.948875
0.117398 0.437177 1.000000
0.117740 0.501474 0.000000
0.117687 0.501421 0.053731
0.117629 0.501363 0.117629
0.117572 0.501306 0.181527
0.117514 0.501248 0.245425
0.117456 0.501190 0.309323
0.117399 0.501133 0.373221
0.117341 0.501075 0.437120
0.117284 0.501018 0.501018
0.117226 0.500960 0.564916
0.117168 0.500902 0.628814
0.117111 0.500845 0.692712
0.117053 0.500787 0.756610
0.116996 0.500730 0.820508
0.116938 0.500672 0.884406
0.116880 0.500614 0.948304
0.116828 0.500562 1.000000
0.117169 0.564859 0.000000
0.117116 0.564806 0.053161
0.117059 0.564748 0.117059
0.117001 0.564691 0.180957
0.116943 0.564633 0.244855
0.116886 0.564576 0.308753
0.116828 0.564518 0.372651
0.116771 0.564460 0.436549
0.116713 0.564403 0.500447
0.116655 0.564345 0.564345
0.116598 0.564288 0.628243
0.116540 0.564230 0.692141
0.116483 0.564172 0.756039
0.116425 0.564115 0.819937
0.116367 0.564057 0.883836
0.116310 0.564000 0.947734
0.116257 0.563947 1.000000
0.116598 0.628244 0.000000
0.116546 0.628191 0.052590
0.116488 0.628133 0.116488
0.116430 0.628076 0.180386
0.116373 0.628018 0.244284
0.116315 0.627961 0.308182
0.116258 0.627903 0.372080
0.116200 0.627845 0.435978
0.116142 0.627788 0.499877
0.116085 0.627730 0.563775
0.116027 0.627673 0.627673
0.115970 0.627615 0.691571
0.115912 0.627557 0.755469
0.115854 0.627500 0.819367
0.115797 0.627442 0.883265
0.115739 0.627385 0.947163
0.115686 0.627332 1.000000
0.116028 0.691629 0.000000
0.115975 0.691576 0.052019
0.115917 0.691519 0.115917
0.115860 0.691461 0.179816
0.115802 0.691403 0.243714
0.115745 0.691346 0.307612
0.115687 0.691288 0.371510
0.115629 0.691231 0.435408
0.115572 0.691173 0.499306
0.115514 0.691115 0.563204
0.115457 0.691058 0.627102
0.115399 0.691000 0.691000
0.115341 0.690943 0.754898
0.115284 0.690885 0.818796
0.115226 0.690827 0.882694
0.115169 0.690770 0.946592
0.115116 0.690717 1.000000
0.115457 0.755014 0.000000
0.115404 0.754961 0.051449
0.115347 0.754904 0.115347
0.115289 0.754846 0.179245
0.115232 0.754788 0.243143
0.115174 0.754731 0.307041
0.115116 0.754673 0.370939
0.115059 0.754616 0.434837
0.115001 0.754558 0.498735
0.114944 0.754500 0.562633
0.114886 0.754443 0.626532
0.114828 0.754385 0.690430
0.114771 0.754328 0.754328
0.114713 0.754270 0.818226
0.114656 0.754212 0.882124
0.114598 0.754155 0.946022
0.114545 0.754102 1.000000
0.114887 0.818399 0.000000
0.114834 0.818346 0.050878
0.114776 0.818289 0.114776
0.114719 0.818231 0.178674
0.114661 0.818174 0.242572
0.114604 0.818116 0.306471
0.114546 0.818058 0.370369
0.114488 0.818001 0.434267
0.114431 0.817943 0.498165
0.114373 0.817886 0.562063
0.114316 0.817828 0.625961
0.114258 0.817770 0.689859
0.114200 0.817713 0.753757
0.114143 0.817655 0.817655
0.114085 0.817598 0.881553
0.114028 0.817540 0.945451
0.113975 0.817487 1.000000
0.114316 0.881784 0.000000
0.114263 0.881731 0.050308
0.114206 0.881674 0.114206
0.114148 0.881616 0.178104
0.114091 0.881559 0.242002
0.114033 0.881501 0.305900
0.113975 0.881443 0.369798
0.113918 0.881386 0.433696
0.113860 0.881328 0.497594
0.113803 0.881271 0.561492
0.113745 0.881213 0.625390
0.113687 0.881155 0.689288
0.113630 0.881098 0.753187
0.113572 0.881040 0.817085
0.113515 0.880983 0.880983
0.113457 0.880925 0.944881
0.113404 0.880872 1.000000
0.113746 0.945169 0.000000
0.113693 0.945117 0.049737
0.113635 0.945059 0.113635
0.113578 0.945001 0.177533
0.113520 0.944944 0.241431
0.113462 0.944886 0.305329
0.113405 0.944829 0.369227
0.113347 0.944771 0.433126
0.113290 0.944713 0.497024
0.113232 0.944656 0.560922
0.113174 0.944598 0.624820
0.113117 0.944541 0.688718
0.113059 0.944483 0.752616
0.113002 0.944425 0.816514
0.112944 0.944368 0.880412
0.112886 0.944310 0.944310
0.112834 0.944257 1.000000
0.113223 1.000000 0.000000
0.113170 1.000000 0.049214
0.113112 1.000000 0.113112
0.113055 1.000000 0.177010
0.112997 1.000000 0.240908
0.112939 1.000000 0.304806
0.112882 1.000000 0.368704
0.112824 1.000000 0.432603
0.112767 1.000000 0.496501
0.112709 1.000000 0.560399
0.112651 1.000000 0.624297
0.112594 1.000000 0.688195
0.112536 1.000000 0.752093
0.112479 1.000000 0.815991
0.112421 1.000000 0.879889
0.112363 1.000000 0.943787
0.112311 1.000000 1.000000
0.186043 0.000000 0.000000
0.185990 0.000000 0.058079
0.185932 0.000000 0.121977
0.185875 0.000000 0.185875
0.185817 0.000000 0.249773
0.185760 0.000000 0.313671
0.185702 0.000000 0.377569
0.185644 0.000000 0.441467
0.185587 0.000000 0.505365
0.185529 0.000000 0.569263
0.185472 0.000000 0.633161
0.185414 0.000000 0.697059
0.185356 0.000000 0.760957
0.185299 0.000000 0.824855
0.185241 0.000000 0.888754
0.185184 0.000000 0.952652
0.185131 0.000000 1.000000
0.185520 0.057608 0.000000
