skills/editops-orchestrator/assets/grade/luts/product_clean_v09.cube
TITLE "product_clean_v09"
LUT_3D_SIZE 17
DOMAIN_MIN 0.0 0.0 0.0
DOMAIN_MAX 1.0 1.0 1.0
0.000000 0.000000 0.000000
0.000000 0.000000 0.054539
0.000000 0.000000 0.119850
0.000000 0.000000 0.185162
0.000000 0.000000 0.250473
0.000000 0.000000 0.315785
0.000000 0.000000 0.381096
0.000000 0.000000 0.446408
0.000000 0.000000 0.511720
0.000000 0.000000 0.577031
0.000000 0.000000 0.642343
0.000000 0.000000 0.707654
0.000000 0.000000 0.772966
0.000000 0.000000 0.838277
0.000000 0.000000 0.903589
0.000000 0.000000 0.968901
0.000000 0.000000 1.000000
0.000000 0.053673 0.000000
0.000000 0.053576 0.053576
0.000000 0.053459 0.118887
0.000000 0.053343 0.184199
0.000000 0.053226 0.249510
0.000000 0.053110 0.314822
0.000000 0.052994 0.380134
0.000000 0.052877 0.445445
0.000000 0.052761 0.510757
0.000000 0.052644 0.576068
0.000000 0.052528 0.641380
0.000000 0.052412 0.706691
0.000000 0.052295 0.772003
0.000000 0.052179 0.837315
0.000000 0.052062 0.902626
0.000000 0.051946 0.967938
0.000000 0.051849 1.000000
0.000000 0.117948 0.000000
0.000000 0.117851 0.052423
0.000000 0.117734 0.117734
0.000000 0.117618 0.183046
0.000000 0.117501 0.248357
0.000000 0.117385 0.313669
0.000000 0.117269 0.378981
0.000000 0.117152 0.444292
0.000000 0.117036 0.509604
0.000000 0.116919 0.574915
0.000000 0.116803 0.640227
0.000000 0.116687 0.705538
0.000000 0.116570 0.770850
0.000000 0.116454 0.836162
0.000000 0.116337 0.901473
0.000000 0.116221 0.966785
0.000000 0.116124 1.000000
0.000000 0.182223 0.000000
0.000000 0.182126 0.051270
0.000000 0.182009 0.116581
0.000000 0.181893 0.181893
0.000000 0.181776 0.247204
0.000000 0.181660 0.312516
0.000000 0.181544 0.377828
0.000000 0.181427 0.443139
0.000000 0.181311 0.508451
0.000000 0.181194 0.573762
0.000000 0.181078 0.639074
0.000000 0.180962 0.704385
0.000000 0.180845 0.769697
0.000000 0.180729 0.835009
0.000000 0.180612 0.900320
0.000000 0.180496 0.965632
0.000000 0.180399 1.000000
0.000000 0.246498 0.000000
0.000000 0.246401 0.050117
0.000000 0.246284 0.115428
0.000000 0.246168 0.180740
0.000000 0.246051 0.246051
0.000000 0.245935 0.311363
0.000000 0.245819 0.376674
0.000000 0.245702 0.441986
0.000000 0.245586 0.507298
0.000000 0.245469 0.572609
0.000000 0.245353 0.637921
0.000000 0.245237 0.703232
0.000000 0.245120 0.768544
0.000000 0.245004 0.833856
0.000000 0.244887 0.899167
0.000000 0.244771 0.964479
0.000000 0.244674 1.000000
0.000000 0.310773 0.000000
0.000000 0.310675 0.048964
0.000000 0.310559 0.114275
0.000000 0.310443 0.179587
0.000000 0.310326 0.244898
0.000000 0.310210 0.310210
0.000000 0.310093 0.375521
0.000000 0.309977 0.440833
0.000000 0.309861 0.506145
0.000000 0.309744 0.571456
0.000000 0.309628 0.636768
0.000000 0.309511 0.702079
0.000000 0.309395 0.767391
0.000000 0.309279 0.832702
0.000000 0.309162 0.898014
0.000000 0.309046 0.963326
0.000000 0.308949 1.000000
0.000000 0.375048 0.000000
0.000000 0.374950 0.047811
0.000000 0.374834 0.113122
0.000000 0.374718 0.178434
0.000000 0.374601 0.243745
0.000000 0.374485 0.309057
0.000000 0.374368 0.374368
0.000000 0.374252 0.439680
0.000000 0.374136 0.504992
0.000000 0.374019 0.570303
0.000000 0.373903 0.635615
0.000000 0.373786 0.700926
0.000000 0.373670 0.766238
0.000000 0.373554 0.831549
0.000000 0.373437 0.896861
0.000000 0.373321 0.962173
0.000000 0.373224 1.000000
0.000000 0.439323 0.000000
0.000000 0.439225 0.046657
0.000000 0.439109 0.111969
0.000000 0.438993 0.177281
0.000000 0.438876 0.242592
0.000000 0.438760 0.307904
0.000000 0.438643 0.373215
0.000000 0.438527 0.438527
0.000000 0.438411 0.503839
0.000000 0.438294 0.569150
0.000000 0.438178 0.634462
0.000000 0.438061 0.699773
0.000000 0.437945 0.765085
0.000000 0.437829 0.830396
0.000000 0.437712 0.895708
0.000000 0.437596 0.961020
0.000000 0.437499 1.000000
0.000000 0.503597 0.000000
0.000000 0.503500 0.045504
0.000000 0.503384 0.110816
0.000000 0.503267 0.176128
0.000000 0.503151 0.241439
0.000000 0.503035 0.306751
0.000000 0.502918 0.372062
0.000000 0.502802 0.437374
0.000000 0.502685 0.502685
0.000000 0.502569 0.567997
0.000000 0.502453 0.633309
0.000000 0.502336 0.698620
0.000000 0.502220 0.763932
0.000000 0.502103 0.829243
0.000000 0.501987 0.894555
0.000000 0.501871 0.959867
0.000000 0.501773 1.000000
0.000000 0.567872 0.000000
0.000000 0.567775 0.044351
0.000000 0.567659 0.109663
0.000000 0.567542 0.174975
0.000000 0.567426 0.240286
0.000000 0.567310 0.305598
0.000000 0.567193 0.370909
0.000000 0.567077 0.436221
0.000000 0.566960 0.501532
0.000000 0.566844 0.566844
0.000000 0.566728 0.632156
0.000000 0.566611 0.697467
0.000000 0.566495 0.762779
0.000000 0.566378 0.828090
0.000000 0.566262 0.893402
0.000000 0.566146 0.958713
0.000000 0.566048 1.000000
0.000000 0.632147 0.000000
0.000000 0.632050 0.043198
0.000000 0.631934 0.108510
0.000000 0.631817 0.173822
0.000000 0.631701 0.239133
0.000000 0.631585 0.304445
0.000000 0.631468 0.369756
0.000000 0.631352 0.435068
0.000000 0.631235 0.500379
0.000000 0.631119 0.565691
0.000000 0.631003 0.631003
0.000000 0.630886 0.696314
0.000000 0.630770 0.761626
0.000000 0.630653 0.826937
0.000000 0.630537 0.892249
0.000000 0.630421 0.957560
0.000000 0.630323 1.000000
0.000000 0.696422 0.000000
0.000000 0.696325 0.042045
0.000000 0.696209 0.107357
0.000000 0.696092 0.172668
0.000000 0.695976 0.237980
0.000000 0.695859 0.303292
0.000000 0.695743 0.368603
0.000000 0.695627 0.433915
0.000000 0.695510 0.499226
0.000000 0.695394 0.564538
0.000000 0.695277 0.629850
0.000000 0.695161 0.695161
0.000000 0.695045 0.760473
0.000000 0.694928 0.825784
0.000000 0.694812 0.891096
0.000000 0.694695 0.956407
0.000000 0.694598 1.000000
0.000000 0.760697 0.000000
0.000000 0.760600 0.040892
0.000000 0.760484 0.106204
0.000000 0.760367 0.171515
0.000000 0.760251 0.236827
0.000000 0.760134 0.302139
0.000000 0.760018 0.367450
0.000000 0.759902 0.432762
0.000000 0.759785 0.498073
0.000000 0.759669 0.563385
0.000000 0.759552 0.628696
0.000000 0.759436 0.694008
0.000000 0.759320 0.759320
0.000000 0.759203 0.824631
0.000000 0.759087 0.889943
0.000000 0.758970 0.955254
0.000000 0.758873 1.000000
0.000000 0.824972 0.000000
0.000000 0.824875 0.039739
0.000000 0.824759 0.105051
0.000000 0.824642 0.170362
0.000000 0.824526 0.235674
0.000000 0.824409 0.300986
0.000000 0.824293 0.366297
0.000000 0.824177 0.431609
0.000000 0.824060 0.496920
0.000000 0.823944 0.562232
0.000000 0.823827 0.627543
0.000000 0.823711 0.692855
0.000000 0.823595 0.758167
0.000000 0.823478 0.823478
0.000000 0.823362 0.888790
0.000000 0.823245 0.954101
0.000000 0.823148 1.000000
0.000000 0.889247 0.000000
0.000000 0.889150 0.038586
0.000000 0.889034 0.103898
0.000000 0.888917 0.169209
0.000000 0.888801 0.234521
0.000000 0.888684 0.299833
0.000000 0.888568 0.365144
0.000000 0.888452 0.430456
0.000000 0.888335 0.495767
0.000000 0.888219 0.561079
0.000000 0.888102 0.626390
0.000000 0.887986 0.691702
0.000000 0.887870 0.757014
0.000000 0.887753 0.822325
0.000000 0.887637 0.887637
0.000000 0.887520 0.952948
0.000000 0.887423 1.000000
0.000000 0.953522 0.000000
0.000000 0.953425 0.037433
0.000000 0.953308 0.102745
0.000000 0.953192 0.168056
0.000000 0.953076 0.233368
0.000000 0.952959 0.298679
0.000000 0.952843 0.363991
0.000000 0.952726 0.429303
0.000000 0.952610 0.494614
0.000000 0.952494 0.559926
0.000000 0.952377 0.625237
0.000000 0.952261 0.690549
0.000000 0.952144 0.755861
0.000000 0.952028 0.821172
0.000000 0.951912 0.886484
0.000000 0.951795 0.951795
0.000000 0.951698 1.000000
0.000000 1.000000 0.000000
0.000000 1.000000 0.036470
0.000000 1.000000 0.101782
0.000000 1.000000 0.167093
0.000000 1.000000 0.232405
0.000000 1.000000 0.297717
0.000000 1.000000 0.363028
0.000000 1.000000 0.428340
0.000000 1.000000 0.493651
0.000000 1.000000 0.558963
0.000000 1.000000 0.624275
0.000000 1.000000 0.689586
0.000000 1.000000 0.754898
0.000000 1.000000 0.820209
0.000000 1.000000 0.885521
0.000000 1.000000 0.950832
0.000000 1.000000 1.000000
0.054350 0.000000 0.000000
0.054252 0.000000 0.054252
0.054136 0.000000 0.119564
0.054020 0.000000 0.184875
0.053903 0.000000 0.250187
0.053787 0.000000 0.315499
0.053670 0.000000 0.380810
0.053554 0.000000 0.446122
0.053438 0.000000 0.511433
0.053321 0.000000 0.576745
0.053205 0.000000 0.642057
0.053088 0.000000 0.707368
0.052972 0.000000 0.772680
0.052856 0.000000 0.837991
0.052739 0.000000 0.903303
0.052623 0.000000 0.968614
0.052526 0.000000 1.000000
0.053387 0.053387 0.000000
0.053289 0.053289 0.053289
0.053173 0.053173 0.118601
0.053057 0.053057 0.183913
0.052940 0.052940 0.249224
0.052824 0.052824 0.314536
0.052707 0.052707 0.379847
0.052591 0.052591 0.445159
0.052475 0.052475 0.510471
0.052358 0.052358 0.575782
0.052242 0.052242 0.641094
0.052125 0.052125 0.706405
0.052009 0.052009 0.771717
0.051893 0.051893 0.837028
0.051776 0.051776 0.902340
0.051660 0.051660 0.967652
0.051563 0.051563 1.000000
0.052234 0.117662 0.000000
0.052136 0.117564 0.052136
0.052020 0.117448 0.117448
0.051904 0.117332 0.182760
0.051787 0.117215 0.248071
0.051671 0.117099 0.313383
0.051554 0.116982 0.378694
0.051438 0.116866 0.444006
0.051322 0.116750 0.509317
0.051205 0.116633 0.574629
0.051089 0.116517 0.639941
0.050972 0.116400 0.705252
0.050856 0.116284 0.770564
0.050740 0.116168 0.835875
0.050623 0.116051 0.901187
0.050507 0.115935 0.966499
0.050410 0.115838 1.000000
0.051081 0.181937 0.000000
0.050983 0.181839 0.050983
0.050867 0.181723 0.116295
0.050751 0.181607 0.181607
0.050634 0.181490 0.246918
0.050518 0.181374 0.312230
0.050401 0.181257 0.377541
0.050285 0.181141 0.442853
0.050169 0.181025 0.508164
0.050052 0.180908 0.573476
0.049936 0.180792 0.638788
0.049819 0.180675 0.704099
0.049703 0.180559 0.769411
0.049587 0.180443 0.834722
0.049470 0.180326 0.900034
0.049354 0.180210 0.965345
0.049257 0.180113 1.000000
0.049928 0.246211 0.000000
0.049830 0.246114 0.049830
0.049714 0.245998 0.115142
0.049598 0.245881 0.180454
0.049481 0.245765 0.245765
0.049365 0.245649 0.311077
0.049248 0.245532 0.376388
0.049132 0.245416 0.441700
0.049016 0.245299 0.507011
0.048899 0.245183 0.572323
0.048783 0.245067 0.637635
0.048666 0.244950 0.702946
0.048550 0.244834 0.768258
0.048434 0.244717 0.833569
0.048317 0.244601 0.898881
0.048201 0.244485 0.964192
0.048104 0.244387 1.000000
0.048775 0.310486 0.000000
0.048677 0.310389 0.048677
0.048561 0.310273 0.113989
0.048445 0.310156 0.179300
0.048328 0.310040 0.244612
0.048212 0.309924 0.309924
0.048095 0.309807 0.375235
0.047979 0.309691 0.440547
0.047863 0.309574 0.505858
0.047746 0.309458 0.571170
0.047630 0.309342 0.636482
0.047513 0.309225 0.701793
0.047397 0.309109 0.767105
0.047281 0.308992 0.832416
0.047164 0.308876 0.897728
0.047048 0.308760 0.963039
0.046951 0.308662 1.000000
0.047621 0.374761 0.000000
0.047524 0.374664 0.047524
0.047408 0.374548 0.112836
0.047291 0.374431 0.178147
0.047175 0.374315 0.243459
0.047059 0.374199 0.308771
0.046942 0.374082 0.374082
0.046826 0.373966 0.439394
0.046709 0.373849 0.504705
0.046593 0.373733 0.570017
0.046477 0.373617 0.635328
0.046360 0.373500 0.700640
0.046244 0.373384 0.765952
0.046127 0.373267 0.831263
0.046011 0.373151 0.896575
0.045895 0.373035 0.961886
0.045797 0.372937 1.000000
0.046468 0.439036 0.000000
0.046371 0.438939 0.046371
0.046255 0.438823 0.111683
0.046138 0.438706 0.176994
0.046022 0.438590 0.242306
0.045906 0.438474 0.307618
0.045789 0.438357 0.372929
0.045673 0.438241 0.438241
0.045556 0.438124 0.503552
0.045440 0.438008 0.568864
0.045324 0.437892 0.634175
0.045207 0.437775 0.699487
0.045091 0.437659 0.764799
0.044974 0.437542 0.830110
0.044858 0.437426 0.895422
0.044742 0.437310 0.960733
0.044644 0.437212 1.000000
0.045315 0.503311 0.000000
0.045218 0.503214 0.045218
0.045102 0.503098 0.110530
0.044985 0.502981 0.175841
0.044869 0.502865 0.241153
0.044753 0.502748 0.306465
0.044636 0.502632 0.371776
0.044520 0.502516 0.437088
0.044403 0.502399 0.502399
0.044287 0.502283 0.567711
0.044171 0.502166 0.633022
0.044054 0.502050 0.698334
0.043938 0.501934 0.763646
0.043821 0.501817 0.828957
0.043705 0.501701 0.894269
0.043589 0.501584 0.959580
0.043491 0.501487 1.000000
0.044162 0.567586 0.000000
0.044065 0.567489 0.044065
0.043949 0.567373 0.109377
0.043832 0.567256 0.174688
0.043716 0.567140 0.240000
0.043600 0.567023 0.305311
0.043483 0.566907 0.370623
0.043367 0.566791 0.435935
0.043250 0.566674 0.501246
0.043134 0.566558 0.566558
0.043018 0.566441 0.631869
0.042901 0.566325 0.697181
0.042785 0.566209 0.762493
0.042668 0.566092 0.827804
0.042552 0.565976 0.893116
0.042436 0.565859 0.958427
0.042338 0.565762 1.000000
0.043009 0.631861 0.000000
0.042912 0.631764 0.042912
0.042796 0.631648 0.108224
0.042679 0.631531 0.173535
0.042563 0.631415 0.238847
0.042447 0.631298 0.304158
0.042330 0.631182 0.369470
0.042214 0.631066 0.434782
0.042097 0.630949 0.500093
0.041981 0.630833 0.565405
0.041865 0.630716 0.630716
0.041748 0.630600 0.696028
0.041632 0.630484 0.761339
0.041515 0.630367 0.826651
0.041399 0.630251 0.891963
0.041283 0.630134 0.957274
0.041185 0.630037 1.000000
0.041856 0.696136 0.000000
0.041759 0.696039 0.041759
0.041643 0.695922 0.107071
0.041526 0.695806 0.172382
0.041410 0.695690 0.237694
0.041294 0.695573 0.303005
0.041177 0.695457 0.368317
0.041061 0.695340 0.433629
0.040944 0.695224 0.498940
0.040828 0.695108 0.564252
0.040712 0.694991 0.629563
0.040595 0.694875 0.694875
0.040479 0.694758 0.760186
0.040362 0.694642 0.825498
0.040246 0.694526 0.890810
0.040130 0.694409 0.956121
0.040032 0.694312 1.000000
0.040703 0.760411 0.000000
0.040606 0.760314 0.040606
0.040490 0.760197 0.105918
0.040373 0.760081 0.171229
0.040257 0.759965 0.236541
0.040140 0.759848 0.301852
0.040024 0.759732 0.367164
0.039908 0.759615 0.432476
0.039791 0.759499 0.497787
0.039675 0.759383 0.563099
0.039558 0.759266 0.628410
0.039442 0.759150 0.693722
0.039326 0.759033 0.759033
0.039209 0.758917 0.824345
0.039093 0.758801 0.889657
0.038976 0.758684 0.954968
0.038879 0.758587 1.000000
0.039550 0.824686 0.000000
0.039453 0.824589 0.039453
0.039337 0.824472 0.104765
0.039220 0.824356 0.170076
0.039104 0.824240 0.235388
0.038987 0.824123 0.300699
0.038871 0.824007 0.366011
0.038755 0.823890 0.431322
0.038638 0.823774 0.496634
0.038522 0.823658 0.561946
0.038405 0.823541 0.627257
0.038289 0.823425 0.692569
0.038173 0.823308 0.757880
0.038056 0.823192 0.823192
0.037940 0.823076 0.888504
0.037823 0.822959 0.953815
0.037726 0.822862 1.000000
0.038397 0.888961 0.000000
0.038300 0.888864 0.038300
0.038184 0.888747 0.103612
0.038067 0.888631 0.168923
0.037951 0.888515 0.234235
0.037834 0.888398 0.299546
0.037718 0.888282 0.364858
0.037602 0.888165 0.430169
0.037485 0.888049 0.495481
0.037369 0.887933 0.560793
0.037252 0.887816 0.626104
0.037136 0.887700 0.691416
0.037020 0.887583 0.756727
0.036903 0.887467 0.822039
0.036787 0.887351 0.887351
0.036670 0.887234 0.952662
0.036573 0.887137 1.000000
0.037244 0.953236 0.000000
0.037147 0.953139 0.037147
0.037031 0.953022 0.102459
0.036914 0.952906 0.167770
0.036798 0.952789 0.233082
0.036681 0.952673 0.298393
0.036565 0.952557 0.363705
0.036449 0.952440 0.429016
0.036332 0.952324 0.494328
0.036216 0.952207 0.559640
0.036099 0.952091 0.624951
0.035983 0.951975 0.690263
0.035867 0.951858 0.755574
0.035750 0.951742 0.820886
0.035634 0.951625 0.886197
0.035517 0.951509 0.951509
0.035420 0.951412 1.000000
0.036281 1.000000 0.000000
0.036184 1.000000 0.036184
0.036068 1.000000 0.101496
0.035951 1.000000 0.166807
0.035835 1.000000 0.232119
0.035719 1.000000 0.297430
0.035602 1.000000 0.362742
0.035486 1.000000 0.428054
0.035369 1.000000 0.493365
0.035253 1.000000 0.558677
0.035137 1.000000 0.623988
0.035020 1.000000 0.689300
0.034904 1.000000 0.754611
0.034787 1.000000 0.819923
0.034671 1.000000 0.885235
0.034555 1.000000 0.950546
0.034457 1.000000 1.000000
0.119435 0.000000 0.000000
0.119338 0.000000 0.053910
0.119221 0.000000 0.119221
0.119105 0.000000 0.184533
0.118988 0.000000 0.249844
0.118872 0.000000 0.315156
0.118756 0.000000 0.380467
0.118639 0.000000 0.445779
0.118523 0.000000 0.511091
0.118406 0.000000 0.576402
0.118290 0.000000 0.641714
0.118174 0.000000 0.707025
0.118057 0.000000 0.772337
0.117941 0.000000 0.837649
0.117824 0.000000 0.902960
0.117708 0.000000 0.968272
0.117611 0.000000 1.000000
0.118472 0.053044 0.000000
0.118375 0.052947 0.052947
0.118258 0.052830 0.118258
0.118142 0.052714 0.183570
0.118026 0.052598 0.248881
0.117909 0.052481 0.314193
0.117793 0.052365 0.379505
0.117676 0.052248 0.444816
0.117560 0.052132 0.510128
0.117444 0.052016 0.575439
0.117327 0.051899 0.640751
0.117211 0.051783 0.706063
0.117094 0.051666 0.771374
0.116978 0.051550 0.836686
0.116862 0.051434 0.901997
0.116745 0.051317 0.967309
0.116648 0.051220 1.000000
0.117319 0.117319 0.000000
0.117222 0.117222 0.051794
0.117105 0.117105 0.117105
0.116989 0.116989 0.182417
0.116872 0.116872 0.247728
0.116756 0.116756 0.313040
0.116640 0.116640 0.378352
0.116523 0.116523 0.443663
0.116407 0.116407 0.508975
0.116290 0.116290 0.574286
0.116174 0.116174 0.639598
0.116058 0.116058 0.704909
0.115941 0.115941 0.770221
0.115825 0.115825 0.835533
0.115708 0.115708 0.900844
0.115592 0.115592 0.966156
0.115495 0.115495 1.000000
0.116166 0.181594 0.000000
0.116069 0.181497 0.050641
0.115952 0.181380 0.115952
0.115836 0.181264 0.181264
0.115719 0.181147 0.246575
0.115603 0.181031 0.311887
0.115487 0.180915 0.377199
0.115370 0.180798 0.442510
0.115254 0.180682 0.507822
0.115137 0.180565 0.573133
0.115021 0.180449 0.638445
0.114905 0.180333 0.703756
0.114788 0.180216 0.769068
0.114672 0.180100 0.834380
0.114555 0.179983 0.899691
0.114439 0.179867 0.965003
0.114342 0.179770 1.000000
0.115013 0.245869 0.000000
0.114916 0.245772 0.049488
0.114799 0.245655 0.114799
0.114683 0.245539 0.180111
0.114566 0.245422 0.245422
0.114450 0.245306 0.310734
0.114334 0.245190 0.376046
0.114217 0.245073 0.441357
0.114101 0.244957 0.506669
0.113984 0.244840 0.571980
0.113868 0.244724 0.637292
0.113752 0.244608 0.702603
0.113635 0.244491 0.767915
0.113519 0.244375 0.833227
0.113402 0.244258 0.898538
0.113286 0.244142 0.963850
0.113189 0.244045 1.000000
0.113860 0.310144 0.000000
0.113763 0.310046 0.048335
0.113646 0.309930 0.113646
0.113530 0.309814 0.178958
0.113413 0.309697 0.244269
0.113297 0.309581 0.309581
0.113181 0.309464 0.374892
0.113064 0.309348 0.440204
0.112948 0.309232 0.505516
0.112831 0.309115 0.570827
0.112715 0.308999 0.636139
0.112599 0.308882 0.701450
0.112482 0.308766 0.766762
0.112366 0.308650 0.832074
0.112249 0.308533 0.897385
0.112133 0.308417 0.962697
0.112036 0.308320 1.000000
0.112707 0.374419 0.000000
0.112610 0.374321 0.047182
0.112493 0.374205 0.112493
0.112377 0.374089 0.177805
0.112260 0.373972 0.243116
0.112144 0.373856 0.308428
0.112028 0.373739 0.373739
0.111911 0.373623 0.439051
0.111795 0.373507 0.504363
0.111678 0.373390 0.569674
0.111562 0.373274 0.634986
0.111446 0.373157 0.700297
0.111329 0.373041 0.765609
0.111213 0.372925 0.830920
0.111096 0.372808 0.896232
0.110980 0.372692 0.961544
0.110883 0.372595 1.000000
0.111554 0.438694 0.000000
0.111456 0.438596 0.046028
0.111340 0.438480 0.111340
0.111224 0.438364 0.176652
0.111107 0.438247 0.241963
0.110991 0.438131 0.307275
0.110874 0.438014 0.372586
0.110758 0.437898 0.437898
0.110642 0.437782 0.503210
0.110525 0.437665 0.568521
0.110409 0.437549 0.633833
0.110292 0.437432 0.699144
0.110176 0.437316 0.764456
0.110060 0.437200 0.829767
0.109943 0.437083 0.895079
0.109827 0.436967 0.960391
0.109730 0.436870 1.000000
0.110401 0.502969 0.000000
0.110303 0.502871 0.044875
0.110187 0.502755 0.110187
0.110071 0.502639 0.175499
0.109954 0.502522 0.240810
0.109838 0.502406 0.306122
0.109721 0.502289 0.371433
0.109605 0.502173 0.436745
0.109489 0.502057 0.502057
0.109372 0.501940 0.567368
0.109256 0.501824 0.632680
0.109139 0.501707 0.697991
0.109023 0.501591 0.763303
0.108907 0.501475 0.828614
0.108790 0.501358 0.893926
0.108674 0.501242 0.959238
0.108577 0.501145 1.000000
0.109248 0.567243 0.000000
0.109150 0.567146 0.043722
0.109034 0.567030 0.109034
0.108918 0.566913 0.174346
0.108801 0.566797 0.239657
0.108685 0.566681 0.304969
0.108568 0.566564 0.370280
0.108452 0.566448 0.435592
0.108336 0.566331 0.500903
0.108219 0.566215 0.566215
0.108103 0.566099 0.631527
0.107986 0.565982 0.696838
0.107870 0.565866 0.762150
0.107754 0.565749 0.827461
0.107637 0.565633 0.892773
0.107521 0.565517 0.958085
0.107424 0.565419 1.000000
0.108095 0.631518 0.000000
0.107997 0.631421 0.042569
0.107881 0.631305 0.107881
0.107765 0.631188 0.173193
0.107648 0.631072 0.238504
0.107532 0.630956 0.303816
0.107415 0.630839 0.369127
0.107299 0.630723 0.434439
0.107183 0.630606 0.499750
0.107066 0.630490 0.565062
0.106950 0.630374 0.630374
0.106833 0.630257 0.695685
0.106717 0.630141 0.760997
0.106601 0.630024 0.826308
0.106484 0.629908 0.891620
0.106368 0.629792 0.956931
0.106271 0.629694 1.000000
0.106942 0.695793 0.000000
0.106844 0.695696 0.041416
0.106728 0.695580 0.106728
0.106612 0.695463 0.172040
0.106495 0.695347 0.237351
0.106379 0.695231 0.302663
0.106262 0.695114 0.367974
0.106146 0.694998 0.433286
0.106030 0.694881 0.498597
0.105913 0.694765 0.563909
0.105797 0.694649 0.629221
0.105680 0.694532 0.694532
0.105564 0.694416 0.759844
0.105448 0.694299 0.825155
0.105331 0.694183 0.890467
0.105215 0.694067 0.955778
0.105118 0.693969 1.000000
0.105788 0.760068 0.000000
0.105691 0.759971 0.040263
0.105575 0.759855 0.105575
0.105458 0.759738 0.170886
0.105342 0.759622 0.236198
0.105226 0.759505 0.301510
0.105109 0.759389 0.366821
0.104993 0.759273 0.432133
0.104876 0.759156 0.497444
0.104760 0.759040 0.562756
0.104644 0.758923 0.628068
0.104527 0.758807 0.693379
0.104411 0.758691 0.758691
0.104294 0.758574 0.824002
0.104178 0.758458 0.889314
0.104062 0.758341 0.954625
0.103964 0.758244 1.000000
0.104635 0.824343 0.000000
0.104538 0.824246 0.039110
0.104422 0.824130 0.104422
0.104305 0.824013 0.169733
0.104189 0.823897 0.235045
0.104073 0.823780 0.300357
0.103956 0.823664 0.365668
0.103840 0.823548 0.430980
0.103723 0.823431 0.496291
0.103607 0.823315 0.561603
0.103491 0.823198 0.626914
0.103374 0.823082 0.692226
0.103258 0.822966 0.757538
0.103141 0.822849 0.822849
0.103025 0.822733 0.888161
0.102909 0.822616 0.953472
0.102811 0.822519 1.000000
0.103482 0.888618 0.000000
0.103385 0.888521 0.037957
0.103269 0.888405 0.103269
0.103152 0.888288 0.168580
0.103036 0.888172 0.233892
0.102920 0.888055 0.299204
0.102803 0.887939 0.364515
0.102687 0.887823 0.429827
0.102570 0.887706 0.495138
0.102454 0.887590 0.560450
0.102338 0.887473 0.625761
0.102221 0.887357 0.691073
0.102105 0.887241 0.756385
0.101988 0.887124 0.821696
0.101872 0.887008 0.887008
0.101756 0.886891 0.952319
0.101658 0.886794 1.000000
0.102329 0.952893 0.000000
0.102232 0.952796 0.036804
0.102116 0.952679 0.102116
0.101999 0.952563 0.167427
0.101883 0.952447 0.232739
0.101767 0.952330 0.298051
0.101650 0.952214 0.363362
0.101534 0.952097 0.428674
0.101417 0.951981 0.493985
0.101301 0.951865 0.559297
0.101185 0.951748 0.624608
0.101068 0.951632 0.689920
0.100952 0.951515 0.755232
0.100835 0.951399 0.820543
0.100719 0.951283 0.885855
0.100603 0.951166 0.951166
0.100505 0.951069 1.000000
0.101367 1.000000 0.000000
0.101269 1.000000 0.035841
0.101153 1.000000 0.101153
0.101037 1.000000 0.166465
0.100920 1.000000 0.231776
0.100804 1.000000 0.297088
0.100687 1.000000 0.362399
0.100571 1.000000 0.427711
0.100455 1.000000 0.493022
0.100338 1.000000 0.558334
0.100222 1.000000 0.623646
0.100105 1.000000 0.688957
0.099989 1.000000 0.754269
0.099873 1.000000 0.819580
0.099756 1.000000 0.884892
0.099640 1.000000 0.950203
0.099543 1.000000 1.000000
0.184520 0.000000 0.000000
0.184423 0.000000 0.053567
0.184306 0.000000 0.118878
0.184190 0.000000 0.184190
0.184074 0.000000 0.249502
0.183957 0.000000 0.314813
0.183841 0.000000 0.380125
0.183724 0.000000 0.445436
0.183608 0.000000 0.510748
0.183492 0.000000 0.576059
0.183375 0.000000 0.641371
0.183259 0.000000 0.706683
0.183142 0.000000 0.771994
0.183026 0.000000 0.837306
0.182910 0.000000 0.902617
0.182793 0.000000 0.967929
0.182696 0.000000 1.000000
0.183557 0.052701 0.000000
