skills/editops-orchestrator/assets/grade/luts/product_clean_v12.cube
TITLE "product_clean_v12"
LUT_3D_SIZE 9
DOMAIN_MIN 0.0 0.0 0.0
DOMAIN_MAX 1.0 1.0 1.0
0.000000 0.000000 0.000000
0.000000 0.000000 0.117823
0.000000 0.000000 0.250587
0.000000 0.000000 0.383351
0.000000 0.000000 0.516114
0.000000 0.000000 0.648878
0.000000 0.000000 0.781642
0.000000 0.000000 0.914405
0.000000 0.000000 1.000000
0.000000 0.115274 0.000000
0.000000 0.114988 0.114988
0.000000 0.114665 0.247751
0.000000 0.114343 0.380515
0.000000 0.114020 0.513279
0.000000 0.113697 0.646042
0.000000 0.113375 0.778806
0.000000 0.113052 0.911570
0.000000 0.112766 1.000000
0.000000 0.245165 0.000000
0.000000 0.244879 0.111792
0.000000 0.244556 0.244556
0.000000 0.244233 0.377320
0.000000 0.243911 0.510083
0.000000 0.243588 0.642847
0.000000 0.243266 0.775611
0.000000 0.242943 0.908374
0.000000 0.242657 1.000000
0.000000 0.375056 0.000000
0.000000 0.374769 0.108597
0.000000 0.374447 0.241361
0.000000 0.374124 0.374124
0.000000 0.373802 0.506888
0.000000 0.373479 0.639652
0.000000 0.373157 0.772415
0.000000 0.372834 0.905179
0.000000 0.372548 1.000000
0.000000 0.504947 0.000000
0.000000 0.504660 0.105402
0.000000 0.504338 0.238165
0.000000 0.504015 0.370929
0.000000 0.503693 0.503693
0.000000 0.503370 0.636456
0.000000 0.503047 0.769220
0.000000 0.502725 0.901983
0.000000 0.502439 1.000000
0.000000 0.634837 0.000000
0.000000 0.634551 0.102206
0.000000 0.634229 0.234970
0.000000 0.633906 0.367734
0.000000 0.633583 0.500497
0.000000 0.633261 0.633261
0.000000 0.632938 0.766024
0.000000 0.632616 0.898788
0.000000 0.632329 1.000000
0.000000 0.764728 0.000000
0.000000 0.764442 0.099011
0.000000 0.764119 0.231775
0.000000 0.763797 0.364538
0.000000 0.763474 0.497302
0.000000 0.763152 0.630065
0.000000 0.762829 0.762829
0.000000 0.762507 0.895593
0.000000 0.762220 1.000000
0.000000 0.894619 0.000000
0.000000 0.894333 0.095815
0.000000 0.894010 0.228579
0.000000 0.893688 0.361343
0.000000 0.893365 0.494106
0.000000 0.893043 0.626870
0.000000 0.892720 0.759634
0.000000 0.892397 0.892397
0.000000 0.892111 1.000000
0.000000 1.000000 0.000000
0.000000 1.000000 0.092980
0.000000 1.000000 0.225743
0.000000 1.000000 0.358507
0.000000 1.000000 0.491271
0.000000 1.000000 0.624034
0.000000 1.000000 0.756798
0.000000 1.000000 0.889562
0.000000 1.000000 1.000000
0.117267 0.000000 0.000000
0.116981 0.000000 0.116981
0.116658 0.000000 0.249744
0.116335 0.000000 0.382508
0.116013 0.000000 0.515271
0.115690 0.000000 0.648035
0.115368 0.000000 0.780799
0.115045 0.000000 0.913562
0.114759 0.000000 1.000000
0.114431 0.114431 0.000000
0.114145 0.114145 0.114145
0.113822 0.113822 0.246908
0.113500 0.113500 0.379672
0.113177 0.113177 0.512436
0.112854 0.112854 0.645199
0.112532 0.112532 0.777963
0.112209 0.112209 0.910727
0.111923 0.111923 1.000000
0.111236 0.244322 0.000000
0.110949 0.244036 0.110949
0.110627 0.243713 0.243713
0.110304 0.243390 0.376477
0.109982 0.243068 0.509240
0.109659 0.242745 0.642004
0.109336 0.242423 0.774768
0.109014 0.242100 0.907531
0.108728 0.241814 1.000000
0.108040 0.374213 0.000000
0.107754 0.373926 0.107754
0.107431 0.373604 0.240518
0.107109 0.373281 0.373281
0.106786 0.372959 0.506045
0.106464 0.372636 0.638809
0.106141 0.372314 0.771572
0.105819 0.371991 0.904336
0.105532 0.371705 1.000000
0.104845 0.504104 0.000000
0.104559 0.503817 0.104559
0.104236 0.503495 0.237322
0.103913 0.503172 0.370086
0.103591 0.502850 0.502850
0.103268 0.502527 0.635613
0.102946 0.502204 0.768377
0.102623 0.501882 0.901140
0.102337 0.501596 1.000000
0.101650 0.633994 0.000000
0.101363 0.633708 0.101363
0.101041 0.633386 0.234127
0.100718 0.633063 0.366891
0.100396 0.632740 0.499654
0.100073 0.632418 0.632418
0.099750 0.632095 0.765181
0.099428 0.631773 0.897945
0.099142 0.631486 1.000000
0.098454 0.763885 0.000000
0.098168 0.763599 0.098168
0.097845 0.763276 0.230932
0.097523 0.762954 0.363695
0.097200 0.762631 0.496459
0.096878 0.762309 0.629222
0.096555 0.761986 0.761986
0.096232 0.761664 0.894750
0.095946 0.761377 1.000000
0.095259 0.893776 0.000000
0.094973 0.893490 0.094973
0.094650 0.893167 0.227736
0.094327 0.892845 0.360500
0.094005 0.892522 0.493263
0.093682 0.892200 0.626027
0.093360 0.891877 0.758791
0.093037 0.891554 0.891554
0.092751 0.891268 1.000000
0.092423 1.000000 0.000000
0.092137 1.000000 0.092137
0.091814 1.000000 0.224900
0.091492 1.000000 0.357664
0.091169 1.000000 0.490428
0.090846 1.000000 0.623191
0.090524 1.000000 0.755955
0.090201 1.000000 0.888719
0.089915 1.000000 1.000000
0.249403 0.000000 0.000000
0.249117 0.000000 0.116031
0.248794 0.000000 0.248794
0.248472 0.000000 0.381558
0.248149 0.000000 0.514322
0.247827 0.000000 0.647085
0.247504 0.000000 0.779849
0.247181 0.000000 0.912613
0.246895 0.000000 1.000000
0.246567 0.113481 0.000000
0.246281 0.113195 0.113195
0.245959 0.112872 0.245959
0.245636 0.112550 0.378722
0.245313 0.112227 0.511486
0.244991 0.111905 0.644249
0.244668 0.111582 0.777013
0.244346 0.111259 0.909777
0.244059 0.110973 1.000000
0.243372 0.243372 0.000000
0.243086 0.243086 0.110000
0.242763 0.242763 0.242763
0.242441 0.242441 0.375527
0.242118 0.242118 0.508290
0.241795 0.241795 0.641054
0.241473 0.241473 0.773818
0.241150 0.241150 0.906581
0.240864 0.240864 1.000000
0.240177 0.373263 0.000000
0.239890 0.372977 0.106804
0.239568 0.372654 0.239568
0.239245 0.372331 0.372331
0.238923 0.372009 0.505095
0.238600 0.371686 0.637859
0.238277 0.371364 0.770622
0.237955 0.371041 0.903386
0.237669 0.370755 1.000000
0.236981 0.503154 0.000000
0.236695 0.502867 0.103609
0.236372 0.502545 0.236372
0.236050 0.502222 0.369136
0.235727 0.501900 0.501900
0.235405 0.501577 0.634663
0.235082 0.501255 0.767427
0.234760 0.500932 0.900191
0.234473 0.500646 1.000000
0.233786 0.633045 0.000000
0.233500 0.632758 0.100413
0.233177 0.632436 0.233177
0.232854 0.632113 0.365941
0.232532 0.631791 0.498704
0.232209 0.631468 0.631468
0.231887 0.631145 0.764232
0.231564 0.630823 0.896995
0.231278 0.630537 1.000000
0.230591 0.762935 0.000000
0.230304 0.762649 0.097218
0.229982 0.762327 0.229982
0.229659 0.762004 0.362745
0.229337 0.761681 0.495509
0.229014 0.761359 0.628273
0.228691 0.761036 0.761036
0.228369 0.760714 0.893800
0.228083 0.760427 1.000000
0.227395 0.892826 0.000000
0.227109 0.892540 0.094023
0.226786 0.892217 0.226786
0.226464 0.891895 0.359550
0.226141 0.891572 0.492314
0.225819 0.891250 0.625077
0.225496 0.890927 0.757841
0.225173 0.890605 0.890605
0.224887 0.890318 1.000000
0.224559 1.000000 0.000000
0.224273 1.000000 0.091187
0.223951 1.000000 0.223951
0.223628 1.000000 0.356714
0.223305 1.000000 0.489478
0.222983 1.000000 0.622241
0.222660 1.000000 0.755005
0.222338 1.000000 0.887769
0.222051 1.000000 1.000000
0.381540 0.000000 0.000000
0.381253 0.000000 0.115081
0.380931 0.000000 0.247844
0.380608 0.000000 0.380608
0.380286 0.000000 0.513372
0.379963 0.000000 0.646135
0.379640 0.000000 0.778899
0.379318 0.000000 0.911663
0.379032 0.000000 1.000000
0.378704 0.112531 0.000000
0.378417 0.112245 0.112245
0.378095 0.111922 0.245009
0.377772 0.111600 0.377772
0.377450 0.111277 0.510536
0.377127 0.110955 0.643300
0.376805 0.110632 0.776063
0.376482 0.110310 0.908827
0.376196 0.110023 1.000000
0.375508 0.242422 0.000000
0.375222 0.242136 0.109050
0.374900 0.241813 0.241813
0.374577 0.241491 0.374577
0.374254 0.241168 0.507341
0.373932 0.240846 0.640104
0.373609 0.240523 0.772868
0.373287 0.240200 0.905632
0.373000 0.239914 1.000000
0.372313 0.372313 0.000000
0.372027 0.372027 0.105854
0.371704 0.371704 0.238618
0.371382 0.371382 0.371382
0.371059 0.371059 0.504145
0.370736 0.370736 0.636909
0.370414 0.370414 0.769673
0.370091 0.370091 0.902436
0.369805 0.369805 1.000000
0.369118 0.502204 0.000000
0.368831 0.501918 0.102659
0.368509 0.501595 0.235423
0.368186 0.501272 0.368186
0.367864 0.500950 0.500950
0.367541 0.500627 0.633713
0.367218 0.500305 0.766477
0.366896 0.499982 0.899241
0.366610 0.499696 1.000000
0.365922 0.632095 0.000000
0.365636 0.631808 0.099464
0.365313 0.631486 0.232227
0.364991 0.631163 0.364991
0.364668 0.630841 0.497754
0.364346 0.630518 0.630518
0.364023 0.630196 0.763282
0.363701 0.629873 0.896045
0.363414 0.629587 1.000000
0.362727 0.761986 0.000000
0.362441 0.761699 0.096268
0.362118 0.761377 0.229032
0.361795 0.761054 0.361795
0.361473 0.760732 0.494559
0.361150 0.760409 0.627323
0.360828 0.760086 0.760086
0.360505 0.759764 0.892850
0.360219 0.759478 1.000000
0.359532 0.891876 0.000000
0.359245 0.891590 0.093073
0.358923 0.891268 0.225836
0.358600 0.890945 0.358600
0.358278 0.890622 0.491364
0.357955 0.890300 0.624127
0.357632 0.889977 0.756891
0.357310 0.889655 0.889655
0.357024 0.889368 1.000000
0.356696 1.000000 0.000000
0.356409 1.000000 0.090237
0.356087 1.000000 0.223001
0.355764 1.000000 0.355764
0.355442 1.000000 0.488528
0.355119 1.000000 0.621292
0.354797 1.000000 0.754055
0.354474 1.000000 0.886819
0.354188 1.000000 1.000000
0.513676 0.000000 0.000000
0.513390 0.000000 0.114131
0.513067 0.000000 0.246895
0.512744 0.000000 0.379658
0.512422 0.000000 0.512422
0.512099 0.000000 0.645186
0.511777 0.000000 0.777949
0.511454 0.000000 0.910713
0.511168 0.000000 1.000000
0.510840 0.111581 0.000000
0.510554 0.111295 0.111295
0.510231 0.110973 0.244059
0.509909 0.110650 0.376822
0.509586 0.110327 0.509586
0.509264 0.110005 0.642350
0.508941 0.109682 0.775113
0.508618 0.109360 0.907877
0.508332 0.109073 1.000000
0.507645 0.241472 0.000000
0.507358 0.241186 0.108100
0.507036 0.240863 0.240863
0.506713 0.240541 0.373627
0.506391 0.240218 0.506391
0.506068 0.239896 0.639154
0.505746 0.239573 0.771918
0.505423 0.239251 0.904682
0.505137 0.238964 1.000000
0.504449 0.371363 0.000000
0.504163 0.371077 0.104904
0.503841 0.370754 0.237668
0.503518 0.370432 0.370432
0.503195 0.370109 0.503195
0.502873 0.369787 0.635959
0.502550 0.369464 0.768723
0.502228 0.369141 0.901486
0.501941 0.368855 1.000000
0.501254 0.501254 0.000000
0.500968 0.500968 0.101709
0.500645 0.500645 0.234473
0.500323 0.500323 0.367236
0.500000 0.500000 0.500000
0.499677 0.499677 0.632764
0.499355 0.499355 0.765527
0.499032 0.499032 0.898291
0.498746 0.498746 1.000000
0.498059 0.631145 0.000000
0.497772 0.630859 0.098514
0.497450 0.630536 0.231277
0.497127 0.630213 0.364041
0.496805 0.629891 0.496805
0.496482 0.629568 0.629568
0.496159 0.629246 0.762332
0.495837 0.628923 0.895096
0.495551 0.628637 1.000000
0.494863 0.761036 0.000000
0.494577 0.760749 0.095318
0.494254 0.760427 0.228082
0.493932 0.760104 0.360846
0.493609 0.759782 0.493609
0.493287 0.759459 0.626373
0.492964 0.759137 0.759137
0.492642 0.758814 0.891900
0.492355 0.758528 1.000000
0.491668 0.890927 0.000000
0.491382 0.890640 0.092123
0.491059 0.890318 0.224887
0.490736 0.889995 0.357650
0.490414 0.889673 0.490414
0.490091 0.889350 0.623178
0.489769 0.889027 0.755941
0.489446 0.888705 0.888705
0.489160 0.888419 1.000000
0.488832 1.000000 0.000000
0.488546 1.000000 0.089287
0.488223 1.000000 0.222051
0.487901 1.000000 0.354814
0.487578 1.000000 0.487578
0.487256 1.000000 0.620342
0.486933 1.000000 0.753105
0.486610 1.000000 0.885869
0.486324 1.000000 1.000000
0.645812 0.000000 0.000000
0.645526 0.000000 0.113181
0.645203 0.000000 0.245945
0.644881 0.000000 0.378708
0.644558 0.000000 0.511472
0.644236 0.000000 0.644236
0.643913 0.000000 0.776999
0.643591 0.000000 0.909763
0.643304 0.000000 1.000000
0.642976 0.110632 0.000000
0.642690 0.110345 0.110345
0.642368 0.110023 0.243109
0.642045 0.109700 0.375873
0.641722 0.109378 0.508636
0.641400 0.109055 0.641400
0.641077 0.108732 0.774164
0.640755 0.108410 0.906927
0.640468 0.108124 1.000000
0.639781 0.240522 0.000000
0.639495 0.240236 0.107150
0.639172 0.239914 0.239914
0.638850 0.239591 0.372677
0.638527 0.239268 0.505441
0.638205 0.238946 0.638205
0.637882 0.238623 0.770968
0.637559 0.238301 0.903732
0.637273 0.238014 1.000000
0.636586 0.370413 0.000000
0.636299 0.370127 0.103955
0.635977 0.369804 0.236718
0.635654 0.369482 0.369482
0.635332 0.369159 0.502246
0.635009 0.368837 0.635009
0.634687 0.368514 0.767773
0.634364 0.368192 0.900536
0.634078 0.367905 1.000000
0.633390 0.500304 0.000000
0.633104 0.500018 0.100759
0.632782 0.499695 0.233523
0.632459 0.499373 0.366287
0.632136 0.499050 0.499050
0.631814 0.498728 0.631814
0.631491 0.498405 0.764577
0.631169 0.498082 0.897341
0.630882 0.497796 1.000000
0.630195 0.630195 0.000000
0.629909 0.629909 0.097564
0.629586 0.629586 0.230327
0.629264 0.629264 0.363091
0.628941 0.628941 0.495855
0.628618 0.628618 0.628618
0.628296 0.628296 0.761382
0.627973 0.627973 0.894146
0.627687 0.627687 1.000000
0.627000 0.760086 0.000000
0.626713 0.759800 0.094368
0.626391 0.759477 0.227132
0.626068 0.759154 0.359896
0.625746 0.758832 0.492659
0.625423 0.758509 0.625423
0.625100 0.758187 0.758187
0.624778 0.757864 0.890950
0.624492 0.757578 1.000000
0.623804 0.889977 0.000000
0.623518 0.889690 0.091173
0.623195 0.889368 0.223937
0.622873 0.889045 0.356700
0.622550 0.888723 0.489464
0.622228 0.888400 0.622228
0.621905 0.888078 0.754991
0.621583 0.887755 0.887755
0.621296 0.887469 1.000000
0.620968 1.000000 0.000000
0.620682 1.000000 0.088337
0.620360 1.000000 0.221101
0.620037 1.000000 0.353865
0.619714 1.000000 0.486628
0.619392 1.000000 0.619392
0.619069 1.000000 0.752156
0.618747 1.000000 0.884919
0.618460 1.000000 1.000000
0.777949 0.000000 0.000000
0.777662 0.000000 0.112231
0.777340 0.000000 0.244995
0.777017 0.000000 0.377759
0.776695 0.000000 0.510522
0.776372 0.000000 0.643286
0.776049 0.000000 0.776049
0.775727 0.000000 0.908813
0.775441 0.000000 1.000000
0.775113 0.109682 0.000000
0.774827 0.109395 0.109395
0.774504 0.109073 0.242159
0.774181 0.108750 0.374923
0.773859 0.108428 0.507686
0.773536 0.108105 0.640450
0.773214 0.107783 0.773214
0.772891 0.107460 0.905977
0.772605 0.107174 1.000000
0.771917 0.239573 0.000000
0.771631 0.239286 0.106200
0.771309 0.238964 0.238964
0.770986 0.238641 0.371727
0.770663 0.238319 0.504491
0.770341 0.237996 0.637255
0.770018 0.237673 0.770018
0.769696 0.237351 0.902782
0.769409 0.237065 1.000000
0.768722 0.369463 0.000000
0.768436 0.369177 0.103005
0.768113 0.368855 0.235768
0.767791 0.368532 0.368532
0.767468 0.368209 0.501296
0.767146 0.367887 0.634059
0.766823 0.367564 0.766823
0.766500 0.367242 0.899587
0.766214 0.366955 1.000000
0.765527 0.499354 0.000000
0.765240 0.499068 0.099809
0.764918 0.498745 0.232573
0.764595 0.498423 0.365337
0.764273 0.498100 0.498100
0.763950 0.497778 0.630864
0.763628 0.497455 0.763628
0.763305 0.497133 0.896391
0.763019 0.496846 1.000000
0.762331 0.629245 0.000000
0.762045 0.628959 0.096614
0.761723 0.628636 0.229378
0.761400 0.628314 0.362141
0.761077 0.627991 0.494905
0.760755 0.627669 0.627669
0.760432 0.627346 0.760432
0.760110 0.627023 0.893196
0.759823 0.626737 1.000000
0.759136 0.759136 0.000000
0.758850 0.758850 0.093419
0.758527 0.758527 0.226182
0.758205 0.758205 0.358946
0.757882 0.757882 0.491710
0.757559 0.757559 0.624473
0.757237 0.757237 0.757237
0.756914 0.756914 0.890000
0.756628 0.756628 1.000000
0.755941 0.889027 0.000000
0.755654 0.888741 0.090223
0.755332 0.888418 0.222987
0.755009 0.888095 0.355751
0.754687 0.887773 0.488514
0.754364 0.887450 0.621278
0.754041 0.887128 0.754041
0.753719 0.886805 0.886805
0.753433 0.886519 1.000000
0.753105 1.000000 0.000000
0.752819 1.000000 0.087387
0.752496 1.000000 0.220151
0.752173 1.000000 0.352915
0.751851 1.000000 0.485678
0.751528 1.000000 0.618442
0.751206 1.000000 0.751206
0.750883 1.000000 0.883969
0.750597 1.000000 1.000000
0.910085 0.000000 0.000000
0.909799 0.000000 0.111281
0.909476 0.000000 0.244045
0.909154 0.000000 0.376809
0.908831 0.000000 0.509572
0.908508 0.000000 0.642336
0.908186 0.000000 0.775100
0.907863 0.000000 0.907863
0.907577 0.000000 1.000000
0.907249 0.108732 0.000000
0.906963 0.108446 0.108446
0.906640 0.108123 0.241209
0.906318 0.107800 0.373973
0.905995 0.107478 0.506737
0.905673 0.107155 0.639500
0.905350 0.106833 0.772264
0.905027 0.106510 0.905027
0.904741 0.106224 1.000000
0.904054 0.238623 0.000000
0.903768 0.238336 0.105250
0.903445 0.238014 0.238014
0.903122 0.237691 0.370778
0.902800 0.237369 0.503541
0.902477 0.237046 0.636305
0.902155 0.236724 0.769068
0.901832 0.236401 0.901832
0.901546 0.236115 1.000000
0.900858 0.368514 0.000000
0.900572 0.368227 0.102055
0.900250 0.367905 0.234819
0.899927 0.367582 0.367582
0.899604 0.367260 0.500346
0.899282 0.366937 0.633109
0.898959 0.366614 0.765873
0.898637 0.366292 0.898637
0.898350 0.366006 1.000000
0.897663 0.498404 0.000000
0.897377 0.498118 0.098860
0.897054 0.497796 0.231623
0.896732 0.497473 0.364387
0.896409 0.497150 0.497150
0.896087 0.496828 0.629914
0.895764 0.496505 0.762678
0.895441 0.496183 0.895441
0.895155 0.495896 1.000000
0.894468 0.628295 0.000000
0.894181 0.628009 0.095664
0.893859 0.627686 0.228428
0.893536 0.627364 0.361191
0.893214 0.627041 0.493955
0.892891 0.626719 0.626719
0.892569 0.626396 0.759482
0.892246 0.626074 0.892246
0.891960 0.625787 1.000000
0.891272 0.758186 0.000000
0.890986 0.757900 0.092469
0.890664 0.757577 0.225232
0.890341 0.757255 0.357996
0.890018 0.756932 0.490760
0.889696 0.756610 0.623523
0.889373 0.756287 0.756287
0.889051 0.755964 0.889051
0.888764 0.755678 1.000000
0.888077 0.888077 0.000000
0.887791 0.887791 0.089273
0.887468 0.887468 0.222037
0.887146 0.887146 0.354801
0.886823 0.886823 0.487564
0.886500 0.886500 0.620328
0.886178 0.886178 0.753092
0.885855 0.885855 0.885855
0.885569 0.885569 1.000000
0.885241 1.000000 0.000000
0.884955 1.000000 0.086438
0.884632 1.000000 0.219201
0.884310 1.000000 0.351965
0.883987 1.000000 0.484729
0.883665 1.000000 0.617492
0.883342 1.000000 0.750256
0.883019 1.000000 0.883019
0.882733 1.000000 1.000000
1.000000 0.000000 0.000000
1.000000 0.000000 0.110438
1.000000 0.000000 0.243202
1.000000 0.000000 0.375966
1.000000 0.000000 0.508729
1.000000 0.000000 0.641493
1.000000 0.000000 0.774257
1.000000 0.000000 0.907020
1.000000 0.000000 1.000000
1.000000 0.107889 0.000000
1.000000 0.107603 0.107603
1.000000 0.107280 0.240366
1.000000 0.106957 0.373130
1.000000 0.106635 0.505894
1.000000 0.106312 0.638657
1.000000 0.105990 0.771421
1.000000 0.105667 0.904185
1.000000 0.105381 1.000000
1.000000 0.237780 0.000000
1.000000 0.237493 0.104407
1.000000 0.237171 0.237171
1.000000 0.236848 0.369935
1.000000 0.236526 0.502698
1.000000 0.236203 0.635462
1.000000 0.235881 0.768225
1.000000 0.235558 0.900989
1.000000 0.235272 1.000000
1.000000 0.367671 0.000000
1.000000 0.367384 0.101212
1.000000 0.367062 0.233976
1.000000 0.366739 0.366739
1.000000 0.366417 0.499503
1.000000 0.366094 0.632266
1.000000 0.365771 0.765030
1.000000 0.365449 0.897794
1.000000 0.365163 1.000000
1.000000 0.497561 0.000000
1.000000 0.497275 0.098017
1.000000 0.496953 0.230780
1.000000 0.496630 0.363544
1.000000 0.496307 0.496307
1.000000 0.495985 0.629071
1.000000 0.495662 0.761835
1.000000 0.495340 0.894598
1.000000 0.495053 1.000000
1.000000 0.627452 0.000000
1.000000 0.627166 0.094821
1.000000 0.626843 0.227585
1.000000 0.626521 0.360348
1.000000 0.626198 0.493112
1.000000 0.625876 0.625876
1.000000 0.625553 0.758639
1.000000 0.625231 0.891403
1.000000 0.624944 1.000000
1.000000 0.757343 0.000000
1.000000 0.757057 0.091626
1.000000 0.756734 0.224389
1.000000 0.756412 0.357153
1.000000 0.756089 0.489917
1.000000 0.755767 0.622680
1.000000 0.755444 0.755444
1.000000 0.755121 0.888208
1.000000 0.754835 1.000000
1.000000 0.887234 0.000000
1.000000 0.886948 0.088430
1.000000 0.886625 0.221194
1.000000 0.886303 0.353958
1.000000 0.885980 0.486721
1.000000 0.885657 0.619485
1.000000 0.885335 0.752249
1.000000 0.885012 0.885012
1.000000 0.884726 1.000000
1.000000 1.000000 0.000000
1.000000 1.000000 0.085595
1.000000 1.000000 0.218358
1.000000 1.000000 0.351122
1.000000 1.000000 0.483886
1.000000 1.000000 0.616649
1.000000 1.000000 0.749413
1.000000 1.000000 0.882177
1.000000 1.000000 1.000000
