skills/editops-orchestrator/assets/grade/luts/product_clean_v08.cube
TITLE "product_clean_v08"
LUT_3D_SIZE 17
DOMAIN_MIN 0.0 0.0 0.0
DOMAIN_MAX 1.0 1.0 1.0
0.000000 0.000000 0.000000
0.000000 0.000000 0.055557
0.000000 0.000000 0.120514
0.000000 0.000000 0.185471
0.000000 0.000000 0.250428
0.000000 0.000000 0.315384
0.000000 0.000000 0.380341
0.000000 0.000000 0.445298
0.000000 0.000000 0.510255
0.000000 0.000000 0.575211
0.000000 0.000000 0.640168
0.000000 0.000000 0.705125
0.000000 0.000000 0.770082
0.000000 0.000000 0.835038
0.000000 0.000000 0.899995
0.000000 0.000000 0.964952
0.000000 0.000000 1.000000
0.000000 0.054784 0.000000
0.000000 0.054697 0.054697
0.000000 0.054595 0.119653
0.000000 0.054493 0.184610
0.000000 0.054392 0.249567
0.000000 0.054290 0.314524
0.000000 0.054189 0.379480
0.000000 0.054087 0.444437
0.000000 0.053986 0.509394
0.000000 0.053884 0.574351
0.000000 0.053782 0.639307
0.000000 0.053681 0.704264
0.000000 0.053579 0.769221
0.000000 0.053478 0.834178
0.000000 0.053376 0.899134
0.000000 0.053274 0.964091
0.000000 0.053188 1.000000
0.000000 0.118836 0.000000
0.000000 0.118749 0.053690
0.000000 0.118647 0.118647
0.000000 0.118546 0.183604
0.000000 0.118444 0.248561
0.000000 0.118342 0.313517
0.000000 0.118241 0.378474
0.000000 0.118139 0.443431
0.000000 0.118038 0.508388
0.000000 0.117936 0.573344
0.000000 0.117834 0.638301
0.000000 0.117733 0.703258
0.000000 0.117631 0.768215
0.000000 0.117530 0.833171
0.000000 0.117428 0.898128
0.000000 0.117326 0.963085
0.000000 0.117240 1.000000
0.000000 0.182888 0.000000
0.000000 0.182801 0.052684
0.000000 0.182699 0.117641
0.000000 0.182598 0.182598
0.000000 0.182496 0.247554
0.000000 0.182394 0.312511
0.000000 0.182293 0.377468
0.000000 0.182191 0.442425
0.000000 0.182090 0.507381
0.000000 0.181988 0.572338
0.000000 0.181886 0.637295
0.000000 0.181785 0.702252
0.000000 0.181683 0.767208
0.000000 0.181582 0.832165
0.000000 0.181480 0.897122
0.000000 0.181378 0.962079
0.000000 0.181292 1.000000
0.000000 0.246940 0.000000
0.000000 0.246853 0.051678
0.000000 0.246751 0.116634
0.000000 0.246650 0.181591
0.000000 0.246548 0.246548
0.000000 0.246446 0.311505
0.000000 0.246345 0.376462
0.000000 0.246243 0.441418
0.000000 0.246142 0.506375
0.000000 0.246040 0.571332
0.000000 0.245938 0.636289
0.000000 0.245837 0.701245
0.000000 0.245735 0.766202
0.000000 0.245634 0.831159
0.000000 0.245532 0.896116
0.000000 0.245431 0.961072
0.000000 0.245344 1.000000
0.000000 0.310992 0.000000
0.000000 0.310905 0.050671
0.000000 0.310803 0.115628
0.000000 0.310702 0.180585
0.000000 0.310600 0.245542
0.000000 0.310498 0.310498
0.000000 0.310397 0.375455
0.000000 0.310295 0.440412
0.000000 0.310194 0.505369
0.000000 0.310092 0.570325
0.000000 0.309991 0.635282
0.000000 0.309889 0.700239
0.000000 0.309787 0.765196
0.000000 0.309686 0.830152
0.000000 0.309584 0.895109
0.000000 0.309483 0.960066
0.000000 0.309396 1.000000
0.000000 0.375044 0.000000
0.000000 0.374957 0.049665
0.000000 0.374855 0.114622
0.000000 0.374754 0.179579
0.000000 0.374652 0.244535
0.000000 0.374550 0.309492
0.000000 0.374449 0.374449
0.000000 0.374347 0.439406
0.000000 0.374246 0.504362
0.000000 0.374144 0.569319
0.000000 0.374043 0.634276
0.000000 0.373941 0.699233
0.000000 0.373839 0.764189
0.000000 0.373738 0.829146
0.000000 0.373636 0.894103
0.000000 0.373535 0.959060
0.000000 0.373448 1.000000
0.000000 0.439096 0.000000
0.000000 0.439009 0.048659
0.000000 0.438907 0.113616
0.000000 0.438806 0.178572
0.000000 0.438704 0.243529
0.000000 0.438603 0.308486
0.000000 0.438501 0.373443
0.000000 0.438399 0.438399
0.000000 0.438298 0.503356
0.000000 0.438196 0.568313
0.000000 0.438095 0.633270
0.000000 0.437993 0.698226
0.000000 0.437891 0.763183
0.000000 0.437790 0.828140
0.000000 0.437688 0.893097
0.000000 0.437587 0.958053
0.000000 0.437500 1.000000
0.000000 0.503148 0.000000
0.000000 0.503061 0.047652
0.000000 0.502959 0.112609
0.000000 0.502858 0.177566
0.000000 0.502756 0.242523
0.000000 0.502655 0.307480
0.000000 0.502553 0.372436
0.000000 0.502451 0.437393
0.000000 0.502350 0.502350
0.000000 0.502248 0.567307
0.000000 0.502147 0.632263
0.000000 0.502045 0.697220
0.000000 0.501943 0.762177
0.000000 0.501842 0.827134
0.000000 0.501740 0.892090
0.000000 0.501639 0.957047
0.000000 0.501552 1.000000
0.000000 0.567200 0.000000
0.000000 0.567113 0.046646
0.000000 0.567011 0.111603
0.000000 0.566910 0.176560
0.000000 0.566808 0.241516
0.000000 0.566707 0.306473
0.000000 0.566605 0.371430
0.000000 0.566503 0.436387
0.000000 0.566402 0.501343
0.000000 0.566300 0.566300
0.000000 0.566199 0.631257
0.000000 0.566097 0.696214
0.000000 0.565995 0.761171
0.000000 0.565894 0.826127
0.000000 0.565792 0.891084
0.000000 0.565691 0.956041
0.000000 0.565604 1.000000
0.000000 0.631252 0.000000
0.000000 0.631165 0.045640
0.000000 0.631063 0.110597
0.000000 0.630962 0.175553
0.000000 0.630860 0.240510
0.000000 0.630759 0.305467
0.000000 0.630657 0.370424
0.000000 0.630555 0.435380
0.000000 0.630454 0.500337
0.000000 0.630352 0.565294
0.000000 0.630251 0.630251
0.000000 0.630149 0.695207
0.000000 0.630048 0.760164
0.000000 0.629946 0.825121
0.000000 0.629844 0.890078
0.000000 0.629743 0.955034
0.000000 0.629656 1.000000
0.000000 0.695304 0.000000
0.000000 0.695217 0.044634
0.000000 0.695115 0.109590
0.000000 0.695014 0.174547
0.000000 0.694912 0.239504
0.000000 0.694811 0.304461
0.000000 0.694709 0.369417
0.000000 0.694607 0.434374
0.000000 0.694506 0.499331
0.000000 0.694404 0.564288
0.000000 0.694303 0.629244
0.000000 0.694201 0.694201
0.000000 0.694100 0.759158
0.000000 0.693998 0.824115
0.000000 0.693896 0.889071
0.000000 0.693795 0.954028
0.000000 0.693708 1.000000
0.000000 0.759356 0.000000
0.000000 0.759269 0.043627
0.000000 0.759167 0.108584
0.000000 0.759066 0.173541
0.000000 0.758964 0.238498
0.000000 0.758863 0.303454
0.000000 0.758761 0.368411
0.000000 0.758660 0.433368
0.000000 0.758558 0.498325
0.000000 0.758456 0.563281
0.000000 0.758355 0.628238
0.000000 0.758253 0.693195
0.000000 0.758152 0.758152
0.000000 0.758050 0.823108
0.000000 0.757948 0.888065
0.000000 0.757847 0.953022
0.000000 0.757760 1.000000
0.000000 0.823408 0.000000
0.000000 0.823321 0.042621
0.000000 0.823220 0.107578
0.000000 0.823118 0.172534
0.000000 0.823016 0.237491
0.000000 0.822915 0.302448
0.000000 0.822813 0.367405
0.000000 0.822712 0.432361
0.000000 0.822610 0.497318
0.000000 0.822508 0.562275
0.000000 0.822407 0.627232
0.000000 0.822305 0.692189
0.000000 0.822204 0.757145
0.000000 0.822102 0.822102
0.000000 0.822000 0.887059
0.000000 0.821899 0.952016
0.000000 0.821812 1.000000
0.000000 0.887460 0.000000
0.000000 0.887373 0.041615
0.000000 0.887272 0.106571
0.000000 0.887170 0.171528
0.000000 0.887068 0.236485
0.000000 0.886967 0.301442
0.000000 0.886865 0.366398
0.000000 0.886764 0.431355
0.000000 0.886662 0.496312
0.000000 0.886560 0.561269
0.000000 0.886459 0.626225
0.000000 0.886357 0.691182
0.000000 0.886256 0.756139
0.000000 0.886154 0.821096
0.000000 0.886052 0.886052
0.000000 0.885951 0.951009
0.000000 0.885864 1.000000
0.000000 0.951512 0.000000
0.000000 0.951425 0.040608
0.000000 0.951324 0.105565
0.000000 0.951222 0.170522
0.000000 0.951120 0.235479
0.000000 0.951019 0.300435
0.000000 0.950917 0.365392
0.000000 0.950816 0.430349
0.000000 0.950714 0.495306
0.000000 0.950612 0.560262
0.000000 0.950511 0.625219
0.000000 0.950409 0.690176
0.000000 0.950308 0.755133
0.000000 0.950206 0.820089
0.000000 0.950105 0.885046
0.000000 0.950003 0.950003
0.000000 0.949916 1.000000
0.000000 1.000000 0.000000
0.000000 1.000000 0.039748
0.000000 1.000000 0.104704
0.000000 1.000000 0.169661
0.000000 1.000000 0.234618
0.000000 1.000000 0.299575
0.000000 1.000000 0.364531
0.000000 1.000000 0.429488
0.000000 1.000000 0.494445
0.000000 1.000000 0.559402
0.000000 1.000000 0.624358
0.000000 1.000000 0.689315
0.000000 1.000000 0.754272
0.000000 1.000000 0.819229
0.000000 1.000000 0.884185
0.000000 1.000000 0.949142
0.000000 1.000000 1.000000
0.055388 0.000000 0.000000
0.055301 0.000000 0.055301
0.055200 0.000000 0.120258
0.055098 0.000000 0.185215
0.054997 0.000000 0.250172
0.054895 0.000000 0.315129
0.054794 0.000000 0.380085
0.054692 0.000000 0.445042
0.054590 0.000000 0.509999
0.054489 0.000000 0.574956
0.054387 0.000000 0.639912
0.054286 0.000000 0.704869
0.054184 0.000000 0.769826
0.054082 0.000000 0.834783
0.053981 0.000000 0.899739
0.053879 0.000000 0.964696
0.053792 0.000000 1.000000
0.054528 0.054528 0.000000
0.054441 0.054441 0.054441
0.054339 0.054339 0.119398
0.054238 0.054238 0.184354
0.054136 0.054136 0.249311
0.054034 0.054034 0.314268
0.053933 0.053933 0.379225
0.053831 0.053831 0.444181
0.053730 0.053730 0.509138
0.053628 0.053628 0.574095
0.053527 0.053527 0.639052
0.053425 0.053425 0.704008
0.053323 0.053323 0.768965
0.053222 0.053222 0.833922
0.053120 0.053120 0.898879
0.053019 0.053019 0.963835
0.052932 0.052932 1.000000
0.053521 0.118580 0.000000
0.053434 0.118493 0.053434
0.053333 0.118391 0.118391
0.053231 0.118290 0.183348
0.053130 0.118188 0.248305
0.053028 0.118086 0.313262
0.052927 0.117985 0.378218
0.052825 0.117883 0.443175
0.052723 0.117782 0.508132
0.052622 0.117680 0.573089
0.052520 0.117579 0.638045
0.052419 0.117477 0.703002
0.052317 0.117375 0.767959
0.052215 0.117274 0.832916
0.052114 0.117172 0.897872
0.052012 0.117071 0.962829
0.051925 0.116984 1.000000
0.052515 0.182632 0.000000
0.052428 0.182545 0.052428
0.052327 0.182443 0.117385
0.052225 0.182342 0.182342
0.052123 0.182240 0.247298
0.052022 0.182139 0.312255
0.051920 0.182037 0.377212
0.051819 0.181935 0.442169
0.051717 0.181834 0.507125
0.051615 0.181732 0.572082
0.051514 0.181631 0.637039
0.051412 0.181529 0.701996
0.051311 0.181427 0.766953
0.051209 0.181326 0.831909
0.051108 0.181224 0.896866
0.051006 0.181123 0.961823
0.050919 0.181036 1.000000
0.051509 0.246684 0.000000
0.051422 0.246597 0.051422
0.051320 0.246495 0.116379
0.051219 0.246394 0.181335
0.051117 0.246292 0.246292
0.051016 0.246191 0.311249
0.050914 0.246089 0.376206
0.050812 0.245987 0.441162
0.050711 0.245886 0.506119
0.050609 0.245784 0.571076
0.050508 0.245683 0.636033
0.050406 0.245581 0.700989
0.050304 0.245479 0.765946
0.050203 0.245378 0.830903
0.050101 0.245276 0.895860
0.050000 0.245175 0.960816
0.049913 0.245088 1.000000
0.050502 0.310736 0.000000
0.050416 0.310649 0.050416
0.050314 0.310547 0.115372
0.050212 0.310446 0.180329
0.050111 0.310344 0.245286
0.050009 0.310243 0.310243
0.049908 0.310141 0.375199
0.049806 0.310039 0.440156
0.049704 0.309938 0.505113
0.049603 0.309836 0.570070
0.049501 0.309735 0.635026
0.049400 0.309633 0.699983
0.049298 0.309531 0.764940
0.049197 0.309430 0.829897
0.049095 0.309328 0.894853
0.048993 0.309227 0.959810
0.048906 0.309140 1.000000
0.049496 0.374788 0.000000
0.049409 0.374701 0.049409
0.049308 0.374599 0.114366
0.049206 0.374498 0.179323
0.049104 0.374396 0.244280
0.049003 0.374295 0.309236
0.048901 0.374193 0.374193
0.048800 0.374091 0.439150
0.048698 0.373990 0.504107
0.048597 0.373888 0.569063
0.048495 0.373787 0.634020
0.048393 0.373685 0.698977
0.048292 0.373584 0.763934
0.048190 0.373482 0.828890
0.048089 0.373380 0.893847
0.047987 0.373279 0.958804
0.047900 0.373192 1.000000
0.048490 0.438840 0.000000
0.048403 0.438753 0.048403
0.048301 0.438651 0.113360
0.048200 0.438550 0.178316
0.048098 0.438448 0.243273
0.047997 0.438347 0.308230
0.047895 0.438245 0.373187
0.047793 0.438143 0.438143
0.047692 0.438042 0.503100
0.047590 0.437940 0.568057
0.047489 0.437839 0.633014
0.047387 0.437737 0.697971
0.047285 0.437636 0.762927
0.047184 0.437534 0.827884
0.047082 0.437432 0.892841
0.046981 0.437331 0.957798
0.046894 0.437244 1.000000
0.047484 0.502892 0.000000
0.047397 0.502805 0.047397
0.047295 0.502703 0.112353
0.047193 0.502602 0.177310
0.047092 0.502500 0.242267
0.046990 0.502399 0.307224
0.046889 0.502297 0.372180
0.046787 0.502196 0.437137
0.046686 0.502094 0.502094
0.046584 0.501992 0.567051
0.046482 0.501891 0.632007
0.046381 0.501789 0.696964
0.046279 0.501688 0.761921
0.046178 0.501586 0.826878
0.046076 0.501484 0.891834
0.045974 0.501383 0.956791
0.045888 0.501296 1.000000
0.046477 0.566944 0.000000
0.046390 0.566857 0.046390
0.046289 0.566756 0.111347
0.046187 0.566654 0.176304
0.046086 0.566552 0.241261
0.045984 0.566451 0.306217
0.045882 0.566349 0.371174
0.045781 0.566248 0.436131
0.045679 0.566146 0.501088
0.045578 0.566044 0.566044
0.045476 0.565943 0.631001
0.045374 0.565841 0.695958
0.045273 0.565740 0.760915
0.045171 0.565638 0.825871
0.045070 0.565536 0.890828
0.044968 0.565435 0.955785
0.044881 0.565348 1.000000
0.045471 0.630996 0.000000
0.045384 0.630909 0.045384
0.045282 0.630808 0.110341
0.045181 0.630706 0.175298
0.045079 0.630604 0.240254
0.044978 0.630503 0.305211
0.044876 0.630401 0.370168
0.044774 0.630300 0.435125
0.044673 0.630198 0.500081
0.044571 0.630096 0.565038
0.044470 0.629995 0.629995
0.044368 0.629893 0.694952
0.044267 0.629792 0.759908
0.044165 0.629690 0.824865
0.044063 0.629588 0.889822
0.043962 0.629487 0.954779
0.043875 0.629400 1.000000
0.044465 0.695048 0.000000
0.044378 0.694961 0.044378
0.044276 0.694860 0.109334
0.044175 0.694758 0.174291
0.044073 0.694656 0.239248
0.043971 0.694555 0.304205
0.043870 0.694453 0.369162
0.043768 0.694352 0.434118
0.043667 0.694250 0.499075
0.043565 0.694148 0.564032
0.043463 0.694047 0.628989
0.043362 0.693945 0.693945
0.043260 0.693844 0.758902
0.043159 0.693742 0.823859
0.043057 0.693641 0.888816
0.042955 0.693539 0.953772
0.042869 0.693452 1.000000
0.043458 0.759100 0.000000
0.043371 0.759013 0.043371
0.043270 0.758912 0.108328
0.043168 0.758810 0.173285
0.043067 0.758708 0.238242
0.042965 0.758607 0.303198
0.042863 0.758505 0.368155
0.042762 0.758404 0.433112
0.042660 0.758302 0.498069
0.042559 0.758201 0.563025
0.042457 0.758099 0.627982
0.042356 0.757997 0.692939
0.042254 0.757896 0.757896
0.042152 0.757794 0.822852
0.042051 0.757693 0.887809
0.041949 0.757591 0.952766
0.041862 0.757504 1.000000
0.042452 0.823152 0.000000
0.042365 0.823065 0.042365
0.042264 0.822964 0.107322
0.042162 0.822862 0.172279
0.042060 0.822760 0.237235
0.041959 0.822659 0.302192
0.041857 0.822557 0.367149
0.041756 0.822456 0.432106
0.041654 0.822354 0.497062
0.041552 0.822253 0.562019
0.041451 0.822151 0.626976
0.041349 0.822049 0.691933
0.041248 0.821948 0.756889
0.041146 0.821846 0.821846
0.041044 0.821745 0.886803
0.040943 0.821643 0.951760
0.040856 0.821556 1.000000
0.041446 0.887204 0.000000
0.041359 0.887117 0.041359
0.041257 0.887016 0.106316
0.041156 0.886914 0.171272
0.041054 0.886813 0.236229
0.040952 0.886711 0.301186
0.040851 0.886609 0.366143
0.040749 0.886508 0.431099
0.040648 0.886406 0.496056
0.040546 0.886305 0.561013
0.040445 0.886203 0.625970
0.040343 0.886101 0.690926
0.040241 0.886000 0.755883
0.040140 0.885898 0.820840
0.040038 0.885797 0.885797
0.039937 0.885695 0.950753
0.039850 0.885608 1.000000
0.040439 0.951256 0.000000
0.040352 0.951169 0.040352
0.040251 0.951068 0.105309
0.040149 0.950966 0.170266
0.040048 0.950865 0.235223
0.039946 0.950763 0.300180
0.039845 0.950661 0.365136
0.039743 0.950560 0.430093
0.039641 0.950458 0.495050
0.039540 0.950357 0.560007
0.039438 0.950255 0.624963
0.039337 0.950153 0.689920
0.039235 0.950052 0.754877
0.039133 0.949950 0.819834
0.039032 0.949849 0.884790
0.038930 0.949747 0.949747
0.038843 0.949660 1.000000
0.039579 1.000000 0.000000
0.039492 1.000000 0.039492
0.039390 1.000000 0.104449
0.039289 1.000000 0.169405
0.039187 1.000000 0.234362
0.039085 1.000000 0.299319
0.038984 1.000000 0.364276
0.038882 1.000000 0.429232
0.038781 1.000000 0.494189
0.038679 1.000000 0.559146
0.038578 1.000000 0.624103
0.038476 1.000000 0.689059
0.038374 1.000000 0.754016
0.038273 1.000000 0.818973
0.038171 1.000000 0.883930
0.038070 1.000000 0.948886
0.037983 1.000000 1.000000
0.120148 0.000000 0.000000
0.120061 0.000000 0.055002
0.119959 0.000000 0.119959
0.119858 0.000000 0.184916
0.119756 0.000000 0.249873
0.119654 0.000000 0.314829
0.119553 0.000000 0.379786
0.119451 0.000000 0.444743
0.119350 0.000000 0.509700
0.119248 0.000000 0.574656
0.119146 0.000000 0.639613
0.119045 0.000000 0.704570
0.118943 0.000000 0.769527
0.118842 0.000000 0.834483
0.118740 0.000000 0.899440
0.118638 0.000000 0.964397
0.118552 0.000000 1.000000
0.119287 0.054229 0.000000
0.119200 0.054142 0.054142
0.119098 0.054040 0.119098
0.118997 0.053938 0.184055
0.118895 0.053837 0.249012
0.118794 0.053735 0.313969
0.118692 0.053634 0.378925
0.118590 0.053532 0.443882
0.118489 0.053431 0.508839
0.118387 0.053329 0.573796
0.118286 0.053227 0.638752
0.118184 0.053126 0.703709
0.118083 0.053024 0.768666
0.117981 0.052923 0.833623
0.117879 0.052821 0.898580
0.117778 0.052719 0.963536
0.117691 0.052633 1.000000
0.118281 0.118281 0.000000
0.118194 0.118194 0.053135
0.118092 0.118092 0.118092
0.117991 0.117991 0.183049
0.117889 0.117889 0.248006
0.117787 0.117787 0.312962
0.117686 0.117686 0.377919
0.117584 0.117584 0.442876
0.117483 0.117483 0.507833
0.117381 0.117381 0.572789
0.117279 0.117279 0.637746
0.117178 0.117178 0.702703
0.117076 0.117076 0.767660
0.116975 0.116975 0.832616
0.116873 0.116873 0.897573
0.116771 0.116771 0.962530
0.116685 0.116685 1.000000
0.117274 0.182333 0.000000
0.117187 0.182246 0.052129
0.117086 0.182144 0.117086
0.116984 0.182043 0.182043
0.116883 0.181941 0.246999
0.116781 0.181839 0.311956
0.116679 0.181738 0.376913
0.116578 0.181636 0.441870
0.116476 0.181535 0.506826
0.116375 0.181433 0.571783
0.116273 0.181331 0.636740
0.116172 0.181230 0.701697
0.116070 0.181128 0.766653
0.115968 0.181027 0.831610
0.115867 0.180925 0.896567
0.115765 0.180824 0.961524
0.115678 0.180737 1.000000
0.116268 0.246385 0.000000
0.116181 0.246298 0.051123
0.116079 0.246196 0.116079
0.115978 0.246095 0.181036
0.115876 0.245993 0.245993
0.115775 0.245891 0.310950
0.115673 0.245790 0.375907
0.115572 0.245688 0.440863
0.115470 0.245587 0.505820
0.115368 0.245485 0.570777
0.115267 0.245383 0.635734
0.115165 0.245282 0.700690
0.115064 0.245180 0.765647
0.114962 0.245079 0.830604
0.114860 0.244977 0.895561
0.114759 0.244876 0.960517
0.114672 0.244789 1.000000
0.115262 0.310437 0.000000
0.115175 0.310350 0.050116
0.115073 0.310248 0.115073
0.114972 0.310147 0.180030
0.114870 0.310045 0.244987
0.114768 0.309943 0.309943
0.114667 0.309842 0.374900
0.114565 0.309740 0.439857
0.114464 0.309639 0.504814
0.114362 0.309537 0.569770
0.114260 0.309436 0.634727
0.114159 0.309334 0.699684
0.114057 0.309232 0.764641
0.113956 0.309131 0.829598
0.113854 0.309029 0.894554
0.113753 0.308928 0.959511
0.113666 0.308841 1.000000
0.114255 0.374489 0.000000
0.114168 0.374402 0.049110
0.114067 0.374300 0.114067
0.113965 0.374199 0.179024
0.113864 0.374097 0.243980
0.113762 0.373995 0.308937
0.113661 0.373894 0.373894
0.113559 0.373792 0.438851
0.113457 0.373691 0.503807
0.113356 0.373589 0.568764
0.113254 0.373488 0.633721
0.113153 0.373386 0.698678
0.113051 0.373284 0.763634
0.112949 0.373183 0.828591
0.112848 0.373081 0.893548
0.112746 0.372980 0.958505
0.112659 0.372893 1.000000
0.113249 0.438541 0.000000
0.113162 0.438454 0.048104
0.113061 0.438352 0.113061
0.112959 0.438251 0.178017
0.112857 0.438149 0.242974
0.112756 0.438048 0.307931
0.112654 0.437946 0.372888
0.112553 0.437844 0.437844
0.112451 0.437743 0.502801
0.112349 0.437641 0.567758
0.112248 0.437540 0.632715
0.112146 0.437438 0.697671
0.112045 0.437336 0.762628
0.111943 0.437235 0.827585
0.111842 0.437133 0.892542
0.111740 0.437032 0.957498
0.111653 0.436945 1.000000
0.112243 0.502593 0.000000
0.112156 0.502506 0.047098
0.112054 0.502404 0.112054
0.111953 0.502303 0.177011
0.111851 0.502201 0.241968
0.111749 0.502100 0.306925
0.111648 0.501998 0.371881
0.111546 0.501896 0.436838
0.111445 0.501795 0.501795
0.111343 0.501693 0.566752
0.111242 0.501592 0.631708
0.111140 0.501490 0.696665
0.111038 0.501388 0.761622
0.110937 0.501287 0.826579
0.110835 0.501185 0.891535
0.110734 0.501084 0.956492
0.110647 0.500997 1.000000
0.111236 0.566645 0.000000
0.111150 0.566558 0.046091
0.111048 0.566456 0.111048
0.110946 0.566355 0.176005
0.110845 0.566253 0.240961
0.110743 0.566152 0.305918
0.110642 0.566050 0.370875
0.110540 0.565948 0.435832
0.110438 0.565847 0.500788
0.110337 0.565745 0.565745
0.110235 0.565644 0.630702
0.110134 0.565542 0.695659
0.110032 0.565440 0.760616
0.109930 0.565339 0.825572
0.109829 0.565237 0.890529
0.109727 0.565136 0.955486
0.109640 0.565049 1.000000
0.110230 0.630697 0.000000
0.110143 0.630610 0.045085
0.110042 0.630508 0.110042
0.109940 0.630407 0.174998
0.109838 0.630305 0.239955
0.109737 0.630204 0.304912
0.109635 0.630102 0.369869
0.109534 0.630000 0.434825
0.109432 0.629899 0.499782
0.109331 0.629797 0.564739
0.109229 0.629696 0.629696
0.109127 0.629594 0.694652
0.109026 0.629493 0.759609
0.108924 0.629391 0.824566
0.108823 0.629289 0.889523
0.108721 0.629188 0.954479
0.108634 0.629101 1.000000
0.109224 0.694749 0.000000
0.109137 0.694662 0.044079
0.109035 0.694560 0.109035
0.108934 0.694459 0.173992
0.108832 0.694357 0.238949
0.108731 0.694256 0.303906
0.108629 0.694154 0.368862
0.108527 0.694053 0.433819
0.108426 0.693951 0.498776
0.108324 0.693849 0.563733
0.108223 0.693748 0.628689
0.108121 0.693646 0.693646
0.108019 0.693545 0.758603
0.107918 0.693443 0.823560
0.107816 0.693341 0.888516
0.107715 0.693240 0.953473
0.107628 0.693153 1.000000
0.108218 0.758801 0.000000
0.108131 0.758714 0.043072
0.108029 0.758612 0.108029
0.107927 0.758511 0.172986
0.107826 0.758409 0.237943
0.107724 0.758308 0.302899
0.107623 0.758206 0.367856
0.107521 0.758105 0.432813
0.107420 0.758003 0.497770
0.107318 0.757901 0.562726
0.107216 0.757800 0.627683
0.107115 0.757698 0.692640
0.107013 0.757597 0.757597
0.106912 0.757495 0.822553
0.106810 0.757393 0.887510
0.106708 0.757292 0.952467
0.106622 0.757205 1.000000
0.107211 0.822853 0.000000
0.107124 0.822766 0.042066
0.107023 0.822665 0.107023
0.106921 0.822563 0.171979
0.106820 0.822461 0.236936
0.106718 0.822360 0.301893
0.106616 0.822258 0.366850
0.106515 0.822157 0.431807
0.106413 0.822055 0.496763
0.106312 0.821953 0.561720
0.106210 0.821852 0.626677
0.106108 0.821750 0.691634
0.106007 0.821649 0.756590
0.105905 0.821547 0.821547
0.105804 0.821445 0.886504
0.105702 0.821344 0.951461
0.105615 0.821257 1.000000
0.106205 0.886905 0.000000
0.106118 0.886818 0.041060
0.106016 0.886717 0.106016
0.105915 0.886615 0.170973
0.105813 0.886513 0.235930
0.105712 0.886412 0.300887
0.105610 0.886310 0.365843
0.105508 0.886209 0.430800
0.105407 0.886107 0.495757
0.105305 0.886005 0.560714
0.105204 0.885904 0.625670
0.105102 0.885802 0.690627
0.105001 0.885701 0.755584
0.104899 0.885599 0.820541
0.104797 0.885498 0.885498
0.104696 0.885396 0.950454
0.104609 0.885309 1.000000
0.105199 0.950957 0.000000
0.105112 0.950870 0.040053
0.105010 0.950769 0.105010
0.104909 0.950667 0.169967
0.104807 0.950565 0.234924
0.104705 0.950464 0.299880
0.104604 0.950362 0.364837
0.104502 0.950261 0.429794
0.104401 0.950159 0.494751
0.104299 0.950057 0.559707
0.104197 0.949956 0.624664
0.104096 0.949854 0.689621
0.103994 0.949753 0.754578
0.103893 0.949651 0.819534
0.103791 0.949550 0.884491
0.103689 0.949448 0.949448
0.103603 0.949361 1.000000
0.104338 1.000000 0.000000
0.104251 1.000000 0.039193
0.104149 1.000000 0.104149
0.104048 1.000000 0.169106
0.103946 1.000000 0.234063
0.103845 1.000000 0.299020
0.103743 1.000000 0.363976
0.103641 1.000000 0.428933
0.103540 1.000000 0.493890
0.103438 1.000000 0.558847
0.103337 1.000000 0.623803
0.103235 1.000000 0.688760
0.103134 1.000000 0.753717
0.103032 1.000000 0.818674
0.102930 1.000000 0.883631
0.102829 1.000000 0.948587
0.102742 1.000000 1.000000
0.184907 0.000000 0.000000
0.184820 0.000000 0.054703
0.184718 0.000000 0.119660
0.184617 0.000000 0.184617
0.184515 0.000000 0.249573
0.184414 0.000000 0.314530
0.184312 0.000000 0.379487
0.184210 0.000000 0.444444
0.184109 0.000000 0.509401
0.184007 0.000000 0.574357
0.183906 0.000000 0.639314
0.183804 0.000000 0.704271
0.183702 0.000000 0.769228
0.183601 0.000000 0.834184
0.183499 0.000000 0.899141
0.183398 0.000000 0.964098
0.183311 0.000000 1.000000
0.184046 0.053929 0.000000
