skills/editops-orchestrator/assets/grade/luts/soft_pastel_v07.cube
TITLE "soft_pastel_v07"
LUT_3D_SIZE 5
DOMAIN_MIN 0.0 0.0 0.0
DOMAIN_MAX 1.0 1.0 1.0
0.040275 0.037355 0.034427
0.042410 0.039491 0.257896
0.044472 0.041553 0.473614
0.046501 0.043582 0.685910
0.048497 0.045578 0.894780
0.061412 0.279627 0.055565
0.063548 0.281763 0.279033
0.065610 0.283824 0.494751
0.067639 0.285853 0.707047
0.069635 0.287850 0.915918
0.081830 0.513645 0.075982
0.083966 0.515781 0.299451
0.086027 0.517843 0.515169
0.088056 0.519872 0.727465
0.090053 0.521868 0.936335
0.101925 0.743974 0.096078
0.104061 0.746110 0.319547
0.106123 0.748172 0.535265
0.108152 0.750201 0.747561
0.110148 0.752197 0.956431
0.121448 0.967731 0.115600
0.123584 0.969866 0.339069
0.125645 0.971928 0.554787
0.127674 0.973957 0.767083
0.129670 0.975953 0.975953
0.267496 0.043633 0.040705
0.269631 0.045769 0.264174
0.271693 0.047831 0.479892
0.273722 0.049860 0.692188
0.275718 0.051856 0.901058
0.288633 0.285905 0.061842
0.290769 0.288041 0.285311
0.292831 0.290102 0.501029
0.294860 0.292131 0.713325
0.296856 0.294128 0.922196
0.309051 0.519923 0.082260
0.311187 0.522059 0.305729
0.313248 0.524121 0.521447
0.315277 0.526150 0.733743
0.317274 0.528146 0.942613
0.329147 0.750252 0.102356
0.331282 0.752388 0.325824
0.333344 0.754450 0.541543
0.335373 0.756479 0.753839
0.337369 0.758475 0.962709
0.348669 0.974009 0.121878
0.350805 0.976144 0.345347
0.352866 0.978206 0.561065
0.354895 0.980235 0.773361
0.356892 0.982231 0.982231
0.487109 0.049701 0.046773
0.489244 0.051837 0.270241
0.491306 0.053898 0.485959
0.493335 0.055927 0.698255
0.495331 0.057924 0.907126
0.508246 0.291973 0.067910
0.510382 0.294108 0.291379
0.512444 0.296170 0.507097
0.514473 0.298199 0.719393
0.516469 0.300195 0.928264
0.528664 0.525991 0.088328
0.530800 0.528127 0.311797
0.532861 0.530188 0.527515
0.534890 0.532217 0.739811
0.536887 0.534214 0.948681
0.548760 0.756320 0.108424
0.550895 0.758456 0.331892
0.552957 0.760517 0.547610
0.554986 0.762546 0.759906
0.556982 0.764543 0.968777
0.568282 0.980076 0.127946
0.570418 0.982212 0.351414
0.572479 0.984274 0.567133
0.574508 0.986303 0.779429
0.576505 0.988299 0.988299
0.703282 0.055673 0.052745
0.705417 0.057809 0.276214
0.707479 0.059871 0.491932
0.709508 0.061900 0.704228
0.711504 0.063896 0.913099
0.724419 0.297945 0.073883
0.726555 0.300081 0.297352
0.728617 0.302143 0.513070
0.730646 0.304172 0.725366
0.732642 0.306168 0.934236
0.744837 0.531963 0.094300
0.746973 0.534099 0.317769
0.749034 0.536161 0.533487
0.751063 0.538190 0.745783
0.753060 0.540186 0.954654
0.764933 0.762293 0.114396
0.767068 0.764428 0.337865
0.769130 0.766490 0.553583
0.771159 0.768519 0.765879
0.773155 0.770515 0.974750
0.784455 0.986049 0.133918
0.786591 0.988185 0.357387
0.788652 0.990247 0.573105
0.790681 0.992276 0.785401
0.792678 0.994272 0.994272
0.910604 0.061402 0.058473
0.912740 0.063537 0.281942
0.914802 0.065599 0.497660
0.916831 0.067628 0.709956
0.918827 0.069624 0.918827
0.931742 0.303673 0.079611
0.933877 0.305809 0.303080
0.935939 0.307871 0.518798
0.937968 0.309900 0.731094
0.939964 0.311896 0.939964
0.952159 0.537692 0.100029
0.954295 0.539827 0.323497
0.956357 0.541889 0.539216
0.958386 0.543918 0.751511
0.960382 0.545914 0.960382
0.972255 0.768021 0.120124
0.974391 0.770157 0.343593
0.976452 0.772218 0.559311
0.978481 0.774247 0.771607
0.980478 0.776244 0.980478
0.991777 0.991777 0.139647
0.993913 0.993913 0.363115
0.995975 0.995975 0.578834
0.998004 0.998004 0.791129
1.000000 1.000000 1.000000
