skills/editops-orchestrator/assets/grade/luts/soft_pastel_v13.cube
TITLE "soft_pastel_v13"
LUT_3D_SIZE 17
DOMAIN_MIN 0.0 0.0 0.0
DOMAIN_MAX 1.0 1.0 1.0
0.064581 0.059052 0.053494
0.065300 0.059771 0.108203
0.066000 0.060471 0.161441
0.066689 0.061160 0.213793
0.067369 0.061840 0.265512
0.068042 0.062513 0.316739
0.068710 0.063181 0.367563
0.069374 0.063845 0.418046
0.070034 0.064505 0.468236
0.070691 0.065162 0.518166
0.071344 0.065815 0.567865
0.071995 0.066466 0.617355
0.072643 0.067114 0.666654
0.073289 0.067760 0.715779
0.073933 0.068404 0.764743
0.074575 0.069046 0.813557
0.075215 0.069686 0.862230
0.071681 0.119944 0.060593
0.072400 0.120663 0.115303
0.073100 0.121363 0.168540
0.073788 0.122052 0.220893
0.074468 0.122732 0.272612
0.075142 0.123405 0.323839
0.075810 0.124073 0.374662
0.076474 0.124737 0.425146
0.077134 0.125397 0.475335
0.077790 0.126054 0.525265
0.078444 0.126707 0.574964
0.079094 0.127358 0.624454
0.079743 0.128006 0.673754
0.080389 0.128652 0.722879
0.081032 0.129296 0.771843
0.081674 0.129938 0.820656
0.082314 0.130578 0.869330
0.078601 0.179296 0.067513
0.079320 0.180015 0.122223
0.080020 0.180715 0.175460
0.080708 0.181404 0.227813
0.081388 0.182084 0.279532
0.082062 0.182757 0.330759
0.082730 0.183425 0.381582
0.083394 0.184089 0.432066
0.084054 0.184749 0.482255
0.084710 0.185406 0.532185
0.085364 0.186059 0.581884
0.086015 0.186710 0.631374
0.086663 0.187358 0.680674
0.087309 0.188004 0.729799
0.087952 0.188648 0.778763
0.088594 0.189290 0.827576
0.089234 0.189930 0.876250
0.085410 0.237698 0.074322
0.086129 0.238417 0.129032
0.086829 0.239117 0.182270
0.087518 0.239805 0.234622
0.088198 0.240485 0.286341
0.088871 0.241159 0.337568
0.089539 0.241827 0.388392
0.090203 0.242491 0.438875
0.090863 0.243151 0.489065
0.091520 0.243807 0.538995
0.092173 0.244461 0.588694
0.092824 0.245112 0.638184
0.093472 0.245760 0.687483
0.094118 0.246406 0.736608
0.094762 0.247050 0.785572
0.095404 0.247691 0.834386
0.096044 0.248331 0.883059
0.092139 0.295412 0.081052
0.092858 0.296131 0.135761
0.093558 0.296831 0.188999
0.094247 0.297519 0.241351
0.094927 0.298199 0.293070
0.095600 0.298873 0.344297
0.096268 0.299541 0.395121
0.096932 0.300205 0.445604
0.097592 0.300865 0.495794
0.098249 0.301521 0.545724
0.098902 0.302175 0.595423
0.099553 0.302826 0.644913
0.100201 0.303474 0.694212
0.100847 0.304120 0.743337
0.101491 0.304763 0.792301
0.102133 0.305405 0.841115
0.102773 0.306045 0.889788
0.098805 0.352587 0.087718
0.099525 0.353307 0.142428
0.100225 0.354007 0.195665
0.100913 0.354695 0.248018
0.101593 0.355375 0.299737
0.102267 0.356049 0.350963
0.102935 0.356717 0.401787
0.103599 0.357381 0.452271
0.104259 0.358040 0.502460
0.104915 0.358697 0.552390
0.105568 0.359350 0.602089
0.106219 0.360001 0.651579
0.106867 0.360649 0.700879
0.107513 0.361295 0.750004
0.108157 0.361939 0.798967
0.108799 0.362581 0.847781
0.109439 0.363221 0.896455
0.105420 0.409321 0.094333
0.106139 0.410041 0.149042
0.106839 0.410741 0.202280
0.107528 0.411429 0.254632
0.108208 0.412109 0.306352
0.108881 0.412782 0.357578
0.109550 0.413451 0.408402
0.110213 0.414114 0.458885
0.110873 0.414774 0.509075
0.111530 0.415431 0.559005
0.112183 0.416084 0.608704
0.112834 0.416735 0.658194
0.113482 0.417383 0.707494
0.114128 0.418029 0.756619
0.114772 0.418673 0.805582
0.115414 0.419315 0.854396
0.116054 0.419955 0.903069
0.111991 0.465681 0.100904
0.112711 0.466400 0.155614
0.113411 0.467100 0.208851
0.114099 0.467789 0.261204
0.114779 0.468469 0.312923
0.115453 0.469142 0.364149
0.116121 0.469810 0.414973
0.116785 0.470474 0.465457
0.117445 0.471134 0.515646
0.118101 0.471791 0.565576
0.118755 0.472444 0.615275
0.119405 0.473095 0.664765
0.120053 0.473743 0.714065
0.120699 0.474389 0.763190
0.121343 0.475033 0.812153
0.121985 0.475675 0.860967
0.122625 0.476315 0.909641
0.118525 0.521716 0.107437
0.119244 0.522436 0.162147
0.119944 0.523136 0.215384
0.120632 0.523824 0.267737
0.121312 0.524504 0.319456
0.121986 0.525178 0.370683
0.122654 0.525846 0.421506
0.123318 0.526510 0.471990
0.123978 0.527170 0.522179
0.124634 0.527826 0.572110
0.125288 0.528480 0.621808
0.125939 0.529130 0.671298
0.126587 0.529779 0.720598
0.127233 0.530424 0.769723
0.127877 0.531068 0.818687
0.128518 0.531710 0.867500
0.129158 0.532350 0.916174
0.125025 0.577466 0.113937
0.125744 0.578185 0.168647
0.126444 0.578885 0.221884
0.127132 0.579574 0.274237
0.127812 0.580254 0.325956
0.128486 0.580927 0.377183
0.129154 0.581595 0.428007
0.129818 0.582259 0.478490
0.130478 0.582919 0.528679
0.131134 0.583576 0.578610
0.131788 0.584229 0.628308
0.132439 0.584880 0.677798
0.133087 0.585528 0.727098
0.133733 0.586174 0.776223
0.134377 0.586818 0.825187
0.135018 0.587460 0.874000
0.135658 0.588100 0.922674
0.131495 0.632960 0.120408
0.132214 0.633679 0.175117
0.132914 0.634379 0.228355
0.133603 0.635068 0.280707
0.134283 0.635748 0.332427
0.134956 0.636421 0.383653
0.135625 0.637089 0.434477
0.136288 0.637753 0.484960
0.136948 0.638413 0.535150
0.137605 0.639070 0.585080
0.138258 0.639723 0.634779
0.138909 0.640374 0.684269
0.139557 0.641022 0.733568
0.140203 0.641668 0.782693
0.140847 0.642312 0.831657
0.141489 0.642953 0.880471
0.142129 0.643593 0.929144
0.137938 0.688223 0.126851
0.138658 0.688942 0.181561
0.139358 0.689642 0.234798
0.140046 0.690330 0.287151
0.140726 0.691010 0.338870
0.141400 0.691684 0.390096
0.142068 0.692352 0.440920
0.142732 0.693016 0.491404
0.143392 0.693676 0.541593
0.144048 0.694332 0.591523
0.144701 0.694986 0.641222
0.145352 0.695637 0.690712
0.146000 0.696285 0.740012
0.146646 0.696931 0.789137
0.147290 0.697575 0.838100
0.147932 0.698216 0.886914
0.148572 0.698856 0.935588
0.144357 0.743275 0.133270
0.145076 0.743994 0.187979
0.145776 0.744694 0.241217
0.146465 0.745383 0.293569
0.147145 0.746063 0.345289
0.147818 0.746736 0.396515
0.148487 0.747404 0.447339
0.149150 0.748068 0.497822
0.149810 0.748728 0.548012
0.150467 0.749385 0.597942
0.151120 0.750038 0.647641
0.151771 0.750689 0.697131
0.152419 0.751337 0.746430
0.153065 0.751983 0.795555
0.153709 0.752627 0.844519
0.154351 0.753269 0.893333
0.154991 0.753909 0.942006
0.150753 0.798133 0.139666
0.151473 0.798853 0.194376
0.152173 0.799553 0.247613
0.152861 0.800241 0.299966
0.153541 0.800921 0.351685
0.154214 0.801595 0.402911
0.154883 0.802263 0.453735
0.155547 0.802927 0.504219
0.156206 0.803587 0.554408
0.156863 0.804243 0.604338
0.157516 0.804897 0.654037
0.158167 0.805547 0.703527
0.158815 0.806196 0.752827
0.159461 0.806842 0.801952
0.160105 0.807485 0.850915
0.160747 0.808127 0.899729
0.161387 0.808767 0.948402
0.157128 0.852813 0.146041
0.157848 0.853533 0.200751
0.158548 0.854233 0.253988
0.159236 0.854921 0.306341
0.159916 0.855601 0.358060
0.160590 0.856274 0.409287
0.161258 0.856943 0.460110
0.161922 0.857606 0.510594
0.162582 0.858266 0.560783
0.163238 0.858923 0.610713
0.163892 0.859576 0.660412
0.164542 0.860227 0.709902
0.165191 0.860875 0.759202
0.165837 0.861521 0.808327
0.166480 0.862165 0.857291
0.167122 0.862807 0.906104
0.167762 0.863447 0.954778
0.163484 0.907326 0.152397
0.164204 0.908046 0.207107
0.164904 0.908746 0.260344
0.165592 0.909434 0.312697
0.166272 0.910114 0.364416
0.166946 0.910788 0.415642
0.167614 0.911456 0.466466
0.168278 0.912120 0.516950
0.168938 0.912780 0.567139
0.169594 0.913436 0.617069
0.170248 0.914090 0.666768
0.170898 0.914740 0.716258
0.171547 0.915389 0.765558
0.172192 0.916035 0.814683
0.172836 0.916678 0.863647
0.173478 0.917320 0.912460
0.174118 0.917960 0.961134
0.169438 0.958388 0.158350
0.170157 0.959107 0.213060
0.170857 0.959807 0.266298
0.171546 0.960495 0.318650
0.172226 0.961175 0.370369
0.172899 0.961849 0.421596
0.173567 0.962517 0.472420
0.174231 0.963181 0.522903
0.174891 0.963841 0.573092
0.175548 0.964497 0.623023
0.176201 0.965151 0.672722
0.176852 0.965802 0.722212
0.177500 0.966450 0.771511
0.178146 0.967096 0.820636
0.178790 0.967740 0.869600
0.179432 0.968381 0.918414
0.180072 0.969021 0.967087
0.120295 0.061155 0.055597
0.121014 0.061875 0.110307
0.121714 0.062575 0.163544
0.122403 0.063263 0.215897
0.123083 0.063943 0.267616
0.123756 0.064616 0.318842
0.124424 0.065285 0.369666
0.125088 0.065949 0.420150
0.125748 0.066608 0.470339
0.126405 0.067265 0.520269
0.127058 0.067918 0.569968
0.127709 0.068569 0.619458
0.128357 0.069217 0.668758
0.129003 0.069863 0.717883
0.129647 0.070507 0.766846
0.130289 0.071149 0.815660
0.130929 0.071789 0.864333
0.127394 0.122047 0.062696
0.128114 0.122767 0.117406
0.128814 0.123467 0.170644
0.129502 0.124155 0.222996
0.130182 0.124835 0.274715
0.130856 0.125508 0.325942
0.131524 0.126177 0.376766
0.132188 0.126841 0.427249
0.132848 0.127500 0.477438
0.133504 0.128157 0.527369
0.134158 0.128810 0.577067
0.134808 0.129461 0.626558
0.135457 0.130109 0.675857
0.136103 0.130755 0.724982
0.136746 0.131399 0.773946
0.137388 0.132041 0.822760
0.138028 0.132681 0.871433
0.134315 0.181399 0.069617
0.135034 0.182119 0.124326
0.135734 0.182819 0.177564
0.136422 0.183507 0.229916
0.137102 0.184187 0.281635
0.137776 0.184861 0.332862
0.138444 0.185529 0.383686
0.139108 0.186193 0.434169
0.139768 0.186852 0.484359
0.140424 0.187509 0.534289
0.141078 0.188162 0.583988
0.141728 0.188813 0.633478
0.142377 0.189461 0.682777
0.143023 0.190107 0.731902
0.143666 0.190751 0.780866
0.144308 0.191393 0.829680
0.144948 0.192033 0.878353
0.141124 0.239801 0.076426
0.141843 0.240520 0.131135
0.142543 0.241220 0.184373
0.143232 0.241909 0.236725
0.143912 0.242589 0.288445
0.144585 0.243262 0.339671
0.145253 0.243930 0.390495
0.145917 0.244594 0.440979
0.146577 0.245254 0.491168
0.147234 0.245911 0.541098
0.147887 0.246564 0.590797
0.148538 0.247215 0.640287
0.149186 0.247863 0.689587
0.149832 0.248509 0.738712
0.150476 0.249153 0.787675
0.151118 0.249795 0.836489
0.151758 0.250435 0.885162
0.147853 0.297515 0.083155
0.148572 0.298234 0.137865
0.149272 0.298934 0.191102
0.149961 0.299623 0.243455
0.150641 0.300303 0.295174
0.151314 0.300976 0.346400
0.151982 0.301644 0.397224
0.152646 0.302308 0.447708
0.153306 0.302968 0.497897
0.153963 0.303625 0.547827
0.154616 0.304278 0.597526
0.155267 0.304929 0.647016
0.155915 0.305577 0.696316
0.156561 0.306223 0.745441
0.157205 0.306867 0.794404
0.157847 0.307509 0.843218
0.158487 0.308149 0.891892
0.154519 0.354691 0.089821
0.155239 0.355410 0.144531
0.155939 0.356110 0.197768
0.156627 0.356798 0.250121
0.157307 0.357478 0.301840
0.157981 0.358152 0.353067
0.158649 0.358820 0.403890
0.159313 0.359484 0.454374
0.159972 0.360144 0.504563
0.160629 0.360800 0.554493
0.161282 0.361454 0.604192
0.161933 0.362104 0.653682
0.162581 0.362753 0.702982
0.163227 0.363399 0.752107
0.163871 0.364042 0.801071
0.164513 0.364684 0.849884
0.165153 0.365324 0.898558
0.161134 0.411424 0.096436
0.161853 0.412144 0.151146
0.162553 0.412844 0.204383
0.163242 0.413532 0.256736
0.163922 0.414212 0.308455
0.164595 0.414886 0.359681
0.165264 0.415554 0.410505
0.165927 0.416218 0.460989
0.166587 0.416878 0.511178
0.167244 0.417534 0.561108
0.167897 0.418188 0.610807
0.168548 0.418838 0.660297
0.169196 0.419487 0.709597
0.169842 0.420133 0.758722
0.170486 0.420776 0.807685
0.171128 0.421418 0.856499
0.171768 0.422058 0.905173
0.167705 0.467784 0.103007
0.168425 0.468504 0.157717
0.169125 0.469204 0.210954
0.169813 0.469892 0.263307
0.170493 0.470572 0.315026
0.171167 0.471246 0.366253
0.171835 0.471914 0.417076
0.172499 0.472578 0.467560
0.173159 0.473237 0.517749
0.173815 0.473894 0.567679
0.174468 0.474547 0.617378
0.175119 0.475198 0.666868
0.175767 0.475846 0.716168
0.176413 0.476492 0.765293
0.177057 0.477136 0.814257
0.177699 0.477778 0.863070
0.178339 0.478418 0.911744
0.174239 0.523820 0.109541
0.174958 0.524539 0.164250
0.175658 0.525239 0.217488
0.176346 0.525927 0.269840
0.177026 0.526607 0.321560
0.177700 0.527281 0.372786
0.178368 0.527949 0.423610
0.179032 0.528613 0.474093
0.179692 0.529273 0.524283
0.180348 0.529929 0.574213
0.181002 0.530583 0.623912
0.181653 0.531234 0.673402
0.182301 0.531882 0.722701
0.182947 0.532528 0.771826
0.183591 0.533172 0.820790
0.184232 0.533813 0.869604
0.184872 0.534453 0.918277
0.180739 0.579569 0.116041
0.181458 0.580289 0.170750
0.182158 0.580989 0.223988
0.182846 0.581677 0.276340
0.183526 0.582357 0.328060
0.184200 0.583031 0.379286
0.184868 0.583699 0.430110
0.185532 0.584363 0.480593
0.186192 0.585022 0.530783
0.186848 0.585679 0.580713
0.187502 0.586332 0.630412
0.188153 0.586983 0.679902
0.188801 0.587631 0.729201
0.189447 0.588277 0.778327
0.190091 0.588921 0.827290
0.190732 0.589563 0.876104
0.191372 0.590203 0.924777
0.187209 0.635063 0.122511
0.187928 0.635782 0.177221
0.188628 0.636482 0.230458
0.189317 0.637171 0.282811
0.189997 0.637851 0.334530
0.190670 0.638524 0.385756
0.191338 0.639193 0.436580
0.192002 0.639856 0.487064
0.192662 0.640516 0.537253
0.193319 0.641173 0.587183
0.193972 0.641826 0.636882
0.194623 0.642477 0.686372
0.195271 0.643125 0.735672
0.195917 0.643771 0.784797
0.196561 0.644415 0.833760
0.197203 0.645057 0.882574
0.197843 0.645697 0.931248
0.193652 0.690326 0.128954
0.194372 0.691045 0.183664
0.195072 0.691745 0.236901
0.195760 0.692434 0.289254
0.196440 0.693114 0.340973
0.197114 0.693787 0.392200
0.197782 0.694455 0.443023
0.198446 0.695119 0.493507
0.199105 0.695779 0.543696
0.199762 0.696436 0.593626
0.200415 0.697089 0.643325
0.201066 0.697740 0.692815
0.201714 0.698388 0.742115
0.202360 0.699034 0.791240
0.203004 0.699678 0.840204
0.203646 0.700320 0.889017
0.204286 0.700960 0.937691
0.200071 0.745378 0.135373
0.200790 0.746097 0.190083
0.201490 0.746797 0.243320
0.202179 0.747486 0.295673
0.202859 0.748166 0.347392
0.203532 0.748839 0.398618
0.204201 0.749508 0.449442
0.204864 0.750171 0.499926
0.205524 0.750831 0.550115
0.206181 0.751488 0.600045
0.206834 0.752141 0.649744
0.207485 0.752792 0.699234
0.208133 0.753440 0.748534
0.208779 0.754086 0.797659
0.209423 0.754730 0.846622
0.210065 0.755372 0.895436
0.210705 0.756012 0.944110
0.206467 0.800237 0.141769
0.207187 0.800956 0.196479
0.207887 0.801656 0.249716
0.208575 0.802344 0.302069
0.209255 0.803025 0.353788
0.209928 0.803698 0.405015
0.210597 0.804366 0.455838
0.211260 0.805030 0.506322
0.211920 0.805690 0.556511
0.212577 0.806347 0.606441
0.213230 0.807000 0.656140
0.213881 0.807651 0.705630
0.214529 0.808299 0.754930
0.215175 0.808945 0.804055
0.215819 0.809589 0.853019
0.216461 0.810230 0.901832
0.217101 0.810870 0.950506
0.212842 0.854916 0.148144
0.213562 0.855636 0.202854
0.214262 0.856336 0.256092
0.214950 0.857024 0.308444
0.215630 0.857704 0.360163
0.216304 0.858378 0.411390
0.216972 0.859046 0.462214
0.217636 0.859710 0.512697
0.218296 0.860370 0.562886
0.218952 0.861026 0.612817
0.219606 0.861680 0.662515
0.220256 0.862330 0.712005
0.220905 0.862979 0.761305
0.221551 0.863625 0.810430
0.222194 0.864268 0.859394
0.222836 0.864910 0.908208
0.223476 0.865550 0.956881
0.219198 0.909430 0.154500
0.219918 0.910149 0.209210
0.220618 0.910849 0.262447
0.221306 0.911537 0.314800
0.221986 0.912218 0.366519
0.222660 0.912891 0.417746
0.223328 0.913559 0.468570
0.223992 0.914223 0.519053
0.224652 0.914883 0.569242
0.225308 0.915540 0.619173
0.225962 0.916193 0.668871
0.226612 0.916844 0.718361
0.227261 0.917492 0.767661
0.227906 0.918138 0.816786
0.228550 0.918782 0.865750
0.229192 0.919423 0.914563
0.229832 0.920063 0.963237
0.225152 0.960491 0.160454
0.225871 0.961210 0.215163
0.226571 0.961910 0.268401
0.227260 0.962599 0.320753
0.227940 0.963279 0.372473
0.228613 0.963952 0.423699
0.229281 0.964621 0.474523
0.229945 0.965284 0.525006
0.230605 0.965944 0.575196
0.231262 0.966601 0.625126
0.231915 0.967254 0.674825
0.232566 0.967905 0.724315
0.233214 0.968553 0.773615
0.233860 0.969199 0.822740
0.234504 0.969843 0.871703
0.235145 0.970485 0.920517
0.235785 0.971125 0.969190
0.174679 0.063208 0.057650
0.175399 0.063928 0.112360
0.176099 0.064628 0.165597
0.176787 0.065316 0.217950
0.177467 0.065996 0.269669
0.178140 0.066670 0.320895
0.178809 0.067338 0.371719
0.179473 0.068002 0.422203
0.180132 0.068662 0.472392
0.180789 0.069318 0.522322
0.181442 0.069972 0.572021
0.182093 0.070622 0.621511
0.182741 0.071270 0.670811
0.183387 0.071916 0.719936
0.184031 0.072560 0.768899
0.184673 0.073202 0.817713
0.185313 0.073842 0.866387
0.181779 0.124100 0.064750
0.182498 0.124820 0.119459
0.183198 0.125520 0.172697
0.183887 0.126208 0.225049
0.184567 0.126888 0.276768
0.185240 0.127562 0.327995
0.185908 0.128230 0.378819
0.186572 0.128894 0.429302
0.187232 0.129554 0.479492
0.187889 0.130210 0.529422
0.188542 0.130864 0.579121
0.189193 0.131514 0.628611
0.189841 0.132162 0.677910
0.190487 0.132808 0.727035
0.191131 0.133452 0.775999
0.191773 0.134094 0.824813
0.192413 0.134734 0.873486
0.188699 0.183452 0.071670
0.189418 0.184172 0.126379
0.190118 0.184872 0.179617
0.190807 0.185560 0.231969
0.191487 0.186240 0.283689
0.192160 0.186914 0.334915
0.192828 0.187582 0.385739
0.193492 0.188246 0.436222
0.194152 0.188906 0.486412
0.194809 0.189562 0.536342
0.195462 0.190216 0.586041
0.196113 0.190866 0.635531
0.196761 0.191514 0.684830
0.197407 0.192160 0.733955
0.198051 0.192804 0.782919
0.198693 0.193446 0.831733
0.199333 0.194086 0.880406
0.195508 0.241854 0.078479
0.196228 0.242573 0.133189
0.196928 0.243273 0.186426
0.197616 0.243962 0.238779
0.198296 0.244642 0.290498
0.198969 0.245315 0.341724
0.199638 0.245984 0.392548
0.200302 0.246647 0.443032
0.200961 0.247307 0.493221
0.201618 0.247964 0.543151
0.202271 0.248617 0.592850
0.202922 0.249268 0.642340
0.203570 0.249916 0.691640
0.204216 0.250562 0.740765
0.204860 0.251206 0.789728
0.205502 0.251848 0.838542
0.206142 0.252488 0.887216
0.202237 0.299568 0.085208
0.202957 0.300287 0.139918
0.203657 0.300987 0.193155
0.204345 0.301676 0.245508
0.205025 0.302356 0.297227
0.205699 0.303029 0.348453
0.206367 0.303698 0.399277
0.207031 0.304361 0.449761
0.207691 0.305021 0.499950
0.208347 0.305678 0.549880
0.209000 0.306331 0.599579
0.209651 0.306982 0.649069
0.210299 0.307630 0.698369
0.210945 0.308276 0.747494
0.211589 0.308920 0.796457
0.212231 0.309562 0.845271
0.212871 0.310202 0.893945
0.208904 0.356744 0.091874
0.209623 0.357463 0.146584
0.210323 0.358163 0.199821
0.211011 0.358851 0.252174
0.211691 0.359531 0.303893
0.212365 0.360205 0.355120
0.213033 0.360873 0.405943
0.213697 0.361537 0.456427
0.214357 0.362197 0.506616
0.215013 0.362853 0.556547
0.215667 0.363507 0.606245
0.216318 0.364158 0.655735
0.216966 0.364806 0.705035
0.217612 0.365452 0.754160
0.218255 0.366096 0.803124
0.218897 0.366737 0.851937
0.219537 0.367377 0.900611
0.215518 0.413478 0.098489
0.216238 0.414197 0.153199
0.216938 0.414897 0.206436
0.217626 0.415585 0.258789
0.218306 0.416265 0.310508
0.218980 0.416939 0.361735
0.219648 0.417607 0.412558
0.220312 0.418271 0.463042
0.220972 0.418931 0.513231
0.221628 0.419587 0.563161
0.222282 0.420241 0.612860
0.222932 0.420892 0.662350
0.223581 0.421540 0.711650
0.224226 0.422186 0.760775
0.224870 0.422829 0.809739
0.225512 0.423471 0.858552
0.226152 0.424111 0.907226
0.222090 0.469837 0.105060
0.222809 0.470557 0.159770
0.223509 0.471257 0.213007
0.224197 0.471945 0.265360
0.224877 0.472625 0.317079
0.225551 0.473299 0.368306
0.226219 0.473967 0.419130
0.226883 0.474631 0.469613
0.227543 0.475291 0.519802
0.228199 0.475947 0.569733
0.228853 0.476601 0.619431
0.229504 0.477251 0.668921
0.230152 0.477899 0.718221
0.230798 0.478545 0.767346
0.231441 0.479189 0.816310
0.232083 0.479831 0.865123
0.232723 0.480471 0.913797
0.228623 0.525873 0.111594
0.229342 0.526592 0.166303
0.230042 0.527292 0.219541
0.230731 0.527981 0.271893
0.231411 0.528661 0.323613
0.232084 0.529334 0.374839
0.232753 0.530002 0.425663
0.233416 0.530666 0.476146
0.234076 0.531326 0.526336
0.234733 0.531983 0.576266
0.235386 0.532636 0.625965
0.236037 0.533287 0.675455
0.236685 0.533935 0.724755
0.237331 0.534581 0.773880
0.237975 0.535225 0.822843
0.238617 0.535867 0.871657
0.239257 0.536507 0.920330
0.235123 0.581622 0.118094
0.235842 0.582342 0.172803
0.236542 0.583042 0.226041
0.237231 0.583730 0.278393
0.237911 0.584410 0.330113
0.238584 0.585084 0.381339
0.239253 0.585752 0.432163
0.239916 0.586416 0.482646
0.240576 0.587076 0.532836
0.241233 0.587732 0.582766
0.241886 0.588386 0.632465
0.242537 0.589036 0.681955
0.243185 0.589684 0.731255
0.243831 0.590330 0.780380
0.244475 0.590974 0.829343
0.245117 0.591616 0.878157
0.245757 0.592256 0.926830
0.241593 0.637116 0.124564
0.242313 0.637836 0.179274
0.243013 0.638536 0.232511
0.243701 0.639224 0.284864
0.244381 0.639904 0.336583
0.245055 0.640578 0.387809
0.245723 0.641246 0.438633
0.246387 0.641910 0.489117
0.247047 0.642569 0.539306
0.247703 0.643226 0.589236
0.248356 0.643879 0.638935
0.249007 0.644530 0.688425
0.249655 0.645178 0.737725
0.250301 0.645824 0.786850
0.250945 0.646468 0.835813
0.251587 0.647110 0.884627
0.252227 0.647750 0.933301
0.248037 0.692379 0.131007
0.248756 0.693098 0.185717
0.249456 0.693798 0.238954
0.250144 0.694487 0.291307
0.250824 0.695167 0.343026
0.251498 0.695840 0.394253
0.252166 0.696509 0.445076
0.252830 0.697172 0.495560
0.253490 0.697832 0.545749
0.254146 0.698489 0.595680
0.254800 0.699142 0.645378
0.255451 0.699793 0.694868
0.256099 0.700441 0.744168
0.256745 0.701087 0.793293
0.257388 0.701731 0.842257
0.258030 0.702373 0.891070
0.258670 0.703013 0.939744
0.254455 0.747431 0.137426
0.255175 0.748151 0.192136
0.255875 0.748851 0.245373
0.256563 0.749539 0.297726
0.257243 0.750219 0.349445
0.257917 0.750893 0.400671
0.258585 0.751561 0.451495
0.259249 0.752225 0.501979
0.259909 0.752884 0.552168
0.260565 0.753541 0.602098
0.261219 0.754194 0.651797
0.261869 0.754845 0.701287
0.262517 0.755493 0.750587
0.263163 0.756139 0.799712
0.263807 0.756783 0.848676
0.264449 0.757425 0.897489
0.265089 0.758065 0.946163
0.260852 0.802290 0.143822
0.261571 0.803009 0.198532
0.262271 0.803709 0.251769
0.262959 0.804398 0.304122
0.263639 0.805078 0.355841
0.264313 0.805751 0.407068
0.264981 0.806419 0.457891
0.265645 0.807083 0.508375
0.266305 0.807743 0.558564
0.266961 0.808400 0.608494
0.267615 0.809053 0.658193
0.268265 0.809704 0.707683
0.268914 0.810352 0.756983
0.269560 0.810998 0.806108
0.270203 0.811642 0.855072
0.270845 0.812284 0.903885
0.271485 0.812924 0.952559
0.267227 0.856970 0.150198
0.267946 0.857689 0.204907
0.268646 0.858389 0.258145
0.269335 0.859077 0.310497
0.270015 0.859757 0.362216
0.270688 0.860431 0.413443
0.271356 0.861099 0.464267
0.272020 0.861763 0.514750
0.272680 0.862423 0.564940
0.273337 0.863079 0.614870
0.273990 0.863733 0.664569
0.274641 0.864384 0.714059
0.275289 0.865032 0.763358
0.275935 0.865678 0.812483
0.276579 0.866321 0.861447
0.277221 0.866963 0.910261
0.277860 0.867603 0.958934
0.273583 0.911483 0.156553
0.274302 0.912202 0.211263
0.275002 0.912902 0.264501
0.275690 0.913591 0.316853
0.276370 0.914271 0.368572
0.277044 0.914944 0.419799
0.277712 0.915612 0.470623
0.278376 0.916276 0.521106
0.279036 0.916936 0.571295
0.279692 0.917593 0.621226
0.280346 0.918246 0.670925
0.280997 0.918897 0.720415
0.281645 0.919545 0.769714
0.282291 0.920191 0.818839
0.282935 0.920835 0.867803
0.283576 0.921477 0.916617
0.284216 0.922117 0.965290
0.279536 0.962544 0.162507
0.280256 0.963264 0.217217
0.280955 0.963963 0.270454
0.281644 0.964652 0.322807
0.282324 0.965332 0.374526
0.282997 0.966005 0.425752
0.283666 0.966674 0.476576
0.284329 0.967337 0.527060
0.284989 0.967997 0.577249
0.285646 0.968654 0.627179
0.286299 0.969307 0.676878
0.286950 0.969958 0.726368
0.287598 0.970606 0.775668
0.288244 0.971252 0.824793
0.288888 0.971896 0.873756
0.289530 0.972538 0.922570
0.290170 0.973178 0.971244
0.228223 0.065230 0.059671
0.228943 0.065949 0.114381
0.229643 0.066649 0.167618
0.230331 0.067337 0.219971
0.231011 0.068017 0.271690
0.231685 0.068691 0.322917
0.232353 0.069359 0.373740
0.233017 0.070023 0.424224
0.233677 0.070683 0.474413
0.234333 0.071339 0.524344
0.234987 0.071993 0.574042
0.235637 0.072644 0.623532
0.236286 0.073292 0.672832
0.236932 0.073938 0.721957
0.237575 0.074582 0.770921
0.238217 0.075223 0.819734
0.238857 0.075863 0.868408
0.235323 0.126122 0.066771
