skills/editops-orchestrator/assets/grade/luts/soft_pastel_v13.cube
TITLE "soft_pastel_v13"
LUT_3D_SIZE 9
DOMAIN_MIN 0.0 0.0 0.0
DOMAIN_MAX 1.0 1.0 1.0
0.064581 0.059052 0.053494
0.066000 0.060471 0.161441
0.067369 0.061840 0.265512
0.068710 0.063181 0.367563
0.070034 0.064505 0.468236
0.071344 0.065815 0.567865
0.072643 0.067114 0.666654
0.073933 0.068404 0.764743
0.075215 0.069686 0.862230
0.078601 0.179296 0.067513
0.080020 0.180715 0.175460
0.081388 0.182084 0.279532
0.082730 0.183425 0.381582
0.084054 0.184749 0.482255
0.085364 0.186059 0.581884
0.086663 0.187358 0.680674
0.087952 0.188648 0.778763
0.089234 0.189930 0.876250
0.092139 0.295412 0.081052
0.093558 0.296831 0.188999
0.094927 0.298199 0.293070
0.096268 0.299541 0.395121
0.097592 0.300865 0.495794
0.098902 0.302175 0.595423
0.100201 0.303474 0.694212
0.101491 0.304763 0.792301
0.102773 0.306045 0.889788
0.105420 0.409321 0.094333
0.106839 0.410741 0.202280
0.108208 0.412109 0.306352
0.109550 0.413451 0.408402
0.110873 0.414774 0.509075
0.112183 0.416084 0.608704
0.113482 0.417383 0.707494
0.114772 0.418673 0.805582
0.116054 0.419955 0.903069
0.118525 0.521716 0.107437
0.119944 0.523136 0.215384
0.121312 0.524504 0.319456
0.122654 0.525846 0.421506
0.123978 0.527170 0.522179
0.125288 0.528480 0.621808
0.126587 0.529779 0.720598
0.127877 0.531068 0.818687
0.129158 0.532350 0.916174
0.131495 0.632960 0.120408
0.132914 0.634379 0.228355
0.134283 0.635748 0.332427
0.135625 0.637089 0.434477
0.136948 0.638413 0.535150
0.138258 0.639723 0.634779
0.139557 0.641022 0.733568
0.140847 0.642312 0.831657
0.142129 0.643593 0.929144
0.144357 0.743275 0.133270
0.145776 0.744694 0.241217
0.147145 0.746063 0.345289
0.148487 0.747404 0.447339
0.149810 0.748728 0.548012
0.151120 0.750038 0.647641
0.152419 0.751337 0.746430
0.153709 0.752627 0.844519
0.154991 0.753909 0.942006
0.157128 0.852813 0.146041
0.158548 0.854233 0.253988
0.159916 0.855601 0.358060
0.161258 0.856943 0.460110
0.162582 0.858266 0.560783
0.163892 0.859576 0.660412
0.165191 0.860875 0.759202
0.166480 0.862165 0.857291
0.167762 0.863447 0.954778
0.169438 0.958388 0.158350
0.170857 0.959807 0.266298
0.172226 0.961175 0.370369
0.173567 0.962517 0.472420
0.174891 0.963841 0.573092
0.176201 0.965151 0.672722
0.177500 0.966450 0.771511
0.178790 0.967740 0.869600
0.180072 0.969021 0.967087
0.174679 0.063208 0.057650
0.176099 0.064628 0.165597
0.177467 0.065996 0.269669
0.178809 0.067338 0.371719
0.180132 0.068662 0.472392
0.181442 0.069972 0.572021
0.182741 0.071270 0.670811
0.184031 0.072560 0.768899
0.185313 0.073842 0.866387
0.188699 0.183452 0.071670
0.190118 0.184872 0.179617
0.191487 0.186240 0.283689
0.192828 0.187582 0.385739
0.194152 0.188906 0.486412
0.195462 0.190216 0.586041
0.196761 0.191514 0.684830
0.198051 0.192804 0.782919
0.199333 0.194086 0.880406
0.202237 0.299568 0.085208
0.203657 0.300987 0.193155
0.205025 0.302356 0.297227
0.206367 0.303698 0.399277
0.207691 0.305021 0.499950
0.209000 0.306331 0.599579
0.210299 0.307630 0.698369
0.211589 0.308920 0.796457
0.212871 0.310202 0.893945
0.215518 0.413478 0.098489
0.216938 0.414897 0.206436
0.218306 0.416265 0.310508
0.219648 0.417607 0.412558
0.220972 0.418931 0.513231
0.222282 0.420241 0.612860
0.223581 0.421540 0.711650
0.224870 0.422829 0.809739
0.226152 0.424111 0.907226
0.228623 0.525873 0.111594
0.230042 0.527292 0.219541
0.231411 0.528661 0.323613
0.232753 0.530002 0.425663
0.234076 0.531326 0.526336
0.235386 0.532636 0.625965
0.236685 0.533935 0.724755
0.237975 0.535225 0.822843
0.239257 0.536507 0.920330
0.241593 0.637116 0.124564
0.243013 0.638536 0.232511
0.244381 0.639904 0.336583
0.245723 0.641246 0.438633
0.247047 0.642569 0.539306
0.248356 0.643879 0.638935
0.249655 0.645178 0.737725
0.250945 0.646468 0.835813
0.252227 0.647750 0.933301
0.254455 0.747431 0.137426
0.255875 0.748851 0.245373
0.257243 0.750219 0.349445
0.258585 0.751561 0.451495
0.259909 0.752884 0.552168
0.261219 0.754194 0.651797
0.262517 0.755493 0.750587
0.263807 0.756783 0.848676
0.265089 0.758065 0.946163
0.267227 0.856970 0.150198
0.268646 0.858389 0.258145
0.270015 0.859757 0.362216
0.271356 0.861099 0.464267
0.272680 0.862423 0.564940
0.273990 0.863733 0.664569
0.275289 0.865032 0.763358
0.276579 0.866321 0.861447
0.277860 0.867603 0.958934
0.279536 0.962544 0.162507
0.280955 0.963963 0.270454
0.282324 0.965332 0.374526
0.283666 0.966674 0.476576
0.284989 0.967997 0.577249
0.286299 0.969307 0.676878
0.287598 0.970606 0.775668
0.288888 0.971896 0.873756
0.290170 0.973178 0.971244
0.281154 0.067228 0.061670
0.282573 0.068647 0.169617
0.283941 0.070016 0.273688
0.285283 0.071357 0.375739
0.286607 0.072681 0.476412
0.287917 0.073991 0.576041
0.289216 0.075290 0.674830
0.290505 0.076580 0.772919
0.291787 0.077862 0.870406
0.295173 0.187472 0.075689
0.296593 0.188891 0.183636
0.297961 0.190260 0.287708
0.299303 0.191601 0.389758
0.300626 0.192925 0.490431
0.301936 0.194235 0.590060
0.303235 0.195534 0.688850
0.304525 0.196824 0.786939
0.305807 0.198106 0.884426
0.308712 0.303588 0.089228
0.310131 0.305007 0.197175
0.311499 0.306375 0.301246
0.312841 0.307717 0.403297
0.314165 0.309041 0.503970
0.315475 0.310351 0.603599
0.316774 0.311650 0.702388
0.318063 0.312939 0.800477
0.319345 0.314221 0.897964
0.321993 0.417497 0.102509
0.323412 0.418917 0.210456
0.324780 0.420285 0.314528
0.326122 0.421627 0.416578
0.327446 0.422950 0.517251
0.328756 0.424260 0.616880
0.330055 0.425559 0.715670
0.331345 0.426849 0.813758
0.332626 0.428131 0.911245
0.335097 0.529892 0.115613
0.336517 0.531312 0.223560
0.337885 0.532680 0.327632
0.339227 0.534022 0.429682
0.340551 0.535346 0.530355
0.341861 0.536656 0.629984
0.343159 0.537955 0.728774
0.344449 0.539244 0.826863
0.345731 0.540526 0.924350
0.348068 0.641136 0.128584
0.349487 0.642555 0.236531
0.350855 0.643924 0.340603
0.352197 0.645265 0.442653
0.353521 0.646589 0.543326
0.354831 0.647899 0.642955
0.356130 0.649198 0.741744
0.357419 0.650488 0.839833
0.358701 0.651769 0.937320
0.360930 0.751451 0.141446
0.362349 0.752870 0.249393
0.363717 0.754239 0.353465
0.365059 0.755580 0.455515
0.366383 0.756904 0.556188
0.367693 0.758214 0.655817
0.368992 0.759513 0.754606
0.370282 0.760803 0.852695
0.371563 0.762085 0.950182
0.373701 0.860989 0.154217
0.375120 0.862409 0.262164
0.376489 0.863777 0.366236
0.377831 0.865119 0.468286
0.379154 0.866442 0.568959
0.380464 0.867752 0.668588
0.381763 0.869051 0.767378
0.383053 0.870341 0.865467
0.384335 0.871623 0.962954
0.386010 0.966564 0.166526
0.387430 0.967983 0.274474
0.388798 0.969351 0.378545
0.390140 0.970693 0.480596
0.391464 0.972017 0.581268
0.392774 0.973327 0.680898
0.394073 0.974626 0.779687
0.395362 0.975916 0.877776
0.396644 0.977197 0.975263
0.385648 0.071173 0.065614
0.387068 0.072592 0.173561
0.388436 0.073960 0.277633
0.389778 0.075302 0.379684
0.391102 0.076626 0.480356
0.392411 0.077936 0.579985
0.393710 0.079235 0.678775
0.395000 0.080525 0.776864
0.396282 0.081806 0.874351
0.399668 0.191417 0.079634
0.401087 0.192836 0.187581
0.402456 0.194205 0.291653
0.403798 0.195546 0.393703
0.405121 0.196870 0.494376
0.406431 0.198180 0.594005
0.407730 0.199479 0.692795
0.409020 0.200769 0.790884
0.410302 0.202050 0.888371
0.413206 0.307532 0.093172
0.414626 0.308952 0.201120
0.415994 0.310320 0.305191
0.417336 0.311662 0.407242
0.418660 0.312986 0.507914
0.419970 0.314296 0.607544
0.421268 0.315595 0.706333
0.422558 0.316884 0.804422
0.423840 0.318166 0.901909
0.426487 0.421442 0.106454
0.427907 0.422861 0.214401
0.429275 0.424230 0.318473
0.430617 0.425572 0.420523
0.431941 0.426895 0.521196
0.433251 0.428205 0.620825
0.434550 0.429504 0.719614
0.435839 0.430794 0.817703
0.437121 0.432076 0.915190
0.439592 0.533837 0.119558
0.441011 0.535257 0.227505
0.442380 0.536625 0.331577
0.443722 0.537967 0.433627
0.445045 0.539291 0.534300
0.446355 0.540601 0.633929
0.447654 0.541899 0.732719
0.448944 0.543189 0.830808
0.450226 0.544471 0.928295
0.452562 0.645081 0.132528
0.453982 0.646500 0.240476
0.455350 0.647868 0.344547
0.456692 0.649210 0.446598
0.458016 0.650534 0.547270
0.459326 0.651844 0.646900
0.460624 0.653143 0.745689
0.461914 0.654433 0.843778
0.463196 0.655714 0.941265
0.465424 0.755396 0.145391
0.466844 0.756815 0.253338
0.468212 0.758183 0.357409
0.469554 0.759525 0.459460
0.470878 0.760849 0.560133
0.472188 0.762159 0.659762
0.473487 0.763458 0.758551
0.474776 0.764748 0.856640
0.476058 0.766029 0.954127
0.478196 0.864934 0.158162
0.479615 0.866353 0.266109
0.480984 0.867722 0.370181
0.482325 0.869064 0.472231
0.483649 0.870387 0.572904
0.484959 0.871697 0.672533
0.486258 0.872996 0.771323
0.487548 0.874286 0.869411
0.488830 0.875568 0.966899
0.490505 0.970509 0.170471
0.491925 0.971928 0.278418
0.493293 0.973296 0.382490
0.494635 0.974638 0.484541
0.495958 0.975962 0.585213
0.497268 0.977272 0.684842
0.498567 0.978571 0.783632
0.499857 0.979860 0.881721
0.501139 0.981142 0.979208
0.488774 0.075066 0.069508
0.490194 0.076485 0.177455
0.491562 0.077854 0.281526
0.492904 0.079195 0.383577
0.494228 0.080519 0.484250
0.495538 0.081829 0.583879
0.496837 0.083128 0.682668
0.498126 0.084418 0.780757
0.499408 0.085700 0.878244
0.502794 0.195310 0.083527
0.504214 0.196729 0.191474
0.505582 0.198098 0.295546
0.506924 0.199440 0.397596
0.508247 0.200763 0.498269
0.509557 0.202073 0.597898
0.510856 0.203372 0.696688
0.512146 0.204662 0.794777
0.513428 0.205944 0.892264
0.516333 0.311426 0.097066
0.517752 0.312845 0.205013
0.519120 0.314213 0.309085
0.520462 0.315555 0.411135
0.521786 0.316879 0.511808
0.523096 0.318189 0.611437
0.524395 0.319488 0.710226
0.525684 0.320778 0.808315
0.526966 0.322059 0.905802
0.529614 0.425335 0.110347
0.531033 0.426755 0.218294
0.532401 0.428123 0.322366
0.533743 0.429465 0.424416
0.535067 0.430788 0.525089
0.536377 0.432098 0.624718
0.537676 0.433397 0.723508
0.538966 0.434687 0.821596
0.540247 0.435969 0.919083
0.542718 0.537731 0.123451
0.544138 0.539150 0.231398
0.545506 0.540518 0.335470
0.546848 0.541860 0.437521
0.548172 0.543184 0.538193
0.549481 0.544494 0.637822
0.550780 0.545793 0.736612
0.552070 0.547082 0.834701
0.553352 0.548364 0.932188
0.555689 0.648974 0.136422
0.557108 0.650393 0.244369
0.558476 0.651762 0.348441
0.559818 0.653103 0.450491
0.561142 0.654427 0.551164
0.562452 0.655737 0.650793
0.563751 0.657036 0.749582
0.565040 0.658326 0.847671
0.566322 0.659608 0.945158
0.568551 0.759289 0.149284
0.569970 0.760708 0.257231
0.571338 0.762077 0.361303
0.572680 0.763418 0.463353
0.574004 0.764742 0.564026
0.575314 0.766052 0.663655
0.576613 0.767351 0.762445
0.577902 0.768641 0.860533
0.579184 0.769923 0.958020
0.581322 0.868827 0.162055
0.582741 0.870247 0.270002
0.584110 0.871615 0.374074
0.585452 0.872957 0.476124
0.586775 0.874280 0.576797
0.588085 0.875590 0.676426
0.589384 0.876889 0.775216
0.590674 0.878179 0.873305
0.591956 0.879461 0.970792
0.593631 0.974402 0.174365
0.595051 0.975821 0.282312
0.596419 0.977190 0.386383
0.597761 0.978531 0.488434
0.599085 0.979855 0.589107
0.600395 0.981165 0.688736
0.601694 0.982464 0.787525
0.602983 0.983754 0.885614
0.604265 0.985035 0.983101
0.590856 0.078920 0.073361
0.592275 0.080339 0.181308
0.593644 0.081707 0.285380
0.594985 0.083049 0.387431
0.596309 0.084373 0.488103
0.597619 0.085683 0.587732
0.598918 0.086982 0.686522
0.600208 0.088272 0.784611
0.601490 0.089553 0.882098
0.604876 0.199164 0.087381
0.606295 0.200583 0.195328
0.607663 0.201951 0.299400
0.609005 0.203293 0.401450
0.610329 0.204617 0.502123
0.611639 0.205927 0.601752
0.612938 0.207226 0.700542
0.614227 0.208516 0.798631
0.615509 0.209797 0.896118
0.618414 0.315279 0.100919
0.619833 0.316699 0.208866
0.621202 0.318067 0.312938
0.622543 0.319409 0.414989
0.623867 0.320733 0.515661
0.625177 0.322043 0.615290
0.626476 0.323342 0.714080
0.627766 0.324631 0.812169
0.629048 0.325913 0.909656
0.631695 0.429189 0.114201
0.633114 0.430608 0.222148
0.634483 0.431977 0.326219
0.635825 0.433319 0.428270
0.637148 0.434642 0.528943
0.638458 0.435952 0.628572
0.639757 0.437251 0.727361
0.641047 0.438541 0.825450
0.642329 0.439823 0.922937
0.644800 0.541584 0.127305
0.646219 0.543004 0.235252
0.647587 0.544372 0.339324
0.648929 0.545714 0.441374
0.650253 0.547037 0.542047
0.651563 0.548347 0.641676
0.652862 0.549646 0.740466
0.654152 0.550936 0.838555
0.655433 0.552218 0.936042
0.657770 0.652828 0.140275
0.659189 0.654247 0.248222
0.660558 0.655615 0.352294
0.661899 0.656957 0.454345
0.663223 0.658281 0.555017
0.664533 0.659591 0.654646
0.665832 0.660890 0.753436
0.667122 0.662180 0.851525
0.668404 0.663461 0.949012
0.670632 0.763143 0.153137
0.672051 0.764562 0.261085
0.673420 0.765930 0.365156
0.674762 0.767272 0.467207
0.676085 0.768596 0.567879
0.677395 0.769906 0.667509
0.678694 0.771205 0.766298
0.679984 0.772495 0.864387
0.681266 0.773776 0.961874
0.683403 0.872681 0.165909
0.684823 0.874100 0.273856
0.686191 0.875469 0.377928
0.687533 0.876811 0.479978
0.688857 0.878134 0.580651
0.690167 0.879444 0.680280
0.691466 0.880743 0.779070
0.692755 0.882033 0.877158
0.694037 0.883315 0.974646
0.695713 0.978256 0.178218
0.697132 0.979675 0.286165
0.698501 0.981043 0.390237
0.699842 0.982385 0.492287
0.701166 0.983709 0.592960
0.702476 0.985019 0.692589
0.703775 0.986318 0.791379
0.705065 0.987607 0.889468
0.706346 0.988889 0.986955
0.692093 0.082742 0.077183
0.693513 0.084161 0.185130
0.694881 0.085529 0.289202
0.696223 0.086871 0.391252
0.697546 0.088195 0.491925
0.698856 0.089505 0.591554
0.700155 0.090804 0.690344
0.701445 0.092093 0.788433
0.702727 0.093375 0.885920
0.706113 0.202986 0.091203
0.707532 0.204405 0.199150
0.708901 0.205773 0.303222
0.710242 0.207115 0.405272
0.711566 0.208439 0.505945
0.712876 0.209749 0.605574
0.714175 0.211048 0.704364
0.715465 0.212338 0.802452
0.716747 0.213619 0.899940
0.719651 0.319101 0.104741
0.721071 0.320521 0.212688
0.722439 0.321889 0.316760
0.723781 0.323231 0.418810
0.725105 0.324555 0.519483
0.726414 0.325865 0.619112
0.727713 0.327163 0.717902
0.729003 0.328453 0.815991
0.730285 0.329735 0.913478
0.732932 0.433011 0.118022
0.734352 0.434430 0.225970
0.735720 0.435799 0.330041
0.737062 0.437140 0.432092
0.738386 0.438464 0.532764
0.739696 0.439774 0.632394
0.740995 0.441073 0.731183
0.742284 0.442363 0.829272
0.743566 0.443645 0.926759
0.746037 0.545406 0.131127
0.747456 0.546825 0.239074
0.748825 0.548194 0.343146
0.750167 0.549536 0.445196
0.751490 0.550859 0.545869
0.752800 0.552169 0.645498
0.754099 0.553468 0.744288
0.755389 0.554758 0.842377
0.756671 0.556040 0.939864
0.759007 0.656650 0.144097
0.760427 0.658069 0.252044
0.761795 0.659437 0.356116
0.763137 0.660779 0.458166
0.764461 0.662103 0.558839
0.765771 0.663413 0.658468
0.767069 0.664712 0.757258
0.768359 0.666001 0.855347
0.769641 0.667283 0.952834
0.771869 0.766965 0.156959
0.773289 0.768384 0.264906
0.774657 0.769752 0.368978
0.775999 0.771094 0.471029
0.777323 0.772418 0.571701
0.778633 0.773728 0.671330
0.779931 0.775027 0.770120
0.781221 0.776316 0.868209
0.782503 0.777598 0.965696
0.784641 0.876503 0.169731
0.786060 0.877922 0.277678
0.787429 0.879291 0.381750
0.788770 0.880632 0.483800
0.790094 0.881956 0.584473
0.791404 0.883266 0.684102
0.792703 0.884565 0.782892
0.793993 0.885855 0.880980
0.795275 0.887137 0.978468
0.796950 0.982077 0.182040
0.798370 0.983497 0.289987
0.799738 0.984865 0.394059
0.801080 0.986207 0.496109
0.802403 0.987531 0.596782
0.803713 0.988841 0.696411
0.805012 0.990140 0.795201
0.806302 0.991429 0.893290
0.807584 0.992711 0.990777
0.792623 0.086537 0.080978
0.794043 0.087956 0.188926
0.795411 0.089325 0.292997
0.796753 0.090666 0.395048
0.798077 0.091990 0.495720
0.799387 0.093300 0.595349
0.800686 0.094599 0.694139
0.801975 0.095889 0.792228
0.803257 0.097170 0.889715
0.806643 0.206781 0.094998
0.808062 0.208200 0.202945
0.809431 0.209569 0.307017
0.810773 0.210910 0.409067
0.812096 0.212234 0.509740
0.813406 0.213544 0.609369
0.814705 0.214843 0.708159
0.815995 0.216133 0.806248
0.817277 0.217415 0.903735
0.820181 0.322897 0.108537
0.821601 0.324316 0.216484
0.822969 0.325684 0.320555
0.824311 0.327026 0.422606
0.825635 0.328350 0.523279
0.826945 0.329660 0.622908
0.828244 0.330959 0.721697
0.829533 0.332248 0.819786
0.830815 0.333530 0.917273
0.833463 0.436806 0.121818
0.834882 0.438225 0.229765
0.836250 0.439594 0.333837
0.837592 0.440936 0.435887
0.838916 0.442259 0.536560
0.840226 0.443569 0.636189
0.841525 0.444868 0.734978
0.842814 0.446158 0.833067
0.844096 0.447440 0.930554
0.846567 0.549201 0.134922
0.847987 0.550621 0.242869
0.849355 0.551989 0.346941
0.850697 0.553331 0.448991
0.852020 0.554655 0.549664
0.853330 0.555965 0.649293
0.854629 0.557263 0.748083
0.855919 0.558553 0.846172
0.857201 0.559835 0.943659
0.859537 0.660445 0.147893
0.860957 0.661864 0.255840
0.862325 0.663232 0.359911
0.863667 0.664574 0.461962
0.864991 0.665898 0.562635
0.866301 0.667208 0.662264
0.867600 0.668507 0.761053
0.868889 0.669797 0.859142
0.870171 0.671078 0.956629
0.872400 0.770760 0.160755
0.873819 0.772179 0.268702
0.875187 0.773547 0.372773
0.876529 0.774889 0.474824
0.877853 0.776213 0.575497
0.879163 0.777523 0.675126
0.880462 0.778822 0.773915
0.881751 0.780112 0.872004
0.883033 0.781393 0.969491
0.885171 0.880298 0.173526
0.886590 0.881717 0.281473
0.887959 0.883086 0.385545
0.889301 0.884428 0.487595
0.890624 0.885751 0.588268
0.891934 0.887061 0.687897
0.893233 0.888360 0.786687
0.894523 0.889650 0.884776
0.895805 0.890932 0.982263
0.897480 0.985873 0.185835
0.898900 0.987292 0.293782
0.900268 0.988660 0.397854
0.901610 0.990002 0.499905
0.902934 0.991326 0.600577
0.904244 0.992636 0.700206
0.905543 0.993935 0.798996
0.906832 0.995225 0.897085
0.908114 0.996506 0.994572
0.884484 0.090005 0.084446
0.885903 0.091424 0.192393
0.887271 0.092792 0.296465
0.888613 0.094134 0.398515
0.889937 0.095458 0.499188
0.891247 0.096768 0.598817
0.892546 0.098067 0.697607
0.893835 0.099357 0.795696
0.895117 0.100638 0.893183
0.898503 0.210249 0.098466
0.899923 0.211668 0.206413
0.901291 0.213036 0.310485
0.902633 0.214378 0.412535
0.903957 0.215702 0.513208
0.905267 0.217012 0.612837
0.906565 0.218311 0.711627
0.907855 0.219601 0.809715
0.909137 0.220882 0.907203
0.912042 0.326364 0.112004
0.913461 0.327784 0.219951
0.914829 0.329152 0.324023
0.916171 0.330494 0.426074
0.917495 0.331818 0.526746
0.918805 0.333128 0.626375
0.920104 0.334427 0.725165
0.921394 0.335716 0.823254
0.922675 0.336998 0.920741
0.925323 0.440274 0.125286
0.926742 0.441693 0.233233
0.928111 0.443062 0.337304
0.929452 0.444404 0.439355
0.930776 0.445727 0.540028
0.932086 0.447037 0.639657
0.933385 0.448336 0.738446
0.934675 0.449626 0.836535
0.935956 0.450908 0.934022
0.938427 0.552669 0.138390
0.939847 0.554089 0.246337
0.941215 0.555457 0.350409
0.942557 0.556799 0.452459
0.943881 0.558122 0.553132
0.945191 0.559432 0.652761
0.946490 0.560731 0.751551
0.947779 0.562021 0.849640
0.949061 0.563303 0.947127
0.951398 0.663913 0.151360
0.952817 0.665332 0.259307
0.954185 0.666700 0.363379
0.955527 0.668042 0.465430
0.956851 0.669366 0.566102
0.958161 0.670676 0.665731
0.959460 0.671975 0.764521
0.960750 0.673264 0.862610
0.962031 0.674546 0.960097
0.964260 0.774228 0.164222
0.965679 0.775647 0.272170
0.967047 0.777015 0.376241
0.968389 0.778357 0.478292
0.969713 0.779681 0.578964
0.971023 0.780991 0.678593
0.972322 0.782290 0.777383
0.973612 0.783580 0.875472
0.974893 0.784861 0.972959
0.977031 0.883766 0.176994
0.978451 0.885185 0.284941
0.979819 0.886554 0.389013
0.981161 0.887896 0.491063
0.982484 0.889219 0.591736
0.983794 0.890529 0.691365
0.985093 0.891828 0.790155
0.986383 0.893118 0.888243
0.987665 0.894400 0.985731
0.989341 0.989341 0.189303
0.990760 0.990760 0.297250
0.992128 0.992128 0.401322
0.993470 0.993470 0.503372
0.994794 0.994794 0.604045
0.996104 0.996104 0.703674
0.997403 0.997403 0.802464
0.998692 0.998692 0.900553
0.999974 0.999974 0.998040
