skills/editops-orchestrator/assets/grade/luts/soft_pastel_v20.cube
TITLE "soft_pastel_v20"
LUT_3D_SIZE 17
DOMAIN_MIN 0.0 0.0 0.0
DOMAIN_MAX 1.0 1.0 1.0
0.092976 0.084818 0.076597
0.093887 0.085729 0.128002
0.094772 0.086614 0.177884
0.095639 0.087481 0.226786
0.096493 0.088335 0.274968
0.097337 0.089179 0.322580
0.098173 0.090015 0.369722
0.099002 0.090844 0.416466
0.099824 0.091666 0.462862
0.100642 0.092484 0.508953
0.101454 0.093296 0.554770
0.102262 0.094104 0.600339
0.103066 0.094908 0.645682
0.103866 0.095708 0.690817
0.104663 0.096505 0.735760
0.105456 0.097299 0.780525
0.106247 0.098089 0.825123
0.101950 0.143985 0.085571
0.102862 0.144897 0.136976
0.103746 0.145781 0.186858
0.104613 0.146648 0.235761
0.105467 0.147503 0.283942
0.106312 0.148347 0.331554
0.107147 0.149183 0.378697
0.107976 0.150011 0.425440
0.108799 0.150834 0.471837
0.109616 0.151651 0.517928
0.110428 0.152463 0.563744
0.111236 0.153271 0.609313
0.112040 0.154075 0.654656
0.112840 0.154876 0.699792
0.113637 0.155672 0.744735
0.114431 0.156466 0.789499
0.115222 0.157257 0.834097
0.110679 0.201533 0.094300
0.111591 0.202445 0.145705
0.112475 0.203329 0.195587
0.113342 0.204196 0.244490
0.114196 0.205050 0.292671
0.115040 0.205894 0.340283
0.115876 0.206730 0.387425
0.116705 0.207559 0.434169
0.117528 0.208382 0.480566
0.118345 0.209199 0.526656
0.119157 0.210011 0.572473
0.119965 0.210819 0.618042
0.120769 0.211623 0.663385
0.121569 0.212423 0.708520
0.122366 0.213220 0.753464
0.123160 0.214014 0.798228
0.123951 0.214805 0.842826
0.119245 0.258008 0.102866
0.120157 0.258919 0.154271
0.121041 0.259804 0.204153
0.121908 0.260671 0.253056
0.122762 0.261525 0.301237
0.123607 0.262369 0.348849
0.124442 0.263205 0.395992
0.125271 0.264034 0.442735
0.126094 0.264856 0.489132
0.126911 0.265674 0.535222
0.127723 0.266486 0.581039
0.128531 0.267294 0.626608
0.129335 0.268098 0.671951
0.130135 0.268898 0.717086
0.130932 0.269695 0.762030
0.131726 0.270489 0.806794
0.132517 0.271279 0.851392
0.127690 0.313682 0.111311
0.128601 0.314593 0.162716
0.129486 0.315478 0.212598
0.130353 0.316345 0.261500
0.131207 0.317199 0.309682
0.132051 0.318043 0.357294
0.132887 0.318879 0.404436
0.133716 0.319708 0.451180
0.134538 0.320530 0.497576
0.135356 0.321348 0.543667
0.136168 0.322160 0.589484
0.136976 0.322968 0.635053
0.137780 0.323772 0.680396
0.138580 0.324572 0.725531
0.139377 0.325369 0.770474
0.140170 0.326163 0.815239
0.140961 0.326953 0.859837
0.136038 0.368718 0.119658
0.136949 0.369630 0.171064
0.137834 0.370514 0.220946
0.138701 0.371381 0.269848
0.139555 0.372235 0.318029
0.140399 0.373080 0.365642
0.141235 0.373915 0.412784
0.142064 0.374744 0.459527
0.142886 0.375567 0.505924
0.143703 0.376384 0.552015
0.144516 0.377196 0.597832
0.145324 0.378004 0.643401
0.146128 0.378808 0.688744
0.146928 0.379608 0.733879
0.147725 0.380405 0.778822
0.148518 0.381199 0.823587
0.149309 0.381990 0.868185
0.144305 0.423226 0.127926
0.145217 0.424137 0.179331
0.146101 0.425022 0.229213
0.146968 0.425889 0.278116
0.147823 0.426743 0.326297
0.148667 0.427587 0.373909
0.149503 0.428423 0.421052
0.150331 0.429252 0.467795
0.151154 0.430074 0.514192
0.151971 0.430891 0.560283
0.152783 0.431704 0.606099
0.153591 0.432512 0.651668
0.154395 0.433316 0.697011
0.155196 0.434116 0.742147
0.155992 0.434913 0.787090
0.156786 0.435706 0.831855
0.157577 0.436497 0.876452
0.152505 0.477282 0.136125
0.153416 0.478194 0.187531
0.154301 0.479078 0.237413
0.155168 0.479945 0.286315
0.156022 0.480799 0.334496
0.156866 0.481643 0.382108
0.157702 0.482479 0.429251
0.158531 0.483308 0.475994
0.159353 0.484131 0.522391
0.160170 0.484948 0.568482
0.160983 0.485760 0.614299
0.161791 0.486568 0.659868
0.162595 0.487372 0.705211
0.163395 0.488172 0.750346
0.164192 0.488969 0.795289
0.164985 0.489763 0.840054
0.165776 0.490554 0.884652
0.160644 0.530945 0.144265
0.161556 0.531857 0.195670
0.162440 0.532741 0.245552
0.163307 0.533608 0.294455
0.164161 0.534463 0.342636
0.165006 0.535307 0.390248
0.165841 0.536143 0.437391
0.166670 0.536971 0.484134
0.167493 0.537794 0.530531
0.168310 0.538611 0.576622
0.169122 0.539423 0.622438
0.169930 0.540231 0.668007
0.170734 0.541035 0.713350
0.171534 0.541836 0.758486
0.172331 0.542632 0.803429
0.173125 0.543426 0.848193
0.173916 0.544217 0.892791
0.168731 0.584261 0.152352
0.169643 0.585172 0.203757
0.170527 0.586057 0.253639
0.171394 0.586924 0.302542
0.172248 0.587778 0.350723
0.173092 0.588622 0.398335
0.173928 0.589458 0.445477
0.174757 0.590287 0.492221
0.175580 0.591109 0.538618
0.176397 0.591926 0.584708
0.177209 0.592739 0.630525
0.178017 0.593547 0.676094
0.178821 0.594351 0.721437
0.179621 0.595151 0.766572
0.180418 0.595948 0.811516
0.181212 0.596741 0.856280
0.182003 0.597532 0.900878
0.176771 0.637264 0.160391
0.177682 0.638176 0.211797
0.178567 0.639060 0.261679
0.179434 0.639927 0.310581
0.180288 0.640781 0.358762
0.181132 0.641625 0.406375
0.181968 0.642461 0.453517
0.182797 0.643290 0.500260
0.183619 0.644113 0.546657
0.184436 0.644930 0.592748
0.185249 0.645742 0.638565
0.186057 0.646550 0.684134
0.186861 0.647354 0.729477
0.187661 0.648154 0.774612
0.188458 0.648951 0.819555
0.189251 0.649745 0.864320
0.190042 0.650535 0.908918
0.184767 0.689985 0.168388
0.185679 0.690896 0.219793
0.186563 0.691781 0.269675
0.187430 0.692648 0.318578
0.188285 0.693502 0.366759
0.189129 0.694346 0.414371
0.189965 0.695182 0.461514
0.190793 0.696011 0.508257
0.191616 0.696834 0.554654
0.192433 0.697651 0.600745
0.193245 0.698463 0.646561
0.194053 0.699271 0.692130
0.194857 0.700075 0.737473
0.195658 0.700875 0.782609
0.196454 0.701672 0.827552
0.197248 0.702466 0.872316
0.198039 0.703256 0.916914
0.192725 0.742448 0.176346
0.193636 0.743359 0.227751
0.194521 0.744244 0.277633
0.195388 0.745111 0.326535
0.196242 0.745965 0.374717
0.197086 0.746809 0.422329
0.197922 0.747645 0.469471
0.198751 0.748474 0.516215
0.199573 0.749296 0.562611
0.200391 0.750114 0.608702
0.201203 0.750926 0.654519
0.202011 0.751734 0.700088
0.202815 0.752538 0.745431
0.203615 0.753338 0.790566
0.204412 0.754135 0.835509
0.205206 0.754928 0.880274
0.205996 0.755719 0.924872
0.200646 0.794673 0.184267
0.201558 0.795585 0.235672
0.202442 0.796469 0.285554
0.203309 0.797336 0.334457
0.204164 0.798190 0.382638
0.205008 0.799035 0.430250
0.205844 0.799870 0.477393
0.206672 0.800699 0.524136
0.207495 0.801522 0.570533
0.208312 0.802339 0.616624
0.209124 0.803151 0.662440
0.209932 0.803959 0.708009
0.210736 0.804763 0.753352
0.211537 0.805563 0.798488
0.212333 0.806360 0.843431
0.213127 0.807154 0.888196
0.213918 0.807945 0.932793
0.208535 0.846679 0.192155
0.209446 0.847590 0.243561
0.210331 0.848475 0.293443
0.211198 0.849342 0.342345
0.212052 0.850196 0.390526
0.212896 0.851040 0.438138
0.213732 0.851876 0.485281
0.214561 0.852705 0.532024
0.215383 0.853527 0.578421
0.216200 0.854345 0.624512
0.217013 0.855157 0.670329
0.217821 0.855965 0.715898
0.218625 0.856769 0.761241
0.219425 0.857569 0.806376
0.220222 0.858366 0.851319
0.221015 0.859160 0.896084
0.221806 0.859950 0.940682
0.216392 0.898480 0.200013
0.217303 0.899392 0.251418
0.218188 0.900276 0.301300
0.219055 0.901143 0.350202
0.219909 0.901997 0.398384
0.220753 0.902841 0.445996
0.221589 0.903677 0.493138
0.222418 0.904506 0.539882
0.223240 0.905329 0.586278
0.224058 0.906146 0.632369
0.224870 0.906958 0.678186
0.225678 0.907766 0.723755
0.226482 0.908570 0.769098
0.227282 0.909370 0.814233
0.228079 0.910167 0.859176
0.228873 0.910961 0.903941
0.229663 0.911752 0.948539
0.223924 0.948140 0.207545
0.224836 0.949052 0.258950
0.225720 0.949936 0.308832
0.226587 0.950803 0.357735
0.227441 0.951657 0.405916
0.228286 0.952501 0.453528
0.229121 0.953337 0.500671
0.229950 0.954166 0.547414
0.230773 0.954989 0.593811
0.231590 0.955806 0.639901
0.232402 0.956618 0.685718
0.233210 0.957426 0.731287
0.234014 0.958230 0.776630
0.234814 0.959030 0.821765
0.235611 0.959827 0.866709
0.236405 0.960621 0.911473
0.237196 0.961412 0.956071
0.145551 0.087471 0.079250
0.146462 0.088383 0.130655
0.147347 0.089267 0.180537
0.148214 0.090134 0.229440
0.149068 0.090988 0.277621
0.149912 0.091833 0.325233
0.150748 0.092668 0.372375
0.151577 0.093497 0.419119
0.152399 0.094320 0.465516
0.153217 0.095137 0.511606
0.154029 0.095949 0.557423
0.154837 0.096757 0.602992
0.155641 0.097561 0.648335
0.156441 0.098361 0.693470
0.157238 0.099158 0.738414
0.158032 0.099952 0.783178
0.158822 0.100743 0.827776
0.154525 0.146639 0.088224
0.155437 0.147550 0.139630
0.156321 0.148435 0.189512
0.157188 0.149302 0.238414
0.158043 0.150156 0.286595
0.158887 0.151000 0.334207
0.159723 0.151836 0.381350
0.160551 0.152665 0.428093
0.161374 0.153487 0.474490
0.162191 0.154304 0.520581
0.163003 0.155117 0.566398
0.163811 0.155925 0.611967
0.164615 0.156729 0.657310
0.165416 0.157529 0.702445
0.166212 0.158326 0.747388
0.167006 0.159119 0.792153
0.167797 0.159910 0.836751
0.163254 0.204187 0.096953
0.164166 0.205098 0.148359
0.165050 0.205982 0.198241
0.165917 0.206849 0.247143
0.166771 0.207704 0.295324
0.167616 0.208548 0.342936
0.168451 0.209384 0.390079
0.169280 0.210212 0.436822
0.170103 0.211035 0.483219
0.170920 0.211852 0.529310
0.171732 0.212665 0.575126
0.172540 0.213472 0.620695
0.173344 0.214276 0.666038
0.174144 0.215077 0.711174
0.174941 0.215873 0.756117
0.175735 0.216667 0.800882
0.176526 0.217458 0.845479
0.171820 0.260661 0.105519
0.172732 0.261573 0.156925
0.173616 0.262457 0.206807
0.174483 0.263324 0.255709
0.175337 0.264178 0.303890
0.176182 0.265023 0.351502
0.177017 0.265858 0.398645
0.177846 0.266687 0.445388
0.178669 0.267510 0.491785
0.179486 0.268327 0.537876
0.180298 0.269139 0.583693
0.181106 0.269947 0.629261
0.181910 0.270751 0.674604
0.182710 0.271551 0.719740
0.183507 0.272348 0.764683
0.184301 0.273142 0.809448
0.185092 0.273933 0.854046
0.180265 0.316335 0.113964
0.181176 0.317247 0.165369
0.182061 0.318131 0.215251
0.182928 0.318998 0.264154
0.183782 0.319852 0.312335
0.184626 0.320697 0.359947
0.185462 0.321532 0.407090
0.186291 0.322361 0.453833
0.187113 0.323184 0.500230
0.187931 0.324001 0.546320
0.188743 0.324813 0.592137
0.189551 0.325621 0.637706
0.190355 0.326425 0.683049
0.191155 0.327225 0.728184
0.191952 0.328022 0.773128
0.192746 0.328816 0.817892
0.193536 0.329607 0.862490
0.188613 0.371372 0.122312
0.189524 0.372283 0.173717
0.190409 0.373167 0.223599
0.191276 0.374034 0.272501
0.192130 0.374889 0.320683
0.192974 0.375733 0.368295
0.193810 0.376569 0.415437
0.194639 0.377397 0.462181
0.195461 0.378220 0.508578
0.196278 0.379037 0.554668
0.197091 0.379850 0.600485
0.197899 0.380658 0.646054
0.198703 0.381461 0.691397
0.199503 0.382262 0.736532
0.200300 0.383059 0.781476
0.201093 0.383852 0.826240
0.201884 0.384643 0.870838
0.196881 0.425879 0.130579
0.197792 0.426791 0.181985
0.198676 0.427675 0.231867
0.199543 0.428542 0.280769
0.200398 0.429396 0.328951
0.201242 0.430240 0.376563
0.202078 0.431076 0.423705
0.202906 0.431905 0.470449
0.203729 0.432728 0.516845
0.204546 0.433545 0.562936
0.205358 0.434357 0.608753
0.206166 0.435165 0.654322
0.206970 0.435969 0.699665
0.207771 0.436769 0.744800
0.208567 0.437566 0.789743
0.209361 0.438360 0.834508
0.210152 0.439151 0.879106
0.205080 0.479936 0.138779
0.205991 0.480847 0.190184
0.206876 0.481731 0.240066
0.207743 0.482598 0.288968
0.208597 0.483453 0.337150
0.209441 0.484297 0.384762
0.210277 0.485133 0.431904
0.211106 0.485961 0.478648
0.211928 0.486784 0.525045
0.212745 0.487601 0.571135
0.213558 0.488414 0.616952
0.214366 0.489221 0.662521
0.215170 0.490025 0.707864
0.215970 0.490826 0.752999
0.216767 0.491622 0.797942
0.217560 0.492416 0.842707
0.218351 0.493207 0.887305
0.213219 0.533599 0.146918
0.214131 0.534510 0.198324
0.215015 0.535395 0.248206
0.215882 0.536262 0.297108
0.216736 0.537116 0.345289
0.217581 0.537960 0.392901
0.218416 0.538796 0.440044
0.219245 0.539625 0.486787
0.220068 0.540447 0.533184
0.220885 0.541264 0.579275
0.221697 0.542077 0.625092
0.222505 0.542885 0.670661
0.223309 0.543689 0.716004
0.224109 0.544489 0.761139
0.224906 0.545286 0.806082
0.225700 0.546079 0.850847
0.226491 0.546870 0.895445
0.221306 0.586914 0.155005
0.222218 0.587826 0.206411
0.223102 0.588710 0.256293
0.223969 0.589577 0.305195
0.224823 0.590431 0.353376
0.225668 0.591275 0.400988
0.226503 0.592111 0.448131
0.227332 0.592940 0.494874
0.228155 0.593763 0.541271
0.228972 0.594580 0.587362
0.229784 0.595392 0.633178
0.230592 0.596200 0.678747
0.231396 0.597004 0.724090
0.232196 0.597804 0.769226
0.232993 0.598601 0.814169
0.233787 0.599395 0.858934
0.234578 0.600185 0.903531
0.229346 0.639917 0.163045
0.230257 0.640829 0.214450
0.231142 0.641713 0.264332
0.232009 0.642580 0.313234
0.232863 0.643435 0.361416
0.233707 0.644279 0.409028
0.234543 0.645115 0.456170
0.235372 0.645943 0.502914
0.236194 0.646766 0.549311
0.237011 0.647583 0.595401
0.237824 0.648395 0.641218
0.238632 0.649203 0.686787
0.239436 0.650007 0.732130
0.240236 0.650808 0.777265
0.241033 0.651604 0.822208
0.241826 0.652398 0.866973
0.242617 0.653189 0.911571
0.237342 0.692638 0.171041
0.238254 0.693550 0.222447
0.239138 0.694434 0.272329
0.240005 0.695301 0.321231
0.240860 0.696155 0.369412
0.241704 0.697000 0.417025
0.242540 0.697835 0.464167
0.243368 0.698664 0.510910
0.244191 0.699487 0.557307
0.245008 0.700304 0.603398
0.245820 0.701116 0.649215
0.246628 0.701924 0.694784
0.247432 0.702728 0.740127
0.248233 0.703528 0.785262
0.249029 0.704325 0.830205
0.249823 0.705119 0.874970
0.250614 0.705910 0.919568
0.245300 0.745101 0.178999
0.246211 0.746013 0.230404
0.247096 0.746897 0.280286
0.247963 0.747764 0.329189
0.248817 0.748618 0.377370
0.249661 0.749462 0.424982
0.250497 0.750298 0.472125
0.251326 0.751127 0.518868
0.252148 0.751950 0.565265
0.252966 0.752767 0.611355
0.253778 0.753579 0.657172
0.254586 0.754387 0.702741
0.255390 0.755191 0.748084
0.256190 0.755991 0.793219
0.256987 0.756788 0.838163
0.257781 0.757582 0.882927
0.258571 0.758373 0.927525
0.253222 0.797327 0.186921
0.254133 0.798238 0.238326
0.255017 0.799122 0.288208
0.255884 0.799989 0.337110
0.256739 0.800844 0.385292
0.257583 0.801688 0.432904
0.258419 0.802524 0.480046
0.259247 0.803352 0.526790
0.260070 0.804175 0.573186
0.260887 0.804992 0.619277
0.261700 0.805805 0.665094
0.262507 0.806613 0.710663
0.263311 0.807416 0.756006
0.264112 0.808217 0.801141
0.264908 0.809014 0.846084
0.265702 0.809807 0.890849
0.266493 0.810598 0.935447
0.261110 0.849332 0.194809
0.262021 0.850244 0.246214
0.262906 0.851128 0.296096
0.263773 0.851995 0.344998
0.264627 0.852849 0.393180
0.265471 0.853694 0.440792
0.266307 0.854529 0.487934
0.267136 0.855358 0.534678
0.267958 0.856181 0.581075
0.268775 0.856998 0.627165
0.269588 0.857810 0.672982
0.270396 0.858618 0.718551
0.271200 0.859422 0.763894
0.272000 0.860222 0.809029
0.272797 0.861019 0.853972
0.273590 0.861813 0.898737
0.274381 0.862604 0.943335
0.268967 0.901134 0.202666
0.269878 0.902045 0.254071
0.270763 0.902929 0.303953
0.271630 0.903796 0.352856
0.272484 0.904651 0.401037
0.273328 0.905495 0.448649
0.274164 0.906331 0.495792
0.274993 0.907159 0.542535
0.275815 0.907982 0.588932
0.276633 0.908799 0.635022
0.277445 0.909612 0.680839
0.278253 0.910419 0.726408
0.279057 0.911223 0.771751
0.279857 0.912024 0.816886
0.280654 0.912820 0.861830
0.281448 0.913614 0.906594
0.282238 0.914405 0.951192
0.276499 0.950794 0.210198
0.277411 0.951705 0.261604
0.278295 0.952589 0.311486
0.279162 0.953456 0.360388
0.280016 0.954311 0.408569
0.280861 0.955155 0.456181
0.281696 0.955991 0.503324
0.282525 0.956819 0.550067
0.283348 0.957642 0.596464
0.284165 0.958459 0.642555
0.284977 0.959272 0.688372
0.285785 0.960079 0.733941
0.286589 0.960883 0.779284
0.287389 0.961684 0.824419
0.288186 0.962480 0.869362
0.288980 0.963274 0.914127
0.289771 0.964065 0.958725
0.196788 0.090057 0.081836
0.197699 0.090969 0.133241
0.198584 0.091853 0.183123
0.199451 0.092720 0.232025
0.200305 0.093574 0.280207
0.201149 0.094418 0.327819
0.201985 0.095254 0.374961
0.202814 0.096083 0.421705
0.203636 0.096906 0.468102
0.204454 0.097723 0.514192
0.205266 0.098535 0.560009
0.206074 0.099343 0.605578
0.206878 0.100147 0.650921
0.207678 0.100947 0.696056
0.208475 0.101744 0.740999
0.209269 0.102538 0.785764
0.210059 0.103328 0.830362
0.205762 0.149225 0.090810
0.206674 0.150136 0.142216
0.207558 0.151020 0.192098
0.208425 0.151887 0.241000
0.209280 0.152742 0.289181
0.210124 0.153586 0.336793
0.210960 0.154422 0.383936
0.211788 0.155250 0.430679
0.212611 0.156073 0.477076
0.213428 0.156890 0.523167
0.214240 0.157703 0.568983
0.215048 0.158511 0.614552
0.215852 0.159314 0.659895
0.216653 0.160115 0.705031
0.217449 0.160912 0.749974
0.218243 0.161705 0.794739
0.219034 0.162496 0.839336
0.214491 0.206772 0.099539
0.215403 0.207684 0.150944
0.216287 0.208568 0.200826
0.217154 0.209435 0.249729
0.218008 0.210289 0.297910
0.218853 0.211134 0.345522
0.219688 0.211969 0.392665
0.220517 0.212798 0.439408
0.221340 0.213621 0.485805
0.222157 0.214438 0.531896
0.222969 0.215250 0.577712
0.223777 0.216058 0.623281
0.224581 0.216862 0.668624
0.225381 0.217662 0.713760
0.226178 0.218459 0.758703
0.226972 0.219253 0.803467
0.227763 0.220044 0.848065
0.223057 0.263247 0.108105
0.223969 0.264159 0.159510
0.224853 0.265043 0.209392
0.225720 0.265910 0.258295
0.226574 0.266764 0.306476
0.227419 0.267608 0.354088
0.228254 0.268444 0.401231
0.229083 0.269273 0.447974
0.229906 0.270096 0.494371
0.230723 0.270913 0.540462
0.231535 0.271725 0.586278
0.232343 0.272533 0.631847
0.233147 0.273337 0.677190
0.233947 0.274137 0.722326
0.234744 0.274934 0.767269
0.235538 0.275728 0.812033
0.236329 0.276518 0.856631
0.231502 0.318921 0.116550
0.232413 0.319832 0.167955
0.233298 0.320717 0.217837
0.234165 0.321584 0.266739
0.235019 0.322438 0.314921
0.235863 0.323282 0.362533
0.236699 0.324118 0.409675
0.237528 0.324947 0.456419
0.238350 0.325770 0.502816
0.239168 0.326587 0.548906
0.239980 0.327399 0.594723
0.240788 0.328207 0.640292
0.241592 0.329011 0.685635
0.242392 0.329811 0.730770
0.243189 0.330608 0.775713
0.243983 0.331402 0.820478
0.244773 0.332192 0.865076
0.239850 0.373957 0.124898
0.240761 0.374869 0.176303
0.241646 0.375753 0.226185
0.242513 0.376620 0.275087
0.243367 0.377475 0.323269
0.244211 0.378319 0.370881
0.245047 0.379155 0.418023
0.245876 0.379983 0.464767
0.246698 0.380806 0.511163
0.247516 0.381623 0.557254
0.248328 0.382435 0.603071
0.249136 0.383243 0.648640
0.249940 0.384047 0.693983
0.250740 0.384848 0.739118
0.251537 0.385644 0.784061
0.252330 0.386438 0.828826
0.253121 0.387229 0.873424
0.248118 0.428465 0.133165
0.249029 0.429376 0.184571
0.249913 0.430261 0.234453
0.250780 0.431128 0.283355
0.251635 0.431982 0.331536
0.252479 0.432826 0.379148
0.253315 0.433662 0.426291
0.254143 0.434491 0.473034
0.254966 0.435313 0.519431
0.255783 0.436131 0.565522
0.256596 0.436943 0.611339
0.257403 0.437751 0.656907
0.258207 0.438555 0.702250
0.259008 0.439355 0.747386
0.259804 0.440152 0.792329
0.260598 0.440946 0.837094
0.261389 0.441736 0.881692
0.256317 0.482521 0.141365
0.257228 0.483433 0.192770
0.258113 0.484317 0.242652
0.258980 0.485184 0.291554
0.259834 0.486038 0.339736
0.260678 0.486883 0.387348
0.261514 0.487718 0.434490
0.262343 0.488547 0.481234
0.263165 0.489370 0.527630
0.263982 0.490187 0.573721
0.264795 0.490999 0.619538
0.265603 0.491807 0.665107
0.266407 0.492611 0.710450
0.267207 0.493411 0.755585
0.268004 0.494208 0.800528
0.268797 0.495002 0.845293
0.269588 0.495793 0.889891
0.264456 0.536185 0.149504
0.265368 0.537096 0.200909
0.266252 0.537980 0.250791
0.267119 0.538847 0.299694
0.267974 0.539702 0.347875
0.268818 0.540546 0.395487
0.269654 0.541382 0.442630
0.270482 0.542210 0.489373
0.271305 0.543033 0.535770
0.272122 0.543850 0.581861
0.272934 0.544663 0.627677
0.273742 0.545471 0.673246
0.274546 0.546274 0.718589
0.275347 0.547075 0.763725
0.276143 0.547872 0.808668
0.276937 0.548665 0.853433
0.277728 0.549456 0.898030
0.272543 0.589500 0.157591
0.273455 0.590411 0.208996
0.274339 0.591296 0.258878
0.275206 0.592163 0.307781
0.276060 0.593017 0.355962
0.276905 0.593861 0.403574
0.277740 0.594697 0.450717
0.278569 0.595526 0.497460
0.279392 0.596348 0.543857
0.280209 0.597166 0.589948
0.281021 0.597978 0.635764
0.281829 0.598786 0.681333
0.282633 0.599590 0.726676
0.283433 0.600390 0.771812
0.284230 0.601187 0.816755
0.285024 0.601981 0.861519
0.285815 0.602771 0.906117
0.280583 0.642503 0.165631
0.281494 0.643415 0.217036
0.282379 0.644299 0.266918
0.283246 0.645166 0.315820
0.284100 0.646020 0.364002
0.284944 0.646865 0.411614
0.285780 0.647700 0.458756
0.286609 0.648529 0.505500
0.287431 0.649352 0.551896
0.288248 0.650169 0.597987
0.289061 0.650981 0.643804
0.289869 0.651789 0.689373
0.290673 0.652593 0.734716
0.291473 0.653393 0.779851
0.292270 0.654190 0.824794
0.293063 0.654984 0.869559
0.293854 0.655775 0.914157
0.288579 0.695224 0.173627
0.289491 0.696136 0.225033
0.290375 0.697020 0.274915
0.291242 0.697887 0.323817
0.292097 0.698741 0.371998
0.292941 0.699585 0.419610
0.293777 0.700421 0.466753
0.294605 0.701250 0.513496
0.295428 0.702073 0.559893
0.296245 0.702890 0.605984
0.297057 0.703702 0.651800
0.297865 0.704510 0.697369
0.298669 0.705314 0.742712
0.299470 0.706114 0.787848
0.300266 0.706911 0.832791
0.301060 0.707705 0.877556
0.301851 0.708496 0.922153
0.296537 0.747687 0.181585
0.297448 0.748598 0.232990
0.298333 0.749483 0.282872
0.299200 0.750350 0.331774
0.300054 0.751204 0.379956
0.300898 0.752048 0.427568
0.301734 0.752884 0.474710
0.302563 0.753713 0.521454
0.303386 0.754535 0.567851
0.304203 0.755353 0.613941
0.305015 0.756165 0.659758
0.305823 0.756973 0.705327
0.306627 0.757777 0.750670
0.307427 0.758577 0.795805
0.308224 0.759374 0.840748
0.309018 0.760168 0.885513
0.309808 0.760958 0.930111
0.304459 0.799912 0.189506
0.305370 0.800824 0.240912
0.306254 0.801708 0.290794
0.307121 0.802575 0.339696
0.307976 0.803430 0.387877
0.308820 0.804274 0.435489
0.309656 0.805110 0.482632
0.310484 0.805938 0.529375
0.311307 0.806761 0.575772
0.312124 0.807578 0.621863
0.312937 0.808390 0.667680
0.313744 0.809198 0.713249
0.314548 0.810002 0.758592
0.315349 0.810803 0.803727
0.316146 0.811599 0.848670
0.316939 0.812393 0.893435
0.317730 0.813184 0.938033
0.312347 0.851918 0.197395
0.313258 0.852830 0.248800
0.314143 0.853714 0.298682
0.315010 0.854581 0.347584
0.315864 0.855435 0.395766
0.316708 0.856279 0.443378
0.317544 0.857115 0.490520
0.318373 0.857944 0.537264
0.319195 0.858767 0.583660
0.320012 0.859584 0.629751
0.320825 0.860396 0.675568
0.321633 0.861204 0.721137
0.322437 0.862008 0.766480
0.323237 0.862808 0.811615
0.324034 0.863605 0.856558
0.324827 0.864399 0.901323
0.325618 0.865189 0.945921
0.320204 0.903719 0.205252
0.321115 0.904631 0.256657
0.322000 0.905515 0.306539
0.322867 0.906382 0.355441
0.323721 0.907236 0.403623
0.324565 0.908081 0.451235
0.325401 0.908916 0.498377
0.326230 0.909745 0.545121
0.327052 0.910568 0.591518
0.327870 0.911385 0.637608
0.328682 0.912197 0.683425
0.329490 0.913005 0.728994
0.330294 0.913809 0.774337
0.331094 0.914609 0.819472
0.331891 0.915406 0.864415
0.332685 0.916200 0.909180
0.333475 0.916991 0.953778
0.327736 0.953379 0.212784
0.328648 0.954291 0.264189
0.329532 0.955175 0.314071
0.330399 0.956042 0.362974
0.331253 0.956896 0.411155
0.332098 0.957741 0.458767
0.332933 0.958576 0.505910
0.333762 0.959405 0.552653
0.334585 0.960228 0.599050
0.335402 0.961045 0.645141
0.336214 0.961857 0.690957
0.337022 0.962665 0.736526
0.337826 0.963469 0.781869
0.338626 0.964269 0.827005
0.339423 0.965066 0.871948
0.340217 0.965860 0.916712
0.341008 0.966651 0.961310
0.247116 0.092597 0.084376
0.248027 0.093508 0.135781
0.248911 0.094393 0.185663
0.249778 0.095260 0.234565
0.250633 0.096114 0.282747
0.251477 0.096958 0.330359
0.252313 0.097794 0.377501
0.253141 0.098623 0.424245
0.253964 0.099445 0.470641
0.254781 0.100263 0.516732
0.255594 0.101075 0.562549
0.256402 0.101883 0.608118
0.257205 0.102687 0.653461
0.258006 0.103487 0.698596
0.258803 0.104284 0.743539
0.259596 0.105078 0.788304
0.260387 0.105868 0.832902
0.256090 0.151765 0.093350
