skills/editops-orchestrator/assets/grade/luts/soft_pastel_v07.cube
TITLE "soft_pastel_v07"
LUT_3D_SIZE 9
DOMAIN_MIN 0.0 0.0 0.0
DOMAIN_MAX 1.0 1.0 1.0
0.040275 0.037355 0.034427
0.041359 0.038439 0.147844
0.042410 0.039491 0.257896
0.043446 0.040527 0.366305
0.044472 0.041553 0.473614
0.045490 0.042570 0.580094
0.046501 0.043582 0.685910
0.047507 0.044588 0.791172
0.048497 0.045578 0.894780
0.050998 0.160265 0.045151
0.052082 0.161349 0.158568
0.053134 0.162401 0.268619
0.054170 0.163437 0.377029
0.055196 0.164463 0.484337
0.056213 0.165481 0.590817
0.057225 0.166492 0.696633
0.058231 0.167498 0.801896
0.059221 0.168488 0.905504
0.061412 0.279627 0.055565
0.062496 0.280711 0.168982
0.063548 0.281763 0.279033
0.064584 0.282799 0.387443
0.065610 0.283824 0.494751
0.066627 0.284842 0.601231
0.067639 0.285853 0.707047
0.068645 0.286859 0.812310
0.069635 0.287850 0.915918
0.071673 0.397228 0.065825
0.072757 0.398312 0.179242
0.073808 0.399364 0.289294
0.074845 0.400400 0.397703
0.075870 0.401426 0.505012
0.076888 0.402444 0.611492
0.077899 0.403455 0.717308
0.078905 0.404461 0.822570
0.079895 0.405451 0.926178
0.081830 0.513645 0.075982
0.082914 0.514729 0.189399
0.083966 0.515781 0.299451
0.085002 0.516817 0.407860
0.086027 0.517843 0.515169
0.087045 0.518860 0.621649
0.088056 0.519872 0.727465
0.089062 0.520878 0.832727
0.090053 0.521868 0.936335
0.091909 0.629168 0.086061
0.092993 0.630252 0.199478
0.094045 0.631304 0.309530
0.095081 0.632340 0.417940
0.096106 0.633366 0.525248
0.097124 0.634383 0.631728
0.098135 0.635395 0.737544
0.099141 0.636401 0.842806
0.100132 0.637391 0.946415
0.101925 0.743974 0.096078
0.103009 0.745058 0.209495
0.104061 0.746110 0.319547
0.105097 0.747146 0.427956
0.106123 0.748172 0.535265
0.107141 0.749189 0.641745
0.108152 0.750201 0.747561
0.109158 0.751207 0.852823
0.110148 0.752197 0.956431
0.111890 0.858182 0.106042
0.112974 0.859266 0.219459
0.114026 0.860318 0.329511
0.115062 0.861354 0.437921
0.116087 0.862380 0.545229
0.117105 0.863398 0.651709
0.118116 0.864409 0.757525
0.119122 0.865415 0.862787
0.120113 0.866405 0.966396
0.121448 0.967731 0.115600
0.122532 0.968815 0.229017
0.123584 0.969866 0.339069
0.124620 0.970903 0.447478
0.125645 0.971928 0.554787
0.126663 0.972946 0.661267
0.127674 0.973957 0.767083
0.128680 0.974963 0.872345
0.129670 0.975953 0.975953
0.155506 0.040539 0.037611
0.156590 0.041623 0.151028
0.157641 0.042675 0.261079
0.158677 0.043711 0.369489
0.159703 0.044736 0.476797
0.160721 0.045754 0.583277
0.161732 0.046765 0.689093
0.162738 0.047771 0.794356
0.163728 0.048762 0.897964
0.166229 0.163449 0.048334
0.167313 0.164533 0.161751
0.168365 0.165585 0.271803
0.169401 0.166621 0.380213
0.170427 0.167647 0.487521
0.171444 0.168664 0.594001
0.172456 0.169676 0.699817
0.173462 0.170682 0.805080
0.174452 0.171672 0.908688
0.176643 0.282811 0.058748
0.177727 0.283895 0.172165
0.178779 0.284946 0.282217
0.179815 0.285983 0.390627
0.180841 0.287008 0.497935
0.181858 0.288026 0.604415
0.182870 0.289037 0.710231
0.183876 0.290043 0.815494
0.184866 0.291033 0.919102
0.186904 0.400412 0.069009
0.187988 0.401496 0.182426
0.189039 0.402548 0.292477
0.190076 0.403584 0.400887
0.191101 0.404610 0.508196
0.192119 0.405627 0.614676
0.193130 0.406639 0.720492
0.194136 0.407645 0.825754
0.195126 0.408635 0.929362
0.197061 0.516829 0.079166
0.198145 0.517913 0.192583
0.199197 0.518965 0.302635
0.200233 0.520001 0.411044
0.201258 0.521026 0.518353
0.202276 0.522044 0.624833
0.203287 0.523055 0.730649
0.204293 0.524061 0.835911
0.205284 0.525052 0.939519
0.207140 0.632352 0.089245
0.208224 0.633436 0.202662
0.209276 0.634488 0.312714
0.210312 0.635524 0.421123
0.211337 0.636549 0.528432
0.212355 0.637567 0.634912
0.213366 0.638578 0.740728
0.214372 0.639584 0.845990
0.215363 0.640575 0.949598
0.217157 0.747158 0.099262
0.218240 0.748242 0.212679
0.219292 0.749294 0.322730
0.220328 0.750330 0.431140
0.221354 0.751356 0.538448
0.222372 0.752373 0.644928
0.223383 0.753385 0.750744
0.224389 0.754391 0.856007
0.225379 0.755381 0.959615
0.227121 0.861366 0.109226
0.228205 0.862450 0.222643
0.229257 0.863502 0.332695
0.230293 0.864538 0.441104
0.231318 0.865564 0.548413
0.232336 0.866581 0.654893
0.233347 0.867593 0.760709
0.234353 0.868599 0.865971
0.235344 0.869589 0.969579
0.236679 0.970914 0.118784
0.237763 0.971998 0.232201
0.238815 0.973050 0.342253
0.239851 0.974086 0.450662
0.240876 0.975112 0.557971
0.241894 0.976130 0.664451
0.242905 0.977141 0.770267
0.243911 0.978147 0.875529
0.244902 0.979137 0.979137
0.267496 0.043633 0.040705
0.268580 0.044717 0.154122
0.269631 0.045769 0.264174
0.270667 0.046805 0.372583
0.271693 0.047831 0.479892
0.272711 0.048848 0.586372
0.273722 0.049860 0.692188
0.274728 0.050866 0.797450
0.275718 0.051856 0.901058
0.278219 0.166543 0.051428
0.279303 0.167627 0.164845
0.280355 0.168679 0.274897
0.281391 0.169715 0.383307
0.282417 0.170741 0.490615
0.283434 0.171759 0.597095
0.284446 0.172770 0.702911
0.285452 0.173776 0.808174
0.286442 0.174766 0.911782
0.288633 0.285905 0.061842
0.289717 0.286989 0.175259
0.290769 0.288041 0.285311
0.291805 0.289077 0.393721
0.292831 0.290102 0.501029
0.293848 0.291120 0.607509
0.294860 0.292131 0.713325
0.295866 0.293137 0.818588
0.296856 0.294128 0.922196
0.298894 0.403506 0.072103
0.299978 0.404590 0.185520
0.301029 0.405642 0.295572
0.302066 0.406678 0.403981
0.303091 0.407704 0.511290
0.304109 0.408722 0.617770
0.305120 0.409733 0.723586
0.306126 0.410739 0.828848
0.307116 0.411729 0.932456
0.309051 0.519923 0.082260
0.310135 0.521007 0.195677
0.311187 0.522059 0.305729
0.312223 0.523095 0.414138
0.313248 0.524121 0.521447
0.314266 0.525138 0.627927
0.315277 0.526150 0.733743
0.316283 0.527156 0.839005
0.317274 0.528146 0.942613
0.319130 0.635446 0.092339
0.320214 0.636530 0.205756
0.321266 0.637582 0.315808
0.322302 0.638618 0.424218
0.323327 0.639644 0.531526
0.324345 0.640661 0.638006
0.325356 0.641673 0.743822
0.326362 0.642679 0.849084
0.327353 0.643669 0.952693
0.329147 0.750252 0.102356
0.330230 0.751336 0.215773
0.331282 0.752388 0.325824
0.332318 0.753424 0.434234
0.333344 0.754450 0.541543
0.334362 0.755467 0.648023
0.335373 0.756479 0.753839
0.336379 0.757485 0.859101
0.337369 0.758475 0.962709
0.339111 0.864460 0.112320
0.340195 0.865544 0.225737
0.341247 0.866596 0.335789
0.342283 0.867632 0.444199
0.343308 0.868658 0.551507
0.344326 0.869676 0.657987
0.345337 0.870687 0.763803
0.346343 0.871693 0.869065
0.347334 0.872683 0.972674
0.348669 0.974009 0.121878
0.349753 0.975093 0.235295
0.350805 0.976144 0.345347
0.351841 0.977181 0.453756
0.352866 0.978206 0.561065
0.353884 0.979224 0.667545
0.354895 0.980235 0.773361
0.355901 0.981241 0.878623
0.356892 0.982231 0.982231
0.377854 0.046682 0.043754
0.378938 0.047766 0.157171
0.379989 0.048818 0.267223
0.381026 0.049854 0.375632
0.382051 0.050880 0.482941
0.383069 0.051897 0.589421
0.384080 0.052909 0.695237
0.385086 0.053915 0.800499
0.386076 0.054905 0.904107
0.388577 0.169592 0.054478
0.389661 0.170676 0.167895
0.390713 0.171728 0.277946
0.391749 0.172764 0.386356
0.392775 0.173790 0.493664
0.393793 0.174808 0.600144
0.394804 0.175819 0.705960
0.395810 0.176825 0.811223
0.396800 0.177815 0.914831
0.398991 0.288954 0.064892
0.400075 0.290038 0.178309
0.401127 0.291090 0.288360
0.402163 0.292126 0.396770
0.403189 0.293151 0.504078
0.404207 0.294169 0.610558
0.405218 0.295180 0.716374
0.406224 0.296186 0.821637
0.407214 0.297177 0.925245
0.409252 0.406556 0.075152
0.410336 0.407639 0.188569
0.411388 0.408691 0.298621
0.412424 0.409727 0.407030
0.413449 0.410753 0.514339
0.414467 0.411771 0.620819
0.415478 0.412782 0.726635
0.416484 0.413788 0.831897
0.417475 0.414778 0.935505
0.419409 0.522972 0.085309
0.420493 0.524056 0.198726
0.421545 0.525108 0.308778
0.422581 0.526144 0.417188
0.423606 0.527170 0.524496
0.424624 0.528187 0.630976
0.425635 0.529199 0.736792
0.426641 0.530205 0.842054
0.427632 0.531195 0.945663
0.429488 0.638495 0.095388
0.430572 0.639579 0.208805
0.431624 0.640631 0.318857
0.432660 0.641667 0.427267
0.433686 0.642693 0.534575
0.434703 0.643710 0.641055
0.435715 0.644722 0.746871
0.436721 0.645728 0.852134
0.437711 0.646718 0.955742
0.439505 0.753301 0.105405
0.440589 0.754385 0.218822
0.441640 0.755437 0.328874
0.442677 0.756473 0.437283
0.443702 0.757499 0.544592
0.444720 0.758517 0.651072
0.445731 0.759528 0.756888
0.446737 0.760534 0.862150
0.447727 0.761524 0.965758
0.449469 0.867509 0.115369
0.450553 0.868593 0.228786
0.451605 0.869645 0.338838
0.452641 0.870681 0.447248
0.453667 0.871707 0.554556
0.454684 0.872725 0.661036
0.455696 0.873736 0.766852
0.456702 0.874742 0.872115
0.457692 0.875732 0.975723
0.459027 0.977058 0.124927
0.460111 0.978142 0.238344
0.461163 0.979194 0.348396
0.462199 0.980230 0.456805
0.463224 0.981255 0.564114
0.464242 0.982273 0.670594
0.465253 0.983284 0.776410
0.466259 0.984290 0.881672
0.467250 0.985281 0.985281
0.487109 0.049701 0.046773
0.488193 0.050785 0.160190
0.489244 0.051837 0.270241
0.490280 0.052873 0.378651
0.491306 0.053898 0.485959
0.492324 0.054916 0.592439
0.493335 0.055927 0.698255
0.494341 0.056933 0.803518
0.495331 0.057924 0.907126
0.497832 0.172611 0.057496
0.498916 0.173695 0.170913
0.499968 0.174747 0.280965
0.501004 0.175783 0.389375
0.502030 0.176809 0.496683
0.503047 0.177826 0.603163
0.504059 0.178838 0.708979
0.505065 0.179844 0.814241
0.506055 0.180834 0.917850
0.508246 0.291973 0.067910
0.509330 0.293057 0.181327
0.510382 0.294108 0.291379
0.511418 0.295144 0.399789
0.512444 0.296170 0.507097
0.513461 0.297188 0.613577
0.514473 0.298199 0.719393
0.515479 0.299205 0.824655
0.516469 0.300195 0.928264
0.518507 0.409574 0.078171
0.519591 0.410658 0.191588
0.520643 0.411710 0.301639
0.521679 0.412746 0.410049
0.522704 0.413772 0.517358
0.523722 0.414789 0.623837
0.524733 0.415801 0.729653
0.525739 0.416807 0.834916
0.526729 0.417797 0.938524
0.528664 0.525991 0.088328
0.529748 0.527075 0.201745
0.530800 0.528127 0.311797
0.531836 0.529163 0.420206
0.532861 0.530188 0.527515
0.533879 0.531206 0.633995
0.534890 0.532217 0.739811
0.535896 0.533223 0.845073
0.536887 0.534214 0.948681
0.538743 0.641514 0.098407
0.539827 0.642598 0.211824
0.540879 0.643650 0.321876
0.541915 0.644686 0.430285
0.542940 0.645711 0.537594
0.543958 0.646729 0.644074
0.544969 0.647740 0.749890
0.545975 0.648746 0.855152
0.546966 0.649737 0.958760
0.548760 0.756320 0.108424
0.549844 0.757404 0.221841
0.550895 0.758456 0.331892
0.551931 0.759492 0.440302
0.552957 0.760517 0.547610
0.553975 0.761535 0.654090
0.554986 0.762546 0.759906
0.555992 0.763553 0.865169
0.556982 0.764543 0.968777
0.558724 0.870528 0.118388
0.559808 0.871612 0.231805
0.560860 0.872664 0.341857
0.561896 0.873700 0.450266
0.562921 0.874726 0.557575
0.563939 0.875743 0.664055
0.564950 0.876755 0.769871
0.565956 0.877761 0.875133
0.566947 0.878751 0.978741
0.568282 0.980076 0.127946
0.569366 0.981160 0.241363
0.570418 0.982212 0.351414
0.571454 0.983248 0.459824
0.572479 0.984274 0.567133
0.573497 0.985292 0.673613
0.574508 0.986303 0.779429
0.575514 0.987309 0.884691
0.576505 0.988299 0.988299
0.595530 0.052696 0.049768
0.596614 0.053780 0.163185
0.597666 0.054832 0.273237
0.598702 0.055868 0.381646
0.599727 0.056894 0.488955
0.600745 0.057912 0.595435
0.601756 0.058923 0.701251
0.602762 0.059929 0.806513
0.603753 0.060919 0.910122
0.606253 0.175607 0.060492
0.607337 0.176691 0.173909
0.608389 0.177742 0.283961
0.609425 0.178779 0.392370
0.610451 0.179804 0.499679
0.611469 0.180822 0.606159
0.612480 0.181833 0.711975
0.613486 0.182839 0.817237
0.614476 0.183829 0.920845
0.616668 0.294968 0.070906
0.617751 0.296052 0.184323
0.618803 0.297104 0.294375
0.619839 0.298140 0.402784
0.620865 0.299166 0.510093
0.621883 0.300183 0.616573
0.622894 0.301195 0.722389
0.623900 0.302201 0.827651
0.624890 0.303191 0.931259
0.626928 0.412570 0.081166
0.628012 0.413654 0.194583
0.629064 0.414706 0.304635
0.630100 0.415742 0.413045
0.631125 0.416767 0.520353
0.632143 0.417785 0.626833
0.633154 0.418796 0.732649
0.634161 0.419802 0.837912
0.635151 0.420793 0.941520
0.637085 0.528986 0.091323
0.638169 0.530070 0.204740
0.639221 0.531122 0.314792
0.640257 0.532158 0.423202
0.641283 0.533184 0.530510
0.642300 0.534202 0.636990
0.643312 0.535213 0.742806
0.644318 0.536219 0.848069
0.645308 0.537209 0.951677
0.647164 0.644509 0.101403
0.648248 0.645593 0.214820
0.649300 0.646645 0.324871
0.650336 0.647681 0.433281
0.651362 0.648707 0.540589
0.652379 0.649725 0.647069
0.653391 0.650736 0.752885
0.654397 0.651742 0.858148
0.655387 0.652732 0.961756
0.657181 0.759316 0.111419
0.658265 0.760400 0.224836
0.659317 0.761451 0.334888
0.660353 0.762487 0.443297
0.661378 0.763513 0.550606
0.662396 0.764531 0.657086
0.663407 0.765542 0.762902
0.664413 0.766548 0.868164
0.665404 0.767538 0.971772
0.667145 0.873524 0.121384
0.668229 0.874608 0.234801
0.669281 0.875660 0.344852
0.670317 0.876696 0.453262
0.671343 0.877721 0.560570
0.672360 0.878739 0.667050
0.673372 0.879750 0.772866
0.674378 0.880756 0.878129
0.675368 0.881746 0.981737
0.676703 0.983072 0.130941
0.677787 0.984156 0.244358
0.678839 0.985208 0.354410
0.679875 0.986244 0.462820
0.680901 0.987269 0.570128
0.681918 0.988287 0.676608
0.682930 0.989298 0.782424
0.683936 0.990305 0.887687
0.684926 0.991295 0.991295
0.703282 0.055673 0.052745
0.704366 0.056757 0.166162
0.705417 0.057809 0.276214
0.706453 0.058845 0.384624
0.707479 0.059871 0.491932
0.708497 0.060889 0.598412
0.709508 0.061900 0.704228
0.710514 0.062906 0.809491
0.711504 0.063896 0.913099
0.714005 0.178584 0.063469
0.715089 0.179668 0.176886
0.716141 0.180720 0.286938
0.717177 0.181756 0.395347
0.718203 0.182781 0.502656
0.719220 0.183799 0.609136
0.720232 0.184810 0.714952
0.721238 0.185816 0.820214
0.722228 0.186807 0.923822
0.724419 0.297945 0.073883
0.725503 0.299029 0.187300
0.726555 0.300081 0.297352
0.727591 0.301117 0.405761
0.728617 0.302143 0.513070
0.729634 0.303160 0.619550
0.730646 0.304172 0.725366
0.731652 0.305178 0.830628
0.732642 0.306168 0.934236
0.734680 0.415547 0.084143
0.735764 0.416631 0.197560
0.736816 0.417683 0.307612
0.737852 0.418719 0.416022
0.738877 0.419744 0.523330
0.739895 0.420762 0.629810
0.740906 0.421773 0.735626
0.741912 0.422779 0.840889
0.742902 0.423770 0.944497
0.744837 0.531963 0.094300
0.745921 0.533047 0.207717
0.746973 0.534099 0.317769
0.748009 0.535135 0.426179
0.749034 0.536161 0.533487
0.750052 0.537179 0.639967
0.751063 0.538190 0.745783
0.752069 0.539196 0.851046
0.753060 0.540186 0.954654
0.754916 0.647486 0.104380
0.756000 0.648570 0.217797
0.757052 0.649622 0.327848
0.758088 0.650658 0.436258
0.759113 0.651684 0.543567
0.760131 0.652702 0.650046
0.761142 0.653713 0.755862
0.762148 0.654719 0.861125
0.763139 0.655709 0.964733
0.764933 0.762293 0.114396
0.766017 0.763377 0.227813
0.767068 0.764428 0.337865
0.768104 0.765465 0.446275
0.769130 0.766490 0.553583
0.770148 0.767508 0.660063
0.771159 0.768519 0.765879
0.772165 0.769525 0.871141
0.773155 0.770515 0.974750
0.774897 0.876501 0.124361
0.775981 0.877585 0.237778
0.777033 0.878637 0.347829
0.778069 0.879673 0.456239
0.779094 0.880698 0.563548
0.780112 0.881716 0.670027
0.781123 0.882727 0.775843
0.782129 0.883733 0.881106
0.783120 0.884724 0.984714
0.784455 0.986049 0.133918
0.785539 0.987133 0.247335
0.786591 0.988185 0.357387
0.787627 0.989221 0.465797
0.788652 0.990247 0.573105
0.789670 0.991264 0.679585
0.790681 0.992276 0.785401
0.791687 0.993282 0.890664
0.792678 0.994272 0.994272
0.810474 0.058635 0.055707
0.811558 0.059719 0.169124
0.812610 0.060771 0.279176
0.813646 0.061807 0.387585
0.814672 0.062833 0.494894
0.815689 0.063850 0.601374
0.816701 0.064862 0.707190
0.817707 0.065868 0.812452
0.818697 0.066858 0.916060
0.821198 0.181545 0.066431
0.822282 0.182629 0.179848
0.823334 0.183681 0.289899
0.824370 0.184717 0.398309
0.825395 0.185743 0.505617
0.826413 0.186761 0.612097
0.827424 0.187772 0.717913
0.828430 0.188778 0.823176
0.829421 0.189768 0.926784
0.831612 0.300907 0.076845
0.832696 0.301991 0.190262
0.833748 0.303043 0.300313
0.834784 0.304079 0.408723
0.835809 0.305104 0.516031
0.836827 0.306122 0.622511
0.837838 0.307133 0.728327
0.838845 0.308139 0.833590
0.839835 0.309130 0.937198
0.841872 0.418509 0.087105
0.842956 0.419592 0.200522
0.844008 0.420644 0.310574
0.845044 0.421680 0.418983
0.846070 0.422706 0.526292
0.847088 0.423724 0.632772
0.848099 0.424735 0.738588
0.849105 0.425741 0.843850
0.850095 0.426731 0.947458
0.852030 0.534925 0.097262
0.853114 0.536009 0.210679
0.854165 0.537061 0.320731
0.855201 0.538097 0.429140
0.856227 0.539123 0.536449
0.857245 0.540140 0.642929
0.858256 0.541152 0.748745
0.859262 0.542158 0.854007
0.860252 0.543148 0.957616
0.862109 0.650448 0.107341
0.863193 0.651532 0.220758
0.864244 0.652584 0.330810
0.865281 0.653620 0.439220
0.866306 0.654646 0.546528
0.867324 0.655663 0.653008
0.868335 0.656675 0.758824
0.869341 0.657681 0.864087
0.870331 0.658671 0.967695
0.872125 0.765254 0.117358
0.873209 0.766338 0.230775
0.874261 0.767390 0.340827
0.875297 0.768426 0.449236
0.876323 0.769452 0.556545
0.877340 0.770469 0.663025
0.878352 0.771481 0.768841
0.879358 0.772487 0.874103
0.880348 0.773477 0.977711
0.882090 0.879462 0.127322
0.883174 0.880546 0.240739
0.884225 0.881598 0.350791
0.885262 0.882634 0.459201
0.886287 0.883660 0.566509
0.887305 0.884678 0.672989
0.888316 0.885689 0.778805
0.889322 0.886695 0.884068
0.890312 0.887685 0.987676
0.891648 0.989011 0.136880
0.892731 0.990095 0.250297
0.893783 0.991147 0.360349
0.894819 0.992183 0.468758
0.895845 0.993208 0.576067
0.896863 0.994226 0.682547
0.897874 0.995237 0.788363
0.898880 0.996243 0.893625
0.899870 0.997233 0.997233
0.910604 0.061402 0.058473
0.911688 0.062486 0.171890
0.912740 0.063537 0.281942
0.913776 0.064574 0.390352
0.914802 0.065599 0.497660
0.915819 0.066617 0.604140
0.916831 0.067628 0.709956
0.917837 0.068634 0.815219
0.918827 0.069624 0.918827
0.921328 0.184312 0.069197
0.922412 0.185396 0.182614
0.923463 0.186448 0.292666
0.924500 0.187484 0.401075
0.925525 0.188509 0.508384
0.926543 0.189527 0.614864
0.927554 0.190538 0.720680
0.928560 0.191544 0.825942
0.929550 0.192535 0.929550
0.931742 0.303673 0.079611
0.932826 0.304757 0.193028
0.933877 0.305809 0.303080
0.934914 0.306845 0.411489
0.935939 0.307871 0.518798
0.936957 0.308889 0.625278
0.937968 0.309900 0.731094
0.938974 0.310906 0.836356
0.939964 0.311896 0.939964
0.942002 0.421275 0.089872
0.943086 0.422359 0.203289
0.944138 0.423411 0.313340
0.945174 0.424447 0.421750
0.946200 0.425473 0.529058
0.947217 0.426490 0.635538
0.948229 0.427502 0.741354
0.949235 0.428508 0.846617
0.950225 0.429498 0.950225
0.952159 0.537692 0.100029
0.953243 0.538776 0.213446
0.954295 0.539827 0.323497
0.955331 0.540864 0.431907
0.956357 0.541889 0.539216
0.957374 0.542907 0.645695
0.958386 0.543918 0.751511
0.959392 0.544924 0.856774
0.960382 0.545914 0.960382
0.962238 0.653215 0.110108
0.963322 0.654299 0.223525
0.964374 0.655350 0.333576
0.965410 0.656387 0.441986
0.966436 0.657412 0.549295
0.967454 0.658430 0.655775
0.968465 0.659441 0.761591
0.969471 0.660447 0.866853
0.970461 0.661437 0.970461
0.972255 0.768021 0.120124
0.973339 0.769105 0.233541
0.974391 0.770157 0.343593
0.975427 0.771193 0.452003
0.976452 0.772218 0.559311
0.977470 0.773236 0.665791
0.978481 0.774247 0.771607
0.979488 0.775253 0.876870
0.980478 0.776244 0.980478
0.982219 0.882229 0.130089
0.983303 0.883313 0.243506
0.984355 0.884365 0.353557
0.985391 0.885401 0.461967
0.986417 0.886426 0.569276
0.987435 0.887444 0.675756
0.988446 0.888455 0.781572
0.989452 0.889462 0.886834
0.990442 0.890452 0.990442
0.991777 0.991777 0.139647
0.992861 0.992861 0.253064
0.993913 0.993913 0.363115
0.994949 0.994949 0.471525
0.995975 0.995975 0.578834
0.996992 0.996992 0.685313
0.998004 0.998004 0.791129
0.999010 0.999010 0.896392
1.000000 1.000000 1.000000
