skills/editops-orchestrator/assets/grade/luts/soft_pastel_v07.cube
TITLE "soft_pastel_v07"
LUT_3D_SIZE 17
DOMAIN_MIN 0.0 0.0 0.0
DOMAIN_MAX 1.0 1.0 1.0
0.040275 0.037355 0.034427
0.040823 0.037904 0.091810
0.041359 0.038439 0.147844
0.041887 0.038967 0.203130
0.042410 0.039491 0.257896
0.042930 0.040010 0.312262
0.043446 0.040527 0.366305
0.043960 0.041041 0.420077
0.044472 0.041553 0.473614
0.044982 0.042062 0.526945
0.045490 0.042570 0.580094
0.045996 0.043077 0.633077
0.046501 0.043582 0.685910
0.047005 0.044085 0.738605
0.047507 0.044588 0.791172
0.048008 0.045089 0.843621
0.048497 0.045578 0.894780
0.045698 0.099513 0.039850
0.046246 0.100061 0.097233
0.046782 0.100597 0.153267
0.047310 0.101125 0.208553
0.047833 0.101649 0.263319
0.048353 0.102168 0.317685
0.048870 0.102685 0.371728
0.049383 0.103199 0.425500
0.049895 0.103710 0.479037
0.050405 0.104220 0.532368
0.050913 0.104728 0.585517
0.051419 0.105234 0.638500
0.051924 0.105739 0.691333
0.052428 0.106243 0.744028
0.052930 0.106745 0.796595
0.053431 0.107247 0.849045
0.053920 0.107736 0.900203
0.050998 0.160265 0.045151
0.051547 0.160814 0.102534
0.052082 0.161349 0.158568
0.052611 0.161878 0.213854
0.053134 0.162401 0.268619
0.053654 0.162921 0.322986
0.054170 0.163437 0.377029
0.054684 0.163951 0.430800
0.055196 0.164463 0.484337
0.055705 0.164973 0.537669
0.056213 0.165481 0.590817
0.056720 0.165987 0.643800
0.057225 0.166492 0.696633
0.057728 0.166996 0.749328
0.058231 0.167498 0.801896
0.058732 0.167999 0.854345
0.059221 0.168488 0.905504
0.056229 0.220224 0.050382
0.056778 0.220773 0.107765
0.057313 0.221308 0.163799
0.057842 0.221837 0.219085
0.058365 0.222360 0.273850
0.058885 0.222880 0.328217
0.059401 0.223396 0.382260
0.059915 0.223910 0.436031
0.060427 0.224422 0.489569
0.060937 0.224931 0.542900
0.061445 0.225439 0.596049
0.061951 0.225946 0.649032
0.062456 0.226451 0.701865
0.062960 0.226954 0.754559
0.063462 0.227457 0.807127
0.063963 0.227958 0.859576
0.064452 0.228447 0.910735
0.061412 0.279627 0.055565
0.061961 0.280175 0.112948
0.062496 0.280711 0.168982
0.063025 0.281239 0.224268
0.063548 0.281763 0.279033
0.064068 0.282282 0.333400
0.064584 0.282799 0.387443
0.065098 0.283313 0.441214
0.065610 0.283824 0.494751
0.066119 0.284334 0.548083
0.066627 0.284842 0.601231
0.067134 0.285348 0.654214
0.067639 0.285853 0.707047
0.068142 0.286357 0.759742
0.068645 0.286859 0.812310
0.069146 0.287361 0.864759
0.069635 0.287850 0.915918
0.066558 0.338601 0.060710
0.067106 0.339150 0.118093
0.067642 0.339685 0.174127
0.068170 0.340214 0.229413
0.068693 0.340737 0.284179
0.069213 0.341257 0.338545
0.069730 0.341773 0.392588
0.070243 0.342287 0.446360
0.070755 0.342799 0.499897
0.071265 0.343309 0.553228
0.071773 0.343817 0.606377
0.072279 0.344323 0.659360
0.072784 0.344828 0.712193
0.073288 0.345332 0.764888
0.073790 0.345834 0.817455
0.074291 0.346335 0.869905
0.074780 0.346824 0.921063
0.071673 0.397228 0.065825
0.072221 0.397777 0.123208
0.072757 0.398312 0.179242
0.073285 0.398841 0.234528
0.073808 0.399364 0.289294
0.074328 0.399884 0.343660
0.074845 0.400400 0.397703
0.075358 0.400914 0.451475
0.075870 0.401426 0.505012
0.076380 0.401936 0.558343
0.076888 0.402444 0.611492
0.077394 0.402950 0.664475
0.077899 0.403455 0.717308
0.078403 0.403959 0.770003
0.078905 0.404461 0.822570
0.079406 0.404962 0.875020
0.079895 0.405451 0.926178
0.076762 0.455563 0.070915
0.077311 0.456111 0.128298
0.077846 0.456647 0.184332
0.078375 0.457175 0.239618
0.078898 0.457699 0.294383
0.079418 0.458218 0.348750
0.079934 0.458735 0.402793
0.080448 0.459249 0.456564
0.080960 0.459760 0.510101
0.081469 0.460270 0.563433
0.081977 0.460778 0.616581
0.082484 0.461284 0.669564
0.082989 0.461789 0.722397
0.083492 0.462293 0.775092
0.083995 0.462795 0.827660
0.084496 0.463297 0.880109
0.084985 0.463786 0.931268
0.081830 0.513645 0.075982
0.082378 0.514194 0.133365
0.082914 0.514729 0.189399
0.083442 0.515257 0.244685
0.083966 0.515781 0.299451
0.084485 0.516300 0.353817
0.085002 0.516817 0.407860
0.085516 0.517331 0.461632
0.086027 0.517843 0.515169
0.086537 0.518352 0.568501
0.087045 0.518860 0.621649
0.087551 0.519367 0.674632
0.088056 0.519872 0.727465
0.088560 0.520375 0.780160
0.089062 0.520878 0.832727
0.089564 0.521379 0.885177
0.090053 0.521868 0.936335
0.086878 0.571505 0.081030
0.087426 0.572054 0.138413
0.087962 0.572589 0.194447
0.088490 0.573118 0.249733
0.089014 0.573641 0.304499
0.089533 0.574161 0.358866
0.090050 0.574677 0.412909
0.090564 0.575191 0.466680
0.091075 0.575703 0.520217
0.091585 0.576213 0.573549
0.092093 0.576721 0.626697
0.092600 0.577227 0.679680
0.093104 0.577732 0.732513
0.093608 0.578236 0.785208
0.094110 0.578738 0.837776
0.094612 0.579239 0.890225
0.095101 0.579728 0.941384
0.091909 0.629168 0.086061
0.092457 0.629717 0.143444
0.092993 0.630252 0.199478
0.093521 0.630780 0.254764
0.094045 0.631304 0.309530
0.094564 0.631823 0.363896
0.095081 0.632340 0.417940
0.095595 0.632854 0.471711
0.096106 0.633366 0.525248
0.096616 0.633875 0.578580
0.097124 0.634383 0.631728
0.097630 0.634890 0.684711
0.098135 0.635395 0.737544
0.098639 0.635898 0.790239
0.099141 0.636401 0.842806
0.099643 0.636902 0.895256
0.100132 0.637391 0.946415
0.096924 0.686652 0.091077
0.097473 0.687201 0.148460
0.098008 0.687736 0.204494
0.098537 0.688265 0.259780
0.099060 0.688788 0.314545
0.099580 0.689308 0.368912
0.100096 0.689824 0.422955
0.100610 0.690338 0.476726
0.101122 0.690850 0.530263
0.101631 0.691360 0.583595
0.102139 0.691868 0.636743
0.102646 0.692374 0.689727
0.103151 0.692879 0.742559
0.103654 0.693382 0.795254
0.104157 0.693885 0.847822
0.104658 0.694386 0.900271
0.105147 0.694875 0.951430
0.101925 0.743974 0.096078
0.102474 0.744523 0.153461
0.103009 0.745058 0.209495
0.103538 0.745587 0.264781
0.104061 0.746110 0.319547
0.104581 0.746630 0.373913
0.105097 0.747146 0.427956
0.105611 0.747660 0.481728
0.106123 0.748172 0.535265
0.106633 0.748681 0.588596
0.107141 0.749189 0.641745
0.107647 0.749696 0.694728
0.108152 0.750201 0.747561
0.108656 0.750704 0.800255
0.109158 0.751207 0.852823
0.109659 0.751708 0.905272
0.110148 0.752197 0.956431
0.106914 0.801147 0.101066
0.107462 0.801696 0.158449
0.107998 0.802231 0.214483
0.108526 0.802760 0.269769
0.109049 0.803283 0.324535
0.109569 0.803803 0.378901
0.110086 0.804319 0.432944
0.110600 0.804833 0.486716
0.111111 0.805345 0.540253
0.111621 0.805854 0.593584
0.112129 0.806362 0.646733
0.112635 0.806869 0.699716
0.113140 0.807374 0.752549
0.113644 0.807877 0.805244
0.114146 0.808380 0.857811
0.114648 0.808881 0.910261
0.115136 0.809370 0.961419
0.111890 0.858182 0.106042
0.112438 0.858731 0.163425
0.112974 0.859266 0.219459
0.113502 0.859795 0.274745
0.114026 0.860318 0.329511
0.114545 0.860838 0.383877
0.115062 0.861354 0.437921
0.115576 0.861868 0.491692
0.116087 0.862380 0.545229
0.116597 0.862890 0.598561
0.117105 0.863398 0.651709
0.117611 0.863904 0.704692
0.118116 0.864409 0.757525
0.118620 0.864913 0.810220
0.119122 0.865415 0.862787
0.119624 0.865916 0.915237
0.120113 0.866405 0.966396
0.116855 0.915090 0.111007
0.117403 0.915638 0.168390
0.117939 0.916174 0.224424
0.118467 0.916702 0.279710
0.118991 0.917226 0.334476
0.119510 0.917745 0.388843
0.120027 0.918262 0.442886
0.120541 0.918776 0.496657
0.121052 0.919287 0.550194
0.121562 0.919797 0.603526
0.122070 0.920305 0.656674
0.122576 0.920811 0.709657
0.123081 0.921316 0.762490
0.123585 0.921820 0.815185
0.124087 0.922322 0.867753
0.124589 0.922824 0.920202
0.125078 0.923313 0.971361
0.121448 0.967731 0.115600
0.121996 0.968279 0.172983
0.122532 0.968815 0.229017
0.123060 0.969343 0.284303
0.123584 0.969866 0.339069
0.124103 0.970386 0.393435
0.124620 0.970903 0.447478
0.125134 0.971417 0.501250
0.125645 0.971928 0.554787
0.126155 0.972438 0.608119
0.126663 0.972946 0.661267
0.127169 0.973452 0.714250
0.127674 0.973957 0.767083
0.128178 0.974461 0.819778
0.128680 0.974963 0.872345
0.129182 0.975464 0.924795
0.129670 0.975953 0.975953
0.098524 0.038964 0.036036
0.099072 0.039513 0.093419
0.099608 0.040048 0.149453
0.100136 0.040577 0.204739
0.100660 0.041100 0.259505
0.101179 0.041620 0.313872
0.101696 0.042136 0.367915
0.102210 0.042650 0.421686
0.102722 0.043162 0.475223
0.103231 0.043672 0.528555
0.103739 0.044180 0.581703
0.104246 0.044686 0.634686
0.104751 0.045191 0.687519
0.105254 0.045695 0.740214
0.105757 0.046197 0.792782
0.106258 0.046698 0.845231
0.106747 0.047187 0.896390
0.103947 0.101122 0.041459
0.104496 0.101671 0.098843
0.105031 0.102206 0.154876
0.105560 0.102735 0.210162
0.106083 0.103258 0.264928
0.106603 0.103778 0.319295
0.107119 0.104294 0.373338
0.107633 0.104808 0.427109
0.108145 0.105320 0.480646
0.108654 0.105829 0.533978
0.109162 0.106337 0.587126
0.109669 0.106844 0.640109
0.110174 0.107349 0.692942
0.110677 0.107852 0.745637
0.111180 0.108355 0.798205
0.111681 0.108856 0.850654
0.112170 0.109345 0.901813
0.109248 0.161875 0.046760
0.109796 0.162423 0.104143
0.110332 0.162959 0.160177
0.110860 0.163487 0.215463
0.111383 0.164011 0.270229
0.111903 0.164530 0.324595
0.112420 0.165047 0.378638
0.112934 0.165561 0.432410
0.113445 0.166072 0.485947
0.113955 0.166582 0.539278
0.114463 0.167090 0.592427
0.114969 0.167596 0.645410
0.115474 0.168101 0.698243
0.115978 0.168605 0.750938
0.116480 0.169107 0.803505
0.116982 0.169609 0.855954
0.117470 0.170098 0.907113
0.114479 0.221834 0.051991
0.115027 0.222382 0.109374
0.115563 0.222918 0.165408
0.116091 0.223446 0.220694
0.116615 0.223969 0.275460
0.117134 0.224489 0.329826
0.117651 0.225006 0.383870
0.118165 0.225519 0.437641
0.118676 0.226031 0.491178
0.119186 0.226541 0.544510
0.119694 0.227049 0.597658
0.120201 0.227555 0.650641
0.120705 0.228060 0.703474
0.121209 0.228564 0.756169
0.121711 0.229066 0.808736
0.122213 0.229567 0.861186
0.122702 0.230056 0.912345
0.119662 0.281236 0.057174
0.120210 0.281785 0.114557
0.120746 0.282320 0.170591
0.121274 0.282849 0.225877
0.121798 0.283372 0.280643
0.122317 0.283892 0.335009
0.122834 0.284408 0.389052
0.123348 0.284922 0.442824
0.123859 0.285434 0.496361
0.124369 0.285943 0.549692
0.124877 0.286451 0.602841
0.125383 0.286958 0.655824
0.125888 0.287463 0.708657
0.126392 0.287966 0.761352
0.126894 0.288469 0.813919
0.127396 0.288970 0.866369
0.127884 0.289459 0.917527
0.124807 0.340211 0.062319
0.125356 0.340759 0.119703
0.125891 0.341295 0.175736
0.126419 0.341823 0.231022
0.126943 0.342347 0.285788
0.127463 0.342866 0.340155
0.127979 0.343383 0.394198
0.128493 0.343897 0.447969
0.129005 0.344408 0.501506
0.129514 0.344918 0.554838
0.130022 0.345426 0.607986
0.130529 0.345932 0.660969
0.131034 0.346437 0.713802
0.131537 0.346941 0.766497
0.132040 0.347443 0.819065
0.132541 0.347945 0.871514
0.133030 0.348434 0.922673
0.129922 0.398838 0.067434
0.130471 0.399386 0.124818
0.131006 0.399922 0.180851
0.131535 0.400450 0.236137
0.132058 0.400974 0.290903
0.132578 0.401493 0.345270
0.133094 0.402010 0.399313
0.133608 0.402524 0.453084
0.134120 0.403035 0.506621
0.134629 0.403545 0.559953
0.135137 0.404053 0.613101
0.135644 0.404559 0.666084
0.136149 0.405064 0.718917
0.136652 0.405568 0.771612
0.137155 0.406070 0.824180
0.137656 0.406572 0.876629
0.138145 0.407061 0.927788
0.135012 0.457172 0.072524
0.135560 0.457721 0.129907
0.136096 0.458256 0.185941
0.136624 0.458785 0.241227
0.137148 0.459308 0.295993
0.137667 0.459828 0.350359
0.138184 0.460344 0.404402
0.138698 0.460858 0.458174
0.139209 0.461370 0.511711
0.139719 0.461880 0.565042
0.140227 0.462387 0.618191
0.140733 0.462894 0.671174
0.141238 0.463399 0.724007
0.141742 0.463902 0.776702
0.142244 0.464405 0.829269
0.142746 0.464906 0.881719
0.143235 0.465395 0.932877
0.140079 0.515254 0.077591
0.140628 0.515803 0.134975
0.141163 0.516338 0.191008
0.141692 0.516867 0.246295
0.142215 0.517390 0.301060
0.142735 0.517910 0.355427
0.143251 0.518426 0.409470
0.143765 0.518940 0.463241
0.144277 0.519452 0.516778
0.144786 0.519962 0.570110
0.145294 0.520470 0.623258
0.145801 0.520976 0.676241
0.146306 0.521481 0.729074
0.146809 0.521985 0.781769
0.147312 0.522487 0.834337
0.147813 0.522988 0.886786
0.148302 0.523477 0.937945
0.145127 0.573115 0.082640
0.145676 0.573663 0.140023
0.146211 0.574199 0.196057
0.146740 0.574727 0.251343
0.147263 0.575251 0.306108
0.147783 0.575770 0.360475
0.148299 0.576287 0.414518
0.148813 0.576801 0.468289
0.149325 0.577312 0.521827
0.149835 0.577822 0.575158
0.150343 0.578330 0.628306
0.150849 0.578836 0.681290
0.151354 0.579341 0.734122
0.151858 0.579845 0.786817
0.152360 0.580347 0.839385
0.152861 0.580849 0.891834
0.153350 0.581338 0.942993
0.150158 0.630777 0.087671
0.150707 0.631326 0.145054
0.151242 0.631861 0.201088
0.151771 0.632390 0.256374
0.152294 0.632913 0.311139
0.152814 0.633433 0.365506
0.153330 0.633949 0.419549
0.153844 0.634463 0.473320
0.154356 0.634975 0.526858
0.154866 0.635485 0.580189
0.155374 0.635993 0.633337
0.155880 0.636499 0.686321
0.156385 0.637004 0.739153
0.156889 0.637508 0.791848
0.157391 0.638010 0.844416
0.157892 0.638511 0.896865
0.158381 0.639000 0.948024
0.155174 0.688262 0.092686
0.155722 0.688810 0.150069
0.156258 0.689346 0.206103
0.156786 0.689874 0.261389
0.157310 0.690398 0.316155
0.157829 0.690917 0.370521
0.158346 0.691434 0.424564
0.158860 0.691948 0.478336
0.159371 0.692459 0.531873
0.159881 0.692969 0.585204
0.160389 0.693477 0.638353
0.160895 0.693983 0.691336
0.161400 0.694488 0.744169
0.161904 0.694992 0.796864
0.162406 0.695494 0.849431
0.162908 0.695996 0.901881
0.163397 0.696485 0.953039
0.160175 0.745584 0.097687
0.160723 0.746132 0.155070
0.161259 0.746668 0.211104
0.161787 0.747196 0.266390
0.162311 0.747719 0.321156
0.162830 0.748239 0.375522
0.163347 0.748756 0.429566
0.163861 0.749269 0.483337
0.164372 0.749781 0.536874
0.164882 0.750291 0.590206
0.165390 0.750799 0.643354
0.165897 0.751305 0.696337
0.166401 0.751810 0.749170
0.166905 0.752314 0.801865
0.167408 0.752816 0.854432
0.167909 0.753317 0.906882
0.168398 0.753806 0.958041
0.165163 0.802757 0.102675
0.165712 0.803305 0.160059
0.166247 0.803841 0.216092
0.166776 0.804369 0.271378
0.167299 0.804892 0.326144
0.167819 0.805412 0.380511
0.168335 0.805928 0.434554
0.168849 0.806442 0.488325
0.169361 0.806954 0.541862
0.169870 0.807464 0.595194
0.170378 0.807972 0.648342
0.170885 0.808478 0.701325
0.171390 0.808983 0.754158
0.171893 0.809487 0.806853
0.172396 0.809989 0.859421
0.172897 0.810490 0.911870
0.173386 0.810979 0.963029
0.170139 0.859792 0.107652
0.170688 0.860340 0.165035
0.171223 0.860876 0.221069
0.171752 0.861404 0.276355
0.172275 0.861928 0.331120
0.172795 0.862447 0.385487
0.173311 0.862964 0.439530
0.173825 0.863478 0.493301
0.174337 0.863989 0.546839
0.174847 0.864499 0.600170
0.175355 0.865007 0.653318
0.175861 0.865513 0.706302
0.176366 0.866018 0.759134
0.176870 0.866522 0.811829
0.177372 0.867024 0.864397
0.177873 0.867526 0.916846
0.178362 0.868015 0.968005
0.175104 0.916699 0.112617
0.175653 0.917248 0.170000
0.176188 0.917783 0.226034
0.176717 0.918312 0.281320
0.177240 0.918835 0.336085
0.177760 0.919355 0.390452
0.178276 0.919871 0.444495
0.178790 0.920385 0.498266
0.179302 0.920897 0.551804
0.179812 0.921406 0.605135
0.180320 0.921914 0.658283
0.180826 0.922421 0.711267
0.181331 0.922926 0.764099
0.181835 0.923429 0.816794
0.182337 0.923932 0.869362
0.182838 0.924433 0.921811
0.183327 0.924922 0.972970
0.179697 0.969340 0.117209
0.180246 0.969889 0.174593
0.180781 0.970424 0.230626
0.181310 0.970952 0.285913
0.181833 0.971476 0.340678
0.182353 0.971995 0.395045
0.182869 0.972512 0.449088
0.183383 0.973026 0.502859
0.183895 0.973538 0.556396
0.184404 0.974047 0.609728
0.184912 0.974555 0.662876
0.185419 0.975062 0.715859
0.185924 0.975567 0.768692
0.186427 0.976070 0.821387
0.186930 0.976573 0.873955
0.187431 0.977074 0.926404
0.187920 0.977563 0.977563
0.155506 0.040539 0.037611
0.156054 0.041087 0.094994
0.156590 0.041623 0.151028
0.157118 0.042151 0.206314
0.157641 0.042675 0.261079
0.158161 0.043194 0.315446
0.158677 0.043711 0.369489
0.159191 0.044225 0.423260
0.159703 0.044736 0.476797
0.160213 0.045246 0.530129
0.160721 0.045754 0.583277
0.161227 0.046260 0.636261
0.161732 0.046765 0.689093
0.162236 0.047269 0.741788
0.162738 0.047771 0.794356
0.163239 0.048273 0.846805
0.163728 0.048762 0.897964
0.160929 0.102696 0.043034
0.161477 0.103245 0.100417
0.162013 0.103780 0.156451
0.162541 0.104309 0.211737
0.163064 0.104832 0.266502
0.163584 0.105352 0.320869
0.164101 0.105868 0.374912
0.164614 0.106382 0.428683
0.165126 0.106894 0.482221
0.165636 0.107404 0.535552
0.166144 0.107912 0.588700
0.166650 0.108418 0.641684
0.167155 0.108923 0.694516
0.167659 0.109427 0.747211
0.168161 0.109929 0.799779
0.168662 0.110430 0.852228
0.169151 0.110919 0.903387
0.166229 0.163449 0.048334
0.166778 0.163998 0.105717
0.167313 0.164533 0.161751
0.167842 0.165062 0.217037
0.168365 0.165585 0.271803
0.168885 0.166105 0.326170
0.169401 0.166621 0.380213
0.169915 0.167135 0.433984
0.170427 0.167647 0.487521
0.170936 0.168156 0.540853
0.171444 0.168664 0.594001
0.171951 0.169171 0.646984
0.172456 0.169676 0.699817
0.172959 0.170179 0.752512
0.173462 0.170682 0.805080
0.173963 0.171183 0.857529
0.174452 0.171672 0.908688
0.171460 0.223408 0.053566
0.172009 0.223956 0.110949
0.172544 0.224492 0.166983
0.173073 0.225020 0.222269
0.173596 0.225544 0.277034
0.174116 0.226063 0.331401
0.174632 0.226580 0.385444
0.175146 0.227094 0.439215
0.175658 0.227605 0.492752
0.176168 0.228115 0.546084
0.176676 0.228623 0.599232
0.177182 0.229130 0.652215
0.177687 0.229634 0.705048
0.178191 0.230138 0.757743
0.178693 0.230641 0.810311
0.179194 0.231142 0.862760
0.179683 0.231631 0.913919
0.176643 0.282811 0.058748
0.177192 0.283359 0.116131
0.177727 0.283895 0.172165
0.178256 0.284423 0.227451
0.178779 0.284946 0.282217
0.179299 0.285466 0.336584
0.179815 0.285983 0.390627
0.180329 0.286496 0.444398
0.180841 0.287008 0.497935
0.181350 0.287518 0.551267
0.181858 0.288026 0.604415
0.182365 0.288532 0.657398
0.182870 0.289037 0.710231
0.183373 0.289541 0.762926
0.183876 0.290043 0.815494
0.184377 0.290544 0.867943
0.184866 0.291033 0.919102
0.181789 0.341785 0.063894
0.182337 0.342334 0.121277
0.182873 0.342869 0.177311
0.183401 0.343398 0.232597
0.183924 0.343921 0.287362
0.184444 0.344441 0.341729
0.184961 0.344957 0.395772
0.185474 0.345471 0.449543
0.185986 0.345983 0.503081
0.186496 0.346492 0.556412
0.187004 0.347000 0.609560
0.187510 0.347507 0.662544
0.188015 0.348012 0.715376
0.188519 0.348515 0.768071
0.189021 0.349018 0.820639
0.189522 0.349519 0.873088
0.190011 0.350008 0.924247
0.186904 0.400412 0.069009
0.187452 0.400961 0.126392
0.187988 0.401496 0.182426
0.188516 0.402025 0.237712
0.189039 0.402548 0.292477
0.189559 0.403068 0.346844
0.190076 0.403584 0.400887
0.190590 0.404098 0.454658
0.191101 0.404610 0.508196
0.191611 0.405119 0.561527
0.192119 0.405627 0.614676
0.192625 0.406134 0.667659
0.193130 0.406639 0.720492
0.193634 0.407142 0.773186
0.194136 0.407645 0.825754
0.194638 0.408146 0.878203
0.195126 0.408635 0.929362
0.191993 0.458747 0.074098
0.192542 0.459295 0.131481
0.193077 0.459831 0.187515
0.193606 0.460359 0.242801
0.194129 0.460882 0.297567
0.194649 0.461402 0.351934
0.195165 0.461919 0.405977
0.195679 0.462432 0.459748
0.196191 0.462944 0.513285
0.196700 0.463454 0.566617
0.197208 0.463962 0.619765
0.197715 0.464468 0.672748
0.198220 0.464973 0.725581
0.198723 0.465477 0.778276
0.199226 0.465979 0.830844
0.199727 0.466480 0.883293
0.200216 0.466969 0.934452
0.197061 0.516829 0.079166
0.197609 0.517377 0.136549
0.198145 0.517913 0.192583
0.198673 0.518441 0.247869
0.199197 0.518965 0.302635
0.199716 0.519484 0.357001
0.200233 0.520001 0.411044
0.200747 0.520515 0.464816
0.201258 0.521026 0.518353
0.201768 0.521536 0.571684
0.202276 0.522044 0.624833
0.202782 0.522550 0.677816
0.203287 0.523055 0.730649
0.203791 0.523559 0.783344
0.204293 0.524061 0.835911
0.204795 0.524563 0.888360
0.205284 0.525052 0.939519
0.202109 0.574689 0.084214
0.202657 0.575238 0.141597
0.203193 0.575773 0.197631
0.203721 0.576302 0.252917
0.204245 0.576825 0.307683
0.204764 0.577345 0.362049
0.205281 0.577861 0.416092
0.205795 0.578375 0.469864
0.206306 0.578887 0.523401
0.206816 0.579396 0.576732
0.207324 0.579904 0.629881
0.207831 0.580411 0.682864
0.208335 0.580916 0.735697
0.208839 0.581419 0.788392
0.209342 0.581922 0.840959
0.209843 0.582423 0.893409
0.210332 0.582912 0.944567
0.207140 0.632352 0.089245
0.207688 0.632900 0.146628
0.208224 0.633436 0.202662
0.208752 0.633964 0.257948
0.209276 0.634488 0.312714
0.209795 0.635007 0.367080
0.210312 0.635524 0.421123
0.210826 0.636038 0.474895
0.211337 0.636549 0.528432
0.211847 0.637059 0.581763
0.212355 0.637567 0.634912
0.212861 0.638073 0.687895
0.213366 0.638578 0.740728
0.213870 0.639082 0.793423
0.214372 0.639584 0.845990
0.214874 0.640086 0.898440
0.215363 0.640575 0.949598
0.212155 0.689836 0.094260
0.212704 0.690385 0.151644
0.213239 0.690920 0.207677
0.213768 0.691448 0.262963
0.214291 0.691972 0.317729
0.214811 0.692492 0.372096
0.215327 0.693008 0.426139
0.215841 0.693522 0.479910
0.216353 0.694034 0.533447
0.216863 0.694543 0.586779
0.217370 0.695051 0.639927
0.217877 0.695558 0.692910
0.218382 0.696063 0.745743
0.218885 0.696566 0.798438
0.219388 0.697069 0.851006
0.219889 0.697570 0.903455
0.220378 0.698059 0.954614
0.217157 0.747158 0.099262
0.217705 0.747706 0.156645
0.218240 0.748242 0.212679
0.218769 0.748770 0.267965
0.219292 0.749294 0.322730
0.219812 0.749813 0.377097
0.220328 0.750330 0.431140
0.220842 0.750844 0.484911
0.221354 0.751356 0.538448
0.221864 0.751865 0.591780
0.222372 0.752373 0.644928
0.222878 0.752880 0.697911
0.223383 0.753385 0.750744
0.223887 0.753888 0.803439
0.224389 0.754391 0.856007
0.224890 0.754892 0.908456
0.225379 0.755381 0.959615
0.222145 0.804331 0.104250
0.222693 0.804879 0.161633
0.223229 0.805415 0.217667
0.223757 0.805943 0.272953
0.224281 0.806467 0.327718
0.224800 0.806986 0.382085
0.225317 0.807503 0.436128
0.225831 0.808017 0.489899
0.226342 0.808528 0.543437
0.226852 0.809038 0.596768
0.227360 0.809546 0.649917
0.227866 0.810052 0.702900
0.228371 0.810557 0.755733
0.228875 0.811061 0.808427
0.229377 0.811563 0.860995
0.229879 0.812065 0.913444
0.230367 0.812554 0.964603
0.227121 0.861366 0.109226
0.227669 0.861915 0.166609
0.228205 0.862450 0.222643
0.228733 0.862979 0.277929
0.229257 0.863502 0.332695
0.229776 0.864022 0.387061
0.230293 0.864538 0.441104
0.230807 0.865052 0.494876
0.231318 0.865564 0.548413
0.231828 0.866073 0.601744
0.232336 0.866581 0.654893
0.232842 0.867088 0.707876
0.233347 0.867593 0.760709
0.233851 0.868096 0.813404
0.234353 0.868599 0.865971
0.234855 0.869100 0.918421
0.235344 0.869589 0.969579
0.232086 0.918274 0.114191
0.232634 0.918822 0.171574
0.233170 0.919358 0.227608
0.233698 0.919886 0.282894
0.234222 0.920409 0.337660
0.234741 0.920929 0.392026
0.235258 0.921445 0.446069
0.235772 0.921959 0.499841
0.236283 0.922471 0.553378
0.236793 0.922981 0.606709
0.237301 0.923489 0.659858
0.237808 0.923995 0.712841
0.238312 0.924500 0.765674
0.238816 0.925004 0.818369
0.239318 0.925506 0.870936
0.239820 0.926007 0.923386
0.240309 0.926496 0.974544
0.236679 0.970914 0.118784
0.237227 0.971463 0.176167
0.237763 0.971998 0.232201
0.238291 0.972527 0.287487
0.238815 0.973050 0.342253
0.239334 0.973570 0.396619
0.239851 0.974086 0.450662
0.240365 0.974600 0.504434
0.240876 0.975112 0.557971
0.241386 0.975622 0.611302
0.241894 0.976130 0.664451
0.242400 0.976636 0.717434
0.242905 0.977141 0.770267
0.243409 0.977645 0.822961
0.243911 0.978147 0.875529
0.244413 0.978648 0.927978
0.244902 0.979137 0.979137
0.211758 0.042093 0.039165
0.212306 0.042641 0.096548
0.212842 0.043177 0.152582
0.213370 0.043705 0.207868
0.213894 0.044229 0.262634
0.214413 0.044748 0.317000
0.214930 0.045265 0.371043
0.215444 0.045779 0.424815
0.215955 0.046291 0.478352
0.216465 0.046800 0.531683
0.216973 0.047308 0.584832
0.217479 0.047815 0.637815
0.217984 0.048320 0.690648
0.218488 0.048823 0.743342
0.218990 0.049326 0.795910
0.219492 0.049827 0.848359
0.219980 0.050316 0.899518
0.217181 0.104251 0.044588
