skills/editops-orchestrator/assets/grade/luts/soft_pastel_v20.cube
TITLE "soft_pastel_v20"
LUT_3D_SIZE 5
DOMAIN_MIN 0.0 0.0 0.0
DOMAIN_MAX 1.0 1.0 1.0
0.092976 0.084818 0.076597
0.096493 0.088335 0.274968
0.099824 0.091666 0.462862
0.103066 0.094908 0.645682
0.106247 0.098089 0.825123
0.127690 0.313682 0.111311
0.131207 0.317199 0.309682
0.134538 0.320530 0.497576
0.137780 0.323772 0.680396
0.140961 0.326953 0.859837
0.160644 0.530945 0.144265
0.164161 0.534463 0.342636
0.167493 0.537794 0.530531
0.170734 0.541035 0.713350
0.173916 0.544217 0.892791
0.192725 0.742448 0.176346
0.196242 0.745965 0.374717
0.199573 0.749296 0.562611
0.202815 0.752538 0.745431
0.205996 0.755719 0.924872
0.223924 0.948140 0.207545
0.227441 0.951657 0.405916
0.230773 0.954989 0.593811
0.234014 0.958230 0.776630
0.237196 0.961412 0.956071
0.296756 0.095102 0.086881
0.300273 0.098619 0.285252
0.303604 0.101951 0.473147
0.306846 0.105192 0.655966
0.310027 0.108374 0.835407
0.331470 0.323966 0.121595
0.334987 0.327483 0.319966
0.338318 0.330815 0.507861
0.341560 0.334056 0.690680
0.344741 0.337238 0.870121
0.364424 0.541230 0.154549
0.367941 0.544747 0.352920
0.371273 0.548078 0.540815
0.374514 0.551320 0.723635
0.377696 0.554501 0.903076
0.396505 0.752732 0.186630
0.400022 0.756249 0.385001
0.403353 0.759581 0.572896
0.406595 0.762822 0.755715
0.409776 0.766003 0.935156
0.427704 0.958424 0.217829
0.431221 0.961942 0.416200
0.434553 0.965273 0.604095
0.437794 0.968514 0.786914
0.440976 0.971696 0.966355
0.490600 0.104885 0.096664
0.494117 0.108402 0.295035
0.497448 0.111734 0.482930
0.500689 0.114975 0.665749
0.503871 0.118156 0.845190
0.525314 0.333749 0.131378
0.528831 0.337266 0.329749
0.532162 0.340598 0.517644
0.535403 0.343839 0.700463
0.538585 0.347020 0.879904
0.558268 0.551013 0.164332
0.561785 0.554530 0.362703
0.565117 0.557861 0.550598
0.568358 0.561102 0.733417
0.571539 0.564284 0.912858
0.590349 0.762515 0.196413
0.593866 0.766032 0.394784
0.597197 0.769363 0.582679
0.600439 0.772605 0.765498
0.603620 0.775786 0.944939
0.621548 0.968207 0.227612
0.625065 0.971724 0.425983
0.628397 0.975056 0.613878
0.631638 0.978297 0.796697
0.634819 0.981479 0.976138
0.679396 0.114413 0.106192
0.682913 0.117930 0.304563
0.686244 0.121262 0.492458
0.689486 0.124503 0.675277
0.692667 0.127685 0.854718
0.714110 0.343277 0.140906
0.717627 0.346794 0.339277
0.720958 0.350126 0.527172
0.724200 0.353367 0.709991
0.727381 0.356549 0.889432
0.747064 0.560541 0.173860
0.750581 0.564058 0.372231
0.753913 0.567389 0.560126
0.757154 0.570631 0.742945
0.760336 0.573812 0.922386
0.779145 0.772043 0.205941
0.782662 0.775560 0.404312
0.785993 0.778892 0.592207
0.789235 0.782133 0.775026
0.792416 0.785314 0.954467
0.810344 0.977735 0.237140
0.813861 0.981253 0.435511
0.817193 0.984584 0.623406
0.820434 0.987825 0.806225
0.823616 0.991007 0.985666
0.855684 0.123310 0.115089
0.859201 0.126827 0.313460
0.862532 0.130158 0.501354
0.865774 0.133400 0.684174
0.868955 0.136581 0.863615
0.890398 0.352174 0.149803
0.893915 0.355691 0.348174
0.897246 0.359022 0.536068
0.900488 0.362264 0.718888
0.903669 0.365445 0.898329
0.923352 0.569438 0.182757
0.926869 0.572955 0.381128
0.930201 0.576286 0.569023
0.933442 0.579527 0.751842
0.936624 0.582709 0.931283
0.955433 0.780940 0.214838
0.958950 0.784457 0.413209
0.962281 0.787788 0.601104
0.965523 0.791030 0.783923
0.968704 0.794211 0.963364
0.986632 0.986632 0.246037
0.990149 0.990149 0.444408
0.993481 0.993481 0.632303
0.996722 0.996722 0.815122
0.999904 0.999904 0.994563
