skills/editops-orchestrator/assets/grade/luts/soft_pastel_v13.cube
TITLE "soft_pastel_v13"
LUT_3D_SIZE 5
DOMAIN_MIN 0.0 0.0 0.0
DOMAIN_MAX 1.0 1.0 1.0
0.064581 0.059052 0.053494
0.067369 0.061840 0.265512
0.070034 0.064505 0.468236
0.072643 0.067114 0.666654
0.075215 0.069686 0.862230
0.092139 0.295412 0.081052
0.094927 0.298199 0.293070
0.097592 0.300865 0.495794
0.100201 0.303474 0.694212
0.102773 0.306045 0.889788
0.118525 0.521716 0.107437
0.121312 0.524504 0.319456
0.123978 0.527170 0.522179
0.126587 0.529779 0.720598
0.129158 0.532350 0.916174
0.144357 0.743275 0.133270
0.147145 0.746063 0.345289
0.149810 0.748728 0.548012
0.152419 0.751337 0.746430
0.154991 0.753909 0.942006
0.169438 0.958388 0.158350
0.172226 0.961175 0.370369
0.174891 0.963841 0.573092
0.177500 0.966450 0.771511
0.180072 0.969021 0.967087
0.281154 0.067228 0.061670
0.283941 0.070016 0.273688
0.286607 0.072681 0.476412
0.289216 0.075290 0.674830
0.291787 0.077862 0.870406
0.308712 0.303588 0.089228
0.311499 0.306375 0.301246
0.314165 0.309041 0.503970
0.316774 0.311650 0.702388
0.319345 0.314221 0.897964
0.335097 0.529892 0.115613
0.337885 0.532680 0.327632
0.340551 0.535346 0.530355
0.343159 0.537955 0.728774
0.345731 0.540526 0.924350
0.360930 0.751451 0.141446
0.363717 0.754239 0.353465
0.366383 0.756904 0.556188
0.368992 0.759513 0.754606
0.371563 0.762085 0.950182
0.386010 0.966564 0.166526
0.388798 0.969351 0.378545
0.391464 0.972017 0.581268
0.394073 0.974626 0.779687
0.396644 0.977197 0.975263
0.488774 0.075066 0.069508
0.491562 0.077854 0.281526
0.494228 0.080519 0.484250
0.496837 0.083128 0.682668
0.499408 0.085700 0.878244
0.516333 0.311426 0.097066
0.519120 0.314213 0.309085
0.521786 0.316879 0.511808
0.524395 0.319488 0.710226
0.526966 0.322059 0.905802
0.542718 0.537731 0.123451
0.545506 0.540518 0.335470
0.548172 0.543184 0.538193
0.550780 0.545793 0.736612
0.553352 0.548364 0.932188
0.568551 0.759289 0.149284
0.571338 0.762077 0.361303
0.574004 0.764742 0.564026
0.576613 0.767351 0.762445
0.579184 0.769923 0.958020
0.593631 0.974402 0.174365
0.596419 0.977190 0.386383
0.599085 0.979855 0.589107
0.601694 0.982464 0.787525
0.604265 0.985035 0.983101
0.692093 0.082742 0.077183
0.694881 0.085529 0.289202
0.697546 0.088195 0.491925
0.700155 0.090804 0.690344
0.702727 0.093375 0.885920
0.719651 0.319101 0.104741
0.722439 0.321889 0.316760
0.725105 0.324555 0.519483
0.727713 0.327163 0.717902
0.730285 0.329735 0.913478
0.746037 0.545406 0.131127
0.748825 0.548194 0.343146
0.751490 0.550859 0.545869
0.754099 0.553468 0.744288
0.756671 0.556040 0.939864
0.771869 0.766965 0.156959
0.774657 0.769752 0.368978
0.777323 0.772418 0.571701
0.779931 0.775027 0.770120
0.782503 0.777598 0.965696
0.796950 0.982077 0.182040
0.799738 0.984865 0.394059
0.802403 0.987531 0.596782
0.805012 0.990140 0.795201
0.807584 0.992711 0.990777
0.884484 0.090005 0.084446
0.887271 0.092792 0.296465
0.889937 0.095458 0.499188
0.892546 0.098067 0.697607
0.895117 0.100638 0.893183
0.912042 0.326364 0.112004
0.914829 0.329152 0.324023
0.917495 0.331818 0.526746
0.920104 0.334427 0.725165
0.922675 0.336998 0.920741
0.938427 0.552669 0.138390
0.941215 0.555457 0.350409
0.943881 0.558122 0.553132
0.946490 0.560731 0.751551
0.949061 0.563303 0.947127
0.964260 0.774228 0.164222
0.967047 0.777015 0.376241
0.969713 0.779681 0.578964
0.972322 0.782290 0.777383
0.974893 0.784861 0.972959
0.989341 0.989341 0.189303
0.992128 0.992128 0.401322
0.994794 0.994794 0.604045
0.997403 0.997403 0.802464
0.999974 0.999974 0.998040
