skills/editops-orchestrator/assets/grade/luts/soft_pastel_v12.cube
TITLE "soft_pastel_v12"
LUT_3D_SIZE 9
DOMAIN_MIN 0.0 0.0 0.0
DOMAIN_MAX 1.0 1.0 1.0
0.060523 0.055406 0.050264
0.061887 0.056770 0.159142
0.063203 0.058087 0.264212
0.064495 0.059379 0.367316
0.065770 0.060654 0.469083
0.067033 0.061916 0.569840
0.068285 0.063168 0.669783
0.069529 0.064412 0.769047
0.070765 0.065649 0.867730
0.074001 0.176121 0.063743
0.075365 0.177485 0.172620
0.076682 0.178801 0.277691
0.077974 0.180093 0.380794
0.079249 0.181368 0.482562
0.080511 0.182631 0.583318
0.081764 0.183883 0.683261
0.083007 0.185127 0.782526
0.084244 0.186363 0.881208
0.087028 0.292788 0.076770
0.088392 0.294152 0.185647
0.089709 0.295469 0.290717
0.091000 0.296761 0.393821
0.092276 0.298036 0.495589
0.093538 0.299298 0.596345
0.094790 0.300551 0.696288
0.096034 0.301794 0.795553
0.097270 0.303031 0.894235
0.099816 0.407317 0.089557
0.101180 0.408681 0.198435
0.102497 0.409998 0.303505
0.103788 0.411289 0.406609
0.105064 0.412565 0.508377
0.106326 0.413827 0.609133
0.107578 0.415079 0.709076
0.108822 0.416323 0.808341
0.110058 0.417559 0.907023
0.112440 0.520382 0.102182
0.113805 0.521746 0.211059
0.115121 0.523063 0.316130
0.116413 0.524354 0.419234
0.117688 0.525630 0.521001
0.118950 0.526892 0.621757
0.120203 0.528144 0.721701
0.121446 0.529388 0.820965
0.122683 0.530624 0.919647
0.124941 0.632335 0.114682
0.126305 0.633699 0.223560
0.127621 0.635016 0.328630
0.128913 0.636308 0.431734
0.130188 0.637583 0.533502
0.131451 0.638845 0.634258
0.132703 0.640097 0.734201
0.133947 0.641341 0.833465
0.135183 0.642578 0.932148
0.137341 0.743393 0.127083
0.138705 0.744757 0.235960
0.140022 0.746073 0.341030
0.141314 0.747365 0.444134
0.142589 0.748640 0.545902
0.143851 0.749903 0.646658
0.145103 0.751155 0.746601
0.146347 0.752399 0.845866
0.147584 0.753635 0.944548
0.149658 0.853702 0.139399
0.151022 0.855066 0.248277
0.152338 0.856382 0.353347
0.153630 0.857674 0.456451
0.154905 0.858949 0.558219
0.156168 0.860212 0.658975
0.157420 0.861464 0.758918
0.158664 0.862708 0.858182
0.159900 0.863944 0.956865
0.161517 0.959909 0.151258
0.162881 0.961273 0.260136
0.164197 0.962590 0.365206
0.165489 0.963882 0.468310
0.166764 0.965157 0.570077
0.168027 0.966419 0.670834
0.169279 0.967671 0.770777
0.170523 0.968915 0.870041
0.171759 0.970152 0.968723
0.171497 0.059403 0.054261
0.172861 0.060767 0.163139
0.174177 0.062084 0.268209
0.175469 0.063376 0.371313
0.176744 0.064651 0.473080
0.178007 0.065913 0.573837
0.179259 0.067165 0.673780
0.180503 0.068409 0.773044
0.181739 0.069646 0.871726
0.184975 0.180118 0.067740
0.186339 0.181482 0.176617
0.187656 0.182798 0.281687
0.188948 0.184090 0.384791
0.190223 0.185365 0.486559
0.191485 0.186628 0.587315
0.192738 0.187880 0.687258
0.193981 0.189124 0.786523
0.195218 0.190360 0.885205
0.198002 0.296785 0.080767
0.199366 0.298149 0.189644
0.200683 0.299466 0.294714
0.201975 0.300758 0.397818
0.203250 0.302033 0.499586
0.204512 0.303295 0.600342
0.205764 0.304548 0.700285
0.207008 0.305791 0.799550
0.208245 0.307028 0.898232
0.210790 0.411314 0.093554
0.212154 0.412678 0.202432
0.213471 0.413995 0.307502
0.214762 0.415286 0.410606
0.216038 0.416562 0.512374
0.217300 0.417824 0.613130
0.218552 0.419076 0.713073
0.219796 0.420320 0.812337
0.221032 0.421556 0.911020
0.223414 0.524379 0.106179
0.224779 0.525743 0.215056
0.226095 0.527060 0.320127
0.227387 0.528351 0.423231
0.228662 0.529627 0.524998
0.229924 0.530889 0.625754
0.231177 0.532141 0.725698
0.232420 0.533385 0.824962
0.233657 0.534621 0.923644
0.235915 0.636332 0.118679
0.237279 0.637696 0.227557
0.238595 0.639013 0.332627
0.239887 0.640305 0.435731
0.241162 0.641580 0.537499
0.242425 0.642842 0.638255
0.243677 0.644094 0.738198
0.244921 0.645338 0.837462
0.246157 0.646575 0.936145
0.248315 0.747390 0.131080
0.249679 0.748754 0.239957
0.250996 0.750070 0.345027
0.252288 0.751362 0.448131
0.253563 0.752637 0.549899
0.254825 0.753900 0.650655
0.256077 0.755152 0.750598
0.257321 0.756396 0.849863
0.258558 0.757632 0.948545
0.260632 0.857699 0.143396
0.261996 0.859063 0.252274
0.263312 0.860379 0.357344
0.264604 0.861671 0.460448
0.265879 0.862946 0.562216
0.267142 0.864209 0.662972
0.268394 0.865461 0.762915
0.269638 0.866705 0.862179
0.270874 0.867941 0.960862
0.272491 0.963906 0.155255
0.273855 0.965270 0.264133
0.275171 0.966587 0.369203
0.276463 0.967879 0.472307
0.277738 0.969154 0.574074
0.279001 0.970416 0.674830
0.280253 0.971668 0.774774
0.281497 0.972912 0.874038
0.282733 0.974149 0.972720
0.278896 0.063271 0.058129
0.280260 0.064635 0.167007
0.281577 0.065952 0.272077
0.282868 0.067244 0.375181
0.284143 0.068519 0.476949
0.285406 0.069781 0.577705
0.286658 0.071034 0.677648
0.287902 0.072277 0.776912
0.289138 0.073514 0.875595
0.292374 0.183986 0.071608
0.293739 0.185350 0.180485
0.295055 0.186666 0.285556
0.296347 0.187958 0.388660
0.297622 0.189233 0.490427
0.298885 0.190496 0.591183
0.300137 0.191748 0.691127
0.301381 0.192992 0.790391
0.302617 0.194228 0.889073
0.305401 0.300653 0.084635
0.306765 0.302018 0.193512
0.308082 0.303334 0.298582
0.309374 0.304626 0.401686
0.310649 0.305901 0.503454
0.311911 0.307164 0.604210
0.313164 0.308416 0.704153
0.314407 0.309660 0.803418
0.315644 0.310896 0.902100
0.318189 0.415182 0.097423
0.319553 0.416546 0.206300
0.320870 0.417863 0.311370
0.322162 0.419155 0.414474
0.323437 0.420430 0.516242
0.324699 0.421692 0.616998
0.325951 0.422944 0.716941
0.327195 0.424188 0.816206
0.328432 0.425425 0.914888
0.330814 0.528247 0.110047
0.332178 0.529611 0.218925
0.333494 0.530928 0.323995
0.334786 0.532220 0.427099
0.336061 0.533495 0.528866
0.337324 0.534757 0.629622
0.338576 0.536009 0.729566
0.339820 0.537253 0.828830
0.341056 0.538490 0.927512
0.343314 0.640200 0.122547
0.344678 0.641564 0.231425
0.345995 0.642881 0.336495
0.347286 0.644173 0.439599
0.348562 0.645448 0.541367
0.349824 0.646710 0.642123
0.351076 0.647963 0.742066
0.352320 0.649206 0.841331
0.353556 0.650443 0.940013
0.355714 0.751258 0.134948
0.357078 0.752622 0.243825
0.358395 0.753939 0.348896
0.359687 0.755230 0.451999
0.360962 0.756506 0.553767
0.362224 0.757768 0.654523
0.363477 0.759020 0.754466
0.364720 0.760264 0.853731
0.365957 0.761500 0.952413
0.368031 0.861567 0.147265
0.369395 0.862931 0.256142
0.370712 0.864248 0.361212
0.372004 0.865539 0.464316
0.373279 0.866815 0.566084
0.374541 0.868077 0.666840
0.375793 0.869329 0.766783
0.377037 0.870573 0.866048
0.378274 0.871809 0.964730
0.379890 0.967774 0.159123
0.381254 0.969138 0.268001
0.382570 0.970455 0.373071
0.383862 0.971747 0.476175
0.385137 0.973022 0.577943
0.386400 0.974284 0.678699
0.387652 0.975537 0.778642
0.388896 0.976780 0.877906
0.390132 0.978017 0.976589
0.384365 0.067070 0.061928
0.385729 0.068434 0.170806
0.387046 0.069751 0.275876
0.388338 0.071043 0.378980
0.389613 0.072318 0.480747
0.390875 0.073580 0.581503
0.392128 0.074832 0.681447
0.393371 0.076076 0.780711
0.394608 0.077312 0.879393
0.397844 0.187784 0.075407
0.399208 0.189149 0.184284
0.400524 0.190465 0.289354
0.401816 0.191757 0.392458
0.403091 0.193032 0.494226
0.404354 0.194295 0.594982
0.405606 0.195547 0.694925
0.406850 0.196791 0.794190
0.408086 0.198027 0.892872
0.410871 0.304452 0.088433
0.412235 0.305816 0.197311
0.413551 0.307133 0.302381
0.414843 0.308425 0.405485
0.416118 0.309700 0.507253
0.417381 0.310962 0.608009
0.418633 0.312214 0.707952
0.419877 0.313458 0.807217
0.421113 0.314695 0.905899
0.423658 0.418981 0.101221
0.425023 0.420345 0.210099
0.426339 0.421662 0.315169
0.427631 0.422953 0.418273
0.428906 0.424228 0.520041
0.430169 0.425491 0.620797
0.431421 0.426743 0.720740
0.432665 0.427987 0.820004
0.433901 0.429223 0.918687
0.436283 0.532046 0.113846
0.437647 0.533410 0.222723
0.438964 0.534726 0.327794
0.440255 0.536018 0.430897
0.441531 0.537293 0.532665
0.442793 0.538556 0.633421
0.444045 0.539808 0.733364
0.445289 0.541052 0.832629
0.446525 0.542288 0.931311
0.448783 0.643999 0.126346
0.450147 0.645363 0.235224
0.451464 0.646680 0.340294
0.452756 0.647971 0.443398
0.454031 0.649247 0.545165
0.455293 0.650509 0.645922
0.456546 0.651761 0.745865
0.457789 0.653005 0.845129
0.459026 0.654241 0.943811
0.461184 0.755057 0.138747
0.462548 0.756421 0.247624
0.463864 0.757737 0.352694
0.465156 0.759029 0.455798
0.466431 0.760304 0.557566
0.467694 0.761567 0.658322
0.468946 0.762819 0.758265
0.470190 0.764063 0.857530
0.471426 0.765299 0.956212
0.473500 0.865366 0.151063
0.474865 0.866730 0.259941
0.476181 0.868046 0.365011
0.477473 0.869338 0.468115
0.478748 0.870613 0.569883
0.480010 0.871876 0.670639
0.481263 0.873128 0.770582
0.482506 0.874372 0.869846
0.483743 0.875608 0.968529
0.485359 0.971573 0.162922
0.486723 0.972937 0.271799
0.488040 0.974254 0.376870
0.489332 0.975546 0.479974
0.490607 0.976821 0.581741
0.491869 0.978083 0.682497
0.493121 0.979335 0.782441
0.494365 0.980579 0.881705
0.495602 0.981816 0.980387
0.488505 0.070821 0.065679
0.489869 0.072185 0.174556
0.491186 0.073501 0.279627
0.492478 0.074793 0.382731
0.493753 0.076068 0.484498
0.495015 0.077331 0.585254
0.496267 0.078583 0.685198
0.497511 0.079827 0.784462
0.498748 0.081063 0.883144
0.501984 0.191535 0.079158
0.503348 0.192900 0.188035
0.504664 0.194216 0.293105
0.505956 0.195508 0.396209
0.507231 0.196783 0.497977
0.508494 0.198045 0.598733
0.509746 0.199298 0.698676
0.510990 0.200541 0.797941
0.512226 0.201778 0.896623
0.515010 0.308203 0.092184
0.516375 0.309567 0.201062
0.517691 0.310884 0.306132
0.518983 0.312176 0.409236
0.520258 0.313451 0.511004
0.521521 0.314713 0.611760
0.522773 0.315965 0.711703
0.524017 0.317209 0.810967
0.525253 0.318446 0.909650
0.527798 0.422732 0.104972
0.529163 0.424096 0.213850
0.530479 0.425412 0.318920
0.531771 0.426704 0.422024
0.533046 0.427979 0.523791
0.534308 0.429242 0.624548
0.535561 0.430494 0.724491
0.536804 0.431738 0.823755
0.538041 0.432974 0.922437
0.540423 0.535797 0.117597
0.541787 0.537161 0.226474
0.543104 0.538477 0.331544
0.544395 0.539769 0.434648
0.545671 0.541044 0.536416
0.546933 0.542307 0.637172
0.548185 0.543559 0.737115
0.549429 0.544803 0.836380
0.550665 0.546039 0.935062
0.552923 0.647750 0.130097
0.554287 0.649114 0.238974
0.555604 0.650430 0.344045
0.556896 0.651722 0.447149
0.558171 0.652997 0.548916
0.559433 0.654260 0.649672
0.560686 0.655512 0.749616
0.561929 0.656756 0.848880
0.563166 0.657992 0.947562
0.565324 0.758807 0.142497
0.566688 0.760172 0.251375
0.568004 0.761488 0.356445
0.569296 0.762780 0.459549
0.570571 0.764055 0.561317
0.571834 0.765318 0.662073
0.573086 0.766570 0.762016
0.574330 0.767814 0.861280
0.575566 0.769050 0.959963
0.577640 0.869116 0.154814
0.579004 0.870481 0.263691
0.580321 0.871797 0.368762
0.581613 0.873089 0.471866
0.582888 0.874364 0.573633
0.584150 0.875626 0.674389
0.585403 0.876879 0.774333
0.586646 0.878122 0.873597
0.587883 0.879359 0.972279
0.589499 0.975324 0.166673
0.590863 0.976688 0.275550
0.592180 0.978005 0.380621
0.593472 0.979296 0.483725
0.594747 0.980571 0.585492
0.596009 0.981834 0.686248
0.597261 0.983086 0.786191
0.598505 0.984330 0.885456
0.599742 0.985566 0.984138
0.591632 0.074535 0.069393
0.592996 0.075899 0.178271
0.594312 0.077216 0.283341
0.595604 0.078508 0.386445
0.596879 0.079783 0.488213
0.598142 0.081045 0.588969
0.599394 0.082297 0.688912
0.600638 0.083541 0.788176
0.601874 0.084778 0.886859
0.605110 0.195250 0.082872
0.606475 0.196614 0.191749
0.607791 0.197930 0.296820
0.609083 0.199222 0.399924
0.610358 0.200497 0.501691
0.611620 0.201760 0.602447
0.612873 0.203012 0.702390
0.614116 0.204256 0.801655
0.615353 0.205492 0.900337
0.618137 0.311917 0.095899
0.619501 0.313281 0.204776
0.620818 0.314598 0.309846
0.622110 0.315890 0.412950
0.623385 0.317165 0.514718
0.624647 0.318427 0.615474
0.625899 0.319680 0.715417
0.627143 0.320923 0.814682
0.628380 0.322160 0.913364
0.630925 0.426446 0.108687
0.632289 0.427810 0.217564
0.633606 0.429127 0.322634
0.634898 0.430419 0.425738
0.636173 0.431694 0.527506
0.637435 0.432956 0.628262
0.638687 0.434208 0.728205
0.639931 0.435452 0.827470
0.641168 0.436689 0.926152
0.643550 0.539511 0.121311
0.644914 0.540875 0.230188
0.646230 0.542192 0.335259
0.647522 0.543483 0.438363
0.648797 0.544759 0.540130
0.650060 0.546021 0.640886
0.651312 0.547273 0.740830
0.652556 0.548517 0.840094
0.653792 0.549753 0.938776
0.656050 0.651464 0.133811
0.657414 0.652828 0.242689
0.658731 0.654145 0.347759
0.660022 0.655437 0.450863
0.661297 0.656712 0.552631
0.662560 0.657974 0.653387
0.663812 0.659226 0.753330
0.665056 0.660470 0.852594
0.666292 0.661707 0.951277
0.668450 0.762522 0.146212
0.669814 0.763886 0.255089
0.671131 0.765202 0.360159
0.672423 0.766494 0.463263
0.673698 0.767769 0.565031
0.674960 0.769032 0.665787
0.676213 0.770284 0.765730
0.677456 0.771528 0.864995
0.678693 0.772764 0.963677
0.680767 0.872831 0.158528
0.682131 0.874195 0.267406
0.683448 0.875511 0.372476
0.684739 0.876803 0.475580
0.686015 0.878078 0.577348
0.687277 0.879341 0.678104
0.688529 0.880593 0.778047
0.689773 0.881837 0.877311
0.691009 0.883073 0.975994
0.692626 0.979038 0.170387
0.693990 0.980402 0.279265
0.695306 0.981719 0.384335
0.696598 0.983011 0.487439
0.697873 0.984286 0.589206
0.699136 0.985548 0.689963
0.700388 0.986800 0.789906
0.701632 0.988044 0.889170
0.702868 0.989281 0.987853
0.693941 0.078220 0.073078
0.695305 0.079584 0.181956
0.696621 0.080901 0.287026
0.697913 0.082193 0.390130
0.699188 0.083468 0.491897
0.700451 0.084730 0.592654
0.701703 0.085982 0.692597
0.702947 0.087226 0.791861
0.704183 0.088463 0.890543
0.707419 0.198935 0.086557
0.708783 0.200299 0.195434
0.710100 0.201615 0.300504
0.711392 0.202907 0.403608
0.712667 0.204182 0.505376
0.713929 0.205445 0.606132
0.715182 0.206697 0.706075
0.716425 0.207941 0.805340
0.717662 0.209177 0.904022
0.720446 0.315602 0.099584
0.721810 0.316966 0.208461
0.723127 0.318283 0.313531
0.724419 0.319575 0.416635
0.725694 0.320850 0.518403
0.726956 0.322112 0.619159
0.728208 0.323365 0.719102
0.729452 0.324608 0.818367
0.730689 0.325845 0.917049
0.733234 0.430131 0.112371
0.734598 0.431495 0.221249
0.735915 0.432812 0.326319
0.737206 0.434103 0.429423
0.738482 0.435379 0.531191
0.739744 0.436641 0.631947
0.740996 0.437893 0.731890
0.742240 0.439137 0.831154
0.743476 0.440373 0.929837
0.745858 0.543196 0.124996
0.747223 0.544560 0.233873
0.748539 0.545877 0.338944
0.749831 0.547168 0.442048
0.751106 0.548443 0.543815
0.752369 0.549706 0.644571
0.753621 0.550958 0.744514
0.754865 0.552202 0.843779
0.756101 0.553438 0.942461
0.758359 0.655149 0.137496
0.759723 0.656513 0.246374
0.761039 0.657830 0.351444
0.762331 0.659121 0.454548
0.763606 0.660397 0.556315
0.764869 0.661659 0.657072
0.766121 0.662911 0.757015
0.767365 0.664155 0.856279
0.768601 0.665391 0.954962
0.770759 0.766207 0.149897
0.772123 0.767571 0.258774
0.773440 0.768887 0.363844
0.774732 0.770179 0.466948
0.776007 0.771454 0.568716
0.777269 0.772717 0.669472
0.778521 0.773969 0.769415
0.779765 0.775213 0.868680
0.781002 0.776449 0.967362
0.783076 0.876516 0.162213
0.784440 0.877880 0.271091
0.785757 0.879196 0.376161
0.787048 0.880488 0.479265
0.788324 0.881763 0.581033
0.789586 0.883026 0.681789
0.790838 0.884278 0.781732
0.792082 0.885522 0.880996
0.793318 0.886758 0.979679
0.794935 0.982723 0.174072
0.796299 0.984087 0.282949
0.797615 0.985404 0.388020
0.798907 0.986696 0.491124
0.800182 0.987971 0.592891
0.801445 0.989233 0.693647
0.802697 0.990485 0.793591
0.803941 0.991729 0.892855
0.805177 0.992966 0.991537
0.795565 0.081880 0.076738
0.796929 0.083244 0.185616
0.798245 0.084561 0.290686
0.799537 0.085853 0.393790
0.800812 0.087128 0.495558
0.802075 0.088390 0.596314
0.803327 0.089643 0.696257
0.804571 0.090886 0.795521
0.805807 0.092123 0.894204
0.809043 0.202595 0.090217
0.810408 0.203959 0.199094
0.811724 0.205275 0.304165
0.813016 0.206567 0.407269
0.814291 0.207842 0.509036
0.815553 0.209105 0.609792
0.816806 0.210357 0.709736
0.818049 0.211601 0.809000
0.819286 0.212837 0.907682
0.822070 0.319262 0.103244
0.823434 0.320627 0.212121
0.824751 0.321943 0.317191
0.826043 0.323235 0.420295
0.827318 0.324510 0.522063
0.828580 0.325772 0.622819
0.829832 0.327025 0.722762
0.831076 0.328268 0.822027
0.832313 0.329505 0.920709
0.834858 0.433791 0.116032
0.836222 0.435155 0.224909
0.837539 0.436472 0.329979
0.838831 0.437764 0.433083
0.840106 0.439039 0.534851
0.841368 0.440301 0.635607
0.842620 0.441553 0.735550
0.843864 0.442797 0.834815
0.845101 0.444034 0.933497
0.847483 0.546856 0.128656
0.848847 0.548220 0.237533
0.850163 0.549537 0.342604
0.851455 0.550829 0.445708
0.852730 0.552104 0.547475
0.853993 0.553366 0.648231
0.855245 0.554618 0.748175
0.856489 0.555862 0.847439
0.857725 0.557099 0.946121
0.859983 0.658809 0.141156
0.861347 0.660173 0.250034
0.862664 0.661490 0.355104
0.863955 0.662782 0.458208
0.865231 0.664057 0.559976
0.866493 0.665319 0.660732
0.867745 0.666571 0.760675
0.868989 0.667815 0.859939
0.870225 0.669052 0.958622
0.872383 0.769867 0.153557
0.873747 0.771231 0.262434
0.875064 0.772548 0.367504
0.876356 0.773839 0.470608
0.877631 0.775115 0.572376
0.878893 0.776377 0.673132
0.880146 0.777629 0.773075
0.881389 0.778873 0.872340
0.882626 0.780109 0.971022
0.884700 0.880176 0.165874
0.886064 0.881540 0.274751
0.887381 0.882857 0.379821
0.888672 0.884148 0.482925
0.889948 0.885423 0.584693
0.891210 0.886686 0.685449
0.892462 0.887938 0.785392
0.893706 0.889182 0.884657
0.894942 0.890418 0.983339
0.896559 0.986383 0.177732
0.897923 0.987747 0.286610
0.899239 0.989064 0.391680
0.900531 0.990356 0.494784
0.901806 0.991631 0.596552
0.903069 0.992893 0.697308
0.904321 0.994146 0.797251
0.905565 0.995389 0.896515
0.906801 0.996626 0.995198
0.888745 0.085236 0.080094
0.890110 0.086600 0.188972
0.891426 0.087917 0.294042
0.892718 0.089209 0.397146
0.893993 0.090484 0.498914
0.895255 0.091746 0.599670
0.896508 0.092999 0.699613
0.897751 0.094242 0.798878
0.898988 0.095479 0.897560
0.902224 0.205951 0.093573
0.903588 0.207315 0.202450
0.904905 0.208632 0.307521
0.906197 0.209923 0.410625
0.907472 0.211198 0.512392
0.908734 0.212461 0.613148
0.909986 0.213713 0.713092
0.911230 0.214957 0.812356
0.912467 0.216193 0.911038
0.915251 0.322618 0.106600
0.916615 0.323983 0.215477
0.917931 0.325299 0.320548
0.919223 0.326591 0.423651
0.920498 0.327866 0.525419
0.921761 0.329129 0.626175
0.923013 0.330381 0.726118
0.924257 0.331625 0.825383
0.925493 0.332861 0.924065
0.928039 0.437147 0.119388
0.929403 0.438511 0.228265
0.930719 0.439828 0.333335
0.932011 0.441120 0.436439
0.933286 0.442395 0.538207
0.934549 0.443657 0.638963
0.935801 0.444910 0.738906
0.937045 0.446153 0.838171
0.938281 0.447390 0.936853
0.940663 0.550212 0.132012
0.942027 0.551576 0.240890
0.943344 0.552893 0.345960
0.944636 0.554185 0.449064
0.945911 0.555460 0.550831
0.947173 0.556722 0.651588
0.948425 0.557974 0.751531
0.949669 0.559218 0.850795
0.950906 0.560455 0.949477
0.953163 0.662165 0.144513
0.954528 0.663529 0.253390
0.955844 0.664846 0.358460
0.957136 0.666138 0.461564
0.958411 0.667413 0.563332
0.959674 0.668675 0.664088
0.960926 0.669928 0.764031
0.962170 0.671171 0.863296
0.963406 0.672408 0.961978
0.965564 0.773223 0.156913
0.966928 0.774587 0.265790
0.968244 0.775904 0.370861
0.969536 0.777196 0.473965
0.970811 0.778471 0.575732
0.972074 0.779733 0.676488
0.973326 0.780985 0.776431
0.974570 0.782229 0.875696
0.975806 0.783466 0.974378
0.977881 0.883532 0.169230
0.979245 0.884896 0.278107
0.980561 0.886213 0.383177
0.981853 0.887504 0.486281
0.983128 0.888780 0.588049
0.984391 0.890042 0.688805
0.985643 0.891294 0.788748
0.986887 0.892538 0.888013
0.988123 0.893774 0.986695
0.989739 0.989739 0.181088
0.991104 0.991104 0.289966
0.992420 0.992420 0.395036
0.993712 0.993712 0.498140
0.994987 0.994987 0.599908
0.996249 0.996249 0.700664
0.997502 0.997502 0.800607
0.998745 0.998745 0.899871
0.999982 0.999982 0.998554
