skills/editops-orchestrator/assets/grade/luts/soft_pastel_v20.cube
TITLE "soft_pastel_v20"
LUT_3D_SIZE 9
DOMAIN_MIN 0.0 0.0 0.0
DOMAIN_MAX 1.0 1.0 1.0
0.092976 0.084818 0.076597
0.094772 0.086614 0.177884
0.096493 0.088335 0.274968
0.098173 0.090015 0.369722
0.099824 0.091666 0.462862
0.101454 0.093296 0.554770
0.103066 0.094908 0.645682
0.104663 0.096505 0.735760
0.106247 0.098089 0.825123
0.110679 0.201533 0.094300
0.112475 0.203329 0.195587
0.114196 0.205050 0.292671
0.115876 0.206730 0.387425
0.117528 0.208382 0.480566
0.119157 0.210011 0.572473
0.120769 0.211623 0.663385
0.122366 0.213220 0.753464
0.123951 0.214805 0.842826
0.127690 0.313682 0.111311
0.129486 0.315478 0.212598
0.131207 0.317199 0.309682
0.132887 0.318879 0.404436
0.134538 0.320530 0.497576
0.136168 0.322160 0.589484
0.137780 0.323772 0.680396
0.139377 0.325369 0.770474
0.140961 0.326953 0.859837
0.144305 0.423226 0.127926
0.146101 0.425022 0.229213
0.147823 0.426743 0.326297
0.149503 0.428423 0.421052
0.151154 0.430074 0.514192
0.152783 0.431704 0.606099
0.154395 0.433316 0.697011
0.155992 0.434913 0.787090
0.157577 0.436497 0.876452
0.160644 0.530945 0.144265
0.162440 0.532741 0.245552
0.164161 0.534463 0.342636
0.165841 0.536143 0.437391
0.167493 0.537794 0.530531
0.169122 0.539423 0.622438
0.170734 0.541035 0.713350
0.172331 0.542632 0.803429
0.173916 0.544217 0.892791
0.176771 0.637264 0.160391
0.178567 0.639060 0.261679
0.180288 0.640781 0.358762
0.181968 0.642461 0.453517
0.183619 0.644113 0.546657
0.185249 0.645742 0.638565
0.186861 0.647354 0.729477
0.188458 0.648951 0.819555
0.190042 0.650535 0.908918
0.192725 0.742448 0.176346
0.194521 0.744244 0.277633
0.196242 0.745965 0.374717
0.197922 0.747645 0.469471
0.199573 0.749296 0.562611
0.201203 0.750926 0.654519
0.202815 0.752538 0.745431
0.204412 0.754135 0.835509
0.205996 0.755719 0.924872
0.208535 0.846679 0.192155
0.210331 0.848475 0.293443
0.212052 0.850196 0.390526
0.213732 0.851876 0.485281
0.215383 0.853527 0.578421
0.217013 0.855157 0.670329
0.218625 0.856769 0.761241
0.220222 0.858366 0.851319
0.221806 0.859950 0.940682
0.223924 0.948140 0.207545
0.225720 0.949936 0.308832
0.227441 0.951657 0.405916
0.229121 0.953337 0.500671
0.230773 0.954989 0.593811
0.232402 0.956618 0.685718
0.234014 0.958230 0.776630
0.235611 0.959827 0.866709
0.237196 0.961412 0.956071
0.196788 0.090057 0.081836
0.198584 0.091853 0.183123
0.200305 0.093574 0.280207
0.201985 0.095254 0.374961
0.203636 0.096906 0.468102
0.205266 0.098535 0.560009
0.206878 0.100147 0.650921
0.208475 0.101744 0.740999
0.210059 0.103328 0.830362
0.214491 0.206772 0.099539
0.216287 0.208568 0.200826
0.218008 0.210289 0.297910
0.219688 0.211969 0.392665
0.221340 0.213621 0.485805
0.222969 0.215250 0.577712
0.224581 0.216862 0.668624
0.226178 0.218459 0.758703
0.227763 0.220044 0.848065
0.231502 0.318921 0.116550
0.233298 0.320717 0.217837
0.235019 0.322438 0.314921
0.236699 0.324118 0.409675
0.238350 0.325770 0.502816
0.239980 0.327399 0.594723
0.241592 0.329011 0.685635
0.243189 0.330608 0.775713
0.244773 0.332192 0.865076
0.248118 0.428465 0.133165
0.249913 0.430261 0.234453
0.251635 0.431982 0.331536
0.253315 0.433662 0.426291
0.254966 0.435313 0.519431
0.256596 0.436943 0.611339
0.258207 0.438555 0.702250
0.259804 0.440152 0.792329
0.261389 0.441736 0.881692
0.264456 0.536185 0.149504
0.266252 0.537980 0.250791
0.267974 0.539702 0.347875
0.269654 0.541382 0.442630
0.271305 0.543033 0.535770
0.272934 0.544663 0.627677
0.274546 0.546274 0.718589
0.276143 0.547872 0.808668
0.277728 0.549456 0.898030
0.280583 0.642503 0.165631
0.282379 0.644299 0.266918
0.284100 0.646020 0.364002
0.285780 0.647700 0.458756
0.287431 0.649352 0.551896
0.289061 0.650981 0.643804
0.290673 0.652593 0.734716
0.292270 0.654190 0.824794
0.293854 0.655775 0.914157
0.296537 0.747687 0.181585
0.298333 0.749483 0.282872
0.300054 0.751204 0.379956
0.301734 0.752884 0.474710
0.303386 0.754535 0.567851
0.305015 0.756165 0.659758
0.306627 0.757777 0.750670
0.308224 0.759374 0.840748
0.309808 0.760958 0.930111
0.312347 0.851918 0.197395
0.314143 0.853714 0.298682
0.315864 0.855435 0.395766
0.317544 0.857115 0.490520
0.319195 0.858767 0.583660
0.320825 0.860396 0.675568
0.322437 0.862008 0.766480
0.324034 0.863605 0.856558
0.325618 0.865189 0.945921
0.327736 0.953379 0.212784
0.329532 0.955175 0.314071
0.331253 0.956896 0.411155
0.332933 0.958576 0.505910
0.334585 0.960228 0.599050
0.336214 0.961857 0.690957
0.337826 0.963469 0.781869
0.339423 0.965066 0.871948
0.341008 0.966651 0.961310
0.296756 0.095102 0.086881
0.298552 0.096898 0.188168
0.300273 0.098619 0.285252
0.301953 0.100299 0.380006
0.303604 0.101951 0.473147
0.305234 0.103580 0.565054
0.306846 0.105192 0.655966
0.308443 0.106789 0.746045
0.310027 0.108374 0.835407
0.314459 0.211817 0.104584
0.316255 0.213613 0.205872
0.317976 0.215335 0.302955
0.319656 0.217015 0.397710
0.321308 0.218666 0.490850
0.322937 0.220295 0.582757
0.324549 0.221907 0.673669
0.326146 0.223504 0.763748
0.327731 0.225089 0.853110
0.331470 0.323966 0.121595
0.333266 0.325762 0.222882
0.334987 0.327483 0.319966
0.336667 0.329163 0.414720
0.338318 0.330815 0.507861
0.339948 0.332444 0.599768
0.341560 0.334056 0.690680
0.343157 0.335653 0.780759
0.344741 0.337238 0.870121
0.348085 0.433510 0.138210
0.349881 0.435306 0.239498
0.351603 0.437027 0.336581
0.353283 0.438707 0.431336
0.354934 0.440359 0.524476
0.356563 0.441988 0.616384
0.358175 0.443600 0.707296
0.359772 0.445197 0.797374
0.361357 0.446781 0.886737
0.364424 0.541230 0.154549
0.366220 0.543026 0.255837
0.367941 0.544747 0.352920
0.369621 0.546427 0.447675
0.371273 0.548078 0.540815
0.372902 0.549708 0.632723
0.374514 0.551320 0.723635
0.376111 0.552917 0.813713
0.377696 0.554501 0.903076
0.380551 0.647548 0.170676
0.382347 0.649344 0.271963
0.384068 0.651066 0.369047
0.385748 0.652746 0.463801
0.387399 0.654397 0.556942
0.389029 0.656026 0.648849
0.390641 0.657638 0.739761
0.392238 0.659235 0.829839
0.393822 0.660820 0.919202
0.396505 0.752732 0.186630
0.398301 0.754528 0.287917
0.400022 0.756249 0.385001
0.401702 0.757929 0.479756
0.403353 0.759581 0.572896
0.404983 0.761210 0.664803
0.406595 0.762822 0.755715
0.408192 0.764419 0.845794
0.409776 0.766003 0.935156
0.412315 0.856963 0.202440
0.414111 0.858759 0.303727
0.415832 0.860480 0.400811
0.417512 0.862160 0.495565
0.419163 0.863812 0.588706
0.420793 0.865441 0.680613
0.422405 0.867053 0.771525
0.424002 0.868650 0.861603
0.425586 0.870235 0.950966
0.427704 0.958424 0.217829
0.429500 0.960220 0.319117
0.431221 0.961942 0.416200
0.432901 0.963622 0.510955
0.434553 0.965273 0.604095
0.436182 0.966902 0.696002
0.437794 0.968514 0.786914
0.439391 0.970111 0.876993
0.440976 0.971696 0.966355
0.394474 0.100034 0.091812
0.396269 0.101830 0.193100
0.397991 0.103551 0.290183
0.399671 0.105231 0.384938
0.401322 0.106882 0.478078
0.402952 0.108512 0.569986
0.404563 0.110124 0.660898
0.406160 0.111721 0.750976
0.407745 0.113305 0.840339
0.412177 0.216749 0.109516
0.413973 0.218545 0.210803
0.415694 0.220266 0.307887
0.417374 0.221946 0.402641
0.419025 0.223598 0.495782
0.420655 0.225227 0.587689
0.422267 0.226839 0.678601
0.423864 0.228436 0.768679
0.425448 0.230020 0.858042
0.429188 0.328898 0.126526
0.430983 0.330694 0.227814
0.432705 0.332415 0.324897
0.434385 0.334095 0.419652
0.436036 0.335746 0.512792
0.437666 0.337376 0.604700
0.439277 0.338988 0.695612
0.440874 0.340585 0.785690
0.442459 0.342169 0.875053
0.445803 0.438442 0.143142
0.447599 0.440238 0.244429
0.449320 0.441959 0.341513
0.451000 0.443639 0.436268
0.452652 0.445290 0.529408
0.454281 0.446920 0.621315
0.455893 0.448532 0.712227
0.457490 0.450129 0.802306
0.459074 0.451713 0.891668
0.462142 0.546161 0.159481
0.463938 0.547957 0.260768
0.465659 0.549678 0.357852
0.467339 0.551358 0.452607
0.468990 0.553010 0.545747
0.470620 0.554639 0.637654
0.472232 0.556251 0.728566
0.473829 0.557848 0.818645
0.475413 0.559433 0.908007
0.478268 0.652480 0.175607
0.480064 0.654276 0.276895
0.481785 0.655997 0.373978
0.483465 0.657677 0.468733
0.485117 0.659329 0.561873
0.486746 0.660958 0.653781
0.488358 0.662570 0.744692
0.489955 0.664167 0.834771
0.491540 0.665751 0.924133
0.494223 0.757664 0.191562
0.496018 0.759460 0.292849
0.497740 0.761181 0.389933
0.499420 0.762861 0.484687
0.501071 0.764512 0.577827
0.502701 0.766142 0.669735
0.504312 0.767754 0.760647
0.505910 0.769351 0.850725
0.507494 0.770935 0.940088
0.510032 0.861895 0.207371
0.511828 0.863691 0.308659
0.513549 0.865412 0.405742
0.515229 0.867092 0.500497
0.516881 0.868743 0.593637
0.518510 0.870373 0.685544
0.520122 0.871985 0.776456
0.521719 0.873582 0.866535
0.523304 0.875166 0.955897
0.525422 0.963356 0.222761
0.527218 0.965152 0.324048
0.528939 0.966873 0.421132
0.530619 0.968553 0.515886
0.532270 0.970205 0.609027
0.533900 0.971834 0.700934
0.535512 0.973446 0.791846
0.537109 0.975043 0.881925
0.538693 0.976627 0.971287
0.490600 0.104885 0.096664
0.492395 0.106681 0.197951
0.494117 0.108402 0.295035
0.495797 0.110082 0.389789
0.497448 0.111734 0.482930
0.499078 0.113363 0.574837
0.500689 0.114975 0.665749
0.502287 0.116572 0.755827
0.503871 0.118156 0.845190
0.508303 0.221600 0.114367
0.510099 0.223396 0.215654
0.511820 0.225117 0.312738
0.513500 0.226797 0.407493
0.515151 0.228449 0.500633
0.516781 0.230078 0.592540
0.518393 0.231690 0.683452
0.519990 0.233287 0.773531
0.521574 0.234872 0.862893
0.525314 0.333749 0.131378
0.527109 0.335545 0.232665
0.528831 0.337266 0.329749
0.530511 0.338946 0.424503
0.532162 0.340598 0.517644
0.533792 0.342227 0.609551
0.535403 0.343839 0.700463
0.537001 0.345436 0.790541
0.538585 0.347020 0.879904
0.541929 0.443293 0.147993
0.543725 0.445089 0.249281
0.545446 0.446810 0.346364
0.547126 0.448490 0.441119
0.548778 0.450141 0.534259
0.550407 0.451771 0.626166
0.552019 0.453383 0.717078
0.553616 0.454980 0.807157
0.555201 0.456564 0.896519
0.558268 0.551013 0.164332
0.560064 0.552808 0.265619
0.561785 0.554530 0.362703
0.563465 0.556210 0.457458
0.565117 0.557861 0.550598
0.566746 0.559491 0.642505
0.568358 0.561102 0.733417
0.569955 0.562700 0.823496
0.571539 0.564284 0.912858
0.574394 0.657331 0.180459
0.576190 0.659127 0.281746
0.577912 0.660848 0.378830
0.579592 0.662528 0.473584
0.581243 0.664180 0.566724
0.582872 0.665809 0.658632
0.584484 0.667421 0.749544
0.586081 0.669018 0.839622
0.587666 0.670603 0.928985
0.590349 0.762515 0.196413
0.592145 0.764311 0.297700
0.593866 0.766032 0.394784
0.595546 0.767712 0.489538
0.597197 0.769363 0.582679
0.598827 0.770993 0.674586
0.600439 0.772605 0.765498
0.602036 0.774202 0.855576
0.603620 0.775786 0.944939
0.606158 0.866746 0.212223
0.607954 0.868542 0.313510
0.609676 0.870263 0.410594
0.611356 0.871943 0.505348
0.613007 0.873595 0.598488
0.614636 0.875224 0.690396
0.616248 0.876836 0.781308
0.617845 0.878433 0.871386
0.619430 0.880017 0.960749
0.621548 0.968207 0.227612
0.623344 0.970003 0.328899
0.625065 0.971724 0.425983
0.626745 0.973404 0.520738
0.628397 0.975056 0.613878
0.630026 0.976685 0.705785
0.631638 0.978297 0.796697
0.633235 0.979894 0.886776
0.634819 0.981479 0.976138
0.585497 0.109674 0.101453
0.587293 0.111470 0.202740
0.589014 0.113191 0.299824
0.590694 0.114871 0.394579
0.592346 0.116523 0.487719
0.593975 0.118152 0.579626
0.595587 0.119764 0.670538
0.597184 0.121361 0.760617
0.598768 0.122946 0.849979
0.603200 0.226390 0.119156
0.604996 0.228185 0.220444
0.606718 0.229907 0.317527
0.608398 0.231587 0.412282
0.610049 0.233238 0.505422
0.611678 0.234868 0.597329
0.613290 0.236479 0.688241
0.614887 0.238077 0.778320
0.616472 0.239661 0.867682
0.620211 0.338538 0.136167
0.622007 0.340334 0.237454
0.623728 0.342055 0.334538
0.625408 0.343735 0.429293
0.627060 0.345387 0.522433
0.628689 0.347016 0.614340
0.630301 0.348628 0.705252
0.631898 0.350225 0.795331
0.633482 0.351810 0.884693
0.636827 0.448082 0.152783
0.638622 0.449878 0.254070
0.640344 0.451599 0.351154
0.642024 0.453279 0.445908
0.643675 0.454931 0.539048
0.645305 0.456560 0.630956
0.646917 0.458172 0.721868
0.648514 0.459769 0.811946
0.650098 0.461354 0.901309
0.653166 0.555802 0.169121
0.654961 0.557598 0.270409
0.656683 0.559319 0.367492
0.658363 0.560999 0.462247
0.660014 0.562650 0.555387
0.661644 0.564280 0.647295
0.663255 0.565892 0.738207
0.664852 0.567489 0.828285
0.666437 0.569073 0.917648
0.669292 0.662121 0.185248
0.671088 0.663916 0.286535
0.672809 0.665638 0.383619
0.674489 0.667318 0.478373
0.676140 0.668969 0.571514
0.677770 0.670599 0.663421
0.679382 0.672210 0.754333
0.680979 0.673807 0.844412
0.682563 0.675392 0.933774
0.685246 0.767304 0.201202
0.687042 0.769100 0.302489
0.688763 0.770821 0.399573
0.690443 0.772501 0.494328
0.692095 0.774153 0.587468
0.693724 0.775782 0.679375
0.695336 0.777394 0.770287
0.696933 0.778991 0.860366
0.698518 0.780576 0.949728
0.701056 0.871535 0.217012
0.702852 0.873331 0.318299
0.704573 0.875052 0.415383
0.706253 0.876732 0.510137
0.707904 0.878384 0.603278
0.709534 0.880013 0.695185
0.711146 0.881625 0.786097
0.712743 0.883222 0.876175
0.714327 0.884807 0.965538
0.716445 0.972997 0.232401
0.718241 0.974792 0.333689
0.719963 0.976514 0.430772
0.721643 0.978194 0.525527
0.723294 0.979845 0.618667
0.724923 0.981475 0.710575
0.726535 0.983086 0.801487
0.728132 0.984684 0.891565
0.729717 0.986268 0.980928
0.679396 0.114413 0.106192
0.681192 0.116209 0.207479
0.682913 0.117930 0.304563
0.684593 0.119610 0.399317
0.686244 0.121262 0.492458
0.687874 0.122891 0.584365
0.689486 0.124503 0.675277
0.691083 0.126100 0.765355
0.692667 0.127685 0.854718
0.697099 0.231128 0.123895
0.698895 0.232924 0.225182
0.700616 0.234646 0.322266
0.702296 0.236326 0.417021
0.703948 0.237977 0.510161
0.705577 0.239606 0.602068
0.707189 0.241218 0.692980
0.708786 0.242815 0.783059
0.710370 0.244400 0.872421
0.714110 0.343277 0.140906
0.715906 0.345073 0.242193
0.717627 0.346794 0.339277
0.719307 0.348474 0.434031
0.720958 0.350126 0.527172
0.722588 0.351755 0.619079
0.724200 0.353367 0.709991
0.725797 0.354964 0.800070
0.727381 0.356549 0.889432
0.730725 0.452821 0.157521
0.732521 0.454617 0.258809
0.734242 0.456338 0.355892
0.735922 0.458018 0.450647
0.737574 0.459670 0.543787
0.739203 0.461299 0.635695
0.740815 0.462911 0.726607
0.742412 0.464508 0.816685
0.743997 0.466092 0.906048
0.747064 0.560541 0.173860
0.748860 0.562336 0.275148
0.750581 0.564058 0.372231
0.752261 0.565738 0.466986
0.753913 0.567389 0.560126
0.755542 0.569019 0.652033
0.757154 0.570631 0.742945
0.758751 0.572228 0.833024
0.760336 0.573812 0.922386
0.763191 0.666859 0.189987
0.764986 0.668655 0.291274
0.766708 0.670376 0.388358
0.768388 0.672056 0.483112
0.770039 0.673708 0.576252
0.771669 0.675337 0.668160
0.773280 0.676949 0.759072
0.774878 0.678546 0.849150
0.776462 0.680131 0.938513
0.779145 0.772043 0.205941
0.780941 0.773839 0.307228
0.782662 0.775560 0.404312
0.784342 0.777240 0.499066
0.785993 0.778892 0.592207
0.787623 0.780521 0.684114
0.789235 0.782133 0.775026
0.790832 0.783730 0.865105
0.792416 0.785314 0.954467
0.794955 0.876274 0.221751
0.796750 0.878070 0.323038
0.798472 0.879791 0.420122
0.800152 0.881471 0.514876
0.801803 0.883123 0.608016
0.803433 0.884752 0.699924
0.805044 0.886364 0.790836
0.806642 0.887961 0.880914
0.808226 0.889546 0.970277
0.810344 0.977735 0.237140
0.812140 0.979531 0.338428
0.813861 0.981253 0.435511
0.815541 0.982933 0.530266
0.817193 0.984584 0.623406
0.818822 0.986213 0.715313
0.820434 0.987825 0.806225
0.822031 0.989422 0.896304
0.823616 0.991007 0.985666
0.772454 0.119110 0.110888
0.774250 0.120905 0.212176
0.775971 0.122627 0.309259
0.777651 0.124307 0.404014
0.779303 0.125958 0.497154
0.780932 0.127588 0.589061
0.782544 0.129199 0.679973
0.784141 0.130797 0.770052
0.785726 0.132381 0.859414
0.790158 0.235825 0.128592
0.791953 0.237621 0.229879
0.793675 0.239342 0.326963
0.795355 0.241022 0.421717
0.797006 0.242673 0.514857
0.798636 0.244303 0.606765
0.800247 0.245915 0.697677
0.801844 0.247512 0.787755
0.803429 0.249096 0.877118
0.807168 0.347974 0.145602
0.808964 0.349769 0.246890
0.810685 0.351491 0.343973
0.812365 0.353171 0.438728
0.814017 0.354822 0.531868
0.815646 0.356452 0.623775
0.817258 0.358063 0.714687
0.818855 0.359661 0.804766
0.820440 0.361245 0.894128
0.823784 0.457517 0.162218
0.825580 0.459313 0.263505
0.827301 0.461035 0.360589
0.828981 0.462715 0.455343
0.830632 0.464366 0.548484
0.832262 0.465995 0.640391
0.833874 0.467607 0.731303
0.835471 0.469204 0.821382
0.837055 0.470789 0.910744
0.840123 0.565237 0.178557
0.841918 0.567033 0.279844
0.843640 0.568754 0.376928
0.845320 0.570434 0.471682
0.846971 0.572086 0.564823
0.848601 0.573715 0.656730
0.850213 0.575327 0.747642
0.851810 0.576924 0.837720
0.853394 0.578508 0.927083
0.856249 0.671556 0.194683
0.858045 0.673352 0.295970
0.859766 0.675073 0.393054
0.861446 0.676753 0.487809
0.863098 0.678404 0.580949
0.864727 0.680034 0.672856
0.866339 0.681646 0.763768
0.867936 0.683243 0.853847
0.869520 0.684827 0.943209
0.872203 0.776740 0.210637
0.873999 0.778535 0.311925
0.875720 0.780257 0.409008
0.877400 0.781937 0.503763
0.879052 0.783588 0.596903
0.880681 0.785218 0.688811
0.882293 0.786829 0.779722
0.883890 0.788426 0.869801
0.885475 0.790011 0.959164
0.888013 0.880971 0.226447
0.889809 0.882766 0.327734
0.891530 0.884488 0.424818
0.893210 0.886168 0.519573
0.894861 0.887819 0.612713
0.896491 0.889449 0.704620
0.898103 0.891060 0.795532
0.899700 0.892658 0.885611
0.901284 0.894242 0.974973
0.903403 0.982432 0.241837
0.905198 0.984228 0.343124
0.906920 0.985949 0.440208
0.908600 0.987629 0.534962
0.910251 0.989280 0.628102
0.911881 0.990910 0.720010
0.913492 0.992522 0.810922
0.915090 0.994119 0.901000
0.916674 0.995703 0.990363
0.855684 0.123310 0.115089
0.857480 0.125106 0.216376
0.859201 0.126827 0.313460
0.860881 0.128507 0.408214
0.862532 0.130158 0.501354
0.864162 0.131788 0.593262
0.865774 0.133400 0.684174
0.867371 0.134997 0.774252
0.868955 0.136581 0.863615
0.873387 0.240025 0.132792
0.875183 0.241821 0.234079
0.876904 0.243542 0.331163
0.878584 0.245222 0.425918
0.880236 0.246874 0.519058
0.881865 0.248503 0.610965
0.883477 0.250115 0.701877
0.885074 0.251712 0.791956
0.886659 0.253297 0.881318
0.890398 0.352174 0.149803
0.892194 0.353970 0.251090
0.893915 0.355691 0.348174
0.895595 0.357371 0.442928
0.897246 0.359022 0.536068
0.898876 0.360652 0.627976
0.900488 0.362264 0.718888
0.902085 0.363861 0.808966
0.903669 0.365445 0.898329
0.907013 0.461718 0.166418
0.908809 0.463514 0.267706
0.910531 0.465235 0.364789
0.912211 0.466915 0.459544
0.913862 0.468566 0.552684
0.915491 0.470196 0.644591
0.917103 0.471808 0.735503
0.918700 0.473405 0.825582
0.920285 0.474989 0.914944
0.923352 0.569438 0.182757
0.925148 0.571233 0.284044
0.926869 0.572955 0.381128
0.928549 0.574635 0.475883
0.930201 0.576286 0.569023
0.931830 0.577916 0.660930
0.933442 0.579527 0.751842
0.935039 0.581124 0.841921
0.936624 0.582709 0.931283
0.939479 0.675756 0.198883
0.941275 0.677552 0.300171
0.942996 0.679273 0.397255
0.944676 0.680953 0.492009
0.946327 0.682605 0.585149
0.947957 0.684234 0.677057
0.949569 0.685846 0.767969
0.951166 0.687443 0.858047
0.952750 0.689028 0.947410
0.955433 0.780940 0.214838
0.957229 0.782736 0.316125
0.958950 0.784457 0.413209
0.960630 0.786137 0.507963
0.962281 0.787788 0.601104
0.963911 0.789418 0.693011
0.965523 0.791030 0.783923
0.967120 0.792627 0.874001
0.968704 0.794211 0.963364
0.971243 0.885171 0.230647
0.973038 0.886967 0.331935
0.974760 0.888688 0.429018
0.976440 0.890368 0.523773
0.978091 0.892020 0.616913
0.979721 0.893649 0.708821
0.981333 0.895261 0.799733
0.982930 0.896858 0.889811
0.984514 0.898442 0.979174
0.986632 0.986632 0.246037
0.988428 0.988428 0.347324
0.990149 0.990149 0.444408
0.991829 0.991829 0.539163
0.993481 0.993481 0.632303
0.995110 0.995110 0.724210
0.996722 0.996722 0.815122
0.998319 0.998319 0.905201
0.999904 0.999904 0.994563
