skills/editops-orchestrator/assets/grade/luts/soft_pastel_v12.cube
TITLE "soft_pastel_v12"
LUT_3D_SIZE 5
DOMAIN_MIN 0.0 0.0 0.0
DOMAIN_MAX 1.0 1.0 1.0
0.060523 0.055406 0.050264
0.063203 0.058087 0.264212
0.065770 0.060654 0.469083
0.068285 0.063168 0.669783
0.070765 0.065649 0.867730
0.087028 0.292788 0.076770
0.089709 0.295469 0.290717
0.092276 0.298036 0.495589
0.094790 0.300551 0.696288
0.097270 0.303031 0.894235
0.112440 0.520382 0.102182
0.115121 0.523063 0.316130
0.117688 0.525630 0.521001
0.120203 0.528144 0.721701
0.122683 0.530624 0.919647
0.137341 0.743393 0.127083
0.140022 0.746073 0.341030
0.142589 0.748640 0.545902
0.145103 0.751155 0.746601
0.147584 0.753635 0.944548
0.161517 0.959909 0.151258
0.164197 0.962590 0.365206
0.166764 0.965157 0.570077
0.169279 0.967671 0.770777
0.171759 0.970152 0.968723
0.278896 0.063271 0.058129
0.281577 0.065952 0.272077
0.284143 0.068519 0.476949
0.286658 0.071034 0.677648
0.289138 0.073514 0.875595
0.305401 0.300653 0.084635
0.308082 0.303334 0.298582
0.310649 0.305901 0.503454
0.313164 0.308416 0.704153
0.315644 0.310896 0.902100
0.330814 0.528247 0.110047
0.333494 0.530928 0.323995
0.336061 0.533495 0.528866
0.338576 0.536009 0.729566
0.341056 0.538490 0.927512
0.355714 0.751258 0.134948
0.358395 0.753939 0.348896
0.360962 0.756506 0.553767
0.363477 0.759020 0.754466
0.365957 0.761500 0.952413
0.379890 0.967774 0.159123
0.382570 0.970455 0.373071
0.385137 0.973022 0.577943
0.387652 0.975537 0.778642
0.390132 0.978017 0.976589
0.488505 0.070821 0.065679
0.491186 0.073501 0.279627
0.493753 0.076068 0.484498
0.496267 0.078583 0.685198
0.498748 0.081063 0.883144
0.515010 0.308203 0.092184
0.517691 0.310884 0.306132
0.520258 0.313451 0.511004
0.522773 0.315965 0.711703
0.525253 0.318446 0.909650
0.540423 0.535797 0.117597
0.543104 0.538477 0.331544
0.545671 0.541044 0.536416
0.548185 0.543559 0.737115
0.550665 0.546039 0.935062
0.565324 0.758807 0.142497
0.568004 0.761488 0.356445
0.570571 0.764055 0.561317
0.573086 0.766570 0.762016
0.575566 0.769050 0.959963
0.589499 0.975324 0.166673
0.592180 0.978005 0.380621
0.594747 0.980571 0.585492
0.597261 0.983086 0.786191
0.599742 0.985566 0.984138
0.693941 0.078220 0.073078
0.696621 0.080901 0.287026
0.699188 0.083468 0.491897
0.701703 0.085982 0.692597
0.704183 0.088463 0.890543
0.720446 0.315602 0.099584
0.723127 0.318283 0.313531
0.725694 0.320850 0.518403
0.728208 0.323365 0.719102
0.730689 0.325845 0.917049
0.745858 0.543196 0.124996
0.748539 0.545877 0.338944
0.751106 0.548443 0.543815
0.753621 0.550958 0.744514
0.756101 0.553438 0.942461
0.770759 0.766207 0.149897
0.773440 0.768887 0.363844
0.776007 0.771454 0.568716
0.778521 0.773969 0.769415
0.781002 0.776449 0.967362
0.794935 0.982723 0.174072
0.797615 0.985404 0.388020
0.800182 0.987971 0.592891
0.802697 0.990485 0.793591
0.805177 0.992966 0.991537
0.888745 0.085236 0.080094
0.891426 0.087917 0.294042
0.893993 0.090484 0.498914
0.896508 0.092999 0.699613
0.898988 0.095479 0.897560
0.915251 0.322618 0.106600
0.917931 0.325299 0.320548
0.920498 0.327866 0.525419
0.923013 0.330381 0.726118
0.925493 0.332861 0.924065
0.940663 0.550212 0.132012
0.943344 0.552893 0.345960
0.945911 0.555460 0.550831
0.948425 0.557974 0.751531
0.950906 0.560455 0.949477
0.965564 0.773223 0.156913
0.968244 0.775904 0.370861
0.970811 0.778471 0.575732
0.973326 0.780985 0.776431
0.975806 0.783466 0.974378
0.989739 0.989739 0.181088
0.992420 0.992420 0.395036
0.994987 0.994987 0.599908
0.997502 0.997502 0.800607
0.999982 0.999982 0.998554
