skills/editops-orchestrator/assets/grade/luts/soft_pastel_v12.cube
TITLE "soft_pastel_v12"
LUT_3D_SIZE 17
DOMAIN_MIN 0.0 0.0 0.0
DOMAIN_MAX 1.0 1.0 1.0
0.060523 0.055406 0.050264
0.061214 0.056097 0.105432
0.061887 0.056770 0.159142
0.062549 0.057432 0.211985
0.063203 0.058087 0.264212
0.063852 0.058735 0.315959
0.064495 0.059379 0.367316
0.065134 0.060018 0.418342
0.065770 0.060654 0.469083
0.066403 0.061286 0.519574
0.067033 0.061916 0.569840
0.067660 0.062543 0.619903
0.068285 0.063168 0.669783
0.068908 0.063791 0.719493
0.069529 0.064412 0.769047
0.070148 0.065031 0.818456
0.070765 0.065649 0.867730
0.067347 0.116525 0.057089
0.068038 0.117216 0.112256
0.068711 0.117889 0.165966
0.069373 0.118551 0.218810
0.070028 0.119205 0.271036
0.070676 0.119854 0.322784
0.071319 0.120497 0.374140
0.071959 0.121137 0.425167
0.072595 0.121772 0.475908
0.073227 0.122405 0.526398
0.073857 0.123035 0.576664
0.074484 0.123662 0.626728
0.075109 0.124287 0.676607
0.075732 0.124910 0.726317
0.076353 0.125531 0.775872
0.076972 0.126150 0.825280
0.077589 0.126767 0.874554
0.074001 0.176121 0.063743
0.074692 0.176812 0.118910
0.075365 0.177485 0.172620
0.076028 0.178147 0.225464
0.076682 0.178801 0.277691
0.077330 0.179450 0.329438
0.077974 0.180093 0.380794
0.078613 0.180732 0.431821
0.079249 0.181368 0.482562
0.079881 0.182001 0.533052
0.080511 0.182631 0.583318
0.081139 0.183258 0.633382
0.081764 0.183883 0.683261
0.082386 0.184506 0.732972
0.083007 0.185127 0.782526
0.083626 0.185746 0.831935
0.084244 0.186363 0.881208
0.080552 0.234789 0.070294
0.081243 0.235480 0.125461
0.081916 0.236153 0.179171
0.082578 0.236815 0.232015
0.083233 0.237469 0.284241
0.083881 0.238118 0.335989
0.084524 0.238761 0.387345
0.085164 0.239400 0.438372
0.085800 0.240036 0.489113
0.086432 0.240669 0.539603
0.087062 0.241299 0.589869
0.087689 0.241926 0.639933
0.088314 0.242551 0.689812
0.088937 0.243174 0.739522
0.089558 0.243795 0.789077
0.090177 0.244414 0.838485
0.090794 0.245031 0.887759
0.087028 0.292788 0.076770
0.087719 0.293479 0.131937
0.088392 0.294152 0.185647
0.089054 0.294815 0.238491
0.089709 0.295469 0.290717
0.090357 0.296117 0.342465
0.091000 0.296761 0.393821
0.091640 0.297400 0.444848
0.092276 0.298036 0.495589
0.092908 0.298669 0.546079
0.093538 0.299298 0.596345
0.094165 0.299926 0.646409
0.094790 0.300551 0.696288
0.095413 0.301173 0.745999
0.096034 0.301794 0.795553
0.096653 0.302413 0.844962
0.097270 0.303031 0.894235
0.093446 0.350266 0.083187
0.094137 0.350958 0.138355
0.094810 0.351630 0.192065
0.095472 0.352293 0.244909
0.096126 0.352947 0.297135
0.096775 0.353595 0.348883
0.097418 0.354239 0.400239
0.098058 0.354878 0.451265
0.098693 0.355514 0.502007
0.099326 0.356147 0.552497
0.099956 0.356776 0.602763
0.100583 0.357404 0.652826
0.101208 0.358029 0.702706
0.101831 0.358651 0.752416
0.102452 0.359272 0.801970
0.103071 0.359891 0.851379
0.103688 0.360509 0.900653
0.099816 0.407317 0.089557
0.100507 0.408008 0.144725
0.101180 0.408681 0.198435
0.101842 0.409343 0.251279
0.102497 0.409998 0.303505
0.103145 0.410646 0.355253
0.103788 0.411289 0.406609
0.104428 0.411929 0.457636
0.105064 0.412565 0.508377
0.105696 0.413197 0.558867
0.106326 0.413827 0.609133
0.106953 0.414454 0.659197
0.107578 0.415079 0.709076
0.108201 0.415702 0.758786
0.108822 0.416323 0.808341
0.109441 0.416942 0.857749
0.110058 0.417559 0.907023
0.106146 0.464006 0.095887
0.106837 0.464697 0.151055
0.107510 0.465370 0.204765
0.108172 0.466032 0.257608
0.108826 0.466687 0.309835
0.109475 0.467335 0.361582
0.110118 0.467979 0.412939
0.110757 0.468618 0.463965
0.111393 0.469254 0.514706
0.112026 0.469886 0.565197
0.112656 0.470516 0.615463
0.113283 0.471143 0.665526
0.113908 0.471768 0.715406
0.114531 0.472391 0.765116
0.115152 0.473012 0.814670
0.115771 0.473631 0.864079
0.116388 0.474249 0.913352
0.112440 0.520382 0.102182
0.113132 0.521073 0.157350
0.113805 0.521746 0.211059
0.114467 0.522408 0.263903
0.115121 0.523063 0.316130
0.115769 0.523711 0.367877
0.116413 0.524354 0.419234
0.117052 0.524994 0.470260
0.117688 0.525630 0.521001
0.118321 0.526262 0.571491
0.118950 0.526892 0.621757
0.119578 0.527519 0.671821
0.120203 0.528144 0.721701
0.120826 0.528767 0.771411
0.121446 0.529388 0.820965
0.122065 0.530007 0.870374
0.122683 0.530624 0.919647
0.118704 0.576482 0.108446
0.119395 0.577173 0.163614
0.120068 0.577846 0.217323
0.120731 0.578508 0.270167
0.121385 0.579162 0.322394
0.122033 0.579811 0.374141
0.122677 0.580454 0.425498
0.123316 0.581094 0.476524
0.123952 0.581729 0.527265
0.124585 0.582362 0.577755
0.125214 0.582992 0.628021
0.125842 0.583619 0.678085
0.126467 0.584244 0.727964
0.127089 0.584867 0.777675
0.127710 0.585488 0.827229
0.128329 0.586107 0.876638
0.128947 0.586724 0.925911
0.124941 0.632335 0.114682
0.125632 0.633026 0.169850
0.126305 0.633699 0.223560
0.126967 0.634361 0.276403
0.127621 0.635016 0.328630
0.128270 0.635664 0.380377
0.128913 0.636308 0.431734
0.129553 0.636947 0.482760
0.130188 0.637583 0.533502
0.130821 0.638215 0.583992
0.131451 0.638845 0.634258
0.132078 0.639472 0.684321
0.132703 0.640097 0.734201
0.133326 0.640720 0.783911
0.133947 0.641341 0.833465
0.134566 0.641960 0.882874
0.135183 0.642578 0.932148
0.131152 0.687965 0.120894
0.131843 0.688657 0.176061
0.132516 0.689330 0.229771
0.133178 0.689992 0.282615
0.133833 0.690646 0.334841
0.134481 0.691295 0.386589
0.135125 0.691938 0.437945
0.135764 0.692577 0.488972
0.136400 0.693213 0.539713
0.137032 0.693846 0.590203
0.137662 0.694476 0.640469
0.138290 0.695103 0.690533
0.138915 0.695728 0.740412
0.139537 0.696351 0.790123
0.140158 0.696972 0.839677
0.140777 0.697591 0.889086
0.141395 0.698208 0.938359
0.137341 0.743393 0.127083
0.138032 0.744084 0.182250
0.138705 0.744757 0.235960
0.139367 0.745419 0.288804
0.140022 0.746073 0.341030
0.140670 0.746722 0.392778
0.141314 0.747365 0.444134
0.141953 0.748005 0.495161
0.142589 0.748640 0.545902
0.143221 0.749273 0.596392
0.143851 0.749903 0.646658
0.144478 0.750530 0.696722
0.145103 0.751155 0.746601
0.145726 0.751778 0.796312
0.146347 0.752399 0.845866
0.146966 0.753018 0.895275
0.147584 0.753635 0.944548
0.143509 0.798633 0.133251
0.144200 0.799325 0.188418
0.144873 0.799998 0.242128
0.145535 0.800660 0.294972
0.146190 0.801314 0.347198
0.146838 0.801963 0.398946
0.147482 0.802606 0.450302
0.148121 0.803245 0.501329
0.148757 0.803881 0.552070
0.149389 0.804514 0.602560
0.150019 0.805144 0.652826
0.150646 0.805771 0.702890
0.151271 0.806396 0.752769
0.151894 0.807019 0.802480
0.152515 0.807640 0.852034
0.153134 0.808259 0.901443
0.153752 0.808876 0.950716
0.149658 0.853702 0.139399
0.150349 0.854393 0.194567
0.151022 0.855066 0.248277
0.151684 0.855728 0.301121
0.152338 0.856382 0.353347
0.152987 0.857031 0.405095
0.153630 0.857674 0.456451
0.154270 0.858314 0.507477
0.154905 0.858949 0.558219
0.155538 0.859582 0.608709
0.156168 0.860212 0.658975
0.156795 0.860839 0.709038
0.157420 0.861464 0.758918
0.158043 0.862087 0.808628
0.158664 0.862708 0.858182
0.159283 0.863327 0.907591
0.159900 0.863944 0.956865
0.155789 0.908610 0.145530
0.156480 0.909301 0.200698
0.157153 0.909974 0.254408
0.157815 0.910636 0.307251
0.158469 0.911290 0.359478
0.159118 0.911939 0.411225
0.159761 0.912582 0.462582
0.160400 0.913221 0.513608
0.161036 0.913857 0.564349
0.161669 0.914490 0.614840
0.162299 0.915120 0.665106
0.162926 0.915747 0.715169
0.163551 0.916372 0.765049
0.164174 0.916995 0.814759
0.164795 0.917616 0.864313
0.165414 0.918235 0.913722
0.166031 0.918852 0.962996
0.161517 0.959909 0.151258
0.162208 0.960600 0.206426
0.162881 0.961273 0.260136
0.163543 0.961935 0.312979
0.164197 0.962590 0.365206
0.164846 0.963238 0.416953
0.165489 0.963882 0.468310
0.166128 0.964521 0.519336
0.166764 0.965157 0.570077
0.167397 0.965789 0.620568
0.168027 0.966419 0.670834
0.168654 0.967046 0.720897
0.169279 0.967671 0.770777
0.169902 0.968294 0.820487
0.170523 0.968915 0.870041
0.171142 0.969534 0.919450
0.171759 0.970152 0.968723
0.116671 0.057428 0.052287
0.117363 0.058120 0.107454
0.118036 0.058793 0.161164
0.118698 0.059455 0.214008
0.119352 0.060109 0.266234
0.120001 0.060757 0.317982
0.120644 0.061401 0.369338
0.121283 0.062040 0.420365
0.121919 0.062676 0.471106
0.122552 0.063309 0.521596
0.123182 0.063938 0.571862
0.123809 0.064566 0.621926
0.124434 0.065191 0.671805
0.125057 0.065814 0.721515
0.125678 0.066434 0.771070
0.126297 0.067054 0.820478
0.126914 0.067671 0.869752
0.123496 0.118547 0.059111
0.124187 0.119238 0.114279
0.124860 0.119911 0.167988
0.125522 0.120573 0.220832
0.126176 0.121228 0.273059
0.126825 0.121876 0.324806
0.127468 0.122520 0.376163
0.128108 0.123159 0.427189
0.128743 0.123795 0.477930
0.129376 0.124427 0.528420
0.130006 0.125057 0.578686
0.130633 0.125684 0.628750
0.131258 0.126309 0.678629
0.131881 0.126932 0.728340
0.132502 0.127553 0.777894
0.133121 0.128172 0.827303
0.133738 0.128790 0.876576
0.130150 0.178143 0.065765
0.130841 0.178834 0.120933
0.131514 0.179507 0.174643
0.132176 0.180169 0.227486
0.132831 0.180824 0.279713
0.133479 0.181472 0.331460
0.134123 0.182115 0.382817
0.134762 0.182755 0.433843
0.135398 0.183391 0.484584
0.136030 0.184023 0.535075
0.136660 0.184653 0.585341
0.137287 0.185280 0.635404
0.137912 0.185905 0.685284
0.138535 0.186528 0.734994
0.139156 0.187149 0.784548
0.139775 0.187768 0.833957
0.140393 0.188385 0.883230
0.136701 0.236811 0.072316
0.137392 0.237502 0.127483
0.138065 0.238175 0.181193
0.138727 0.238837 0.234037
0.139381 0.239492 0.286264
0.140030 0.240140 0.338011
0.140673 0.240783 0.389367
0.141313 0.241423 0.440394
0.141948 0.242059 0.491135
0.142581 0.242691 0.541625
0.143211 0.243321 0.591891
0.143838 0.243948 0.641955
0.144463 0.244573 0.691834
0.145086 0.245196 0.741545
0.145707 0.245817 0.791099
0.146326 0.246436 0.840508
0.146943 0.247053 0.889781
0.143177 0.294811 0.078792
0.143868 0.295502 0.133960
0.144541 0.296175 0.187669
0.145203 0.296837 0.240513
0.145857 0.297491 0.292740
0.146506 0.298140 0.344487
0.147149 0.298783 0.395844
0.147789 0.299422 0.446870
0.148424 0.300058 0.497611
0.149057 0.300691 0.548101
0.149687 0.301321 0.598367
0.150314 0.301948 0.648431
0.150939 0.302573 0.698310
0.151562 0.303196 0.748021
0.152183 0.303817 0.797575
0.152802 0.304436 0.846984
0.153419 0.305053 0.896257
0.149595 0.352289 0.085210
0.150286 0.352980 0.140377
0.150959 0.353653 0.194087
0.151621 0.354315 0.246931
0.152275 0.354969 0.299157
0.152924 0.355618 0.350905
0.153567 0.356261 0.402261
0.154206 0.356900 0.453288
0.154842 0.357536 0.504029
0.155475 0.358169 0.554519
0.156105 0.358799 0.604785
0.156732 0.359426 0.654849
0.157357 0.360051 0.704728
0.157980 0.360674 0.754439
0.158601 0.361295 0.803993
0.159220 0.361914 0.853402
0.159837 0.362531 0.902675
0.155965 0.409339 0.091580
0.156656 0.410031 0.146747
0.157329 0.410703 0.200457
0.157991 0.411366 0.253301
0.158645 0.412020 0.305527
0.159294 0.412668 0.357275
0.159937 0.413312 0.408631
0.160577 0.413951 0.459658
0.161212 0.414587 0.510399
0.161845 0.415220 0.560889
0.162475 0.415849 0.611155
0.163102 0.416477 0.661219
0.163727 0.417102 0.711098
0.164350 0.417724 0.760809
0.164971 0.418345 0.810363
0.165590 0.418964 0.859772
0.166207 0.419582 0.909045
0.162294 0.466028 0.097910
0.162986 0.466720 0.153077
0.163659 0.467393 0.206787
0.164321 0.468055 0.259631
0.164975 0.468709 0.311857
0.165623 0.469357 0.363605
0.166267 0.470001 0.414961
0.166906 0.470640 0.465988
0.167542 0.471276 0.516729
0.168175 0.471909 0.567219
0.168805 0.472538 0.617485
0.169432 0.473166 0.667549
0.170057 0.473791 0.717428
0.170680 0.474414 0.767138
0.171301 0.475034 0.816693
0.171920 0.475653 0.866101
0.172537 0.476271 0.915375
0.168589 0.522404 0.104204
0.169280 0.523095 0.159372
0.169953 0.523768 0.213082
0.170615 0.524431 0.265925
0.171270 0.525085 0.318152
0.171918 0.525733 0.369899
0.172562 0.526377 0.421256
0.173201 0.527016 0.472282
0.173837 0.527652 0.523024
0.174469 0.528285 0.573514
0.175099 0.528914 0.623780
0.175727 0.529542 0.673843
0.176352 0.530167 0.723723
0.176974 0.530789 0.773433
0.177595 0.531410 0.822987
0.178214 0.532029 0.872396
0.178832 0.532647 0.921670
0.174853 0.578504 0.110468
0.175544 0.579195 0.165636
0.176217 0.579868 0.219346
0.176879 0.580530 0.272189
0.177534 0.581185 0.324416
0.178182 0.581833 0.376163
0.178826 0.582477 0.427520
0.179465 0.583116 0.478546
0.180101 0.583752 0.529287
0.180733 0.584384 0.579778
0.181363 0.585014 0.630044
0.181990 0.585641 0.680107
0.182615 0.586266 0.729987
0.183238 0.586889 0.779697
0.183859 0.587510 0.829251
0.184478 0.588129 0.878660
0.185096 0.588747 0.927934
0.181090 0.634357 0.116705
0.181781 0.635049 0.171872
0.182454 0.635722 0.225582
0.183116 0.636384 0.278426
0.183770 0.637038 0.330652
0.184419 0.637686 0.382400
0.185062 0.638330 0.433756
0.185701 0.638969 0.484783
0.186337 0.639605 0.535524
0.186970 0.640238 0.586014
0.187600 0.640867 0.636280
0.188227 0.641495 0.686344
0.188852 0.642120 0.736223
0.189475 0.642743 0.785934
0.190096 0.643363 0.835488
0.190715 0.643983 0.884897
0.191332 0.644600 0.934170
0.187301 0.689988 0.122916
0.187992 0.690679 0.178084
0.188665 0.691352 0.231794
0.189327 0.692014 0.284637
0.189982 0.692668 0.336864
0.190630 0.693317 0.388611
0.191274 0.693960 0.439968
0.191913 0.694600 0.490994
0.192549 0.695235 0.541735
0.193181 0.695868 0.592225
0.193811 0.696498 0.642491
0.194438 0.697125 0.692555
0.195063 0.697750 0.742435
0.195686 0.698373 0.792145
0.196307 0.698994 0.841699
0.196926 0.699613 0.891108
0.197544 0.700230 0.940381
0.193490 0.745415 0.129105
0.194181 0.746106 0.184273
0.194854 0.746779 0.237982
0.195516 0.747441 0.290826
0.196171 0.748096 0.343053
0.196819 0.748744 0.394800
0.197462 0.749388 0.446157
0.198102 0.750027 0.497183
0.198738 0.750663 0.547924
0.199370 0.751295 0.598414
0.200000 0.751925 0.648680
0.200627 0.752552 0.698744
0.201252 0.753177 0.748624
0.201875 0.753800 0.798334
0.202496 0.754421 0.847888
0.203115 0.755040 0.897297
0.203732 0.755658 0.946570
0.199658 0.800656 0.135273
0.200349 0.801347 0.190441
0.201022 0.802020 0.244150
0.201684 0.802682 0.296994
0.202339 0.803336 0.349221
0.202987 0.803985 0.400968
0.203630 0.804628 0.452325
0.204270 0.805268 0.503351
0.204906 0.805903 0.554092
0.205538 0.806536 0.604582
0.206168 0.807166 0.654848
0.206795 0.807793 0.704912
0.207420 0.808418 0.754792
0.208043 0.809041 0.804502
0.208664 0.809662 0.854056
0.209283 0.810281 0.903465
0.209900 0.810898 0.952738
0.205807 0.855724 0.141422
0.206498 0.856415 0.196589
0.207171 0.857088 0.250299
0.207833 0.857750 0.303143
0.208487 0.858405 0.355369
0.209136 0.859053 0.407117
0.209779 0.859697 0.458473
0.210418 0.860336 0.509500
0.211054 0.860972 0.560241
0.211687 0.861604 0.610731
0.212317 0.862234 0.660997
0.212944 0.862861 0.711061
0.213569 0.863486 0.760940
0.214192 0.864109 0.810651
0.214813 0.864730 0.860205
0.215432 0.865349 0.909614
0.216049 0.865967 0.958887
0.211937 0.910632 0.147553
0.212629 0.911323 0.202720
0.213302 0.911996 0.256430
0.213964 0.912658 0.309274
0.214618 0.913313 0.361500
0.215267 0.913961 0.413248
0.215910 0.914604 0.464604
0.216549 0.915244 0.515631
0.217185 0.915880 0.566372
0.217818 0.916512 0.616862
0.218448 0.917142 0.667128
0.219075 0.917769 0.717192
0.219700 0.918394 0.767071
0.220323 0.919017 0.816781
0.220944 0.919638 0.866336
0.221563 0.920257 0.915744
0.222180 0.920874 0.965018
0.217665 0.961931 0.153280
0.218357 0.962623 0.208448
0.219030 0.963296 0.262158
0.219692 0.963958 0.315002
0.220346 0.964612 0.367228
0.220994 0.965260 0.418976
0.221638 0.965904 0.470332
0.222277 0.966543 0.521359
0.222913 0.967179 0.572100
0.223546 0.967812 0.622590
0.224175 0.968442 0.672856
0.224803 0.969069 0.722920
0.225428 0.969694 0.772799
0.226051 0.970317 0.822509
0.226671 0.970938 0.872064
0.227291 0.971557 0.921472
0.227908 0.972174 0.970746
0.171497 0.059403 0.054261
0.172188 0.060094 0.109429
0.172861 0.060767 0.163139
0.173523 0.061429 0.215982
0.174177 0.062084 0.268209
0.174826 0.062732 0.319956
0.175469 0.063376 0.371313
0.176109 0.064015 0.422339
0.176744 0.064651 0.473080
0.177377 0.065283 0.523571
0.178007 0.065913 0.573837
0.178634 0.066540 0.623900
0.179259 0.067165 0.673780
0.179882 0.067788 0.723490
0.180503 0.068409 0.773044
0.181122 0.069028 0.822453
0.181739 0.069646 0.871726
0.178321 0.120522 0.061086
0.179012 0.121213 0.116253
0.179685 0.121886 0.169963
0.180347 0.122548 0.222807
0.181002 0.123202 0.275033
0.181650 0.123851 0.326781
0.182293 0.124494 0.378137
0.182933 0.125134 0.429164
0.183569 0.125769 0.479905
0.184201 0.126402 0.530395
0.184831 0.127032 0.580661
0.185458 0.127659 0.630725
0.186083 0.128284 0.680604
0.186706 0.128907 0.730314
0.187327 0.129528 0.779869
0.187946 0.130147 0.829277
0.188563 0.130764 0.878551
0.184975 0.180118 0.067740
0.185666 0.180809 0.122907
0.186339 0.181482 0.176617
0.187002 0.182144 0.229461
0.187656 0.182798 0.281687
0.188304 0.183447 0.333435
0.188948 0.184090 0.384791
0.189587 0.184729 0.435818
0.190223 0.185365 0.486559
0.190856 0.185998 0.537049
0.191485 0.186628 0.587315
0.192113 0.187255 0.637379
0.192738 0.187880 0.687258
0.193360 0.188503 0.736969
0.193981 0.189124 0.786523
0.194600 0.189743 0.835932
0.195218 0.190360 0.885205
0.191526 0.238786 0.074290
0.192217 0.239477 0.129458
0.192890 0.240150 0.183168
0.193552 0.240812 0.236012
0.194207 0.241466 0.288238
0.194855 0.242115 0.339986
0.195498 0.242758 0.391342
0.196138 0.243397 0.442369
0.196774 0.244033 0.493110
0.197406 0.244666 0.543600
0.198036 0.245296 0.593866
0.198663 0.245923 0.643930
0.199288 0.246548 0.693809
0.199911 0.247171 0.743519
0.200532 0.247792 0.793074
0.201151 0.248411 0.842482
0.201768 0.249028 0.891756
0.198002 0.296785 0.080767
0.198693 0.297476 0.135934
0.199366 0.298149 0.189644
0.200028 0.298812 0.242488
0.200683 0.299466 0.294714
0.201331 0.300114 0.346462
0.201975 0.300758 0.397818
0.202614 0.301397 0.448845
0.203250 0.302033 0.499586
0.203882 0.302665 0.550076
0.204512 0.303295 0.600342
0.205139 0.303923 0.650406
0.205764 0.304548 0.700285
0.206387 0.305170 0.749995
0.207008 0.305791 0.799550
0.207627 0.306410 0.848958
0.208245 0.307028 0.898232
0.204420 0.354263 0.087184
0.205111 0.354954 0.142352
0.205784 0.355627 0.196062
0.206446 0.356290 0.248906
0.207100 0.356944 0.301132
0.207749 0.357592 0.352880
0.208392 0.358236 0.404236
0.209032 0.358875 0.455262
0.209667 0.359511 0.506004
0.210300 0.360144 0.556494
0.210930 0.360773 0.606760
0.211557 0.361401 0.656823
0.212182 0.362026 0.706703
0.212805 0.362648 0.756413
0.213426 0.363269 0.805967
0.214045 0.363888 0.855376
0.214662 0.364506 0.904650
0.210790 0.411314 0.093554
0.211481 0.412005 0.148722
0.212154 0.412678 0.202432
0.212816 0.413340 0.255276
0.213471 0.413995 0.307502
0.214119 0.414643 0.359250
0.214762 0.415286 0.410606
0.215402 0.415926 0.461633
0.216038 0.416562 0.512374
0.216670 0.417194 0.562864
0.217300 0.417824 0.613130
0.217927 0.418451 0.663194
0.218552 0.419076 0.713073
0.219175 0.419699 0.762783
0.219796 0.420320 0.812337
0.220415 0.420939 0.861746
0.221032 0.421556 0.911020
0.217120 0.468003 0.099884
0.217811 0.468694 0.155052
0.218484 0.469367 0.208762
0.219146 0.470029 0.261605
0.219800 0.470684 0.313832
0.220449 0.471332 0.365579
0.221092 0.471976 0.416936
0.221731 0.472615 0.467962
0.222367 0.473251 0.518703
0.223000 0.473883 0.569194
0.223630 0.474513 0.619460
0.224257 0.475140 0.669523
0.224882 0.475765 0.719403
0.225505 0.476388 0.769113
0.226126 0.477009 0.818667
0.226745 0.477628 0.868076
0.227362 0.478246 0.917349
0.223414 0.524379 0.106179
0.224106 0.525070 0.161347
0.224779 0.525743 0.215056
0.225441 0.526405 0.267900
0.226095 0.527060 0.320127
0.226743 0.527708 0.371874
0.227387 0.528351 0.423231
0.228026 0.528991 0.474257
0.228662 0.529627 0.524998
0.229295 0.530259 0.575488
0.229924 0.530889 0.625754
0.230552 0.531516 0.675818
0.231177 0.532141 0.725698
0.231800 0.532764 0.775408
0.232420 0.533385 0.824962
0.233040 0.534004 0.874371
0.233657 0.534621 0.923644
0.229678 0.580479 0.112443
0.230370 0.581170 0.167611
0.231042 0.581843 0.221320
0.231705 0.582505 0.274164
0.232359 0.583159 0.326391
0.233007 0.583808 0.378138
0.233651 0.584451 0.429495
0.234290 0.585091 0.480521
0.234926 0.585726 0.531262
0.235559 0.586359 0.581752
0.236188 0.586989 0.632018
0.236816 0.587616 0.682082
0.237441 0.588241 0.731961
0.238063 0.588864 0.781672
0.238684 0.589485 0.831226
0.239303 0.590104 0.880635
0.239921 0.590721 0.929908
0.235915 0.636332 0.118679
0.236606 0.637023 0.173847
0.237279 0.637696 0.227557
0.237941 0.638358 0.280400
0.238595 0.639013 0.332627
0.239244 0.639661 0.384374
0.239887 0.640305 0.435731
0.240527 0.640944 0.486757
0.241162 0.641580 0.537499
0.241795 0.642212 0.587989
0.242425 0.642842 0.638255
0.243052 0.643469 0.688318
0.243677 0.644094 0.738198
0.244300 0.644717 0.787908
0.244921 0.645338 0.837462
0.245540 0.645957 0.886871
0.246157 0.646575 0.936145
0.242126 0.691962 0.124891
0.242817 0.692654 0.180058
0.243490 0.693327 0.233768
0.244153 0.693989 0.286612
0.244807 0.694643 0.338838
0.245455 0.695291 0.390586
0.246099 0.695935 0.441942
0.246738 0.696574 0.492969
0.247374 0.697210 0.543710
0.248006 0.697843 0.594200
0.248636 0.698473 0.644466
0.249264 0.699100 0.694530
0.249889 0.699725 0.744409
0.250511 0.700348 0.794120
0.251132 0.700969 0.843674
0.251751 0.701588 0.893083
0.252369 0.702205 0.942356
0.248315 0.747390 0.131080
0.249006 0.748081 0.186247
0.249679 0.748754 0.239957
0.250341 0.749416 0.292801
0.250996 0.750070 0.345027
0.251644 0.750719 0.396775
0.252288 0.751362 0.448131
0.252927 0.752002 0.499158
0.253563 0.752637 0.549899
0.254195 0.753270 0.600389
0.254825 0.753900 0.650655
0.255452 0.754527 0.700719
0.256077 0.755152 0.750598
0.256700 0.755775 0.800309
0.257321 0.756396 0.849863
0.257940 0.757015 0.899272
0.258558 0.757632 0.948545
0.254483 0.802630 0.137248
0.255174 0.803322 0.192415
0.255847 0.803995 0.246125
0.256509 0.804657 0.298969
0.257164 0.805311 0.351195
0.257812 0.805959 0.402943
0.258456 0.806603 0.454299
0.259095 0.807242 0.505326
0.259731 0.807878 0.556067
0.260363 0.808511 0.606557
0.260993 0.809141 0.656823
0.261620 0.809768 0.706887
0.262245 0.810393 0.756766
0.262868 0.811016 0.806477
0.263489 0.811637 0.856031
0.264108 0.812256 0.905440
0.264726 0.812873 0.954713
0.260632 0.857699 0.143396
0.261323 0.858390 0.198564
0.261996 0.859063 0.252274
0.262658 0.859725 0.305117
0.263312 0.860379 0.357344
0.263961 0.861028 0.409092
0.264604 0.861671 0.460448
0.265244 0.862311 0.511474
0.265879 0.862946 0.562216
0.266512 0.863579 0.612706
0.267142 0.864209 0.662972
0.267769 0.864836 0.713035
0.268394 0.865461 0.762915
0.269017 0.866084 0.812625
0.269638 0.866705 0.862179
0.270257 0.867324 0.911588
0.270874 0.867941 0.960862
0.266763 0.912607 0.149527
0.267454 0.913298 0.204695
0.268127 0.913971 0.258405
0.268789 0.914633 0.311248
0.269443 0.915287 0.363475
0.270092 0.915936 0.415222
0.270735 0.916579 0.466579
0.271375 0.917218 0.517605
0.272010 0.917854 0.568346
0.272643 0.918487 0.618837
0.273273 0.919117 0.669103
0.273900 0.919744 0.719166
0.274525 0.920369 0.769046
0.275148 0.920992 0.818756
0.275769 0.921613 0.868310
0.276388 0.922232 0.917719
0.277005 0.922849 0.966992
0.272491 0.963906 0.155255
0.273182 0.964597 0.210423
0.273855 0.965270 0.264133
0.274517 0.965932 0.316976
0.275171 0.966587 0.369203
0.275820 0.967235 0.420950
0.276463 0.967879 0.472307
0.277102 0.968518 0.523333
0.277738 0.969154 0.574074
0.278371 0.969786 0.624564
0.279001 0.970416 0.674830
0.279628 0.971043 0.724894
0.280253 0.971668 0.774774
0.280876 0.972291 0.824484
0.281497 0.972912 0.874038
0.282116 0.973531 0.923447
0.282733 0.974149 0.972720
0.225496 0.061348 0.056206
0.226188 0.062039 0.111374
0.226861 0.062712 0.165083
0.227523 0.063374 0.217927
0.228177 0.064029 0.270154
0.228825 0.064677 0.321901
0.229469 0.065320 0.373258
0.230108 0.065960 0.424284
0.230744 0.066596 0.475025
0.231377 0.067228 0.525515
0.232006 0.067858 0.575781
0.232634 0.068485 0.625845
0.233259 0.069110 0.675725
0.233882 0.069733 0.725435
0.234502 0.070354 0.774989
0.235122 0.070973 0.824398
0.235739 0.071590 0.873671
0.232321 0.122467 0.063030
