skills/editops-orchestrator/assets/grade/luts/trailer_punch_v03.cube
TITLE "trailer_punch_v03"
LUT_3D_SIZE 9
DOMAIN_MIN 0.0 0.0 0.0
DOMAIN_MAX 1.0 1.0 1.0
0.000000 0.000000 0.000000
0.000000 0.000000 0.104081
0.000000 0.000000 0.240686
0.000000 0.000000 0.379432
0.000000 0.000000 0.519521
0.000000 0.000000 0.660598
0.000000 0.000000 0.802457
0.000000 0.000000 0.944966
0.000000 0.000000 1.000000
0.000000 0.099159 0.000000
0.000000 0.098606 0.098606
0.000000 0.097880 0.235210
0.000000 0.097143 0.373956
0.000000 0.096399 0.514046
0.000000 0.095650 0.655122
0.000000 0.094897 0.796981
0.000000 0.094140 0.939490
0.000000 0.093459 1.000000
0.000000 0.229302 0.000000
0.000000 0.228749 0.091419
0.000000 0.228024 0.228024
0.000000 0.227287 0.366770
0.000000 0.226543 0.506859
0.000000 0.225794 0.647936
0.000000 0.225040 0.789795
0.000000 0.224283 0.932303
0.000000 0.223602 1.000000
0.000000 0.361485 0.000000
0.000000 0.360933 0.084120
0.000000 0.360207 0.220724
0.000000 0.359470 0.359470
0.000000 0.358726 0.499560
0.000000 0.357977 0.640636
0.000000 0.357223 0.782495
0.000000 0.356467 0.925004
0.000000 0.355785 1.000000
0.000000 0.494949 0.000000
0.000000 0.494396 0.076750
0.000000 0.493670 0.213354
0.000000 0.492934 0.352100
0.000000 0.492189 0.492189
0.000000 0.491440 0.633266
0.000000 0.490687 0.775125
0.000000 0.489930 0.917634
0.000000 0.489249 1.000000
0.000000 0.629353 0.000000
0.000000 0.628800 0.069328
0.000000 0.628074 0.205932
0.000000 0.627337 0.344678
0.000000 0.626593 0.484768
0.000000 0.625844 0.625844
0.000000 0.625091 0.767703
0.000000 0.624334 0.910212
0.000000 0.623653 1.000000
0.000000 0.764502 0.000000
0.000000 0.763949 0.061864
0.000000 0.763224 0.198469
0.000000 0.762487 0.337215
0.000000 0.761743 0.477304
0.000000 0.760994 0.618381
0.000000 0.760240 0.760240
0.000000 0.759483 0.902749
0.000000 0.758802 1.000000
0.000000 0.900270 0.000000
0.000000 0.899717 0.054367
0.000000 0.898992 0.190972
0.000000 0.898255 0.329718
0.000000 0.897511 0.469807
0.000000 0.896762 0.610884
0.000000 0.896008 0.752743
0.000000 0.895251 0.895251
0.000000 0.894570 1.000000
0.000000 1.000000 0.000000
0.000000 1.000000 0.047618
0.000000 1.000000 0.184223
0.000000 1.000000 0.322969
0.000000 1.000000 0.463058
0.000000 1.000000 0.604135
0.000000 1.000000 0.745994
0.000000 1.000000 0.888502
0.000000 1.000000 1.000000
0.103007 0.000000 0.000000
0.102454 0.000000 0.102454
0.101728 0.000000 0.239058
0.100991 0.000000 0.377804
0.100247 0.000000 0.517894
0.099498 0.000000 0.658970
0.098745 0.000000 0.800829
0.097988 0.000000 0.943338
0.097307 0.000000 1.000000
0.097531 0.097531 0.000000
0.096978 0.096978 0.096978
0.096253 0.096253 0.233583
0.095516 0.095516 0.372329
0.094772 0.094772 0.512418
0.094022 0.094022 0.653495
0.093269 0.093269 0.795354
0.092512 0.092512 0.937862
0.091831 0.091831 1.000000
0.090344 0.227674 0.000000
0.089791 0.227121 0.089791
0.089066 0.226396 0.226396
0.088329 0.225659 0.365142
0.087585 0.224915 0.505231
0.086836 0.224166 0.646308
0.086082 0.223412 0.788167
0.085325 0.222656 0.930675
0.084644 0.221974 1.000000
0.083045 0.359858 0.000000
0.082492 0.359305 0.082492
0.081766 0.358579 0.219097
0.081030 0.357842 0.357842
0.080286 0.357098 0.497932
0.079536 0.356349 0.639008
0.078783 0.355596 0.780868
0.078026 0.354839 0.923376
0.077345 0.354158 1.000000
0.075675 0.493321 0.000000
0.075122 0.492768 0.075122
0.074396 0.492043 0.211727
0.073660 0.491306 0.350472
0.072916 0.490562 0.490562
0.072166 0.489813 0.631638
0.071413 0.489059 0.773498
0.070656 0.488302 0.916006
0.069975 0.487621 1.000000
0.068253 0.627725 0.000000
0.067700 0.627172 0.067700
0.066974 0.626447 0.204305
0.066238 0.625710 0.343050
0.065494 0.624966 0.483140
0.064744 0.624216 0.624216
0.063991 0.623463 0.766076
0.063234 0.622706 0.908584
0.062553 0.622025 1.000000
0.060790 0.762874 0.000000
0.060237 0.762322 0.060237
0.059511 0.761596 0.196841
0.058774 0.760859 0.335587
0.058030 0.760115 0.475677
0.057281 0.759366 0.616753
0.056528 0.758612 0.758612
0.055771 0.757856 0.901121
0.055090 0.757174 1.000000
0.053292 0.898642 0.000000
0.052739 0.898090 0.052739
0.052014 0.897364 0.189344
0.051277 0.896627 0.328090
0.050533 0.895883 0.468179
0.049784 0.895134 0.609256
0.049030 0.894380 0.751115
0.048274 0.893624 0.893624
0.047592 0.892942 1.000000
0.046543 1.000000 0.000000
0.045991 1.000000 0.045991
0.045265 1.000000 0.182595
0.044528 1.000000 0.321341
0.043784 1.000000 0.461430
0.043035 1.000000 0.602507
0.042282 1.000000 0.744366
0.041525 1.000000 0.886875
0.040843 1.000000 1.000000
0.238200 0.000000 0.000000
0.237648 0.000000 0.100317
0.236922 0.000000 0.236922
0.236185 0.000000 0.375668
0.235441 0.000000 0.515757
0.234692 0.000000 0.656834
0.233938 0.000000 0.798693
0.233182 0.000000 0.941202
0.232500 0.000000 1.000000
0.232725 0.095394 0.000000
0.232172 0.094842 0.094842
0.231446 0.094116 0.231446
0.230709 0.093379 0.370192
0.229965 0.092635 0.510282
0.229216 0.091886 0.651358
0.228463 0.091133 0.793217
0.227706 0.090376 0.935726
0.227025 0.089694 1.000000
0.225538 0.225538 0.000000
0.224985 0.224985 0.087655
0.224260 0.224260 0.224260
0.223523 0.223523 0.363006
0.222779 0.222779 0.503095
0.222029 0.222029 0.644171
0.221276 0.221276 0.786031
0.220519 0.220519 0.928539
0.219838 0.219838 1.000000
0.218239 0.357721 0.000000
0.217686 0.357169 0.080356
0.216960 0.356443 0.216960
0.216223 0.355706 0.355706
0.215479 0.354962 0.495796
0.214730 0.354213 0.636872
0.213977 0.353459 0.778731
0.213220 0.352703 0.921240
0.212539 0.352021 1.000000
0.210868 0.491185 0.000000
0.210316 0.490632 0.072986
0.209590 0.489906 0.209590
0.208853 0.489169 0.348336
0.208109 0.488425 0.488425
0.207360 0.487676 0.629502
0.206607 0.486923 0.771361
0.205850 0.486166 0.913870
0.205168 0.485485 1.000000
0.203447 0.625589 0.000000
0.202894 0.625036 0.065564
0.202168 0.624310 0.202168
0.201431 0.623573 0.340914
0.200687 0.622829 0.481003
0.199938 0.622080 0.622080
0.199185 0.621327 0.763939
0.198428 0.620570 0.906448
0.197747 0.619889 1.000000
0.195983 0.760738 0.000000
0.195431 0.760185 0.058100
0.194705 0.759460 0.194705
0.193968 0.758723 0.333451
0.193224 0.757979 0.473540
0.192475 0.757230 0.614617
0.191722 0.756476 0.756476
0.190965 0.755719 0.898985
0.190283 0.755038 1.000000
0.188486 0.896506 0.000000
0.187933 0.895953 0.050603
0.187208 0.895228 0.187208
0.186471 0.894491 0.325954
0.185727 0.893747 0.466043
0.184978 0.892998 0.607120
0.184224 0.892244 0.748979
0.183467 0.891487 0.891487
0.182786 0.890806 1.000000
0.181737 1.000000 0.000000
0.181184 1.000000 0.043854
0.180459 1.000000 0.180459
0.179722 1.000000 0.319205
0.178978 1.000000 0.459294
0.178229 1.000000 0.600371
0.177475 1.000000 0.742230
0.176718 1.000000 0.884738
0.176037 1.000000 1.000000
0.375513 0.000000 0.000000
0.374960 0.000000 0.098148
0.374235 0.000000 0.234752
0.373498 0.000000 0.373498
0.372754 0.000000 0.513587
0.372005 0.000000 0.654664
0.371251 0.000000 0.796523
0.370495 0.000000 0.939032
0.369813 0.000000 1.000000
0.370038 0.093225 0.000000
0.369485 0.092672 0.092672
0.368759 0.091946 0.229277
0.368022 0.091210 0.368022
0.367278 0.090466 0.508112
0.366529 0.089716 0.649188
0.365776 0.088963 0.791048
0.365019 0.088206 0.933556
0.364338 0.087525 1.000000
0.362851 0.223368 0.000000
0.362298 0.222815 0.085485
0.361573 0.222090 0.222090
0.360836 0.221353 0.360836
0.360092 0.220609 0.500925
0.359342 0.219860 0.642002
0.358589 0.219106 0.783861
0.357832 0.218349 0.926369
0.357151 0.217668 1.000000
0.355551 0.355551 0.000000
0.354999 0.354999 0.078186
0.354273 0.354273 0.214790
0.353536 0.353536 0.353536
0.352792 0.352792 0.493626
0.352043 0.352043 0.634702
0.351290 0.351290 0.776562
0.350533 0.350533 0.919070
0.349851 0.349851 1.000000
0.348181 0.489015 0.000000
0.347629 0.488462 0.070816
0.346903 0.487737 0.207420
0.346166 0.487000 0.346166
0.345422 0.486256 0.486256
0.344673 0.485506 0.627332
0.343920 0.484753 0.769191
0.343163 0.483996 0.911700
0.342481 0.483315 1.000000
0.340759 0.623419 0.000000
0.340207 0.622866 0.063394
0.339481 0.622140 0.199998
0.338744 0.621404 0.338744
0.338000 0.620660 0.478834
0.337251 0.619910 0.619910
0.336498 0.619157 0.761769
0.335741 0.618400 0.904278
0.335059 0.617719 1.000000
0.333296 0.758568 0.000000
0.332744 0.758015 0.055931
0.332018 0.757290 0.192535
0.331281 0.756553 0.331281
0.330537 0.755809 0.471371
0.329788 0.755060 0.612447
0.329034 0.754306 0.754306
0.328278 0.753549 0.896815
0.327596 0.752868 1.000000
0.325799 0.894336 0.000000
0.325246 0.893783 0.048433
0.324521 0.893058 0.185038
0.323784 0.892321 0.323784
0.323040 0.891577 0.463873
0.322291 0.890828 0.604950
0.321537 0.890074 0.746809
0.320780 0.889317 0.889317
0.320099 0.888636 1.000000
0.319050 1.000000 0.000000
0.318497 1.000000 0.041684
0.317772 1.000000 0.178289
0.317035 1.000000 0.317035
0.316291 1.000000 0.457124
0.315542 1.000000 0.598201
0.314788 1.000000 0.740060
0.314031 1.000000 0.882569
0.313350 1.000000 1.000000
0.514156 0.000000 0.000000
0.513603 0.000000 0.095957
0.512878 0.000000 0.232561
0.512141 0.000000 0.371307
0.511397 0.000000 0.511397
0.510647 0.000000 0.652473
0.509894 0.000000 0.794332
0.509137 0.000000 0.936841
0.508456 0.000000 1.000000
0.508680 0.091034 0.000000
0.508127 0.090481 0.090481
0.507402 0.089756 0.227086
0.506665 0.089019 0.365832
0.505921 0.088275 0.505921
0.505172 0.087525 0.646998
0.504418 0.086772 0.788857
0.503661 0.086015 0.931365
0.502980 0.085334 1.000000
0.501493 0.221177 0.000000
0.500941 0.220625 0.083294
0.500215 0.219899 0.219899
0.499478 0.219162 0.358645
0.498734 0.218418 0.498734
0.497985 0.217669 0.639811
0.497232 0.216915 0.781670
0.496475 0.216159 0.924179
0.495793 0.215477 1.000000
0.494194 0.353361 0.000000
0.493641 0.352808 0.075995
0.492916 0.352082 0.212600
0.492179 0.351346 0.351346
0.491435 0.350602 0.491435
0.490686 0.349852 0.632511
0.489932 0.349099 0.774371
0.489175 0.348342 0.916879
0.488494 0.347661 1.000000
0.486824 0.486824 0.000000
0.486271 0.486271 0.068625
0.485546 0.485546 0.205230
0.484809 0.484809 0.343975
0.484065 0.484065 0.484065
0.483316 0.483316 0.625141
0.482562 0.482562 0.767001
0.481805 0.481805 0.909509
0.481124 0.481124 1.000000
0.479402 0.621228 0.000000
0.478849 0.620675 0.061203
0.478124 0.619950 0.197808
0.477387 0.619213 0.336553
0.476643 0.618469 0.476643
0.475894 0.617719 0.617719
0.475140 0.616966 0.759579
0.474383 0.616209 0.902087
0.473702 0.615528 1.000000
0.471939 0.756377 0.000000
0.471386 0.755825 0.053740
0.470661 0.755099 0.190344
0.469924 0.754362 0.329090
0.469180 0.753618 0.469180
0.468430 0.752869 0.610256
0.467677 0.752115 0.752115
0.466920 0.751359 0.894624
0.466239 0.750677 1.000000
0.464442 0.892145 0.000000
0.463889 0.891593 0.046242
0.463163 0.890867 0.182847
0.462426 0.890130 0.321593
0.461682 0.889386 0.461682
0.460933 0.888637 0.602759
0.460180 0.887884 0.744618
0.459423 0.887127 0.887127
0.458742 0.886445 1.000000
0.457693 1.000000 0.000000
0.457140 1.000000 0.039494
0.456414 1.000000 0.176098
0.455678 1.000000 0.314844
0.454934 1.000000 0.454934
0.454184 1.000000 0.596010
0.453431 1.000000 0.737869
0.452674 1.000000 0.880378
0.451993 1.000000 1.000000
0.653775 0.000000 0.000000
0.653223 0.000000 0.093751
0.652497 0.000000 0.230355
0.651760 0.000000 0.369101
0.651016 0.000000 0.509190
0.650267 0.000000 0.650267
0.649514 0.000000 0.792126
0.648757 0.000000 0.934635
0.648075 0.000000 1.000000
0.648300 0.088828 0.000000
0.647747 0.088275 0.088275
0.647021 0.087549 0.224879
0.646285 0.086812 0.363625
0.645541 0.086068 0.503715
0.644791 0.085319 0.644791
0.644038 0.084566 0.786651
0.643281 0.083809 0.929159
0.642600 0.083128 1.000000
0.641113 0.218971 0.000000
0.640560 0.218418 0.081088
0.639835 0.217693 0.217693
0.639098 0.216956 0.356439
0.638354 0.216212 0.496528
0.637605 0.215463 0.637605
0.636851 0.214709 0.779464
0.636094 0.213952 0.921972
0.635413 0.213271 1.000000
0.633814 0.351154 0.000000
0.633261 0.350602 0.073789
0.632535 0.349876 0.210393
0.631799 0.349139 0.349139
0.631054 0.348395 0.489229
0.630305 0.347646 0.630305
0.629552 0.346893 0.772164
0.628795 0.346136 0.914673
0.628114 0.345454 1.000000
0.626444 0.484618 0.000000
0.625891 0.484065 0.066419
0.625165 0.483339 0.203023
0.624428 0.482603 0.341769
0.623684 0.481859 0.481859
0.622935 0.481109 0.622935
0.622182 0.480356 0.764794
0.621425 0.479599 0.907303
0.620744 0.478918 1.000000
0.619022 0.619022 0.000000
0.618469 0.618469 0.058997
0.617743 0.617743 0.195601
0.617006 0.617006 0.334347
0.616262 0.616262 0.474437
0.615513 0.615513 0.615513
0.614760 0.614760 0.757372
0.614003 0.614003 0.899881
0.613322 0.613322 1.000000
0.611558 0.754171 0.000000
0.611006 0.753618 0.051534
0.610280 0.752893 0.188138
0.609543 0.752156 0.326884
0.608799 0.751412 0.466973
0.608050 0.750663 0.608050
0.607297 0.749909 0.749909
0.606540 0.749152 0.892418
0.605858 0.748471 1.000000
0.604061 0.889939 0.000000
0.603508 0.889386 0.044036
0.602783 0.888661 0.180641
0.602046 0.887924 0.319387
0.601302 0.887180 0.459476
0.600553 0.886431 0.600553
0.599799 0.885677 0.742412
0.599042 0.884920 0.884920
0.598361 0.884239 1.000000
0.597312 1.000000 0.000000
0.596760 1.000000 0.037287
0.596034 1.000000 0.173892
0.595297 1.000000 0.312638
0.594553 1.000000 0.452727
0.593804 1.000000 0.593804
0.593050 1.000000 0.735663
0.592294 1.000000 0.878172
0.591612 1.000000 1.000000
0.794170 0.000000 0.000000
0.793617 0.000000 0.091532
0.792891 0.000000 0.228137
0.792154 0.000000 0.366883
0.791410 0.000000 0.506972
0.790661 0.000000 0.648049
0.789908 0.000000 0.789908
0.789151 0.000000 0.932416
0.788470 0.000000 1.000000
0.788694 0.086609 0.000000
0.788141 0.086056 0.086056
0.787416 0.085331 0.222661
0.786679 0.084594 0.361407
0.785935 0.083850 0.501496
0.785185 0.083101 0.642573
0.784432 0.082347 0.784432
0.783675 0.081590 0.926941
0.782994 0.080909 1.000000
0.781507 0.216753 0.000000
0.780954 0.216200 0.078870
0.780229 0.215474 0.215474
0.779492 0.214737 0.354220
0.778748 0.213993 0.494310
0.777999 0.213244 0.635386
0.777245 0.212491 0.777245
0.776488 0.211734 0.919754
0.775807 0.211053 1.000000
0.774208 0.348936 0.000000
0.773655 0.348383 0.071570
0.772930 0.347658 0.208175
0.772193 0.346921 0.346921
0.771449 0.346177 0.487010
0.770699 0.345427 0.628087
0.769946 0.344674 0.769946
0.769189 0.343917 0.912454
0.768508 0.343236 1.000000
0.766838 0.482399 0.000000
0.766285 0.481846 0.064200
0.765559 0.481121 0.200805
0.764823 0.480384 0.339551
0.764079 0.479640 0.479640
0.763329 0.478891 0.620717
0.762576 0.478137 0.762576
0.761819 0.477381 0.905084
0.761138 0.476699 1.000000
0.759416 0.616803 0.000000
0.758863 0.616250 0.056778
0.758137 0.615525 0.193383
0.757401 0.614788 0.332129
0.756657 0.614044 0.472218
0.755907 0.613295 0.613295
0.755154 0.612541 0.755154
0.754397 0.611784 0.897662
0.753716 0.611103 1.000000
0.751953 0.751953 0.000000
0.751400 0.751400 0.049315
0.750674 0.750674 0.185920
0.749937 0.749937 0.324666
0.749193 0.749193 0.464755
0.748444 0.748444 0.605832
0.747691 0.747691 0.747691
0.746934 0.746934 0.890199
0.746253 0.746253 1.000000
0.744455 0.887721 0.000000
0.743902 0.887168 0.041818
0.743177 0.886442 0.178422
0.742440 0.885705 0.317168
0.741696 0.884961 0.457258
0.740947 0.884212 0.598334
0.740193 0.883459 0.740193
0.739437 0.882702 0.882702
0.738755 0.882021 1.000000
0.737706 1.000000 0.000000
0.737154 1.000000 0.035069
0.736428 1.000000 0.171674
0.735691 1.000000 0.310419
0.734947 1.000000 0.450509
0.734198 1.000000 0.591585
0.733445 1.000000 0.733445
0.732688 1.000000 0.875953
0.732006 1.000000 1.000000
0.935206 0.000000 0.000000
0.934653 0.000000 0.089303
0.933928 0.000000 0.225908
0.933191 0.000000 0.364654
0.932447 0.000000 0.504743
0.931698 0.000000 0.645820
0.930944 0.000000 0.787679
0.930188 0.000000 0.930188
0.929506 0.000000 1.000000
0.929731 0.084380 0.000000
0.929178 0.083828 0.083828
0.928452 0.083102 0.220432
0.927715 0.082365 0.359178
0.926971 0.081621 0.499268
0.926222 0.080872 0.640344
0.925469 0.080119 0.782203
0.924712 0.079362 0.924712
0.924031 0.078680 1.000000
0.922544 0.214524 0.000000
0.921991 0.213971 0.076641
0.921266 0.213246 0.213246
0.920529 0.212509 0.351991
0.919785 0.211765 0.492081
0.919035 0.211015 0.633157
0.918282 0.210262 0.775017
0.917525 0.209505 0.917525
0.916844 0.208824 1.000000
0.915244 0.346707 0.000000
0.914692 0.346154 0.069342
0.913966 0.345429 0.205946
0.913229 0.344692 0.344692
0.912485 0.343948 0.484781
0.911736 0.343199 0.625858
0.910983 0.342445 0.767717
0.910226 0.341689 0.910226
0.909544 0.341007 1.000000
0.907874 0.480171 0.000000
0.907322 0.479618 0.061972
0.906596 0.478892 0.198576
0.905859 0.478155 0.337322
0.905115 0.477411 0.477411
0.904366 0.476662 0.618488
0.903613 0.475909 0.760347
0.902856 0.475152 0.902856
0.902174 0.474471 1.000000
0.900452 0.614574 0.000000
0.899900 0.614022 0.054550
0.899174 0.613296 0.191154
0.898437 0.612559 0.329900
0.897693 0.611815 0.469989
0.896944 0.611066 0.611066
0.896191 0.610313 0.752925
0.895434 0.609556 0.895434
0.894752 0.608874 1.000000
0.892989 0.749724 0.000000
0.892436 0.749171 0.047086
0.891711 0.748446 0.183691
0.890974 0.747709 0.322437
0.890230 0.746965 0.462526
0.889481 0.746216 0.603603
0.888727 0.745462 0.745462
0.887971 0.744705 0.887971
0.887289 0.744024 1.000000
0.885492 0.885492 0.000000
0.884939 0.884939 0.039589
0.884214 0.884214 0.176194
0.883477 0.883477 0.314940
0.882733 0.882733 0.455029
0.881984 0.881984 0.596106
0.881230 0.881230 0.737965
0.880473 0.880473 0.880473
0.879792 0.879792 1.000000
0.878743 1.000000 0.000000
0.878190 1.000000 0.032840
0.877465 1.000000 0.169445
0.876728 1.000000 0.308191
0.875984 1.000000 0.448280
0.875235 1.000000 0.589357
0.874481 1.000000 0.731216
0.873724 1.000000 0.873724
0.873043 1.000000 1.000000
1.000000 0.000000 0.000000
1.000000 0.000000 0.087297
1.000000 0.000000 0.223902
1.000000 0.000000 0.362648
1.000000 0.000000 0.502737
1.000000 0.000000 0.643814
1.000000 0.000000 0.785673
1.000000 0.000000 0.928181
1.000000 0.000000 1.000000
1.000000 0.082374 0.000000
1.000000 0.081822 0.081822
1.000000 0.081096 0.218426
1.000000 0.080359 0.357172
1.000000 0.079615 0.497261
1.000000 0.078866 0.638338
1.000000 0.078112 0.780197
1.000000 0.077356 0.922706
1.000000 0.076674 1.000000
1.000000 0.212518 0.000000
1.000000 0.211965 0.074635
1.000000 0.211239 0.211239
1.000000 0.210503 0.349985
1.000000 0.209759 0.490075
1.000000 0.209009 0.631151
1.000000 0.208256 0.773011
1.000000 0.207499 0.915519
1.000000 0.206818 1.000000
1.000000 0.344701 0.000000
1.000000 0.344148 0.067335
1.000000 0.343423 0.203940
1.000000 0.342686 0.342686
1.000000 0.341942 0.482775
1.000000 0.341193 0.623852
1.000000 0.340439 0.765711
1.000000 0.339682 0.908220
1.000000 0.339001 1.000000
1.000000 0.478164 0.000000
1.000000 0.477612 0.059965
1.000000 0.476886 0.196570
1.000000 0.476149 0.335316
1.000000 0.475405 0.475405
1.000000 0.474656 0.616482
1.000000 0.473903 0.758341
1.000000 0.473146 0.900850
1.000000 0.472464 1.000000
1.000000 0.612568 0.000000
1.000000 0.612016 0.052543
1.000000 0.611290 0.189148
1.000000 0.610553 0.327894
1.000000 0.609809 0.467983
1.000000 0.609060 0.609060
1.000000 0.608306 0.750919
1.000000 0.607550 0.893428
1.000000 0.606868 1.000000
1.000000 0.747718 0.000000
1.000000 0.747165 0.045080
1.000000 0.746439 0.181685
1.000000 0.745703 0.320431
1.000000 0.744959 0.460520
1.000000 0.744209 0.601597
1.000000 0.743456 0.743456
1.000000 0.742699 0.885964
1.000000 0.742018 1.000000
1.000000 0.883486 0.000000
1.000000 0.882933 0.037583
1.000000 0.882208 0.174188
1.000000 0.881471 0.312933
1.000000 0.880727 0.453023
1.000000 0.879977 0.594099
1.000000 0.879224 0.735959
1.000000 0.878467 0.878467
1.000000 0.877786 1.000000
1.000000 1.000000 0.000000
1.000000 1.000000 0.030834
1.000000 1.000000 0.167439
1.000000 1.000000 0.306185
1.000000 1.000000 0.446274
1.000000 1.000000 0.587351
1.000000 1.000000 0.729210
1.000000 1.000000 0.871718
1.000000 1.000000 1.000000
