skills/editops-orchestrator/assets/grade/luts/trailer_punch_v17.cube
TITLE "trailer_punch_v17"
LUT_3D_SIZE 17
DOMAIN_MIN 0.0 0.0 0.0
DOMAIN_MAX 1.0 1.0 1.0
0.000000 0.000000 0.000000
0.000000 0.000000 0.000000
0.000000 0.000000 0.061516
0.000000 0.000000 0.137079
0.000000 0.000000 0.215648
0.000000 0.000000 0.296193
0.000000 0.000000 0.378224
0.000000 0.000000 0.461453
0.000000 0.000000 0.545689
0.000000 0.000000 0.630793
0.000000 0.000000 0.716662
0.000000 0.000000 0.803216
0.000000 0.000000 0.890390
0.000000 0.000000 0.978130
0.000000 0.000000 1.000000
0.000000 0.000000 1.000000
0.000000 0.000000 1.000000
0.000000 0.000000 0.000000
0.000000 0.000000 0.000000
0.000000 0.000000 0.061516
0.000000 0.000000 0.137079
0.000000 0.000000 0.215648
0.000000 0.000000 0.296193
0.000000 0.000000 0.378224
0.000000 0.000000 0.461453
0.000000 0.000000 0.545689
0.000000 0.000000 0.630793
0.000000 0.000000 0.716662
0.000000 0.000000 0.803216
0.000000 0.000000 0.890390
0.000000 0.000000 0.978130
0.000000 0.000000 1.000000
0.000000 0.000000 1.000000
0.000000 0.000000 1.000000
0.000000 0.054521 0.000000
0.000000 0.054521 0.000000
0.000000 0.053735 0.053735
0.000000 0.052770 0.129297
0.000000 0.051767 0.207867
0.000000 0.050738 0.288412
0.000000 0.049691 0.370443
0.000000 0.048628 0.453672
0.000000 0.047553 0.537907
0.000000 0.046466 0.623011
0.000000 0.045369 0.708881
0.000000 0.044264 0.795434
0.000000 0.043151 0.882608
0.000000 0.042031 0.970349
0.000000 0.040903 1.000000
0.000000 0.039770 1.000000
0.000000 0.039245 1.000000
0.000000 0.121490 0.000000
0.000000 0.121490 0.000000
0.000000 0.120704 0.044177
0.000000 0.119739 0.119739
0.000000 0.118736 0.198309
0.000000 0.117708 0.278854
0.000000 0.116660 0.360885
0.000000 0.115597 0.444114
0.000000 0.114522 0.528350
0.000000 0.113435 0.613453
0.000000 0.112338 0.699323
0.000000 0.111233 0.785877
0.000000 0.110120 0.873050
0.000000 0.109000 0.960791
0.000000 0.107873 1.000000
0.000000 0.106739 1.000000
0.000000 0.106214 1.000000
0.000000 0.191124 0.000000
0.000000 0.191124 0.000000
0.000000 0.190339 0.034239
0.000000 0.189374 0.109801
0.000000 0.188371 0.188371
0.000000 0.187342 0.268915
0.000000 0.186295 0.350947
0.000000 0.185232 0.434176
0.000000 0.184156 0.518411
0.000000 0.183070 0.603515
0.000000 0.181973 0.689384
0.000000 0.180868 0.775938
0.000000 0.179755 0.863112
0.000000 0.178634 0.950853
0.000000 0.177507 1.000000
0.000000 0.176374 1.000000
0.000000 0.175848 1.000000
0.000000 0.262509 0.000000
0.000000 0.262509 0.000000
0.000000 0.261724 0.024051
0.000000 0.260759 0.099613
0.000000 0.259756 0.178183
0.000000 0.258727 0.258727
0.000000 0.257680 0.340759
0.000000 0.256617 0.423988
0.000000 0.255541 0.508223
0.000000 0.254455 0.593327
0.000000 0.253358 0.679196
0.000000 0.252253 0.765750
0.000000 0.251140 0.852924
0.000000 0.250019 0.940665
0.000000 0.248892 1.000000
0.000000 0.247759 1.000000
0.000000 0.247233 1.000000
0.000000 0.335212 0.000000
0.000000 0.335212 0.000000
0.000000 0.334426 0.013674
0.000000 0.333462 0.089237
0.000000 0.332458 0.167806
0.000000 0.331430 0.248351
0.000000 0.330382 0.330382
0.000000 0.329320 0.413612
0.000000 0.328244 0.497847
0.000000 0.327157 0.582951
0.000000 0.326061 0.668820
0.000000 0.324955 0.755374
0.000000 0.323842 0.842548
0.000000 0.322722 0.930288
0.000000 0.321595 1.000000
0.000000 0.320462 1.000000
0.000000 0.319936 1.000000
0.000000 0.408976 0.000000
0.000000 0.408976 0.000000
0.000000 0.408191 0.003147
0.000000 0.407226 0.078709
0.000000 0.406223 0.157279
0.000000 0.405194 0.237823
0.000000 0.404147 0.319855
0.000000 0.403084 0.403084
0.000000 0.402008 0.487319
0.000000 0.400922 0.572423
0.000000 0.399825 0.658292
0.000000 0.398720 0.744846
0.000000 0.397607 0.832020
0.000000 0.396486 0.919761
0.000000 0.395359 1.000000
0.000000 0.394226 1.000000
0.000000 0.393700 1.000000
0.000000 0.483632 0.000000
0.000000 0.483632 0.000000
0.000000 0.482847 0.000000
0.000000 0.481882 0.068054
0.000000 0.480879 0.146624
0.000000 0.479850 0.227168
0.000000 0.478803 0.309200
0.000000 0.477740 0.392429
0.000000 0.476664 0.476664
0.000000 0.475577 0.561768
0.000000 0.474481 0.647637
0.000000 0.473376 0.734191
0.000000 0.472263 0.821365
0.000000 0.471142 0.909106
0.000000 0.470015 0.997369
0.000000 0.468882 1.000000
0.000000 0.468356 1.000000
0.000000 0.559058 0.000000
0.000000 0.559058 0.000000
0.000000 0.558272 0.000000
0.000000 0.557308 0.057289
0.000000 0.556304 0.135859
0.000000 0.555276 0.216403
0.000000 0.554228 0.298435
0.000000 0.553165 0.381664
0.000000 0.552090 0.465899
0.000000 0.551003 0.551003
0.000000 0.549907 0.636872
0.000000 0.548801 0.723426
0.000000 0.547688 0.810600
0.000000 0.546568 0.898341
0.000000 0.545441 0.986604
0.000000 0.544308 1.000000
0.000000 0.543782 1.000000
0.000000 0.635162 0.000000
0.000000 0.635162 0.000000
0.000000 0.634376 0.000000
0.000000 0.633412 0.046427
0.000000 0.632408 0.124997
0.000000 0.631380 0.205542
0.000000 0.630332 0.287573
0.000000 0.629270 0.370802
0.000000 0.628194 0.455038
0.000000 0.627107 0.540141
0.000000 0.626011 0.626011
0.000000 0.624905 0.712565
0.000000 0.623792 0.799739
0.000000 0.622672 0.887479
0.000000 0.621545 0.975742
0.000000 0.620412 1.000000
0.000000 0.619886 1.000000
0.000000 0.711873 0.000000
0.000000 0.711873 0.000000
0.000000 0.711087 0.000000
0.000000 0.710122 0.035479
0.000000 0.709119 0.114049
0.000000 0.708091 0.194593
0.000000 0.707043 0.276625
0.000000 0.705980 0.359854
0.000000 0.704905 0.444089
0.000000 0.703818 0.529193
0.000000 0.702722 0.615062
0.000000 0.701616 0.701616
0.000000 0.700503 0.788790
0.000000 0.699383 0.876531
0.000000 0.698256 0.964794
0.000000 0.697123 1.000000
0.000000 0.696597 1.000000
0.000000 0.789133 0.000000
0.000000 0.789133 0.000000
0.000000 0.788348 0.000000
0.000000 0.787383 0.024452
0.000000 0.786380 0.103022
0.000000 0.785351 0.183567
0.000000 0.784304 0.265598
0.000000 0.783241 0.348827
0.000000 0.782165 0.433063
0.000000 0.781078 0.518167
0.000000 0.779982 0.604036
0.000000 0.778877 0.690590
0.000000 0.777764 0.777764
0.000000 0.776643 0.865504
0.000000 0.775516 0.953767
0.000000 0.774383 1.000000
0.000000 0.773857 1.000000
0.000000 0.866896 0.000000
0.000000 0.866896 0.000000
0.000000 0.866110 0.000000
0.000000 0.865145 0.013354
0.000000 0.864142 0.091924
0.000000 0.863114 0.172468
0.000000 0.862066 0.254500
0.000000 0.861003 0.337729
0.000000 0.859928 0.421964
0.000000 0.858841 0.507068
0.000000 0.857745 0.592937
0.000000 0.856639 0.679491
0.000000 0.855526 0.766665
0.000000 0.854406 0.854406
0.000000 0.853279 0.942669
0.000000 0.852146 1.000000
0.000000 0.851620 1.000000
0.000000 0.945121 0.000000
0.000000 0.945121 0.000000
0.000000 0.944336 0.000000
0.000000 0.943371 0.002190
0.000000 0.942368 0.080759
0.000000 0.941339 0.161304
0.000000 0.940292 0.243335
0.000000 0.939229 0.326565
0.000000 0.938153 0.410800
0.000000 0.937067 0.495904
0.000000 0.935970 0.581773
0.000000 0.934865 0.668327
0.000000 0.933752 0.755501
0.000000 0.932631 0.843241
0.000000 0.931504 0.931504
0.000000 0.930371 1.000000
0.000000 0.929845 1.000000
0.000000 1.000000 0.000000
0.000000 1.000000 0.000000
0.000000 1.000000 0.000000
0.000000 1.000000 0.000000
0.000000 1.000000 0.069534
0.000000 1.000000 0.150078
0.000000 1.000000 0.232110
0.000000 1.000000 0.315339
0.000000 1.000000 0.399574
0.000000 1.000000 0.484678
0.000000 1.000000 0.570547
0.000000 1.000000 0.657101
0.000000 1.000000 0.744275
0.000000 1.000000 0.832016
0.000000 1.000000 0.920279
0.000000 1.000000 1.000000
0.000000 1.000000 1.000000
0.000000 1.000000 0.000000
0.000000 1.000000 0.000000
0.000000 1.000000 0.000000
0.000000 1.000000 0.000000
0.000000 1.000000 0.064327
0.000000 1.000000 0.144872
0.000000 1.000000 0.226903
0.000000 1.000000 0.310132
0.000000 1.000000 0.394367
0.000000 1.000000 0.479471
0.000000 1.000000 0.565341
0.000000 1.000000 0.651894
0.000000 1.000000 0.739068
0.000000 1.000000 0.826809
0.000000 1.000000 0.915072
0.000000 1.000000 1.000000
0.000000 1.000000 1.000000
0.000000 0.000000 0.000000
0.000000 0.000000 0.000000
0.000000 0.000000 0.061516
0.000000 0.000000 0.137079
0.000000 0.000000 0.215648
0.000000 0.000000 0.296193
0.000000 0.000000 0.378224
0.000000 0.000000 0.461453
0.000000 0.000000 0.545689
0.000000 0.000000 0.630793
0.000000 0.000000 0.716662
0.000000 0.000000 0.803216
0.000000 0.000000 0.890390
0.000000 0.000000 0.978130
0.000000 0.000000 1.000000
0.000000 0.000000 1.000000
0.000000 0.000000 1.000000
0.000000 0.000000 0.000000
0.000000 0.000000 0.000000
0.000000 0.000000 0.061516
0.000000 0.000000 0.137079
0.000000 0.000000 0.215648
0.000000 0.000000 0.296193
0.000000 0.000000 0.378224
0.000000 0.000000 0.461453
0.000000 0.000000 0.545689
0.000000 0.000000 0.630793
0.000000 0.000000 0.716662
0.000000 0.000000 0.803216
0.000000 0.000000 0.890390
0.000000 0.000000 0.978130
0.000000 0.000000 1.000000
0.000000 0.000000 1.000000
0.000000 0.000000 1.000000
0.000000 0.054521 0.000000
0.000000 0.054521 0.000000
0.000000 0.053735 0.053735
0.000000 0.052770 0.129297
0.000000 0.051767 0.207867
0.000000 0.050738 0.288412
0.000000 0.049691 0.370443
0.000000 0.048628 0.453672
0.000000 0.047553 0.537907
0.000000 0.046466 0.623011
0.000000 0.045369 0.708881
0.000000 0.044264 0.795434
0.000000 0.043151 0.882608
0.000000 0.042031 0.970349
0.000000 0.040903 1.000000
0.000000 0.039770 1.000000
0.000000 0.039245 1.000000
0.000000 0.121490 0.000000
0.000000 0.121490 0.000000
0.000000 0.120704 0.044177
0.000000 0.119739 0.119739
0.000000 0.118736 0.198309
0.000000 0.117708 0.278854
0.000000 0.116660 0.360885
0.000000 0.115597 0.444114
0.000000 0.114522 0.528350
0.000000 0.113435 0.613453
0.000000 0.112338 0.699323
0.000000 0.111233 0.785877
0.000000 0.110120 0.873050
0.000000 0.109000 0.960791
0.000000 0.107873 1.000000
0.000000 0.106739 1.000000
0.000000 0.106214 1.000000
0.000000 0.191124 0.000000
0.000000 0.191124 0.000000
0.000000 0.190339 0.034239
0.000000 0.189374 0.109801
0.000000 0.188371 0.188371
0.000000 0.187342 0.268915
0.000000 0.186295 0.350947
0.000000 0.185232 0.434176
0.000000 0.184156 0.518411
0.000000 0.183070 0.603515
0.000000 0.181973 0.689384
0.000000 0.180868 0.775938
0.000000 0.179755 0.863112
0.000000 0.178634 0.950853
0.000000 0.177507 1.000000
0.000000 0.176374 1.000000
0.000000 0.175848 1.000000
0.000000 0.262509 0.000000
0.000000 0.262509 0.000000
0.000000 0.261724 0.024051
0.000000 0.260759 0.099613
0.000000 0.259756 0.178183
0.000000 0.258727 0.258727
0.000000 0.257680 0.340759
0.000000 0.256617 0.423988
0.000000 0.255541 0.508223
0.000000 0.254455 0.593327
0.000000 0.253358 0.679196
0.000000 0.252253 0.765750
0.000000 0.251140 0.852924
0.000000 0.250019 0.940665
0.000000 0.248892 1.000000
0.000000 0.247759 1.000000
0.000000 0.247233 1.000000
0.000000 0.335212 0.000000
0.000000 0.335212 0.000000
0.000000 0.334426 0.013674
0.000000 0.333462 0.089237
0.000000 0.332458 0.167806
0.000000 0.331430 0.248351
0.000000 0.330382 0.330382
0.000000 0.329320 0.413612
0.000000 0.328244 0.497847
0.000000 0.327157 0.582951
0.000000 0.326061 0.668820
0.000000 0.324955 0.755374
0.000000 0.323842 0.842548
0.000000 0.322722 0.930288
0.000000 0.321595 1.000000
0.000000 0.320462 1.000000
0.000000 0.319936 1.000000
0.000000 0.408976 0.000000
0.000000 0.408976 0.000000
0.000000 0.408191 0.003147
0.000000 0.407226 0.078709
0.000000 0.406223 0.157279
0.000000 0.405194 0.237823
0.000000 0.404147 0.319855
0.000000 0.403084 0.403084
0.000000 0.402008 0.487319
0.000000 0.400922 0.572423
0.000000 0.399825 0.658292
0.000000 0.398720 0.744846
0.000000 0.397607 0.832020
0.000000 0.396486 0.919761
0.000000 0.395359 1.000000
0.000000 0.394226 1.000000
0.000000 0.393700 1.000000
0.000000 0.483632 0.000000
0.000000 0.483632 0.000000
0.000000 0.482847 0.000000
0.000000 0.481882 0.068054
0.000000 0.480879 0.146624
0.000000 0.479850 0.227168
0.000000 0.478803 0.309200
0.000000 0.477740 0.392429
0.000000 0.476664 0.476664
0.000000 0.475577 0.561768
0.000000 0.474481 0.647637
0.000000 0.473376 0.734191
0.000000 0.472263 0.821365
0.000000 0.471142 0.909106
0.000000 0.470015 0.997369
0.000000 0.468882 1.000000
0.000000 0.468356 1.000000
0.000000 0.559058 0.000000
0.000000 0.559058 0.000000
0.000000 0.558272 0.000000
0.000000 0.557308 0.057289
0.000000 0.556304 0.135859
0.000000 0.555276 0.216403
0.000000 0.554228 0.298435
0.000000 0.553165 0.381664
0.000000 0.552090 0.465899
0.000000 0.551003 0.551003
0.000000 0.549907 0.636872
0.000000 0.548801 0.723426
0.000000 0.547688 0.810600
0.000000 0.546568 0.898341
0.000000 0.545441 0.986604
0.000000 0.544308 1.000000
0.000000 0.543782 1.000000
0.000000 0.635162 0.000000
0.000000 0.635162 0.000000
0.000000 0.634376 0.000000
0.000000 0.633412 0.046427
0.000000 0.632408 0.124997
0.000000 0.631380 0.205542
0.000000 0.630332 0.287573
0.000000 0.629270 0.370802
0.000000 0.628194 0.455038
0.000000 0.627107 0.540141
0.000000 0.626011 0.626011
0.000000 0.624905 0.712565
0.000000 0.623792 0.799739
0.000000 0.622672 0.887479
0.000000 0.621545 0.975742
0.000000 0.620412 1.000000
0.000000 0.619886 1.000000
0.000000 0.711873 0.000000
0.000000 0.711873 0.000000
0.000000 0.711087 0.000000
0.000000 0.710122 0.035479
0.000000 0.709119 0.114049
0.000000 0.708091 0.194593
0.000000 0.707043 0.276625
0.000000 0.705980 0.359854
0.000000 0.704905 0.444089
0.000000 0.703818 0.529193
0.000000 0.702722 0.615062
0.000000 0.701616 0.701616
0.000000 0.700503 0.788790
0.000000 0.699383 0.876531
0.000000 0.698256 0.964794
0.000000 0.697123 1.000000
0.000000 0.696597 1.000000
0.000000 0.789133 0.000000
0.000000 0.789133 0.000000
0.000000 0.788348 0.000000
0.000000 0.787383 0.024452
0.000000 0.786380 0.103022
0.000000 0.785351 0.183567
0.000000 0.784304 0.265598
0.000000 0.783241 0.348827
0.000000 0.782165 0.433063
0.000000 0.781078 0.518167
0.000000 0.779982 0.604036
0.000000 0.778877 0.690590
0.000000 0.777764 0.777764
0.000000 0.776643 0.865504
0.000000 0.775516 0.953767
0.000000 0.774383 1.000000
0.000000 0.773857 1.000000
0.000000 0.866896 0.000000
0.000000 0.866896 0.000000
0.000000 0.866110 0.000000
0.000000 0.865145 0.013354
0.000000 0.864142 0.091924
0.000000 0.863114 0.172468
0.000000 0.862066 0.254500
0.000000 0.861003 0.337729
0.000000 0.859928 0.421964
0.000000 0.858841 0.507068
0.000000 0.857745 0.592937
0.000000 0.856639 0.679491
0.000000 0.855526 0.766665
0.000000 0.854406 0.854406
0.000000 0.853279 0.942669
0.000000 0.852146 1.000000
0.000000 0.851620 1.000000
0.000000 0.945121 0.000000
0.000000 0.945121 0.000000
0.000000 0.944336 0.000000
0.000000 0.943371 0.002190
0.000000 0.942368 0.080759
0.000000 0.941339 0.161304
0.000000 0.940292 0.243335
0.000000 0.939229 0.326565
0.000000 0.938153 0.410800
0.000000 0.937067 0.495904
0.000000 0.935970 0.581773
0.000000 0.934865 0.668327
0.000000 0.933752 0.755501
0.000000 0.932631 0.843241
0.000000 0.931504 0.931504
0.000000 0.930371 1.000000
0.000000 0.929845 1.000000
0.000000 1.000000 0.000000
0.000000 1.000000 0.000000
0.000000 1.000000 0.000000
0.000000 1.000000 0.000000
0.000000 1.000000 0.069534
0.000000 1.000000 0.150078
0.000000 1.000000 0.232110
0.000000 1.000000 0.315339
0.000000 1.000000 0.399574
0.000000 1.000000 0.484678
0.000000 1.000000 0.570547
0.000000 1.000000 0.657101
0.000000 1.000000 0.744275
0.000000 1.000000 0.832016
0.000000 1.000000 0.920279
0.000000 1.000000 1.000000
0.000000 1.000000 1.000000
0.000000 1.000000 0.000000
0.000000 1.000000 0.000000
0.000000 1.000000 0.000000
0.000000 1.000000 0.000000
0.000000 1.000000 0.064327
0.000000 1.000000 0.144872
0.000000 1.000000 0.226903
0.000000 1.000000 0.310132
0.000000 1.000000 0.394367
0.000000 1.000000 0.479471
0.000000 1.000000 0.565341
0.000000 1.000000 0.651894
0.000000 1.000000 0.739068
0.000000 1.000000 0.826809
0.000000 1.000000 0.915072
0.000000 1.000000 1.000000
0.000000 1.000000 1.000000
0.059989 0.000000 0.000000
0.059989 0.000000 0.000000
0.059203 0.000000 0.059203
0.058238 0.000000 0.134765
0.057235 0.000000 0.213335
0.056207 0.000000 0.293880
0.055159 0.000000 0.375911
0.054096 0.000000 0.459140
0.053021 0.000000 0.543376
0.051934 0.000000 0.628480
0.050838 0.000000 0.714349
0.049732 0.000000 0.800903
0.048619 0.000000 0.888077
0.047499 0.000000 0.975817
0.046372 0.000000 1.000000
0.045238 0.000000 1.000000
0.044713 0.000000 1.000000
0.059989 0.000000 0.000000
0.059989 0.000000 0.000000
0.059203 0.000000 0.059203
0.058238 0.000000 0.134765
0.057235 0.000000 0.213335
0.056207 0.000000 0.293880
0.055159 0.000000 0.375911
0.054096 0.000000 0.459140
0.053021 0.000000 0.543376
0.051934 0.000000 0.628480
0.050838 0.000000 0.714349
0.049732 0.000000 0.800903
0.048619 0.000000 0.888077
0.047499 0.000000 0.975817
0.046372 0.000000 1.000000
0.045238 0.000000 1.000000
0.044713 0.000000 1.000000
0.052208 0.052208 0.000000
0.052208 0.052208 0.000000
0.051422 0.051422 0.051422
0.050457 0.050457 0.126984
0.049454 0.049454 0.205554
0.048425 0.048425 0.286099
0.047378 0.047378 0.368130
0.046315 0.046315 0.451359
0.045239 0.045239 0.535594
0.044153 0.044153 0.620698
0.043056 0.043056 0.706567
0.041951 0.041951 0.793121
0.040838 0.040838 0.880295
0.039718 0.039718 0.968036
0.038590 0.038590 1.000000
0.037457 0.037457 1.000000
0.036932 0.036932 1.000000
0.042650 0.119177 0.000000
0.042650 0.119177 0.000000
0.041864 0.118391 0.041864
0.040899 0.117426 0.117426
0.039896 0.116423 0.195996
0.038867 0.115395 0.276541
0.037820 0.114347 0.358572
0.036757 0.113284 0.441801
0.035682 0.112209 0.526036
0.034595 0.111122 0.611140
0.033498 0.110025 0.697010
0.032393 0.108920 0.783563
0.031280 0.107807 0.870737
0.030160 0.106687 0.958478
0.029033 0.105560 1.000000
0.027899 0.104426 1.000000
0.027374 0.103901 1.000000
0.032711 0.188811 0.000000
0.032711 0.188811 0.000000
0.031926 0.188026 0.031926
0.030961 0.187061 0.107488
0.029958 0.186058 0.186058
0.028929 0.185029 0.266602
0.027882 0.183982 0.348634
0.026819 0.182919 0.431863
0.025743 0.181843 0.516098
0.024657 0.180756 0.601202
0.023560 0.179660 0.687071
0.022455 0.178555 0.773625
0.021342 0.177442 0.860799
0.020221 0.176321 0.948540
0.019094 0.175194 1.000000
0.017961 0.174061 1.000000
0.017435 0.173535 1.000000
0.022523 0.260196 0.000000
0.022523 0.260196 0.000000
0.021738 0.259411 0.021738
0.020773 0.258446 0.097300
0.019769 0.257443 0.175869
0.018741 0.256414 0.256414
0.017694 0.255367 0.338445
0.016631 0.254304 0.421675
0.015555 0.253228 0.505910
0.014468 0.252141 0.591014
0.013372 0.251045 0.676883
0.012267 0.249940 0.763437
0.011153 0.248827 0.850611
0.010033 0.247706 0.938352
0.008906 0.246579 1.000000
0.007773 0.245446 1.000000
0.007247 0.244920 1.000000
0.012147 0.332899 0.000000
0.012147 0.332899 0.000000
0.011361 0.332113 0.011361
0.010397 0.331149 0.086924
0.009393 0.330145 0.165493
0.008365 0.329117 0.246038
0.007317 0.328069 0.328069
0.006255 0.327006 0.411299
0.005179 0.325931 0.495534
0.004092 0.324844 0.580638
0.002996 0.323748 0.666507
0.001890 0.322642 0.753061
0.000777 0.321529 0.840235
0.000000 0.320409 0.927975
0.000000 0.319282 1.000000
0.000000 0.318149 1.000000
0.000000 0.317623 1.000000
0.001619 0.406663 0.000000
0.001619 0.406663 0.000000
0.000834 0.405878 0.000834
0.000000 0.404913 0.076396
0.000000 0.403910 0.154966
0.000000 0.402881 0.235510
0.000000 0.401834 0.317542
0.000000 0.400771 0.400771
0.000000 0.399695 0.485006
0.000000 0.398608 0.570110
0.000000 0.397512 0.655979
0.000000 0.396407 0.742533
0.000000 0.395294 0.829707
0.000000 0.394173 0.917448
0.000000 0.393046 1.000000
0.000000 0.391913 1.000000
0.000000 0.391387 1.000000
0.000000 0.481319 0.000000
0.000000 0.481319 0.000000
0.000000 0.480534 0.000000
0.000000 0.479569 0.065741
0.000000 0.478565 0.144311
0.000000 0.477537 0.224855
0.000000 0.476489 0.306887
0.000000 0.475427 0.390116
0.000000 0.474351 0.474351
0.000000 0.473264 0.559455
0.000000 0.472168 0.645324
0.000000 0.471063 0.731878
0.000000 0.469949 0.819052
0.000000 0.468829 0.906793
0.000000 0.467702 0.995055
0.000000 0.466569 1.000000
0.000000 0.466043 1.000000
0.000000 0.556745 0.000000
0.000000 0.556745 0.000000
0.000000 0.555959 0.000000
0.000000 0.554994 0.054976
0.000000 0.553991 0.133546
0.000000 0.552963 0.214090
0.000000 0.551915 0.296122
0.000000 0.550852 0.379351
0.000000 0.549777 0.463586
0.000000 0.548690 0.548690
0.000000 0.547594 0.634559
0.000000 0.546488 0.721113
0.000000 0.545375 0.808287
0.000000 0.544255 0.896028
0.000000 0.543128 0.984291
0.000000 0.541995 1.000000
0.000000 0.541469 1.000000
0.000000 0.632849 0.000000
0.000000 0.632849 0.000000
0.000000 0.632063 0.000000
0.000000 0.631099 0.044114
0.000000 0.630095 0.122684
0.000000 0.629067 0.203229
0.000000 0.628019 0.285260
0.000000 0.626956 0.368489
0.000000 0.625881 0.452725
0.000000 0.624794 0.537828
0.000000 0.623698 0.623698
0.000000 0.622592 0.710252
0.000000 0.621479 0.797425
0.000000 0.620359 0.885166
0.000000 0.619232 0.973429
0.000000 0.618099 1.000000
0.000000 0.617573 1.000000
0.000000 0.709560 0.000000
0.000000 0.709560 0.000000
0.000000 0.708774 0.000000
0.000000 0.707809 0.033166
0.000000 0.706806 0.111736
0.000000 0.705778 0.192280
0.000000 0.704730 0.274312
0.000000 0.703667 0.357541
0.000000 0.702592 0.441776
0.000000 0.701505 0.526880
0.000000 0.700409 0.612749
0.000000 0.699303 0.699303
0.000000 0.698190 0.786477
0.000000 0.697070 0.874218
0.000000 0.695943 0.962481
0.000000 0.694809 1.000000
0.000000 0.694284 1.000000
0.000000 0.786820 0.000000
0.000000 0.786820 0.000000
0.000000 0.786035 0.000000
0.000000 0.785070 0.022139
0.000000 0.784067 0.100709
0.000000 0.783038 0.181254
0.000000 0.781991 0.263285
0.000000 0.780928 0.346514
0.000000 0.779852 0.430750
0.000000 0.778765 0.515853
0.000000 0.777669 0.601723
0.000000 0.776564 0.688277
0.000000 0.775450 0.775450
0.000000 0.774330 0.863191
0.000000 0.773203 0.951454
0.000000 0.772070 1.000000
0.000000 0.771544 1.000000
0.000000 0.864583 0.000000
0.000000 0.864583 0.000000
0.000000 0.863797 0.000000
0.000000 0.862832 0.011041
0.000000 0.861829 0.089611
0.000000 0.860801 0.170155
0.000000 0.859753 0.252187
0.000000 0.858690 0.335416
0.000000 0.857615 0.419651
0.000000 0.856528 0.504755
0.000000 0.855432 0.590624
0.000000 0.854326 0.677178
0.000000 0.853213 0.764352
0.000000 0.852093 0.852093
0.000000 0.850966 0.940356
0.000000 0.849832 1.000000
0.000000 0.849307 1.000000
0.000000 0.942808 0.000000
0.000000 0.942808 0.000000
0.000000 0.942023 0.000000
0.000000 0.941058 0.000000
0.000000 0.940055 0.078446
0.000000 0.939026 0.158991
0.000000 0.937979 0.241022
0.000000 0.936916 0.324252
0.000000 0.935840 0.408487
0.000000 0.934754 0.493591
0.000000 0.933657 0.579460
0.000000 0.932552 0.666014
0.000000 0.931439 0.753188
0.000000 0.930318 0.840928
0.000000 0.929191 0.929191
0.000000 0.928058 1.000000
0.000000 0.927532 1.000000
0.000000 1.000000 0.000000
0.000000 1.000000 0.000000
0.000000 1.000000 0.000000
0.000000 1.000000 0.000000
0.000000 1.000000 0.067221
0.000000 1.000000 0.147765
0.000000 1.000000 0.229797
0.000000 1.000000 0.313026
0.000000 1.000000 0.397261
0.000000 1.000000 0.482365
0.000000 1.000000 0.568234
0.000000 1.000000 0.654788
0.000000 1.000000 0.741962
0.000000 1.000000 0.829703
0.000000 1.000000 0.917965
0.000000 1.000000 1.000000
0.000000 1.000000 1.000000
0.000000 1.000000 0.000000
0.000000 1.000000 0.000000
0.000000 1.000000 0.000000
0.000000 1.000000 0.000000
0.000000 1.000000 0.062014
0.000000 1.000000 0.142559
0.000000 1.000000 0.224590
0.000000 1.000000 0.307819
0.000000 1.000000 0.392054
0.000000 1.000000 0.477158
0.000000 1.000000 0.563027
0.000000 1.000000 0.649581
0.000000 1.000000 0.736755
0.000000 1.000000 0.824496
0.000000 1.000000 0.912759
0.000000 1.000000 1.000000
0.000000 1.000000 1.000000
0.133675 0.000000 0.000000
0.133675 0.000000 0.000000
0.132889 0.000000 0.056362
0.131924 0.000000 0.131924
0.130921 0.000000 0.210494
0.129893 0.000000 0.291039
0.128845 0.000000 0.373070
0.127782 0.000000 0.456299
0.126707 0.000000 0.540534
0.125620 0.000000 0.625638
0.124523 0.000000 0.711508
0.123418 0.000000 0.798061
0.122305 0.000000 0.885235
0.121185 0.000000 0.972976
0.120058 0.000000 1.000000
0.118924 0.000000 1.000000
0.118399 0.000000 1.000000
0.133675 0.000000 0.000000
