skills/editops-orchestrator/assets/grade/luts/trailer_punch_v02.cube
TITLE "trailer_punch_v02"
LUT_3D_SIZE 5
DOMAIN_MIN 0.0 0.0 0.0
DOMAIN_MAX 1.0 1.0 1.0
0.000000 0.000000 0.000000
0.000000 0.000000 0.242098
0.000000 0.000000 0.517331
0.000000 0.000000 0.796096
0.000000 0.000000 1.000000
0.000000 0.231938 0.000000
0.000000 0.230797 0.230797
0.000000 0.229500 0.506030
0.000000 0.228187 0.784795
0.000000 0.226922 1.000000
0.000000 0.495620 0.000000
0.000000 0.494480 0.217950
0.000000 0.493183 0.493183
0.000000 0.491869 0.771947
0.000000 0.490604 1.000000
0.000000 0.762686 0.000000
0.000000 0.761545 0.204938
0.000000 0.760248 0.480170
0.000000 0.758935 0.758935
0.000000 0.757670 1.000000
0.000000 1.000000 0.000000
0.000000 1.000000 0.192411
0.000000 1.000000 0.467643
0.000000 1.000000 0.746408
0.000000 1.000000 1.000000
0.239880 0.000000 0.000000
0.238739 0.000000 0.238739
0.237442 0.000000 0.513972
0.236128 0.000000 0.792736
0.234864 0.000000 1.000000
0.228579 0.228579 0.000000
0.227438 0.227438 0.227438
0.226141 0.226141 0.502671
0.224828 0.224828 0.781436
0.223563 0.223563 1.000000
0.215731 0.492261 0.000000
0.214591 0.491120 0.214591
0.213294 0.489823 0.489823
0.211980 0.488510 0.768588
0.210715 0.487245 1.000000
0.202719 0.759327 0.000000
0.201578 0.758186 0.201578
0.200281 0.756889 0.476811
0.198968 0.755576 0.755576
0.197703 0.754311 1.000000
0.190192 1.000000 0.000000
0.189051 1.000000 0.189051
0.187754 1.000000 0.464284
0.186441 1.000000 0.743049
0.185176 1.000000 1.000000
0.512590 0.000000 0.000000
0.511450 0.000000 0.234920
0.510153 0.000000 0.510153
0.508839 0.000000 0.788917
0.507574 0.000000 1.000000
0.501290 0.224760 0.000000
0.500149 0.223619 0.223619
0.498852 0.222322 0.498852
0.497538 0.221009 0.777616
0.496274 0.219744 1.000000
0.488442 0.488442 0.000000
0.487301 0.487301 0.210772
0.486004 0.486004 0.486004
0.484691 0.484691 0.764769
0.483426 0.483426 1.000000
0.475430 0.755508 0.000000
0.474289 0.754367 0.197759
0.472992 0.753070 0.472992
0.471678 0.751757 0.751757
0.470414 0.750492 1.000000
0.462903 1.000000 0.000000
0.461762 1.000000 0.185232
0.460465 1.000000 0.460465
0.459151 1.000000 0.739230
0.457887 1.000000 1.000000
0.788801 0.000000 0.000000
0.787660 0.000000 0.231052
0.786363 0.000000 0.506285
0.785049 0.000000 0.785049
0.783785 0.000000 1.000000
0.777500 0.220892 0.000000
0.776359 0.219751 0.219751
0.775062 0.218454 0.494984
0.773748 0.217140 0.773748
0.772484 0.215876 1.000000
0.764652 0.484574 0.000000
0.763511 0.483433 0.206904
0.762214 0.482136 0.482136
0.760901 0.480823 0.760901
0.759636 0.479558 1.000000
0.751640 0.751640 0.000000
0.750499 0.750499 0.193891
0.749202 0.749202 0.469124
0.747888 0.747888 0.747888
0.746624 0.746624 1.000000
0.739113 1.000000 0.000000
0.737972 1.000000 0.181364
0.736675 1.000000 0.456597
0.735362 1.000000 0.735362
0.734097 1.000000 1.000000
1.000000 0.000000 0.000000
1.000000 0.000000 0.227328
1.000000 0.000000 0.502561
1.000000 0.000000 0.781326
1.000000 0.000000 1.000000
1.000000 0.217168 0.000000
1.000000 0.216027 0.216027
1.000000 0.214730 0.491260
1.000000 0.213417 0.770025
1.000000 0.212152 1.000000
1.000000 0.480850 0.000000
1.000000 0.479709 0.203180
1.000000 0.478412 0.478412
1.000000 0.477099 0.757177
1.000000 0.475834 1.000000
1.000000 0.747916 0.000000
1.000000 0.746775 0.190167
1.000000 0.745478 0.465400
1.000000 0.744165 0.744165
1.000000 0.742900 1.000000
1.000000 1.000000 0.000000
1.000000 1.000000 0.177641
1.000000 1.000000 0.452873
1.000000 1.000000 0.731638
1.000000 1.000000 1.000000
