skills/editops-orchestrator/assets/grade/luts/trailer_punch_v01.cube
TITLE "trailer_punch_v01"
LUT_3D_SIZE 17
DOMAIN_MIN 0.0 0.0 0.0
DOMAIN_MAX 1.0 1.0 1.0
0.000000 0.000000 0.000000
0.000000 0.000000 0.043864
0.000000 0.000000 0.109666
0.000000 0.000000 0.176307
0.000000 0.000000 0.243458
0.000000 0.000000 0.310979
0.000000 0.000000 0.378791
0.000000 0.000000 0.446842
0.000000 0.000000 0.515099
0.000000 0.000000 0.583533
0.000000 0.000000 0.652126
0.000000 0.000000 0.720861
0.000000 0.000000 0.789725
0.000000 0.000000 0.858706
0.000000 0.000000 0.927797
0.000000 0.000000 0.996989
0.000000 0.000000 1.000000
0.000000 0.042261 0.000000
0.000000 0.042081 0.042081
0.000000 0.041811 0.107883
0.000000 0.041538 0.174524
0.000000 0.041262 0.241675
0.000000 0.040985 0.309196
0.000000 0.040707 0.377007
0.000000 0.040427 0.445059
0.000000 0.040147 0.513316
0.000000 0.039866 0.581750
0.000000 0.039585 0.650343
0.000000 0.039303 0.719078
0.000000 0.039020 0.787942
0.000000 0.038737 0.856923
0.000000 0.038454 0.926014
0.000000 0.038170 0.995206
0.000000 0.037929 1.000000
0.000000 0.105659 0.000000
0.000000 0.105479 0.039406
0.000000 0.105209 0.105209
0.000000 0.104935 0.171849
0.000000 0.104660 0.239000
0.000000 0.104383 0.306521
0.000000 0.104104 0.374333
0.000000 0.103825 0.442384
0.000000 0.103545 0.510641
0.000000 0.103264 0.579075
0.000000 0.102983 0.647668
0.000000 0.102701 0.716403
0.000000 0.102418 0.785267
0.000000 0.102135 0.854249
0.000000 0.101851 0.923339
0.000000 0.101567 0.992531
0.000000 0.101327 1.000000
0.000000 0.169864 0.000000
0.000000 0.169684 0.036697
0.000000 0.169414 0.102500
0.000000 0.169141 0.169141
0.000000 0.168865 0.236291
0.000000 0.168588 0.303812
0.000000 0.168310 0.371624
0.000000 0.168030 0.439676
0.000000 0.167750 0.507932
0.000000 0.167470 0.576367
0.000000 0.167188 0.644959
0.000000 0.166906 0.713694
0.000000 0.166623 0.782558
0.000000 0.166340 0.851540
0.000000 0.166057 0.920630
0.000000 0.165773 0.989822
0.000000 0.165532 1.000000
0.000000 0.234561 0.000000
0.000000 0.234381 0.033968
0.000000 0.234111 0.099770
0.000000 0.233837 0.166411
0.000000 0.233562 0.233562
0.000000 0.233285 0.301083
0.000000 0.233006 0.368894
0.000000 0.232727 0.436946
0.000000 0.232447 0.505202
0.000000 0.232166 0.573637
0.000000 0.231885 0.642230
0.000000 0.231603 0.710965
0.000000 0.231320 0.779828
0.000000 0.231037 0.848810
0.000000 0.230754 0.917901
0.000000 0.230470 0.987093
0.000000 0.230229 1.000000
0.000000 0.299614 0.000000
0.000000 0.299434 0.031223
0.000000 0.299164 0.097025
0.000000 0.298890 0.163666
0.000000 0.298615 0.230817
0.000000 0.298338 0.298338
0.000000 0.298060 0.366149
0.000000 0.297780 0.434201
0.000000 0.297500 0.502458
0.000000 0.297219 0.570892
0.000000 0.296938 0.639485
0.000000 0.296656 0.708220
0.000000 0.296373 0.777084
0.000000 0.296090 0.846065
0.000000 0.295807 0.915156
0.000000 0.295523 0.984348
0.000000 0.295282 1.000000
0.000000 0.364947 0.000000
0.000000 0.364767 0.028467
0.000000 0.364497 0.094269
0.000000 0.364224 0.160910
0.000000 0.363948 0.228061
0.000000 0.363671 0.295581
0.000000 0.363393 0.363393
0.000000 0.363114 0.431445
0.000000 0.362834 0.499701
0.000000 0.362553 0.568136
0.000000 0.362271 0.636729
0.000000 0.361989 0.705463
0.000000 0.361707 0.774327
0.000000 0.361424 0.843309
0.000000 0.361140 0.912400
0.000000 0.360856 0.981592
0.000000 0.360615 1.000000
0.000000 0.430512 0.000000
0.000000 0.430332 0.025700
0.000000 0.430062 0.091503
0.000000 0.429789 0.158144
0.000000 0.429513 0.225294
0.000000 0.429236 0.292815
0.000000 0.428958 0.360627
0.000000 0.428679 0.428679
0.000000 0.428398 0.496935
0.000000 0.428118 0.565370
0.000000 0.427836 0.633962
0.000000 0.427554 0.702697
0.000000 0.427271 0.771561
0.000000 0.426988 0.840543
0.000000 0.426705 0.909633
0.000000 0.426421 0.978825
0.000000 0.426180 1.000000
0.000000 0.496274 0.000000
0.000000 0.496094 0.022926
0.000000 0.495824 0.088728
0.000000 0.495551 0.155369
0.000000 0.495275 0.222520
0.000000 0.494998 0.290041
0.000000 0.494720 0.357852
0.000000 0.494440 0.425904
0.000000 0.494160 0.494160
0.000000 0.493879 0.562595
0.000000 0.493598 0.631188
0.000000 0.493316 0.699923
0.000000 0.493033 0.768786
0.000000 0.492750 0.837768
0.000000 0.492467 0.906859
0.000000 0.492183 0.976051
0.000000 0.491942 1.000000
0.000000 0.562208 0.000000
0.000000 0.562028 0.020144
0.000000 0.561758 0.085946
0.000000 0.561484 0.152587
0.000000 0.561209 0.219738
0.000000 0.560932 0.287259
0.000000 0.560653 0.355070
0.000000 0.560374 0.423122
0.000000 0.560094 0.491379
0.000000 0.559813 0.559813
0.000000 0.559532 0.628406
0.000000 0.559250 0.697141
0.000000 0.558967 0.766004
0.000000 0.558684 0.834986
0.000000 0.558400 0.904077
0.000000 0.558117 0.973269
0.000000 0.557876 1.000000
0.000000 0.628294 0.000000
0.000000 0.628114 0.017356
0.000000 0.627844 0.083158
0.000000 0.627570 0.149799
0.000000 0.627295 0.216950
0.000000 0.627018 0.284471
0.000000 0.626739 0.352282
0.000000 0.626460 0.420334
0.000000 0.626180 0.488590
0.000000 0.625899 0.557025
0.000000 0.625618 0.625618
0.000000 0.625336 0.694353
0.000000 0.625053 0.763216
0.000000 0.624770 0.832198
0.000000 0.624487 0.901289
0.000000 0.624203 0.970481
0.000000 0.623962 1.000000
0.000000 0.694517 0.000000
0.000000 0.694337 0.014562
0.000000 0.694067 0.080364
0.000000 0.693793 0.147005
0.000000 0.693518 0.214156
0.000000 0.693240 0.281676
0.000000 0.692962 0.349488
0.000000 0.692683 0.417540
0.000000 0.692403 0.485796
0.000000 0.692122 0.554231
0.000000 0.691841 0.622824
0.000000 0.691559 0.691559
0.000000 0.691276 0.760422
0.000000 0.690993 0.829404
0.000000 0.690709 0.898495
0.000000 0.690425 0.967687
0.000000 0.690185 1.000000
0.000000 0.760864 0.000000
0.000000 0.760684 0.011762
0.000000 0.760414 0.077565
0.000000 0.760140 0.144206
0.000000 0.759865 0.211357
0.000000 0.759588 0.278877
0.000000 0.759309 0.346689
0.000000 0.759030 0.414741
0.000000 0.758750 0.482997
0.000000 0.758469 0.551432
0.000000 0.758188 0.620024
0.000000 0.757906 0.688759
0.000000 0.757623 0.757623
0.000000 0.757340 0.826605
0.000000 0.757056 0.895696
0.000000 0.756772 0.964887
0.000000 0.756532 1.000000
0.000000 0.827325 0.000000
0.000000 0.827145 0.008958
0.000000 0.826874 0.074761
0.000000 0.826601 0.141402
0.000000 0.826325 0.208553
0.000000 0.826048 0.276073
0.000000 0.825770 0.343885
0.000000 0.825491 0.411937
0.000000 0.825211 0.480193
0.000000 0.824930 0.548628
0.000000 0.824648 0.617220
0.000000 0.824366 0.685955
0.000000 0.824084 0.754819
0.000000 0.823801 0.823801
0.000000 0.823517 0.892892
0.000000 0.823233 0.962083
0.000000 0.822993 1.000000
0.000000 0.893890 0.000000
0.000000 0.893710 0.006150
0.000000 0.893440 0.071952
0.000000 0.893167 0.138593
0.000000 0.892891 0.205744
0.000000 0.892614 0.273265
0.000000 0.892336 0.341076
0.000000 0.892057 0.409128
0.000000 0.891777 0.477384
0.000000 0.891496 0.545819
0.000000 0.891214 0.614412
0.000000 0.890932 0.683147
0.000000 0.890650 0.752010
0.000000 0.890367 0.820992
0.000000 0.890083 0.890083
0.000000 0.889799 0.959275
0.000000 0.889558 1.000000
0.000000 0.960554 0.000000
0.000000 0.960374 0.003337
0.000000 0.960104 0.069140
0.000000 0.959830 0.135781
0.000000 0.959555 0.202931
0.000000 0.959277 0.270452
0.000000 0.958999 0.338264
0.000000 0.958720 0.406316
0.000000 0.958440 0.474572
0.000000 0.958159 0.543007
0.000000 0.957878 0.611599
0.000000 0.957595 0.680334
0.000000 0.957313 0.749198
0.000000 0.957030 0.818180
0.000000 0.956746 0.887270
0.000000 0.956462 0.956462
0.000000 0.956222 1.000000
0.000000 1.000000 0.000000
0.000000 1.000000 0.000952
0.000000 1.000000 0.066754
0.000000 1.000000 0.133395
0.000000 1.000000 0.200546
0.000000 1.000000 0.268067
0.000000 1.000000 0.335879
0.000000 1.000000 0.403930
0.000000 1.000000 0.472187
0.000000 1.000000 0.540621
0.000000 1.000000 0.609214
0.000000 1.000000 0.677949
0.000000 1.000000 0.746813
0.000000 1.000000 0.815794
0.000000 1.000000 0.884885
0.000000 1.000000 0.954077
0.000000 1.000000 1.000000
0.043514 0.000000 0.000000
0.043334 0.000000 0.043334
0.043064 0.000000 0.109136
0.042791 0.000000 0.175777
0.042515 0.000000 0.242928
0.042238 0.000000 0.310449
0.041960 0.000000 0.378260
0.041680 0.000000 0.446312
0.041400 0.000000 0.514569
0.041119 0.000000 0.583003
0.040838 0.000000 0.651596
0.040556 0.000000 0.720331
0.040273 0.000000 0.789195
0.039990 0.000000 0.858176
0.039707 0.000000 0.927267
0.039423 0.000000 0.996459
0.039182 0.000000 1.000000
0.041731 0.041731 0.000000
0.041551 0.041551 0.041551
0.041281 0.041281 0.107353
0.041007 0.041007 0.173994
0.040732 0.040732 0.241145
0.040455 0.040455 0.308666
0.040177 0.040177 0.376477
0.039897 0.039897 0.444529
0.039617 0.039617 0.512786
0.039336 0.039336 0.581220
0.039055 0.039055 0.649813
0.038773 0.038773 0.718548
0.038490 0.038490 0.787412
0.038207 0.038207 0.856393
0.037924 0.037924 0.925484
0.037640 0.037640 0.994676
0.037399 0.037399 1.000000
0.039056 0.105129 0.000000
0.038876 0.104949 0.038876
0.038606 0.104679 0.104679
0.038333 0.104405 0.171319
0.038057 0.104130 0.238470
0.037780 0.103852 0.305991
0.037502 0.103574 0.373803
0.037223 0.103295 0.441854
0.036942 0.103015 0.510111
0.036662 0.102734 0.578545
0.036380 0.102453 0.647138
0.036098 0.102171 0.715873
0.035815 0.101888 0.784737
0.035532 0.101605 0.853719
0.035249 0.101321 0.922809
0.034965 0.101037 0.992001
0.034724 0.100797 1.000000
0.036347 0.169334 0.000000
0.036167 0.169154 0.036167
0.035897 0.168884 0.101970
0.035624 0.168611 0.168611
0.035348 0.168335 0.235761
0.035071 0.168058 0.303282
0.034793 0.167780 0.371094
0.034514 0.167500 0.439146
0.034234 0.167220 0.507402
0.033953 0.166939 0.575837
0.033671 0.166658 0.644429
0.033389 0.166376 0.713164
0.033107 0.166093 0.782028
0.032824 0.165810 0.851010
0.032540 0.165527 0.920100
0.032256 0.165243 0.989292
0.032015 0.165002 1.000000
0.033618 0.234031 0.000000
0.033438 0.233851 0.033438
0.033168 0.233581 0.099240
0.032894 0.233307 0.165881
0.032619 0.233032 0.233032
0.032342 0.232755 0.300552
0.032063 0.232476 0.368364
0.031784 0.232197 0.436416
0.031504 0.231917 0.504672
0.031223 0.231636 0.573107
0.030942 0.231355 0.641700
0.030660 0.231073 0.710435
0.030377 0.230790 0.779298
0.030094 0.230507 0.848280
0.029810 0.230224 0.917371
0.029526 0.229940 0.986563
0.029286 0.229699 1.000000
0.030873 0.299084 0.000000
0.030693 0.298904 0.030693
0.030423 0.298634 0.096495
0.030149 0.298360 0.163136
0.029874 0.298085 0.230287
0.029597 0.297808 0.297808
0.029319 0.297530 0.365619
0.029039 0.297250 0.433671
0.028759 0.296970 0.501928
0.028478 0.296689 0.570362
0.028197 0.296408 0.638955
0.027915 0.296126 0.707690
0.027632 0.295843 0.776554
0.027349 0.295560 0.845535
0.027066 0.295277 0.914626
0.026782 0.294993 0.983818
0.026541 0.294752 1.000000
0.028116 0.364417 0.000000
0.027936 0.364237 0.027936
0.027666 0.363967 0.093739
0.027393 0.363694 0.160380
0.027117 0.363418 0.227531
0.026840 0.363141 0.295051
0.026562 0.362863 0.362863
0.026283 0.362584 0.430915
0.026003 0.362304 0.499171
0.025722 0.362023 0.567606
0.025440 0.361741 0.636199
0.025158 0.361459 0.704933
0.024876 0.361177 0.773797
0.024593 0.360894 0.842779
0.024309 0.360610 0.911870
0.024025 0.360326 0.981062
0.023784 0.360085 1.000000
0.025350 0.429982 0.000000
0.025170 0.429802 0.025170
0.024900 0.429532 0.090973
0.024627 0.429259 0.157614
0.024351 0.428983 0.224764
0.024074 0.428706 0.292285
0.023796 0.428428 0.360097
0.023517 0.428148 0.428148
0.023237 0.427868 0.496405
0.022956 0.427588 0.564840
0.022674 0.427306 0.633432
0.022392 0.427024 0.702167
0.022110 0.426741 0.771031
0.021826 0.426458 0.840013
0.021543 0.426175 0.909103
0.021259 0.425891 0.978295
0.021018 0.425650 1.000000
0.022576 0.495744 0.000000
0.022396 0.495564 0.022396
0.022126 0.495294 0.088198
0.021852 0.495021 0.154839
0.021577 0.494745 0.221990
0.021300 0.494468 0.289511
0.021021 0.494190 0.357322
0.020742 0.493910 0.425374
0.020462 0.493630 0.493630
0.020181 0.493349 0.562065
0.019900 0.493068 0.630658
0.019618 0.492786 0.699393
0.019335 0.492503 0.768256
0.019052 0.492220 0.837238
0.018768 0.491937 0.906329
0.018484 0.491653 0.975521
0.018244 0.491412 1.000000
0.019794 0.561678 0.000000
0.019614 0.561498 0.019614
0.019344 0.561228 0.085416
0.019070 0.560954 0.152057
0.018795 0.560679 0.219208
0.018518 0.560402 0.286729
0.018239 0.560123 0.354540
0.017960 0.559844 0.422592
0.017680 0.559564 0.490848
0.017399 0.559283 0.559283
0.017118 0.559002 0.627876
0.016836 0.558720 0.696611
0.016553 0.558437 0.765474
0.016270 0.558154 0.834456
0.015987 0.557870 0.903547
0.015703 0.557587 0.972739
0.015462 0.557346 1.000000
0.017006 0.627764 0.000000
0.016826 0.627584 0.016826
0.016556 0.627314 0.082628
0.016282 0.627040 0.149269
0.016007 0.626765 0.216420
0.015730 0.626488 0.283940
0.015451 0.626209 0.351752
0.015172 0.625930 0.419804
0.014892 0.625650 0.488060
0.014611 0.625369 0.556495
0.014330 0.625088 0.625088
0.014048 0.624806 0.693823
0.013765 0.624523 0.762686
0.013482 0.624240 0.831668
0.013198 0.623956 0.900759
0.012914 0.623673 0.969951
0.012674 0.623432 1.000000
0.014212 0.693987 0.000000
0.014032 0.693807 0.014032
0.013762 0.693537 0.079834
0.013488 0.693263 0.146475
0.013213 0.692988 0.213626
0.012936 0.692710 0.281146
0.012657 0.692432 0.348958
0.012378 0.692153 0.417010
0.012098 0.691873 0.485266
0.011817 0.691592 0.553701
0.011536 0.691311 0.622294
0.011254 0.691028 0.691028
0.010971 0.690746 0.759892
0.010688 0.690463 0.828874
0.010404 0.690179 0.897965
0.010120 0.689895 0.967157
0.009880 0.689655 1.000000
0.011412 0.760334 0.000000
0.011232 0.760154 0.011232
0.010962 0.759884 0.077035
0.010689 0.759610 0.143676
0.010413 0.759335 0.210827
0.010136 0.759058 0.278347
0.009858 0.758779 0.346159
0.009579 0.758500 0.414211
0.009299 0.758220 0.482467
0.009018 0.757939 0.550902
0.008736 0.757658 0.619494
0.008454 0.757376 0.688229
0.008172 0.757093 0.757093
0.007889 0.756810 0.826075
0.007605 0.756526 0.895166
0.007321 0.756242 0.964357
0.007080 0.756002 1.000000
0.008608 0.826794 0.000000
0.008428 0.826614 0.008428
0.008158 0.826344 0.074231
0.007885 0.826071 0.140872
0.007609 0.825795 0.208022
0.007332 0.825518 0.275543
0.007054 0.825240 0.343355
0.006775 0.824961 0.411407
0.006495 0.824681 0.479663
0.006214 0.824400 0.548098
0.005932 0.824118 0.616690
0.005650 0.823836 0.685425
0.005368 0.823554 0.754289
0.005085 0.823271 0.823271
0.004801 0.822987 0.892362
0.004517 0.822703 0.961553
0.004276 0.822462 1.000000
0.005800 0.893360 0.000000
0.005620 0.893180 0.005620
0.005350 0.892910 0.071422
0.005076 0.892637 0.138063
0.004801 0.892361 0.205214
0.004524 0.892084 0.272735
0.004245 0.891806 0.340546
0.003966 0.891527 0.408598
0.003686 0.891247 0.476854
0.003405 0.890966 0.545289
0.003124 0.890684 0.613882
0.002842 0.890402 0.682617
0.002559 0.890120 0.751480
0.002276 0.889837 0.820462
0.001993 0.889553 0.889553
0.001709 0.889269 0.958745
0.001468 0.889028 1.000000
0.002987 0.960024 0.000000
0.002807 0.959844 0.002807
0.002537 0.959574 0.068610
0.002264 0.959300 0.135251
0.001988 0.959024 0.202401
0.001711 0.958747 0.269922
0.001433 0.958469 0.337734
0.001154 0.958190 0.405785
0.000874 0.957910 0.474042
0.000593 0.957629 0.542477
0.000311 0.957347 0.611069
0.000029 0.957065 0.679804
0.000000 0.956783 0.748668
0.000000 0.956500 0.817650
0.000000 0.956216 0.886740
0.000000 0.955932 0.955932
0.000000 0.955692 1.000000
0.000602 1.000000 0.000000
0.000422 1.000000 0.000422
0.000152 1.000000 0.066224
0.000000 1.000000 0.132865
0.000000 1.000000 0.200016
0.000000 1.000000 0.267537
0.000000 1.000000 0.335348
0.000000 1.000000 0.403400
0.000000 1.000000 0.471657
0.000000 1.000000 0.540091
0.000000 1.000000 0.608684
0.000000 1.000000 0.677419
0.000000 1.000000 0.746283
0.000000 1.000000 0.815264
0.000000 1.000000 0.884355
0.000000 1.000000 0.953547
0.000000 1.000000 1.000000
0.108791 0.000000 0.000000
0.108611 0.000000 0.042539
0.108341 0.000000 0.108341
0.108068 0.000000 0.174982
0.107792 0.000000 0.242133
0.107515 0.000000 0.309654
0.107237 0.000000 0.377465
0.106958 0.000000 0.445517
0.106678 0.000000 0.513774
0.106397 0.000000 0.582208
0.106115 0.000000 0.650801
0.105833 0.000000 0.719536
0.105551 0.000000 0.788399
0.105268 0.000000 0.857381
0.104984 0.000000 0.926472
0.104700 0.000000 0.995664
0.104459 0.000000 1.000000
0.107008 0.040936 0.000000
0.106828 0.040756 0.040756
0.106558 0.040486 0.106558
0.106285 0.040212 0.173199
0.106009 0.039937 0.240350
0.105732 0.039660 0.307871
0.105454 0.039381 0.375682
0.105175 0.039102 0.443734
0.104895 0.038822 0.511990
0.104614 0.038541 0.580425
0.104332 0.038260 0.649018
0.104050 0.037978 0.717753
0.103768 0.037695 0.786616
0.103485 0.037412 0.855598
0.103201 0.037129 0.924689
0.102917 0.036845 0.993881
0.102676 0.036604 1.000000
0.104333 0.104333 0.000000
0.104153 0.104153 0.038081
0.103883 0.103883 0.103883
0.103610 0.103610 0.170524
0.103334 0.103334 0.237675
0.103057 0.103057 0.305196
0.102779 0.102779 0.373008
0.102500 0.102500 0.441059
0.102220 0.102220 0.509316
0.101939 0.101939 0.577750
0.101657 0.101657 0.646343
0.101375 0.101375 0.715078
0.101093 0.101093 0.783942
0.100810 0.100810 0.852923
0.100526 0.100526 0.922014
0.100242 0.100242 0.991206
0.100001 0.100001 1.000000
0.101625 0.168539 0.000000
0.101445 0.168359 0.035372
0.101175 0.168089 0.101175
0.100901 0.167815 0.167815
0.100626 0.167540 0.234966
0.100348 0.167263 0.302487
0.100070 0.166985 0.370299
0.099791 0.166705 0.438350
0.099511 0.166425 0.506607
0.099230 0.166144 0.575041
0.098949 0.165863 0.643634
0.098666 0.165581 0.712369
0.098384 0.165298 0.781233
0.098101 0.165015 0.850215
0.097817 0.164732 0.919305
0.097533 0.164448 0.988497
0.097293 0.164207 1.000000
0.098895 0.233236 0.000000
0.098715 0.233056 0.032643
0.098445 0.232786 0.098445
0.098171 0.232512 0.165086
0.097896 0.232237 0.232237
0.097619 0.231960 0.299757
0.097341 0.231681 0.367569
0.097061 0.231402 0.435621
0.096781 0.231122 0.503877
0.096500 0.230841 0.572312
0.096219 0.230560 0.640905
0.095937 0.230278 0.709639
0.095654 0.229995 0.778503
0.095371 0.229712 0.847485
0.095088 0.229428 0.916576
0.094804 0.229145 0.985768
0.094563 0.228904 1.000000
0.096150 0.298289 0.000000
0.095970 0.298109 0.029898
0.095700 0.297839 0.095700
0.095427 0.297565 0.162341
0.095151 0.297290 0.229492
0.094874 0.297013 0.297013
0.094596 0.296734 0.364824
0.094317 0.296455 0.432876
0.094037 0.296175 0.501132
0.093756 0.295894 0.569567
0.093474 0.295613 0.638160
0.093192 0.295331 0.706895
0.092910 0.295048 0.775758
0.092627 0.294765 0.844740
0.092343 0.294482 0.913831
0.092059 0.294198 0.983023
0.091818 0.293957 1.000000
0.093394 0.363622 0.000000
0.093214 0.363442 0.027141
0.092944 0.363172 0.092944
0.092670 0.362899 0.159585
0.092395 0.362623 0.226736
0.092118 0.362346 0.294256
0.091839 0.362068 0.362068
0.091560 0.361789 0.430120
0.091280 0.361509 0.498376
0.090999 0.361228 0.566811
0.090718 0.360946 0.635403
0.090436 0.360664 0.704138
0.090153 0.360382 0.773002
0.089870 0.360098 0.841984
0.089587 0.359815 0.911075
0.089303 0.359531 0.980266
0.089062 0.359290 1.000000
0.090628 0.429187 0.000000
0.090448 0.429007 0.024375
0.090178 0.428737 0.090178
0.089904 0.428464 0.156818
0.089629 0.428188 0.223969
0.089351 0.427911 0.291490
0.089073 0.427633 0.359302
0.088794 0.427353 0.427353
0.088514 0.427073 0.495610
0.088233 0.426792 0.564044
0.087952 0.426511 0.632637
0.087669 0.426229 0.701372
0.087387 0.425946 0.770236
0.087104 0.425663 0.839218
0.086820 0.425380 0.908308
0.086536 0.425096 0.977500
0.086296 0.424855 1.000000
0.087853 0.494949 0.000000
0.087673 0.494769 0.021601
0.087403 0.494499 0.087403
0.087130 0.494225 0.154044
0.086854 0.493950 0.221195
0.086577 0.493673 0.288715
0.086299 0.493395 0.356527
0.086019 0.493115 0.424579
0.085739 0.492835 0.492835
0.085458 0.492554 0.561270
0.085177 0.492273 0.629863
0.084895 0.491991 0.698597
0.084612 0.491708 0.767461
0.084329 0.491425 0.836443
0.084046 0.491142 0.905534
0.083762 0.490858 0.974726
0.083521 0.490617 1.000000
0.085071 0.560883 0.000000
0.084891 0.560703 0.018819
0.084621 0.560433 0.084621
0.084348 0.560159 0.151262
0.084072 0.559884 0.218413
0.083795 0.559607 0.285934
0.083517 0.559328 0.353745
0.083238 0.559049 0.421797
0.082957 0.558769 0.490053
0.082677 0.558488 0.558488
0.082395 0.558207 0.627081
0.082113 0.557925 0.695816
0.081831 0.557642 0.764679
0.081547 0.557359 0.833661
0.081264 0.557075 0.902752
0.080980 0.556791 0.971944
0.080739 0.556551 1.000000
0.082283 0.626969 0.000000
0.082103 0.626789 0.016031
0.081833 0.626519 0.081833
0.081559 0.626245 0.148474
0.081284 0.625970 0.215625
0.081007 0.625693 0.283145
0.080729 0.625414 0.350957
0.080449 0.625135 0.419009
0.080169 0.624855 0.487265
0.079888 0.624574 0.555700
0.079607 0.624293 0.624293
0.079325 0.624011 0.693027
0.079042 0.623728 0.761891
0.078759 0.623445 0.830873
0.078476 0.623161 0.899964
0.078192 0.622877 0.969156
0.077951 0.622637 1.000000
0.079489 0.693191 0.000000
0.079309 0.693011 0.013237
0.079039 0.692741 0.079039
0.078765 0.692468 0.145680
0.078490 0.692192 0.212831
0.078213 0.691915 0.280351
0.077935 0.691637 0.348163
0.077655 0.691358 0.416215
0.077375 0.691078 0.484471
0.077094 0.690797 0.552906
0.076813 0.690515 0.621499
0.076531 0.690233 0.690233
0.076248 0.689951 0.759097
0.075965 0.689668 0.828079
0.075682 0.689384 0.897170
0.075398 0.689100 0.966362
0.075157 0.688859 1.000000
0.076690 0.759539 0.000000
0.076510 0.759359 0.010437
0.076240 0.759089 0.076240
0.075966 0.758815 0.142881
0.075691 0.758539 0.210031
0.075414 0.758262 0.277552
0.075135 0.757984 0.345364
0.074856 0.757705 0.413416
0.074576 0.757425 0.481672
0.074295 0.757144 0.550107
0.074014 0.756863 0.618699
0.073732 0.756580 0.687434
0.073449 0.756298 0.756298
0.073166 0.756015 0.825280
0.072882 0.755731 0.894370
0.072598 0.755447 0.963562
0.072358 0.755207 1.000000
0.073886 0.825999 0.000000
0.073706 0.825819 0.007633
0.073436 0.825549 0.073436
0.073162 0.825276 0.140077
0.072887 0.825000 0.207227
0.072610 0.824723 0.274748
0.072331 0.824445 0.342560
0.072052 0.824166 0.410611
0.071772 0.823886 0.478868
0.071491 0.823605 0.547303
0.071210 0.823323 0.615895
0.070928 0.823041 0.684630
0.070645 0.822759 0.753494
0.070362 0.822476 0.822476
0.070078 0.822192 0.891566
0.069794 0.821908 0.960758
0.069554 0.821667 1.000000
0.071077 0.892565 0.000000
0.070897 0.892385 0.004825
0.070627 0.892115 0.070627
0.070354 0.891842 0.137268
0.070078 0.891566 0.204419
0.069801 0.891289 0.271940
0.069523 0.891011 0.339751
0.069244 0.890732 0.407803
0.068963 0.890451 0.476059
0.068683 0.890171 0.544494
0.068401 0.889889 0.613087
0.068119 0.889607 0.681822
0.067836 0.889325 0.750685
0.067553 0.889041 0.819667
0.067270 0.888758 0.888758
0.066986 0.888474 0.957950
0.066745 0.888233 1.000000
0.068265 0.959228 0.000000
0.068085 0.959048 0.002012
0.067815 0.958778 0.067815
0.067541 0.958505 0.134455
0.067266 0.958229 0.201606
0.066988 0.957952 0.269127
0.066710 0.957674 0.336939
0.066431 0.957395 0.404990
0.066151 0.957115 0.473247
0.065870 0.956834 0.541681
0.065589 0.956552 0.610274
0.065306 0.956270 0.679009
0.065024 0.955988 0.747873
0.064741 0.955705 0.816855
0.064457 0.955421 0.885945
0.064173 0.955137 0.955137
0.063933 0.954896 1.000000
0.065879 1.000000 0.000000
0.065699 1.000000 0.000000
0.065429 1.000000 0.065429
0.065156 1.000000 0.132070
0.064880 1.000000 0.199221
0.064603 1.000000 0.266742
0.064325 1.000000 0.334553
0.064046 1.000000 0.402605
0.063766 1.000000 0.470862
0.063485 1.000000 0.539296
0.063203 1.000000 0.607889
0.062921 1.000000 0.676624
0.062639 1.000000 0.745487
0.062356 1.000000 0.814469
0.062072 1.000000 0.883560
0.061788 1.000000 0.952752
0.061547 1.000000 1.000000
0.174900 0.000000 0.000000
0.174720 0.000000 0.041734
0.174450 0.000000 0.107536
0.174177 0.000000 0.174177
0.173901 0.000000 0.241328
0.173624 0.000000 0.308848
0.173346 0.000000 0.376660
0.173067 0.000000 0.444712
0.172787 0.000000 0.512968
0.172506 0.000000 0.581403
0.172224 0.000000 0.649996
0.171942 0.000000 0.718731
0.171660 0.000000 0.787594
0.171377 0.000000 0.856576
0.171093 0.000000 0.925667
0.170809 0.000000 0.994859
0.170568 0.000000 1.000000
0.173117 0.040131 0.000000
