skills/editops-orchestrator/assets/grade/luts/trailer_punch_v14.cube
TITLE "trailer_punch_v14"
LUT_3D_SIZE 9
DOMAIN_MIN 0.0 0.0 0.0
DOMAIN_MAX 1.0 1.0 1.0
0.000000 0.000000 0.000000
0.000000 0.000000 0.071023
0.000000 0.000000 0.221811
0.000000 0.000000 0.379320
0.000000 0.000000 0.540800
0.000000 0.000000 0.705143
0.000000 0.000000 0.871739
0.000000 0.000000 1.000000
0.000000 0.000000 1.000000
0.000000 0.063874 0.000000
0.000000 0.063071 0.063071
0.000000 0.061367 0.213859
0.000000 0.059586 0.371368
0.000000 0.057761 0.532847
0.000000 0.055904 0.697191
0.000000 0.054020 0.863787
0.000000 0.052116 1.000000
0.000000 0.050650 1.000000
0.000000 0.199482 0.000000
0.000000 0.198680 0.046188
0.000000 0.196975 0.196975
0.000000 0.195195 0.354485
0.000000 0.193370 0.515964
0.000000 0.191512 0.680307
0.000000 0.189629 0.846904
0.000000 0.187725 1.000000
0.000000 0.186258 1.000000
0.000000 0.341136 0.000000
0.000000 0.340334 0.028552
0.000000 0.338629 0.179339
0.000000 0.336849 0.336849
0.000000 0.335024 0.498328
0.000000 0.333166 0.662671
0.000000 0.331283 0.829268
0.000000 0.329379 0.997727
0.000000 0.327912 1.000000
0.000000 0.486360 0.000000
0.000000 0.485558 0.010471
0.000000 0.483853 0.161259
0.000000 0.482073 0.318768
0.000000 0.480248 0.480248
0.000000 0.478390 0.644591
0.000000 0.476507 0.811187
0.000000 0.474603 0.979647
0.000000 0.473136 1.000000
0.000000 0.634160 0.000000
0.000000 0.633357 0.000000
0.000000 0.631653 0.142858
0.000000 0.629873 0.300367
0.000000 0.628047 0.461847
0.000000 0.626190 0.626190
0.000000 0.624307 0.792786
0.000000 0.622403 0.961246
0.000000 0.620936 1.000000
0.000000 0.783986 0.000000
0.000000 0.783184 0.000000
0.000000 0.781479 0.124204
0.000000 0.779699 0.281714
0.000000 0.777874 0.443193
0.000000 0.776016 0.607536
0.000000 0.774133 0.774133
0.000000 0.772229 0.942592
0.000000 0.770762 1.000000
0.000000 0.935488 0.000000
0.000000 0.934685 0.000000
0.000000 0.932981 0.105342
0.000000 0.931201 0.262852
0.000000 0.929375 0.424331
0.000000 0.927518 0.588674
0.000000 0.925635 0.755271
0.000000 0.923730 0.923730
0.000000 0.922264 1.000000
0.000000 1.000000 0.000000
0.000000 1.000000 0.000000
0.000000 1.000000 0.090816
0.000000 1.000000 0.248326
0.000000 1.000000 0.409805
0.000000 1.000000 0.574148
0.000000 1.000000 0.740745
0.000000 1.000000 0.909204
0.000000 1.000000 1.000000
0.069462 0.000000 0.000000
0.068660 0.000000 0.068660
0.066955 0.000000 0.219447
0.065175 0.000000 0.376957
0.063350 0.000000 0.538436
0.061492 0.000000 0.702779
0.059609 0.000000 0.869375
0.057705 0.000000 1.000000
0.056238 0.000000 1.000000
0.061510 0.061510 0.000000
0.060707 0.060707 0.060707
0.059003 0.059003 0.211495
0.057222 0.057222 0.369004
0.055397 0.055397 0.530483
0.053540 0.053540 0.694827
0.051657 0.051657 0.861423
0.049752 0.049752 1.000000
0.048286 0.048286 1.000000
0.044627 0.197119 0.000000
0.043824 0.196316 0.043824
0.042120 0.194611 0.194611
0.040339 0.192831 0.352121
0.038514 0.191006 0.513600
0.036656 0.189148 0.677943
0.034773 0.187265 0.844540
0.032869 0.185361 1.000000
0.031403 0.183895 1.000000
0.026991 0.338773 0.000000
0.026188 0.337970 0.026188
0.024484 0.336265 0.176975
0.022703 0.334485 0.334485
0.020878 0.332660 0.495964
0.019020 0.330802 0.660307
0.017137 0.328919 0.826904
0.015233 0.327015 0.995363
0.013767 0.325549 1.000000
0.008910 0.483997 0.000000
0.008108 0.483194 0.008108
0.006403 0.481489 0.158895
0.004623 0.479709 0.316405
0.002798 0.477884 0.477884
0.000940 0.476026 0.642227
0.000000 0.474143 0.808824
0.000000 0.472239 0.977283
0.000000 0.470773 1.000000
0.000000 0.631796 0.000000
0.000000 0.630993 0.000000
0.000000 0.629289 0.140494
0.000000 0.627509 0.298003
0.000000 0.625684 0.459483
0.000000 0.623826 0.623826
0.000000 0.621943 0.790422
0.000000 0.620039 0.958882
0.000000 0.618572 1.000000
0.000000 0.781622 0.000000
0.000000 0.780820 0.000000
0.000000 0.779115 0.121841
0.000000 0.777335 0.279350
0.000000 0.775510 0.440829
0.000000 0.773652 0.605173
0.000000 0.771769 0.771769
0.000000 0.769865 0.940229
0.000000 0.768398 1.000000
0.000000 0.933124 0.000000
0.000000 0.932321 0.000000
0.000000 0.930617 0.102979
0.000000 0.928837 0.260488
0.000000 0.927011 0.421967
0.000000 0.925154 0.586311
0.000000 0.923271 0.752907
0.000000 0.921367 0.921367
0.000000 0.919900 1.000000
0.000000 1.000000 0.000000
0.000000 1.000000 0.000000
0.000000 1.000000 0.088452
0.000000 1.000000 0.245962
0.000000 1.000000 0.407441
0.000000 1.000000 0.571784
0.000000 1.000000 0.738381
0.000000 1.000000 0.906841
0.000000 1.000000 1.000000
0.216935 0.000000 0.000000
0.216133 0.000000 0.063641
0.214428 0.000000 0.214428
0.212648 0.000000 0.371938
0.210823 0.000000 0.533417
0.208965 0.000000 0.697760
0.207082 0.000000 0.864357
0.205178 0.000000 1.000000
0.203711 0.000000 1.000000
0.208983 0.056491 0.000000
0.208180 0.055689 0.055689
0.206476 0.053984 0.206476
0.204696 0.052204 0.363985
0.202870 0.050379 0.525465
0.201013 0.048521 0.689808
0.199130 0.046638 0.856404
0.197226 0.044734 1.000000
0.195759 0.043267 1.000000
0.192100 0.192100 0.000000
0.191297 0.191297 0.038805
0.189593 0.189593 0.189593
0.187812 0.187812 0.347102
0.185987 0.185987 0.508581
0.184129 0.184129 0.672925
0.182246 0.182246 0.839521
0.180342 0.180342 1.000000
0.178876 0.178876 1.000000
0.174464 0.333754 0.000000
0.173661 0.332951 0.021169
0.171957 0.331247 0.171957
0.170176 0.329466 0.329466
0.168351 0.327641 0.490945
0.166494 0.325783 0.655289
0.164610 0.323900 0.821885
0.162706 0.321996 0.990345
0.161240 0.320530 1.000000
0.156383 0.478978 0.000000
0.155581 0.478175 0.003089
0.153876 0.476471 0.153876
0.152096 0.474690 0.311386
0.150271 0.472865 0.472865
0.148413 0.471007 0.637208
0.146530 0.469124 0.803805
0.144626 0.467220 0.972264
0.143159 0.465754 1.000000
0.137982 0.626778 0.000000
0.137180 0.625975 0.000000
0.135475 0.624270 0.135475
0.133695 0.622490 0.292985
0.131870 0.620665 0.454464
0.130012 0.618807 0.618807
0.128129 0.616924 0.785404
0.126225 0.615020 0.953863
0.124758 0.613554 1.000000
0.119329 0.776604 0.000000
0.118526 0.775801 0.000000
0.116822 0.774097 0.116822
0.115041 0.772316 0.274331
0.113216 0.770491 0.435811
0.111359 0.768633 0.600154
0.109476 0.766750 0.766750
0.107571 0.764846 0.935210
0.106105 0.763380 1.000000
0.100467 0.928105 0.000000
0.099664 0.927303 0.000000
0.097960 0.925598 0.097960
0.096179 0.923818 0.255469
0.094354 0.921993 0.416949
0.092497 0.920135 0.581292
0.090614 0.918252 0.747888
0.088709 0.916348 0.916348
0.087243 0.914881 1.000000
0.085941 1.000000 0.000000
0.085138 1.000000 0.000000
0.083434 1.000000 0.083434
0.081653 1.000000 0.240943
0.079828 1.000000 0.402422
0.077971 1.000000 0.566766
0.076087 1.000000 0.733362
0.074183 1.000000 0.901822
0.072717 1.000000 1.000000
0.370983 0.000000 0.000000
0.370180 0.000000 0.058398
0.368476 0.000000 0.209186
0.366695 0.000000 0.366695
0.364870 0.000000 0.528175
0.363013 0.000000 0.692518
0.361129 0.000000 0.859114
0.359225 0.000000 1.000000
0.357759 0.000000 1.000000
0.363031 0.051249 0.000000
0.362228 0.050446 0.050446
0.360523 0.048742 0.201233
0.358743 0.046961 0.358743
0.356918 0.045136 0.520222
0.355060 0.043278 0.684565
0.353177 0.041395 0.851162
0.351273 0.039491 1.000000
0.349807 0.038025 1.000000
0.346147 0.186857 0.000000
0.345344 0.186055 0.033563
0.343640 0.184350 0.184350
0.341860 0.182570 0.341860
0.340035 0.180745 0.503339
0.338177 0.178887 0.667682
0.336294 0.177004 0.834279
0.334390 0.175100 1.000000
0.332923 0.173633 1.000000
0.328511 0.328511 0.000000
0.327709 0.327709 0.015927
0.326004 0.326004 0.166714
0.324224 0.324224 0.324224
0.322399 0.322399 0.485703
0.320541 0.320541 0.650046
0.318658 0.318658 0.816643
0.316754 0.316754 0.985102
0.315287 0.315287 1.000000
0.310431 0.473735 0.000000
0.309628 0.472933 0.000000
0.307924 0.471228 0.148634
0.306143 0.469448 0.306143
0.304318 0.467623 0.467623
0.302461 0.465765 0.631966
0.300577 0.463882 0.798562
0.298673 0.461978 0.967022
0.297207 0.460511 1.000000
0.292030 0.621535 0.000000
0.291227 0.620732 0.000000
0.289523 0.619028 0.130233
0.287742 0.617248 0.287742
0.285917 0.615422 0.449222
0.284059 0.613565 0.613565
0.282176 0.611682 0.780161
0.280272 0.609778 0.948621
0.278806 0.608311 1.000000
0.273376 0.771361 0.000000
0.272574 0.770559 0.000000
0.270869 0.768854 0.111579
0.269089 0.767074 0.269089
0.267264 0.765249 0.430568
0.265406 0.763391 0.594911
0.263523 0.761508 0.761508
0.261619 0.759604 0.929967
0.260152 0.758137 1.000000
0.254514 0.922863 0.000000
0.253712 0.922060 0.000000
0.252007 0.920356 0.092717
0.250227 0.918575 0.250227
0.248402 0.916750 0.411706
0.246544 0.914893 0.576049
0.244661 0.913010 0.742646
0.242757 0.911105 0.911105
0.241290 0.909639 1.000000
0.239988 1.000000 0.000000
0.239186 1.000000 0.000000
0.237481 1.000000 0.078191
0.235701 1.000000 0.235701
0.233876 1.000000 0.397180
0.232018 1.000000 0.561523
0.230135 1.000000 0.728120
0.228231 1.000000 0.896579
0.226764 1.000000 1.000000
0.528913 0.000000 0.000000
0.528110 0.000000 0.053024
0.526406 0.000000 0.203811
0.524625 0.000000 0.361321
0.522800 0.000000 0.522800
0.520942 0.000000 0.687143
0.519059 0.000000 0.853740
0.517155 0.000000 1.000000
0.515689 0.000000 1.000000
0.520960 0.045874 0.000000
0.520158 0.045071 0.045071
0.518453 0.043367 0.195859
0.516673 0.041587 0.353368
0.514848 0.039762 0.514848
0.512990 0.037904 0.679191
0.511107 0.036021 0.845787
0.509203 0.034117 1.000000
0.507736 0.032650 1.000000
0.504077 0.181483 0.000000
0.503274 0.180680 0.028188
0.501570 0.178976 0.178976
0.499790 0.177195 0.336485
0.497964 0.175370 0.497964
0.496107 0.173512 0.662308
0.494224 0.171629 0.828904
0.492320 0.169725 0.997364
0.490853 0.168259 1.000000
0.486441 0.323137 0.000000
0.485638 0.322334 0.010552
0.483934 0.320630 0.161340
0.482154 0.318849 0.318849
0.480328 0.317024 0.480328
0.478471 0.315166 0.644672
0.476588 0.313283 0.811268
0.474684 0.311379 0.979728
0.473217 0.309913 1.000000
0.468361 0.468361 0.000000
0.467558 0.467558 0.000000
0.465854 0.465854 0.143259
0.464073 0.464073 0.300769
0.462248 0.462248 0.462248
0.460390 0.460390 0.626591
0.458507 0.458507 0.793188
0.456603 0.456603 0.961647
0.455137 0.455137 1.000000
0.449960 0.616161 0.000000
0.449157 0.615358 0.000000
0.447453 0.613653 0.124858
0.445672 0.611873 0.282368
0.443847 0.610048 0.443847
0.441989 0.608190 0.608190
0.440106 0.606307 0.774787
0.438202 0.604403 0.943246
0.436736 0.602937 1.000000
0.431306 0.765987 0.000000
0.430504 0.765184 0.000000
0.428799 0.763480 0.106205
0.427019 0.761699 0.263714
0.425194 0.759874 0.425194
0.423336 0.758016 0.589537
0.421453 0.756133 0.756133
0.419549 0.754229 0.924593
0.418082 0.752763 1.000000
0.412444 0.917488 0.000000
0.411642 0.916686 0.000000
0.409937 0.914981 0.087343
0.408157 0.913201 0.244852
0.406332 0.911376 0.406332
0.404474 0.909518 0.570675
0.402591 0.907635 0.737271
0.400687 0.905731 0.905731
0.399220 0.904264 1.000000
0.397918 1.000000 0.000000
0.397115 1.000000 0.000000
0.395411 1.000000 0.072817
0.393631 1.000000 0.230326
0.391805 1.000000 0.391805
0.389948 1.000000 0.556149
0.388065 1.000000 0.722745
0.386161 1.000000 0.891205
0.384694 1.000000 1.000000
0.689644 0.000000 0.000000
0.688841 0.000000 0.047554
0.687137 0.000000 0.198341
0.685356 0.000000 0.355851
0.683531 0.000000 0.517330
0.681673 0.000000 0.681673
0.679790 0.000000 0.848270
0.677886 0.000000 1.000000
0.676420 0.000000 1.000000
0.681691 0.040404 0.000000
0.680889 0.039602 0.039602
0.679184 0.037897 0.190389
0.677404 0.036117 0.347899
0.675579 0.034292 0.509378
0.673721 0.032434 0.673721
0.671838 0.030551 0.840318
0.669934 0.028647 1.000000
0.668467 0.027180 1.000000
0.664808 0.176013 0.000000
0.664005 0.175210 0.022718
0.662301 0.173506 0.173506
0.660521 0.171725 0.331015
0.658695 0.169900 0.492494
0.656838 0.168043 0.656838
0.654955 0.166159 0.823434
0.653051 0.164255 0.991894
0.651584 0.162789 1.000000
0.647172 0.317667 0.000000
0.646369 0.316864 0.005082
0.644665 0.315160 0.155870
0.642885 0.313379 0.313379
0.641059 0.311554 0.474859
0.639202 0.309696 0.639202
0.637319 0.307813 0.805798
0.635415 0.305909 0.974258
0.633948 0.304443 1.000000
0.629092 0.462891 0.000000
0.628289 0.462088 0.000000
0.626585 0.460384 0.137789
0.624804 0.458603 0.295299
0.622979 0.456778 0.456778
0.621121 0.454921 0.621121
0.619238 0.453037 0.787718
0.617334 0.451133 0.956177
0.615868 0.449667 1.000000
0.610691 0.610691 0.000000
0.609888 0.609888 0.000000
0.608183 0.608183 0.119388
0.606403 0.606403 0.276898
0.604578 0.604578 0.438377
0.602720 0.602720 0.602720
0.600837 0.600837 0.769317
0.598933 0.598933 0.937776
0.597467 0.597467 1.000000
0.592037 0.760517 0.000000
0.591234 0.759714 0.000000
0.589530 0.758010 0.100735
0.587750 0.756229 0.258244
0.585924 0.754404 0.419724
0.584067 0.752546 0.584067
0.582184 0.750663 0.750663
0.580280 0.748759 0.919123
0.578813 0.747293 1.000000
0.573175 0.912019 0.000000
0.572372 0.911216 0.000000
0.570668 0.909511 0.081873
0.568888 0.907731 0.239382
0.567062 0.905906 0.400862
0.565205 0.904048 0.565205
0.563322 0.902165 0.731801
0.561418 0.900261 0.900261
0.559951 0.898795 1.000000
0.558649 1.000000 0.000000
0.557846 1.000000 0.000000
0.556142 1.000000 0.067347
0.554362 1.000000 0.224856
0.552536 1.000000 0.386336
0.550679 1.000000 0.550679
0.548796 1.000000 0.717275
0.546892 1.000000 0.885735
0.545425 1.000000 1.000000
0.852578 0.000000 0.000000
0.851776 0.000000 0.042009
0.850071 0.000000 0.192796
0.848291 0.000000 0.350306
0.846466 0.000000 0.511785
0.844608 0.000000 0.676128
0.842725 0.000000 0.842725
0.840821 0.000000 1.000000
0.839354 0.000000 1.000000
0.844626 0.034859 0.000000
0.843823 0.034057 0.034057
0.842119 0.032352 0.184844
0.840339 0.030572 0.342354
0.838513 0.028747 0.503833
0.836656 0.026889 0.668176
0.834773 0.025006 0.834773
0.832869 0.023102 1.000000
0.831402 0.021635 1.000000
0.827743 0.170468 0.000000
0.826940 0.169665 0.017173
0.825236 0.167961 0.167961
0.823455 0.166180 0.325470
0.821630 0.164355 0.486950
0.819772 0.162498 0.651293
0.817889 0.160615 0.817889
0.815985 0.158710 0.986349
0.814519 0.157244 1.000000
0.810107 0.312122 0.000000
0.809304 0.311319 0.000000
0.807600 0.309615 0.150325
0.805819 0.307834 0.307834
0.803994 0.306009 0.469314
0.802136 0.304152 0.633657
0.800253 0.302269 0.800253
0.798349 0.300364 0.968713
0.796883 0.298898 1.000000
0.792026 0.457346 0.000000
0.791224 0.456543 0.000000
0.789519 0.454839 0.132244
0.787739 0.453058 0.289754
0.785914 0.451233 0.451233
0.784056 0.449376 0.615576
0.782173 0.447493 0.782173
0.780269 0.445588 0.950633
0.778802 0.444122 1.000000
0.773625 0.605146 0.000000
0.772823 0.604343 0.000000
0.771118 0.602639 0.113843
0.769338 0.600858 0.271353
0.767513 0.599033 0.432832
0.765655 0.597175 0.597175
0.763772 0.595292 0.763772
0.761868 0.593388 0.932231
0.760401 0.591922 1.000000
0.754972 0.754972 0.000000
0.754169 0.754169 0.000000
0.752465 0.752465 0.095190
0.750684 0.750684 0.252700
0.748859 0.748859 0.414179
0.747002 0.747002 0.578522
0.745119 0.745119 0.745119
0.743214 0.743214 0.913578
0.741748 0.741748 1.000000
0.736110 0.906474 0.000000
0.735307 0.905671 0.000000
0.733603 0.903966 0.076328
0.731822 0.902186 0.233838
0.729997 0.900361 0.395317
0.728140 0.898503 0.559660
0.726257 0.896620 0.726257
0.724352 0.894716 0.894716
0.722886 0.893250 1.000000
0.721584 1.000000 0.000000
0.720781 1.000000 0.000000
0.719077 1.000000 0.061802
0.717296 1.000000 0.219311
0.715471 1.000000 0.380791
0.713613 1.000000 0.545134
0.711730 1.000000 0.711730
0.709826 1.000000 0.880190
0.708360 1.000000 1.000000
1.000000 0.000000 0.000000
1.000000 0.000000 0.036402
1.000000 0.000000 0.187190
1.000000 0.000000 0.344699
1.000000 0.000000 0.506178
1.000000 0.000000 0.670522
1.000000 0.000000 0.837118
1.000000 0.000000 1.000000
1.000000 0.000000 1.000000
1.000000 0.029253 0.000000
1.000000 0.028450 0.028450
1.000000 0.026745 0.179237
1.000000 0.024965 0.336747
1.000000 0.023140 0.498226
1.000000 0.021282 0.662569
0.999529 0.019399 0.829166
0.997625 0.017495 0.997625
0.996159 0.016029 1.000000
0.992500 0.164861 0.000000
0.991697 0.164058 0.011566
0.989992 0.162354 0.162354
0.988212 0.160574 0.319863
0.986387 0.158748 0.481343
0.984529 0.156891 0.645686
0.982646 0.155008 0.812282
0.980742 0.153104 0.980742
0.979276 0.151637 1.000000
0.974864 0.306515 0.000000
0.974061 0.305712 0.000000
0.972356 0.304008 0.144718
0.970576 0.302228 0.302228
0.968751 0.300402 0.463707
0.966893 0.298545 0.628050
0.965010 0.296662 0.794646
0.963106 0.294757 0.963106
0.961640 0.293291 1.000000
0.956783 0.451739 0.000000
0.955980 0.450936 0.000000
0.954276 0.449232 0.126638
0.952496 0.447452 0.284147
0.950670 0.445626 0.445626
0.948813 0.443769 0.609970
0.946930 0.441886 0.776566
0.945026 0.439982 0.945026
0.943559 0.438515 1.000000
0.938382 0.599539 0.000000
0.937579 0.598736 0.000000
0.935875 0.597032 0.108236
0.934095 0.595251 0.265746
0.932269 0.593426 0.427225
0.930412 0.591568 0.591568
0.928529 0.589685 0.758165
0.926625 0.587781 0.926625
0.925158 0.586315 1.000000
0.919729 0.749365 0.000000
0.918926 0.748562 0.000000
0.917222 0.746858 0.089583
0.915441 0.745078 0.247093
0.913616 0.743252 0.408572
0.911758 0.741395 0.572915
0.909875 0.739512 0.739512
0.907971 0.737607 0.907971
0.906505 0.736141 1.000000
0.900867 0.900867 0.000000
0.900064 0.900064 0.000000
0.898360 0.898360 0.070721
0.896579 0.896579 0.228231
0.894754 0.894754 0.389710
0.892896 0.892896 0.554053
0.891013 0.891013 0.720650
0.889109 0.889109 0.889109
0.887643 0.887643 1.000000
0.886341 1.000000 0.000000
0.885538 1.000000 0.000000
0.883833 1.000000 0.056195
0.882053 1.000000 0.213705
0.880228 1.000000 0.375184
0.878370 1.000000 0.539527
0.876487 1.000000 0.706124
0.874583 1.000000 0.874583
0.873117 1.000000 1.000000
1.000000 0.000000 0.000000
1.000000 0.000000 0.032084
1.000000 0.000000 0.182872
1.000000 0.000000 0.340381
1.000000 0.000000 0.501860
1.000000 0.000000 0.666204
1.000000 0.000000 0.832800
1.000000 0.000000 1.000000
1.000000 0.000000 1.000000
1.000000 0.024935 0.000000
1.000000 0.024132 0.024132
1.000000 0.022427 0.174919
1.000000 0.020647 0.332429
1.000000 0.018822 0.493908
1.000000 0.016964 0.658251
1.000000 0.015081 0.824848
1.000000 0.013177 0.993307
1.000000 0.011711 1.000000
1.000000 0.160543 0.000000
1.000000 0.159740 0.007248
1.000000 0.158036 0.158036
1.000000 0.156256 0.315545
1.000000 0.154430 0.477025
1.000000 0.152573 0.641368
1.000000 0.150690 0.807964
1.000000 0.148785 0.976424
1.000000 0.147319 1.000000
1.000000 0.302197 0.000000
1.000000 0.301394 0.000000
1.000000 0.299690 0.140400
1.000000 0.297910 0.297910
1.000000 0.296084 0.459389
1.000000 0.294227 0.623732
1.000000 0.292344 0.790328
1.000000 0.290439 0.958788
1.000000 0.288973 1.000000
1.000000 0.447421 0.000000
1.000000 0.446618 0.000000
1.000000 0.444914 0.122320
1.000000 0.443134 0.279829
1.000000 0.441308 0.441308
1.000000 0.439451 0.605652
1.000000 0.437568 0.772248
1.000000 0.435663 0.940708
1.000000 0.434197 1.000000
1.000000 0.595221 0.000000
1.000000 0.594418 0.000000
1.000000 0.592714 0.103918
1.000000 0.590933 0.261428
1.000000 0.589108 0.422907
1.000000 0.587250 0.587250
1.000000 0.585367 0.753847
1.000000 0.583463 0.922307
1.000000 0.581997 1.000000
1.000000 0.745047 0.000000
1.000000 0.744244 0.000000
1.000000 0.742540 0.085265
1.000000 0.740759 0.242775
1.000000 0.738934 0.404254
1.000000 0.737077 0.568597
1.000000 0.735194 0.735194
1.000000 0.733289 0.903653
1.000000 0.731823 1.000000
1.000000 0.896549 0.000000
1.000000 0.895746 0.000000
1.000000 0.894042 0.066403
1.000000 0.892261 0.223913
1.000000 0.890436 0.385392
1.000000 0.888578 0.549735
1.000000 0.886695 0.716332
1.000000 0.884791 0.884791
1.000000 0.883325 1.000000
1.000000 1.000000 0.000000
1.000000 1.000000 0.000000
1.000000 1.000000 0.051877
1.000000 1.000000 0.209387
1.000000 1.000000 0.370866
1.000000 1.000000 0.535209
1.000000 1.000000 0.701805
1.000000 1.000000 0.870265
1.000000 1.000000 1.000000
