skills/editops-orchestrator/assets/grade/luts/trailer_punch_v05.cube
TITLE "trailer_punch_v05"
LUT_3D_SIZE 5
DOMAIN_MIN 0.0 0.0 0.0
DOMAIN_MAX 1.0 1.0 1.0
0.000000 0.000000 0.000000
0.000000 0.000000 0.237706
0.000000 0.000000 0.523776
0.000000 0.000000 0.815151
0.000000 0.000000 1.000000
0.000000 0.223989 0.000000
0.000000 0.222449 0.222449
0.000000 0.220595 0.508519
0.000000 0.218707 0.799893
0.000000 0.216921 1.000000
0.000000 0.493551 0.000000
0.000000 0.492011 0.204088
0.000000 0.490157 0.490157
0.000000 0.488269 0.781532
0.000000 0.486483 1.000000
0.000000 0.768112 0.000000
0.000000 0.766572 0.185386
0.000000 0.764718 0.471456
0.000000 0.762830 0.762830
0.000000 0.761044 1.000000
0.000000 1.000000 0.000000
0.000000 1.000000 0.167692
0.000000 1.000000 0.453761
0.000000 1.000000 0.745136
0.000000 1.000000 1.000000
0.234711 0.000000 0.000000
0.233171 0.000000 0.233171
0.231317 0.000000 0.519240
0.229429 0.000000 0.810615
0.227643 0.000000 1.000000
0.219454 0.219454 0.000000
0.217914 0.217914 0.217914
0.216060 0.216060 0.503983
0.214172 0.214172 0.795358
0.212386 0.212386 1.000000
0.201093 0.489016 0.000000
0.199552 0.487476 0.199552
0.197699 0.485622 0.485622
0.195811 0.483734 0.776997
0.194025 0.481948 1.000000
0.182391 0.763577 0.000000
0.180851 0.762037 0.180851
0.178997 0.760183 0.466920
0.177109 0.758295 0.758295
0.175323 0.756509 1.000000
0.164697 1.000000 0.000000
0.163156 1.000000 0.163156
0.161303 1.000000 0.449226
0.159415 1.000000 0.740601
0.157629 1.000000 1.000000
0.517176 0.000000 0.000000
0.515636 0.000000 0.227713
0.513782 0.000000 0.513782
0.511894 0.000000 0.805157
0.510108 0.000000 1.000000
0.501919 0.213996 0.000000
0.500379 0.212456 0.212456
0.498525 0.210602 0.498525
0.496637 0.208714 0.789900
0.494851 0.206928 1.000000
0.483558 0.483558 0.000000
0.482018 0.482018 0.194094
0.480164 0.480164 0.480164
0.478276 0.478276 0.771539
0.476490 0.476490 1.000000
0.464856 0.758119 0.000000
0.463316 0.756579 0.175393
0.461462 0.754725 0.461462
0.459574 0.752837 0.752837
0.457788 0.751051 1.000000
0.447162 1.000000 0.000000
0.445622 1.000000 0.157698
0.443768 1.000000 0.443768
0.441880 1.000000 0.735143
0.440094 1.000000 1.000000
0.804880 0.000000 0.000000
0.803339 0.000000 0.222153
0.801486 0.000000 0.508223
0.799598 0.000000 0.799598
0.797812 0.000000 1.000000
0.789623 0.208436 0.000000
0.788082 0.206896 0.206896
0.786229 0.205043 0.492966
0.784341 0.203155 0.784341
0.782555 0.201368 1.000000
0.771261 0.477998 0.000000
0.769721 0.476458 0.188535
0.767867 0.474605 0.474605
0.765980 0.472717 0.765980
0.764193 0.470930 1.000000
0.752560 0.752560 0.000000
0.751019 0.751019 0.169833
0.749166 0.749166 0.455903
0.747278 0.747278 0.747278
0.745492 0.745492 1.000000
0.734865 1.000000 0.000000
0.733325 1.000000 0.152139
0.731472 1.000000 0.438209
0.729584 1.000000 0.729584
0.727797 1.000000 1.000000
1.000000 0.000000 0.000000
1.000000 0.000000 0.216894
1.000000 0.000000 0.502963
1.000000 0.000000 0.794338
1.000000 0.000000 1.000000
1.000000 0.203177 0.000000
1.000000 0.201637 0.201637
1.000000 0.199783 0.487706
1.000000 0.197895 0.779081
1.000000 0.196109 1.000000
1.000000 0.472739 0.000000
1.000000 0.471199 0.183275
1.000000 0.469345 0.469345
1.000000 0.467457 0.760720
1.000000 0.465671 1.000000
1.000000 0.747300 0.000000
1.000000 0.745760 0.164573
1.000000 0.743906 0.450643
1.000000 0.742018 0.742018
1.000000 0.740232 1.000000
1.000000 1.000000 0.000000
1.000000 1.000000 0.146879
1.000000 1.000000 0.432949
1.000000 1.000000 0.724324
1.000000 1.000000 1.000000
