skills/editops-orchestrator/assets/grade/luts/trailer_punch_v02.cube
TITLE "trailer_punch_v02"
LUT_3D_SIZE 9
DOMAIN_MIN 0.0 0.0 0.0
DOMAIN_MAX 1.0 1.0 1.0
0.000000 0.000000 0.000000
0.000000 0.000000 0.106893
0.000000 0.000000 0.242098
0.000000 0.000000 0.379137
0.000000 0.000000 0.517331
0.000000 0.000000 0.656376
0.000000 0.000000 0.796096
0.000000 0.000000 0.936375
0.000000 0.000000 1.000000
0.000000 0.102407 0.000000
0.000000 0.101904 0.101904
0.000000 0.101267 0.237109
0.000000 0.100621 0.374147
0.000000 0.099970 0.512341
0.000000 0.099314 0.651386
0.000000 0.098656 0.791106
0.000000 0.097995 0.931386
0.000000 0.097391 1.000000
0.000000 0.231938 0.000000
0.000000 0.231435 0.095592
0.000000 0.230797 0.230797
0.000000 0.230152 0.367836
0.000000 0.229500 0.506030
0.000000 0.228845 0.645075
0.000000 0.228187 0.784795
0.000000 0.227526 0.925075
0.000000 0.226922 1.000000
0.000000 0.363226 0.000000
0.000000 0.362722 0.089196
0.000000 0.362085 0.224401
0.000000 0.361439 0.361439
0.000000 0.360788 0.499633
0.000000 0.360133 0.638678
0.000000 0.359474 0.778398
0.000000 0.358813 0.918678
0.000000 0.358210 1.000000
0.000000 0.495620 0.000000
0.000000 0.495117 0.082745
0.000000 0.494480 0.217950
0.000000 0.493834 0.354988
0.000000 0.493183 0.493183
0.000000 0.492527 0.632227
0.000000 0.491869 0.771947
0.000000 0.491208 0.912227
0.000000 0.490604 1.000000
0.000000 0.628830 0.000000
0.000000 0.628326 0.076254
0.000000 0.627689 0.211459
0.000000 0.627043 0.348498
0.000000 0.626392 0.486692
0.000000 0.625737 0.625737
0.000000 0.625079 0.765457
0.000000 0.624418 0.905737
0.000000 0.623814 1.000000
0.000000 0.762686 0.000000
0.000000 0.762183 0.069733
0.000000 0.761545 0.204938
0.000000 0.760900 0.341976
0.000000 0.760248 0.480170
0.000000 0.759593 0.619215
0.000000 0.758935 0.758935
0.000000 0.758274 0.899215
0.000000 0.757670 1.000000
0.000000 0.897079 0.000000
0.000000 0.896575 0.063184
0.000000 0.895938 0.198389
0.000000 0.895292 0.335428
0.000000 0.894641 0.473622
0.000000 0.893986 0.612667
0.000000 0.893328 0.752387
0.000000 0.892667 0.892667
0.000000 0.892063 1.000000
0.000000 1.000000 0.000000
0.000000 1.000000 0.057206
0.000000 1.000000 0.192411
0.000000 1.000000 0.329449
0.000000 1.000000 0.467643
0.000000 1.000000 0.606688
0.000000 1.000000 0.746408
0.000000 1.000000 0.886688
0.000000 1.000000 1.000000
0.105914 0.000000 0.000000
0.105410 0.000000 0.105410
0.104773 0.000000 0.240615
0.104127 0.000000 0.377653
0.103476 0.000000 0.515848
0.102821 0.000000 0.654893
0.102162 0.000000 0.794612
0.101501 0.000000 0.934892
0.100898 0.000000 1.000000
0.100924 0.100924 0.000000
0.100420 0.100420 0.100420
0.099783 0.099783 0.235625
0.099138 0.099138 0.372664
0.098486 0.098486 0.510858
0.097831 0.097831 0.649903
0.097173 0.097173 0.789623
0.096512 0.096512 0.929903
0.095908 0.095908 1.000000
0.094613 0.230455 0.000000
0.094109 0.229951 0.094109
0.093472 0.229314 0.229314
0.092826 0.228668 0.366353
0.092175 0.228017 0.504547
0.091520 0.227362 0.643592
0.090862 0.226704 0.783312
0.090200 0.226043 0.923591
0.089597 0.225439 1.000000
0.088216 0.361742 0.000000
0.087712 0.361239 0.087712
0.087075 0.360602 0.222917
0.086430 0.359956 0.359956
0.085778 0.359305 0.498150
0.085123 0.358649 0.637195
0.084465 0.357991 0.776915
0.083804 0.357330 0.917195
0.083200 0.356726 1.000000
0.081765 0.494137 0.000000
0.081262 0.493633 0.081262
0.080625 0.492996 0.216467
0.079979 0.492351 0.353505
0.079328 0.491699 0.491699
0.078672 0.491044 0.630744
0.078014 0.490386 0.770464
0.077353 0.489725 0.910744
0.076749 0.489121 1.000000
0.075275 0.627347 0.000000
0.074771 0.626843 0.074771
0.074134 0.626206 0.209976
0.073488 0.625560 0.347015
0.072837 0.624909 0.485209
0.072182 0.624254 0.624254
0.071524 0.623595 0.763974
0.070863 0.622934 0.904253
0.070259 0.622331 1.000000
0.068753 0.761203 0.000000
0.068249 0.760699 0.068249
0.067612 0.760062 0.203454
0.066966 0.759416 0.340493
0.066315 0.758765 0.478687
0.065660 0.758110 0.617732
0.065002 0.757452 0.757452
0.064341 0.756791 0.897732
0.063737 0.756187 1.000000
0.062205 0.895596 0.000000
0.061701 0.895092 0.061701
0.061064 0.894455 0.196906
0.060418 0.893809 0.333945
0.059767 0.893158 0.472139
0.059112 0.892503 0.611184
0.058454 0.891844 0.750904
0.057792 0.891183 0.891183
0.057189 0.890580 1.000000
0.056226 1.000000 0.000000
0.055723 1.000000 0.055723
0.055085 1.000000 0.190927
0.054440 1.000000 0.327966
0.053788 1.000000 0.466160
0.053133 1.000000 0.605205
0.052475 1.000000 0.744925
0.051814 1.000000 0.885205
0.051210 1.000000 1.000000
0.239880 0.000000 0.000000
0.239376 0.000000 0.103534
0.238739 0.000000 0.238739
0.238093 0.000000 0.375777
0.237442 0.000000 0.513972
0.236787 0.000000 0.653017
0.236128 0.000000 0.792736
0.235467 0.000000 0.933016
0.234864 0.000000 1.000000
0.234890 0.099048 0.000000
0.234386 0.098544 0.098544
0.233749 0.097907 0.233749
0.233104 0.097261 0.370788
0.232452 0.096610 0.508982
0.231797 0.095955 0.648027
0.231139 0.095297 0.787747
0.230478 0.094636 0.928027
0.229874 0.094032 1.000000
0.228579 0.228579 0.000000
0.228075 0.228075 0.092233
0.227438 0.227438 0.227438
0.226792 0.226792 0.364477
0.226141 0.226141 0.502671
0.225486 0.225486 0.641716
0.224828 0.224828 0.781436
0.224167 0.224167 0.921715
0.223563 0.223563 1.000000
0.222182 0.359866 0.000000
0.221678 0.359363 0.085836
0.221041 0.358726 0.221041
0.220396 0.358080 0.358080
0.219744 0.357429 0.496274
0.219089 0.356773 0.635319
0.218431 0.356115 0.775039
0.217770 0.355454 0.915319
0.217166 0.354850 1.000000
0.215731 0.492261 0.000000
0.215228 0.491757 0.079386
0.214591 0.491120 0.214591
0.213945 0.490474 0.351629
0.213294 0.489823 0.489823
0.212638 0.489168 0.628868
0.211980 0.488510 0.768588
0.211319 0.487849 0.908868
0.210715 0.487245 1.000000
0.209241 0.625471 0.000000
0.208737 0.624967 0.072895
0.208100 0.624330 0.208100
0.207454 0.623684 0.345139
0.206803 0.623033 0.483333
0.206148 0.622378 0.622378
0.205490 0.621719 0.762098
0.204829 0.621058 0.902377
0.204225 0.620455 1.000000
0.202719 0.759327 0.000000
0.202215 0.758823 0.066373
0.201578 0.758186 0.201578
0.200932 0.757540 0.338617
0.200281 0.756889 0.476811
0.199626 0.756234 0.615856
0.198968 0.755576 0.755576
0.198307 0.754915 0.895855
0.197703 0.754311 1.000000
0.196171 0.893720 0.000000
0.195667 0.893216 0.059825
0.195030 0.892579 0.195030
0.194384 0.891933 0.332069
0.193733 0.891282 0.470263
0.193078 0.890627 0.609308
0.192420 0.889968 0.749028
0.191759 0.889307 0.889307
0.191155 0.888704 1.000000
0.190192 1.000000 0.000000
0.189689 1.000000 0.053846
0.189051 1.000000 0.189051
0.188406 1.000000 0.326090
0.187754 1.000000 0.464284
0.187099 1.000000 0.603329
0.186441 1.000000 0.743049
0.185780 1.000000 0.883329
0.185176 1.000000 1.000000
0.375662 0.000000 0.000000
0.375159 0.000000 0.101633
0.374522 0.000000 0.236838
0.373876 0.000000 0.373876
0.373225 0.000000 0.512070
0.372569 0.000000 0.651115
0.371911 0.000000 0.790835
0.371250 0.000000 0.931115
0.370646 0.000000 1.000000
0.370673 0.097147 0.000000
0.370169 0.096643 0.096643
0.369532 0.096006 0.231848
0.368886 0.095360 0.368886
0.368235 0.094709 0.507080
0.367580 0.094054 0.646125
0.366921 0.093395 0.785845
0.366260 0.092734 0.926125
0.365657 0.092131 1.000000
0.364362 0.226677 0.000000
0.363858 0.226174 0.090332
0.363221 0.225537 0.225537
0.362575 0.224891 0.362575
0.361924 0.224240 0.500769
0.361269 0.223584 0.639814
0.360610 0.222926 0.779534
0.359949 0.222265 0.919814
0.359346 0.221661 1.000000
0.357965 0.357965 0.000000
0.357461 0.357461 0.083935
0.356824 0.356824 0.219140
0.356178 0.356178 0.356178
0.355527 0.355527 0.494373
0.354872 0.354872 0.633417
0.354213 0.354213 0.773137
0.353552 0.353552 0.913417
0.352949 0.352949 1.000000
0.351514 0.490360 0.000000
0.351010 0.489856 0.077484
0.350373 0.489219 0.212689
0.349728 0.488573 0.349728
0.349076 0.487922 0.487922
0.348421 0.487267 0.626967
0.347763 0.486608 0.766686
0.347102 0.485947 0.906966
0.346498 0.485344 1.000000
0.345024 0.623569 0.000000
0.344520 0.623066 0.070994
0.343883 0.622428 0.206199
0.343237 0.621783 0.343237
0.342586 0.621131 0.481431
0.341931 0.620476 0.620476
0.341272 0.619818 0.760196
0.340611 0.619157 0.900476
0.340008 0.618553 1.000000
0.338502 0.757426 0.000000
0.337998 0.756922 0.064472
0.337361 0.756285 0.199677
0.336715 0.755639 0.336715
0.336064 0.754988 0.474909
0.335409 0.754332 0.613954
0.334750 0.753674 0.753674
0.334089 0.753013 0.893954
0.333486 0.752410 1.000000
0.331954 0.891818 0.000000
0.331450 0.891315 0.057924
0.330813 0.890677 0.193129
0.330167 0.890032 0.330167
0.329516 0.889380 0.468361
0.328861 0.888725 0.607406
0.328202 0.888067 0.747126
0.327541 0.887406 0.887406
0.326938 0.886802 1.000000
0.325975 1.000000 0.000000
0.325471 1.000000 0.051945
0.324834 1.000000 0.187150
0.324188 1.000000 0.324188
0.323537 1.000000 0.462383
0.322882 1.000000 0.601427
0.322223 1.000000 0.741147
0.321562 1.000000 0.881427
0.320959 1.000000 1.000000
0.512590 0.000000 0.000000
0.512087 0.000000 0.099715
0.511450 0.000000 0.234920
0.510804 0.000000 0.371958
0.510153 0.000000 0.510153
0.509497 0.000000 0.649198
0.508839 0.000000 0.788917
0.508178 0.000000 0.929197
0.507574 0.000000 1.000000
0.507601 0.095229 0.000000
0.507097 0.094725 0.094725
0.506460 0.094088 0.229930
0.505814 0.093442 0.366969
0.505163 0.092791 0.505163
0.504508 0.092136 0.644208
0.503849 0.091478 0.783928
0.503188 0.090817 0.924208
0.502585 0.090213 1.000000
0.501290 0.224760 0.000000
0.500786 0.224256 0.088414
0.500149 0.223619 0.223619
0.499503 0.222973 0.360657
0.498852 0.222322 0.498852
0.498197 0.221667 0.637897
0.497538 0.221009 0.777616
0.496877 0.220347 0.917896
0.496274 0.219744 1.000000
0.494893 0.356047 0.000000
0.494389 0.355544 0.082017
0.493752 0.354906 0.217222
0.493106 0.354261 0.354261
0.492455 0.353610 0.492455
0.491800 0.352954 0.631500
0.491141 0.352296 0.771220
0.490480 0.351635 0.911500
0.489877 0.351031 1.000000
0.488442 0.488442 0.000000
0.487938 0.487938 0.075567
0.487301 0.487301 0.210772
0.486655 0.486655 0.347810
0.486004 0.486004 0.486004
0.485349 0.485349 0.625049
0.484691 0.484691 0.764769
0.484030 0.484030 0.905049
0.483426 0.483426 1.000000
0.481952 0.621652 0.000000
0.481448 0.621148 0.069076
0.480811 0.620511 0.204281
0.480165 0.619865 0.341320
0.479514 0.619214 0.479514
0.478859 0.618559 0.618559
0.478200 0.617900 0.758278
0.477539 0.617239 0.898558
0.476936 0.616636 1.000000
0.475430 0.755508 0.000000
0.474926 0.755004 0.062554
0.474289 0.754367 0.197759
0.473643 0.753721 0.334798
0.472992 0.753070 0.472992
0.472337 0.752415 0.612037
0.471678 0.751757 0.751757
0.471017 0.751096 0.892036
0.470414 0.750492 1.000000
0.468882 0.889901 0.000000
0.468378 0.889397 0.056006
0.467741 0.888760 0.191211
0.467095 0.888114 0.328249
0.466444 0.887463 0.466444
0.465789 0.886808 0.605489
0.465130 0.886149 0.745208
0.464469 0.885488 0.885488
0.463866 0.884885 1.000000
0.462903 1.000000 0.000000
0.462399 1.000000 0.050027
0.461762 1.000000 0.185232
0.461116 1.000000 0.322271
0.460465 1.000000 0.460465
0.459810 1.000000 0.599510
0.459151 1.000000 0.739230
0.458490 1.000000 0.879510
0.457887 1.000000 1.000000
0.650361 0.000000 0.000000
0.649857 0.000000 0.097786
0.649220 0.000000 0.232991
0.648575 0.000000 0.370029
0.647923 0.000000 0.508223
0.647268 0.000000 0.647268
0.646610 0.000000 0.786988
0.645949 0.000000 0.927268
0.645345 0.000000 1.000000
0.645372 0.093300 0.000000
0.644868 0.092796 0.092796
0.644231 0.092159 0.228001
0.643585 0.091513 0.365039
0.642934 0.090862 0.503234
0.642279 0.090207 0.642279
0.641620 0.089548 0.781998
0.640959 0.088887 0.922278
0.640356 0.088284 1.000000
0.639060 0.222831 0.000000
0.638557 0.222327 0.086485
0.637920 0.221690 0.221690
0.637274 0.221044 0.358728
0.636623 0.220393 0.496922
0.635967 0.219738 0.635967
0.635309 0.219079 0.775687
0.634648 0.218418 0.915967
0.634044 0.217815 1.000000
0.632664 0.354118 0.000000
0.632160 0.353614 0.080088
0.631523 0.352977 0.215293
0.630877 0.352331 0.352331
0.630226 0.351680 0.490526
0.629571 0.351025 0.629571
0.628912 0.350367 0.769290
0.628251 0.349706 0.909570
0.627648 0.349102 1.000000
0.626213 0.486513 0.000000
0.625709 0.486009 0.073637
0.625072 0.485372 0.208842
0.624426 0.484726 0.345881
0.623775 0.484075 0.484075
0.623120 0.483420 0.623120
0.622461 0.482761 0.762840
0.621800 0.482100 0.903119
0.621197 0.481497 1.000000
0.619722 0.619722 0.000000
0.619219 0.619219 0.067147
0.618582 0.618582 0.202352
0.617936 0.617936 0.339390
0.617285 0.617285 0.477584
0.616629 0.616629 0.616629
0.615971 0.615971 0.756349
0.615310 0.615310 0.896629
0.614706 0.614706 1.000000
0.613200 0.753579 0.000000
0.612697 0.753075 0.060625
0.612060 0.752438 0.195830
0.611414 0.751792 0.332868
0.610763 0.751141 0.471062
0.610107 0.750486 0.610107
0.609449 0.749827 0.749827
0.608788 0.749166 0.890107
0.608184 0.748563 1.000000
0.606652 0.887971 0.000000
0.606149 0.887468 0.054077
0.605512 0.886831 0.189282
0.604866 0.886185 0.326320
0.604215 0.885534 0.464514
0.603559 0.884878 0.603559
0.602901 0.884220 0.743279
0.602240 0.883559 0.883559
0.601636 0.882955 1.000000
0.600674 1.000000 0.000000
0.600170 1.000000 0.048098
0.599533 1.000000 0.183303
0.598887 1.000000 0.320341
0.598236 1.000000 0.458536
0.597581 1.000000 0.597581
0.596922 1.000000 0.737300
0.596261 1.000000 0.877580
0.595658 1.000000 1.000000
0.788801 0.000000 0.000000
0.788297 0.000000 0.095847
0.787660 0.000000 0.231052
0.787014 0.000000 0.368090
0.786363 0.000000 0.506285
0.785708 0.000000 0.645329
0.785049 0.000000 0.785049
0.784388 0.000000 0.925329
0.783785 0.000000 1.000000
0.783811 0.091361 0.000000
0.783307 0.090857 0.090857
0.782670 0.090220 0.226062
0.782024 0.089574 0.363101
0.781373 0.088923 0.501295
0.780718 0.088268 0.640340
0.780060 0.087610 0.780060
0.779399 0.086949 0.920339
0.778795 0.086345 1.000000
0.777500 0.220892 0.000000
0.776996 0.220388 0.084546
0.776359 0.219751 0.219751
0.775713 0.219105 0.356789
0.775062 0.218454 0.494984
0.774407 0.217799 0.634029
0.773748 0.217140 0.773748
0.773087 0.216479 0.914028
0.772484 0.215876 1.000000
0.771103 0.352179 0.000000
0.770599 0.351676 0.078149
0.769962 0.351038 0.213354
0.769316 0.350393 0.350393
0.768665 0.349741 0.488587
0.768010 0.349086 0.627632
0.767352 0.348428 0.767352
0.766691 0.347767 0.907631
0.766087 0.347163 1.000000
0.764652 0.484574 0.000000
0.764149 0.484070 0.071699
0.763511 0.483433 0.206904
0.762866 0.482787 0.343942
0.762214 0.482136 0.482136
0.761559 0.481481 0.621181
0.760901 0.480823 0.760901
0.760240 0.480162 0.901181
0.759636 0.479558 1.000000
0.758162 0.617784 0.000000
0.757658 0.617280 0.065208
0.757021 0.616643 0.200413
0.756375 0.615997 0.337451
0.755724 0.615346 0.475646
0.755069 0.614691 0.614691
0.754410 0.614032 0.754410
0.753749 0.613371 0.894690
0.753146 0.612768 1.000000
0.751640 0.751640 0.000000
0.751136 0.751136 0.058686
0.750499 0.750499 0.193891
0.749853 0.749853 0.330930
0.749202 0.749202 0.469124
0.748547 0.748547 0.608169
0.747888 0.747888 0.747888
0.747227 0.747227 0.888168
0.746624 0.746624 1.000000
0.745092 0.886033 0.000000
0.744588 0.885529 0.052138
0.743951 0.884892 0.187343
0.743305 0.884246 0.324381
0.742654 0.883595 0.462576
0.741999 0.882940 0.601621
0.741340 0.882281 0.741340
0.740679 0.881620 0.881620
0.740076 0.881017 1.000000
0.739113 1.000000 0.000000
0.738609 1.000000 0.046159
0.737972 1.000000 0.181364
0.737326 1.000000 0.318403
0.736675 1.000000 0.456597
0.736020 1.000000 0.595642
0.735362 1.000000 0.735362
0.734701 1.000000 0.875642
0.734097 1.000000 1.000000
0.927795 0.000000 0.000000
0.927291 0.000000 0.093900
0.926654 0.000000 0.229105
0.926008 0.000000 0.366144
0.925357 0.000000 0.504338
0.924702 0.000000 0.643383
0.924044 0.000000 0.783103
0.923383 0.000000 0.923383
0.922779 0.000000 1.000000
0.922805 0.089414 0.000000
0.922302 0.088911 0.088911
0.921665 0.088274 0.224116
0.921019 0.087628 0.361154
0.920368 0.086977 0.499348
0.919712 0.086321 0.638393
0.919054 0.085663 0.778113
0.918393 0.085002 0.918393
0.917789 0.084398 1.000000
0.916494 0.218945 0.000000
0.915991 0.218442 0.082600
0.915353 0.217805 0.217805
0.914708 0.217159 0.354843
0.914056 0.216508 0.493037
0.913401 0.215852 0.632082
0.912743 0.215194 0.771802
0.912082 0.214533 0.912082
0.911478 0.213929 1.000000
0.910097 0.350233 0.000000
0.909594 0.349729 0.076203
0.908957 0.349092 0.211408
0.908311 0.348446 0.348446
0.907660 0.347795 0.486640
0.907004 0.347140 0.625685
0.906346 0.346481 0.765405
0.905685 0.345820 0.905685
0.905081 0.345217 1.000000
0.903647 0.482627 0.000000
0.903143 0.482124 0.069752
0.902506 0.481487 0.204957
0.901860 0.480841 0.341995
0.901209 0.480190 0.480190
0.900554 0.479534 0.619235
0.899895 0.478876 0.758954
0.899234 0.478215 0.899234
0.898631 0.477611 1.000000
0.897156 0.615837 0.000000
0.896653 0.615333 0.063262
0.896015 0.614696 0.198467
0.895370 0.614051 0.335505
0.894718 0.613399 0.473699
0.894063 0.612744 0.612744
0.893405 0.612086 0.752464
0.892744 0.611425 0.892744
0.892140 0.610821 1.000000
0.890634 0.749693 0.000000
0.890131 0.749190 0.056740
0.889493 0.748553 0.191945
0.888848 0.747907 0.328983
0.888197 0.747256 0.467177
0.887541 0.746600 0.606222
0.886883 0.745942 0.745942
0.886222 0.745281 0.886222
0.885618 0.744677 1.000000
0.884086 0.884086 0.000000
0.883582 0.883582 0.050192
0.882945 0.882945 0.185397
0.882300 0.882300 0.322435
0.881648 0.881648 0.460629
0.880993 0.880993 0.599674
0.880335 0.880335 0.739394
0.879674 0.879674 0.879674
0.879070 0.879070 1.000000
0.878107 1.000000 0.000000
0.877604 1.000000 0.044213
0.876967 1.000000 0.179418
0.876321 1.000000 0.316456
0.875670 1.000000 0.454650
0.875014 1.000000 0.593695
0.874356 1.000000 0.733415
0.873695 1.000000 0.873695
0.873091 1.000000 1.000000
1.000000 0.000000 0.000000
1.000000 0.000000 0.092123
1.000000 0.000000 0.227328
1.000000 0.000000 0.364367
1.000000 0.000000 0.502561
1.000000 0.000000 0.641606
1.000000 0.000000 0.781326
1.000000 0.000000 0.921605
1.000000 0.000000 1.000000
1.000000 0.087637 0.000000
1.000000 0.087134 0.087134
1.000000 0.086496 0.222339
1.000000 0.085851 0.359377
1.000000 0.085199 0.497571
1.000000 0.084544 0.636616
1.000000 0.083886 0.776336
1.000000 0.083225 0.916616
1.000000 0.082621 1.000000
1.000000 0.217168 0.000000
1.000000 0.216664 0.080822
1.000000 0.216027 0.216027
1.000000 0.215382 0.353066
1.000000 0.214730 0.491260
1.000000 0.214075 0.630305
1.000000 0.213417 0.770025
1.000000 0.212756 0.910305
1.000000 0.212152 1.000000
1.000000 0.348456 0.000000
1.000000 0.347952 0.074426
1.000000 0.347315 0.209631
1.000000 0.346669 0.346669
1.000000 0.346018 0.484863
1.000000 0.345363 0.623908
1.000000 0.344704 0.763628
1.000000 0.344043 0.903908
1.000000 0.343440 1.000000
1.000000 0.480850 0.000000
1.000000 0.480347 0.067975
1.000000 0.479709 0.203180
1.000000 0.479064 0.340218
1.000000 0.478412 0.478412
1.000000 0.477757 0.617457
1.000000 0.477099 0.757177
1.000000 0.476438 0.897457
1.000000 0.475834 1.000000
1.000000 0.614060 0.000000
1.000000 0.613556 0.061484
1.000000 0.612919 0.196689
1.000000 0.612273 0.333728
1.000000 0.611622 0.471922
1.000000 0.610967 0.610967
1.000000 0.610309 0.750687
1.000000 0.609648 0.890967
1.000000 0.609044 1.000000
1.000000 0.747916 0.000000
1.000000 0.747412 0.054962
1.000000 0.746775 0.190167
1.000000 0.746130 0.327206
1.000000 0.745478 0.465400
1.000000 0.744823 0.604445
1.000000 0.744165 0.744165
1.000000 0.743504 0.884445
1.000000 0.742900 1.000000
1.000000 0.882309 0.000000
1.000000 0.881805 0.048414
1.000000 0.881168 0.183619
1.000000 0.880522 0.320658
1.000000 0.879871 0.458852
1.000000 0.879216 0.597897
1.000000 0.878558 0.737617
1.000000 0.877897 0.877897
1.000000 0.877293 1.000000
1.000000 1.000000 0.000000
1.000000 1.000000 0.042436
1.000000 1.000000 0.177641
1.000000 1.000000 0.314679
1.000000 1.000000 0.452873
1.000000 1.000000 0.591918
1.000000 1.000000 0.731638
1.000000 1.000000 0.871918
1.000000 1.000000 1.000000
