skills/editops-orchestrator/assets/grade/luts/trailer_punch_v02.cube
TITLE "trailer_punch_v02"
LUT_3D_SIZE 17
DOMAIN_MIN 0.0 0.0 0.0
DOMAIN_MAX 1.0 1.0 1.0
0.000000 0.000000 0.000000
0.000000 0.000000 0.040611
0.000000 0.000000 0.106893
0.000000 0.000000 0.174191
0.000000 0.000000 0.242098
0.000000 0.000000 0.310445
0.000000 0.000000 0.379137
0.000000 0.000000 0.448113
0.000000 0.000000 0.517331
0.000000 0.000000 0.586760
0.000000 0.000000 0.656376
0.000000 0.000000 0.726160
0.000000 0.000000 0.796096
0.000000 0.000000 0.866171
0.000000 0.000000 0.936375
0.000000 0.000000 1.000000
0.000000 0.000000 1.000000
0.000000 0.038906 0.000000
0.000000 0.038715 0.038715
0.000000 0.038403 0.104998
0.000000 0.038086 0.172296
0.000000 0.037766 0.240203
0.000000 0.037443 0.308549
0.000000 0.037120 0.377241
0.000000 0.036795 0.446217
0.000000 0.036469 0.515435
0.000000 0.036141 0.584864
0.000000 0.035813 0.654480
0.000000 0.035484 0.724264
0.000000 0.035155 0.794200
0.000000 0.034825 0.864276
0.000000 0.034494 0.934480
0.000000 0.034163 1.000000
0.000000 0.033890 1.000000
0.000000 0.102407 0.000000
0.000000 0.102216 0.035621
0.000000 0.101904 0.101904
0.000000 0.101587 0.169202
0.000000 0.101267 0.237109
0.000000 0.100944 0.305455
0.000000 0.100621 0.374147
0.000000 0.100296 0.443123
0.000000 0.099970 0.512341
0.000000 0.099642 0.581770
0.000000 0.099314 0.651386
0.000000 0.098986 0.721170
0.000000 0.098656 0.791106
0.000000 0.098326 0.861182
0.000000 0.097995 0.931386
0.000000 0.097664 1.000000
0.000000 0.097391 1.000000
0.000000 0.166881 0.000000
0.000000 0.166690 0.032480
0.000000 0.166377 0.098762
0.000000 0.166060 0.166060
0.000000 0.165740 0.233967
0.000000 0.165418 0.302314
0.000000 0.165094 0.371006
0.000000 0.164769 0.439982
0.000000 0.164443 0.509200
0.000000 0.164116 0.578629
0.000000 0.163788 0.648245
0.000000 0.163459 0.718029
0.000000 0.163130 0.787965
0.000000 0.162799 0.858040
0.000000 0.162469 0.928244
0.000000 0.162137 0.998568
0.000000 0.161865 1.000000
0.000000 0.231938 0.000000
0.000000 0.231747 0.029310
0.000000 0.231435 0.095592
0.000000 0.231117 0.162890
0.000000 0.230797 0.230797
0.000000 0.230475 0.299144
0.000000 0.230152 0.367836
0.000000 0.229827 0.436812
0.000000 0.229500 0.506030
0.000000 0.229173 0.575459
0.000000 0.228845 0.645075
0.000000 0.228516 0.714859
0.000000 0.228187 0.784795
0.000000 0.227857 0.854870
0.000000 0.227526 0.925075
0.000000 0.227194 0.995398
0.000000 0.226922 1.000000
0.000000 0.297417 0.000000
0.000000 0.297225 0.026119
0.000000 0.296913 0.092402
0.000000 0.296596 0.159700
0.000000 0.296276 0.227607
0.000000 0.295954 0.295954
0.000000 0.295630 0.364645
0.000000 0.295305 0.433622
0.000000 0.294979 0.502840
0.000000 0.294652 0.572269
0.000000 0.294324 0.641885
0.000000 0.293995 0.711668
0.000000 0.293665 0.781604
0.000000 0.293335 0.851680
0.000000 0.293004 0.921884
0.000000 0.292673 0.992208
0.000000 0.292401 1.000000
0.000000 0.363226 0.000000
0.000000 0.363034 0.022913
0.000000 0.362722 0.089196
0.000000 0.362405 0.156494
0.000000 0.362085 0.224401
0.000000 0.361763 0.292747
0.000000 0.361439 0.361439
0.000000 0.361114 0.430415
0.000000 0.360788 0.499633
0.000000 0.360461 0.569062
0.000000 0.360133 0.638678
0.000000 0.359804 0.708462
0.000000 0.359474 0.778398
0.000000 0.359144 0.848474
0.000000 0.358813 0.918678
0.000000 0.358482 0.989002
0.000000 0.358210 1.000000
0.000000 0.429307 0.000000
0.000000 0.429116 0.019693
0.000000 0.428803 0.085976
0.000000 0.428486 0.153274
0.000000 0.428166 0.221181
0.000000 0.427844 0.289528
0.000000 0.427520 0.358219
0.000000 0.427195 0.427195
0.000000 0.426869 0.496414
0.000000 0.426542 0.565843
0.000000 0.426214 0.635459
0.000000 0.425885 0.705242
0.000000 0.425556 0.775178
0.000000 0.425225 0.845254
0.000000 0.424895 0.915458
0.000000 0.424563 0.985782
0.000000 0.424291 1.000000
0.000000 0.495620 0.000000
0.000000 0.495429 0.016462
0.000000 0.495117 0.082745
0.000000 0.494800 0.150043
0.000000 0.494480 0.217950
0.000000 0.494157 0.286297
0.000000 0.493834 0.354988
0.000000 0.493509 0.423964
0.000000 0.493183 0.493183
0.000000 0.492855 0.562612
0.000000 0.492527 0.632227
0.000000 0.492198 0.702011
0.000000 0.491869 0.771947
0.000000 0.491539 0.842023
0.000000 0.491208 0.912227
0.000000 0.490877 0.982551
0.000000 0.490604 1.000000
0.000000 0.562136 0.000000
0.000000 0.561944 0.013221
0.000000 0.561632 0.079504
0.000000 0.561315 0.146802
0.000000 0.560995 0.214709
0.000000 0.560673 0.283056
0.000000 0.560349 0.351747
0.000000 0.560024 0.420724
0.000000 0.559698 0.489942
0.000000 0.559371 0.559371
0.000000 0.559043 0.628987
0.000000 0.558714 0.698770
0.000000 0.558384 0.768706
0.000000 0.558054 0.838782
0.000000 0.557723 0.908986
0.000000 0.557392 0.979310
0.000000 0.557120 1.000000
0.000000 0.628830 0.000000
0.000000 0.628639 0.009972
0.000000 0.628326 0.076254
0.000000 0.628009 0.143552
0.000000 0.627689 0.211459
0.000000 0.627367 0.279806
0.000000 0.627043 0.348498
0.000000 0.626718 0.417474
0.000000 0.626392 0.486692
0.000000 0.626065 0.556121
0.000000 0.625737 0.625737
0.000000 0.625408 0.695521
0.000000 0.625079 0.765457
0.000000 0.624748 0.835532
0.000000 0.624418 0.905737
0.000000 0.624086 0.976060
0.000000 0.623814 1.000000
0.000000 0.695685 0.000000
0.000000 0.695494 0.006714
0.000000 0.695181 0.072997
0.000000 0.694864 0.140295
0.000000 0.694544 0.208202
0.000000 0.694222 0.276549
0.000000 0.693899 0.345240
0.000000 0.693574 0.414217
0.000000 0.693247 0.483435
0.000000 0.692920 0.552864
0.000000 0.692592 0.622480
0.000000 0.692263 0.692263
0.000000 0.691934 0.762199
0.000000 0.691604 0.832275
0.000000 0.691273 0.902479
0.000000 0.690941 0.972803
0.000000 0.690669 1.000000
0.000000 0.762686 0.000000
0.000000 0.762495 0.003450
0.000000 0.762183 0.069733
0.000000 0.761865 0.137030
0.000000 0.761545 0.204938
0.000000 0.761223 0.273284
0.000000 0.760900 0.341976
0.000000 0.760575 0.410952
0.000000 0.760248 0.480170
0.000000 0.759921 0.549599
0.000000 0.759593 0.619215
0.000000 0.759264 0.688999
0.000000 0.758935 0.758935
0.000000 0.758605 0.829010
0.000000 0.758274 0.899215
0.000000 0.757942 0.969538
0.000000 0.757670 1.000000
0.000000 0.829821 0.000000
0.000000 0.829630 0.000179
0.000000 0.829317 0.066461
0.000000 0.829000 0.133759
0.000000 0.828680 0.201666
0.000000 0.828358 0.270013
0.000000 0.828034 0.338705
0.000000 0.827709 0.407681
0.000000 0.827383 0.476899
0.000000 0.827056 0.546328
0.000000 0.826728 0.615944
0.000000 0.826399 0.685728
0.000000 0.826070 0.755664
0.000000 0.825739 0.825739
0.000000 0.825409 0.895944
0.000000 0.825077 0.966267
0.000000 0.824805 1.000000
0.000000 0.897079 0.000000
0.000000 0.896888 0.000000
0.000000 0.896575 0.063184
0.000000 0.896258 0.130482
0.000000 0.895938 0.198389
0.000000 0.895616 0.266736
0.000000 0.895292 0.335428
0.000000 0.894967 0.404404
0.000000 0.894641 0.473622
0.000000 0.894314 0.543051
0.000000 0.893986 0.612667
0.000000 0.893657 0.682451
0.000000 0.893328 0.752387
0.000000 0.892997 0.822462
0.000000 0.892667 0.892667
0.000000 0.892335 0.962990
0.000000 0.892063 1.000000
0.000000 0.964452 0.000000
0.000000 0.964260 0.000000
0.000000 0.963948 0.059902
0.000000 0.963631 0.127200
0.000000 0.963311 0.195107
0.000000 0.962989 0.263453
0.000000 0.962665 0.332145
0.000000 0.962340 0.401121
0.000000 0.962014 0.470339
0.000000 0.961687 0.539768
0.000000 0.961359 0.609384
0.000000 0.961030 0.679168
0.000000 0.960700 0.749104
0.000000 0.960370 0.819180
0.000000 0.960039 0.889384
0.000000 0.959708 0.959708
0.000000 0.959436 1.000000
0.000000 1.000000 0.000000
0.000000 1.000000 0.000000
0.000000 1.000000 0.057206
0.000000 1.000000 0.124504
0.000000 1.000000 0.192411
0.000000 1.000000 0.260757
0.000000 1.000000 0.329449
0.000000 1.000000 0.398425
0.000000 1.000000 0.467643
0.000000 1.000000 0.537072
0.000000 1.000000 0.606688
0.000000 1.000000 0.676472
0.000000 1.000000 0.746408
0.000000 1.000000 0.816484
0.000000 1.000000 0.886688
0.000000 1.000000 0.957012
0.000000 1.000000 1.000000
0.040239 0.000000 0.000000
0.040047 0.000000 0.040047
0.039735 0.000000 0.106330
0.039418 0.000000 0.173628
0.039098 0.000000 0.241535
0.038776 0.000000 0.309881
0.038452 0.000000 0.378573
0.038127 0.000000 0.447549
0.037801 0.000000 0.516767
0.037474 0.000000 0.586196
0.037145 0.000000 0.655812
0.036817 0.000000 0.725596
0.036487 0.000000 0.795532
0.036157 0.000000 0.865608
0.035826 0.000000 0.935812
0.035495 0.000000 1.000000
0.035223 0.000000 1.000000
0.038343 0.038343 0.000000
0.038151 0.038151 0.038151
0.037839 0.037839 0.104434
0.037522 0.037522 0.171732
0.037202 0.037202 0.239639
0.036880 0.036880 0.307986
0.036556 0.036556 0.376678
0.036231 0.036231 0.445654
0.035905 0.035905 0.514872
0.035578 0.035578 0.584301
0.035250 0.035250 0.653917
0.034921 0.034921 0.723700
0.034591 0.034591 0.793636
0.034261 0.034261 0.863712
0.033930 0.033930 0.933916
0.033599 0.033599 1.000000
0.033327 0.033327 1.000000
0.035249 0.101844 0.000000
0.035057 0.101652 0.035057
0.034745 0.101340 0.101340
0.034428 0.101023 0.168638
0.034108 0.100703 0.236545
0.033786 0.100381 0.304892
0.033462 0.100057 0.373584
0.033137 0.099732 0.442560
0.032811 0.099406 0.511778
0.032484 0.099079 0.581207
0.032156 0.098751 0.650823
0.031827 0.098422 0.720606
0.031497 0.098092 0.790543
0.031167 0.097762 0.860618
0.030836 0.097431 0.930822
0.030505 0.097100 1.000000
0.030233 0.096828 1.000000
0.032107 0.166318 0.000000
0.031916 0.166126 0.031916
0.031604 0.165814 0.098199
0.031287 0.165497 0.165497
0.030967 0.165177 0.233404
0.030645 0.164855 0.301750
0.030321 0.164531 0.370442
0.029996 0.164206 0.439418
0.029670 0.163880 0.508636
0.029343 0.163553 0.578065
0.029014 0.163225 0.647681
0.028686 0.162896 0.717465
0.028356 0.162566 0.787401
0.028026 0.162236 0.857477
0.027695 0.161905 0.927681
0.027364 0.161574 0.998005
0.027091 0.161302 1.000000
0.028938 0.231375 0.000000
0.028746 0.231183 0.028746
0.028434 0.230871 0.095029
0.028117 0.230554 0.162327
0.027797 0.230234 0.230234
0.027475 0.229912 0.298581
0.027151 0.229588 0.367272
0.026826 0.229263 0.436248
0.026500 0.228937 0.505467
0.026173 0.228610 0.574896
0.025845 0.228282 0.644512
0.025516 0.227953 0.714295
0.025186 0.227623 0.784231
0.024856 0.227293 0.854307
0.024525 0.226962 0.924511
0.024194 0.226631 0.994835
0.023922 0.226359 1.000000
0.025747 0.296853 0.000000
0.025556 0.296662 0.025556
0.025244 0.296349 0.091839
0.024926 0.296032 0.159137
0.024606 0.295712 0.227044
0.024284 0.295390 0.295390
0.023961 0.295067 0.364082
0.023636 0.294742 0.433058
0.023310 0.294415 0.502276
0.022982 0.294088 0.571705
0.022654 0.293760 0.641321
0.022325 0.293431 0.711105
0.021996 0.293102 0.781041
0.021666 0.292772 0.851117
0.021335 0.292441 0.921321
0.021003 0.292109 0.991645
0.020731 0.291837 1.000000
0.022541 0.362662 0.000000
0.022350 0.362471 0.022350
0.022037 0.362158 0.088632
0.021720 0.361841 0.155930
0.021400 0.361521 0.223837
0.021078 0.361199 0.292184
0.020754 0.360876 0.360876
0.020429 0.360551 0.429852
0.020103 0.360224 0.499070
0.019776 0.359897 0.568499
0.019448 0.359569 0.638115
0.019119 0.359240 0.707898
0.018789 0.358911 0.777835
0.018459 0.358581 0.847910
0.018128 0.358250 0.918114
0.017797 0.357918 0.988438
0.017525 0.357646 1.000000
0.019321 0.428744 0.000000
0.019130 0.428552 0.019130
0.018817 0.428240 0.085412
0.018500 0.427923 0.152710
0.018180 0.427603 0.220617
0.017858 0.427281 0.288964
0.017535 0.426957 0.357656
0.017210 0.426632 0.426632
0.016883 0.426306 0.495850
0.016556 0.425979 0.565279
0.016228 0.425651 0.634895
0.015899 0.425322 0.704679
0.015570 0.424992 0.774615
0.015240 0.424662 0.844690
0.014909 0.424331 0.914895
0.014577 0.424000 0.985218
0.014305 0.423728 1.000000
0.016090 0.495057 0.000000
0.015899 0.494865 0.015899
0.015586 0.494553 0.082181
0.015269 0.494236 0.149479
0.014949 0.493916 0.217386
0.014627 0.493594 0.285733
0.014304 0.493270 0.354425
0.013979 0.492945 0.423401
0.013652 0.492619 0.492619
0.013325 0.492292 0.562048
0.012997 0.491964 0.631664
0.012668 0.491635 0.701448
0.012339 0.491305 0.771384
0.012009 0.490975 0.841459
0.011678 0.490644 0.911664
0.011346 0.490313 0.981987
0.011074 0.490041 1.000000
0.012849 0.561572 0.000000
0.012658 0.561381 0.012658
0.012346 0.561068 0.078941
0.012028 0.560751 0.146239
0.011708 0.560431 0.214146
0.011386 0.560109 0.282492
0.011063 0.559786 0.351184
0.010738 0.559461 0.420160
0.010411 0.559134 0.489378
0.010084 0.558807 0.558807
0.009756 0.558479 0.628423
0.009427 0.558150 0.698207
0.009098 0.557821 0.768143
0.008768 0.557491 0.838218
0.008437 0.557160 0.908423
0.008105 0.556828 0.978746
0.007833 0.556556 1.000000
0.009600 0.628267 0.000000
0.009408 0.628075 0.009408
0.009096 0.627763 0.075691
0.008779 0.627446 0.142989
0.008459 0.627126 0.210896
0.008137 0.626804 0.279243
0.007813 0.626480 0.347934
0.007488 0.626155 0.416910
0.007162 0.625829 0.486129
0.006835 0.625502 0.555558
0.006507 0.625174 0.625174
0.006178 0.624845 0.694957
0.005848 0.624515 0.764893
0.005518 0.624185 0.834969
0.005187 0.623854 0.905173
0.004856 0.623523 0.975497
0.004584 0.623251 1.000000
0.006342 0.695122 0.000000
0.006151 0.694930 0.006151
0.005839 0.694618 0.072434
0.005521 0.694301 0.139731
0.005201 0.693981 0.207639
0.004879 0.693659 0.275985
0.004556 0.693335 0.344677
0.004231 0.693010 0.413653
0.003904 0.692684 0.482871
0.003577 0.692357 0.552300
0.003249 0.692029 0.621916
0.002920 0.691700 0.691700
0.002591 0.691370 0.761636
0.002261 0.691040 0.831711
0.001930 0.690709 0.901916
0.001598 0.690378 0.972239
0.001326 0.690106 1.000000
0.003078 0.762123 0.000000
0.002886 0.761931 0.002886
0.002574 0.761619 0.069169
0.002257 0.761302 0.136467
0.001937 0.760982 0.204374
0.001615 0.760660 0.272721
0.001291 0.760336 0.341412
0.000966 0.760011 0.410388
0.000640 0.759685 0.479607
0.000313 0.759358 0.549036
0.000000 0.759030 0.618652
0.000000 0.758701 0.688435
0.000000 0.758371 0.758371
0.000000 0.758041 0.828447
0.000000 0.757710 0.898651
0.000000 0.757379 0.968975
0.000000 0.757107 1.000000
0.000000 0.829258 0.000000
0.000000 0.829066 0.000000
0.000000 0.828754 0.065898
0.000000 0.828437 0.133196
0.000000 0.828117 0.201103
0.000000 0.827795 0.269450
0.000000 0.827471 0.338141
0.000000 0.827146 0.407117
0.000000 0.826820 0.476336
0.000000 0.826493 0.545765
0.000000 0.826165 0.615381
0.000000 0.825836 0.685164
0.000000 0.825506 0.755100
0.000000 0.825176 0.825176
0.000000 0.824845 0.895380
0.000000 0.824514 0.965704
0.000000 0.824242 1.000000
0.000000 0.896516 0.000000
0.000000 0.896324 0.000000
0.000000 0.896012 0.062621
0.000000 0.895695 0.129919
0.000000 0.895375 0.197826
0.000000 0.895053 0.266173
0.000000 0.894729 0.334864
0.000000 0.894404 0.403840
0.000000 0.894078 0.473059
0.000000 0.893751 0.542488
0.000000 0.893423 0.612103
0.000000 0.893094 0.681887
0.000000 0.892764 0.751823
0.000000 0.892434 0.821899
0.000000 0.892103 0.892103
0.000000 0.891772 0.962427
0.000000 0.891500 1.000000
0.000000 0.963888 0.000000
0.000000 0.963697 0.000000
0.000000 0.963384 0.059338
0.000000 0.963067 0.126636
0.000000 0.962747 0.194543
0.000000 0.962425 0.262890
0.000000 0.962101 0.331582
0.000000 0.961776 0.400558
0.000000 0.961450 0.469776
0.000000 0.961123 0.539205
0.000000 0.960795 0.608821
0.000000 0.960466 0.678605
0.000000 0.960137 0.748541
0.000000 0.959806 0.818616
0.000000 0.959476 0.888821
0.000000 0.959144 0.959144
0.000000 0.958872 1.000000
0.000000 1.000000 0.000000
0.000000 1.000000 0.000000
0.000000 1.000000 0.056642
0.000000 1.000000 0.123940
0.000000 1.000000 0.191847
0.000000 1.000000 0.260194
0.000000 1.000000 0.328886
0.000000 1.000000 0.397862
0.000000 1.000000 0.467080
0.000000 1.000000 0.536509
0.000000 1.000000 0.606125
0.000000 1.000000 0.675909
0.000000 1.000000 0.745845
0.000000 1.000000 0.815920
0.000000 1.000000 0.886124
0.000000 1.000000 0.956448
0.000000 1.000000 1.000000
0.105914 0.000000 0.000000
0.105722 0.000000 0.039127
0.105410 0.000000 0.105410
0.105093 0.000000 0.172708
0.104773 0.000000 0.240615
0.104451 0.000000 0.308962
0.104127 0.000000 0.377653
0.103802 0.000000 0.446630
0.103476 0.000000 0.515848
0.103149 0.000000 0.585277
0.102821 0.000000 0.654893
0.102492 0.000000 0.724676
0.102162 0.000000 0.794612
0.101832 0.000000 0.864688
0.101501 0.000000 0.934892
0.101170 0.000000 1.000000
0.100898 0.000000 1.000000
0.104018 0.037423 0.000000
0.103827 0.037232 0.037232
0.103514 0.036919 0.103514
0.103197 0.036602 0.170812
0.102877 0.036282 0.238719
0.102555 0.035960 0.307066
0.102232 0.035637 0.375758
0.101907 0.035312 0.444734
0.101580 0.034985 0.513952
0.101253 0.034658 0.583381
0.100925 0.034330 0.652997
0.100596 0.034001 0.722781
0.100267 0.033672 0.792717
0.099937 0.033342 0.862792
0.099606 0.033011 0.932997
0.099274 0.032679 1.000000
0.099002 0.032407 1.000000
0.100924 0.100924 0.000000
0.100733 0.100733 0.034138
0.100420 0.100420 0.100420
0.100103 0.100103 0.167718
0.099783 0.099783 0.235625
0.099461 0.099461 0.303972
0.099138 0.099138 0.372664
0.098813 0.098813 0.441640
0.098486 0.098486 0.510858
0.098159 0.098159 0.580287
0.097831 0.097831 0.649903
0.097502 0.097502 0.719687
0.097173 0.097173 0.789623
0.096843 0.096843 0.859698
0.096512 0.096512 0.929903
0.096180 0.096180 1.000000
0.095908 0.095908 1.000000
0.097783 0.165398 0.000000
0.097591 0.165206 0.030996
0.097279 0.164894 0.097279
0.096962 0.164577 0.164577
0.096642 0.164257 0.232484
0.096320 0.163935 0.300831
0.095996 0.163611 0.369522
0.095671 0.163286 0.438499
0.095345 0.162960 0.507717
0.095018 0.162633 0.577146
0.094690 0.162305 0.646762
0.094361 0.161976 0.716545
0.094031 0.161646 0.786481
0.093701 0.161316 0.856557
0.093370 0.160985 0.926761
0.093039 0.160654 0.997085
0.092767 0.160382 1.000000
0.094613 0.230455 0.000000
0.094422 0.230264 0.027827
0.094109 0.229951 0.094109
0.093792 0.229634 0.161407
0.093472 0.229314 0.229314
0.093150 0.228992 0.297661
0.092826 0.228668 0.366353
0.092501 0.228343 0.435329
0.092175 0.228017 0.504547
0.091848 0.227690 0.573976
0.091520 0.227362 0.643592
0.091191 0.227033 0.713376
0.090862 0.226704 0.783312
0.090531 0.226373 0.853387
0.090200 0.226043 0.923591
0.089869 0.225711 0.993915
0.089597 0.225439 1.000000
0.091423 0.295933 0.000000
0.091231 0.295742 0.024636
0.090919 0.295430 0.090919
0.090602 0.295113 0.158217
0.090282 0.294793 0.226124
0.089960 0.294471 0.294471
0.089636 0.294147 0.363162
0.089311 0.293822 0.432138
0.088985 0.293496 0.501357
0.088658 0.293168 0.570786
0.088330 0.292840 0.640401
0.088001 0.292512 0.710185
0.087671 0.292182 0.780121
0.087341 0.291852 0.850197
0.087010 0.291521 0.920401
0.086679 0.291190 0.990725
0.086407 0.290917 1.000000
0.088216 0.361742 0.000000
0.088025 0.361551 0.021430
0.087712 0.361239 0.087712
0.087395 0.360922 0.155010
0.087075 0.360602 0.222917
0.086753 0.360280 0.291264
0.086430 0.359956 0.359956
0.086105 0.359631 0.428932
0.085778 0.359305 0.498150
0.085451 0.358977 0.567579
0.085123 0.358649 0.637195
0.084794 0.358321 0.706979
0.084465 0.357991 0.776915
0.084135 0.357661 0.846990
0.083804 0.357330 0.917195
0.083472 0.356999 0.987518
0.083200 0.356726 1.000000
0.084996 0.427824 0.000000
0.084805 0.427632 0.018210
0.084493 0.427320 0.084493
0.084176 0.427003 0.151791
0.083856 0.426683 0.219698
0.083534 0.426361 0.288044
0.083210 0.426037 0.356736
0.082885 0.425712 0.425712
0.082559 0.425386 0.494930
0.082231 0.425059 0.564359
0.081903 0.424731 0.633975
0.081575 0.424402 0.703759
0.081245 0.424072 0.773695
0.080915 0.423742 0.843771
0.080584 0.423411 0.913975
0.080253 0.423080 0.984299
0.079980 0.422808 1.000000
0.081765 0.494137 0.000000
0.081574 0.493946 0.014979
0.081262 0.493633 0.081262
0.080945 0.493316 0.148560
0.080625 0.492996 0.216467
0.080303 0.492674 0.284813
0.079979 0.492351 0.353505
0.079654 0.492026 0.422481
0.079328 0.491699 0.491699
0.079000 0.491372 0.561128
0.078672 0.491044 0.630744
0.078344 0.490715 0.700528
0.078014 0.490386 0.770464
0.077684 0.490056 0.840540
0.077353 0.489725 0.910744
0.077022 0.489393 0.981068
0.076749 0.489121 1.000000
0.078525 0.560652 0.000000
0.078333 0.560461 0.011738
0.078021 0.560149 0.078021
0.077704 0.559832 0.145319
0.077384 0.559512 0.213226
0.077062 0.559190 0.281573
0.076738 0.558866 0.350264
0.076413 0.558541 0.419240
0.076087 0.558215 0.488458
0.075760 0.557888 0.557888
0.075432 0.557559 0.627503
0.075103 0.557231 0.697287
0.074773 0.556901 0.767223
0.074443 0.556571 0.837299
0.074112 0.556240 0.907503
0.073781 0.555909 0.977827
0.073509 0.555636 1.000000
0.075275 0.627347 0.000000
0.075084 0.627155 0.008489
0.074771 0.626843 0.074771
0.074454 0.626526 0.142069
0.074134 0.626206 0.209976
0.073812 0.625884 0.278323
0.073488 0.625560 0.347015
0.073163 0.625235 0.415991
0.072837 0.624909 0.485209
0.072510 0.624582 0.554638
0.072182 0.624254 0.624254
0.071853 0.623925 0.694038
0.071524 0.623595 0.763974
0.071193 0.623265 0.834049
0.070863 0.622934 0.904253
0.070531 0.622603 0.974577
0.070259 0.622331 1.000000
0.072018 0.694202 0.000000
0.071826 0.694011 0.005231
0.071514 0.693698 0.071514
0.071197 0.693381 0.138812
0.070877 0.693061 0.206719
0.070555 0.692739 0.275066
0.070231 0.692415 0.343757
0.069906 0.692090 0.412733
0.069580 0.691764 0.481951
0.069253 0.691437 0.551381
0.068925 0.691109 0.620996
0.068596 0.690780 0.690780
0.068266 0.690451 0.760716
0.067936 0.690120 0.830792
0.067605 0.689790 0.900996
0.067274 0.689458 0.971320
0.067002 0.689186 1.000000
0.068753 0.761203 0.000000
0.068562 0.761012 0.001967
0.068249 0.760699 0.068249
0.067932 0.760382 0.135547
0.067612 0.760062 0.203454
0.067290 0.759740 0.271801
0.066966 0.759416 0.340493
0.066641 0.759091 0.409469
0.066315 0.758765 0.478687
0.065988 0.758438 0.548116
0.065660 0.758110 0.617732
0.065331 0.757781 0.687516
0.065002 0.757452 0.757452
0.064671 0.757121 0.827527
0.064341 0.756791 0.897732
0.064009 0.756459 0.968055
0.063737 0.756187 1.000000
0.065482 0.828338 0.000000
0.065291 0.828146 0.000000
0.064978 0.827834 0.064978
0.064661 0.827517 0.132276
0.064341 0.827197 0.200183
0.064019 0.826875 0.268530
0.063695 0.826551 0.337222
0.063370 0.826226 0.406198
0.063044 0.825900 0.475416
0.062717 0.825573 0.544845
0.062389 0.825245 0.614461
0.062060 0.824916 0.684245
0.061731 0.824586 0.754181
0.061400 0.824256 0.824256
0.061070 0.823925 0.894460
0.060738 0.823594 0.964784
0.060466 0.823322 1.000000
0.062205 0.895596 0.000000
0.062014 0.895404 0.000000
0.061701 0.895092 0.061701
0.061384 0.894775 0.128999
0.061064 0.894455 0.196906
0.060742 0.894133 0.265253
0.060418 0.893809 0.333945
0.060093 0.893484 0.402921
0.059767 0.893158 0.472139
0.059440 0.892831 0.541568
0.059112 0.892503 0.611184
0.058783 0.892174 0.680968
0.058454 0.891844 0.750904
0.058123 0.891514 0.820979
0.057792 0.891183 0.891183
0.057461 0.890852 0.961507
0.057189 0.890580 1.000000
0.058922 0.962968 0.000000
0.058731 0.962777 0.000000
0.058419 0.962465 0.058419
0.058101 0.962147 0.125717
0.057781 0.961828 0.193624
0.057459 0.961505 0.261970
0.057136 0.961182 0.330662
0.056811 0.960857 0.399638
0.056485 0.960531 0.468856
0.056157 0.960203 0.538285
0.055829 0.959875 0.607901
0.055500 0.959546 0.677685
0.055171 0.959217 0.747621
0.054841 0.958887 0.817697
0.054510 0.958556 0.887901
0.054178 0.958225 0.958225
0.053906 0.957952 1.000000
0.056226 1.000000 0.000000
0.056035 1.000000 0.000000
0.055723 1.000000 0.055723
0.055405 1.000000 0.123020
0.055085 1.000000 0.190927
0.054763 1.000000 0.259274
0.054440 1.000000 0.327966
0.054115 1.000000 0.396942
0.053788 1.000000 0.466160
0.053461 1.000000 0.535589
0.053133 1.000000 0.605205
0.052804 1.000000 0.674989
0.052475 1.000000 0.744925
0.052145 1.000000 0.815000
0.051814 1.000000 0.885205
0.051482 1.000000 0.955528
0.051210 1.000000 1.000000
0.172595 0.000000 0.000000
0.172404 0.000000 0.038194
0.172091 0.000000 0.104476
0.171774 0.000000 0.171774
0.171454 0.000000 0.239681
0.171132 0.000000 0.308028
0.170808 0.000000 0.376720
0.170483 0.000000 0.445696
0.170157 0.000000 0.514914
0.169830 0.000000 0.584343
0.169502 0.000000 0.653959
0.169173 0.000000 0.723743
0.168844 0.000000 0.793679
0.168513 0.000000 0.863754
0.168183 0.000000 0.933958
0.167851 0.000000 1.000000
0.167579 0.000000 1.000000
0.170699 0.036489 0.000000
