skills/editops-orchestrator/assets/grade/luts/trailer_punch_v12.cube
TITLE "trailer_punch_v12"
LUT_3D_SIZE 9
DOMAIN_MIN 0.0 0.0 0.0
DOMAIN_MAX 1.0 1.0 1.0
0.000000 0.000000 0.000000
0.000000 0.000000 0.077274
0.000000 0.000000 0.225685
0.000000 0.000000 0.379798
0.000000 0.000000 0.537320
0.000000 0.000000 0.697310
0.000000 0.000000 0.859244
0.000000 0.000000 1.000000
0.000000 0.000000 1.000000
0.000000 0.070194 0.000000
0.000000 0.069399 0.069399
0.000000 0.067872 0.217810
0.000000 0.066286 0.371923
0.000000 0.064665 0.529445
0.000000 0.063019 0.689434
0.000000 0.061353 0.851369
0.000000 0.059671 1.000000
0.000000 0.058338 1.000000
0.000000 0.205006 0.000000
0.000000 0.204211 0.054273
0.000000 0.202684 0.202684
0.000000 0.201099 0.356797
0.000000 0.199478 0.514319
0.000000 0.197832 0.674309
0.000000 0.196166 0.836243
0.000000 0.194483 0.999786
0.000000 0.193150 1.000000
0.000000 0.344998 0.000000
0.000000 0.344203 0.038566
0.000000 0.342676 0.186978
0.000000 0.341091 0.341091
0.000000 0.339470 0.498613
0.000000 0.337824 0.658602
0.000000 0.336158 0.820537
0.000000 0.334475 0.984079
0.000000 0.333142 1.000000
0.000000 0.488087 0.000000
0.000000 0.487292 0.022512
0.000000 0.485765 0.170924
0.000000 0.484179 0.325037
0.000000 0.482559 0.482559
0.000000 0.480913 0.642548
0.000000 0.479246 0.804483
0.000000 0.477564 0.968025
0.000000 0.476231 1.000000
0.000000 0.633417 0.000000
0.000000 0.632622 0.006207
0.000000 0.631095 0.154618
0.000000 0.629510 0.308731
0.000000 0.627889 0.466253
0.000000 0.626243 0.626243
0.000000 0.624577 0.788177
0.000000 0.622894 0.951720
0.000000 0.621561 1.000000
0.000000 0.780514 0.000000
0.000000 0.779719 0.000000
0.000000 0.778192 0.138114
0.000000 0.776606 0.292227
0.000000 0.774985 0.449749
0.000000 0.773339 0.609739
0.000000 0.771673 0.771673
0.000000 0.769991 0.935216
0.000000 0.768658 1.000000
0.000000 0.929071 0.000000
0.000000 0.928276 0.000000
0.000000 0.926749 0.121447
0.000000 0.925164 0.275560
0.000000 0.923543 0.433082
0.000000 0.921897 0.593072
0.000000 0.920231 0.755006
0.000000 0.918548 0.918548
0.000000 0.917215 1.000000
0.000000 1.000000 0.000000
0.000000 1.000000 0.000000
0.000000 1.000000 0.108242
0.000000 1.000000 0.262355
0.000000 1.000000 0.419877
0.000000 1.000000 0.579867
0.000000 1.000000 0.741801
0.000000 1.000000 0.905343
0.000000 1.000000 1.000000
0.075728 0.000000 0.000000
0.074933 0.000000 0.074933
0.073406 0.000000 0.223344
0.071820 0.000000 0.377457
0.070200 0.000000 0.534979
0.068554 0.000000 0.694969
0.066888 0.000000 0.856903
0.065205 0.000000 1.000000
0.063872 0.000000 1.000000
0.067852 0.067852 0.000000
0.067057 0.067057 0.067057
0.065531 0.065531 0.215469
0.063945 0.063945 0.369582
0.062324 0.062324 0.527104
0.060678 0.060678 0.687093
0.059012 0.059012 0.849028
0.057330 0.057330 1.000000
0.055996 0.055996 1.000000
0.052727 0.202665 0.000000
0.051932 0.201870 0.051932
0.050405 0.200343 0.200343
0.048819 0.198758 0.354456
0.047199 0.197137 0.511978
0.045553 0.195491 0.671968
0.043887 0.193825 0.833902
0.042204 0.192142 0.997445
0.040871 0.190809 1.000000
0.037020 0.342657 0.000000
0.036225 0.341862 0.036225
0.034698 0.340335 0.184637
0.033113 0.338750 0.338750
0.031492 0.337129 0.496272
0.029846 0.335483 0.656261
0.028180 0.333817 0.818196
0.026497 0.332134 0.981738
0.025164 0.330801 1.000000
0.020966 0.485746 0.000000
0.020171 0.484951 0.020171
0.018644 0.483424 0.168583
0.017059 0.481838 0.322696
0.015438 0.480218 0.480218
0.013792 0.478571 0.640207
0.012126 0.476905 0.802142
0.010443 0.475223 0.965684
0.009110 0.473890 1.000000
0.004661 0.631076 0.000000
0.003866 0.630281 0.003866
0.002339 0.628754 0.152277
0.000753 0.627169 0.306390
0.000000 0.625548 0.463912
0.000000 0.623902 0.623902
0.000000 0.622236 0.785836
0.000000 0.620553 0.949379
0.000000 0.619220 1.000000
0.000000 0.778173 0.000000
0.000000 0.777378 0.000000
0.000000 0.775851 0.135773
0.000000 0.774265 0.289886
0.000000 0.772644 0.447408
0.000000 0.770998 0.607398
0.000000 0.769332 0.769332
0.000000 0.767650 0.932875
0.000000 0.766317 1.000000
0.000000 0.926730 0.000000
0.000000 0.925935 0.000000
0.000000 0.924408 0.119106
0.000000 0.922823 0.273219
0.000000 0.921202 0.430741
0.000000 0.919556 0.590731
0.000000 0.917890 0.752665
0.000000 0.916207 0.916207
0.000000 0.914874 1.000000
0.000000 1.000000 0.000000
0.000000 1.000000 0.000000
0.000000 1.000000 0.105901
0.000000 1.000000 0.260014
0.000000 1.000000 0.417536
0.000000 1.000000 0.577526
0.000000 1.000000 0.739460
0.000000 1.000000 0.903002
0.000000 1.000000 1.000000
0.221170 0.000000 0.000000
0.220375 0.000000 0.070437
0.218848 0.000000 0.218848
0.217262 0.000000 0.372961
0.215642 0.000000 0.530483
0.213996 0.000000 0.690473
0.212329 0.000000 0.852407
0.210647 0.000000 1.000000
0.209314 0.000000 1.000000
0.213294 0.063356 0.000000
0.212499 0.062561 0.062561
0.210972 0.061034 0.210972
0.209387 0.059449 0.365085
0.207766 0.057828 0.522607
0.206120 0.056182 0.682597
0.204454 0.054516 0.844531
0.202771 0.052833 1.000000
0.201438 0.051500 1.000000
0.198169 0.198169 0.000000
0.197374 0.197374 0.047436
0.195847 0.195847 0.195847
0.194261 0.194261 0.349960
0.192641 0.192641 0.507482
0.190995 0.190995 0.667472
0.189329 0.189329 0.829406
0.187646 0.187646 0.992949
0.186313 0.186313 1.000000
0.182462 0.338161 0.000000
0.181667 0.337366 0.031729
0.180140 0.335839 0.180140
0.178555 0.334253 0.334253
0.176934 0.332633 0.491775
0.175288 0.330987 0.651765
0.173622 0.329321 0.813699
0.171939 0.327638 0.977242
0.170606 0.326305 1.000000
0.166408 0.481250 0.000000
0.165613 0.480455 0.015675
0.164086 0.478928 0.164086
0.162501 0.477342 0.318199
0.160880 0.475721 0.475721
0.159234 0.474075 0.635711
0.157568 0.472409 0.797645
0.155885 0.470727 0.961188
0.154552 0.469394 1.000000
0.150103 0.626580 0.000000
0.149308 0.625785 0.000000
0.147781 0.624258 0.147781
0.146195 0.622672 0.301894
0.144575 0.621052 0.459416
0.142929 0.619406 0.619406
0.141262 0.617740 0.781340
0.139580 0.616057 0.944882
0.138247 0.614724 1.000000
0.133599 0.773676 0.000000
0.132804 0.772881 0.000000
0.131277 0.771354 0.131277
0.129692 0.769769 0.285390
0.128071 0.768148 0.442912
0.126425 0.766502 0.602902
0.124759 0.764836 0.764836
0.123076 0.763153 0.928379
0.121743 0.761820 1.000000
0.116931 0.922234 0.000000
0.116136 0.921439 0.000000
0.114610 0.919912 0.114610
0.113024 0.918326 0.268723
0.111403 0.916706 0.426245
0.109757 0.915060 0.586234
0.108091 0.913394 0.748168
0.106409 0.911711 0.911711
0.105075 0.910378 1.000000
0.103726 1.000000 0.000000
0.102931 1.000000 0.000000
0.101404 1.000000 0.101404
0.099819 1.000000 0.255518
0.098198 1.000000 0.413039
0.096552 1.000000 0.573029
0.094886 1.000000 0.734963
0.093204 1.000000 0.898506
0.091870 1.000000 1.000000
0.372200 0.000000 0.000000
0.371404 0.000000 0.065768
0.369878 0.000000 0.214179
0.368292 0.000000 0.368292
0.366671 0.000000 0.525814
0.365025 0.000000 0.685804
0.363359 0.000000 0.847738
0.361677 0.000000 1.000000
0.360344 0.000000 1.000000
0.364324 0.058687 0.000000
0.363529 0.057892 0.057892
0.362002 0.056365 0.206303
0.360417 0.054780 0.360417
0.358796 0.053159 0.517938
0.357150 0.051513 0.677928
0.355484 0.049847 0.839862
0.353801 0.048164 1.000000
0.352468 0.046831 1.000000
0.349199 0.193500 0.000000
0.348404 0.192705 0.042767
0.346877 0.191178 0.191178
0.345291 0.189592 0.345291
0.343670 0.187972 0.502813
0.342024 0.186326 0.662803
0.340358 0.184660 0.824737
0.338676 0.182977 0.988280
0.337343 0.181644 1.000000
0.333492 0.333492 0.000000
0.332697 0.332697 0.027060
0.331170 0.331170 0.175471
0.329584 0.329584 0.329584
0.327964 0.327964 0.487106
0.326318 0.326318 0.647096
0.324652 0.324652 0.809030
0.322969 0.322969 0.972573
0.321636 0.321636 1.000000
0.317438 0.476581 0.000000
0.316643 0.475786 0.011006
0.315116 0.474259 0.159417
0.313530 0.472673 0.313530
0.311910 0.471052 0.471052
0.310264 0.469406 0.631042
0.308598 0.467740 0.792976
0.306915 0.466058 0.956519
0.305582 0.464725 1.000000
0.301132 0.621911 0.000000
0.300337 0.621116 0.000000
0.298811 0.619589 0.143112
0.297225 0.618003 0.297225
0.295604 0.616383 0.454747
0.293958 0.614737 0.614737
0.292292 0.613071 0.776671
0.290610 0.611388 0.940213
0.289276 0.610055 1.000000
0.284629 0.769008 0.000000
0.283834 0.768212 0.000000
0.282307 0.766686 0.126608
0.280721 0.765100 0.280721
0.279101 0.763479 0.438243
0.277455 0.761833 0.598233
0.275788 0.760167 0.760167
0.274106 0.758485 0.923710
0.272773 0.757152 1.000000
0.267961 0.917565 0.000000
0.267166 0.916770 0.000000
0.265639 0.915243 0.109941
0.264054 0.913658 0.264054
0.262433 0.912037 0.421576
0.260787 0.910391 0.581565
0.259121 0.908725 0.743500
0.257438 0.907042 0.907042
0.256105 0.905709 1.000000
0.254756 1.000000 0.000000
0.253961 1.000000 0.000000
0.252434 1.000000 0.096736
0.250849 1.000000 0.250849
0.249228 1.000000 0.408371
0.247582 1.000000 0.568360
0.245916 1.000000 0.730295
0.244233 1.000000 0.893837
0.242900 1.000000 1.000000
0.526570 0.000000 0.000000
0.525775 0.000000 0.060996
0.524248 0.000000 0.209407
0.522662 0.000000 0.363520
0.521042 0.000000 0.521042
0.519396 0.000000 0.681032
0.517730 0.000000 0.842966
0.516047 0.000000 1.000000
0.514714 0.000000 1.000000
0.518694 0.053915 0.000000
0.517899 0.053120 0.053120
0.516373 0.051593 0.201531
0.514787 0.050008 0.355644
0.513166 0.048387 0.513166
0.511520 0.046741 0.673156
0.509854 0.045075 0.835090
0.508172 0.043392 0.998633
0.506838 0.042059 1.000000
0.503569 0.188728 0.000000
0.502774 0.187933 0.037995
0.501247 0.186406 0.186406
0.499661 0.184820 0.340519
0.498041 0.183200 0.498041
0.496395 0.181553 0.658031
0.494729 0.179887 0.819965
0.493046 0.178205 0.983507
0.491713 0.176872 1.000000
0.487862 0.328720 0.000000
0.487067 0.327925 0.022288
0.485540 0.326398 0.170699
0.483955 0.324812 0.324812
0.482334 0.323192 0.482334
0.480688 0.321546 0.642324
0.479022 0.319879 0.804258
0.477339 0.318197 0.967801
0.476006 0.316864 1.000000
0.471808 0.471808 0.000000
0.471013 0.471013 0.006234
0.469486 0.469486 0.154645
0.467901 0.467901 0.308758
0.466280 0.466280 0.466280
0.464634 0.464634 0.626270
0.462968 0.462968 0.788204
0.461285 0.461285 0.951747
0.459952 0.459952 1.000000
0.455503 0.617139 0.000000
0.454708 0.616344 0.000000
0.453181 0.614817 0.138340
0.451595 0.613231 0.292453
0.449975 0.611611 0.449975
0.448329 0.609965 0.609965
0.446663 0.608298 0.771899
0.444980 0.606616 0.935441
0.443647 0.605283 1.000000
0.438999 0.764235 0.000000
0.438204 0.763440 0.000000
0.436677 0.761913 0.121836
0.435092 0.760328 0.275949
0.433471 0.758707 0.433471
0.431825 0.757061 0.593461
0.430159 0.755395 0.755395
0.428476 0.753712 0.918938
0.427143 0.752379 1.000000
0.422332 0.912793 0.000000
0.421537 0.911998 0.000000
0.420010 0.910471 0.105168
0.418424 0.908885 0.259281
0.416803 0.907265 0.416803
0.415157 0.905619 0.576793
0.413491 0.903953 0.738727
0.411809 0.902270 0.902270
0.410476 0.900937 1.000000
0.409127 1.000000 0.000000
0.408332 1.000000 0.000000
0.406805 1.000000 0.091963
0.405219 1.000000 0.246076
0.403598 1.000000 0.403598
0.401952 1.000000 0.563588
0.400286 1.000000 0.725522
0.398604 1.000000 0.889065
0.397271 1.000000 1.000000
0.683359 0.000000 0.000000
0.682564 0.000000 0.056149
0.681037 0.000000 0.204560
0.679451 0.000000 0.358673
0.677831 0.000000 0.516195
0.676185 0.000000 0.676185
0.674519 0.000000 0.838119
0.672836 0.000000 1.000000
0.671503 0.000000 1.000000
0.675483 0.049068 0.000000
0.674688 0.048273 0.048273
0.673161 0.046746 0.196684
0.671576 0.045161 0.350797
0.669955 0.043540 0.508319
0.668309 0.041894 0.668309
0.666643 0.040228 0.830243
0.664960 0.038545 0.993786
0.663627 0.037212 1.000000
0.660358 0.183881 0.000000
0.659563 0.183086 0.033148
0.658036 0.181559 0.181559
0.656450 0.179973 0.335672
0.654830 0.178353 0.493194
0.653184 0.176707 0.653184
0.651518 0.175040 0.815118
0.649835 0.173358 0.978660
0.648502 0.172025 1.000000
0.644651 0.323873 0.000000
0.643856 0.323078 0.017441
0.642329 0.321551 0.165852
0.640744 0.319965 0.319965
0.639123 0.318345 0.477487
0.637477 0.316699 0.637477
0.635811 0.315032 0.799411
0.634128 0.313350 0.962954
0.632795 0.312017 1.000000
0.628597 0.466961 0.000000
0.627802 0.466166 0.001387
0.626275 0.464639 0.149798
0.624690 0.463054 0.303911
0.623069 0.461433 0.461433
0.621423 0.459787 0.621423
0.619757 0.458121 0.783357
0.618074 0.456438 0.946900
0.616741 0.455105 1.000000
0.612292 0.612292 0.000000
0.611497 0.611497 0.000000
0.609970 0.609970 0.133493
0.608384 0.608384 0.287606
0.606764 0.606764 0.445128
0.605118 0.605118 0.605118
0.603451 0.603451 0.767052
0.601769 0.601769 0.930594
0.600436 0.600436 1.000000
0.595788 0.759388 0.000000
0.594993 0.758593 0.000000
0.593466 0.757066 0.116989
0.591881 0.755481 0.271102
0.590260 0.753860 0.428624
0.588614 0.752214 0.588614
0.586948 0.750548 0.750548
0.585265 0.748865 0.914091
0.583932 0.747532 1.000000
0.579121 0.907946 0.000000
0.578325 0.907151 0.000000
0.576799 0.905624 0.100321
0.575213 0.904038 0.254434
0.573592 0.902418 0.411956
0.571946 0.900772 0.571946
0.570280 0.899106 0.733880
0.568598 0.897423 0.897423
0.567265 0.896090 1.000000
0.565915 1.000000 0.000000
0.565120 1.000000 0.000000
0.563594 1.000000 0.087116
0.562008 1.000000 0.241229
0.560387 1.000000 0.398751
0.558741 1.000000 0.558741
0.557075 1.000000 0.720675
0.555393 1.000000 0.884218
0.554059 1.000000 1.000000
0.842053 0.000000 0.000000
0.841258 0.000000 0.051243
0.839731 0.000000 0.199654
0.838146 0.000000 0.353767
0.836525 0.000000 0.511289
0.834879 0.000000 0.671279
0.833213 0.000000 0.833213
0.831530 0.000000 0.996755
0.830197 0.000000 1.000000
0.834178 0.044162 0.000000
0.833383 0.043367 0.043367
0.831856 0.041840 0.191778
0.830270 0.040255 0.345891
0.828650 0.038634 0.503413
0.827003 0.036988 0.663403
0.825337 0.035322 0.825337
0.823655 0.033639 0.988880
0.822322 0.032306 1.000000
0.819052 0.178975 0.000000
0.818257 0.178180 0.028242
0.816730 0.176653 0.176653
0.815145 0.175067 0.330766
0.813524 0.173447 0.488288
0.811878 0.171801 0.648278
0.810212 0.170135 0.810212
0.808529 0.168452 0.973755
0.807196 0.167119 1.000000
0.803346 0.318967 0.000000
0.802551 0.318172 0.012535
0.801024 0.316645 0.160946
0.799438 0.315059 0.315059
0.797817 0.313439 0.472581
0.796171 0.311793 0.632571
0.794505 0.310127 0.794505
0.792823 0.308444 0.958048
0.791490 0.307111 1.000000
0.787292 0.462056 0.000000
0.786497 0.461261 0.000000
0.784970 0.459734 0.144892
0.783384 0.458148 0.299005
0.781763 0.456527 0.456527
0.780117 0.454881 0.616517
0.778451 0.453215 0.778451
0.776769 0.451533 0.941994
0.775436 0.450200 1.000000
0.770986 0.607386 0.000000
0.770191 0.606591 0.000000
0.768664 0.605064 0.128587
0.767079 0.603478 0.282700
0.765458 0.601858 0.440222
0.763812 0.600212 0.600212
0.762146 0.598546 0.762146
0.760463 0.596863 0.925688
0.759130 0.595530 1.000000
0.754482 0.754482 0.000000
0.753687 0.753687 0.000000
0.752160 0.752160 0.112083
0.750575 0.750575 0.266196
0.748954 0.748954 0.423718
0.747308 0.747308 0.583708
0.745642 0.745642 0.745642
0.743960 0.743960 0.909185
0.742626 0.742626 1.000000
0.737815 0.903040 0.000000
0.737020 0.902245 0.000000
0.735493 0.900718 0.095416
0.733907 0.899132 0.249529
0.732287 0.897512 0.407051
0.730641 0.895866 0.567040
0.728975 0.894200 0.728975
0.727292 0.892517 0.892517
0.725959 0.891184 1.000000
0.724610 1.000000 0.000000
0.723815 1.000000 0.000000
0.722288 1.000000 0.082211
0.720702 1.000000 0.236324
0.719082 1.000000 0.393845
0.717436 1.000000 0.553835
0.715769 1.000000 0.715769
0.714087 1.000000 0.879312
0.712754 1.000000 1.000000
1.000000 0.000000 0.000000
1.000000 0.000000 0.046288
1.000000 0.000000 0.194699
0.998416 0.000000 0.348812
0.996796 0.000000 0.506334
0.995150 0.000000 0.666324
0.993483 0.000000 0.828258
0.991801 0.000000 0.991801
0.990468 0.000000 1.000000
0.994448 0.039208 0.000000
0.993653 0.038413 0.038413
0.992126 0.036886 0.186824
0.990541 0.035300 0.340937
0.988920 0.033679 0.498459
0.987274 0.032033 0.658449
0.985608 0.030367 0.820383
0.983925 0.028685 0.983925
0.982592 0.027352 1.000000
0.979323 0.174020 0.000000
0.978528 0.173225 0.023287
0.977001 0.171698 0.171698
0.975415 0.170113 0.325811
0.973795 0.168492 0.483333
0.972149 0.166846 0.643323
0.970483 0.165180 0.805257
0.968800 0.163497 0.968800
0.967467 0.162164 1.000000
0.963616 0.314012 0.000000
0.962821 0.313217 0.007581
0.961294 0.311690 0.155992
0.959709 0.310105 0.310105
0.958088 0.308484 0.467627
0.956442 0.306838 0.627617
0.954776 0.305172 0.789551
0.953093 0.303489 0.953093
0.951760 0.302156 1.000000
0.947562 0.457101 0.000000
0.946767 0.456306 0.000000
0.945240 0.454779 0.139938
0.943655 0.453193 0.294051
0.942034 0.451573 0.451573
0.940388 0.449927 0.611563
0.938722 0.448261 0.773497
0.937039 0.446578 0.937039
0.935706 0.445245 1.000000
0.931257 0.602431 0.000000
0.930462 0.601636 0.000000
0.928935 0.600109 0.123632
0.927349 0.598524 0.277745
0.925729 0.596903 0.435267
0.924082 0.595257 0.595257
0.922416 0.593591 0.757191
0.920734 0.591908 0.920734
0.919401 0.590575 1.000000
0.914753 0.749528 0.000000
0.913958 0.748733 0.000000
0.912431 0.747206 0.107129
0.910846 0.745620 0.261242
0.909225 0.744000 0.418764
0.907579 0.742354 0.578753
0.905913 0.740688 0.740688
0.904230 0.739005 0.904230
0.902897 0.737672 1.000000
0.898085 0.898085 0.000000
0.897290 0.897290 0.000000
0.895763 0.895763 0.090461
0.894178 0.894178 0.244574
0.892557 0.892557 0.402096
0.890911 0.890911 0.562086
0.889245 0.889245 0.724020
0.887563 0.887563 0.887563
0.886229 0.886229 1.000000
0.884880 1.000000 0.000000
0.884085 1.000000 0.000000
0.882558 1.000000 0.077256
0.880973 1.000000 0.231369
0.879352 1.000000 0.388891
0.877706 1.000000 0.548881
0.876040 1.000000 0.710815
0.874357 1.000000 0.874357
0.873024 1.000000 1.000000
1.000000 0.000000 0.000000
1.000000 0.000000 0.042363
1.000000 0.000000 0.190774
1.000000 0.000000 0.344887
1.000000 0.000000 0.502409
1.000000 0.000000 0.662399
1.000000 0.000000 0.824333
1.000000 0.000000 0.987876
1.000000 0.000000 1.000000
1.000000 0.035282 0.000000
1.000000 0.034487 0.034487
1.000000 0.032960 0.182898
1.000000 0.031375 0.337012
1.000000 0.029754 0.494533
1.000000 0.028108 0.654523
1.000000 0.026442 0.816457
1.000000 0.024759 0.980000
1.000000 0.023426 1.000000
1.000000 0.170095 0.000000
1.000000 0.169300 0.019362
1.000000 0.167773 0.167773
1.000000 0.166187 0.321886
1.000000 0.164567 0.479408
1.000000 0.162921 0.639398
1.000000 0.161255 0.801332
1.000000 0.159572 0.964875
1.000000 0.158239 1.000000
1.000000 0.310087 0.000000
1.000000 0.309292 0.003655
1.000000 0.307765 0.152066
1.000000 0.306179 0.306179
1.000000 0.304559 0.463701
1.000000 0.302913 0.623691
1.000000 0.301247 0.785625
1.000000 0.299564 0.949168
1.000000 0.298231 1.000000
1.000000 0.453176 0.000000
1.000000 0.452381 0.000000
1.000000 0.450854 0.136012
1.000000 0.449268 0.290125
1.000000 0.447647 0.447647
1.000000 0.446001 0.607637
1.000000 0.444335 0.769571
1.000000 0.442653 0.933114
1.000000 0.441320 1.000000
1.000000 0.598506 0.000000
1.000000 0.597711 0.000000
1.000000 0.596184 0.119707
1.000000 0.594598 0.273820
1.000000 0.592978 0.431342
1.000000 0.591332 0.591332
1.000000 0.589666 0.753266
1.000000 0.587983 0.916808
1.000000 0.586650 1.000000
1.000000 0.745603 0.000000
1.000000 0.744807 0.000000
1.000000 0.743281 0.103203
1.000000 0.741695 0.257316
1.000000 0.740074 0.414838
1.000000 0.738428 0.574828
1.000000 0.736762 0.736762
1.000000 0.735080 0.900305
1.000000 0.733747 1.000000
1.000000 0.894160 0.000000
1.000000 0.893365 0.000000
1.000000 0.891838 0.086536
1.000000 0.890253 0.240649
1.000000 0.888632 0.398171
1.000000 0.886986 0.558160
1.000000 0.885320 0.720095
1.000000 0.883637 0.883637
1.000000 0.882304 1.000000
1.000000 1.000000 0.000000
1.000000 1.000000 0.000000
1.000000 1.000000 0.073331
1.000000 1.000000 0.227444
1.000000 1.000000 0.384966
1.000000 1.000000 0.544955
1.000000 1.000000 0.706890
1.000000 1.000000 0.870432
1.000000 1.000000 1.000000
