skills/editops-orchestrator/assets/grade/luts/trailer_punch_v05.cube
TITLE "trailer_punch_v05"
LUT_3D_SIZE 17
DOMAIN_MIN 0.0 0.0 0.0
DOMAIN_MAX 1.0 1.0 1.0
0.000000 0.000000 0.000000
0.000000 0.000000 0.030785
0.000000 0.000000 0.098347
0.000000 0.000000 0.167555
0.000000 0.000000 0.237706
0.000000 0.000000 0.308527
0.000000 0.000000 0.379870
0.000000 0.000000 0.451641
0.000000 0.000000 0.523776
0.000000 0.000000 0.596227
0.000000 0.000000 0.668958
0.000000 0.000000 0.741940
0.000000 0.000000 0.815151
0.000000 0.000000 0.888569
0.000000 0.000000 0.962181
0.000000 0.000000 1.000000
0.000000 0.000000 1.000000
0.000000 0.029009 0.000000
0.000000 0.028809 0.028809
0.000000 0.028372 0.096371
0.000000 0.027923 0.165579
0.000000 0.027469 0.235730
0.000000 0.027010 0.306551
0.000000 0.026548 0.377894
0.000000 0.026083 0.449665
0.000000 0.025615 0.521800
0.000000 0.025146 0.594251
0.000000 0.024674 0.666982
0.000000 0.024202 0.739964
0.000000 0.023727 0.813175
0.000000 0.023251 0.886593
0.000000 0.022774 0.960205
0.000000 0.022296 1.000000
0.000000 0.021941 1.000000
0.000000 0.092672 0.000000
0.000000 0.092472 0.024473
0.000000 0.092035 0.092035
0.000000 0.091586 0.161243
0.000000 0.091132 0.231394
0.000000 0.090673 0.302214
0.000000 0.090210 0.373557
0.000000 0.089745 0.445328
0.000000 0.089278 0.517463
0.000000 0.088809 0.589915
0.000000 0.088337 0.662646
0.000000 0.087864 0.735628
0.000000 0.087390 0.808838
0.000000 0.086914 0.882257
0.000000 0.086437 0.955868
0.000000 0.085959 1.000000
0.000000 0.085604 1.000000
0.000000 0.157886 0.000000
0.000000 0.157687 0.020031
0.000000 0.157249 0.087593
0.000000 0.156801 0.156801
0.000000 0.156346 0.226952
0.000000 0.155887 0.297772
0.000000 0.155425 0.369115
0.000000 0.154960 0.440886
0.000000 0.154493 0.513021
0.000000 0.154023 0.585472
0.000000 0.153552 0.658204
0.000000 0.153079 0.731186
0.000000 0.152605 0.804396
0.000000 0.152129 0.877815
0.000000 0.151652 0.951426
0.000000 0.151174 1.000000
0.000000 0.150818 1.000000
0.000000 0.223989 0.000000
0.000000 0.223790 0.015528
0.000000 0.223352 0.083090
0.000000 0.222903 0.152298
0.000000 0.222449 0.222449
0.000000 0.221990 0.293270
0.000000 0.221528 0.364613
0.000000 0.221063 0.436384
0.000000 0.220595 0.508519
0.000000 0.220126 0.580970
0.000000 0.219655 0.653701
0.000000 0.219182 0.726683
0.000000 0.218707 0.799893
0.000000 0.218232 0.873312
0.000000 0.217755 0.946924
0.000000 0.217277 1.000000
0.000000 0.216921 1.000000
0.000000 0.290723 0.000000
0.000000 0.290524 0.010983
0.000000 0.290086 0.078544
0.000000 0.289638 0.147753
0.000000 0.289183 0.217903
0.000000 0.288724 0.288724
0.000000 0.288262 0.360067
0.000000 0.287797 0.431838
0.000000 0.287329 0.503973
0.000000 0.286860 0.576424
0.000000 0.286389 0.649155
0.000000 0.285916 0.722138
0.000000 0.285442 0.795348
0.000000 0.284966 0.868767
0.000000 0.284489 0.942378
0.000000 0.284011 1.000000
0.000000 0.283655 1.000000
0.000000 0.357949 0.000000
0.000000 0.357750 0.006404
0.000000 0.357312 0.073965
0.000000 0.356864 0.143173
0.000000 0.356409 0.213324
0.000000 0.355950 0.284145
0.000000 0.355488 0.355488
0.000000 0.355023 0.427259
0.000000 0.354555 0.499394
0.000000 0.354086 0.571845
0.000000 0.353615 0.644576
0.000000 0.353142 0.717559
0.000000 0.352667 0.790769
0.000000 0.352192 0.864188
0.000000 0.351715 0.937799
0.000000 0.351237 1.000000
0.000000 0.350881 1.000000
0.000000 0.425579 0.000000
0.000000 0.425379 0.001797
0.000000 0.424942 0.069359
0.000000 0.424493 0.138567
0.000000 0.424039 0.208718
0.000000 0.423580 0.279538
0.000000 0.423117 0.350881
0.000000 0.422652 0.422652
0.000000 0.422185 0.494787
0.000000 0.421716 0.567238
0.000000 0.421244 0.639970
0.000000 0.420771 0.712952
0.000000 0.420297 0.786162
0.000000 0.419821 0.859581
0.000000 0.419344 0.933192
0.000000 0.418866 1.000000
0.000000 0.418511 1.000000
0.000000 0.493551 0.000000
0.000000 0.493352 0.000000
0.000000 0.492914 0.064729
0.000000 0.492465 0.133937
0.000000 0.492011 0.204088
0.000000 0.491552 0.274908
0.000000 0.491090 0.346251
0.000000 0.490625 0.418022
0.000000 0.490157 0.490157
0.000000 0.489688 0.562609
0.000000 0.489217 0.635340
0.000000 0.488744 0.708322
0.000000 0.488269 0.781532
0.000000 0.487794 0.854951
0.000000 0.487317 0.928562
0.000000 0.486839 1.000000
0.000000 0.486483 1.000000
0.000000 0.561822 0.000000
0.000000 0.561622 0.000000
0.000000 0.561184 0.060078
0.000000 0.560736 0.129287
0.000000 0.560281 0.199437
0.000000 0.559822 0.270258
0.000000 0.559360 0.341601
0.000000 0.558895 0.413372
0.000000 0.558428 0.485507
0.000000 0.557958 0.557958
0.000000 0.557487 0.630689
0.000000 0.557014 0.703672
0.000000 0.556540 0.776882
0.000000 0.556064 0.850301
0.000000 0.555587 0.923912
0.000000 0.555109 0.997702
0.000000 0.554754 1.000000
0.000000 0.630356 0.000000
0.000000 0.630156 0.000000
0.000000 0.629718 0.055410
0.000000 0.629270 0.124618
0.000000 0.628815 0.194769
0.000000 0.628357 0.265590
0.000000 0.627894 0.336933
0.000000 0.627429 0.408704
0.000000 0.626962 0.480839
0.000000 0.626492 0.553290
0.000000 0.626021 0.626021
0.000000 0.625548 0.699003
0.000000 0.625074 0.772214
0.000000 0.624598 0.845633
0.000000 0.624121 0.919244
0.000000 0.623643 0.993034
0.000000 0.623288 1.000000
0.000000 0.699127 0.000000
0.000000 0.698927 0.000000
0.000000 0.698489 0.050726
0.000000 0.698041 0.119934
0.000000 0.697586 0.190085
0.000000 0.697127 0.260906
0.000000 0.696665 0.332248
0.000000 0.696200 0.404020
0.000000 0.695733 0.476155
0.000000 0.695263 0.548606
0.000000 0.694792 0.621337
0.000000 0.694319 0.694319
0.000000 0.693845 0.767529
0.000000 0.693369 0.840948
0.000000 0.692892 0.914560
0.000000 0.692414 0.988349
0.000000 0.692059 1.000000
0.000000 0.768112 0.000000
0.000000 0.767913 0.000000
0.000000 0.767475 0.046027
0.000000 0.767026 0.115235
0.000000 0.766572 0.185386
0.000000 0.766113 0.256207
0.000000 0.765651 0.327550
0.000000 0.765186 0.399321
0.000000 0.764718 0.471456
0.000000 0.764249 0.543907
0.000000 0.763778 0.616638
0.000000 0.763305 0.689620
0.000000 0.762830 0.762830
0.000000 0.762355 0.836249
0.000000 0.761878 0.909861
0.000000 0.761400 0.983650
0.000000 0.761044 1.000000
0.000000 0.837294 0.000000
0.000000 0.837095 0.000000
0.000000 0.836657 0.041314
0.000000 0.836209 0.110523
0.000000 0.835754 0.180674
0.000000 0.835295 0.251494
0.000000 0.834833 0.322837
0.000000 0.834368 0.394608
0.000000 0.833901 0.466743
0.000000 0.833431 0.539194
0.000000 0.832960 0.611925
0.000000 0.832487 0.684908
0.000000 0.832013 0.758118
0.000000 0.831537 0.831537
0.000000 0.831060 0.905148
0.000000 0.830582 0.978938
0.000000 0.830226 1.000000
0.000000 0.906658 0.000000
0.000000 0.906458 0.000000
0.000000 0.906021 0.036590
0.000000 0.905572 0.105798
0.000000 0.905118 0.175949
0.000000 0.904659 0.246770
0.000000 0.904197 0.318112
0.000000 0.903732 0.389884
0.000000 0.903264 0.462018
0.000000 0.902795 0.534470
0.000000 0.902323 0.607201
0.000000 0.901851 0.680183
0.000000 0.901376 0.753393
0.000000 0.900900 0.826812
0.000000 0.900424 0.900424
0.000000 0.899945 0.974213
0.000000 0.899590 1.000000
0.000000 0.976190 0.000000
0.000000 0.975990 0.000000
0.000000 0.975553 0.031854
0.000000 0.975104 0.101062
0.000000 0.974650 0.171213
0.000000 0.974191 0.242033
0.000000 0.973728 0.313376
0.000000 0.973263 0.385147
0.000000 0.972796 0.457282
0.000000 0.972326 0.529733
0.000000 0.971855 0.602465
0.000000 0.971382 0.675447
0.000000 0.970908 0.748657
0.000000 0.970432 0.822076
0.000000 0.969955 0.895687
0.000000 0.969477 0.969477
0.000000 0.969122 1.000000
0.000000 1.000000 0.000000
0.000000 1.000000 0.000000
0.000000 1.000000 0.028333
0.000000 1.000000 0.097541
0.000000 1.000000 0.167692
0.000000 1.000000 0.238513
0.000000 1.000000 0.309855
0.000000 1.000000 0.381627
0.000000 1.000000 0.453761
0.000000 1.000000 0.526213
0.000000 1.000000 0.598944
0.000000 1.000000 0.671926
0.000000 1.000000 0.745136
0.000000 1.000000 0.818555
0.000000 1.000000 0.892166
0.000000 1.000000 0.965956
0.000000 1.000000 1.000000
0.030397 0.000000 0.000000
0.030198 0.000000 0.030198
0.029760 0.000000 0.097760
0.029312 0.000000 0.166968
0.028857 0.000000 0.237119
0.028398 0.000000 0.307939
0.027936 0.000000 0.379282
0.027471 0.000000 0.451053
0.027004 0.000000 0.523188
0.026534 0.000000 0.595639
0.026063 0.000000 0.668371
0.025590 0.000000 0.741353
0.025116 0.000000 0.814563
0.024640 0.000000 0.887982
0.024163 0.000000 0.961593
0.023685 0.000000 1.000000
0.023329 0.000000 1.000000
0.028422 0.028422 0.000000
0.028222 0.028222 0.028222
0.027784 0.027784 0.095784
0.027336 0.027336 0.164992
0.026881 0.026881 0.235143
0.026422 0.026422 0.305964
0.025960 0.025960 0.377306
0.025495 0.025495 0.449077
0.025028 0.025028 0.521212
0.024558 0.024558 0.593664
0.024087 0.024087 0.666395
0.023614 0.023614 0.739377
0.023140 0.023140 0.812587
0.022664 0.022664 0.886006
0.022187 0.022187 0.959617
0.021709 0.021709 1.000000
0.021354 0.021354 1.000000
0.024085 0.092084 0.000000
0.023886 0.091885 0.023886
0.023448 0.091447 0.091447
0.022999 0.090999 0.160655
0.022545 0.090544 0.230806
0.022086 0.090085 0.301627
0.021624 0.089623 0.372970
0.021159 0.089158 0.444741
0.020691 0.088691 0.516876
0.020222 0.088221 0.589327
0.019751 0.087750 0.662058
0.019278 0.087277 0.735041
0.018803 0.086803 0.808251
0.018328 0.086327 0.881670
0.017851 0.085850 0.955281
0.017373 0.085372 1.000000
0.017017 0.085016 1.000000
0.019643 0.157299 0.000000
0.019444 0.157100 0.019444
0.019006 0.156662 0.087005
0.018557 0.156213 0.156213
0.018103 0.155759 0.226364
0.017644 0.155300 0.297185
0.017182 0.154838 0.368528
0.016717 0.154373 0.440299
0.016249 0.153905 0.512434
0.015780 0.153436 0.584885
0.015309 0.152965 0.657616
0.014836 0.152492 0.730598
0.014361 0.152017 0.803809
0.013886 0.151542 0.877228
0.013409 0.151065 0.950839
0.012930 0.150586 1.000000
0.012575 0.150231 1.000000
0.015140 0.223402 0.000000
0.014941 0.223202 0.014941
0.014503 0.222765 0.082503
0.014055 0.222316 0.151711
0.013600 0.221862 0.221862
0.013141 0.221403 0.292682
0.012679 0.220940 0.364025
0.012214 0.220475 0.435796
0.011747 0.220008 0.507931
0.011277 0.219539 0.580382
0.010806 0.219067 0.653114
0.010333 0.218594 0.726096
0.009859 0.218120 0.799306
0.009383 0.217644 0.872725
0.008906 0.217167 0.946336
0.008428 0.216689 1.000000
0.008072 0.216334 1.000000
0.010595 0.290136 0.000000
0.010395 0.289936 0.010395
0.009958 0.289499 0.077957
0.009509 0.289050 0.147165
0.009055 0.288596 0.217316
0.008596 0.288137 0.288137
0.008133 0.287675 0.359480
0.007668 0.287209 0.431251
0.007201 0.286742 0.503386
0.006732 0.286273 0.575837
0.006260 0.285801 0.648568
0.005787 0.285329 0.721550
0.005313 0.284854 0.794760
0.004837 0.284378 0.868179
0.004360 0.283901 0.941791
0.003882 0.283423 1.000000
0.003527 0.283068 1.000000
0.006016 0.357362 0.000000
0.005816 0.357162 0.005816
0.005378 0.356725 0.073378
0.004930 0.356276 0.142586
0.004475 0.355822 0.212737
0.004017 0.355363 0.283558
0.003554 0.354900 0.354900
0.003089 0.354435 0.426672
0.002622 0.353968 0.498807
0.002152 0.353499 0.571258
0.001681 0.353027 0.643989
0.001208 0.352554 0.716971
0.000734 0.352080 0.790181
0.000258 0.351604 0.863600
0.000000 0.351127 0.937212
0.000000 0.350649 1.000000
0.000000 0.350294 1.000000
0.001409 0.424991 0.000000
0.001210 0.424792 0.001210
0.000772 0.424354 0.068771
0.000323 0.423906 0.137979
0.000000 0.423451 0.208130
0.000000 0.422992 0.278951
0.000000 0.422530 0.350294
0.000000 0.422065 0.422065
0.000000 0.421598 0.494200
0.000000 0.421128 0.566651
0.000000 0.420657 0.639382
0.000000 0.420184 0.712365
0.000000 0.419710 0.785575
0.000000 0.419234 0.858994
0.000000 0.418757 0.932605
0.000000 0.418279 1.000000
0.000000 0.417923 1.000000
0.000000 0.492964 0.000000
0.000000 0.492764 0.000000
0.000000 0.492327 0.064141
0.000000 0.491878 0.133349
0.000000 0.491424 0.203500
0.000000 0.490965 0.274321
0.000000 0.490502 0.345664
0.000000 0.490037 0.417435
0.000000 0.489570 0.489570
0.000000 0.489101 0.562021
0.000000 0.488629 0.634752
0.000000 0.488156 0.707735
0.000000 0.487682 0.780945
0.000000 0.487206 0.854364
0.000000 0.486729 0.927975
0.000000 0.486251 1.000000
0.000000 0.485896 1.000000
0.000000 0.561234 0.000000
0.000000 0.561035 0.000000
0.000000 0.560597 0.059491
0.000000 0.560148 0.128699
0.000000 0.559694 0.198850
0.000000 0.559235 0.269671
0.000000 0.558773 0.341014
0.000000 0.558308 0.412785
0.000000 0.557840 0.484920
0.000000 0.557371 0.557371
0.000000 0.556900 0.630102
0.000000 0.556427 0.703084
0.000000 0.555952 0.776295
0.000000 0.555477 0.849713
0.000000 0.555000 0.923325
0.000000 0.554522 0.997115
0.000000 0.554166 1.000000
0.000000 0.629768 0.000000
0.000000 0.629569 0.000000
0.000000 0.629131 0.054823
0.000000 0.628683 0.124031
0.000000 0.628228 0.194182
0.000000 0.627769 0.265003
0.000000 0.627307 0.336345
0.000000 0.626842 0.408117
0.000000 0.626374 0.480252
0.000000 0.625905 0.552703
0.000000 0.625434 0.625434
0.000000 0.624961 0.698416
0.000000 0.624487 0.771626
0.000000 0.624011 0.845045
0.000000 0.623534 0.918657
0.000000 0.623056 0.992446
0.000000 0.622700 1.000000
0.000000 0.698539 0.000000
0.000000 0.698340 0.000000
0.000000 0.697902 0.050138
0.000000 0.697453 0.119347
0.000000 0.696999 0.189497
0.000000 0.696540 0.260318
0.000000 0.696078 0.331661
0.000000 0.695613 0.403432
0.000000 0.695145 0.475567
0.000000 0.694676 0.548018
0.000000 0.694205 0.620749
0.000000 0.693732 0.693732
0.000000 0.693257 0.766942
0.000000 0.692782 0.840361
0.000000 0.692305 0.913972
0.000000 0.691827 0.987762
0.000000 0.691471 1.000000
0.000000 0.767525 0.000000
0.000000 0.767325 0.000000
0.000000 0.766888 0.045439
0.000000 0.766439 0.114648
0.000000 0.765985 0.184799
0.000000 0.765526 0.255619
0.000000 0.765063 0.326962
0.000000 0.764598 0.398733
0.000000 0.764131 0.470868
0.000000 0.763662 0.543319
0.000000 0.763190 0.616050
0.000000 0.762717 0.689033
0.000000 0.762243 0.762243
0.000000 0.761767 0.835662
0.000000 0.761290 0.909273
0.000000 0.760812 0.983063
0.000000 0.760457 1.000000
0.000000 0.836707 0.000000
0.000000 0.836508 0.000000
0.000000 0.836070 0.040727
0.000000 0.835621 0.109935
0.000000 0.835167 0.180086
0.000000 0.834708 0.250907
0.000000 0.834246 0.322250
0.000000 0.833781 0.394021
0.000000 0.833313 0.466156
0.000000 0.832844 0.538607
0.000000 0.832373 0.611338
0.000000 0.831900 0.684320
0.000000 0.831425 0.757531
0.000000 0.830950 0.830950
0.000000 0.830473 0.904561
0.000000 0.829994 0.978351
0.000000 0.829639 1.000000
0.000000 0.906071 0.000000
0.000000 0.905871 0.000000
0.000000 0.905433 0.036002
0.000000 0.904985 0.105211
0.000000 0.904530 0.175361
0.000000 0.904071 0.246182
0.000000 0.903609 0.317525
0.000000 0.903144 0.389296
0.000000 0.902677 0.461431
0.000000 0.902207 0.533882
0.000000 0.901736 0.606613
0.000000 0.901263 0.679596
0.000000 0.900789 0.752806
0.000000 0.900313 0.826225
0.000000 0.899836 0.899836
0.000000 0.899358 0.973626
0.000000 0.899003 1.000000
0.000000 0.975602 0.000000
0.000000 0.975403 0.000000
0.000000 0.974965 0.031266
0.000000 0.974517 0.100474
0.000000 0.974062 0.170625
0.000000 0.973603 0.241446
0.000000 0.973141 0.312789
0.000000 0.972676 0.384560
0.000000 0.972209 0.456695
0.000000 0.971739 0.529146
0.000000 0.971268 0.601877
0.000000 0.970795 0.674860
0.000000 0.970321 0.748070
0.000000 0.969845 0.821489
0.000000 0.969368 0.895100
0.000000 0.968890 0.968890
0.000000 0.968534 1.000000
0.000000 1.000000 0.000000
0.000000 1.000000 0.000000
0.000000 1.000000 0.027745
0.000000 1.000000 0.096954
0.000000 1.000000 0.167104
0.000000 1.000000 0.237925
0.000000 1.000000 0.309268
0.000000 1.000000 0.381039
0.000000 1.000000 0.453174
0.000000 1.000000 0.525625
0.000000 1.000000 0.598356
0.000000 1.000000 0.671339
0.000000 1.000000 0.744549
0.000000 1.000000 0.817968
0.000000 1.000000 0.891579
0.000000 1.000000 0.965369
0.000000 1.000000 1.000000
0.097108 0.000000 0.000000
0.096908 0.000000 0.028909
0.096471 0.000000 0.096471
0.096022 0.000000 0.165679
0.095568 0.000000 0.235830
0.095109 0.000000 0.306650
0.094646 0.000000 0.377993
0.094181 0.000000 0.449764
0.093714 0.000000 0.521899
0.093245 0.000000 0.594350
0.092773 0.000000 0.667082
0.092300 0.000000 0.740064
0.091826 0.000000 0.813274
0.091350 0.000000 0.886693
0.090873 0.000000 0.960304
0.090395 0.000000 1.000000
0.090040 0.000000 1.000000
0.095132 0.027133 0.000000
0.094932 0.026933 0.026933
0.094495 0.026495 0.094495
0.094046 0.026047 0.163703
0.093592 0.025592 0.233854
0.093133 0.025133 0.304674
0.092670 0.024671 0.376017
0.092205 0.024206 0.447788
0.091738 0.023739 0.519923
0.091269 0.023269 0.592375
0.090797 0.022798 0.665106
0.090324 0.022325 0.738088
0.089850 0.021851 0.811298
0.089374 0.021375 0.884717
0.088897 0.020898 0.958328
0.088419 0.020420 1.000000
0.088064 0.020065 1.000000
0.090795 0.090795 0.000000
0.090596 0.090596 0.022597
0.090158 0.090158 0.090158
0.089710 0.089710 0.159366
0.089255 0.089255 0.229517
0.088796 0.088796 0.300338
0.088334 0.088334 0.371681
0.087869 0.087869 0.443452
0.087402 0.087402 0.515587
0.086932 0.086932 0.588038
0.086461 0.086461 0.660769
0.085988 0.085988 0.733752
0.085514 0.085514 0.806962
0.085038 0.085038 0.880381
0.084561 0.084561 0.953992
0.084083 0.084083 1.000000
0.083727 0.083727 1.000000
0.086353 0.156010 0.000000
0.086154 0.155811 0.018155
0.085716 0.155373 0.085716
0.085268 0.154924 0.154924
0.084813 0.154470 0.225075
0.084354 0.154011 0.295896
0.083892 0.153549 0.367239
0.083427 0.153084 0.439010
0.082960 0.152616 0.511145
0.082490 0.152147 0.583596
0.082019 0.151675 0.656327
0.081546 0.151203 0.729309
0.081072 0.150728 0.802520
0.080596 0.150253 0.875939
0.080119 0.149776 0.949550
0.079641 0.149297 1.000000
0.079285 0.148942 1.000000
0.081851 0.222113 0.000000
0.081651 0.221913 0.013652
0.081213 0.221476 0.081213
0.080765 0.221027 0.150422
0.080311 0.220573 0.220573
0.079852 0.220114 0.291393
0.079389 0.219651 0.362736
0.078924 0.219186 0.434507
0.078457 0.218719 0.506642
0.077987 0.218249 0.579093
0.077516 0.217778 0.651824
0.077043 0.217305 0.724807
0.076569 0.216831 0.798017
0.076093 0.216355 0.871436
0.075616 0.215878 0.945047
0.075138 0.215400 1.000000
0.074783 0.215045 1.000000
0.077305 0.288847 0.000000
0.077106 0.288647 0.009106
0.076668 0.288210 0.076668
0.076219 0.287761 0.145876
0.075765 0.287307 0.216027
0.075306 0.286848 0.286848
0.074844 0.286385 0.358191
0.074379 0.285920 0.429962
0.073911 0.285453 0.502097
0.073442 0.284984 0.574548
0.072971 0.284512 0.647279
0.072498 0.284039 0.720261
0.072023 0.283565 0.793471
0.071548 0.283089 0.866890
0.071071 0.282612 0.940502
0.070593 0.282134 1.000000
0.070237 0.281779 1.000000
0.072726 0.356073 0.000000
0.072527 0.355873 0.004527
0.072089 0.355436 0.072089
0.071640 0.354987 0.141297
0.071186 0.354533 0.211448
0.070727 0.354074 0.282269
0.070265 0.353611 0.353611
0.069800 0.353146 0.425383
0.069332 0.352679 0.497518
0.068863 0.352210 0.569969
0.068392 0.351738 0.642700
0.067919 0.351265 0.715682
0.067444 0.350791 0.788892
0.066969 0.350315 0.862311
0.066492 0.349838 0.935923
0.066013 0.349360 1.000000
0.065658 0.349005 1.000000
0.068119 0.423702 0.000000
0.067920 0.423503 0.000000
0.067482 0.423065 0.067482
0.067034 0.422617 0.136690
0.066579 0.422162 0.206841
0.066120 0.421703 0.277662
0.065658 0.421241 0.349005
0.065193 0.420776 0.420776
0.064726 0.420309 0.492911
0.064256 0.419839 0.565362
0.063785 0.419368 0.638093
0.063312 0.418895 0.711075
0.062838 0.418421 0.784286
0.062362 0.417945 0.857705
0.061885 0.417468 0.931316
0.061407 0.416990 1.000000
0.061051 0.416634 1.000000
0.063489 0.491675 0.000000
0.063290 0.491475 0.000000
0.062852 0.491038 0.062852
0.062404 0.490589 0.132060
0.061949 0.490135 0.202211
0.061490 0.489676 0.273032
0.061028 0.489213 0.344375
0.060563 0.488748 0.416146
0.060096 0.488281 0.488281
0.059626 0.487811 0.560732
0.059155 0.487340 0.633463
0.058682 0.486867 0.706446
0.058208 0.486393 0.779656
0.057732 0.485917 0.853075
0.057255 0.485440 0.926686
0.056777 0.484962 1.000000
0.056421 0.484607 1.000000
0.058839 0.559945 0.000000
0.058640 0.559746 0.000000
0.058202 0.559308 0.058202
0.057754 0.558859 0.127410
0.057299 0.558405 0.197561
0.056840 0.557946 0.268382
0.056378 0.557484 0.339725
0.055913 0.557019 0.411496
0.055445 0.556551 0.483631
0.054976 0.556082 0.556082
0.054505 0.555611 0.628813
0.054032 0.555138 0.701795
0.053557 0.554663 0.775006
0.053082 0.554188 0.848424
0.052605 0.553711 0.922036
0.052127 0.553233 0.995826
0.051771 0.552877 1.000000
0.054171 0.628479 0.000000
0.053972 0.628280 0.000000
0.053534 0.627842 0.053534
0.053085 0.627394 0.122742
0.052631 0.626939 0.192893
0.052172 0.626480 0.263714
0.051710 0.626018 0.335056
0.051245 0.625553 0.406828
0.050777 0.625085 0.478962
0.050308 0.624616 0.551414
0.049836 0.624145 0.624145
0.049364 0.623672 0.697127
0.048889 0.623197 0.770337
0.048414 0.622722 0.843756
0.047937 0.622245 0.917367
0.047458 0.621767 0.991157
0.047103 0.621411 1.000000
0.049487 0.697250 0.000000
0.049287 0.697051 0.000000
0.048849 0.696613 0.048849
0.048401 0.696164 0.118058
0.047946 0.695710 0.188208
0.047488 0.695251 0.259029
0.047025 0.694789 0.330372
0.046560 0.694324 0.402143
0.046093 0.693856 0.474278
0.045623 0.693387 0.546729
0.045152 0.692916 0.619460
0.044679 0.692443 0.692443
0.044205 0.691968 0.765653
0.043729 0.691493 0.839072
0.043252 0.691016 0.912683
0.042774 0.690538 0.986473
0.042419 0.690182 1.000000
0.044788 0.766236 0.000000
0.044588 0.766036 0.000000
0.044150 0.765599 0.044150
0.043702 0.765150 0.113359
0.043247 0.764696 0.183509
0.042789 0.764237 0.254330
0.042326 0.763774 0.325673
0.041861 0.763309 0.397444
0.041394 0.762842 0.469579
0.040924 0.762373 0.542030
0.040453 0.761901 0.614761
0.039980 0.761428 0.687744
0.039506 0.760954 0.760954
0.039030 0.760478 0.834373
0.038553 0.760001 0.907984
0.038075 0.759523 0.981774
0.037720 0.759168 1.000000
0.040075 0.835418 0.000000
0.039876 0.835219 0.000000
0.039438 0.834781 0.039438
0.038990 0.834332 0.108646
0.038535 0.833878 0.178797
0.038076 0.833419 0.249618
0.037614 0.832957 0.320961
0.037149 0.832492 0.392732
0.036682 0.832024 0.464867
0.036212 0.831555 0.537318
0.035741 0.831083 0.610049
0.035268 0.830611 0.683031
0.034794 0.830136 0.756242
0.034318 0.829661 0.829661
0.033841 0.829184 0.903272
0.033363 0.828705 0.977062
0.033007 0.828350 1.000000
0.035351 0.904782 0.000000
0.035151 0.904582 0.000000
0.034713 0.904144 0.034713
0.034265 0.903696 0.103922
0.033810 0.903241 0.174072
0.033351 0.902782 0.244893
0.032889 0.902320 0.316236
0.032424 0.901855 0.388007
0.031957 0.901388 0.460142
0.031487 0.900918 0.532593
0.031016 0.900447 0.605324
0.030543 0.899974 0.678307
0.030069 0.899500 0.751517
0.029593 0.899024 0.824936
0.029116 0.898547 0.898547
0.028638 0.898069 0.972337
0.028283 0.897714 1.000000
0.030614 0.974313 0.000000
0.030415 0.974114 0.000000
0.029977 0.973676 0.029977
0.029529 0.973228 0.099185
0.029074 0.972773 0.169336
0.028615 0.972314 0.240157
0.028153 0.971852 0.311500
0.027688 0.971387 0.383271
0.027221 0.970920 0.455406
0.026751 0.970450 0.527857
0.026280 0.969979 0.600588
0.025807 0.969506 0.673570
0.025333 0.969032 0.746781
0.024857 0.968556 0.820200
0.024380 0.968079 0.893811
0.023902 0.967601 0.967601
0.023546 0.967245 1.000000
0.027093 1.000000 0.000000
0.026894 1.000000 0.000000
0.026456 1.000000 0.026456
0.026008 1.000000 0.095664
0.025553 1.000000 0.165815
0.025094 1.000000 0.236636
0.024632 1.000000 0.307979
0.024167 1.000000 0.379750
0.023700 1.000000 0.451885
0.023230 1.000000 0.524336
0.022759 1.000000 0.597067
0.022286 1.000000 0.670050
0.021812 1.000000 0.743260
0.021336 1.000000 0.816679
0.020859 1.000000 0.890290
0.020381 1.000000 0.964080
0.020025 1.000000 1.000000
0.165444 0.000000 0.000000
0.165245 0.000000 0.027589
0.164807 0.000000 0.095150
0.164358 0.000000 0.164358
0.163904 0.000000 0.234509
0.163445 0.000000 0.305330
0.162983 0.000000 0.376673
0.162518 0.000000 0.448444
0.162050 0.000000 0.520579
0.161581 0.000000 0.593030
0.161109 0.000000 0.665761
0.160637 0.000000 0.738743
0.160162 0.000000 0.811954
0.159687 0.000000 0.885373
0.159210 0.000000 0.958984
0.158731 0.000000 1.000000
0.158376 0.000000 1.000000
0.163468 0.025812 0.000000
