skills/editops-orchestrator/assets/grade/luts/trailer_punch_v14.cube
TITLE "trailer_punch_v14"
LUT_3D_SIZE 17
DOMAIN_MIN 0.0 0.0 0.0
DOMAIN_MAX 1.0 1.0 1.0
0.000000 0.000000 0.000000
0.000000 0.000000 0.002180
0.000000 0.000000 0.071023
0.000000 0.000000 0.145240
0.000000 0.000000 0.221811
0.000000 0.000000 0.299964
0.000000 0.000000 0.379320
0.000000 0.000000 0.459650
0.000000 0.000000 0.540800
0.000000 0.000000 0.622658
0.000000 0.000000 0.705143
0.000000 0.000000 0.788187
0.000000 0.000000 0.871739
0.000000 0.000000 0.955755
0.000000 0.000000 1.000000
0.000000 0.000000 1.000000
0.000000 0.000000 1.000000
0.000000 0.001961 0.000000
0.000000 0.001936 0.001936
0.000000 0.001158 0.070779
0.000000 0.000319 0.144996
0.000000 0.000000 0.221567
0.000000 0.000000 0.299720
0.000000 0.000000 0.379076
0.000000 0.000000 0.459406
0.000000 0.000000 0.540556
0.000000 0.000000 0.622414
0.000000 0.000000 0.704899
0.000000 0.000000 0.787943
0.000000 0.000000 0.871495
0.000000 0.000000 0.955511
0.000000 0.000000 1.000000
0.000000 0.000000 1.000000
0.000000 0.000000 1.000000
0.000000 0.063874 0.000000
0.000000 0.063849 0.000000
0.000000 0.063071 0.063071
0.000000 0.062232 0.137288
0.000000 0.061367 0.213859
0.000000 0.060483 0.292012
0.000000 0.059586 0.371368
0.000000 0.058678 0.451698
0.000000 0.057761 0.532847
0.000000 0.056836 0.614706
0.000000 0.055904 0.697191
0.000000 0.054965 0.780235
0.000000 0.054020 0.863787
0.000000 0.053071 0.947803
0.000000 0.052116 1.000000
0.000000 0.051157 1.000000
0.000000 0.050650 1.000000
0.000000 0.130619 0.000000
0.000000 0.130595 0.000000
0.000000 0.129817 0.054761
0.000000 0.128978 0.128978
0.000000 0.128112 0.205549
0.000000 0.127229 0.283702
0.000000 0.126332 0.363058
0.000000 0.125424 0.443388
0.000000 0.124507 0.524537
0.000000 0.123581 0.606396
0.000000 0.122649 0.688881
0.000000 0.121710 0.771925
0.000000 0.120766 0.855477
0.000000 0.119816 0.939493
0.000000 0.118862 1.000000
0.000000 0.117903 1.000000
0.000000 0.117395 1.000000
0.000000 0.199482 0.000000
0.000000 0.199458 0.000000
0.000000 0.198680 0.046188
0.000000 0.197841 0.120404
0.000000 0.196975 0.196975
0.000000 0.196092 0.275129
0.000000 0.195195 0.354485
0.000000 0.194287 0.434814
0.000000 0.193370 0.515964
0.000000 0.192444 0.597823
0.000000 0.191512 0.680307
0.000000 0.190573 0.763352
0.000000 0.189629 0.846904
0.000000 0.188679 0.930920
0.000000 0.187725 1.000000
0.000000 0.186766 1.000000
0.000000 0.186258 1.000000
0.000000 0.269769 0.000000
0.000000 0.269744 0.000000
0.000000 0.268966 0.037437
0.000000 0.268127 0.111654
0.000000 0.267262 0.188225
0.000000 0.266378 0.266378
0.000000 0.265481 0.345734
0.000000 0.264573 0.426064
0.000000 0.263656 0.507213
0.000000 0.262731 0.589072
0.000000 0.261798 0.671557
0.000000 0.260860 0.754601
0.000000 0.259915 0.838153
0.000000 0.258966 0.922169
0.000000 0.258011 1.000000
0.000000 0.257052 1.000000
0.000000 0.256545 1.000000
0.000000 0.341136 0.000000
0.000000 0.341112 0.000000
0.000000 0.340334 0.028552
0.000000 0.339495 0.102768
0.000000 0.338629 0.179339
0.000000 0.337746 0.257493
0.000000 0.336849 0.336849
0.000000 0.335941 0.417179
0.000000 0.335024 0.498328
0.000000 0.334098 0.580187
0.000000 0.333166 0.662671
0.000000 0.332227 0.745716
0.000000 0.331283 0.829268
0.000000 0.330333 0.913284
0.000000 0.329379 0.997727
0.000000 0.328420 1.000000
0.000000 0.327912 1.000000
0.000000 0.413380 0.000000
0.000000 0.413355 0.000000
0.000000 0.412577 0.019558
0.000000 0.411738 0.093774
0.000000 0.410873 0.170345
0.000000 0.409989 0.248499
0.000000 0.409092 0.327855
0.000000 0.408184 0.408184
0.000000 0.407267 0.489334
0.000000 0.406342 0.571193
0.000000 0.405409 0.653677
0.000000 0.404471 0.736722
0.000000 0.403526 0.820274
0.000000 0.402577 0.904289
0.000000 0.401622 0.988733
0.000000 0.400663 1.000000
0.000000 0.400156 1.000000
0.000000 0.486360 0.000000
0.000000 0.486336 0.000000
0.000000 0.485558 0.010471
0.000000 0.484719 0.084688
0.000000 0.483853 0.161259
0.000000 0.482970 0.239412
0.000000 0.482073 0.318768
0.000000 0.481165 0.399098
0.000000 0.480248 0.480248
0.000000 0.479322 0.562106
0.000000 0.478390 0.644591
0.000000 0.477451 0.727635
0.000000 0.476507 0.811187
0.000000 0.475557 0.895203
0.000000 0.474603 0.979647
0.000000 0.473644 1.000000
0.000000 0.473136 1.000000
0.000000 0.559979 0.000000
0.000000 0.559954 0.000000
0.000000 0.559176 0.001306
0.000000 0.558337 0.075522
0.000000 0.557472 0.152093
0.000000 0.556588 0.230247
0.000000 0.555691 0.309603
0.000000 0.554783 0.389933
0.000000 0.553866 0.471082
0.000000 0.552941 0.552941
0.000000 0.552009 0.635425
0.000000 0.551070 0.718470
0.000000 0.550126 0.802022
0.000000 0.549176 0.886038
0.000000 0.548221 0.970481
0.000000 0.547262 1.000000
0.000000 0.546755 1.000000
0.000000 0.634160 0.000000
0.000000 0.634136 0.000000
0.000000 0.633357 0.000000
0.000000 0.632519 0.066287
0.000000 0.631653 0.142858
0.000000 0.630770 0.221011
0.000000 0.629873 0.300367
0.000000 0.628965 0.380697
0.000000 0.628047 0.461847
0.000000 0.627122 0.543705
0.000000 0.626190 0.626190
0.000000 0.625251 0.709234
0.000000 0.624307 0.792786
0.000000 0.623357 0.876802
0.000000 0.622403 0.961246
0.000000 0.621444 1.000000
0.000000 0.620936 1.000000
0.000000 0.708845 0.000000
0.000000 0.708820 0.000000
0.000000 0.708042 0.000000
0.000000 0.707203 0.056989
0.000000 0.706338 0.133560
0.000000 0.705455 0.211713
0.000000 0.704558 0.291069
0.000000 0.703650 0.371399
0.000000 0.702732 0.452548
0.000000 0.701807 0.534407
0.000000 0.700875 0.616892
0.000000 0.699936 0.699936
0.000000 0.698992 0.783488
0.000000 0.698042 0.867504
0.000000 0.697088 0.951948
0.000000 0.696129 1.000000
0.000000 0.695621 1.000000
0.000000 0.783986 0.000000
0.000000 0.783962 0.000000
0.000000 0.783184 0.000000
0.000000 0.782345 0.047633
0.000000 0.781479 0.124204
0.000000 0.780596 0.202358
0.000000 0.779699 0.281714
0.000000 0.778791 0.362044
0.000000 0.777874 0.443193
0.000000 0.776948 0.525052
0.000000 0.776016 0.607536
0.000000 0.775077 0.690581
0.000000 0.774133 0.774133
0.000000 0.773183 0.858149
0.000000 0.772229 0.942592
0.000000 0.771270 1.000000
0.000000 0.770762 1.000000
0.000000 0.859545 0.000000
0.000000 0.859520 0.000000
0.000000 0.858742 0.000000
0.000000 0.857903 0.038226
0.000000 0.857038 0.114797
0.000000 0.856154 0.192951
0.000000 0.855257 0.272307
0.000000 0.854349 0.352637
0.000000 0.853432 0.433786
0.000000 0.852507 0.515645
0.000000 0.851575 0.598129
0.000000 0.850636 0.681174
0.000000 0.849691 0.764726
0.000000 0.848742 0.848742
0.000000 0.847787 0.933185
0.000000 0.846828 1.000000
0.000000 0.846321 1.000000
0.000000 0.935488 0.000000
0.000000 0.935463 0.000000
0.000000 0.934685 0.000000
0.000000 0.933846 0.028771
0.000000 0.932981 0.105342
0.000000 0.932098 0.183496
0.000000 0.931201 0.262852
0.000000 0.930293 0.343182
0.000000 0.929375 0.424331
0.000000 0.928450 0.506190
0.000000 0.927518 0.588674
0.000000 0.926579 0.671719
0.000000 0.925635 0.755271
0.000000 0.924685 0.839287
0.000000 0.923730 0.923730
0.000000 0.922772 1.000000
0.000000 0.922264 1.000000
0.000000 1.000000 0.000000
0.000000 1.000000 0.000000
0.000000 1.000000 0.000000
0.000000 1.000000 0.019272
0.000000 1.000000 0.095843
0.000000 1.000000 0.173997
0.000000 1.000000 0.253353
0.000000 1.000000 0.333682
0.000000 1.000000 0.414832
0.000000 1.000000 0.496691
0.000000 1.000000 0.579175
0.000000 1.000000 0.662220
0.000000 1.000000 0.745772
0.000000 1.000000 0.829788
0.000000 1.000000 0.914231
0.000000 0.999071 0.999071
0.000000 0.998564 1.000000
0.000000 1.000000 0.000000
0.000000 1.000000 0.000000
0.000000 1.000000 0.000000
0.000000 1.000000 0.014245
0.000000 1.000000 0.090816
0.000000 1.000000 0.168970
0.000000 1.000000 0.248326
0.000000 1.000000 0.328656
0.000000 1.000000 0.409805
0.000000 1.000000 0.491664
0.000000 1.000000 0.574148
0.000000 1.000000 0.657193
0.000000 1.000000 0.740745
0.000000 1.000000 0.824761
0.000000 1.000000 0.909204
0.000000 1.000000 0.994045
0.000000 1.000000 1.000000
0.002132 0.000000 0.000000
0.002108 0.000000 0.002108
0.001329 0.000000 0.070951
0.000491 0.000000 0.145167
0.000000 0.000000 0.221738
0.000000 0.000000 0.299892
0.000000 0.000000 0.379248
0.000000 0.000000 0.459578
0.000000 0.000000 0.540727
0.000000 0.000000 0.622586
0.000000 0.000000 0.705070
0.000000 0.000000 0.788115
0.000000 0.000000 0.871667
0.000000 0.000000 0.955683
0.000000 0.000000 1.000000
0.000000 0.000000 1.000000
0.000000 0.000000 1.000000
0.001888 0.001888 0.000000
0.001863 0.001863 0.001863
0.001085 0.001085 0.070707
0.000246 0.000246 0.144923
0.000000 0.000000 0.221494
0.000000 0.000000 0.299648
0.000000 0.000000 0.379004
0.000000 0.000000 0.459333
0.000000 0.000000 0.540483
0.000000 0.000000 0.622342
0.000000 0.000000 0.704826
0.000000 0.000000 0.787871
0.000000 0.000000 0.871423
0.000000 0.000000 0.955439
0.000000 0.000000 1.000000
0.000000 0.000000 1.000000
0.000000 0.000000 1.000000
0.000000 0.063801 0.000000
0.000000 0.063777 0.000000
0.000000 0.062999 0.062999
0.000000 0.062160 0.137215
0.000000 0.061294 0.213786
0.000000 0.060411 0.291940
0.000000 0.059514 0.371296
0.000000 0.058606 0.451625
0.000000 0.057689 0.532775
0.000000 0.056763 0.614634
0.000000 0.055831 0.697118
0.000000 0.054892 0.780163
0.000000 0.053948 0.863715
0.000000 0.052998 0.947730
0.000000 0.052044 1.000000
0.000000 0.051085 1.000000
0.000000 0.050577 1.000000
0.000000 0.130547 0.000000
0.000000 0.130522 0.000000
0.000000 0.129744 0.054689
0.000000 0.128905 0.128905
0.000000 0.128040 0.205476
0.000000 0.127156 0.283630
0.000000 0.126259 0.362986
0.000000 0.125351 0.443315
0.000000 0.124434 0.524465
0.000000 0.123509 0.606324
0.000000 0.122577 0.688808
0.000000 0.121638 0.771853
0.000000 0.120693 0.855405
0.000000 0.119744 0.939421
0.000000 0.118789 1.000000
0.000000 0.117830 1.000000
0.000000 0.117323 1.000000
0.000000 0.199410 0.000000
0.000000 0.199385 0.000000
0.000000 0.198607 0.046115
0.000000 0.197768 0.120332
0.000000 0.196903 0.196903
0.000000 0.196019 0.275056
0.000000 0.195122 0.354412
0.000000 0.194214 0.434742
0.000000 0.193297 0.515891
0.000000 0.192372 0.597750
0.000000 0.191440 0.680235
0.000000 0.190501 0.763279
0.000000 0.189556 0.846831
0.000000 0.188607 0.930847
0.000000 0.187652 1.000000
0.000000 0.186693 1.000000
0.000000 0.186186 1.000000
0.000000 0.269696 0.000000
0.000000 0.269671 0.000000
0.000000 0.268893 0.037365
0.000000 0.268054 0.111581
0.000000 0.267189 0.188152
0.000000 0.266306 0.266306
0.000000 0.265409 0.345662
0.000000 0.264501 0.425991
0.000000 0.263583 0.507141
0.000000 0.262658 0.589000
0.000000 0.261726 0.671484
0.000000 0.260787 0.754529
0.000000 0.259843 0.838081
0.000000 0.258893 0.922097
0.000000 0.257939 1.000000
0.000000 0.256980 1.000000
0.000000 0.256472 1.000000
0.000000 0.341064 0.000000
0.000000 0.341039 0.000000
0.000000 0.340261 0.028479
0.000000 0.339422 0.102696
0.000000 0.338557 0.179267
0.000000 0.337673 0.257420
0.000000 0.336776 0.336776
0.000000 0.335868 0.417106
0.000000 0.334951 0.498256
0.000000 0.334026 0.580114
0.000000 0.333093 0.662599
0.000000 0.332155 0.745643
0.000000 0.331210 0.829195
0.000000 0.330261 0.913211
0.000000 0.329306 0.997655
0.000000 0.328347 1.000000
0.000000 0.327840 1.000000
0.000000 0.413307 0.000000
0.000000 0.413283 0.000000
0.000000 0.412504 0.019485
0.000000 0.411666 0.093701
0.000000 0.410800 0.170272
0.000000 0.409917 0.248426
0.000000 0.409020 0.327782
0.000000 0.408112 0.408112
0.000000 0.407194 0.489261
0.000000 0.406269 0.571120
0.000000 0.405337 0.653604
0.000000 0.404398 0.736649
0.000000 0.403454 0.820201
0.000000 0.402504 0.904217
0.000000 0.401550 0.988661
0.000000 0.400591 1.000000
0.000000 0.400083 1.000000
0.000000 0.486288 0.000000
0.000000 0.486263 0.000000
0.000000 0.485485 0.010399
0.000000 0.484646 0.084615
0.000000 0.483781 0.161186
0.000000 0.482897 0.239340
0.000000 0.482000 0.318696
0.000000 0.481092 0.399026
0.000000 0.480175 0.480175
0.000000 0.479250 0.562034
0.000000 0.478318 0.644518
0.000000 0.477379 0.727563
0.000000 0.476434 0.811115
0.000000 0.475485 0.895131
0.000000 0.474530 0.979574
0.000000 0.473571 1.000000
0.000000 0.473064 1.000000
0.000000 0.559906 0.000000
0.000000 0.559882 0.000000
0.000000 0.559104 0.001233
0.000000 0.558265 0.075450
0.000000 0.557399 0.152021
0.000000 0.556516 0.230174
0.000000 0.555619 0.309530
0.000000 0.554711 0.389860
0.000000 0.553794 0.471010
0.000000 0.552868 0.552868
0.000000 0.551936 0.635353
0.000000 0.550997 0.718397
0.000000 0.550053 0.801949
0.000000 0.549103 0.885965
0.000000 0.548149 0.970409
0.000000 0.547190 1.000000
0.000000 0.546682 1.000000
0.000000 0.634088 0.000000
0.000000 0.634063 0.000000
0.000000 0.633285 0.000000
0.000000 0.632446 0.066214
0.000000 0.631580 0.142785
0.000000 0.630697 0.220939
0.000000 0.629800 0.300295
0.000000 0.628892 0.380624
0.000000 0.627975 0.461774
0.000000 0.627050 0.543633
0.000000 0.626117 0.626117
0.000000 0.625179 0.709162
0.000000 0.624234 0.792714
0.000000 0.623285 0.876730
0.000000 0.622330 0.961173
0.000000 0.621371 1.000000
0.000000 0.620864 1.000000
0.000000 0.708773 0.000000
0.000000 0.708748 0.000000
0.000000 0.707970 0.000000
0.000000 0.707131 0.056916
0.000000 0.706265 0.133487
0.000000 0.705382 0.211640
0.000000 0.704485 0.290997
0.000000 0.703577 0.371326
0.000000 0.702660 0.452476
0.000000 0.701735 0.534335
0.000000 0.700802 0.616819
0.000000 0.699864 0.699864
0.000000 0.698919 0.783415
0.000000 0.697969 0.867431
0.000000 0.697015 0.951875
0.000000 0.696056 1.000000
0.000000 0.695549 1.000000
0.000000 0.783914 0.000000
0.000000 0.783889 0.000000
0.000000 0.783111 0.000000
0.000000 0.782272 0.047561
0.000000 0.781407 0.124132
0.000000 0.780523 0.202285
0.000000 0.779626 0.281641
0.000000 0.778718 0.361971
0.000000 0.777801 0.443121
0.000000 0.776876 0.524979
0.000000 0.775943 0.607464
0.000000 0.775005 0.690508
0.000000 0.774060 0.774060
0.000000 0.773111 0.858076
0.000000 0.772156 0.942520
0.000000 0.771197 1.000000
0.000000 0.770690 1.000000
0.000000 0.859472 0.000000
0.000000 0.859448 0.000000
0.000000 0.858670 0.000000
0.000000 0.857831 0.038154
0.000000 0.856965 0.114725
0.000000 0.856082 0.192878
0.000000 0.855185 0.272234
0.000000 0.854277 0.352564
0.000000 0.853360 0.433714
0.000000 0.852434 0.515572
0.000000 0.851502 0.598057
0.000000 0.850563 0.681101
0.000000 0.849619 0.764653
0.000000 0.848669 0.848669
0.000000 0.847715 0.933113
0.000000 0.846756 1.000000
0.000000 0.846248 1.000000
0.000000 0.935416 0.000000
0.000000 0.935391 0.000000
0.000000 0.934613 0.000000
0.000000 0.933774 0.028699
0.000000 0.932908 0.105270
0.000000 0.932025 0.183423
0.000000 0.931128 0.262779
0.000000 0.930220 0.343109
0.000000 0.929303 0.424259
0.000000 0.928377 0.506117
0.000000 0.927445 0.588602
0.000000 0.926506 0.671646
0.000000 0.925562 0.755198
0.000000 0.924612 0.839214
0.000000 0.923658 0.923658
0.000000 0.922699 1.000000
0.000000 0.922192 1.000000
0.000000 1.000000 0.000000
0.000000 1.000000 0.000000
0.000000 1.000000 0.000000
0.000000 1.000000 0.019200
0.000000 1.000000 0.095771
0.000000 1.000000 0.173924
0.000000 1.000000 0.253280
0.000000 1.000000 0.333610
0.000000 1.000000 0.414759
0.000000 1.000000 0.496618
0.000000 1.000000 0.579103
0.000000 1.000000 0.662147
0.000000 1.000000 0.745699
0.000000 1.000000 0.829715
0.000000 0.999958 0.914159
0.000000 0.998999 0.998999
0.000000 0.998491 1.000000
0.000000 1.000000 0.000000
0.000000 1.000000 0.000000
0.000000 1.000000 0.000000
0.000000 1.000000 0.014173
0.000000 1.000000 0.090744
0.000000 1.000000 0.168897
0.000000 1.000000 0.248253
0.000000 1.000000 0.328583
0.000000 1.000000 0.409733
0.000000 1.000000 0.491591
0.000000 1.000000 0.574076
0.000000 1.000000 0.657120
0.000000 1.000000 0.740672
0.000000 1.000000 0.824688
0.000000 1.000000 0.909132
0.000000 1.000000 0.993972
0.000000 1.000000 1.000000
0.069462 0.000000 0.000000
0.069438 0.000000 0.000000
0.068660 0.000000 0.068660
0.067821 0.000000 0.142876
0.066955 0.000000 0.219447
0.066072 0.000000 0.297600
0.065175 0.000000 0.376957
0.064267 0.000000 0.457286
0.063350 0.000000 0.538436
0.062424 0.000000 0.620295
0.061492 0.000000 0.702779
0.060553 0.000000 0.785824
0.059609 0.000000 0.869375
0.058659 0.000000 0.953391
0.057705 0.000000 1.000000
0.056746 0.000000 1.000000
0.056238 0.000000 1.000000
0.069218 0.000000 0.000000
0.069194 0.000000 0.000000
0.068415 0.000000 0.068415
0.067577 0.000000 0.142632
0.066711 0.000000 0.219203
0.065828 0.000000 0.297356
0.064931 0.000000 0.376712
0.064023 0.000000 0.457042
0.063105 0.000000 0.538192
0.062180 0.000000 0.620050
0.061248 0.000000 0.702535
0.060309 0.000000 0.785579
0.059365 0.000000 0.869131
0.058415 0.000000 0.953147
0.057461 0.000000 1.000000
0.056502 0.000000 1.000000
0.055994 0.000000 1.000000
0.061510 0.061510 0.000000
0.061485 0.061485 0.000000
0.060707 0.060707 0.060707
0.059868 0.059868 0.134924
0.059003 0.059003 0.211495
0.058119 0.058119 0.289648
0.057222 0.057222 0.369004
0.056314 0.056314 0.449334
0.055397 0.055397 0.530483
0.054472 0.054472 0.612342
0.053540 0.053540 0.694827
0.052601 0.052601 0.777871
0.051657 0.051657 0.861423
0.050707 0.050707 0.945439
0.049752 0.049752 1.000000
0.048793 0.048793 1.000000
0.048286 0.048286 1.000000
0.053200 0.128256 0.000000
0.053176 0.128231 0.000000
0.052397 0.127453 0.052397
0.051559 0.126614 0.126614
0.050693 0.125748 0.203185
0.049810 0.124865 0.281338
0.048913 0.123968 0.360694
0.048005 0.123060 0.441024
0.047087 0.122143 0.522174
0.046162 0.121218 0.604032
0.045230 0.120285 0.686517
0.044291 0.119346 0.769561
0.043347 0.118402 0.853113
0.042397 0.117452 0.937129
0.041443 0.116498 1.000000
0.040484 0.115539 1.000000
0.039976 0.115032 1.000000
0.044627 0.197119 0.000000
0.044602 0.197094 0.000000
0.043824 0.196316 0.043824
0.042985 0.195477 0.118040
0.042120 0.194611 0.194611
0.041236 0.193728 0.272765
0.040339 0.192831 0.352121
0.039431 0.191923 0.432451
0.038514 0.191006 0.513600
0.037589 0.190081 0.595459
0.036656 0.189148 0.677943
0.035718 0.188210 0.760988
0.034773 0.187265 0.844540
0.033824 0.186315 0.928556
0.032869 0.185361 1.000000
0.031910 0.184402 1.000000
0.031403 0.183895 1.000000
0.035876 0.267405 0.000000
0.035851 0.267380 0.000000
0.035073 0.266602 0.035073
0.034234 0.265763 0.109290
0.033369 0.264898 0.185861
0.032486 0.264014 0.264014
0.031589 0.263117 0.343370
0.030681 0.262209 0.423700
0.029763 0.261292 0.504849
0.028838 0.260367 0.586708
0.027906 0.259434 0.669193
0.026967 0.258496 0.752237
0.026023 0.257551 0.835789
0.025073 0.256602 0.919805
0.024118 0.255647 1.000000
0.023160 0.254688 1.000000
0.022652 0.254181 1.000000
0.026991 0.338773 0.000000
0.026966 0.338748 0.000000
0.026188 0.337970 0.026188
0.025349 0.337131 0.100404
0.024484 0.336265 0.176975
0.023600 0.335382 0.255129
0.022703 0.334485 0.334485
0.021795 0.333577 0.414815
0.020878 0.332660 0.495964
0.019953 0.331734 0.577823
0.019020 0.330802 0.660307
0.018082 0.329863 0.743352
0.017137 0.328919 0.826904
0.016188 0.327969 0.910920
0.015233 0.327015 0.995363
0.014274 0.326056 1.000000
0.013767 0.325549 1.000000
0.017996 0.411016 0.000000
0.017972 0.410991 0.000000
0.017194 0.410213 0.017194
0.016355 0.409374 0.091410
0.015489 0.408509 0.167981
0.014606 0.407625 0.246135
0.013709 0.406728 0.325491
0.012801 0.405820 0.405820
0.011884 0.404903 0.486970
0.010958 0.403978 0.568829
0.010026 0.403045 0.651313
0.009087 0.402107 0.734358
0.008143 0.401162 0.817910
0.007193 0.400213 0.901926
0.006239 0.399258 0.986369
0.005280 0.398299 1.000000
0.004772 0.397792 1.000000
0.008910 0.483997 0.000000
0.008886 0.483972 0.000000
0.008108 0.483194 0.008108
0.007269 0.482355 0.082324
0.006403 0.481489 0.158895
0.005520 0.480606 0.237049
0.004623 0.479709 0.316405
0.003715 0.478801 0.396734
0.002798 0.477884 0.477884
0.001872 0.476959 0.559743
0.000940 0.476026 0.642227
0.000001 0.475087 0.725272
0.000000 0.474143 0.808824
0.000000 0.473193 0.892839
0.000000 0.472239 0.977283
0.000000 0.471280 1.000000
0.000000 0.470773 1.000000
0.000000 0.557615 0.000000
0.000000 0.557590 0.000000
0.000000 0.556812 0.000000
0.000000 0.555973 0.073159
0.000000 0.555108 0.149729
0.000000 0.554225 0.227883
0.000000 0.553328 0.307239
0.000000 0.552420 0.387569
0.000000 0.551502 0.468718
0.000000 0.550577 0.550577
0.000000 0.549645 0.633061
0.000000 0.548706 0.716106
0.000000 0.547762 0.799658
0.000000 0.546812 0.883674
0.000000 0.545858 0.968118
0.000000 0.544899 1.000000
0.000000 0.544391 1.000000
0.000000 0.631796 0.000000
0.000000 0.631772 0.000000
0.000000 0.630993 0.000000
0.000000 0.630155 0.063923
0.000000 0.629289 0.140494
0.000000 0.628406 0.218647
0.000000 0.627509 0.298003
0.000000 0.626601 0.378333
0.000000 0.625684 0.459483
0.000000 0.624758 0.541341
0.000000 0.623826 0.623826
0.000000 0.622887 0.706870
0.000000 0.621943 0.790422
0.000000 0.620993 0.874438
0.000000 0.620039 0.958882
0.000000 0.619080 1.000000
0.000000 0.618572 1.000000
0.000000 0.706481 0.000000
0.000000 0.706457 0.000000
0.000000 0.705678 0.000000
0.000000 0.704840 0.054625
0.000000 0.703974 0.131196
0.000000 0.703091 0.209349
0.000000 0.702194 0.288705
0.000000 0.701286 0.369035
0.000000 0.700368 0.450184
0.000000 0.699443 0.532043
0.000000 0.698511 0.614528
0.000000 0.697572 0.697572
0.000000 0.696628 0.781124
0.000000 0.695678 0.865140
0.000000 0.694724 0.949584
0.000000 0.693765 1.000000
0.000000 0.693257 1.000000
0.000000 0.781622 0.000000
0.000000 0.781598 0.000000
0.000000 0.780820 0.000000
0.000000 0.779981 0.045270
0.000000 0.779115 0.121841
0.000000 0.778232 0.199994
0.000000 0.777335 0.279350
0.000000 0.776427 0.359680
0.000000 0.775510 0.440829
0.000000 0.774584 0.522688
0.000000 0.773652 0.605173
0.000000 0.772713 0.688217
0.000000 0.771769 0.771769
0.000000 0.770819 0.855785
0.000000 0.769865 0.940229
0.000000 0.768906 1.000000
0.000000 0.768398 1.000000
0.000000 0.857181 0.000000
0.000000 0.857156 0.000000
0.000000 0.856378 0.000000
0.000000 0.855539 0.035863
0.000000 0.854674 0.112433
0.000000 0.853790 0.190587
0.000000 0.852894 0.269943
0.000000 0.851986 0.350273
0.000000 0.851068 0.431422
0.000000 0.850143 0.513281
0.000000 0.849211 0.595765
0.000000 0.848272 0.678810
0.000000 0.847328 0.762362
0.000000 0.846378 0.846378
0.000000 0.845423 0.930822
0.000000 0.844464 1.000000
0.000000 0.843957 1.000000
0.000000 0.933124 0.000000
0.000000 0.933100 0.000000
0.000000 0.932321 0.000000
0.000000 0.931482 0.026408
0.000000 0.930617 0.102979
0.000000 0.929734 0.181132
0.000000 0.928837 0.260488
0.000000 0.927929 0.340818
0.000000 0.927011 0.421967
0.000000 0.926086 0.503826
0.000000 0.925154 0.586311
0.000000 0.924215 0.669355
0.000000 0.923271 0.752907
0.000000 0.922321 0.836923
0.000000 0.921367 0.921367
0.000000 0.920408 1.000000
0.000000 0.919900 1.000000
0.000000 1.000000 0.000000
0.000000 1.000000 0.000000
0.000000 1.000000 0.000000
0.000000 1.000000 0.016908
0.000000 1.000000 0.093479
0.000000 1.000000 0.171633
0.000000 1.000000 0.250989
0.000000 1.000000 0.331318
0.000000 1.000000 0.412468
0.000000 1.000000 0.494327
0.000000 1.000000 0.576811
0.000000 1.000000 0.659856
0.000000 0.999571 0.743408
0.000000 0.998621 0.827424
0.000000 0.997666 0.911867
0.000000 0.996708 0.996708
0.000000 0.996200 1.000000
0.000000 1.000000 0.000000
0.000000 1.000000 0.000000
0.000000 1.000000 0.000000
0.000000 1.000000 0.011881
0.000000 1.000000 0.088452
0.000000 1.000000 0.166606
0.000000 1.000000 0.245962
0.000000 1.000000 0.326292
0.000000 1.000000 0.407441
0.000000 1.000000 0.489300
0.000000 1.000000 0.571784
0.000000 1.000000 0.654829
0.000000 1.000000 0.738381
0.000000 1.000000 0.822397
0.000000 1.000000 0.906841
0.000000 1.000000 0.991681
0.000000 1.000000 1.000000
0.142048 0.000000 0.000000
0.142023 0.000000 0.000000
0.141245 0.000000 0.066189
0.140406 0.000000 0.140406
0.139540 0.000000 0.216977
0.138657 0.000000 0.295130
0.137760 0.000000 0.374486
0.136852 0.000000 0.454816
0.135935 0.000000 0.535966
0.135009 0.000000 0.617824
0.134077 0.000000 0.700309
0.133138 0.000000 0.783353
0.132194 0.000000 0.866905
0.131244 0.000000 0.950921
0.130290 0.000000 1.000000
0.129331 0.000000 1.000000
0.128824 0.000000 1.000000
0.141803 0.000000 0.000000
