skills/editops-orchestrator/assets/grade/luts/trailer_punch_v11.cube
TITLE "trailer_punch_v11"
LUT_3D_SIZE 9
DOMAIN_MIN 0.0 0.0 0.0
DOMAIN_MAX 1.0 1.0 1.0
0.000000 0.000000 0.000000
0.000000 0.000000 0.080367
0.000000 0.000000 0.227550
0.000000 0.000000 0.379961
0.000000 0.000000 0.535515
0.000000 0.000000 0.693348
0.000000 0.000000 0.852979
0.000000 0.000000 1.000000
0.000000 0.000000 1.000000
0.000000 0.073374 0.000000
0.000000 0.072589 0.072589
0.000000 0.071151 0.219773
0.000000 0.069662 0.372183
0.000000 0.068143 0.527737
0.000000 0.066601 0.685571
0.000000 0.065041 0.845201
0.000000 0.063467 1.000000
0.000000 0.062202 1.000000
0.000000 0.207752 0.000000
0.000000 0.206967 0.058345
0.000000 0.205529 0.205529
0.000000 0.204040 0.357940
0.000000 0.202521 0.513494
0.000000 0.200979 0.671327
0.000000 0.199419 0.830958
0.000000 0.197845 0.992075
0.000000 0.196580 1.000000
0.000000 0.346902 0.000000
0.000000 0.346117 0.043596
0.000000 0.344679 0.190780
0.000000 0.343190 0.343190
0.000000 0.341671 0.498744
0.000000 0.340129 0.656578
0.000000 0.338569 0.816208
0.000000 0.336995 0.977326
0.000000 0.335730 1.000000
0.000000 0.488922 0.000000
0.000000 0.488137 0.028542
0.000000 0.486699 0.175726
0.000000 0.485210 0.328137
0.000000 0.483691 0.483691
0.000000 0.482149 0.641524
0.000000 0.480589 0.801154
0.000000 0.479015 0.962272
0.000000 0.477750 1.000000
0.000000 0.633023 0.000000
0.000000 0.632238 0.013268
0.000000 0.630800 0.160452
0.000000 0.629311 0.312863
0.000000 0.627792 0.468416
0.000000 0.626250 0.626250
0.000000 0.624690 0.785880
0.000000 0.623116 0.946998
0.000000 0.621851 1.000000
0.000000 0.778765 0.000000
0.000000 0.777980 0.000000
0.000000 0.776542 0.145004
0.000000 0.775053 0.297414
0.000000 0.773534 0.452968
0.000000 0.771992 0.610802
0.000000 0.770432 0.770432
0.000000 0.768858 0.931550
0.000000 0.767593 1.000000
0.000000 0.925865 0.000000
0.000000 0.925080 0.000000
0.000000 0.923642 0.129412
0.000000 0.922153 0.281822
0.000000 0.920633 0.437376
0.000000 0.919091 0.595210
0.000000 0.917532 0.754840
0.000000 0.915958 0.915958
0.000000 0.914693 1.000000
0.000000 1.000000 0.000000
0.000000 1.000000 0.000000
0.000000 1.000000 0.116883
0.000000 1.000000 0.269293
0.000000 1.000000 0.424847
0.000000 1.000000 0.582680
0.000000 1.000000 0.742311
0.000000 1.000000 0.903428
0.000000 1.000000 1.000000
0.078840 0.000000 0.000000
0.078055 0.000000 0.078055
0.076617 0.000000 0.225238
0.075128 0.000000 0.377649
0.073608 0.000000 0.533203
0.072066 0.000000 0.691036
0.070507 0.000000 0.850667
0.068933 0.000000 1.000000
0.067668 0.000000 1.000000
0.071062 0.071062 0.000000
0.070277 0.070277 0.070277
0.068839 0.068839 0.217461
0.067350 0.067350 0.369872
0.065831 0.065831 0.525425
0.064289 0.064289 0.683259
0.062729 0.062729 0.842889
0.061155 0.061155 1.000000
0.059890 0.059890 1.000000
0.056819 0.205440 0.000000
0.056034 0.204655 0.056034
0.054596 0.203217 0.203217
0.053107 0.201728 0.355628
0.051587 0.200209 0.511182
0.050045 0.198667 0.669015
0.048486 0.197107 0.828646
0.046912 0.195533 0.989763
0.045647 0.194268 1.000000
0.042069 0.344591 0.000000
0.041284 0.343805 0.041284
0.039846 0.342367 0.188468
0.038357 0.340878 0.340878
0.036838 0.339359 0.496432
0.035296 0.337817 0.654266
0.033736 0.336257 0.813896
0.032162 0.334683 0.975014
0.030897 0.333419 1.000000
0.027016 0.486610 0.000000
0.026231 0.485825 0.026231
0.024793 0.484387 0.173414
0.023304 0.482898 0.325825
0.021784 0.481379 0.481379
0.020242 0.479837 0.639212
0.018683 0.478277 0.798843
0.017108 0.476703 0.959960
0.015844 0.475438 1.000000
0.011741 0.630711 0.000000
0.010956 0.629926 0.010956
0.009518 0.628488 0.158140
0.008029 0.626999 0.310551
0.006510 0.625480 0.466105
0.004968 0.623938 0.623938
0.003408 0.622378 0.783568
0.001834 0.620804 0.944686
0.000569 0.619539 1.000000
0.000000 0.776453 0.000000
0.000000 0.775668 0.000000
0.000000 0.774230 0.142692
0.000000 0.772741 0.295102
0.000000 0.771222 0.450656
0.000000 0.769680 0.608490
0.000000 0.768120 0.768120
0.000000 0.766546 0.929238
0.000000 0.765281 1.000000
0.000000 0.923553 0.000000
0.000000 0.922768 0.000000
0.000000 0.921330 0.127100
0.000000 0.919841 0.279510
0.000000 0.918321 0.435064
0.000000 0.916779 0.592898
0.000000 0.915220 0.752528
0.000000 0.913646 0.913646
0.000000 0.912381 1.000000
0.000000 1.000000 0.000000
0.000000 1.000000 0.000000
0.000000 1.000000 0.114571
0.000000 1.000000 0.266981
0.000000 1.000000 0.422535
0.000000 1.000000 0.580368
0.000000 1.000000 0.739999
0.000000 1.000000 0.901116
0.000000 1.000000 1.000000
0.223227 0.000000 0.000000
0.222442 0.000000 0.073821
0.221004 0.000000 0.221004
0.219515 0.000000 0.373415
0.217996 0.000000 0.528969
0.216454 0.000000 0.686802
0.214894 0.000000 0.846433
0.213320 0.000000 1.000000
0.212055 0.000000 1.000000
0.215450 0.066828 0.000000
0.214665 0.066043 0.066043
0.213227 0.064605 0.213227
0.211738 0.063116 0.365638
0.210218 0.061597 0.521191
0.208676 0.060055 0.679025
0.207117 0.058495 0.838655
0.205543 0.056921 0.999773
0.204278 0.055656 1.000000
0.201206 0.201206 0.000000
0.200421 0.200421 0.051800
0.198983 0.198983 0.198983
0.197494 0.197494 0.351394
0.195975 0.195975 0.506948
0.194433 0.194433 0.664781
0.192873 0.192873 0.824412
0.191299 0.191299 0.985529
0.190034 0.190034 1.000000
0.186457 0.340356 0.000000
0.185672 0.339571 0.037050
0.184234 0.338133 0.184234
0.182745 0.336644 0.336644
0.181225 0.335125 0.492198
0.179683 0.333583 0.650032
0.178124 0.332023 0.809662
0.176550 0.330449 0.970780
0.175285 0.329184 1.000000
0.171403 0.482376 0.000000
0.170618 0.481591 0.021996
0.169180 0.480153 0.169180
0.167691 0.478664 0.321591
0.166172 0.477145 0.477145
0.164630 0.475603 0.634978
0.163070 0.474043 0.794608
0.161496 0.472469 0.955726
0.160231 0.471204 1.000000
0.156129 0.626477 0.000000
0.155344 0.625692 0.006722
0.153906 0.624254 0.153906
0.152417 0.622765 0.306317
0.150897 0.621246 0.461870
0.149355 0.619704 0.619704
0.147796 0.618144 0.779334
0.146222 0.616570 0.940452
0.144957 0.615305 1.000000
0.140681 0.772219 0.000000
0.139896 0.771434 0.000000
0.138458 0.769996 0.138458
0.136969 0.768507 0.290868
0.135449 0.766988 0.446422
0.133907 0.765446 0.604256
0.132348 0.763886 0.763886
0.130774 0.762312 0.925004
0.129509 0.761047 1.000000
0.125089 0.919319 0.000000
0.124304 0.918534 0.000000
0.122866 0.917096 0.122866
0.121377 0.915607 0.275276
0.119857 0.914087 0.430830
0.118315 0.912545 0.588664
0.116756 0.910986 0.748294
0.115182 0.909412 0.909412
0.113917 0.908147 1.000000
0.112560 1.000000 0.000000
0.111775 1.000000 0.000000
0.110337 1.000000 0.110337
0.108848 1.000000 0.262747
0.107328 1.000000 0.418301
0.105786 1.000000 0.576134
0.104227 1.000000 0.735765
0.102652 1.000000 0.896882
0.101388 1.000000 1.000000
0.372743 0.000000 0.000000
0.371957 0.000000 0.069436
0.370519 0.000000 0.216620
0.369031 0.000000 0.369031
0.367511 0.000000 0.524584
0.365969 0.000000 0.682418
0.364409 0.000000 0.842048
0.362835 0.000000 1.000000
0.361571 0.000000 1.000000
0.364965 0.062444 0.000000
0.364180 0.061659 0.061659
0.362742 0.060221 0.208843
0.361253 0.058732 0.361253
0.359733 0.057212 0.516807
0.358191 0.055670 0.674640
0.356632 0.054111 0.834271
0.355058 0.052537 0.995388
0.353793 0.051272 1.000000
0.350721 0.196822 0.000000
0.349936 0.196037 0.047415
0.348498 0.194599 0.194599
0.347009 0.193110 0.347009
0.345490 0.191590 0.502563
0.343948 0.190048 0.660397
0.342388 0.188489 0.820027
0.340814 0.186915 0.981145
0.339549 0.185650 1.000000
0.335972 0.335972 0.000000
0.335187 0.335187 0.032666
0.333749 0.333749 0.179850
0.332260 0.332260 0.332260
0.330740 0.330740 0.487814
0.329198 0.329198 0.645647
0.327639 0.327639 0.805278
0.326065 0.326065 0.966395
0.324800 0.324800 1.000000
0.320918 0.477992 0.000000
0.320133 0.477207 0.017612
0.318695 0.475769 0.164796
0.317206 0.474280 0.317206
0.315687 0.472760 0.472760
0.314145 0.471218 0.630594
0.312585 0.469659 0.790224
0.311011 0.468085 0.951342
0.309746 0.466820 1.000000
0.305644 0.622093 0.000000
0.304859 0.621308 0.002338
0.303421 0.619870 0.149522
0.301932 0.618381 0.301932
0.300412 0.616861 0.457486
0.298871 0.615319 0.615319
0.297311 0.613760 0.774950
0.295737 0.612186 0.936067
0.294472 0.610921 1.000000
0.290196 0.767835 0.000000
0.289411 0.767050 0.000000
0.287973 0.765612 0.134074
0.286484 0.764123 0.286484
0.284964 0.762603 0.442038
0.283422 0.761061 0.599871
0.281863 0.759502 0.759502
0.280289 0.757928 0.920619
0.279024 0.756663 1.000000
0.274604 0.914934 0.000000
0.273819 0.914149 0.000000
0.272381 0.912711 0.118481
0.270892 0.911222 0.270892
0.269372 0.909703 0.426446
0.267830 0.908161 0.584279
0.266271 0.906601 0.743910
0.264697 0.905027 0.905027
0.263432 0.903762 1.000000
0.262075 1.000000 0.000000
0.261290 1.000000 0.000000
0.259852 1.000000 0.105952
0.258363 1.000000 0.258363
0.256843 1.000000 0.413917
0.255301 1.000000 0.571750
0.253742 1.000000 0.731380
0.252168 1.000000 0.892498
0.250903 1.000000 1.000000
0.525341 0.000000 0.000000
0.524556 0.000000 0.064961
0.523118 0.000000 0.212145
0.521629 0.000000 0.364556
0.520110 0.000000 0.520110
0.518568 0.000000 0.677943
0.517008 0.000000 0.837573
0.515434 0.000000 0.998691
0.514169 0.000000 1.000000
0.517564 0.057969 0.000000
0.516779 0.057184 0.057184
0.515341 0.055746 0.204368
0.513852 0.054257 0.356778
0.512332 0.052737 0.512332
0.510790 0.051195 0.670165
0.509231 0.049636 0.829796
0.507657 0.048062 0.990914
0.506392 0.046797 1.000000
0.503320 0.192347 0.000000
0.502535 0.191562 0.042940
0.501097 0.190124 0.190124
0.499608 0.188635 0.342535
0.498089 0.187115 0.498089
0.496547 0.185574 0.655922
0.494987 0.184014 0.815552
0.493413 0.182440 0.976670
0.492148 0.181175 1.000000
0.488571 0.331497 0.000000
0.487786 0.330712 0.028191
0.486348 0.329274 0.175375
0.484859 0.327785 0.327785
0.483339 0.326266 0.483339
0.481797 0.324724 0.641172
0.480238 0.323164 0.800803
0.478664 0.321590 0.961920
0.477399 0.320325 1.000000
0.473517 0.473517 0.000000
0.472732 0.472732 0.013137
0.471294 0.471294 0.160321
0.469805 0.469805 0.312732
0.468285 0.468285 0.468285
0.466743 0.466743 0.626119
0.465184 0.465184 0.785749
0.463610 0.463610 0.946867
0.462345 0.462345 1.000000
0.458243 0.617618 0.000000
0.457458 0.616833 0.000000
0.456020 0.615395 0.145047
0.454531 0.613906 0.297457
0.453011 0.612387 0.453011
0.451469 0.610845 0.610845
0.449910 0.609285 0.770475
0.448336 0.607711 0.931593
0.447071 0.606446 1.000000
0.442795 0.763360 0.000000
0.442010 0.762575 0.000000
0.440572 0.761137 0.129599
0.439083 0.759648 0.282009
0.437563 0.758128 0.437563
0.436021 0.756586 0.595396
0.434462 0.755027 0.755027
0.432888 0.753453 0.916144
0.431623 0.752188 1.000000
0.427203 0.910460 0.000000
0.426418 0.909674 0.000000
0.424980 0.908237 0.114007
0.423491 0.906748 0.266417
0.421971 0.905228 0.421971
0.420429 0.903686 0.579804
0.418870 0.902126 0.739435
0.417296 0.900552 0.900552
0.416031 0.899288 1.000000
0.414673 1.000000 0.000000
0.413888 1.000000 0.000000
0.412450 1.000000 0.101477
0.410961 1.000000 0.253888
0.409442 1.000000 0.409442
0.407900 1.000000 0.567275
0.406340 1.000000 0.726906
0.404766 1.000000 0.888023
0.403501 1.000000 1.000000
0.680176 0.000000 0.000000
0.679391 0.000000 0.060421
0.677953 0.000000 0.207605
0.676464 0.000000 0.360015
0.674944 0.000000 0.515569
0.673403 0.000000 0.673403
0.671843 0.000000 0.833033
0.670269 0.000000 0.994151
0.669004 0.000000 1.000000
0.672399 0.053429 0.000000
0.671614 0.052643 0.052643
0.670176 0.051206 0.199827
0.668687 0.049717 0.352238
0.667167 0.048197 0.507792
0.665625 0.046655 0.665625
0.664066 0.045095 0.825256
0.662492 0.043521 0.986373
0.661227 0.042257 1.000000
0.658155 0.187807 0.000000
0.657370 0.187022 0.038400
0.655932 0.185584 0.185584
0.654443 0.184095 0.337994
0.652923 0.182575 0.493548
0.651381 0.181033 0.651381
0.649822 0.179474 0.811012
0.648248 0.177900 0.972129
0.646983 0.176635 1.000000
0.643406 0.326957 0.000000
0.642621 0.326172 0.023650
0.641183 0.324734 0.170834
0.639694 0.323245 0.323245
0.638174 0.321725 0.478799
0.636632 0.320183 0.636632
0.635073 0.318624 0.796262
0.633498 0.317050 0.957380
0.632234 0.315785 1.000000
0.628352 0.468977 0.000000
0.627567 0.468192 0.008597
0.626129 0.466754 0.155781
0.624640 0.465265 0.308191
0.623120 0.463745 0.463745
0.621578 0.462203 0.621578
0.620019 0.460644 0.781209
0.618445 0.459070 0.942326
0.617180 0.457805 1.000000
0.613078 0.613078 0.000000
0.612293 0.612293 0.000000
0.610855 0.610855 0.140506
0.609366 0.609366 0.292917
0.607846 0.607846 0.448471
0.606304 0.606304 0.606304
0.604745 0.604745 0.765935
0.603171 0.603171 0.927052
0.601906 0.601906 1.000000
0.597630 0.758820 0.000000
0.596845 0.758034 0.000000
0.595407 0.756597 0.125058
0.593918 0.755108 0.277469
0.592398 0.753588 0.433023
0.590856 0.752046 0.590856
0.589297 0.750486 0.750486
0.587722 0.748912 0.911604
0.586458 0.747648 1.000000
0.582038 0.905919 0.000000
0.581252 0.905134 0.000000
0.579815 0.903696 0.109466
0.578326 0.902207 0.261877
0.576806 0.900687 0.417431
0.575264 0.899146 0.575264
0.573704 0.897586 0.734894
0.572130 0.896012 0.896012
0.570866 0.894747 1.000000
0.569508 1.000000 0.000000
0.568723 1.000000 0.000000
0.567285 1.000000 0.096937
0.565796 1.000000 0.249347
0.564277 1.000000 0.404901
0.562735 1.000000 0.562735
0.561175 1.000000 0.722365
0.559601 1.000000 0.883483
0.558336 1.000000 1.000000
0.836774 0.000000 0.000000
0.835989 0.000000 0.055829
0.834551 0.000000 0.203013
0.833062 0.000000 0.355423
0.831542 0.000000 0.510977
0.830000 0.000000 0.668810
0.828441 0.000000 0.828441
0.826867 0.000000 0.989558
0.825602 0.000000 1.000000
0.828997 0.048837 0.000000
0.828211 0.048051 0.048051
0.826774 0.046613 0.195235
0.825285 0.045125 0.347646
0.823765 0.043605 0.503200
0.822223 0.042063 0.661033
0.820663 0.040503 0.820663
0.819089 0.038929 0.981781
0.817825 0.037665 1.000000
0.814753 0.183215 0.000000
0.813968 0.182429 0.033808
0.812530 0.180992 0.180992
0.811041 0.179503 0.333402
0.809521 0.177983 0.488956
0.807979 0.176441 0.646789
0.806420 0.174882 0.806420
0.804846 0.173307 0.967537
0.803581 0.172043 1.000000
0.800003 0.322365 0.000000
0.799218 0.321580 0.019058
0.797780 0.320142 0.166242
0.796291 0.318653 0.318653
0.794772 0.317133 0.474207
0.793230 0.315591 0.632040
0.791670 0.314032 0.791670
0.790096 0.312458 0.952788
0.788831 0.311193 1.000000
0.784950 0.464385 0.000000
0.784165 0.463599 0.004005
0.782727 0.462162 0.151189
0.781238 0.460673 0.303599
0.779718 0.459153 0.459153
0.778176 0.457611 0.616986
0.776617 0.456051 0.776617
0.775043 0.454477 0.937734
0.773778 0.453213 1.000000
0.769676 0.608486 0.000000
0.768890 0.607701 0.000000
0.767453 0.606263 0.135914
0.765964 0.604774 0.288325
0.764444 0.603254 0.443879
0.762902 0.601712 0.601712
0.761343 0.600153 0.761343
0.759768 0.598579 0.922460
0.758504 0.597314 1.000000
0.754227 0.754227 0.000000
0.753442 0.753442 0.000000
0.752004 0.752004 0.120466
0.750515 0.750515 0.272877
0.748996 0.748996 0.428431
0.747454 0.747454 0.586264
0.745894 0.745894 0.745894
0.744320 0.744320 0.907012
0.743055 0.743055 1.000000
0.738635 0.901327 0.000000
0.737850 0.900542 0.000000
0.736412 0.899104 0.104874
0.734923 0.897615 0.257285
0.733404 0.896095 0.412838
0.731862 0.894553 0.570672
0.730302 0.892994 0.730302
0.728728 0.891420 0.891420
0.727463 0.890155 1.000000
0.726106 1.000000 0.000000
0.725321 1.000000 0.000000
0.723883 1.000000 0.092345
0.722394 1.000000 0.244755
0.720875 1.000000 0.400309
0.719333 1.000000 0.558143
0.717773 1.000000 0.717773
0.716199 1.000000 0.878891
0.714934 1.000000 1.000000
0.994831 0.000000 0.000000
0.994046 0.000000 0.051194
0.992608 0.000000 0.198378
0.991119 0.000000 0.350788
0.989599 0.000000 0.506342
0.988057 0.000000 0.664176
0.986498 0.000000 0.823806
0.984924 0.000000 0.984924
0.983659 0.000000 1.000000
0.987053 0.044202 0.000000
0.986268 0.043417 0.043417
0.984830 0.041979 0.190600
0.983341 0.040490 0.343011
0.981822 0.038970 0.498565
0.980280 0.037428 0.656398
0.978720 0.035869 0.816029
0.977146 0.034294 0.977146
0.975881 0.033030 1.000000
0.972810 0.178580 0.000000
0.972025 0.177795 0.029173
0.970587 0.176357 0.176357
0.969098 0.174868 0.328767
0.967578 0.173348 0.484321
0.966036 0.171806 0.642154
0.964477 0.170247 0.801785
0.962902 0.168673 0.962902
0.961638 0.167408 1.000000
0.958060 0.317730 0.000000
0.957275 0.316945 0.014423
0.955837 0.315507 0.161607
0.954348 0.314018 0.314018
0.952829 0.312498 0.469572
0.951287 0.310956 0.627405
0.949727 0.309397 0.787035
0.948153 0.307823 0.948153
0.946888 0.306558 1.000000
0.943007 0.459750 0.000000
0.942221 0.458965 0.000000
0.940784 0.457527 0.146554
0.939295 0.456038 0.298964
0.937775 0.454518 0.454518
0.936233 0.452976 0.612351
0.934673 0.451417 0.771982
0.933099 0.449843 0.933099
0.931835 0.448578 1.000000
0.927732 0.603851 0.000000
0.926947 0.603066 0.000000
0.925509 0.601628 0.131279
0.924020 0.600139 0.283690
0.922501 0.598619 0.439244
0.920959 0.597077 0.597077
0.919399 0.595518 0.756708
0.917825 0.593944 0.917825
0.916560 0.592679 1.000000
0.912284 0.749593 0.000000
0.911499 0.748807 0.000000
0.910061 0.747370 0.115831
0.908572 0.745881 0.268242
0.907053 0.744361 0.423796
0.905511 0.742819 0.581629
0.903951 0.741259 0.741259
0.902377 0.739685 0.902377
0.901112 0.738421 1.000000
0.896692 0.896692 0.000000
0.895907 0.895907 0.000000
0.894469 0.894469 0.100239
0.892980 0.892980 0.252650
0.891460 0.891460 0.408204
0.889919 0.889919 0.566037
0.888359 0.888359 0.725667
0.886785 0.886785 0.886785
0.885520 0.885520 1.000000
0.884163 1.000000 0.000000
0.883378 1.000000 0.000000
0.881940 1.000000 0.087710
0.880451 1.000000 0.240120
0.878931 1.000000 0.395674
0.877389 1.000000 0.553508
0.875830 1.000000 0.713138
0.874256 1.000000 0.874256
0.872991 1.000000 1.000000
1.000000 0.000000 0.000000
1.000000 0.000000 0.047469
1.000000 0.000000 0.194653
1.000000 0.000000 0.347064
1.000000 0.000000 0.502618
1.000000 0.000000 0.660451
1.000000 0.000000 0.820082
1.000000 0.000000 0.981199
1.000000 0.000000 1.000000
1.000000 0.040477 0.000000
1.000000 0.039692 0.039692
1.000000 0.038254 0.186876
1.000000 0.036765 0.339286
1.000000 0.035246 0.494840
1.000000 0.033704 0.652674
1.000000 0.032144 0.812304
1.000000 0.030570 0.973422
1.000000 0.029305 1.000000
1.000000 0.174855 0.000000
1.000000 0.174070 0.025448
1.000000 0.172632 0.172632
1.000000 0.171143 0.325043
1.000000 0.169624 0.480597
1.000000 0.168082 0.638430
1.000000 0.166522 0.798060
1.000000 0.164948 0.959178
1.000000 0.163683 1.000000
1.000000 0.314005 0.000000
1.000000 0.313220 0.010699
1.000000 0.311782 0.157883
1.000000 0.310293 0.310293
1.000000 0.308774 0.465847
1.000000 0.307232 0.623681
1.000000 0.305672 0.783311
1.000000 0.304098 0.944429
1.000000 0.302833 1.000000
1.000000 0.456025 0.000000
1.000000 0.455240 0.000000
1.000000 0.453802 0.142829
1.000000 0.452313 0.295240
1.000000 0.450794 0.450794
1.000000 0.449252 0.608627
1.000000 0.447692 0.768257
1.000000 0.446118 0.929375
1.000000 0.444853 1.000000
1.000000 0.600126 0.000000
1.000000 0.599341 0.000000
1.000000 0.597903 0.127555
1.000000 0.596414 0.279965
1.000000 0.594895 0.435519
1.000000 0.593353 0.593353
1.000000 0.591793 0.752983
1.000000 0.590219 0.914101
1.000000 0.588954 1.000000
1.000000 0.745868 0.000000
1.000000 0.745083 0.000000
1.000000 0.743645 0.112107
1.000000 0.742156 0.264517
1.000000 0.740636 0.420071
1.000000 0.739095 0.577905
1.000000 0.737535 0.737535
1.000000 0.735961 0.898653
1.000000 0.734696 1.000000
1.000000 0.892968 0.000000
1.000000 0.892183 0.000000
1.000000 0.890745 0.096515
1.000000 0.889256 0.248925
1.000000 0.887736 0.404479
1.000000 0.886194 0.562313
1.000000 0.884635 0.721943
1.000000 0.883061 0.883061
1.000000 0.881796 1.000000
1.000000 1.000000 0.000000
1.000000 1.000000 0.000000
1.000000 1.000000 0.083986
1.000000 1.000000 0.236396
1.000000 1.000000 0.391950
1.000000 1.000000 0.549783
1.000000 1.000000 0.709414
1.000000 1.000000 0.870531
1.000000 1.000000 1.000000
