skills/editops-orchestrator/assets/grade/luts/trailer_punch_v06.cube
TITLE "trailer_punch_v06"
LUT_3D_SIZE 9
DOMAIN_MIN 0.0 0.0 0.0
DOMAIN_MAX 1.0 1.0 1.0
0.000000 0.000000 0.000000
0.000000 0.000000 0.095427
0.000000 0.000000 0.236139
0.000000 0.000000 0.380012
0.000000 0.000000 0.525839
0.000000 0.000000 0.673095
0.000000 0.000000 0.821482
0.000000 0.000000 0.970805
0.000000 0.000000 1.000000
0.000000 0.089436 0.000000
0.000000 0.088763 0.088763
0.000000 0.087771 0.229475
0.000000 0.086757 0.373348
0.000000 0.085729 0.519175
0.000000 0.084691 0.666431
0.000000 0.083645 0.814818
0.000000 0.082592 0.964141
0.000000 0.081684 1.000000
0.000000 0.221313 0.000000
0.000000 0.220641 0.078937
0.000000 0.219649 0.219649
0.000000 0.218634 0.363522
0.000000 0.217606 0.509349
0.000000 0.216568 0.656605
0.000000 0.215522 0.804992
0.000000 0.214469 0.954315
0.000000 0.213561 1.000000
0.000000 0.356154 0.000000
0.000000 0.355481 0.068890
0.000000 0.354489 0.209601
0.000000 0.353475 0.353475
0.000000 0.352447 0.499302
0.000000 0.351408 0.646558
0.000000 0.350362 0.794945
0.000000 0.349310 0.944268
0.000000 0.348402 1.000000
0.000000 0.492825 0.000000
0.000000 0.492153 0.058706
0.000000 0.491161 0.199418
0.000000 0.490146 0.343291
0.000000 0.489118 0.489118
0.000000 0.488080 0.636374
0.000000 0.487034 0.784761
0.000000 0.485981 0.934084
0.000000 0.485073 1.000000
0.000000 0.630836 0.000000
0.000000 0.630163 0.048423
0.000000 0.629171 0.189134
0.000000 0.628157 0.333008
0.000000 0.627129 0.478835
0.000000 0.626091 0.626091
0.000000 0.625045 0.774478
0.000000 0.623992 0.923801
0.000000 0.623084 1.000000
0.000000 0.769906 0.000000
0.000000 0.769234 0.038060
0.000000 0.768242 0.178772
0.000000 0.767227 0.322645
0.000000 0.766199 0.468472
0.000000 0.765161 0.615729
0.000000 0.764115 0.764115
0.000000 0.763063 0.913439
0.000000 0.762154 1.000000
0.000000 0.909855 0.000000
0.000000 0.909182 0.027633
0.000000 0.908190 0.168344
0.000000 0.907176 0.312218
0.000000 0.906148 0.458045
0.000000 0.905110 0.605301
0.000000 0.904064 0.753687
0.000000 0.903011 0.903011
0.000000 0.902103 1.000000
0.000000 1.000000 0.000000
0.000000 1.000000 0.018637
0.000000 1.000000 0.159349
0.000000 1.000000 0.303222
0.000000 1.000000 0.449049
0.000000 1.000000 0.596306
0.000000 1.000000 0.744692
0.000000 1.000000 0.894016
0.000000 1.000000 1.000000
0.094119 0.000000 0.000000
0.093446 0.000000 0.093446
0.092454 0.000000 0.234158
0.091440 0.000000 0.378031
0.090412 0.000000 0.523858
0.089374 0.000000 0.671115
0.088328 0.000000 0.819501
0.087275 0.000000 0.968825
0.086367 0.000000 1.000000
0.087455 0.087455 0.000000
0.086782 0.086782 0.086782
0.085790 0.085790 0.227494
0.084776 0.084776 0.371367
0.083748 0.083748 0.517194
0.082710 0.082710 0.664451
0.081664 0.081664 0.812837
0.080611 0.080611 0.962161
0.079703 0.079703 1.000000
0.077629 0.219332 0.000000
0.076956 0.218660 0.076956
0.075964 0.217668 0.217668
0.074950 0.216653 0.361541
0.073922 0.215625 0.507368
0.072884 0.214587 0.654624
0.071837 0.213541 0.803011
0.070785 0.212488 0.952334
0.069877 0.211580 1.000000
0.067582 0.354173 0.000000
0.066909 0.353500 0.066909
0.065917 0.352508 0.207621
0.064903 0.351494 0.351494
0.063875 0.350466 0.497321
0.062836 0.349427 0.644577
0.061790 0.348381 0.792964
0.060738 0.347329 0.942287
0.059830 0.346421 1.000000
0.057398 0.490844 0.000000
0.056725 0.490172 0.056725
0.055733 0.489180 0.197437
0.054719 0.488165 0.341310
0.053691 0.487137 0.487137
0.052653 0.486099 0.634393
0.051607 0.485053 0.782780
0.050554 0.484000 0.932103
0.049646 0.483092 1.000000
0.047115 0.628855 0.000000
0.046442 0.628182 0.046442
0.045450 0.627190 0.187154
0.044436 0.626176 0.331027
0.043408 0.625148 0.476854
0.042369 0.624110 0.624110
0.041323 0.623064 0.772497
0.040271 0.622011 0.921820
0.039363 0.621103 1.000000
0.036752 0.767925 0.000000
0.036079 0.767253 0.036079
0.035088 0.766261 0.176791
0.034073 0.765247 0.320664
0.033045 0.764218 0.466492
0.032007 0.763180 0.613748
0.030961 0.762134 0.762134
0.029908 0.761082 0.911458
0.029000 0.760173 1.000000
0.026324 0.907874 0.000000
0.025652 0.907201 0.025652
0.024660 0.906209 0.166363
0.023645 0.905195 0.310237
0.022617 0.904167 0.456064
0.021579 0.903129 0.603320
0.020533 0.902083 0.751707
0.019481 0.901030 0.901030
0.018572 0.900122 1.000000
0.017329 1.000000 0.000000
0.016656 1.000000 0.016656
0.015664 1.000000 0.157368
0.014650 1.000000 0.301241
0.013622 1.000000 0.447069
0.012584 1.000000 0.594325
0.011538 1.000000 0.742711
0.010485 1.000000 0.892035
0.009577 1.000000 1.000000
0.232902 0.000000 0.000000
0.232229 0.000000 0.090525
0.231237 0.000000 0.231237
0.230223 0.000000 0.375110
0.229195 0.000000 0.520937
0.228157 0.000000 0.668194
0.227111 0.000000 0.816580
0.226058 0.000000 0.965904
0.225150 0.000000 1.000000
0.226238 0.084534 0.000000
0.225565 0.083861 0.083861
0.224573 0.082869 0.224573
0.223559 0.081855 0.368446
0.222531 0.080827 0.514273
0.221493 0.079789 0.661530
0.220447 0.078743 0.809916
0.219394 0.077690 0.959240
0.218486 0.076782 1.000000
0.216411 0.216411 0.000000
0.215739 0.215739 0.074035
0.214747 0.214747 0.214747
0.213732 0.213732 0.358620
0.212704 0.212704 0.504447
0.211666 0.211666 0.651703
0.210620 0.210620 0.800090
0.209567 0.209567 0.949413
0.208659 0.208659 1.000000
0.206364 0.351252 0.000000
0.205692 0.350579 0.063988
0.204700 0.349587 0.204700
0.203685 0.348573 0.348573
0.202657 0.347545 0.494400
0.201619 0.346507 0.641656
0.200573 0.345460 0.790043
0.199520 0.344408 0.939366
0.198612 0.343500 1.000000
0.196181 0.487923 0.000000
0.195508 0.487251 0.053804
0.194516 0.486259 0.194516
0.193502 0.485244 0.338389
0.192474 0.484216 0.484216
0.191436 0.483178 0.631472
0.190389 0.482132 0.779859
0.189337 0.481079 0.929182
0.188429 0.480171 1.000000
0.185897 0.625934 0.000000
0.185225 0.625261 0.043521
0.184233 0.624269 0.184233
0.183218 0.623255 0.328106
0.182190 0.622227 0.473933
0.181152 0.621189 0.621189
0.180106 0.620143 0.769576
0.179053 0.619090 0.918899
0.178145 0.618182 1.000000
0.175535 0.765005 0.000000
0.174862 0.764332 0.033159
0.173870 0.763340 0.173870
0.172856 0.762326 0.317743
0.171828 0.761297 0.463571
0.170790 0.760259 0.610827
0.169744 0.759213 0.759213
0.168691 0.758161 0.908537
0.167783 0.757253 1.000000
0.165107 0.904953 0.000000
0.164434 0.904280 0.022731
0.163442 0.903288 0.163442
0.162428 0.902274 0.307316
0.161400 0.901246 0.453143
0.160362 0.900208 0.600399
0.159316 0.899162 0.748786
0.158263 0.898109 0.898109
0.157355 0.897201 1.000000
0.156112 1.000000 0.000000
0.155439 1.000000 0.013735
0.154447 1.000000 0.154447
0.153433 1.000000 0.298320
0.152405 1.000000 0.444148
0.151367 1.000000 0.591404
0.150321 1.000000 0.739790
0.149268 1.000000 0.889114
0.148360 1.000000 1.000000
0.374803 0.000000 0.000000
0.374130 0.000000 0.087539
0.373138 0.000000 0.228250
0.372124 0.000000 0.372124
0.371096 0.000000 0.517951
0.370057 0.000000 0.665207
0.369011 0.000000 0.813594
0.367959 0.000000 0.962917
0.367051 0.000000 1.000000
0.368139 0.081547 0.000000
0.367466 0.080875 0.080875
0.366474 0.079883 0.221586
0.365460 0.078868 0.365460
0.364432 0.077840 0.511287
0.363393 0.076802 0.658543
0.362347 0.075756 0.806930
0.361295 0.074704 0.956253
0.360387 0.073795 1.000000
0.358312 0.213425 0.000000
0.357639 0.212752 0.071048
0.356647 0.211760 0.211760
0.355633 0.210746 0.355633
0.354605 0.209718 0.501460
0.353567 0.208680 0.648717
0.352521 0.207634 0.797103
0.351468 0.206581 0.946427
0.350560 0.205673 1.000000
0.348265 0.348265 0.000000
0.347592 0.347592 0.061001
0.346600 0.346600 0.201713
0.345586 0.345586 0.345586
0.344558 0.344558 0.491413
0.343520 0.343520 0.638669
0.342474 0.342474 0.787056
0.341421 0.341421 0.936379
0.340513 0.340513 1.000000
0.338081 0.484937 0.000000
0.337409 0.484264 0.050818
0.336417 0.483272 0.191529
0.335402 0.482258 0.335402
0.334374 0.481230 0.481230
0.333336 0.480192 0.628486
0.332290 0.479145 0.776872
0.331238 0.478093 0.926196
0.330329 0.477185 1.000000
0.327798 0.622948 0.000000
0.327125 0.622275 0.040534
0.326133 0.621283 0.181246
0.325119 0.620269 0.325119
0.324091 0.619241 0.470946
0.323053 0.618202 0.618202
0.322007 0.617156 0.766589
0.320954 0.616104 0.915912
0.320046 0.615196 1.000000
0.317436 0.762018 0.000000
0.316763 0.761345 0.030172
0.315771 0.760353 0.170884
0.314757 0.759339 0.314757
0.313729 0.758311 0.460584
0.312691 0.757273 0.607840
0.311644 0.756227 0.756227
0.310592 0.755174 0.905550
0.309684 0.754266 1.000000
0.307008 0.901966 0.000000
0.306335 0.901294 0.019744
0.305343 0.900302 0.160456
0.304329 0.899287 0.304329
0.303301 0.898259 0.450156
0.302263 0.897221 0.597412
0.301217 0.896175 0.745799
0.300164 0.895122 0.895122
0.299256 0.894214 1.000000
0.298013 1.000000 0.000000
0.297340 1.000000 0.010749
0.296348 1.000000 0.151461
0.295334 1.000000 0.295334
0.294306 1.000000 0.441161
0.293268 1.000000 0.588417
0.292221 1.000000 0.736804
0.291169 1.000000 0.886127
0.290261 1.000000 1.000000
0.518631 0.000000 0.000000
0.517958 0.000000 0.084512
0.516966 0.000000 0.225223
0.515952 0.000000 0.369096
0.514924 0.000000 0.514924
0.513886 0.000000 0.662180
0.512839 0.000000 0.810566
0.511787 0.000000 0.959890
0.510879 0.000000 1.000000
0.511967 0.078520 0.000000
0.511294 0.077848 0.077848
0.510302 0.076856 0.218559
0.509288 0.075841 0.362432
0.508260 0.074813 0.508260
0.507222 0.073775 0.655516
0.506175 0.072729 0.803902
0.505123 0.071676 0.953226
0.504215 0.070768 1.000000
0.502140 0.210398 0.000000
0.501468 0.209725 0.068021
0.500476 0.208733 0.208733
0.499461 0.207719 0.352606
0.498433 0.206691 0.498433
0.497395 0.205652 0.645689
0.496349 0.204606 0.794076
0.495296 0.203554 0.943399
0.494388 0.202646 1.000000
0.492093 0.345238 0.000000
0.491420 0.344565 0.057974
0.490428 0.343573 0.198686
0.489414 0.342559 0.342559
0.488386 0.341531 0.488386
0.487348 0.340493 0.635642
0.486302 0.339447 0.784029
0.485249 0.338394 0.933352
0.484341 0.337486 1.000000
0.481910 0.481910 0.000000
0.481237 0.481237 0.047790
0.480245 0.480245 0.188502
0.479231 0.479231 0.332375
0.478203 0.478203 0.478203
0.477164 0.477164 0.625459
0.476118 0.476118 0.773845
0.475066 0.475066 0.923169
0.474158 0.474158 1.000000
0.471626 0.619920 0.000000
0.470953 0.619248 0.037507
0.469961 0.618256 0.178219
0.468947 0.617241 0.322092
0.467919 0.616213 0.467919
0.466881 0.615175 0.615175
0.465835 0.614129 0.763562
0.464782 0.613076 0.912885
0.463874 0.612168 1.000000
0.461264 0.758991 0.000000
0.460591 0.758318 0.027145
0.459599 0.757326 0.167856
0.458585 0.756312 0.311730
0.457557 0.755284 0.457557
0.456519 0.754246 0.604813
0.455473 0.753200 0.753200
0.454420 0.752147 0.902523
0.453512 0.751239 1.000000
0.450836 0.898939 0.000000
0.450163 0.898266 0.016717
0.449171 0.897274 0.157429
0.448157 0.896260 0.301302
0.447129 0.895232 0.447129
0.446091 0.894194 0.594385
0.445045 0.893148 0.742772
0.443992 0.892095 0.892095
0.443084 0.891187 1.000000
0.441841 1.000000 0.000000
0.441168 1.000000 0.007722
0.440176 1.000000 0.148433
0.439162 1.000000 0.292307
0.438134 1.000000 0.438134
0.437096 1.000000 0.585390
0.436050 1.000000 0.733776
0.434997 1.000000 0.883100
0.434089 1.000000 1.000000
0.663868 0.000000 0.000000
0.663195 0.000000 0.081455
0.662203 0.000000 0.222166
0.661189 0.000000 0.366040
0.660161 0.000000 0.511867
0.659123 0.000000 0.659123
0.658077 0.000000 0.807510
0.657024 0.000000 0.956833
0.656116 0.000000 1.000000
0.657204 0.075463 0.000000
0.656531 0.074791 0.074791
0.655539 0.073799 0.215502
0.654525 0.072784 0.359376
0.653497 0.071756 0.505203
0.652459 0.070718 0.652459
0.651413 0.069672 0.800846
0.650360 0.068620 0.950169
0.649452 0.067711 1.000000
0.647378 0.207341 0.000000
0.646705 0.206668 0.064964
0.645713 0.205676 0.205676
0.644699 0.204662 0.349549
0.643671 0.203634 0.495376
0.642633 0.202596 0.642633
0.641586 0.201550 0.791019
0.640534 0.200497 0.940343
0.639626 0.199589 1.000000
0.637331 0.342181 0.000000
0.636658 0.341508 0.054917
0.635666 0.340516 0.195629
0.634652 0.339502 0.339502
0.633624 0.338474 0.485329
0.632585 0.337436 0.632585
0.631539 0.336390 0.780972
0.630487 0.335337 0.930295
0.629579 0.334429 1.000000
0.627147 0.478853 0.000000
0.626474 0.478180 0.044734
0.625482 0.477188 0.185445
0.624468 0.476174 0.329318
0.623440 0.475146 0.475146
0.622402 0.474108 0.622402
0.621356 0.473061 0.770788
0.620303 0.472009 0.920112
0.619395 0.471101 1.000000
0.616864 0.616864 0.000000
0.616191 0.616191 0.034450
0.615199 0.615199 0.175162
0.614185 0.614185 0.319035
0.613157 0.613157 0.464862
0.612118 0.612118 0.612118
0.611072 0.611072 0.760505
0.610020 0.610020 0.909828
0.609112 0.609112 1.000000
0.606501 0.755934 0.000000
0.605829 0.755261 0.024088
0.604837 0.754269 0.164800
0.603822 0.753255 0.308673
0.602794 0.752227 0.454500
0.601756 0.751189 0.601756
0.600710 0.750143 0.750143
0.599657 0.749090 0.899466
0.598749 0.748182 1.000000
0.596073 0.895882 0.000000
0.595401 0.895210 0.013660
0.594409 0.894218 0.154372
0.593395 0.893203 0.298245
0.592366 0.892175 0.444072
0.591328 0.891137 0.591328
0.590282 0.890091 0.739715
0.589230 0.889038 0.889038
0.588321 0.888130 1.000000
0.587078 1.000000 0.000000
0.586405 1.000000 0.004665
0.585413 1.000000 0.145377
0.584399 1.000000 0.289250
0.583371 1.000000 0.435077
0.582333 1.000000 0.582333
0.581287 1.000000 0.730720
0.580234 1.000000 0.880043
0.579326 1.000000 1.000000
0.810220 0.000000 0.000000
0.809548 0.000000 0.078374
0.808556 0.000000 0.219086
0.807541 0.000000 0.362959
0.806513 0.000000 0.508786
0.805475 0.000000 0.656043
0.804429 0.000000 0.804429
0.803377 0.000000 0.953753
0.802468 0.000000 1.000000
0.803556 0.072383 0.000000
0.802884 0.071710 0.071710
0.801892 0.070718 0.212422
0.800877 0.069704 0.356295
0.799849 0.068676 0.502122
0.798811 0.067638 0.649379
0.797765 0.066592 0.797765
0.796713 0.065539 0.947089
0.795804 0.064631 1.000000
0.793730 0.204260 0.000000
0.793057 0.203588 0.061884
0.792065 0.202596 0.202596
0.791051 0.201581 0.346469
0.790023 0.200553 0.492296
0.788985 0.199515 0.639552
0.787939 0.198469 0.787939
0.786886 0.197417 0.937262
0.785978 0.196508 1.000000
0.783683 0.339101 0.000000
0.783010 0.338428 0.051837
0.782018 0.337436 0.192549
0.781004 0.336422 0.336422
0.779976 0.335394 0.482249
0.778938 0.334356 0.629505
0.777892 0.333309 0.777892
0.776839 0.332257 0.927215
0.775931 0.331349 1.000000
0.773499 0.475772 0.000000
0.772827 0.475100 0.041653
0.771835 0.474108 0.182365
0.770820 0.473093 0.326238
0.769792 0.472065 0.472065
0.768754 0.471027 0.619322
0.767708 0.469981 0.767708
0.766655 0.468928 0.917032
0.765747 0.468020 1.000000
0.763216 0.613783 0.000000
0.762543 0.613111 0.031370
0.761551 0.612119 0.172082
0.760537 0.611104 0.315955
0.759509 0.610076 0.461782
0.758471 0.609038 0.609038
0.757425 0.607992 0.757425
0.756372 0.606939 0.906748
0.755464 0.606031 1.000000
0.752854 0.752854 0.000000
0.752181 0.752181 0.021008
0.751189 0.751189 0.161719
0.750175 0.750175 0.305592
0.749147 0.749147 0.451420
0.748108 0.748108 0.598676
0.747062 0.747062 0.747062
0.746010 0.746010 0.896386
0.745102 0.745102 1.000000
0.742426 0.892802 0.000000
0.741753 0.892129 0.010580
0.740761 0.891137 0.151292
0.739747 0.890123 0.295165
0.738719 0.889095 0.440992
0.737681 0.888057 0.588248
0.736635 0.887011 0.736635
0.735582 0.885958 0.885958
0.734674 0.885050 1.000000
0.733431 1.000000 0.000000
0.732758 1.000000 0.001585
0.731766 1.000000 0.142296
0.730752 1.000000 0.286169
0.729724 1.000000 0.431997
0.728685 1.000000 0.579253
0.727639 1.000000 0.727639
0.726587 1.000000 0.876963
0.725679 1.000000 1.000000
0.957497 0.000000 0.000000
0.956824 0.000000 0.075275
0.955832 0.000000 0.215986
0.954818 0.000000 0.359860
0.953790 0.000000 0.505687
0.952752 0.000000 0.652943
0.951706 0.000000 0.801329
0.950653 0.000000 0.950653
0.949745 0.000000 1.000000
0.950833 0.069283 0.000000
0.950160 0.068611 0.068611
0.949168 0.067619 0.209322
0.948154 0.066604 0.353196
0.947126 0.065576 0.499023
0.946088 0.064538 0.646279
0.945042 0.063492 0.794665
0.943989 0.062439 0.943989
0.943081 0.061531 1.000000
0.941006 0.201161 0.000000
0.940334 0.200488 0.058784
0.939342 0.199496 0.199496
0.938327 0.198482 0.343369
0.937299 0.197454 0.489196
0.936261 0.196416 0.636453
0.935215 0.195370 0.784839
0.934163 0.194317 0.934163
0.933254 0.193409 1.000000
0.930959 0.336001 0.000000
0.930287 0.335328 0.048737
0.929295 0.334336 0.189449
0.928280 0.333322 0.333322
0.927252 0.332294 0.479149
0.926214 0.331256 0.626405
0.925168 0.330210 0.774792
0.924115 0.329157 0.924115
0.923207 0.328249 1.000000
0.920776 0.472673 0.000000
0.920103 0.472000 0.038554
0.919111 0.471008 0.179265
0.918097 0.469994 0.323138
0.917069 0.468966 0.468966
0.916031 0.467928 0.616222
0.914984 0.466881 0.764608
0.913932 0.465829 0.913932
0.913024 0.464921 1.000000
0.910492 0.610684 0.000000
0.909820 0.610011 0.028270
0.908828 0.609019 0.168982
0.907813 0.608005 0.312855
0.906785 0.606977 0.458682
0.905747 0.605938 0.605938
0.904701 0.604892 0.754325
0.903648 0.603840 0.903648
0.902740 0.602932 1.000000
0.900130 0.749754 0.000000
0.899457 0.749081 0.017908
0.898465 0.748089 0.158620
0.897451 0.747075 0.302493
0.896423 0.746047 0.448320
0.895385 0.745009 0.595576
0.894339 0.743963 0.743963
0.893286 0.742910 0.893286
0.892378 0.742002 1.000000
0.889702 0.889702 0.000000
0.889029 0.889029 0.007480
0.888038 0.888038 0.148192
0.887023 0.887023 0.292065
0.885995 0.885995 0.437892
0.884957 0.884957 0.585148
0.883911 0.883911 0.733535
0.882858 0.882858 0.882858
0.881950 0.881950 1.000000
0.880707 1.000000 0.000000
0.880034 1.000000 0.000000
0.879042 1.000000 0.139196
0.878028 1.000000 0.283070
0.877000 1.000000 0.428897
0.875962 1.000000 0.576153
0.874916 1.000000 0.724540
0.873863 1.000000 0.873863
0.872955 1.000000 1.000000
1.000000 0.000000 0.000000
1.000000 0.000000 0.072601
1.000000 0.000000 0.213312
1.000000 0.000000 0.357186
1.000000 0.000000 0.503013
1.000000 0.000000 0.650269
1.000000 0.000000 0.798656
1.000000 0.000000 0.947979
1.000000 0.000000 1.000000
1.000000 0.066609 0.000000
1.000000 0.065937 0.065937
1.000000 0.064945 0.206648
1.000000 0.063930 0.350522
1.000000 0.062902 0.496349
1.000000 0.061864 0.643605
1.000000 0.060818 0.791992
1.000000 0.059766 0.941315
1.000000 0.058857 1.000000
1.000000 0.198487 0.000000
1.000000 0.197814 0.056110
1.000000 0.196822 0.196822
1.000000 0.195808 0.340695
1.000000 0.194780 0.486522
1.000000 0.193742 0.633779
1.000000 0.192696 0.782165
1.000000 0.191643 0.931489
1.000000 0.190735 1.000000
1.000000 0.333327 0.000000
1.000000 0.332654 0.046063
1.000000 0.331662 0.186775
1.000000 0.330648 0.330648
1.000000 0.329620 0.476475
1.000000 0.328582 0.623731
1.000000 0.327536 0.772118
1.000000 0.326483 0.921441
1.000000 0.325575 1.000000
1.000000 0.469999 0.000000
1.000000 0.469326 0.035880
1.000000 0.468334 0.176591
1.000000 0.467320 0.320464
1.000000 0.466292 0.466292
1.000000 0.465254 0.613548
1.000000 0.464207 0.761934
1.000000 0.463155 0.911258
1.000000 0.462247 1.000000
1.000000 0.608010 0.000000
1.000000 0.607337 0.025596
1.000000 0.606345 0.166308
1.000000 0.605331 0.310181
1.000000 0.604303 0.456008
1.000000 0.603264 0.603264
1.000000 0.602218 0.751651
1.000000 0.601166 0.900974
1.000000 0.600258 1.000000
1.000000 0.747080 0.000000
1.000000 0.746407 0.015234
1.000000 0.745415 0.155946
1.000000 0.744401 0.299819
1.000000 0.743373 0.445646
1.000000 0.742335 0.592902
1.000000 0.741289 0.741289
1.000000 0.740236 0.890612
1.000000 0.739328 1.000000
1.000000 0.887028 0.000000
1.000000 0.886356 0.004806
1.000000 0.885364 0.145518
1.000000 0.884349 0.289391
1.000000 0.883321 0.435218
1.000000 0.882283 0.582474
1.000000 0.881237 0.730861
1.000000 0.880184 0.880184
1.000000 0.879276 1.000000
1.000000 1.000000 0.000000
1.000000 1.000000 0.000000
1.000000 1.000000 0.136523
1.000000 1.000000 0.280396
1.000000 1.000000 0.426223
1.000000 1.000000 0.573479
1.000000 1.000000 0.721866
1.000000 1.000000 0.871189
1.000000 1.000000 1.000000
