skills/editops-orchestrator/assets/grade/luts/trailer_punch_v01.cube
TITLE "trailer_punch_v01"
LUT_3D_SIZE 5
DOMAIN_MIN 0.0 0.0 0.0
DOMAIN_MAX 1.0 1.0 1.0
0.000000 0.000000 0.000000
0.000000 0.000000 0.243458
0.000000 0.000000 0.515099
0.000000 0.000000 0.789725
0.000000 0.000000 1.000000
0.000000 0.234561 0.000000
0.000000 0.233562 0.233562
0.000000 0.232447 0.505202
0.000000 0.231320 0.779828
0.000000 0.230229 1.000000
0.000000 0.496274 0.000000
0.000000 0.495275 0.222520
0.000000 0.494160 0.494160
0.000000 0.493033 0.768786
0.000000 0.491942 1.000000
0.000000 0.760864 0.000000
0.000000 0.759865 0.211357
0.000000 0.758750 0.482997
0.000000 0.757623 0.757623
0.000000 0.756532 1.000000
0.000000 1.000000 0.000000
0.000000 1.000000 0.200546
0.000000 1.000000 0.472187
0.000000 1.000000 0.746813
0.000000 1.000000 1.000000
0.241515 0.000000 0.000000
0.240516 0.000000 0.240516
0.239402 0.000000 0.512157
0.238275 0.000000 0.786783
0.237183 0.000000 1.000000
0.231619 0.231619 0.000000
0.230620 0.230620 0.230620
0.229505 0.229505 0.502260
0.228378 0.228378 0.776886
0.227287 0.227287 1.000000
0.220577 0.493332 0.000000
0.219578 0.492333 0.219578
0.218463 0.491219 0.491219
0.217336 0.490092 0.765845
0.216245 0.489000 1.000000
0.209414 0.757922 0.000000
0.208415 0.756923 0.208415
0.207300 0.755808 0.480055
0.206173 0.754681 0.754681
0.205082 0.753590 1.000000
0.198603 1.000000 0.000000
0.197604 1.000000 0.197604
0.196490 1.000000 0.469245
0.195363 1.000000 0.743871
0.194271 1.000000 1.000000
0.510988 0.000000 0.000000
0.509989 0.000000 0.237234
0.508875 0.000000 0.508875
0.507748 0.000000 0.783501
0.506656 0.000000 1.000000
0.501092 0.228337 0.000000
0.500093 0.227338 0.227338
0.498978 0.226223 0.498978
0.497851 0.225096 0.773604
0.496760 0.224005 1.000000
0.490050 0.490050 0.000000
0.489051 0.489051 0.216296
0.487936 0.487936 0.487936
0.486809 0.486809 0.762562
0.485718 0.485718 1.000000
0.478887 0.754640 0.000000
0.477888 0.753641 0.205132
0.476773 0.752526 0.476773
0.475646 0.751399 0.751399
0.474555 0.750308 1.000000
0.468076 1.000000 0.000000
0.467077 1.000000 0.194322
0.465963 1.000000 0.465963
0.464836 1.000000 0.740589
0.463744 1.000000 1.000000
0.783423 0.000000 0.000000
0.782424 0.000000 0.233916
0.781309 0.000000 0.505556
0.780182 0.000000 0.780182
0.779091 0.000000 1.000000
0.773526 0.225018 0.000000
0.772527 0.224019 0.224019
0.771413 0.222905 0.495660
0.770286 0.221778 0.770286
0.769194 0.220686 1.000000
0.762484 0.486732 0.000000
0.761485 0.485733 0.212977
0.760371 0.484618 0.484618
0.759244 0.483491 0.759244
0.758152 0.482400 1.000000
0.751321 0.751321 0.000000
0.750322 0.750322 0.201814
0.749207 0.749207 0.473454
0.748080 0.748080 0.748080
0.746989 0.746989 1.000000
0.740511 1.000000 0.000000
0.739512 1.000000 0.191004
0.738397 1.000000 0.462644
0.737270 1.000000 0.737270
0.736179 1.000000 1.000000
1.000000 0.000000 0.000000
1.000000 0.000000 0.230702
1.000000 0.000000 0.502343
1.000000 0.000000 0.776969
1.000000 0.000000 1.000000
1.000000 0.221805 0.000000
1.000000 0.220806 0.220806
1.000000 0.219691 0.492446
1.000000 0.218564 0.767072
1.000000 0.217473 1.000000
1.000000 0.483518 0.000000
1.000000 0.482519 0.209764
1.000000 0.481404 0.481404
1.000000 0.480277 0.756030
1.000000 0.479186 1.000000
1.000000 0.748108 0.000000
1.000000 0.747109 0.198601
1.000000 0.745994 0.470241
1.000000 0.744867 0.744867
1.000000 0.743776 1.000000
1.000000 1.000000 0.000000
1.000000 1.000000 0.187790
1.000000 1.000000 0.459431
1.000000 1.000000 0.734057
1.000000 1.000000 1.000000
