skills/editops-orchestrator/assets/grade/luts/trailer_punch_v17.cube
TITLE "trailer_punch_v17"
LUT_3D_SIZE 5
DOMAIN_MIN 0.0 0.0 0.0
DOMAIN_MAX 1.0 1.0 1.0
0.000000 0.000000 0.000000
0.000000 0.000000 0.215648
0.000000 0.000000 0.545689
0.000000 0.000000 0.890390
0.000000 0.000000 1.000000
0.000000 0.191124 0.000000
0.000000 0.188371 0.188371
0.000000 0.184156 0.518411
0.000000 0.179755 0.863112
0.000000 0.175848 1.000000
0.000000 0.483632 0.000000
0.000000 0.480879 0.146624
0.000000 0.476664 0.476664
0.000000 0.472263 0.821365
0.000000 0.468356 1.000000
0.000000 0.789133 0.000000
0.000000 0.786380 0.103022
0.000000 0.782165 0.433063
0.000000 0.777764 0.777764
0.000000 0.773857 1.000000
0.000000 1.000000 0.000000
0.000000 1.000000 0.064327
0.000000 1.000000 0.394367
0.000000 1.000000 0.739068
0.000000 1.000000 1.000000
0.210293 0.000000 0.000000
0.207540 0.000000 0.207540
0.203325 0.000000 0.537580
0.198924 0.000000 0.882281
0.195017 0.000000 1.000000
0.183016 0.183016 0.000000
0.180262 0.180262 0.180262
0.176048 0.176048 0.510303
0.171646 0.171646 0.855004
0.167740 0.167740 1.000000
0.141269 0.475524 0.000000
0.138515 0.472770 0.138515
0.134301 0.468556 0.468556
0.129899 0.464154 0.813257
0.125993 0.460248 1.000000
0.097667 0.781025 0.000000
0.094914 0.778271 0.094914
0.090699 0.774057 0.424954
0.086298 0.769655 0.769655
0.082391 0.765749 1.000000
0.058972 1.000000 0.000000
0.056218 1.000000 0.056218
0.052004 1.000000 0.386259
0.047602 1.000000 0.730960
0.043696 1.000000 1.000000
0.532139 0.000000 0.000000
0.529385 0.000000 0.195130
0.525171 0.000000 0.525171
0.520769 0.000000 0.869871
0.516863 0.000000 1.000000
0.504861 0.170606 0.000000
0.502107 0.167852 0.167852
0.497893 0.163638 0.497893
0.493491 0.159236 0.842594
0.489585 0.155330 1.000000
0.463114 0.463114 0.000000
0.460360 0.460360 0.126105
0.456146 0.456146 0.456146
0.451744 0.451744 0.800847
0.447838 0.447838 1.000000
0.419513 0.768615 0.000000
0.416759 0.765861 0.082504
0.412544 0.761647 0.412544
0.408143 0.757245 0.757245
0.404237 0.753339 1.000000
0.380817 1.000000 0.000000
0.378064 1.000000 0.043809
0.373849 1.000000 0.373849
0.369448 1.000000 0.718550
0.365541 1.000000 1.000000
0.868280 0.000000 0.000000
0.865526 0.000000 0.182169
0.861312 0.000000 0.512210
0.856910 0.000000 0.856910
0.853004 0.000000 1.000000
0.841003 0.157645 0.000000
0.838249 0.154892 0.154892
0.834035 0.150677 0.484932
0.829633 0.146275 0.829633
0.825727 0.142369 1.000000
0.799256 0.450153 0.000000
0.796502 0.447399 0.113144
0.792287 0.443185 0.443185
0.787886 0.438783 0.787886
0.783980 0.434877 1.000000
0.755654 0.755654 0.000000
0.752900 0.752900 0.069543
0.748686 0.748686 0.399583
0.744284 0.744284 0.744284
0.740378 0.740378 1.000000
0.716959 1.000000 0.000000
0.714205 1.000000 0.030848
0.709991 1.000000 0.360888
0.705589 1.000000 0.705589
0.701683 1.000000 1.000000
1.000000 0.000000 0.000000
1.000000 0.000000 0.170666
1.000000 0.000000 0.500707
1.000000 0.000000 0.845408
1.000000 0.000000 1.000000
1.000000 0.146143 0.000000
1.000000 0.143389 0.143389
1.000000 0.139175 0.473430
1.000000 0.134773 0.818130
1.000000 0.130867 1.000000
1.000000 0.438651 0.000000
1.000000 0.435897 0.101642
1.000000 0.431682 0.431682
1.000000 0.427281 0.776383
1.000000 0.423375 1.000000
1.000000 0.744152 0.000000
1.000000 0.741398 0.058040
1.000000 0.737183 0.388081
1.000000 0.732782 0.732782
1.000000 0.728876 1.000000
1.000000 1.000000 0.000000
1.000000 1.000000 0.019345
1.000000 1.000000 0.349386
1.000000 1.000000 0.694087
1.000000 1.000000 1.000000
