skills/editops-orchestrator/assets/grade/luts/trailer_punch_v08.cube
TITLE "trailer_punch_v08"
LUT_3D_SIZE 5
DOMAIN_MIN 0.0 0.0 0.0
DOMAIN_MAX 1.0 1.0 1.0
0.000000 0.000000 0.000000
0.000000 0.000000 0.232853
0.000000 0.000000 0.529839
0.000000 0.000000 0.834114
0.000000 0.000000 1.000000
0.000000 0.215924 0.000000
0.000000 0.214023 0.214023
0.000000 0.211599 0.511009
0.000000 0.209115 0.815284
0.000000 0.206804 1.000000
0.000000 0.491319 0.000000
0.000000 0.489418 0.190008
0.000000 0.486994 0.486994
0.000000 0.484510 0.791269
0.000000 0.482199 1.000000
0.000000 0.773473 0.000000
0.000000 0.771572 0.165403
0.000000 0.769148 0.462389
0.000000 0.766664 0.766664
0.000000 0.764353 1.000000
0.000000 1.000000 0.000000
0.000000 1.000000 0.142512
0.000000 1.000000 0.439498
0.000000 1.000000 0.743772
0.000000 1.000000 1.000000
0.229157 0.000000 0.000000
0.227256 0.000000 0.227256
0.224831 0.000000 0.524241
0.222347 0.000000 0.828516
0.220037 0.000000 1.000000
0.210327 0.210327 0.000000
0.208426 0.208426 0.208426
0.206002 0.206002 0.505412
0.203518 0.203518 0.809687
0.201207 0.201207 1.000000
0.186312 0.485722 0.000000
0.184411 0.483821 0.184411
0.181986 0.481396 0.481396
0.179502 0.478913 0.785671
0.177192 0.476602 1.000000
0.161707 0.767876 0.000000
0.159806 0.765975 0.159806
0.157381 0.763550 0.456791
0.154898 0.761066 0.761066
0.152587 0.758756 1.000000
0.138815 1.000000 0.000000
0.136915 1.000000 0.136915
0.134490 1.000000 0.433900
0.132006 1.000000 0.738175
0.129695 1.000000 1.000000
0.521428 0.000000 0.000000
0.519527 0.000000 0.220117
0.517103 0.000000 0.517103
0.514619 0.000000 0.821377
0.512308 0.000000 1.000000
0.502598 0.203188 0.000000
0.500697 0.201287 0.201287
0.498273 0.198863 0.498273
0.495789 0.196379 0.802548
0.493478 0.194068 1.000000
0.478583 0.478583 0.000000
0.476682 0.476682 0.177272
0.474258 0.474258 0.474258
0.471774 0.471774 0.778533
0.469463 0.469463 1.000000
0.453978 0.760737 0.000000
0.452077 0.758836 0.152667
0.449653 0.756412 0.449653
0.447169 0.753928 0.753928
0.444858 0.751617 1.000000
0.431087 1.000000 0.000000
0.429186 1.000000 0.129776
0.426761 1.000000 0.426761
0.424278 1.000000 0.731036
0.421967 1.000000 1.000000
0.820873 0.000000 0.000000
0.818972 0.000000 0.212803
0.816547 0.000000 0.509788
0.814063 0.000000 0.814063
0.811753 0.000000 1.000000
0.802043 0.195874 0.000000
0.800142 0.193973 0.193973
0.797718 0.191549 0.490959
0.795234 0.189065 0.795234
0.792923 0.186754 1.000000
0.778028 0.471269 0.000000
0.776127 0.469368 0.169958
0.773702 0.466944 0.466944
0.771219 0.464460 0.771219
0.768908 0.462149 1.000000
0.753423 0.753423 0.000000
0.751522 0.751522 0.145353
0.749097 0.749097 0.442339
0.746614 0.746614 0.746614
0.744303 0.744303 1.000000
0.730531 1.000000 0.000000
0.728631 1.000000 0.122462
0.726206 1.000000 0.419447
0.723722 1.000000 0.723722
0.721411 1.000000 1.000000
1.000000 0.000000 0.000000
1.000000 0.000000 0.205998
1.000000 0.000000 0.502984
1.000000 0.000000 0.807259
1.000000 0.000000 1.000000
1.000000 0.189070 0.000000
1.000000 0.187169 0.187169
1.000000 0.184744 0.484154
1.000000 0.182260 0.788429
1.000000 0.179950 1.000000
1.000000 0.464464 0.000000
1.000000 0.462563 0.163153
1.000000 0.460139 0.460139
1.000000 0.457655 0.764414
1.000000 0.455344 1.000000
1.000000 0.746618 0.000000
1.000000 0.744717 0.138548
1.000000 0.742293 0.435534
1.000000 0.739809 0.739809
1.000000 0.737498 1.000000
1.000000 1.000000 0.000000
1.000000 1.000000 0.115657
1.000000 1.000000 0.412643
1.000000 1.000000 0.716918
1.000000 1.000000 1.000000
