skills/editops-orchestrator/assets/grade/luts/trailer_punch_v03.cube
TITLE "trailer_punch_v03"
LUT_3D_SIZE 17
DOMAIN_MIN 0.0 0.0 0.0
DOMAIN_MAX 1.0 1.0 1.0
0.000000 0.000000 0.000000
0.000000 0.000000 0.037344
0.000000 0.000000 0.104081
0.000000 0.000000 0.172027
0.000000 0.000000 0.240686
0.000000 0.000000 0.309858
0.000000 0.000000 0.379432
0.000000 0.000000 0.449336
0.000000 0.000000 0.519521
0.000000 0.000000 0.589951
0.000000 0.000000 0.660598
0.000000 0.000000 0.731439
0.000000 0.000000 0.802457
0.000000 0.000000 0.873637
0.000000 0.000000 0.944966
0.000000 0.000000 1.000000
0.000000 0.000000 1.000000
0.000000 0.035578 0.000000
0.000000 0.035379 0.035379
0.000000 0.035025 0.102117
0.000000 0.034664 0.170062
0.000000 0.034299 0.238721
0.000000 0.033932 0.307894
0.000000 0.033562 0.377467
0.000000 0.033191 0.447371
0.000000 0.032818 0.517557
0.000000 0.032444 0.587987
0.000000 0.032069 0.658633
0.000000 0.031693 0.729475
0.000000 0.031316 0.800492
0.000000 0.030938 0.871672
0.000000 0.030559 0.943001
0.000000 0.030179 1.000000
0.000000 0.029878 1.000000
0.000000 0.099159 0.000000
0.000000 0.098960 0.031868
0.000000 0.098606 0.098606
0.000000 0.098245 0.166551
0.000000 0.097880 0.235210
0.000000 0.097513 0.304383
0.000000 0.097143 0.373956
0.000000 0.096772 0.443860
0.000000 0.096399 0.514046
0.000000 0.096025 0.584476
0.000000 0.095650 0.655122
0.000000 0.095274 0.725964
0.000000 0.094897 0.796981
0.000000 0.094519 0.868161
0.000000 0.094140 0.939490
0.000000 0.093760 1.000000
0.000000 0.093459 1.000000
0.000000 0.163890 0.000000
0.000000 0.163692 0.028294
0.000000 0.163337 0.095031
0.000000 0.162976 0.162976
0.000000 0.162612 0.231636
0.000000 0.162244 0.300808
0.000000 0.161875 0.370382
0.000000 0.161504 0.440286
0.000000 0.161131 0.510471
0.000000 0.160757 0.580901
0.000000 0.160382 0.651548
0.000000 0.160005 0.722389
0.000000 0.159628 0.793407
0.000000 0.159250 0.864587
0.000000 0.158871 0.935915
0.000000 0.158492 1.000000
0.000000 0.158190 1.000000
0.000000 0.229302 0.000000
0.000000 0.229104 0.024681
0.000000 0.228749 0.091419
0.000000 0.228388 0.159364
0.000000 0.228024 0.228024
0.000000 0.227656 0.297196
0.000000 0.227287 0.366770
0.000000 0.226916 0.436674
0.000000 0.226543 0.506859
0.000000 0.226169 0.577289
0.000000 0.225794 0.647936
0.000000 0.225417 0.718777
0.000000 0.225040 0.789795
0.000000 0.224662 0.860974
0.000000 0.224283 0.932303
0.000000 0.223904 1.000000
0.000000 0.223602 1.000000
0.000000 0.295202 0.000000
0.000000 0.295004 0.021042
0.000000 0.294650 0.087780
0.000000 0.294289 0.155725
0.000000 0.293924 0.224385
0.000000 0.293557 0.293557
0.000000 0.293187 0.363130
0.000000 0.292816 0.433035
0.000000 0.292443 0.503220
0.000000 0.292069 0.573650
0.000000 0.291694 0.644296
0.000000 0.291318 0.715138
0.000000 0.290941 0.786156
0.000000 0.290562 0.857335
0.000000 0.290184 0.928664
0.000000 0.289804 1.000000
0.000000 0.289502 1.000000
0.000000 0.361485 0.000000
0.000000 0.361287 0.017382
0.000000 0.360933 0.084120
0.000000 0.360572 0.152065
0.000000 0.360207 0.220724
0.000000 0.359840 0.289896
0.000000 0.359470 0.359470
0.000000 0.359099 0.429374
0.000000 0.358726 0.499560
0.000000 0.358352 0.569989
0.000000 0.357977 0.640636
0.000000 0.357601 0.711477
0.000000 0.357223 0.782495
0.000000 0.356845 0.853675
0.000000 0.356467 0.925004
0.000000 0.356087 0.996471
0.000000 0.355785 1.000000
0.000000 0.428083 0.000000
0.000000 0.427885 0.013704
0.000000 0.427530 0.080442
0.000000 0.427169 0.148387
0.000000 0.426805 0.217047
0.000000 0.426437 0.286219
0.000000 0.426068 0.355793
0.000000 0.425697 0.425697
0.000000 0.425324 0.495882
0.000000 0.424950 0.566312
0.000000 0.424575 0.636959
0.000000 0.424198 0.707800
0.000000 0.423821 0.778818
0.000000 0.423443 0.849997
0.000000 0.423064 0.921326
0.000000 0.422685 0.992793
0.000000 0.422383 1.000000
0.000000 0.494949 0.000000
0.000000 0.494750 0.010012
0.000000 0.494396 0.076750
0.000000 0.494035 0.144695
0.000000 0.493670 0.213354
0.000000 0.493303 0.282526
0.000000 0.492934 0.352100
0.000000 0.492562 0.422004
0.000000 0.492189 0.492189
0.000000 0.491815 0.562619
0.000000 0.491440 0.633266
0.000000 0.491064 0.704107
0.000000 0.490687 0.775125
0.000000 0.490309 0.846305
0.000000 0.489930 0.917634
0.000000 0.489550 0.989101
0.000000 0.489249 1.000000
0.000000 0.562047 0.000000
0.000000 0.561849 0.006307
0.000000 0.561495 0.073044
0.000000 0.561134 0.140990
0.000000 0.560769 0.209649
0.000000 0.560402 0.278821
0.000000 0.560032 0.348395
0.000000 0.559661 0.418299
0.000000 0.559288 0.488484
0.000000 0.558914 0.558914
0.000000 0.558539 0.629561
0.000000 0.558163 0.700402
0.000000 0.557786 0.771420
0.000000 0.557407 0.842600
0.000000 0.557029 0.913928
0.000000 0.556649 0.985396
0.000000 0.556347 1.000000
0.000000 0.629353 0.000000
0.000000 0.629154 0.002590
0.000000 0.628800 0.069328
0.000000 0.628439 0.137273
0.000000 0.628074 0.205932
0.000000 0.627707 0.275104
0.000000 0.627337 0.344678
0.000000 0.626966 0.414582
0.000000 0.626593 0.484768
0.000000 0.626219 0.555197
0.000000 0.625844 0.625844
0.000000 0.625468 0.696685
0.000000 0.625091 0.767703
0.000000 0.624713 0.838883
0.000000 0.624334 0.910212
0.000000 0.623954 0.981679
0.000000 0.623653 1.000000
0.000000 0.696843 0.000000
0.000000 0.696645 0.000000
0.000000 0.696290 0.065601
0.000000 0.695929 0.133546
0.000000 0.695565 0.202205
0.000000 0.695197 0.271377
0.000000 0.694828 0.340951
0.000000 0.694457 0.410855
0.000000 0.694084 0.481041
0.000000 0.693710 0.551470
0.000000 0.693335 0.622117
0.000000 0.692958 0.692958
0.000000 0.692581 0.763976
0.000000 0.692203 0.835156
0.000000 0.691824 0.906485
0.000000 0.691445 0.977952
0.000000 0.691143 1.000000
0.000000 0.764502 0.000000
0.000000 0.764304 0.000000
0.000000 0.763949 0.061864
0.000000 0.763588 0.129810
0.000000 0.763224 0.198469
0.000000 0.762856 0.267641
0.000000 0.762487 0.337215
0.000000 0.762116 0.407119
0.000000 0.761743 0.477304
0.000000 0.761369 0.547734
0.000000 0.760994 0.618381
0.000000 0.760617 0.689222
0.000000 0.760240 0.760240
0.000000 0.759862 0.831420
0.000000 0.759483 0.902749
0.000000 0.759104 0.974216
0.000000 0.758802 1.000000
0.000000 0.832315 0.000000
0.000000 0.832117 0.000000
0.000000 0.831762 0.058120
0.000000 0.831401 0.126065
0.000000 0.831037 0.194724
0.000000 0.830669 0.263897
0.000000 0.830300 0.333470
0.000000 0.829929 0.403374
0.000000 0.829556 0.473560
0.000000 0.829182 0.543990
0.000000 0.828807 0.614636
0.000000 0.828430 0.685477
0.000000 0.828053 0.756495
0.000000 0.827675 0.827675
0.000000 0.827296 0.899004
0.000000 0.826917 0.970471
0.000000 0.826615 1.000000
0.000000 0.900270 0.000000
0.000000 0.900072 0.000000
0.000000 0.899717 0.054367
0.000000 0.899356 0.122312
0.000000 0.898992 0.190972
0.000000 0.898624 0.260144
0.000000 0.898255 0.329718
0.000000 0.897884 0.399622
0.000000 0.897511 0.469807
0.000000 0.897137 0.540237
0.000000 0.896762 0.610884
0.000000 0.896385 0.681725
0.000000 0.896008 0.752743
0.000000 0.895630 0.823922
0.000000 0.895251 0.895251
0.000000 0.894872 0.966719
0.000000 0.894570 1.000000
0.000000 0.968357 0.000000
0.000000 0.968159 0.000000
0.000000 0.967804 0.050607
0.000000 0.967443 0.118553
0.000000 0.967079 0.187212
0.000000 0.966711 0.256384
0.000000 0.966342 0.325958
0.000000 0.965971 0.395862
0.000000 0.965598 0.466047
0.000000 0.965224 0.536477
0.000000 0.964849 0.607124
0.000000 0.964472 0.677965
0.000000 0.964095 0.748983
0.000000 0.963717 0.820163
0.000000 0.963338 0.891491
0.000000 0.962959 0.962959
0.000000 0.962657 1.000000
0.000000 1.000000 0.000000
0.000000 1.000000 0.000000
0.000000 1.000000 0.047618
0.000000 1.000000 0.115564
0.000000 1.000000 0.184223
0.000000 1.000000 0.253395
0.000000 1.000000 0.322969
0.000000 1.000000 0.392873
0.000000 1.000000 0.463058
0.000000 1.000000 0.533488
0.000000 1.000000 0.604135
0.000000 1.000000 0.674976
0.000000 1.000000 0.745994
0.000000 1.000000 0.817174
0.000000 1.000000 0.888502
0.000000 1.000000 0.959970
0.000000 1.000000 1.000000
0.036958 0.000000 0.000000
0.036760 0.000000 0.036760
0.036405 0.000000 0.103497
0.036045 0.000000 0.171443
0.035680 0.000000 0.240102
0.035313 0.000000 0.309274
0.034943 0.000000 0.378848
0.034572 0.000000 0.448752
0.034199 0.000000 0.518937
0.033825 0.000000 0.589367
0.033450 0.000000 0.660014
0.033073 0.000000 0.730855
0.032696 0.000000 0.801873
0.032318 0.000000 0.873053
0.031939 0.000000 0.944382
0.031560 0.000000 1.000000
0.031258 0.000000 1.000000
0.034994 0.034994 0.000000
0.034795 0.034795 0.034795
0.034441 0.034441 0.101533
0.034080 0.034080 0.169478
0.033715 0.033715 0.238137
0.033348 0.033348 0.307310
0.032978 0.032978 0.376883
0.032607 0.032607 0.446787
0.032234 0.032234 0.516973
0.031860 0.031860 0.587403
0.031485 0.031485 0.658049
0.031109 0.031109 0.728891
0.030732 0.030732 0.799908
0.030354 0.030354 0.871088
0.029975 0.029975 0.942417
0.029595 0.029595 1.000000
0.029294 0.029294 1.000000
0.031482 0.098575 0.000000
0.031284 0.098376 0.031284
0.030930 0.098022 0.098022
0.030569 0.097661 0.165967
0.030204 0.097296 0.234626
0.029837 0.096929 0.303799
0.029467 0.096559 0.373372
0.029096 0.096188 0.443276
0.028723 0.095815 0.513462
0.028349 0.095441 0.583892
0.027974 0.095066 0.654538
0.027598 0.094690 0.725380
0.027221 0.094313 0.796397
0.026843 0.093935 0.867577
0.026464 0.093556 0.938906
0.026084 0.093176 1.000000
0.025782 0.092875 1.000000
0.027908 0.163306 0.000000
0.027710 0.163108 0.027710
0.027355 0.162753 0.094447
0.026994 0.162392 0.162392
0.026630 0.162028 0.231052
0.026262 0.161660 0.300224
0.025893 0.161291 0.369798
0.025521 0.160920 0.439702
0.025149 0.160547 0.509887
0.024775 0.160173 0.580317
0.024399 0.159798 0.650964
0.024023 0.159421 0.721805
0.023646 0.159044 0.792823
0.023268 0.158666 0.864003
0.022889 0.158287 0.935331
0.022510 0.157908 1.000000
0.022208 0.157606 1.000000
0.024296 0.228718 0.000000
0.024097 0.228520 0.024097
0.023743 0.228165 0.090835
0.023382 0.227804 0.158780
0.023017 0.227440 0.227440
0.022650 0.227072 0.296612
0.022281 0.226703 0.366186
0.021909 0.226332 0.436090
0.021537 0.225959 0.506275
0.021163 0.225585 0.576705
0.020787 0.225209 0.647351
0.020411 0.224833 0.718193
0.020034 0.224456 0.789211
0.019656 0.224078 0.860390
0.019277 0.223699 0.931719
0.018897 0.223320 1.000000
0.018596 0.223018 1.000000
0.020657 0.294618 0.000000
0.020458 0.294420 0.020458
0.020104 0.294066 0.087196
0.019743 0.293705 0.155141
0.019378 0.293340 0.223801
0.019011 0.292973 0.292973
0.018641 0.292603 0.362546
0.018270 0.292232 0.432451
0.017897 0.291859 0.502636
0.017523 0.291485 0.573066
0.017148 0.291110 0.643712
0.016772 0.290734 0.714554
0.016395 0.290357 0.785572
0.016017 0.289978 0.856751
0.015638 0.289600 0.928080
0.015258 0.289220 0.999547
0.014957 0.288918 1.000000
0.016996 0.360901 0.000000
0.016798 0.360703 0.016798
0.016444 0.360349 0.083536
0.016083 0.359988 0.151481
0.015718 0.359623 0.220140
0.015351 0.359256 0.289312
0.014981 0.358886 0.358886
0.014610 0.358515 0.428790
0.014237 0.358142 0.498976
0.013863 0.357768 0.569405
0.013488 0.357393 0.640052
0.013112 0.357017 0.710893
0.012735 0.356639 0.781911
0.012357 0.356261 0.853091
0.011978 0.355883 0.924420
0.011598 0.355503 0.995887
0.011296 0.355201 1.000000
0.013319 0.427499 0.000000
0.013120 0.427301 0.013120
0.012766 0.426946 0.079858
0.012405 0.426585 0.147803
0.012040 0.426221 0.216463
0.011673 0.425853 0.285635
0.011304 0.425484 0.355209
0.010932 0.425113 0.425113
0.010560 0.424740 0.495298
0.010186 0.424366 0.565728
0.009810 0.423991 0.636374
0.009434 0.423614 0.707216
0.009057 0.423237 0.778234
0.008679 0.422859 0.849413
0.008300 0.422480 0.920742
0.007920 0.422101 0.992209
0.007619 0.421799 1.000000
0.009626 0.494365 0.000000
0.009428 0.494166 0.009428
0.009074 0.493812 0.076166
0.008713 0.493451 0.144111
0.008348 0.493086 0.212770
0.007981 0.492719 0.281942
0.007611 0.492349 0.351516
0.007240 0.491978 0.421420
0.006867 0.491605 0.491605
0.006493 0.491231 0.562035
0.006118 0.490856 0.632682
0.005742 0.490480 0.703523
0.005364 0.490103 0.774541
0.004986 0.489725 0.845721
0.004608 0.489346 0.917050
0.004228 0.488966 0.988517
0.003926 0.488665 1.000000
0.005921 0.561463 0.000000
0.005723 0.561265 0.005723
0.005368 0.560911 0.072460
0.005007 0.560550 0.140406
0.004643 0.560185 0.209065
0.004275 0.559818 0.278237
0.003906 0.559448 0.347811
0.003535 0.559077 0.417715
0.003162 0.558704 0.487900
0.002788 0.558330 0.558330
0.002413 0.557955 0.628977
0.002036 0.557579 0.699818
0.001659 0.557201 0.770836
0.001281 0.556823 0.842016
0.000902 0.556445 0.913344
0.000523 0.556065 0.984812
0.000221 0.555763 1.000000
0.002204 0.628769 0.000000
0.002006 0.628570 0.002006
0.001652 0.628216 0.068744
0.001291 0.627855 0.136689
0.000926 0.627490 0.205348
0.000559 0.627123 0.274520
0.000189 0.626753 0.344094
0.000000 0.626382 0.413998
0.000000 0.626009 0.484183
0.000000 0.625635 0.554613
0.000000 0.625260 0.625260
0.000000 0.624884 0.696101
0.000000 0.624507 0.767119
0.000000 0.624129 0.838299
0.000000 0.623750 0.909628
0.000000 0.623370 0.981095
0.000000 0.623069 1.000000
0.000000 0.696259 0.000000
0.000000 0.696061 0.000000
0.000000 0.695706 0.065017
0.000000 0.695345 0.132962
0.000000 0.694981 0.201621
0.000000 0.694613 0.270793
0.000000 0.694244 0.340367
0.000000 0.693873 0.410271
0.000000 0.693500 0.480457
0.000000 0.693126 0.550886
0.000000 0.692751 0.621533
0.000000 0.692374 0.692374
0.000000 0.691997 0.763392
0.000000 0.691619 0.834572
0.000000 0.691240 0.905901
0.000000 0.690861 0.977368
0.000000 0.690559 1.000000
0.000000 0.763918 0.000000
0.000000 0.763720 0.000000
0.000000 0.763365 0.061280
0.000000 0.763004 0.129226
0.000000 0.762640 0.197885
0.000000 0.762272 0.267057
0.000000 0.761903 0.336631
0.000000 0.761532 0.406535
0.000000 0.761159 0.476720
0.000000 0.760785 0.547150
0.000000 0.760410 0.617797
0.000000 0.760033 0.688638
0.000000 0.759656 0.759656
0.000000 0.759278 0.830836
0.000000 0.758899 0.902165
0.000000 0.758520 0.973632
0.000000 0.758218 1.000000
0.000000 0.831731 0.000000
0.000000 0.831533 0.000000
0.000000 0.831178 0.057536
0.000000 0.830817 0.125481
0.000000 0.830453 0.194140
0.000000 0.830085 0.263313
0.000000 0.829716 0.332886
0.000000 0.829345 0.402790
0.000000 0.828972 0.472976
0.000000 0.828598 0.543406
0.000000 0.828222 0.614052
0.000000 0.827846 0.684893
0.000000 0.827469 0.755911
0.000000 0.827091 0.827091
0.000000 0.826712 0.898420
0.000000 0.826333 0.969887
0.000000 0.826031 1.000000
0.000000 0.899686 0.000000
0.000000 0.899488 0.000000
0.000000 0.899133 0.053783
0.000000 0.898772 0.121728
0.000000 0.898408 0.190388
0.000000 0.898040 0.259560
0.000000 0.897671 0.329134
0.000000 0.897300 0.399038
0.000000 0.896927 0.469223
0.000000 0.896553 0.539653
0.000000 0.896178 0.610300
0.000000 0.895801 0.681141
0.000000 0.895424 0.752159
0.000000 0.895046 0.823338
0.000000 0.894667 0.894667
0.000000 0.894288 0.966135
0.000000 0.893986 1.000000
0.000000 0.967773 0.000000
0.000000 0.967575 0.000000
0.000000 0.967220 0.050023
0.000000 0.966859 0.117969
0.000000 0.966495 0.186628
0.000000 0.966127 0.255800
0.000000 0.965758 0.325374
0.000000 0.965387 0.395278
0.000000 0.965014 0.465463
0.000000 0.964640 0.535893
0.000000 0.964265 0.606540
0.000000 0.963888 0.677381
0.000000 0.963511 0.748399
0.000000 0.963133 0.819579
0.000000 0.962754 0.890907
0.000000 0.962375 0.962375
0.000000 0.962073 1.000000
0.000000 1.000000 0.000000
0.000000 1.000000 0.000000
0.000000 1.000000 0.047034
0.000000 1.000000 0.114980
0.000000 1.000000 0.183639
0.000000 1.000000 0.252811
0.000000 1.000000 0.322385
0.000000 1.000000 0.392289
0.000000 1.000000 0.462474
0.000000 1.000000 0.532904
0.000000 1.000000 0.603551
0.000000 1.000000 0.674392
0.000000 1.000000 0.745410
0.000000 1.000000 0.816590
0.000000 1.000000 0.887918
0.000000 1.000000 0.959386
0.000000 1.000000 1.000000
0.103007 0.000000 0.000000
0.102808 0.000000 0.035716
0.102454 0.000000 0.102454
0.102093 0.000000 0.170399
0.101728 0.000000 0.239058
0.101361 0.000000 0.308231
0.100991 0.000000 0.377804
0.100620 0.000000 0.447708
0.100247 0.000000 0.517894
0.099873 0.000000 0.588324
0.099498 0.000000 0.658970
0.099122 0.000000 0.729812
0.098745 0.000000 0.800829
0.098367 0.000000 0.872009
0.097988 0.000000 0.943338
0.097608 0.000000 1.000000
0.097307 0.000000 1.000000
0.101042 0.033950 0.000000
0.100844 0.033751 0.033751
0.100489 0.033397 0.100489
0.100128 0.033036 0.168434
0.099764 0.032672 0.237094
0.099396 0.032304 0.306266
0.099027 0.031935 0.375840
0.098655 0.031563 0.445744
0.098283 0.031191 0.515929
0.097909 0.030817 0.586359
0.097533 0.030441 0.657006
0.097157 0.030065 0.727847
0.096780 0.029688 0.798865
0.096402 0.029310 0.870044
0.096023 0.028931 0.941373
0.095644 0.028552 1.000000
0.095342 0.028250 1.000000
0.097531 0.097531 0.000000
0.097332 0.097332 0.030240
0.096978 0.096978 0.096978
0.096617 0.096617 0.164923
0.096253 0.096253 0.233583
0.095885 0.095885 0.302755
0.095516 0.095516 0.372329
0.095144 0.095144 0.442233
0.094772 0.094772 0.512418
0.094398 0.094398 0.582848
0.094022 0.094022 0.653495
0.093646 0.093646 0.724336
0.093269 0.093269 0.795354
0.092891 0.092891 0.866533
0.092512 0.092512 0.937862
0.092133 0.092133 1.000000
0.091831 0.091831 1.000000
0.093956 0.162262 0.000000
0.093758 0.162064 0.026666
0.093403 0.161710 0.093403
0.093043 0.161349 0.161349
0.092678 0.160984 0.230008
0.092311 0.160617 0.299180
0.091941 0.160247 0.368754
0.091570 0.159876 0.438658
0.091197 0.159503 0.508843
0.090823 0.159129 0.579273
0.090448 0.158754 0.649920
0.090072 0.158378 0.720761
0.089694 0.158001 0.791779
0.089316 0.157623 0.862959
0.088938 0.157244 0.934288
0.088558 0.156864 1.000000
0.088256 0.156562 1.000000
0.090344 0.227674 0.000000
0.090146 0.227476 0.023054
0.089791 0.227121 0.089791
0.089430 0.226761 0.157737
0.089066 0.226396 0.226396
0.088698 0.226029 0.295568
0.088329 0.225659 0.365142
0.087958 0.225288 0.435046
0.087585 0.224915 0.505231
0.087211 0.224541 0.575661
0.086836 0.224166 0.646308
0.086459 0.223790 0.717149
0.086082 0.223412 0.788167
0.085704 0.223034 0.859347
0.085325 0.222656 0.930675
0.084946 0.222276 1.000000
0.084644 0.221974 1.000000
0.086705 0.293575 0.000000
0.086507 0.293376 0.019415
0.086152 0.293022 0.086152
0.085791 0.292661 0.154097
0.085427 0.292296 0.222757
0.085059 0.291929 0.291929
0.084690 0.291560 0.361503
0.084319 0.291188 0.431407
0.083946 0.290815 0.501592
0.083572 0.290441 0.572022
0.083197 0.290066 0.642669
0.082820 0.289690 0.713510
0.082443 0.289313 0.784528
0.082065 0.288935 0.855708
0.081686 0.288556 0.927036
0.081307 0.288176 0.998504
0.081005 0.287875 1.000000
0.083045 0.359858 0.000000
0.082846 0.359659 0.015754
0.082492 0.359305 0.082492
0.082131 0.358944 0.150437
0.081766 0.358579 0.219097
0.081399 0.358212 0.288269
0.081030 0.357842 0.357842
0.080658 0.357471 0.427747
0.080286 0.357098 0.497932
0.079912 0.356724 0.568362
0.079536 0.356349 0.639008
0.079160 0.355973 0.709850
0.078783 0.355596 0.780868
0.078405 0.355218 0.852047
0.078026 0.354839 0.923376
0.077646 0.354459 0.994843
0.077345 0.354158 1.000000
0.079367 0.426455 0.000000
0.079169 0.426257 0.012077
0.078814 0.425903 0.078814
0.078453 0.425542 0.146760
0.078089 0.425177 0.215419
0.077721 0.424810 0.284591
0.077352 0.424440 0.354165
0.076981 0.424069 0.424069
0.076608 0.423696 0.494254
0.076234 0.423322 0.564684
0.075859 0.422947 0.635331
0.075482 0.422571 0.706172
0.075105 0.422194 0.777190
0.074727 0.421816 0.848370
0.074348 0.421437 0.919698
0.073969 0.421057 0.991166
0.073667 0.420755 1.000000
0.075675 0.493321 0.000000
0.075476 0.493123 0.008384
0.075122 0.492768 0.075122
0.074761 0.492407 0.143067
0.074396 0.492043 0.211727
0.074029 0.491675 0.280899
0.073660 0.491306 0.350472
0.073288 0.490935 0.420377
0.072916 0.490562 0.490562
0.072541 0.490188 0.560992
0.072166 0.489813 0.631638
0.071790 0.489436 0.702480
0.071413 0.489059 0.773498
0.071035 0.488681 0.844677
0.070656 0.488302 0.916006
0.070276 0.487923 0.987473
0.069975 0.487621 1.000000
0.071969 0.560420 0.000000
0.071771 0.560221 0.004679
0.071417 0.559867 0.071417
0.071056 0.559506 0.139362
0.070691 0.559141 0.208021
0.070324 0.558774 0.277193
0.069954 0.558404 0.346767
0.069583 0.558033 0.416671
0.069210 0.557660 0.486856
0.068836 0.557286 0.557286
0.068461 0.556911 0.627933
0.068085 0.556535 0.698774
0.067708 0.556158 0.769792
0.067330 0.555780 0.840972
0.066951 0.555401 0.912301
0.066571 0.555021 0.983768
0.066269 0.554720 1.000000
0.068253 0.627725 0.000000
0.068054 0.627526 0.000962
0.067700 0.627172 0.067700
0.067339 0.626811 0.135645
0.066974 0.626447 0.204305
0.066607 0.626079 0.273477
0.066238 0.625710 0.343050
0.065866 0.625338 0.412955
0.065494 0.624966 0.483140
0.065119 0.624592 0.553570
0.064744 0.624216 0.624216
0.064368 0.623840 0.695058
0.063991 0.623463 0.766076
0.063613 0.623085 0.837255
0.063234 0.622706 0.908584
0.062854 0.622327 0.980051
0.062553 0.622025 1.000000
0.064526 0.695215 0.000000
0.064327 0.695017 0.000000
0.063973 0.694663 0.063973
0.063612 0.694302 0.131918
0.063247 0.693937 0.200578
0.062880 0.693570 0.269750
0.062511 0.693200 0.339323
0.062139 0.692829 0.409228
0.061767 0.692456 0.479413
0.061393 0.692082 0.549843
0.061017 0.691707 0.620489
0.060641 0.691331 0.691331
0.060264 0.690954 0.762349
0.059886 0.690576 0.833528
0.059507 0.690197 0.904857
0.059127 0.689817 0.976324
0.058826 0.689515 1.000000
0.060790 0.762874 0.000000
0.060591 0.762676 0.000000
0.060237 0.762322 0.060237
0.059876 0.761961 0.128182
0.059511 0.761596 0.196841
0.059144 0.761229 0.266014
0.058774 0.760859 0.335587
0.058403 0.760488 0.405491
0.058030 0.760115 0.475677
0.057656 0.759741 0.546107
0.057281 0.759366 0.616753
0.056905 0.758990 0.687595
0.056528 0.758612 0.758612
0.056150 0.758234 0.829792
0.055771 0.757856 0.901121
0.055391 0.757476 0.972588
0.055090 0.757174 1.000000
0.057045 0.830687 0.000000
0.056846 0.830489 0.000000
0.056492 0.830134 0.056492
0.056131 0.829774 0.124437
0.055767 0.829409 0.193097
0.055399 0.829042 0.262269
0.055030 0.828672 0.331843
0.054658 0.828301 0.401747
0.054286 0.827928 0.471932
0.053912 0.827554 0.542362
0.053536 0.827179 0.613008
0.053160 0.826803 0.683850
0.052783 0.826425 0.754868
0.052405 0.826047 0.826047
0.052026 0.825669 0.897376
0.051647 0.825289 0.968843
0.051345 0.824987 1.000000
0.053292 0.898642 0.000000
0.053094 0.898444 0.000000
0.052739 0.898090 0.052739
0.052379 0.897729 0.120685
0.052014 0.897364 0.189344
0.051647 0.896997 0.258516
0.051277 0.896627 0.328090
0.050906 0.896256 0.397994
0.050533 0.895883 0.468179
0.050159 0.895509 0.538609
0.049784 0.895134 0.609256
0.049408 0.894758 0.680097
0.049030 0.894380 0.751115
0.048652 0.894002 0.822295
0.048274 0.893624 0.893624
0.047894 0.893244 0.965091
0.047592 0.892942 1.000000
0.049532 0.966729 0.000000
0.049334 0.966531 0.000000
0.048980 0.966176 0.048980
0.048619 0.965816 0.116925
0.048254 0.965451 0.185584
0.047887 0.965084 0.254756
0.047517 0.964714 0.324330
0.047146 0.964343 0.394234
0.046773 0.963970 0.464419
0.046399 0.963596 0.534849
0.046024 0.963221 0.605496
0.045648 0.962845 0.676337
0.045270 0.962467 0.747355
0.044892 0.962089 0.818535
0.044514 0.961711 0.889864
0.044134 0.961331 0.961331
0.043832 0.961029 1.000000
0.046543 1.000000 0.000000
0.046345 1.000000 0.000000
0.045991 1.000000 0.045991
0.045630 1.000000 0.113936
0.045265 1.000000 0.182595
0.044898 1.000000 0.251767
0.044528 1.000000 0.321341
0.044157 1.000000 0.391245
0.043784 1.000000 0.461430
0.043410 1.000000 0.531860
0.043035 1.000000 0.602507
0.042659 1.000000 0.673348
0.042282 1.000000 0.744366
0.041903 1.000000 0.815546
0.041525 1.000000 0.886875
0.041145 1.000000 0.958342
0.040843 1.000000 1.000000
0.170250 0.000000 0.000000
0.170052 0.000000 0.034654
0.169697 0.000000 0.101391
0.169336 0.000000 0.169336
0.168972 0.000000 0.237996
0.168604 0.000000 0.307168
0.168235 0.000000 0.376742
0.167864 0.000000 0.446646
0.167491 0.000000 0.516831
0.167117 0.000000 0.587261
0.166742 0.000000 0.657908
0.166365 0.000000 0.728749
0.165988 0.000000 0.799767
0.165610 0.000000 0.870946
0.165231 0.000000 0.942275
0.164852 0.000000 1.000000
0.164550 0.000000 1.000000
0.168285 0.032887 0.000000
