skills/editops-orchestrator/assets/grade/luts/trailer_punch_v14.cube
TITLE "trailer_punch_v14"
LUT_3D_SIZE 5
DOMAIN_MIN 0.0 0.0 0.0
DOMAIN_MAX 1.0 1.0 1.0
0.000000 0.000000 0.000000
0.000000 0.000000 0.221811
0.000000 0.000000 0.540800
0.000000 0.000000 0.871739
0.000000 0.000000 1.000000
0.000000 0.199482 0.000000
0.000000 0.196975 0.196975
0.000000 0.193370 0.515964
0.000000 0.189629 0.846904
0.000000 0.186258 1.000000
0.000000 0.486360 0.000000
0.000000 0.483853 0.161259
0.000000 0.480248 0.480248
0.000000 0.476507 0.811187
0.000000 0.473136 1.000000
0.000000 0.783986 0.000000
0.000000 0.781479 0.124204
0.000000 0.777874 0.443193
0.000000 0.774133 0.774133
0.000000 0.770762 1.000000
0.000000 1.000000 0.000000
0.000000 1.000000 0.090816
0.000000 1.000000 0.409805
0.000000 1.000000 0.740745
0.000000 1.000000 1.000000
0.216935 0.000000 0.000000
0.214428 0.000000 0.214428
0.210823 0.000000 0.533417
0.207082 0.000000 0.864357
0.203711 0.000000 1.000000
0.192100 0.192100 0.000000
0.189593 0.189593 0.189593
0.185987 0.185987 0.508581
0.182246 0.182246 0.839521
0.178876 0.178876 1.000000
0.156383 0.478978 0.000000
0.153876 0.476471 0.153876
0.150271 0.472865 0.472865
0.146530 0.469124 0.803805
0.143159 0.465754 1.000000
0.119329 0.776604 0.000000
0.116822 0.774097 0.116822
0.113216 0.770491 0.435811
0.109476 0.766750 0.766750
0.106105 0.763380 1.000000
0.085941 1.000000 0.000000
0.083434 1.000000 0.083434
0.079828 1.000000 0.402422
0.076087 1.000000 0.733362
0.072717 1.000000 1.000000
0.528913 0.000000 0.000000
0.526406 0.000000 0.203811
0.522800 0.000000 0.522800
0.519059 0.000000 0.853740
0.515689 0.000000 1.000000
0.504077 0.181483 0.000000
0.501570 0.178976 0.178976
0.497964 0.175370 0.497964
0.494224 0.171629 0.828904
0.490853 0.168259 1.000000
0.468361 0.468361 0.000000
0.465854 0.465854 0.143259
0.462248 0.462248 0.462248
0.458507 0.458507 0.793188
0.455137 0.455137 1.000000
0.431306 0.765987 0.000000
0.428799 0.763480 0.106205
0.425194 0.759874 0.425194
0.421453 0.756133 0.756133
0.418082 0.752763 1.000000
0.397918 1.000000 0.000000
0.395411 1.000000 0.072817
0.391805 1.000000 0.391805
0.388065 1.000000 0.722745
0.384694 1.000000 1.000000
0.852578 0.000000 0.000000
0.850071 0.000000 0.192796
0.846466 0.000000 0.511785
0.842725 0.000000 0.842725
0.839354 0.000000 1.000000
0.827743 0.170468 0.000000
0.825236 0.167961 0.167961
0.821630 0.164355 0.486950
0.817889 0.160615 0.817889
0.814519 0.157244 1.000000
0.792026 0.457346 0.000000
0.789519 0.454839 0.132244
0.785914 0.451233 0.451233
0.782173 0.447493 0.782173
0.778802 0.444122 1.000000
0.754972 0.754972 0.000000
0.752465 0.752465 0.095190
0.748859 0.748859 0.414179
0.745119 0.745119 0.745119
0.741748 0.741748 1.000000
0.721584 1.000000 0.000000
0.719077 1.000000 0.061802
0.715471 1.000000 0.380791
0.711730 1.000000 0.711730
0.708360 1.000000 1.000000
1.000000 0.000000 0.000000
1.000000 0.000000 0.182872
1.000000 0.000000 0.501860
1.000000 0.000000 0.832800
1.000000 0.000000 1.000000
1.000000 0.160543 0.000000
1.000000 0.158036 0.158036
1.000000 0.154430 0.477025
1.000000 0.150690 0.807964
1.000000 0.147319 1.000000
1.000000 0.447421 0.000000
1.000000 0.444914 0.122320
1.000000 0.441308 0.441308
1.000000 0.437568 0.772248
1.000000 0.434197 1.000000
1.000000 0.745047 0.000000
1.000000 0.742540 0.085265
1.000000 0.738934 0.404254
1.000000 0.735194 0.735194
1.000000 0.731823 1.000000
1.000000 1.000000 0.000000
1.000000 1.000000 0.051877
1.000000 1.000000 0.370866
1.000000 1.000000 0.701805
1.000000 1.000000 1.000000
