skills/editops-orchestrator/assets/grade/luts/trailer_punch_v08.cube
TITLE "trailer_punch_v08"
LUT_3D_SIZE 9
DOMAIN_MIN 0.0 0.0 0.0
DOMAIN_MAX 1.0 1.0 1.0
0.000000 0.000000 0.000000
0.000000 0.000000 0.089490
0.000000 0.000000 0.232853
0.000000 0.000000 0.380144
0.000000 0.000000 0.529839
0.000000 0.000000 0.681284
0.000000 0.000000 0.834114
0.000000 0.000000 0.988089
0.000000 0.000000 1.000000
0.000000 0.082984 0.000000
0.000000 0.082254 0.082254
0.000000 0.081084 0.225616
0.000000 0.079881 0.372908
0.000000 0.078659 0.522602
0.000000 0.077423 0.674048
0.000000 0.076175 0.826877
0.000000 0.074918 0.980852
0.000000 0.073864 1.000000
0.000000 0.215924 0.000000
0.000000 0.215194 0.070661
0.000000 0.214023 0.214023
0.000000 0.212821 0.361315
0.000000 0.211599 0.511009
0.000000 0.210363 0.662455
0.000000 0.209115 0.815284
0.000000 0.207858 0.969259
0.000000 0.206804 1.000000
0.000000 0.352507 0.000000
0.000000 0.351777 0.058750
0.000000 0.350607 0.202113
0.000000 0.349404 0.349404
0.000000 0.348182 0.499099
0.000000 0.346946 0.650544
0.000000 0.345698 0.803374
0.000000 0.344441 0.957349
0.000000 0.343387 1.000000
0.000000 0.491319 0.000000
0.000000 0.490588 0.046646
0.000000 0.489418 0.190008
0.000000 0.488216 0.337299
0.000000 0.486994 0.486994
0.000000 0.485757 0.638439
0.000000 0.484510 0.791269
0.000000 0.483253 0.945244
0.000000 0.482199 1.000000
0.000000 0.631754 0.000000
0.000000 0.631024 0.034399
0.000000 0.629853 0.177761
0.000000 0.628651 0.325053
0.000000 0.627429 0.474747
0.000000 0.626193 0.626193
0.000000 0.624945 0.779022
0.000000 0.623688 0.932997
0.000000 0.622634 1.000000
0.000000 0.773473 0.000000
0.000000 0.772742 0.022041
0.000000 0.771572 0.165403
0.000000 0.770370 0.312694
0.000000 0.769148 0.462389
0.000000 0.767911 0.613834
0.000000 0.766664 0.766664
0.000000 0.765407 0.920639
0.000000 0.764353 1.000000
0.000000 0.916254 0.000000
0.000000 0.915523 0.009590
0.000000 0.914353 0.152952
0.000000 0.913151 0.300243
0.000000 0.911929 0.449938
0.000000 0.910692 0.601383
0.000000 0.909445 0.754213
0.000000 0.908188 0.908188
0.000000 0.907134 1.000000
0.000000 1.000000 0.000000
0.000000 1.000000 0.000000
0.000000 1.000000 0.142512
0.000000 1.000000 0.289803
0.000000 1.000000 0.439498
0.000000 1.000000 0.590943
0.000000 1.000000 0.743772
0.000000 1.000000 0.897748
0.000000 1.000000 1.000000
0.088070 0.000000 0.000000
0.087339 0.000000 0.087339
0.086169 0.000000 0.230702
0.084967 0.000000 0.377993
0.083745 0.000000 0.527687
0.082508 0.000000 0.679133
0.081261 0.000000 0.831962
0.080004 0.000000 0.985938
0.078950 0.000000 1.000000
0.080833 0.080833 0.000000
0.080103 0.080103 0.080103
0.078932 0.078932 0.223465
0.077730 0.077730 0.370757
0.076508 0.076508 0.520451
0.075272 0.075272 0.671897
0.074024 0.074024 0.824726
0.072767 0.072767 0.978701
0.071713 0.071713 1.000000
0.069240 0.213773 0.000000
0.068510 0.213043 0.068510
0.067340 0.211872 0.211872
0.066137 0.210670 0.359164
0.064915 0.209448 0.508858
0.063679 0.208212 0.660304
0.062431 0.206964 0.813133
0.061174 0.205707 0.967108
0.060120 0.204653 1.000000
0.057330 0.350356 0.000000
0.056599 0.349626 0.056599
0.055429 0.348455 0.199962
0.054227 0.347253 0.347253
0.053005 0.346031 0.496947
0.051768 0.344795 0.648393
0.050521 0.343547 0.801222
0.049264 0.342290 0.955198
0.048210 0.341236 1.000000
0.045225 0.489168 0.000000
0.044494 0.488437 0.044494
0.043324 0.487267 0.187857
0.042122 0.486065 0.335148
0.040900 0.484843 0.484843
0.039663 0.483606 0.636288
0.038416 0.482359 0.789117
0.037159 0.481102 0.943093
0.036105 0.480048 1.000000
0.032978 0.629603 0.000000
0.032248 0.628873 0.032248
0.031078 0.627702 0.175610
0.029875 0.626500 0.322902
0.028653 0.625278 0.472596
0.027417 0.624042 0.624042
0.026169 0.622794 0.776871
0.024912 0.621537 0.930846
0.023858 0.620483 1.000000
0.020620 0.771322 0.000000
0.019889 0.770591 0.019889
0.018719 0.769421 0.163252
0.017517 0.768218 0.310543
0.016295 0.766996 0.460238
0.015059 0.765760 0.611683
0.013811 0.764513 0.764513
0.012554 0.763256 0.918488
0.011500 0.762202 1.000000
0.008169 0.914103 0.000000
0.007438 0.913372 0.007438
0.006268 0.912202 0.150801
0.005066 0.911000 0.298092
0.003844 0.909778 0.447787
0.002607 0.908541 0.599232
0.001360 0.907294 0.752061
0.000103 0.906037 0.906037
0.000000 0.904983 1.000000
0.000000 1.000000 0.000000
0.000000 1.000000 0.000000
0.000000 1.000000 0.140361
0.000000 1.000000 0.287652
0.000000 1.000000 0.437346
0.000000 1.000000 0.588792
0.000000 1.000000 0.741621
0.000000 1.000000 0.895597
0.000000 1.000000 1.000000
0.229157 0.000000 0.000000
0.228426 0.000000 0.083893
0.227256 0.000000 0.227256
0.226053 0.000000 0.374547
0.224831 0.000000 0.524241
0.223595 0.000000 0.675687
0.222347 0.000000 0.828516
0.221090 0.000000 0.982492
0.220037 0.000000 1.000000
0.221920 0.077387 0.000000
0.221189 0.076657 0.076657
0.220019 0.075486 0.220019
0.218817 0.074284 0.367310
0.217595 0.073062 0.517005
0.216358 0.071826 0.668450
0.215111 0.070578 0.821280
0.213854 0.069321 0.975255
0.212800 0.068267 1.000000
0.210327 0.210327 0.000000
0.209597 0.209597 0.065064
0.208426 0.208426 0.208426
0.207224 0.207224 0.355718
0.206002 0.206002 0.505412
0.204766 0.204766 0.656858
0.203518 0.203518 0.809687
0.202261 0.202261 0.963662
0.201207 0.201207 1.000000
0.198417 0.346910 0.000000
0.197686 0.346180 0.053153
0.196516 0.345009 0.196516
0.195313 0.343807 0.343807
0.194091 0.342585 0.493501
0.192855 0.341349 0.644947
0.191607 0.340101 0.797776
0.190350 0.338844 0.951752
0.189297 0.337790 1.000000
0.186312 0.485722 0.000000
0.185581 0.484991 0.041048
0.184411 0.483821 0.184411
0.183208 0.482618 0.331702
0.181986 0.481396 0.481396
0.180750 0.480160 0.632842
0.179502 0.478913 0.785671
0.178246 0.477656 0.939647
0.177192 0.476602 1.000000
0.174065 0.626157 0.000000
0.173335 0.625427 0.028802
0.172164 0.624256 0.172164
0.170962 0.623054 0.319456
0.169740 0.621832 0.469150
0.168504 0.620596 0.620596
0.167256 0.619348 0.773425
0.165999 0.618091 0.927400
0.164945 0.617037 1.000000
0.161707 0.767876 0.000000
0.160976 0.767145 0.016443
0.159806 0.765975 0.159806
0.158603 0.764772 0.307097
0.157381 0.763550 0.456791
0.156145 0.762314 0.608237
0.154898 0.761066 0.761066
0.153641 0.759810 0.915042
0.152587 0.758756 1.000000
0.149256 0.910657 0.000000
0.148525 0.909926 0.003992
0.147355 0.908756 0.147355
0.146152 0.907553 0.294646
0.144930 0.906331 0.444340
0.143694 0.905095 0.595786
0.142446 0.903848 0.748615
0.141190 0.902591 0.902591
0.140136 0.901537 1.000000
0.138815 1.000000 0.000000
0.138085 1.000000 0.000000
0.136915 1.000000 0.136915
0.135712 1.000000 0.284206
0.134490 1.000000 0.433900
0.133254 1.000000 0.585346
0.132006 1.000000 0.738175
0.130749 1.000000 0.892151
0.129695 1.000000 1.000000
0.374110 0.000000 0.000000
0.373379 0.000000 0.080353
0.372209 0.000000 0.223715
0.371006 0.000000 0.371006
0.369784 0.000000 0.520701
0.368548 0.000000 0.672147
0.367301 0.000000 0.824976
0.366044 0.000000 0.978951
0.364990 0.000000 1.000000
0.366873 0.073847 0.000000
0.366143 0.073116 0.073116
0.364972 0.071946 0.216479
0.363770 0.070743 0.363770
0.362548 0.069521 0.513464
0.361312 0.068285 0.664910
0.360064 0.067038 0.817739
0.358807 0.065781 0.971714
0.357753 0.064727 1.000000
0.355280 0.206787 0.000000
0.354550 0.206056 0.061523
0.353379 0.204886 0.204886
0.352177 0.203683 0.352177
0.350955 0.202461 0.501871
0.349719 0.201225 0.653317
0.348471 0.199977 0.806146
0.347214 0.198720 0.960122
0.346160 0.197667 1.000000
0.343370 0.343370 0.000000
0.342639 0.342639 0.049613
0.341469 0.341469 0.192975
0.340266 0.340266 0.340266
0.339044 0.339044 0.489961
0.337808 0.337808 0.641406
0.336561 0.336561 0.794236
0.335304 0.335304 0.948211
0.334250 0.334250 1.000000
0.331265 0.482181 0.000000
0.330534 0.481451 0.037508
0.329364 0.480280 0.180870
0.328162 0.479078 0.328162
0.326940 0.477856 0.477856
0.325703 0.476620 0.629302
0.324456 0.475372 0.782131
0.323199 0.474115 0.936106
0.322145 0.473061 1.000000
0.319018 0.622617 0.000000
0.318288 0.621886 0.025261
0.317117 0.620716 0.168624
0.315915 0.619513 0.315915
0.314693 0.618291 0.465609
0.313457 0.617055 0.617055
0.312209 0.615807 0.769884
0.310952 0.614551 0.923860
0.309898 0.613497 1.000000
0.306660 0.764335 0.000000
0.305929 0.763605 0.012903
0.304759 0.762434 0.156265
0.303557 0.761232 0.303557
0.302335 0.760010 0.453251
0.301098 0.758774 0.604697
0.299851 0.757526 0.757526
0.298594 0.756269 0.911501
0.297540 0.755215 1.000000
0.294209 0.907116 0.000000
0.293478 0.906386 0.000452
0.292308 0.905215 0.143814
0.291106 0.904013 0.291106
0.289884 0.902791 0.440800
0.288647 0.901555 0.592246
0.287400 0.900307 0.745075
0.286143 0.899050 0.899050
0.285089 0.897996 1.000000
0.283769 1.000000 0.000000
0.283038 1.000000 0.000000
0.281868 1.000000 0.133374
0.280665 1.000000 0.280665
0.279443 1.000000 0.430360
0.278207 1.000000 0.581805
0.276960 1.000000 0.734635
0.275703 1.000000 0.888610
0.274649 1.000000 1.000000
0.521428 0.000000 0.000000
0.520697 0.000000 0.076754
0.519527 0.000000 0.220117
0.518325 0.000000 0.367408
0.517103 0.000000 0.517103
0.515866 0.000000 0.668548
0.514619 0.000000 0.821377
0.513362 0.000000 0.975353
0.512308 0.000000 1.000000
0.514191 0.070248 0.000000
0.513461 0.069518 0.069518
0.512290 0.068348 0.212880
0.511088 0.067145 0.360172
0.509866 0.065923 0.509866
0.508630 0.064687 0.661312
0.507382 0.063439 0.814141
0.506125 0.062182 0.968116
0.505071 0.061128 1.000000
0.502598 0.203188 0.000000
0.501868 0.202458 0.057925
0.500697 0.201287 0.201287
0.499495 0.200085 0.348579
0.498273 0.198863 0.498273
0.497037 0.197627 0.649719
0.495789 0.196379 0.802548
0.494532 0.195122 0.956523
0.493478 0.194068 1.000000
0.490688 0.339771 0.000000
0.489957 0.339041 0.046014
0.488787 0.337871 0.189377
0.487584 0.336668 0.336668
0.486362 0.335446 0.486362
0.485126 0.334210 0.637808
0.483879 0.332962 0.790637
0.482622 0.331705 0.944613
0.481568 0.330651 1.000000
0.478583 0.478583 0.000000
0.477852 0.477852 0.033909
0.476682 0.476682 0.177272
0.475480 0.475480 0.324563
0.474258 0.474258 0.474258
0.473021 0.473021 0.625703
0.471774 0.471774 0.778533
0.470517 0.470517 0.932508
0.469463 0.469463 1.000000
0.466336 0.619018 0.000000
0.465606 0.618288 0.021663
0.464435 0.617117 0.165025
0.463233 0.615915 0.312317
0.462011 0.614693 0.462011
0.460775 0.613457 0.613457
0.459527 0.612209 0.766286
0.458270 0.610952 0.920261
0.457216 0.609898 1.000000
0.453978 0.760737 0.000000
0.453247 0.760006 0.009305
0.452077 0.758836 0.152667
0.450875 0.757634 0.299958
0.449653 0.756412 0.449653
0.448416 0.755175 0.601098
0.447169 0.753928 0.753928
0.445912 0.752671 0.907903
0.444858 0.751617 1.000000
0.441527 0.903518 0.000000
0.440796 0.902787 0.000000
0.439626 0.901617 0.140216
0.438424 0.900415 0.287507
0.437202 0.899193 0.437202
0.435965 0.897956 0.588647
0.434718 0.896709 0.741477
0.433461 0.895452 0.895452
0.432407 0.894398 1.000000
0.431087 1.000000 0.000000
0.430356 1.000000 0.000000
0.429186 1.000000 0.129776
0.427983 1.000000 0.277067
0.426761 1.000000 0.426761
0.425525 1.000000 0.578207
0.424278 1.000000 0.731036
0.423021 1.000000 0.885012
0.421967 1.000000 1.000000
0.670469 0.000000 0.000000
0.669739 0.000000 0.073114
0.668568 0.000000 0.216476
0.667366 0.000000 0.363768
0.666144 0.000000 0.513462
0.664908 0.000000 0.664908
0.663660 0.000000 0.817737
0.662403 0.000000 0.971712
0.661349 0.000000 1.000000
0.663233 0.066608 0.000000
0.662502 0.065877 0.065877
0.661332 0.064707 0.209240
0.660130 0.063505 0.356531
0.658908 0.062283 0.506226
0.657671 0.061046 0.657671
0.656424 0.059799 0.810501
0.655167 0.058542 0.964476
0.654113 0.057488 1.000000
0.651640 0.199548 0.000000
0.650909 0.198817 0.054285
0.649739 0.197647 0.197647
0.648537 0.196445 0.344938
0.647315 0.195223 0.494633
0.646078 0.193986 0.646078
0.644831 0.192739 0.798908
0.643574 0.191482 0.952883
0.642520 0.190428 1.000000
0.639729 0.336131 0.000000
0.638999 0.335400 0.042374
0.637828 0.334230 0.185736
0.636626 0.333028 0.333028
0.635404 0.331806 0.482722
0.634168 0.330569 0.634168
0.632920 0.329322 0.786997
0.631663 0.328065 0.940972
0.630609 0.327011 1.000000
0.627624 0.474942 0.000000
0.626894 0.474212 0.030269
0.625724 0.473042 0.173632
0.624521 0.471839 0.320923
0.623299 0.470617 0.470617
0.622063 0.469381 0.622063
0.620815 0.468133 0.774892
0.619558 0.466876 0.928867
0.618504 0.465822 1.000000
0.615378 0.615378 0.000000
0.614647 0.614647 0.018023
0.613477 0.613477 0.161385
0.612275 0.612275 0.308676
0.611053 0.611053 0.458371
0.609816 0.609816 0.609816
0.608569 0.608569 0.762646
0.607312 0.607312 0.916621
0.606258 0.606258 1.000000
0.603019 0.757096 0.000000
0.602289 0.756366 0.005664
0.601119 0.755195 0.149027
0.599916 0.753993 0.296318
0.598694 0.752771 0.446012
0.597458 0.751535 0.597458
0.596210 0.750287 0.750287
0.594953 0.749030 0.904263
0.593899 0.747976 1.000000
0.590568 0.899877 0.000000
0.589838 0.899147 0.000000
0.588668 0.897977 0.136576
0.587465 0.896774 0.283867
0.586243 0.895552 0.433561
0.585007 0.894316 0.585007
0.583759 0.893068 0.737836
0.582502 0.891811 0.891811
0.581448 0.890757 1.000000
0.580128 1.000000 0.000000
0.579398 1.000000 0.000000
0.578227 1.000000 0.126135
0.577025 1.000000 0.273427
0.575803 1.000000 0.423121
0.574567 1.000000 0.574567
0.573319 1.000000 0.727396
0.572062 1.000000 0.881371
0.571008 1.000000 1.000000
0.820873 0.000000 0.000000
0.820142 0.000000 0.069440
0.818972 0.000000 0.212803
0.817769 0.000000 0.360094
0.816547 0.000000 0.509788
0.815311 0.000000 0.661234
0.814063 0.000000 0.814063
0.812806 0.000000 0.968039
0.811753 0.000000 1.000000
0.813636 0.062934 0.000000
0.812905 0.062204 0.062204
0.811735 0.061033 0.205566
0.810533 0.059831 0.352858
0.809311 0.058609 0.502552
0.808074 0.057373 0.653998
0.806827 0.056125 0.806827
0.805570 0.054868 0.960802
0.804516 0.053814 1.000000
0.802043 0.195874 0.000000
0.801313 0.195144 0.050611
0.800142 0.193973 0.193973
0.798940 0.192771 0.341265
0.797718 0.191549 0.490959
0.796482 0.190313 0.642405
0.795234 0.189065 0.795234
0.793977 0.187808 0.949209
0.792923 0.186754 1.000000
0.790133 0.332457 0.000000
0.789402 0.331727 0.038700
0.788232 0.330556 0.182063
0.787029 0.329354 0.329354
0.785807 0.328132 0.479048
0.784571 0.326896 0.630494
0.783323 0.325648 0.783323
0.782066 0.324391 0.937299
0.781013 0.323337 1.000000
0.778028 0.471269 0.000000
0.777297 0.470538 0.026595
0.776127 0.469368 0.169958
0.774924 0.468166 0.317249
0.773702 0.466944 0.466944
0.772466 0.465707 0.618389
0.771219 0.464460 0.771219
0.769962 0.463203 0.925194
0.768908 0.462149 1.000000
0.765781 0.611704 0.000000
0.765051 0.610974 0.014349
0.763880 0.609803 0.157711
0.762678 0.608601 0.305003
0.761456 0.607379 0.454697
0.760220 0.606143 0.606143
0.758972 0.604895 0.758972
0.757715 0.603638 0.912947
0.756661 0.602584 1.000000
0.753423 0.753423 0.000000
0.752692 0.752692 0.001991
0.751522 0.751522 0.145353
0.750319 0.750319 0.292644
0.749097 0.749097 0.442339
0.747861 0.747861 0.593784
0.746614 0.746614 0.746614
0.745357 0.745357 0.900589
0.744303 0.744303 1.000000
0.740972 0.896204 0.000000
0.740241 0.895473 0.000000
0.739071 0.894303 0.132902
0.737868 0.893101 0.280193
0.736646 0.891879 0.429888
0.735410 0.890642 0.581333
0.734163 0.889395 0.734163
0.732906 0.888138 0.888138
0.731852 0.887084 1.000000
0.730531 1.000000 0.000000
0.729801 1.000000 0.000000
0.728631 1.000000 0.122462
0.727428 1.000000 0.269753
0.726206 1.000000 0.419447
0.724970 1.000000 0.570893
0.723722 1.000000 0.723722
0.722465 1.000000 0.877698
0.721411 1.000000 1.000000
0.972404 0.000000 0.000000
0.971673 0.000000 0.065739
0.970503 0.000000 0.209102
0.969300 0.000000 0.356393
0.968078 0.000000 0.506087
0.966842 0.000000 0.657533
0.965594 0.000000 0.810362
0.964338 0.000000 0.964338
0.963284 0.000000 1.000000
0.965167 0.059233 0.000000
0.964436 0.058503 0.058503
0.963266 0.057332 0.201865
0.962064 0.056130 0.349156
0.960842 0.054908 0.498851
0.959605 0.053672 0.650296
0.958358 0.052424 0.803126
0.957101 0.051167 0.957101
0.956047 0.050113 1.000000
0.953574 0.192173 0.000000
0.952844 0.191442 0.046910
0.951673 0.190272 0.190272
0.950471 0.189070 0.337563
0.949249 0.187848 0.487258
0.948013 0.186611 0.638704
0.946765 0.185364 0.791533
0.945508 0.184107 0.945508
0.944454 0.183053 1.000000
0.941664 0.328756 0.000000
0.940933 0.328026 0.034999
0.939763 0.326855 0.178362
0.938560 0.325653 0.325653
0.937338 0.324431 0.475347
0.936102 0.323195 0.626793
0.934854 0.321947 0.779622
0.933597 0.320690 0.933597
0.932544 0.319636 1.000000
0.929559 0.467568 0.000000
0.928828 0.466837 0.022894
0.927658 0.465667 0.166257
0.926455 0.464464 0.313548
0.925233 0.463242 0.463242
0.923997 0.462006 0.614688
0.922750 0.460758 0.767517
0.921493 0.459502 0.921493
0.920439 0.458448 1.000000
0.917312 0.608003 0.000000
0.916582 0.607272 0.010648
0.915411 0.606102 0.154010
0.914209 0.604900 0.301301
0.912987 0.603678 0.450996
0.911751 0.602442 0.602442
0.910503 0.601194 0.755271
0.909246 0.599937 0.909246
0.908192 0.598883 1.000000
0.904954 0.749721 0.000000
0.904223 0.748991 0.000000
0.903053 0.747821 0.141652
0.901850 0.746618 0.288943
0.900628 0.745396 0.438637
0.899392 0.744160 0.590083
0.898145 0.742912 0.742912
0.896888 0.741655 0.896888
0.895834 0.740601 1.000000
0.892503 0.892503 0.000000
0.891772 0.891772 0.000000
0.890602 0.890602 0.129201
0.889399 0.889399 0.276492
0.888177 0.888177 0.426186
0.886941 0.886941 0.577632
0.885694 0.885694 0.730461
0.884437 0.884437 0.884437
0.883383 0.883383 1.000000
0.882063 1.000000 0.000000
0.881332 1.000000 0.000000
0.880162 1.000000 0.118761
0.878959 1.000000 0.266052
0.877737 1.000000 0.415746
0.876501 1.000000 0.567192
0.875253 1.000000 0.720021
0.873996 1.000000 0.873996
0.872943 1.000000 1.000000
1.000000 0.000000 0.000000
1.000000 0.000000 0.062636
1.000000 0.000000 0.205998
1.000000 0.000000 0.353290
1.000000 0.000000 0.502984
1.000000 0.000000 0.654430
1.000000 0.000000 0.807259
1.000000 0.000000 0.961234
1.000000 0.000000 1.000000
1.000000 0.056130 0.000000
1.000000 0.055399 0.055399
1.000000 0.054229 0.198762
1.000000 0.053026 0.346053
1.000000 0.051804 0.495747
1.000000 0.050568 0.647193
1.000000 0.049321 0.800022
1.000000 0.048064 0.953998
1.000000 0.047010 1.000000
1.000000 0.189070 0.000000
1.000000 0.188339 0.043806
1.000000 0.187169 0.187169
1.000000 0.185966 0.334460
1.000000 0.184744 0.484154
1.000000 0.183508 0.635600
1.000000 0.182260 0.788429
1.000000 0.181004 0.942405
1.000000 0.179950 1.000000
1.000000 0.325653 0.000000
1.000000 0.324922 0.031896
1.000000 0.323752 0.175258
1.000000 0.322549 0.322549
1.000000 0.321327 0.472244
1.000000 0.320091 0.623690
1.000000 0.318844 0.776519
1.000000 0.317587 0.930494
1.000000 0.316533 1.000000
1.000000 0.464464 0.000000
1.000000 0.463734 0.019791
1.000000 0.462563 0.163153
1.000000 0.461361 0.310445
1.000000 0.460139 0.460139
1.000000 0.458903 0.611585
1.000000 0.457655 0.764414
1.000000 0.456398 0.918389
1.000000 0.455344 1.000000
1.000000 0.604900 0.000000
1.000000 0.604169 0.007544
1.000000 0.602999 0.150907
1.000000 0.601796 0.298198
1.000000 0.600574 0.447892
1.000000 0.599338 0.599338
1.000000 0.598090 0.752167
1.000000 0.596834 0.906143
1.000000 0.595780 1.000000
1.000000 0.746618 0.000000
1.000000 0.745888 0.000000
1.000000 0.744717 0.138548
1.000000 0.743515 0.285840
1.000000 0.742293 0.435534
1.000000 0.741057 0.586980
1.000000 0.739809 0.739809
1.000000 0.738552 0.893784
1.000000 0.737498 1.000000
1.000000 0.889399 0.000000
1.000000 0.888669 0.000000
1.000000 0.887498 0.126097
1.000000 0.886296 0.273389
1.000000 0.885074 0.423083
1.000000 0.883838 0.574529
1.000000 0.882590 0.727358
1.000000 0.881333 0.881333
1.000000 0.880279 1.000000
1.000000 1.000000 0.000000
1.000000 1.000000 0.000000
1.000000 1.000000 0.115657
1.000000 1.000000 0.262948
1.000000 1.000000 0.412643
1.000000 1.000000 0.564088
1.000000 1.000000 0.716918
1.000000 1.000000 0.870893
1.000000 1.000000 1.000000
