skills/editops-orchestrator/assets/grade/luts/trailer_punch_v09.cube
TITLE "trailer_punch_v09"
LUT_3D_SIZE 5
DOMAIN_MIN 0.0 0.0 0.0
DOMAIN_MAX 1.0 1.0 1.0
0.000000 0.000000 0.000000
0.000000 0.000000 0.231135
0.000000 0.000000 0.531774
0.000000 0.000000 0.840413
0.000000 0.000000 1.000000
0.000000 0.213212 0.000000
0.000000 0.211199 0.211199
0.000000 0.208582 0.511838
0.000000 0.205894 0.820478
0.000000 0.203408 1.000000
0.000000 0.490538 0.000000
0.000000 0.488526 0.185269
0.000000 0.485908 0.485908
0.000000 0.483221 0.794547
0.000000 0.480734 1.000000
0.000000 0.775245 0.000000
0.000000 0.773232 0.158649
0.000000 0.770614 0.459288
0.000000 0.767927 0.767927
0.000000 0.765441 1.000000
0.000000 1.000000 0.000000
0.000000 1.000000 0.134018
0.000000 1.000000 0.434657
0.000000 1.000000 0.743296
0.000000 1.000000 1.000000
0.227221 0.000000 0.000000
0.225209 0.000000 0.225209
0.222591 0.000000 0.525848
0.219904 0.000000 0.834487
0.217417 0.000000 1.000000
0.207286 0.207286 0.000000
0.205273 0.205273 0.205273
0.202656 0.202656 0.505912
0.199968 0.199968 0.814552
0.197482 0.197482 1.000000
0.181356 0.484612 0.000000
0.179343 0.482600 0.179343
0.176725 0.479982 0.479982
0.174038 0.477295 0.788621
0.171552 0.474808 1.000000
0.154735 0.769319 0.000000
0.152723 0.767306 0.152723
0.150105 0.764688 0.453362
0.147418 0.762001 0.762001
0.144931 0.759515 1.000000
0.130105 1.000000 0.000000
0.128092 1.000000 0.128092
0.125474 1.000000 0.428731
0.122787 1.000000 0.737370
0.120301 1.000000 1.000000
0.522770 0.000000 0.000000
0.520758 0.000000 0.217501
0.518140 0.000000 0.518140
0.515452 0.000000 0.826779
0.512966 0.000000 1.000000
0.502835 0.199578 0.000000
0.500822 0.197565 0.197565
0.498204 0.194948 0.498204
0.495517 0.192260 0.806844
0.493031 0.189774 1.000000
0.476904 0.476904 0.000000
0.474892 0.474892 0.171635
0.472274 0.472274 0.472274
0.469587 0.469587 0.780913
0.467100 0.467100 1.000000
0.450284 0.761611 0.000000
0.448272 0.759598 0.145015
0.445654 0.756980 0.445654
0.442967 0.754293 0.754293
0.440480 0.751807 1.000000
0.425653 1.000000 0.000000
0.423641 1.000000 0.120384
0.421023 1.000000 0.421023
0.418336 1.000000 0.729662
0.415849 1.000000 1.000000
0.826183 0.000000 0.000000
0.824171 0.000000 0.209588
0.821553 0.000000 0.510227
0.818866 0.000000 0.818866
0.816379 0.000000 1.000000
0.806248 0.191665 0.000000
0.804236 0.189652 0.189652
0.801618 0.187034 0.490291
0.798930 0.184347 0.798930
0.796444 0.181861 1.000000
0.780318 0.468991 0.000000
0.778305 0.466979 0.163722
0.775688 0.464361 0.464361
0.773000 0.461674 0.773000
0.770514 0.459187 1.000000
0.753698 0.753698 0.000000
0.751685 0.751685 0.137102
0.749067 0.749067 0.437741
0.746380 0.746380 0.746380
0.743894 0.743894 1.000000
0.729067 1.000000 0.000000
0.727054 1.000000 0.112471
0.724437 1.000000 0.413110
0.721749 1.000000 0.721749
0.719263 1.000000 1.000000
1.000000 0.000000 0.000000
1.000000 0.000000 0.202266
1.000000 0.000000 0.502905
1.000000 0.000000 0.811544
1.000000 0.000000 1.000000
1.000000 0.184343 0.000000
1.000000 0.182330 0.182330
1.000000 0.179713 0.482970
1.000000 0.177025 0.791609
1.000000 0.174539 1.000000
1.000000 0.461669 0.000000
1.000000 0.459657 0.156400
1.000000 0.457039 0.457039
1.000000 0.454352 0.765679
1.000000 0.451865 1.000000
1.000000 0.746376 0.000000
1.000000 0.744363 0.129780
1.000000 0.741746 0.430419
1.000000 0.739058 0.739058
1.000000 0.736572 1.000000
1.000000 1.000000 0.000000
1.000000 1.000000 0.105149
1.000000 1.000000 0.405788
1.000000 1.000000 0.714428
1.000000 1.000000 1.000000
