skills/editops-orchestrator/assets/grade/luts/trailer_punch_v06.cube
TITLE "trailer_punch_v06"
LUT_3D_SIZE 5
DOMAIN_MIN 0.0 0.0 0.0
DOMAIN_MAX 1.0 1.0 1.0
0.000000 0.000000 0.000000
0.000000 0.000000 0.236139
0.000000 0.000000 0.525839
0.000000 0.000000 0.821482
0.000000 0.000000 1.000000
0.000000 0.221313 0.000000
0.000000 0.219649 0.219649
0.000000 0.217606 0.509349
0.000000 0.215522 0.804992
0.000000 0.213561 1.000000
0.000000 0.492825 0.000000
0.000000 0.491161 0.199418
0.000000 0.489118 0.489118
0.000000 0.487034 0.784761
0.000000 0.485073 1.000000
0.000000 0.769906 0.000000
0.000000 0.768242 0.178772
0.000000 0.766199 0.468472
0.000000 0.764115 0.764115
0.000000 0.762154 1.000000
0.000000 1.000000 0.000000
0.000000 1.000000 0.159349
0.000000 1.000000 0.449049
0.000000 1.000000 0.744692
0.000000 1.000000 1.000000
0.232902 0.000000 0.000000
0.231237 0.000000 0.231237
0.229195 0.000000 0.520937
0.227111 0.000000 0.816580
0.225150 0.000000 1.000000
0.216411 0.216411 0.000000
0.214747 0.214747 0.214747
0.212704 0.212704 0.504447
0.210620 0.210620 0.800090
0.208659 0.208659 1.000000
0.196181 0.487923 0.000000
0.194516 0.486259 0.194516
0.192474 0.484216 0.484216
0.190389 0.482132 0.779859
0.188429 0.480171 1.000000
0.175535 0.765005 0.000000
0.173870 0.763340 0.173870
0.171828 0.761297 0.463571
0.169744 0.759213 0.759213
0.167783 0.757253 1.000000
0.156112 1.000000 0.000000
0.154447 1.000000 0.154447
0.152405 1.000000 0.444148
0.150321 1.000000 0.739790
0.148360 1.000000 1.000000
0.518631 0.000000 0.000000
0.516966 0.000000 0.225223
0.514924 0.000000 0.514924
0.512839 0.000000 0.810566
0.510879 0.000000 1.000000
0.502140 0.210398 0.000000
0.500476 0.208733 0.208733
0.498433 0.206691 0.498433
0.496349 0.204606 0.794076
0.494388 0.202646 1.000000
0.481910 0.481910 0.000000
0.480245 0.480245 0.188502
0.478203 0.478203 0.478203
0.476118 0.476118 0.773845
0.474158 0.474158 1.000000
0.461264 0.758991 0.000000
0.459599 0.757326 0.167856
0.457557 0.755284 0.457557
0.455473 0.753200 0.753200
0.453512 0.751239 1.000000
0.441841 1.000000 0.000000
0.440176 1.000000 0.148433
0.438134 1.000000 0.438134
0.436050 1.000000 0.733776
0.434089 1.000000 1.000000
0.810220 0.000000 0.000000
0.808556 0.000000 0.219086
0.806513 0.000000 0.508786
0.804429 0.000000 0.804429
0.802468 0.000000 1.000000
0.793730 0.204260 0.000000
0.792065 0.202596 0.202596
0.790023 0.200553 0.492296
0.787939 0.198469 0.787939
0.785978 0.196508 1.000000
0.773499 0.475772 0.000000
0.771835 0.474108 0.182365
0.769792 0.472065 0.472065
0.767708 0.469981 0.767708
0.765747 0.468020 1.000000
0.752854 0.752854 0.000000
0.751189 0.751189 0.161719
0.749147 0.749147 0.451420
0.747062 0.747062 0.747062
0.745102 0.745102 1.000000
0.733431 1.000000 0.000000
0.731766 1.000000 0.142296
0.729724 1.000000 0.431997
0.727639 1.000000 0.727639
0.725679 1.000000 1.000000
1.000000 0.000000 0.000000
1.000000 0.000000 0.213312
1.000000 0.000000 0.503013
1.000000 0.000000 0.798656
1.000000 0.000000 1.000000
1.000000 0.198487 0.000000
1.000000 0.196822 0.196822
1.000000 0.194780 0.486522
1.000000 0.192696 0.782165
1.000000 0.190735 1.000000
1.000000 0.469999 0.000000
1.000000 0.468334 0.176591
1.000000 0.466292 0.466292
1.000000 0.464207 0.761934
1.000000 0.462247 1.000000
1.000000 0.747080 0.000000
1.000000 0.745415 0.155946
1.000000 0.743373 0.445646
1.000000 0.741289 0.741289
1.000000 0.739328 1.000000
1.000000 1.000000 0.000000
1.000000 1.000000 0.136523
1.000000 1.000000 0.426223
1.000000 1.000000 0.721866
1.000000 1.000000 1.000000
