skills/editops-orchestrator/assets/grade/luts/trailer_punch_v11.cube
TITLE "trailer_punch_v11"
LUT_3D_SIZE 5
DOMAIN_MIN 0.0 0.0 0.0
DOMAIN_MAX 1.0 1.0 1.0
0.000000 0.000000 0.000000
0.000000 0.000000 0.227550
0.000000 0.000000 0.535515
0.000000 0.000000 0.852979
0.000000 0.000000 1.000000
0.000000 0.207752 0.000000
0.000000 0.205529 0.205529
0.000000 0.202521 0.513494
0.000000 0.199419 0.830958
0.000000 0.196580 1.000000
0.000000 0.488922 0.000000
0.000000 0.486699 0.175726
0.000000 0.483691 0.483691
0.000000 0.480589 0.801154
0.000000 0.477750 1.000000
0.000000 0.778765 0.000000
0.000000 0.776542 0.145004
0.000000 0.773534 0.452968
0.000000 0.770432 0.770432
0.000000 0.767593 1.000000
0.000000 1.000000 0.000000
0.000000 1.000000 0.116883
0.000000 1.000000 0.424847
0.000000 1.000000 0.742311
0.000000 1.000000 1.000000
0.223227 0.000000 0.000000
0.221004 0.000000 0.221004
0.217996 0.000000 0.528969
0.214894 0.000000 0.846433
0.212055 0.000000 1.000000
0.201206 0.201206 0.000000
0.198983 0.198983 0.198983
0.195975 0.195975 0.506948
0.192873 0.192873 0.824412
0.190034 0.190034 1.000000
0.171403 0.482376 0.000000
0.169180 0.480153 0.169180
0.166172 0.477145 0.477145
0.163070 0.474043 0.794608
0.160231 0.471204 1.000000
0.140681 0.772219 0.000000
0.138458 0.769996 0.138458
0.135449 0.766988 0.446422
0.132348 0.763886 0.763886
0.129509 0.761047 1.000000
0.112560 1.000000 0.000000
0.110337 1.000000 0.110337
0.107328 1.000000 0.418301
0.104227 1.000000 0.735765
0.101388 1.000000 1.000000
0.525341 0.000000 0.000000
0.523118 0.000000 0.212145
0.520110 0.000000 0.520110
0.517008 0.000000 0.837573
0.514169 0.000000 1.000000
0.503320 0.192347 0.000000
0.501097 0.190124 0.190124
0.498089 0.187115 0.498089
0.494987 0.184014 0.815552
0.492148 0.181175 1.000000
0.473517 0.473517 0.000000
0.471294 0.471294 0.160321
0.468285 0.468285 0.468285
0.465184 0.465184 0.785749
0.462345 0.462345 1.000000
0.442795 0.763360 0.000000
0.440572 0.761137 0.129599
0.437563 0.758128 0.437563
0.434462 0.755027 0.755027
0.431623 0.752188 1.000000
0.414673 1.000000 0.000000
0.412450 1.000000 0.101477
0.409442 1.000000 0.409442
0.406340 1.000000 0.726906
0.403501 1.000000 1.000000
0.836774 0.000000 0.000000
0.834551 0.000000 0.203013
0.831542 0.000000 0.510977
0.828441 0.000000 0.828441
0.825602 0.000000 1.000000
0.814753 0.183215 0.000000
0.812530 0.180992 0.180992
0.809521 0.177983 0.488956
0.806420 0.174882 0.806420
0.803581 0.172043 1.000000
0.784950 0.464385 0.000000
0.782727 0.462162 0.151189
0.779718 0.459153 0.459153
0.776617 0.456051 0.776617
0.773778 0.453213 1.000000
0.754227 0.754227 0.000000
0.752004 0.752004 0.120466
0.748996 0.748996 0.428431
0.745894 0.745894 0.745894
0.743055 0.743055 1.000000
0.726106 1.000000 0.000000
0.723883 1.000000 0.092345
0.720875 1.000000 0.400309
0.717773 1.000000 0.717773
0.714934 1.000000 1.000000
1.000000 0.000000 0.000000
1.000000 0.000000 0.194653
1.000000 0.000000 0.502618
1.000000 0.000000 0.820082
1.000000 0.000000 1.000000
1.000000 0.174855 0.000000
1.000000 0.172632 0.172632
1.000000 0.169624 0.480597
1.000000 0.166522 0.798060
1.000000 0.163683 1.000000
1.000000 0.456025 0.000000
1.000000 0.453802 0.142829
1.000000 0.450794 0.450794
1.000000 0.447692 0.768257
1.000000 0.444853 1.000000
1.000000 0.745868 0.000000
1.000000 0.743645 0.112107
1.000000 0.740636 0.420071
1.000000 0.737535 0.737535
1.000000 0.734696 1.000000
1.000000 1.000000 0.000000
1.000000 1.000000 0.083986
1.000000 1.000000 0.391950
1.000000 1.000000 0.709414
1.000000 1.000000 1.000000
