skills/editops-orchestrator/assets/grade/luts/trailer_punch_v09.cube
TITLE "trailer_punch_v09"
LUT_3D_SIZE 9
DOMAIN_MIN 0.0 0.0 0.0
DOMAIN_MAX 1.0 1.0 1.0
0.000000 0.000000 0.000000
0.000000 0.000000 0.086477
0.000000 0.000000 0.231135
0.000000 0.000000 0.380134
0.000000 0.000000 0.531774
0.000000 0.000000 0.685335
0.000000 0.000000 0.840413
0.000000 0.000000 0.996747
0.000000 0.000000 1.000000
0.000000 0.079771 0.000000
0.000000 0.079018 0.079018
0.000000 0.077758 0.223676
0.000000 0.076461 0.372675
0.000000 0.075141 0.524315
0.000000 0.073804 0.677876
0.000000 0.072453 0.832954
0.000000 0.071092 0.989288
0.000000 0.069967 1.000000
0.000000 0.213212 0.000000
0.000000 0.212459 0.066541
0.000000 0.211199 0.211199
0.000000 0.209902 0.360199
0.000000 0.208582 0.511838
0.000000 0.207245 0.665400
0.000000 0.205894 0.820478
0.000000 0.204533 0.976812
0.000000 0.203408 1.000000
0.000000 0.350657 0.000000
0.000000 0.349904 0.053690
0.000000 0.348645 0.198348
0.000000 0.347347 0.347347
0.000000 0.346027 0.498987
0.000000 0.344690 0.652548
0.000000 0.343340 0.807626
0.000000 0.341978 0.963960
0.000000 0.340853 1.000000
0.000000 0.490538 0.000000
0.000000 0.489785 0.040611
0.000000 0.488526 0.185269
0.000000 0.487228 0.334268
0.000000 0.485908 0.485908
0.000000 0.484571 0.639469
0.000000 0.483221 0.794547
0.000000 0.481860 0.950881
0.000000 0.480734 1.000000
0.000000 0.632192 0.000000
0.000000 0.631439 0.027366
0.000000 0.630179 0.172024
0.000000 0.628882 0.321024
0.000000 0.627562 0.472663
0.000000 0.626225 0.626225
0.000000 0.624874 0.781303
0.000000 0.623513 0.937637
0.000000 0.622388 1.000000
0.000000 0.775245 0.000000
0.000000 0.774492 0.013991
0.000000 0.773232 0.158649
0.000000 0.771935 0.307648
0.000000 0.770614 0.459288
0.000000 0.769277 0.612849
0.000000 0.767927 0.767927
0.000000 0.766566 0.924261
0.000000 0.765441 1.000000
0.000000 0.919456 0.000000
0.000000 0.918703 0.000507
0.000000 0.917444 0.145165
0.000000 0.916146 0.294164
0.000000 0.914826 0.445804
0.000000 0.913489 0.599365
0.000000 0.912139 0.754443
0.000000 0.910777 0.910777
0.000000 0.909652 1.000000
0.000000 1.000000 0.000000
0.000000 1.000000 0.000000
0.000000 1.000000 0.134018
0.000000 1.000000 0.283017
0.000000 1.000000 0.434657
0.000000 1.000000 0.588218
0.000000 1.000000 0.743296
0.000000 1.000000 0.899630
0.000000 1.000000 1.000000
0.085012 0.000000 0.000000
0.084259 0.000000 0.084259
0.083000 0.000000 0.228918
0.081703 0.000000 0.377917
0.080382 0.000000 0.529557
0.079045 0.000000 0.683118
0.077695 0.000000 0.838196
0.076334 0.000000 0.994530
0.075208 0.000000 1.000000
0.077554 0.077554 0.000000
0.076801 0.076801 0.076801
0.075541 0.075541 0.221459
0.074244 0.074244 0.370458
0.072924 0.072924 0.522098
0.071587 0.071587 0.675659
0.070236 0.070236 0.830737
0.068875 0.068875 0.987071
0.067750 0.067750 1.000000
0.065077 0.210995 0.000000
0.064324 0.210242 0.064324
0.063064 0.208982 0.208982
0.061767 0.207685 0.357981
0.060447 0.206364 0.509621
0.059110 0.205027 0.663182
0.057759 0.203677 0.818260
0.056398 0.202316 0.974594
0.055273 0.201191 1.000000
0.052226 0.348440 0.000000
0.051473 0.347687 0.051473
0.050213 0.346427 0.196131
0.048916 0.345130 0.345130
0.047596 0.343810 0.496770
0.046259 0.342473 0.650331
0.044908 0.341122 0.805409
0.043547 0.339761 0.961743
0.042422 0.338636 1.000000
0.039147 0.488321 0.000000
0.038394 0.487568 0.038394
0.037134 0.486309 0.183052
0.035837 0.485011 0.332051
0.034517 0.483691 0.483691
0.033180 0.482354 0.637252
0.031829 0.481004 0.792330
0.030468 0.479642 0.948664
0.029343 0.478517 1.000000
0.025902 0.629975 0.000000
0.025149 0.629222 0.025149
0.023890 0.627962 0.169807
0.022592 0.626665 0.318806
0.021272 0.625345 0.470446
0.019935 0.624008 0.624008
0.018585 0.622657 0.779086
0.017223 0.621296 0.935420
0.016098 0.620171 1.000000
0.012527 0.773028 0.000000
0.011774 0.772275 0.011774
0.010514 0.771015 0.156432
0.009217 0.769718 0.305431
0.007896 0.768397 0.457071
0.006559 0.767060 0.610632
0.005209 0.765710 0.765710
0.003848 0.764349 0.922044
0.002723 0.763224 1.000000
0.000000 0.917239 0.000000
0.000000 0.916486 0.000000
0.000000 0.915226 0.142948
0.000000 0.913929 0.291947
0.000000 0.912609 0.443587
0.000000 0.911272 0.597148
0.000000 0.909921 0.752226
0.000000 0.908560 0.908560
0.000000 0.907435 1.000000
0.000000 1.000000 0.000000
0.000000 1.000000 0.000000
0.000000 1.000000 0.131801
0.000000 1.000000 0.280800
0.000000 1.000000 0.432440
0.000000 1.000000 0.586001
0.000000 1.000000 0.741079
0.000000 1.000000 0.897413
0.000000 1.000000 1.000000
0.227221 0.000000 0.000000
0.226468 0.000000 0.080551
0.225209 0.000000 0.225209
0.223911 0.000000 0.374208
0.222591 0.000000 0.525848
0.221254 0.000000 0.679409
0.219904 0.000000 0.834487
0.218543 0.000000 0.990821
0.217417 0.000000 1.000000
0.219763 0.073845 0.000000
0.219010 0.073092 0.073092
0.217750 0.071832 0.217750
0.216453 0.070535 0.366749
0.215132 0.069215 0.518389
0.213795 0.067878 0.671950
0.212445 0.066527 0.827028
0.211084 0.065166 0.983362
0.209959 0.064041 1.000000
0.207286 0.207286 0.000000
0.206533 0.206533 0.060615
0.205273 0.205273 0.205273
0.203976 0.203976 0.354273
0.202656 0.202656 0.505912
0.201319 0.201319 0.659474
0.199968 0.199968 0.814552
0.198607 0.198607 0.970886
0.197482 0.197482 1.000000
0.194435 0.344731 0.000000
0.193682 0.343978 0.047764
0.192422 0.342719 0.192422
0.191125 0.341421 0.341421
0.189804 0.340101 0.493061
0.188467 0.338764 0.646622
0.187117 0.337414 0.801700
0.185756 0.336052 0.958034
0.184631 0.334927 1.000000
0.181356 0.484612 0.000000
0.180603 0.483859 0.034685
0.179343 0.482600 0.179343
0.178046 0.481302 0.328342
0.176725 0.479982 0.479982
0.175388 0.478645 0.633543
0.174038 0.477295 0.788621
0.172677 0.475934 0.944955
0.171552 0.474808 1.000000
0.168111 0.626266 0.000000
0.167358 0.625513 0.021440
0.166098 0.624253 0.166098
0.164801 0.622956 0.315098
0.163481 0.621636 0.466737
0.162144 0.620299 0.620299
0.160793 0.618948 0.775377
0.159432 0.617587 0.931711
0.158307 0.616462 1.000000
0.154735 0.769319 0.000000
0.153982 0.768566 0.008065
0.152723 0.767306 0.152723
0.151425 0.766009 0.301722
0.150105 0.764688 0.453362
0.148768 0.763351 0.606923
0.147418 0.762001 0.762001
0.146057 0.760640 0.918335
0.144931 0.759515 1.000000
0.141251 0.913530 0.000000
0.140499 0.912777 0.000000
0.139239 0.911518 0.139239
0.137942 0.910220 0.288238
0.136621 0.908900 0.439878
0.135284 0.907563 0.593439
0.133934 0.906213 0.748517
0.132573 0.904851 0.904851
0.131447 0.903726 1.000000
0.130105 1.000000 0.000000
0.129352 1.000000 0.000000
0.128092 1.000000 0.128092
0.126795 1.000000 0.277091
0.125474 1.000000 0.428731
0.124137 1.000000 0.582292
0.122787 1.000000 0.737370
0.121426 1.000000 0.893704
0.120301 1.000000 1.000000
0.373698 0.000000 0.000000
0.372945 0.000000 0.076730
0.371685 0.000000 0.221389
0.370388 0.000000 0.370388
0.369067 0.000000 0.522028
0.367730 0.000000 0.675589
0.366380 0.000000 0.830667
0.365019 0.000000 0.987001
0.363894 0.000000 1.000000
0.366239 0.070025 0.000000
0.365486 0.069272 0.069272
0.364227 0.068012 0.213930
0.362929 0.066715 0.362929
0.361609 0.065395 0.514569
0.360272 0.064058 0.668130
0.358922 0.062707 0.823208
0.357560 0.061346 0.979542
0.356435 0.060221 1.000000
0.353762 0.203466 0.000000
0.353009 0.202713 0.056795
0.351750 0.201453 0.201453
0.350452 0.200156 0.350452
0.349132 0.198835 0.502092
0.347795 0.197498 0.655653
0.346445 0.196148 0.810731
0.345084 0.194787 0.967065
0.343958 0.193662 1.000000
0.340911 0.340911 0.000000
0.340158 0.340158 0.043944
0.338898 0.338898 0.188602
0.337601 0.337601 0.337601
0.336281 0.336281 0.489241
0.334944 0.334944 0.642802
0.333593 0.333593 0.797880
0.332232 0.332232 0.954214
0.331107 0.331107 1.000000
0.327832 0.480792 0.000000
0.327079 0.480039 0.030865
0.325819 0.478780 0.175523
0.324522 0.477482 0.324522
0.323202 0.476162 0.476162
0.321865 0.474825 0.629723
0.320514 0.473475 0.784801
0.319153 0.472113 0.941135
0.318028 0.470988 1.000000
0.314587 0.622446 0.000000
0.313834 0.621693 0.017620
0.312575 0.620433 0.162278
0.311277 0.619136 0.311277
0.309957 0.617816 0.462917
0.308620 0.616479 0.616479
0.307270 0.615128 0.771557
0.305909 0.613767 0.927891
0.304783 0.612642 1.000000
0.301212 0.765499 0.000000
0.300459 0.764746 0.004245
0.299199 0.763486 0.148903
0.297902 0.762189 0.297902
0.296582 0.760868 0.449542
0.295245 0.759531 0.603103
0.293894 0.758181 0.758181
0.292533 0.756820 0.914515
0.291408 0.755695 1.000000
0.287728 0.909710 0.000000
0.286975 0.908957 0.000000
0.285715 0.907697 0.135419
0.284418 0.906400 0.284418
0.283098 0.905080 0.436058
0.281761 0.903743 0.589619
0.280410 0.902392 0.744697
0.279049 0.901031 0.901031
0.277924 0.899906 1.000000
0.276581 1.000000 0.000000
0.275828 1.000000 0.000000
0.274569 1.000000 0.124272
0.273271 1.000000 0.273271
0.271951 1.000000 0.424911
0.270614 1.000000 0.578472
0.269264 1.000000 0.733550
0.267902 1.000000 0.889884
0.266777 1.000000 1.000000
0.522770 0.000000 0.000000
0.522017 0.000000 0.072843
0.520758 0.000000 0.217501
0.519460 0.000000 0.366500
0.518140 0.000000 0.518140
0.516803 0.000000 0.671701
0.515452 0.000000 0.826779
0.514091 0.000000 0.983113
0.512966 0.000000 1.000000
0.515311 0.066137 0.000000
0.514558 0.065384 0.065384
0.513299 0.064124 0.210042
0.512002 0.062827 0.359041
0.510681 0.061507 0.510681
0.509344 0.060170 0.664242
0.507994 0.058819 0.819320
0.506633 0.057458 0.975654
0.505507 0.056333 1.000000
0.502835 0.199578 0.000000
0.502082 0.198825 0.052907
0.500822 0.197565 0.197565
0.499525 0.196268 0.346565
0.498204 0.194948 0.498204
0.496867 0.193611 0.651766
0.495517 0.192260 0.806844
0.494156 0.190899 0.963178
0.493031 0.189774 1.000000
0.489983 0.337023 0.000000
0.489230 0.336270 0.040056
0.487971 0.335011 0.184714
0.486673 0.333713 0.333713
0.485353 0.332393 0.485353
0.484016 0.331056 0.638914
0.482666 0.329706 0.793992
0.481305 0.328344 0.950326
0.480179 0.327219 1.000000
0.476904 0.476904 0.000000
0.476151 0.476151 0.026977
0.474892 0.474892 0.171635
0.473594 0.473594 0.320634
0.472274 0.472274 0.472274
0.470937 0.470937 0.625835
0.469587 0.469587 0.780913
0.468226 0.468226 0.937247
0.467100 0.467100 1.000000
0.463660 0.618558 0.000000
0.462907 0.617805 0.013732
0.461647 0.616545 0.158390
0.460350 0.615248 0.307390
0.459029 0.613928 0.459029
0.457692 0.612591 0.612591
0.456342 0.611240 0.767669
0.454981 0.609879 0.924003
0.453856 0.608754 1.000000
0.450284 0.761611 0.000000
0.449531 0.760858 0.000357
0.448272 0.759598 0.145015
0.446974 0.758301 0.294014
0.445654 0.756980 0.445654
0.444317 0.755643 0.599215
0.442967 0.754293 0.754293
0.441605 0.752932 0.910627
0.440480 0.751807 1.000000
0.436800 0.905822 0.000000
0.436047 0.905069 0.000000
0.434788 0.903810 0.131531
0.433490 0.902512 0.280530
0.432170 0.901192 0.432170
0.430833 0.899855 0.585731
0.429483 0.898505 0.740809
0.428122 0.897143 0.897143
0.426996 0.896018 1.000000
0.425653 1.000000 0.000000
0.424900 1.000000 0.000000
0.423641 1.000000 0.120384
0.422344 1.000000 0.269383
0.421023 1.000000 0.421023
0.419686 1.000000 0.574584
0.418336 1.000000 0.729662
0.416975 1.000000 0.885996
0.415849 1.000000 1.000000
0.673731 0.000000 0.000000
0.672978 0.000000 0.068906
0.671719 0.000000 0.213564
0.670421 0.000000 0.362563
0.669101 0.000000 0.514203
0.667764 0.000000 0.667764
0.666414 0.000000 0.822842
0.665052 0.000000 0.979176
0.663927 0.000000 1.000000
0.666273 0.062200 0.000000
0.665520 0.061447 0.061447
0.664260 0.060187 0.206105
0.662963 0.058890 0.355104
0.661642 0.057570 0.506744
0.660305 0.056233 0.660305
0.658955 0.054882 0.815383
0.657594 0.053521 0.971717
0.656469 0.052396 1.000000
0.653796 0.195641 0.000000
0.653043 0.194888 0.048970
0.651783 0.193628 0.193628
0.650486 0.192331 0.342627
0.649166 0.191010 0.494267
0.647828 0.189673 0.647828
0.646478 0.188323 0.802907
0.645117 0.186962 0.959241
0.643992 0.185837 1.000000
0.640944 0.333086 0.000000
0.640192 0.332333 0.036119
0.638932 0.331074 0.180777
0.637635 0.329776 0.329776
0.636314 0.328456 0.481416
0.634977 0.327119 0.634977
0.633627 0.325769 0.790055
0.632266 0.324407 0.946389
0.631140 0.323282 1.000000
0.627865 0.472967 0.000000
0.627113 0.472214 0.023040
0.625853 0.470955 0.167698
0.624556 0.469657 0.316697
0.623235 0.468337 0.468337
0.621898 0.467000 0.621898
0.620548 0.465650 0.776976
0.619187 0.464288 0.933310
0.618061 0.463163 1.000000
0.614621 0.614621 0.000000
0.613868 0.613868 0.009795
0.612608 0.612608 0.154453
0.611311 0.611311 0.303452
0.609991 0.609991 0.455092
0.608654 0.608654 0.608654
0.607303 0.607303 0.763732
0.605942 0.605942 0.920066
0.604817 0.604817 1.000000
0.601245 0.757674 0.000000
0.600492 0.756921 0.000000
0.599233 0.755661 0.141078
0.597935 0.754364 0.290077
0.596615 0.753043 0.441717
0.595278 0.751706 0.595278
0.593928 0.750356 0.750356
0.592567 0.748995 0.906690
0.591441 0.747870 1.000000
0.587761 0.901885 0.000000
0.587008 0.901132 0.000000
0.585749 0.899872 0.127594
0.584452 0.898575 0.276593
0.583131 0.897255 0.428233
0.581794 0.895918 0.581794
0.580444 0.894567 0.736872
0.579083 0.893206 0.893206
0.577957 0.892081 1.000000
0.576615 1.000000 0.000000
0.575862 1.000000 0.000000
0.574602 1.000000 0.116447
0.573305 1.000000 0.265446
0.571984 1.000000 0.417086
0.570647 1.000000 0.570647
0.569297 1.000000 0.725725
0.567936 1.000000 0.882059
0.566811 1.000000 1.000000
0.826183 0.000000 0.000000
0.825431 0.000000 0.064929
0.824171 0.000000 0.209588
0.822874 0.000000 0.358587
0.821553 0.000000 0.510227
0.820216 0.000000 0.663788
0.818866 0.000000 0.818866
0.817505 0.000000 0.975200
0.816379 0.000000 1.000000
0.818725 0.058224 0.000000
0.817972 0.057471 0.057471
0.816712 0.056211 0.202129
0.815415 0.054914 0.351128
0.814095 0.053594 0.502768
0.812758 0.052257 0.656329
0.811407 0.050906 0.811407
0.810046 0.049545 0.967741
0.808921 0.048420 1.000000
0.806248 0.191665 0.000000
0.805495 0.190912 0.044994
0.804236 0.189652 0.189652
0.802938 0.188355 0.338651
0.801618 0.187034 0.490291
0.800281 0.185697 0.643852
0.798930 0.184347 0.798930
0.797569 0.182986 0.955265
0.796444 0.181861 1.000000
0.793397 0.329110 0.000000
0.792644 0.328357 0.032143
0.791384 0.327098 0.176801
0.790087 0.325800 0.325800
0.788767 0.324480 0.477440
0.787430 0.323143 0.631001
0.786079 0.321792 0.786079
0.784718 0.320431 0.942413
0.783593 0.319306 1.000000
0.780318 0.468991 0.000000
0.779565 0.468238 0.019064
0.778305 0.466979 0.163722
0.777008 0.465681 0.312721
0.775688 0.464361 0.464361
0.774351 0.463024 0.617922
0.773000 0.461674 0.773000
0.771639 0.460312 0.929334
0.770514 0.459187 1.000000
0.767073 0.610645 0.000000
0.766320 0.609892 0.005819
0.765061 0.608632 0.150477
0.763763 0.607335 0.299476
0.762443 0.606015 0.451116
0.761106 0.604678 0.604678
0.759756 0.603327 0.759756
0.758394 0.601966 0.916090
0.757269 0.600841 1.000000
0.753698 0.753698 0.000000
0.752945 0.752945 0.000000
0.751685 0.751685 0.137102
0.750388 0.750388 0.286101
0.749067 0.749067 0.437741
0.747730 0.747730 0.591302
0.746380 0.746380 0.746380
0.745019 0.745019 0.902714
0.743894 0.743894 1.000000
0.740214 0.897909 0.000000
0.739461 0.897156 0.000000
0.738201 0.895896 0.123618
0.736904 0.894599 0.272617
0.735584 0.893279 0.424257
0.734246 0.891942 0.577818
0.732896 0.890591 0.732896
0.731535 0.889230 0.889230
0.730410 0.888105 1.000000
0.729067 1.000000 0.000000
0.728314 1.000000 0.000000
0.727054 1.000000 0.112471
0.725757 1.000000 0.261470
0.724437 1.000000 0.413110
0.723100 1.000000 0.566671
0.721749 1.000000 0.721749
0.720388 1.000000 0.878083
0.719263 1.000000 1.000000
0.979870 0.000000 0.000000
0.979118 0.000000 0.060921
0.977858 0.000000 0.205579
0.976561 0.000000 0.354579
0.975240 0.000000 0.506218
0.973903 0.000000 0.659780
0.972553 0.000000 0.814858
0.971192 0.000000 0.971192
0.970066 0.000000 1.000000
0.972412 0.054216 0.000000
0.971659 0.053463 0.053463
0.970399 0.052203 0.198121
0.969102 0.050906 0.347120
0.967782 0.049585 0.498760
0.966445 0.048248 0.652321
0.965094 0.046898 0.807399
0.963733 0.045537 0.963733
0.962608 0.044412 1.000000
0.959935 0.187656 0.000000
0.959182 0.186904 0.040986
0.957923 0.185644 0.185644
0.956625 0.184347 0.334643
0.955305 0.183026 0.486283
0.953968 0.181689 0.639844
0.952618 0.180339 0.794922
0.951256 0.178978 0.951256
0.950131 0.177852 1.000000
0.947084 0.325102 0.000000
0.946331 0.324349 0.028135
0.945071 0.323089 0.172793
0.943774 0.321792 0.321792
0.942454 0.320472 0.473432
0.941117 0.319135 0.626993
0.939766 0.317784 0.782071
0.938405 0.316423 0.938405
0.937280 0.315298 1.000000
0.934005 0.464983 0.000000
0.933252 0.464230 0.015056
0.931992 0.462971 0.159714
0.930695 0.461673 0.308713
0.929375 0.460353 0.460353
0.928038 0.459016 0.613914
0.926687 0.457665 0.768992
0.925326 0.456304 0.925326
0.924201 0.455179 1.000000
0.920760 0.606637 0.000000
0.920007 0.605884 0.001811
0.918748 0.604624 0.146469
0.917450 0.603327 0.295468
0.916130 0.602006 0.447108
0.914793 0.600669 0.600669
0.913443 0.599319 0.755747
0.912081 0.597958 0.912081
0.910956 0.596833 1.000000
0.907385 0.749689 0.000000
0.906632 0.748936 0.000000
0.905372 0.747677 0.133093
0.904075 0.746379 0.282093
0.902754 0.745059 0.433733
0.901417 0.743722 0.587294
0.900067 0.742372 0.742372
0.898706 0.741011 0.898706
0.897581 0.739885 1.000000
0.893901 0.893901 0.000000
0.893148 0.893148 0.000000
0.891888 0.891888 0.119610
0.890591 0.890591 0.268609
0.889271 0.889271 0.420249
0.887933 0.887933 0.573810
0.886583 0.886583 0.728888
0.885222 0.885222 0.885222
0.884097 0.884097 1.000000
0.882754 1.000000 0.000000
0.882001 1.000000 0.000000
0.880741 1.000000 0.108463
0.879444 1.000000 0.257462
0.878124 1.000000 0.409102
0.876787 1.000000 0.562663
0.875436 1.000000 0.717741
0.874075 1.000000 0.874075
0.872950 1.000000 1.000000
1.000000 0.000000 0.000000
1.000000 0.000000 0.057608
1.000000 0.000000 0.202266
1.000000 0.000000 0.351265
1.000000 0.000000 0.502905
1.000000 0.000000 0.656466
1.000000 0.000000 0.811544
1.000000 0.000000 0.967878
1.000000 0.000000 1.000000
1.000000 0.050902 0.000000
1.000000 0.050149 0.050149
1.000000 0.048890 0.194807
1.000000 0.047592 0.343807
1.000000 0.046272 0.495446
1.000000 0.044935 0.649008
1.000000 0.043585 0.804086
1.000000 0.042223 0.960420
1.000000 0.041098 1.000000
1.000000 0.184343 0.000000
1.000000 0.183590 0.037672
1.000000 0.182330 0.182330
1.000000 0.181033 0.331330
1.000000 0.179713 0.482970
1.000000 0.178376 0.636531
1.000000 0.177025 0.791609
1.000000 0.175664 0.947943
1.000000 0.174539 1.000000
1.000000 0.321788 0.000000
1.000000 0.321035 0.024821
1.000000 0.319776 0.169479
1.000000 0.318478 0.318478
1.000000 0.317158 0.470118
1.000000 0.315821 0.623680
1.000000 0.314471 0.778758
1.000000 0.313110 0.935092
1.000000 0.311984 1.000000
1.000000 0.461669 0.000000
1.000000 0.460917 0.011742
1.000000 0.459657 0.156400
1.000000 0.458360 0.305399
1.000000 0.457039 0.457039
1.000000 0.455702 0.610601
1.000000 0.454352 0.765679
1.000000 0.452991 0.922013
1.000000 0.451865 1.000000
1.000000 0.603323 0.000000
1.000000 0.602570 0.000000
1.000000 0.601311 0.143156
1.000000 0.600013 0.292155
1.000000 0.598693 0.443795
1.000000 0.597356 0.597356
1.000000 0.596006 0.752434
1.000000 0.594644 0.908768
1.000000 0.593519 1.000000
1.000000 0.746376 0.000000
1.000000 0.745623 0.000000
1.000000 0.744363 0.129780
1.000000 0.743066 0.278779
1.000000 0.741746 0.430419
1.000000 0.740409 0.583980
1.000000 0.739058 0.739058
1.000000 0.737697 0.895392
1.000000 0.736572 1.000000
1.000000 0.890587 0.000000
1.000000 0.889834 0.000000
1.000000 0.888575 0.116296
1.000000 0.887277 0.265295
1.000000 0.885957 0.416935
1.000000 0.884620 0.570496
1.000000 0.883270 0.725574
1.000000 0.881908 0.881908
1.000000 0.880783 1.000000
1.000000 1.000000 0.000000
1.000000 1.000000 0.000000
1.000000 1.000000 0.105149
1.000000 1.000000 0.254149
1.000000 1.000000 0.405788
1.000000 1.000000 0.559350
1.000000 1.000000 0.714428
1.000000 1.000000 0.870762
1.000000 1.000000 1.000000
