skills/editops-orchestrator/assets/grade/luts/trailer_punch_v06.cube
TITLE "trailer_punch_v06"
LUT_3D_SIZE 17
DOMAIN_MIN 0.0 0.0 0.0
DOMAIN_MAX 1.0 1.0 1.0
0.000000 0.000000 0.000000
0.000000 0.000000 0.027503
0.000000 0.000000 0.095427
0.000000 0.000000 0.165250
0.000000 0.000000 0.236139
0.000000 0.000000 0.307783
0.000000 0.000000 0.380012
0.000000 0.000000 0.452722
0.000000 0.000000 0.525839
0.000000 0.000000 0.599311
0.000000 0.000000 0.673095
0.000000 0.000000 0.747161
0.000000 0.000000 0.821482
0.000000 0.000000 0.896036
0.000000 0.000000 0.970805
0.000000 0.000000 1.000000
0.000000 0.000000 1.000000
0.000000 0.025776 0.000000
0.000000 0.025582 0.025582
0.000000 0.025103 0.093507
0.000000 0.024611 0.163329
0.000000 0.024111 0.234218
0.000000 0.023606 0.305862
0.000000 0.023097 0.378092
0.000000 0.022584 0.450801
0.000000 0.022069 0.523919
0.000000 0.021551 0.597390
0.000000 0.021031 0.671175
0.000000 0.020509 0.745241
0.000000 0.019985 0.819561
0.000000 0.019459 0.894116
0.000000 0.018932 0.968885
0.000000 0.018403 1.000000
0.000000 0.018024 1.000000
0.000000 0.089436 0.000000
0.000000 0.089242 0.020839
0.000000 0.088763 0.088763
0.000000 0.088271 0.158586
0.000000 0.087771 0.229475
0.000000 0.087266 0.301118
0.000000 0.086757 0.373348
0.000000 0.086244 0.446058
0.000000 0.085729 0.519175
0.000000 0.085211 0.592647
0.000000 0.084691 0.666431
0.000000 0.084169 0.740497
0.000000 0.083645 0.814818
0.000000 0.083119 0.889372
0.000000 0.082592 0.964141
0.000000 0.082064 1.000000
0.000000 0.081684 1.000000
0.000000 0.154875 0.000000
0.000000 0.154681 0.015963
0.000000 0.154202 0.083887
0.000000 0.153710 0.153710
0.000000 0.153210 0.224599
0.000000 0.152705 0.296243
0.000000 0.152196 0.368472
0.000000 0.151683 0.441182
0.000000 0.151168 0.514299
0.000000 0.150650 0.587771
0.000000 0.150130 0.661556
0.000000 0.149607 0.735621
0.000000 0.149083 0.809942
0.000000 0.148558 0.884496
0.000000 0.148031 0.959266
0.000000 0.147502 1.000000
0.000000 0.147123 1.000000
0.000000 0.221313 0.000000
0.000000 0.221119 0.011012
0.000000 0.220641 0.078937
0.000000 0.220148 0.148759
0.000000 0.219649 0.219649
0.000000 0.219144 0.291292
0.000000 0.218634 0.363522
0.000000 0.218122 0.436232
0.000000 0.217606 0.509349
0.000000 0.217088 0.582820
0.000000 0.216568 0.656605
0.000000 0.216046 0.730671
0.000000 0.215522 0.804992
0.000000 0.214997 0.879546
0.000000 0.214469 0.954315
0.000000 0.213941 1.000000
0.000000 0.213561 1.000000
0.000000 0.288459 0.000000
0.000000 0.288265 0.006009
0.000000 0.287786 0.073934
0.000000 0.287294 0.143756
0.000000 0.286794 0.214645
0.000000 0.286289 0.286289
0.000000 0.285780 0.358519
0.000000 0.285267 0.431229
0.000000 0.284752 0.504346
0.000000 0.284234 0.577817
0.000000 0.283714 0.651602
0.000000 0.283192 0.725668
0.000000 0.282668 0.799989
0.000000 0.282142 0.874543
0.000000 0.281615 0.949312
0.000000 0.281086 1.000000
0.000000 0.280707 1.000000
0.000000 0.356154 0.000000
0.000000 0.355960 0.000965
0.000000 0.355481 0.068890
0.000000 0.354989 0.138712
0.000000 0.354489 0.209601
0.000000 0.353984 0.281245
0.000000 0.353475 0.353475
0.000000 0.352962 0.426184
0.000000 0.352447 0.499302
0.000000 0.351929 0.572773
0.000000 0.351408 0.646558
0.000000 0.350886 0.720624
0.000000 0.350362 0.794945
0.000000 0.349837 0.869499
0.000000 0.349310 0.944268
0.000000 0.348781 1.000000
0.000000 0.348402 1.000000
0.000000 0.424298 0.000000
0.000000 0.424105 0.000000
0.000000 0.423626 0.063812
0.000000 0.423134 0.133635
0.000000 0.422634 0.204524
0.000000 0.422129 0.276167
0.000000 0.421619 0.348397
0.000000 0.421107 0.421107
0.000000 0.420591 0.494224
0.000000 0.420073 0.567696
0.000000 0.419553 0.641480
0.000000 0.419031 0.715546
0.000000 0.418507 0.789867
0.000000 0.417982 0.864421
0.000000 0.417455 0.939190
0.000000 0.416926 1.000000
0.000000 0.416546 1.000000
0.000000 0.492825 0.000000
0.000000 0.492631 0.000000
0.000000 0.492153 0.058706
0.000000 0.491660 0.128529
0.000000 0.491161 0.199418
0.000000 0.490655 0.271061
0.000000 0.490146 0.343291
0.000000 0.489634 0.416001
0.000000 0.489118 0.489118
0.000000 0.488600 0.562590
0.000000 0.488080 0.636374
0.000000 0.487558 0.710440
0.000000 0.487034 0.784761
0.000000 0.486508 0.859315
0.000000 0.485981 0.934084
0.000000 0.485453 1.000000
0.000000 0.485073 1.000000
0.000000 0.561684 0.000000
0.000000 0.561490 0.000000
0.000000 0.561011 0.053575
0.000000 0.560519 0.123398
0.000000 0.560019 0.194287
0.000000 0.559514 0.265931
0.000000 0.559005 0.338160
0.000000 0.558492 0.410870
0.000000 0.557977 0.483987
0.000000 0.557459 0.557459
0.000000 0.556939 0.631244
0.000000 0.556417 0.705309
0.000000 0.555893 0.779630
0.000000 0.555367 0.854184
0.000000 0.554840 0.928954
0.000000 0.554311 1.000000
0.000000 0.553932 1.000000
0.000000 0.630836 0.000000
0.000000 0.630642 0.000000
0.000000 0.630163 0.048423
0.000000 0.629671 0.118245
0.000000 0.629171 0.189134
0.000000 0.628666 0.260778
0.000000 0.628157 0.333008
0.000000 0.627645 0.405717
0.000000 0.627129 0.478835
0.000000 0.626611 0.552306
0.000000 0.626091 0.626091
0.000000 0.625569 0.700157
0.000000 0.625045 0.774478
0.000000 0.624519 0.849032
0.000000 0.623992 0.923801
0.000000 0.623464 0.998770
0.000000 0.623084 1.000000
0.000000 0.700252 0.000000
0.000000 0.700058 0.000000
0.000000 0.699579 0.043251
0.000000 0.699087 0.113073
0.000000 0.698587 0.183962
0.000000 0.698082 0.255606
0.000000 0.697573 0.327835
0.000000 0.697060 0.400545
0.000000 0.696545 0.473663
0.000000 0.696027 0.547134
0.000000 0.695507 0.620919
0.000000 0.694985 0.694985
0.000000 0.694461 0.769305
0.000000 0.693935 0.843859
0.000000 0.693408 0.918629
0.000000 0.692879 0.993598
0.000000 0.692500 1.000000
0.000000 0.769906 0.000000
0.000000 0.769713 0.000000
0.000000 0.769234 0.038060
0.000000 0.768741 0.107883
0.000000 0.768242 0.178772
0.000000 0.767737 0.250416
0.000000 0.767227 0.322645
0.000000 0.766715 0.395355
0.000000 0.766199 0.468472
0.000000 0.765681 0.541944
0.000000 0.765161 0.615729
0.000000 0.764639 0.689794
0.000000 0.764115 0.764115
0.000000 0.763590 0.838669
0.000000 0.763063 0.913439
0.000000 0.762534 0.988408
0.000000 0.762154 1.000000
0.000000 0.839780 0.000000
0.000000 0.839586 0.000000
0.000000 0.839107 0.032854
0.000000 0.838615 0.102676
0.000000 0.838115 0.173566
0.000000 0.837610 0.245209
0.000000 0.837101 0.317439
0.000000 0.836588 0.390149
0.000000 0.836073 0.463266
0.000000 0.835555 0.536738
0.000000 0.835035 0.610522
0.000000 0.834513 0.684588
0.000000 0.833989 0.758909
0.000000 0.833463 0.833463
0.000000 0.832936 0.908232
0.000000 0.832407 0.983201
0.000000 0.832028 1.000000
0.000000 0.909855 0.000000
0.000000 0.909661 0.000000
0.000000 0.909182 0.027633
0.000000 0.908690 0.097455
0.000000 0.908190 0.168344
0.000000 0.907685 0.239988
0.000000 0.907176 0.312218
0.000000 0.906663 0.384927
0.000000 0.906148 0.458045
0.000000 0.905630 0.531516
0.000000 0.905110 0.605301
0.000000 0.904588 0.679367
0.000000 0.904064 0.753687
0.000000 0.903538 0.828242
0.000000 0.903011 0.903011
0.000000 0.902482 0.977980
0.000000 0.902103 1.000000
0.000000 0.980117 0.000000
0.000000 0.979923 0.000000
0.000000 0.979444 0.022397
0.000000 0.978952 0.092220
0.000000 0.978452 0.163109
0.000000 0.977947 0.234753
0.000000 0.977438 0.306982
0.000000 0.976925 0.379692
0.000000 0.976410 0.452809
0.000000 0.975892 0.526281
0.000000 0.975372 0.600066
0.000000 0.974850 0.674131
0.000000 0.974326 0.748452
0.000000 0.973800 0.823006
0.000000 0.973273 0.897776
0.000000 0.972745 0.972745
0.000000 0.972365 1.000000
0.000000 1.000000 0.000000
0.000000 1.000000 0.000000
0.000000 1.000000 0.018637
0.000000 1.000000 0.088460
0.000000 1.000000 0.159349
0.000000 1.000000 0.230993
0.000000 1.000000 0.303222
0.000000 1.000000 0.375932
0.000000 1.000000 0.449049
0.000000 1.000000 0.522521
0.000000 1.000000 0.596306
0.000000 1.000000 0.670371
0.000000 1.000000 0.744692
0.000000 1.000000 0.819246
0.000000 1.000000 0.894016
0.000000 1.000000 0.968985
0.000000 1.000000 1.000000
0.027125 0.000000 0.000000
0.026932 0.000000 0.026932
0.026453 0.000000 0.094856
0.025961 0.000000 0.164679
0.025461 0.000000 0.235568
0.024956 0.000000 0.307212
0.024447 0.000000 0.379441
0.023934 0.000000 0.452151
0.023418 0.000000 0.525268
0.022901 0.000000 0.598740
0.022380 0.000000 0.672525
0.021858 0.000000 0.746590
0.021334 0.000000 0.820911
0.020809 0.000000 0.895465
0.020282 0.000000 0.970235
0.019753 0.000000 1.000000
0.019373 0.000000 1.000000
0.025205 0.025205 0.000000
0.025011 0.025011 0.025011
0.024532 0.024532 0.092936
0.024040 0.024040 0.162758
0.023540 0.023540 0.233647
0.023035 0.023035 0.305291
0.022526 0.022526 0.377521
0.022013 0.022013 0.450230
0.021498 0.021498 0.523348
0.020980 0.020980 0.596819
0.020460 0.020460 0.670604
0.019938 0.019938 0.744670
0.019414 0.019414 0.818991
0.018888 0.018888 0.893545
0.018361 0.018361 0.968314
0.017832 0.017832 1.000000
0.017453 0.017453 1.000000
0.020461 0.088865 0.000000
0.020268 0.088671 0.020268
0.019789 0.088192 0.088192
0.019297 0.087700 0.158015
0.018797 0.087200 0.228904
0.018292 0.086695 0.300548
0.017782 0.086186 0.372777
0.017270 0.085674 0.445487
0.016754 0.085158 0.518604
0.016237 0.084640 0.592076
0.015716 0.084120 0.665861
0.015194 0.083598 0.739926
0.014670 0.083074 0.814247
0.014145 0.082548 0.888801
0.013618 0.082021 0.963571
0.013089 0.081493 1.000000
0.012709 0.081113 1.000000
0.015586 0.154304 0.000000
0.015392 0.154110 0.015392
0.014913 0.153631 0.083316
0.014421 0.153139 0.153139
0.013921 0.152639 0.224028
0.013416 0.152134 0.295672
0.012907 0.151625 0.367901
0.012394 0.151112 0.440611
0.011879 0.150597 0.513728
0.011361 0.150079 0.587200
0.010840 0.149559 0.660985
0.010318 0.149037 0.735050
0.009794 0.148513 0.809371
0.009269 0.147987 0.883925
0.008742 0.147460 0.958695
0.008213 0.146931 1.000000
0.007834 0.146552 1.000000
0.010635 0.220742 0.000000
0.010441 0.220549 0.010441
0.009962 0.220070 0.078366
0.009470 0.219577 0.148188
0.008970 0.219078 0.219078
0.008465 0.218573 0.290721
0.007956 0.218063 0.362951
0.007444 0.217551 0.435661
0.006928 0.217035 0.508778
0.006410 0.216517 0.582249
0.005890 0.215997 0.656034
0.005368 0.215475 0.730100
0.004844 0.214951 0.804421
0.004318 0.214426 0.878975
0.003791 0.213898 0.953744
0.003263 0.213370 1.000000
0.002883 0.212990 1.000000
0.005632 0.287888 0.000000
0.005438 0.287694 0.005438
0.004959 0.287215 0.073363
0.004467 0.286723 0.143185
0.003967 0.286223 0.214075
0.003462 0.285718 0.285718
0.002953 0.285209 0.357948
0.002440 0.284696 0.430658
0.001925 0.284181 0.503775
0.001407 0.283663 0.577246
0.000887 0.283143 0.651031
0.000365 0.282621 0.725097
0.000000 0.282097 0.799418
0.000000 0.281571 0.873972
0.000000 0.281044 0.948741
0.000000 0.280515 1.000000
0.000000 0.280136 1.000000
0.000588 0.355583 0.000000
0.000394 0.355389 0.000394
0.000000 0.354910 0.068319
0.000000 0.354418 0.138141
0.000000 0.353918 0.209031
0.000000 0.353413 0.280674
0.000000 0.352904 0.352904
0.000000 0.352391 0.425614
0.000000 0.351876 0.498731
0.000000 0.351358 0.572202
0.000000 0.350838 0.645987
0.000000 0.350315 0.720053
0.000000 0.349791 0.794374
0.000000 0.349266 0.868928
0.000000 0.348739 0.943697
0.000000 0.348210 1.000000
0.000000 0.347831 1.000000
0.000000 0.423728 0.000000
0.000000 0.423534 0.000000
0.000000 0.423055 0.063241
0.000000 0.422563 0.133064
0.000000 0.422063 0.203953
0.000000 0.421558 0.275596
0.000000 0.421049 0.347826
0.000000 0.420536 0.420536
0.000000 0.420021 0.493653
0.000000 0.419503 0.567125
0.000000 0.418982 0.640909
0.000000 0.418460 0.714975
0.000000 0.417936 0.789296
0.000000 0.417411 0.863850
0.000000 0.416884 0.938619
0.000000 0.416355 1.000000
0.000000 0.415976 1.000000
0.000000 0.492254 0.000000
0.000000 0.492060 0.000000
0.000000 0.491582 0.058135
0.000000 0.491089 0.127958
0.000000 0.490590 0.198847
0.000000 0.490085 0.270490
0.000000 0.489575 0.342720
0.000000 0.489063 0.415430
0.000000 0.488547 0.488547
0.000000 0.488029 0.562019
0.000000 0.487509 0.635803
0.000000 0.486987 0.709869
0.000000 0.486463 0.784190
0.000000 0.485938 0.858744
0.000000 0.485410 0.933513
0.000000 0.484882 1.000000
0.000000 0.484502 1.000000
0.000000 0.561113 0.000000
0.000000 0.560919 0.000000
0.000000 0.560440 0.053004
0.000000 0.559948 0.122827
0.000000 0.559448 0.193716
0.000000 0.558943 0.265360
0.000000 0.558434 0.337589
0.000000 0.557921 0.410299
0.000000 0.557406 0.483417
0.000000 0.556888 0.556888
0.000000 0.556368 0.630673
0.000000 0.555846 0.704738
0.000000 0.555322 0.779059
0.000000 0.554796 0.853613
0.000000 0.554269 0.928383
0.000000 0.553741 1.000000
0.000000 0.553361 1.000000
0.000000 0.630265 0.000000
0.000000 0.630071 0.000000
0.000000 0.629592 0.047852
0.000000 0.629100 0.117674
0.000000 0.628600 0.188564
0.000000 0.628095 0.260207
0.000000 0.627586 0.332437
0.000000 0.627074 0.405147
0.000000 0.626558 0.478264
0.000000 0.626040 0.551735
0.000000 0.625520 0.625520
0.000000 0.624998 0.699586
0.000000 0.624474 0.773907
0.000000 0.623948 0.848461
0.000000 0.623421 0.923230
0.000000 0.622893 0.998199
0.000000 0.622513 1.000000
0.000000 0.699681 0.000000
0.000000 0.699487 0.000000
0.000000 0.699008 0.042680
0.000000 0.698516 0.112502
0.000000 0.698016 0.183391
0.000000 0.697511 0.255035
0.000000 0.697002 0.327264
0.000000 0.696489 0.399974
0.000000 0.695974 0.473092
0.000000 0.695456 0.546563
0.000000 0.694936 0.620348
0.000000 0.694414 0.694414
0.000000 0.693890 0.768734
0.000000 0.693364 0.843288
0.000000 0.692837 0.918058
0.000000 0.692308 0.993027
0.000000 0.691929 1.000000
0.000000 0.769336 0.000000
0.000000 0.769142 0.000000
0.000000 0.768663 0.037490
0.000000 0.768171 0.107312
0.000000 0.767671 0.178201
0.000000 0.767166 0.249845
0.000000 0.766657 0.322074
0.000000 0.766144 0.394784
0.000000 0.765628 0.467902
0.000000 0.765111 0.541373
0.000000 0.764590 0.615158
0.000000 0.764068 0.689224
0.000000 0.763544 0.763544
0.000000 0.763019 0.838098
0.000000 0.762492 0.912868
0.000000 0.761963 0.987837
0.000000 0.761584 1.000000
0.000000 0.839209 0.000000
0.000000 0.839015 0.000000
0.000000 0.838536 0.032283
0.000000 0.838044 0.102106
0.000000 0.837544 0.172995
0.000000 0.837039 0.244638
0.000000 0.836530 0.316868
0.000000 0.836017 0.389578
0.000000 0.835502 0.462695
0.000000 0.834984 0.536167
0.000000 0.834464 0.609951
0.000000 0.833942 0.684017
0.000000 0.833418 0.758338
0.000000 0.832892 0.832892
0.000000 0.832365 0.907661
0.000000 0.831836 0.982630
0.000000 0.831457 1.000000
0.000000 0.909284 0.000000
0.000000 0.909090 0.000000
0.000000 0.908611 0.027062
0.000000 0.908119 0.096884
0.000000 0.907619 0.167773
0.000000 0.907114 0.239417
0.000000 0.906605 0.311647
0.000000 0.906092 0.384356
0.000000 0.905577 0.457474
0.000000 0.905059 0.530945
0.000000 0.904539 0.604730
0.000000 0.904017 0.678796
0.000000 0.903493 0.753117
0.000000 0.902967 0.827671
0.000000 0.902440 0.902440
0.000000 0.901911 0.977409
0.000000 0.901532 1.000000
0.000000 0.979546 0.000000
0.000000 0.979352 0.000000
0.000000 0.978873 0.021826
0.000000 0.978381 0.091649
0.000000 0.977881 0.162538
0.000000 0.977376 0.234182
0.000000 0.976867 0.306411
0.000000 0.976355 0.379121
0.000000 0.975839 0.452238
0.000000 0.975321 0.525710
0.000000 0.974801 0.599495
0.000000 0.974279 0.673560
0.000000 0.973755 0.747881
0.000000 0.973229 0.822435
0.000000 0.972702 0.897205
0.000000 0.972174 0.972174
0.000000 0.971794 1.000000
0.000000 1.000000 0.000000
0.000000 1.000000 0.000000
0.000000 1.000000 0.018066
0.000000 1.000000 0.087889
0.000000 1.000000 0.158778
0.000000 1.000000 0.230422
0.000000 1.000000 0.302651
0.000000 1.000000 0.375361
0.000000 1.000000 0.448479
0.000000 1.000000 0.521950
0.000000 1.000000 0.595735
0.000000 1.000000 0.669800
0.000000 1.000000 0.744121
0.000000 1.000000 0.818675
0.000000 1.000000 0.893445
0.000000 1.000000 0.968414
0.000000 1.000000 1.000000
0.094119 0.000000 0.000000
0.093925 0.000000 0.025522
0.093446 0.000000 0.093446
0.092954 0.000000 0.163269
0.092454 0.000000 0.234158
0.091949 0.000000 0.305802
0.091440 0.000000 0.378031
0.090928 0.000000 0.450741
0.090412 0.000000 0.523858
0.089894 0.000000 0.597330
0.089374 0.000000 0.671115
0.088852 0.000000 0.745180
0.088328 0.000000 0.819501
0.087802 0.000000 0.894055
0.087275 0.000000 0.968825
0.086747 0.000000 1.000000
0.086367 0.000000 1.000000
0.092198 0.023795 0.000000
0.092005 0.023601 0.023601
0.091526 0.023122 0.091526
0.091034 0.022630 0.161348
0.090534 0.022130 0.232237
0.090029 0.021625 0.303881
0.089519 0.021116 0.376111
0.089007 0.020603 0.448820
0.088491 0.020088 0.521938
0.087973 0.019570 0.595409
0.087453 0.019050 0.669194
0.086931 0.018528 0.743260
0.086407 0.018004 0.817581
0.085882 0.017478 0.892135
0.085355 0.016951 0.966904
0.084826 0.016422 1.000000
0.084446 0.016043 1.000000
0.087455 0.087455 0.000000
0.087261 0.087261 0.018858
0.086782 0.086782 0.086782
0.086290 0.086290 0.156605
0.085790 0.085790 0.227494
0.085285 0.085285 0.299138
0.084776 0.084776 0.371367
0.084263 0.084263 0.444077
0.083748 0.083748 0.517194
0.083230 0.083230 0.590666
0.082710 0.082710 0.664451
0.082188 0.082188 0.738516
0.081664 0.081664 0.812837
0.081138 0.081138 0.887391
0.080611 0.080611 0.962161
0.080083 0.080083 1.000000
0.079703 0.079703 1.000000
0.082579 0.152894 0.000000
0.082385 0.152700 0.013982
0.081906 0.152221 0.081906
0.081414 0.151729 0.151729
0.080914 0.151229 0.222618
0.080409 0.150724 0.294262
0.079900 0.150215 0.366491
0.079388 0.149702 0.439201
0.078872 0.149187 0.512318
0.078354 0.148669 0.585790
0.077834 0.148149 0.659575
0.077312 0.147626 0.733640
0.076788 0.147103 0.807961
0.076262 0.146577 0.882515
0.075735 0.146050 0.957285
0.075207 0.145521 1.000000
0.074827 0.145142 1.000000
0.077629 0.219332 0.000000
0.077435 0.219138 0.009031
0.076956 0.218660 0.076956
0.076464 0.218167 0.146778
0.075964 0.217668 0.217668
0.075459 0.217163 0.289311
0.074950 0.216653 0.361541
0.074437 0.216141 0.434251
0.073922 0.215625 0.507368
0.073404 0.215107 0.580839
0.072884 0.214587 0.654624
0.072361 0.214065 0.728690
0.071837 0.213541 0.803011
0.071312 0.213016 0.877565
0.070785 0.212488 0.952334
0.070256 0.211960 1.000000
0.069877 0.211580 1.000000
0.072626 0.286478 0.000000
0.072432 0.286284 0.004028
0.071953 0.285805 0.071953
0.071461 0.285313 0.141775
0.070961 0.284813 0.212665
0.070456 0.284308 0.284308
0.069947 0.283799 0.356538
0.069434 0.283286 0.429248
0.068919 0.282771 0.502365
0.068401 0.282253 0.575836
0.067880 0.281733 0.649621
0.067358 0.281211 0.723687
0.066834 0.280687 0.798008
0.066309 0.280161 0.872562
0.065782 0.279634 0.947331
0.065253 0.279105 1.000000
0.064874 0.278726 1.000000
0.067582 0.354173 0.000000
0.067388 0.353979 0.000000
0.066909 0.353500 0.066909
0.066417 0.353008 0.136731
0.065917 0.352508 0.207621
0.065412 0.352003 0.279264
0.064903 0.351494 0.351494
0.064390 0.350981 0.424204
0.063875 0.350466 0.497321
0.063357 0.349948 0.570792
0.062836 0.349427 0.644577
0.062314 0.348905 0.718643
0.061790 0.348381 0.792964
0.061265 0.347856 0.867518
0.060738 0.347329 0.942287
0.060209 0.346800 1.000000
0.059830 0.346421 1.000000
0.062504 0.422318 0.000000
0.062310 0.422124 0.000000
0.061831 0.421645 0.061831
0.061339 0.421153 0.131654
0.060839 0.420653 0.202543
0.060334 0.420148 0.274186
0.059825 0.419639 0.346416
0.059312 0.419126 0.419126
0.058797 0.418611 0.492243
0.058279 0.418093 0.565715
0.057759 0.417572 0.639499
0.057237 0.417050 0.713565
0.056713 0.416526 0.787886
0.056187 0.416001 0.862440
0.055660 0.415474 0.937209
0.055132 0.414945 1.000000
0.054752 0.414566 1.000000
0.057398 0.490844 0.000000
0.057204 0.490650 0.000000
0.056725 0.490172 0.056725
0.056233 0.489679 0.126548
0.055733 0.489180 0.197437
0.055228 0.488675 0.269080
0.054719 0.488165 0.341310
0.054206 0.487653 0.414020
0.053691 0.487137 0.487137
0.053173 0.486619 0.560609
0.052653 0.486099 0.634393
0.052131 0.485577 0.708459
0.051607 0.485053 0.782780
0.051081 0.484527 0.857334
0.050554 0.484000 0.932103
0.050026 0.483472 1.000000
0.049646 0.483092 1.000000
0.052267 0.559703 0.000000
0.052073 0.559509 0.000000
0.051594 0.559030 0.051594
0.051102 0.558538 0.121417
0.050602 0.558038 0.192306
0.050097 0.557533 0.263950
0.049588 0.557024 0.336179
0.049076 0.556511 0.408889
0.048560 0.555996 0.482007
0.048042 0.555478 0.555478
0.047522 0.554958 0.629263
0.047000 0.554436 0.703328
0.046476 0.553912 0.777649
0.045950 0.553386 0.852203
0.045423 0.552859 0.926973
0.044895 0.552330 1.000000
0.044515 0.551951 1.000000
0.047115 0.628855 0.000000
0.046921 0.628661 0.000000
0.046442 0.628182 0.046442
0.045950 0.627690 0.116264
0.045450 0.627190 0.187154
0.044945 0.626685 0.258797
0.044436 0.626176 0.331027
0.043923 0.625664 0.403737
0.043408 0.625148 0.476854
0.042890 0.624630 0.550325
0.042369 0.624110 0.624110
0.041847 0.623588 0.698176
0.041323 0.623064 0.772497
0.040798 0.622538 0.847051
0.040271 0.622011 0.921820
0.039742 0.621483 0.996789
0.039363 0.621103 1.000000
0.041942 0.698271 0.000000
0.041748 0.698077 0.000000
0.041270 0.697598 0.041270
0.040777 0.697106 0.111092
0.040278 0.696606 0.181981
0.039773 0.696101 0.253625
0.039263 0.695592 0.325854
0.038751 0.695079 0.398564
0.038235 0.694564 0.471682
0.037717 0.694046 0.545153
0.037197 0.693526 0.618938
0.036675 0.693004 0.693004
0.036151 0.692480 0.767324
0.035625 0.691954 0.841878
0.035098 0.691427 0.916648
0.034570 0.690898 0.991617
0.034190 0.690519 1.000000
0.036752 0.767925 0.000000
0.036558 0.767732 0.000000
0.036079 0.767253 0.036079
0.035587 0.766761 0.105902
0.035088 0.766261 0.176791
0.034582 0.765756 0.248435
0.034073 0.765247 0.320664
0.033561 0.764734 0.393374
0.033045 0.764218 0.466492
0.032527 0.763701 0.539963
0.032007 0.763180 0.613748
0.031485 0.762658 0.687814
0.030961 0.762134 0.762134
0.030435 0.761609 0.836688
0.029908 0.761082 0.911458
0.029380 0.760553 0.986427
0.029000 0.760173 1.000000
0.031546 0.837799 0.000000
0.031352 0.837605 0.000000
0.030873 0.837126 0.030873
0.030381 0.836634 0.100696
0.029881 0.836134 0.171585
0.029376 0.835629 0.243228
0.028867 0.835120 0.315458
0.028354 0.834607 0.388168
0.027839 0.834092 0.461285
0.027321 0.833574 0.534757
0.026801 0.833054 0.608541
0.026279 0.832532 0.682607
0.025755 0.832008 0.756928
0.025229 0.831482 0.831482
0.024702 0.830955 0.906251
0.024173 0.830426 0.981220
0.023794 0.830047 1.000000
0.026324 0.907874 0.000000
0.026131 0.907680 0.000000
0.025652 0.907201 0.025652
0.025160 0.906709 0.095474
0.024660 0.906209 0.166363
0.024155 0.905704 0.238007
0.023645 0.905195 0.310237
0.023133 0.904682 0.382946
0.022617 0.904167 0.456064
0.022099 0.903649 0.529535
0.021579 0.903129 0.603320
0.021057 0.902607 0.677386
0.020533 0.902083 0.751707
0.020008 0.901557 0.826261
0.019481 0.901030 0.901030
0.018952 0.900501 0.975999
0.018572 0.900122 1.000000
0.021089 0.978136 0.000000
0.020895 0.977942 0.000000
0.020416 0.977463 0.020416
0.019924 0.976971 0.090239
0.019424 0.976471 0.161128
0.018919 0.975966 0.232772
0.018410 0.975457 0.305001
0.017898 0.974945 0.377711
0.017382 0.974429 0.450828
0.016864 0.973911 0.524300
0.016344 0.973391 0.598085
0.015822 0.972869 0.672150
0.015298 0.972345 0.746471
0.014772 0.971819 0.821025
0.014245 0.971292 0.895795
0.013717 0.970764 0.970764
0.013337 0.970384 1.000000
0.017329 1.000000 0.000000
0.017135 1.000000 0.000000
0.016656 1.000000 0.016656
0.016164 1.000000 0.086479
0.015664 1.000000 0.157368
0.015159 1.000000 0.229012
0.014650 1.000000 0.301241
0.014138 1.000000 0.373951
0.013622 1.000000 0.447069
0.013104 1.000000 0.520540
0.012584 1.000000 0.594325
0.012062 1.000000 0.668390
0.011538 1.000000 0.742711
0.011012 1.000000 0.817265
0.010485 1.000000 0.892035
0.009957 1.000000 0.967004
0.009577 1.000000 1.000000
0.162984 0.000000 0.000000
0.162790 0.000000 0.024072
0.162312 0.000000 0.091997
0.161819 0.000000 0.161819
0.161320 0.000000 0.232709
0.160815 0.000000 0.304352
0.160305 0.000000 0.376582
0.159793 0.000000 0.449292
0.159277 0.000000 0.522409
0.158759 0.000000 0.595880
0.158239 0.000000 0.669665
0.157717 0.000000 0.743731
0.157193 0.000000 0.818052
0.156667 0.000000 0.892606
0.156140 0.000000 0.967375
0.155612 0.000000 1.000000
0.155232 0.000000 1.000000
0.161064 0.022345 0.000000
