skills/editops-orchestrator/assets/grade/luts/trailer_punch_v15.cube
TITLE "trailer_punch_v15"
LUT_3D_SIZE 5
DOMAIN_MIN 0.0 0.0 0.0
DOMAIN_MAX 1.0 1.0 1.0
0.000000 0.000000 0.000000
0.000000 0.000000 0.219803
0.000000 0.000000 0.542474
0.000000 0.000000 0.877969
0.000000 0.000000 1.000000
0.000000 0.196706 0.000000
0.000000 0.194112 0.194112
0.000000 0.190305 0.516783
0.000000 0.186346 0.852278
0.000000 0.182798 1.000000
0.000000 0.485470 0.000000
0.000000 0.482876 0.156398
0.000000 0.479069 0.479069
0.000000 0.475110 0.814564
0.000000 0.471562 1.000000
0.000000 0.785710 0.000000
0.000000 0.783117 0.117185
0.000000 0.779310 0.439856
0.000000 0.775351 0.775351
0.000000 0.771802 1.000000
0.000000 1.000000 0.000000
0.000000 1.000000 0.082033
0.000000 1.000000 0.404703
0.000000 1.000000 0.740199
0.000000 1.000000 1.000000
0.214760 0.000000 0.000000
0.212166 0.000000 0.212166
0.208359 0.000000 0.534837
0.204400 0.000000 0.870332
0.200852 0.000000 1.000000
0.189069 0.189069 0.000000
0.186475 0.186475 0.186475
0.182668 0.182668 0.509146
0.178710 0.178710 0.844641
0.175161 0.175161 1.000000
0.151355 0.477833 0.000000
0.148761 0.475239 0.148761
0.144954 0.471432 0.471432
0.140996 0.467473 0.806927
0.137447 0.463925 1.000000
0.112142 0.778074 0.000000
0.109548 0.775480 0.109548
0.105741 0.771673 0.432219
0.101783 0.767714 0.767714
0.098234 0.764166 1.000000
0.076990 1.000000 0.000000
0.074396 1.000000 0.074396
0.070589 1.000000 0.397067
0.066630 1.000000 0.732562
0.063082 1.000000 1.000000
0.530027 0.000000 0.000000
0.527433 0.000000 0.200955
0.523626 0.000000 0.523626
0.519667 0.000000 0.859121
0.516119 0.000000 1.000000
0.504336 0.177858 0.000000
0.501742 0.175265 0.175265
0.497935 0.171457 0.497935
0.493977 0.167499 0.833430
0.490428 0.163950 1.000000
0.466622 0.466622 0.000000
0.464028 0.464028 0.137551
0.460221 0.460221 0.460221
0.456263 0.456263 0.795716
0.452714 0.452714 1.000000
0.427409 0.766863 0.000000
0.424815 0.764269 0.098338
0.421008 0.760462 0.421008
0.417050 0.756503 0.756503
0.413501 0.752955 1.000000
0.392257 1.000000 0.000000
0.389663 1.000000 0.063185
0.385856 1.000000 0.385856
0.381897 1.000000 0.721351
0.378349 1.000000 1.000000
0.857824 0.000000 0.000000
0.855230 0.000000 0.189299
0.851423 0.000000 0.511969
0.847465 0.000000 0.847465
0.843916 0.000000 1.000000
0.832133 0.166202 0.000000
0.829540 0.163608 0.163608
0.825733 0.159801 0.486279
0.821774 0.155842 0.821774
0.818225 0.152294 1.000000
0.794419 0.454965 0.000000
0.791826 0.452372 0.125894
0.788019 0.448565 0.448565
0.784060 0.444606 0.784060
0.780511 0.441057 1.000000
0.755206 0.755206 0.000000
0.752613 0.752613 0.086681
0.748806 0.748806 0.409352
0.744847 0.744847 0.744847
0.741298 0.741298 1.000000
0.720054 1.000000 0.000000
0.717460 1.000000 0.051529
0.713653 1.000000 0.374199
0.709695 1.000000 0.709695
0.706146 1.000000 1.000000
1.000000 0.000000 0.000000
1.000000 0.000000 0.178849
1.000000 0.000000 0.501520
1.000000 0.000000 0.837015
1.000000 0.000000 1.000000
1.000000 0.155752 0.000000
1.000000 0.153159 0.153159
1.000000 0.149351 0.475829
1.000000 0.145393 0.811325
1.000000 0.141844 1.000000
1.000000 0.444516 0.000000
1.000000 0.441923 0.115445
1.000000 0.438115 0.438115
1.000000 0.434157 0.773611
1.000000 0.430608 1.000000
1.000000 0.744757 0.000000
1.000000 0.742163 0.076232
1.000000 0.738356 0.398902
1.000000 0.734398 0.734398
1.000000 0.730849 1.000000
1.000000 1.000000 0.000000
1.000000 1.000000 0.041079
1.000000 1.000000 0.363750
1.000000 1.000000 0.699245
1.000000 1.000000 1.000000
