skills/editops-orchestrator/assets/grade/luts/trailer_punch_v15.cube
TITLE "trailer_punch_v15"
LUT_3D_SIZE 9
DOMAIN_MIN 0.0 0.0 0.0
DOMAIN_MAX 1.0 1.0 1.0
0.000000 0.000000 0.000000
0.000000 0.000000 0.067870
0.000000 0.000000 0.219803
0.000000 0.000000 0.379006
0.000000 0.000000 0.542474
0.000000 0.000000 0.709013
0.000000 0.000000 0.877969
0.000000 0.000000 1.000000
0.000000 0.000000 1.000000
0.000000 0.060738 0.000000
0.000000 0.059937 0.059937
0.000000 0.058144 0.211870
0.000000 0.056266 0.371073
0.000000 0.054337 0.534541
0.000000 0.052372 0.701081
0.000000 0.050378 0.870036
0.000000 0.048361 1.000000
0.000000 0.046830 1.000000
0.000000 0.196706 0.000000
0.000000 0.195905 0.042179
0.000000 0.194112 0.194112
0.000000 0.192234 0.353315
0.000000 0.190305 0.516783
0.000000 0.188340 0.683323
0.000000 0.186346 0.852278
0.000000 0.184329 1.000000
0.000000 0.182798 1.000000
0.000000 0.339179 0.000000
0.000000 0.338378 0.023571
0.000000 0.336586 0.175504
0.000000 0.334707 0.334707
0.000000 0.332778 0.498175
0.000000 0.330813 0.664715
0.000000 0.328820 0.833670
0.000000 0.326803 1.000000
0.000000 0.325271 1.000000
0.000000 0.485470 0.000000
0.000000 0.484669 0.004465
0.000000 0.482876 0.156398
0.000000 0.480998 0.315601
0.000000 0.479069 0.479069
0.000000 0.477104 0.645609
0.000000 0.475110 0.814564
0.000000 0.473093 0.985516
0.000000 0.471562 1.000000
0.000000 0.634509 0.000000
0.000000 0.633708 0.000000
0.000000 0.631916 0.136933
0.000000 0.630037 0.296136
0.000000 0.628108 0.459603
0.000000 0.626143 0.626143
0.000000 0.624150 0.795099
0.000000 0.622133 0.966050
0.000000 0.620601 1.000000
0.000000 0.785710 0.000000
0.000000 0.784910 0.000000
0.000000 0.783117 0.117185
0.000000 0.781238 0.276388
0.000000 0.779310 0.439856
0.000000 0.777345 0.606396
0.000000 0.775351 0.775351
0.000000 0.773334 0.946303
0.000000 0.771802 1.000000
0.000000 0.938698 0.000000
0.000000 0.937897 0.000000
0.000000 0.936105 0.097204
0.000000 0.934226 0.256407
0.000000 0.932297 0.419875
0.000000 0.930332 0.586415
0.000000 0.928339 0.755370
0.000000 0.926322 0.926322
0.000000 0.924790 1.000000
0.000000 1.000000 0.000000
0.000000 1.000000 0.000000
0.000000 1.000000 0.082033
0.000000 1.000000 0.241235
0.000000 1.000000 0.404703
0.000000 1.000000 0.571243
0.000000 1.000000 0.740199
0.000000 1.000000 0.911150
0.000000 1.000000 1.000000
0.066312 0.000000 0.000000
0.065512 0.000000 0.065512
0.063719 0.000000 0.217445
0.061840 0.000000 0.376648
0.059912 0.000000 0.540115
0.057947 0.000000 0.706655
0.055953 0.000000 0.875611
0.053936 0.000000 1.000000
0.052404 0.000000 1.000000
0.058380 0.058380 0.000000
0.057579 0.057579 0.057579
0.055786 0.055786 0.209512
0.053908 0.053908 0.368715
0.051979 0.051979 0.532183
0.050014 0.050014 0.698723
0.048020 0.048020 0.867678
0.046003 0.046003 1.000000
0.044472 0.044472 1.000000
0.040622 0.194348 0.000000
0.039821 0.193547 0.039821
0.038028 0.191754 0.191754
0.036150 0.189876 0.350957
0.034221 0.187947 0.514425
0.032256 0.185982 0.680965
0.030262 0.183988 0.849920
0.028245 0.181971 1.000000
0.026714 0.180440 1.000000
0.022014 0.336821 0.000000
0.021213 0.336020 0.021213
0.019420 0.334228 0.173146
0.017542 0.332349 0.332349
0.015613 0.330420 0.495817
0.013648 0.328455 0.662357
0.011655 0.326462 0.831312
0.009638 0.324445 1.000000
0.008106 0.322913 1.000000
0.002908 0.483111 0.000000
0.002107 0.482311 0.002107
0.000314 0.480518 0.154040
0.000000 0.478640 0.313243
0.000000 0.476711 0.476711
0.000000 0.474746 0.643251
0.000000 0.472752 0.812206
0.000000 0.470735 0.983158
0.000000 0.469203 1.000000
0.000000 0.632151 0.000000
0.000000 0.631350 0.000000
0.000000 0.629558 0.134575
0.000000 0.627679 0.293777
0.000000 0.625750 0.457245
0.000000 0.623785 0.623785
0.000000 0.621792 0.792741
0.000000 0.619775 0.963692
0.000000 0.618243 1.000000
0.000000 0.783352 0.000000
0.000000 0.782552 0.000000
0.000000 0.780759 0.114827
0.000000 0.778880 0.274030
0.000000 0.776952 0.437498
0.000000 0.774987 0.604038
0.000000 0.772993 0.772993
0.000000 0.770976 0.943945
0.000000 0.769444 1.000000
0.000000 0.936340 0.000000
0.000000 0.935539 0.000000
0.000000 0.933747 0.094846
0.000000 0.931868 0.254049
0.000000 0.929939 0.417517
0.000000 0.927974 0.584057
0.000000 0.925981 0.753012
0.000000 0.923964 0.923964
0.000000 0.922432 1.000000
0.000000 1.000000 0.000000
0.000000 1.000000 0.000000
0.000000 1.000000 0.079675
0.000000 1.000000 0.238877
0.000000 1.000000 0.402345
0.000000 1.000000 0.568885
0.000000 1.000000 0.737841
0.000000 1.000000 0.908792
0.000000 1.000000 1.000000
0.214760 0.000000 0.000000
0.213959 0.000000 0.060233
0.212166 0.000000 0.212166
0.210288 0.000000 0.371369
0.208359 0.000000 0.534837
0.206394 0.000000 0.701377
0.204400 0.000000 0.870332
0.202383 0.000000 1.000000
0.200852 0.000000 1.000000
0.206827 0.053101 0.000000
0.206026 0.052300 0.052300
0.204233 0.050508 0.204233
0.202355 0.048629 0.363436
0.200426 0.046700 0.526904
0.198461 0.044735 0.693444
0.196468 0.042742 0.862399
0.194451 0.040725 1.000000
0.192919 0.039193 1.000000
0.189069 0.189069 0.000000
0.188268 0.188268 0.034542
0.186475 0.186475 0.186475
0.184597 0.184597 0.345678
0.182668 0.182668 0.509146
0.180703 0.180703 0.675686
0.178710 0.178710 0.844641
0.176692 0.176692 1.000000
0.175161 0.175161 1.000000
0.170461 0.331542 0.000000
0.169660 0.330741 0.015934
0.167868 0.328949 0.167868
0.165989 0.327070 0.327070
0.164060 0.325142 0.490538
0.162095 0.323176 0.657078
0.160102 0.321183 0.826033
0.158085 0.319166 0.996985
0.156553 0.317634 1.000000
0.151355 0.477833 0.000000
0.150554 0.477032 0.000000
0.148761 0.475239 0.148761
0.146883 0.473361 0.307964
0.144954 0.471432 0.471432
0.142989 0.469467 0.637972
0.140996 0.467473 0.806927
0.138978 0.465456 0.977879
0.137447 0.463925 1.000000
0.131890 0.626872 0.000000
0.131089 0.626072 0.000000
0.129296 0.624279 0.129296
0.127418 0.622400 0.288499
0.125489 0.620472 0.451967
0.123524 0.618507 0.618507
0.121530 0.616513 0.787462
0.119513 0.614496 0.958414
0.117982 0.612964 1.000000
0.112142 0.778074 0.000000
0.111341 0.777273 0.000000
0.109548 0.775480 0.109548
0.107670 0.773602 0.268751
0.105741 0.771673 0.432219
0.103776 0.769708 0.598759
0.101783 0.767714 0.767714
0.099766 0.765697 0.938666
0.098234 0.764166 1.000000
0.092161 0.931061 0.000000
0.091360 0.930261 0.000000
0.089568 0.928468 0.089568
0.087689 0.926589 0.248770
0.085760 0.924661 0.412238
0.083795 0.922696 0.578778
0.081802 0.920702 0.747733
0.079785 0.918685 0.918685
0.078253 0.917153 1.000000
0.076990 1.000000 0.000000
0.076189 1.000000 0.000000
0.074396 1.000000 0.074396
0.072518 1.000000 0.233599
0.070589 1.000000 0.397067
0.068624 1.000000 0.563607
0.066630 1.000000 0.732562
0.064613 1.000000 0.903513
0.063082 1.000000 1.000000
0.370309 0.000000 0.000000
0.369509 0.000000 0.054702
0.367716 0.000000 0.206635
0.365837 0.000000 0.365837
0.363909 0.000000 0.529305
0.361944 0.000000 0.695845
0.359950 0.000000 0.864801
0.357933 0.000000 1.000000
0.356401 0.000000 1.000000
0.362377 0.047570 0.000000
0.361576 0.046769 0.046769
0.359783 0.044976 0.198702
0.357905 0.043098 0.357905
0.355976 0.041169 0.521373
0.354011 0.039204 0.687913
0.352017 0.037210 0.856868
0.350000 0.035193 1.000000
0.348469 0.033662 1.000000
0.344619 0.183538 0.000000
0.343818 0.182737 0.029011
0.342025 0.180944 0.180944
0.340147 0.179066 0.340147
0.338218 0.177137 0.503615
0.336253 0.175172 0.670155
0.334259 0.173178 0.839110
0.332242 0.171161 1.000000
0.330711 0.169630 1.000000
0.326011 0.326011 0.000000
0.325210 0.325210 0.010403
0.323417 0.323417 0.162336
0.321539 0.321539 0.321539
0.319610 0.319610 0.485007
0.317645 0.317645 0.651547
0.315652 0.315652 0.820502
0.313635 0.313635 0.991454
0.312103 0.312103 1.000000
0.306905 0.472301 0.000000
0.306104 0.471501 0.000000
0.304311 0.469708 0.143230
0.302433 0.467829 0.302433
0.300504 0.465901 0.465901
0.298539 0.463936 0.632441
0.296545 0.461942 0.801396
0.294528 0.459925 0.972348
0.292997 0.458393 1.000000
0.287439 0.621341 0.000000
0.286639 0.620540 0.000000
0.284846 0.618748 0.123765
0.282967 0.616869 0.282967
0.281039 0.614940 0.446435
0.279074 0.612975 0.612975
0.277080 0.610982 0.781931
0.275063 0.608965 0.952882
0.273531 0.607433 1.000000
0.267692 0.772542 0.000000
0.266891 0.771741 0.000000
0.265098 0.769949 0.104017
0.263220 0.768070 0.263220
0.261291 0.766142 0.426688
0.259326 0.764176 0.593228
0.257332 0.762183 0.762183
0.255315 0.760166 0.933135
0.253784 0.758634 1.000000
0.247711 0.925530 0.000000
0.246910 0.924729 0.000000
0.245117 0.922937 0.084036
0.243239 0.921058 0.243239
0.241310 0.919129 0.406707
0.239345 0.917164 0.573247
0.237351 0.915171 0.742202
0.235334 0.913154 0.913154
0.233803 0.911622 1.000000
0.232539 1.000000 0.000000
0.231738 1.000000 0.000000
0.229946 1.000000 0.068865
0.228067 1.000000 0.228067
0.226139 1.000000 0.391535
0.224173 1.000000 0.558075
0.222180 1.000000 0.727030
0.220163 1.000000 0.897982
0.218631 1.000000 1.000000
0.530027 0.000000 0.000000
0.529226 0.000000 0.049022
0.527433 0.000000 0.200955
0.525555 0.000000 0.360158
0.523626 0.000000 0.523626
0.521661 0.000000 0.690166
0.519667 0.000000 0.859121
0.517650 0.000000 1.000000
0.516119 0.000000 1.000000
0.522094 0.041890 0.000000
0.521293 0.041089 0.041089
0.519500 0.039297 0.193023
0.517622 0.037418 0.352225
0.515693 0.035489 0.515693
0.513728 0.033524 0.682233
0.511735 0.031531 0.851188
0.509718 0.029514 1.000000
0.508186 0.027982 1.000000
0.504336 0.177858 0.000000
0.503535 0.177057 0.023331
0.501742 0.175265 0.175265
0.499864 0.173386 0.334467
0.497935 0.171457 0.497935
0.495970 0.169492 0.664475
0.493977 0.167499 0.833430
0.491959 0.165482 1.000000
0.490428 0.163950 1.000000
0.485728 0.320331 0.000000
0.484927 0.319531 0.004724
0.483135 0.317738 0.156657
0.481256 0.315859 0.315859
0.479327 0.313931 0.479327
0.477362 0.311966 0.645867
0.475369 0.309972 0.814823
0.473352 0.307955 0.985774
0.471820 0.306423 1.000000
0.466622 0.466622 0.000000
0.465821 0.465821 0.000000
0.464028 0.464028 0.137551
0.462150 0.462150 0.296753
0.460221 0.460221 0.460221
0.458256 0.458256 0.626761
0.456263 0.456263 0.795716
0.454245 0.454245 0.966668
0.452714 0.452714 1.000000
0.447157 0.615662 0.000000
0.446356 0.614861 0.000000
0.444563 0.613068 0.118085
0.442685 0.611190 0.277288
0.440756 0.609261 0.440756
0.438791 0.607296 0.607296
0.436797 0.605302 0.776251
0.434780 0.603285 0.947203
0.433249 0.601754 1.000000
0.427409 0.766863 0.000000
0.426608 0.766062 0.000000
0.424815 0.764269 0.098338
0.422937 0.762391 0.257540
0.421008 0.760462 0.421008
0.419043 0.758497 0.587548
0.417050 0.756503 0.756503
0.415033 0.754486 0.927455
0.413501 0.752955 1.000000
0.407428 0.919851 0.000000
0.406627 0.919050 0.000000
0.404835 0.917257 0.078357
0.402956 0.915379 0.237559
0.401027 0.913450 0.401027
0.399062 0.911485 0.567567
0.397069 0.909491 0.736522
0.395052 0.907474 0.907474
0.393520 0.905943 1.000000
0.392257 1.000000 0.000000
0.391456 1.000000 0.000000
0.389663 1.000000 0.063185
0.387785 1.000000 0.222388
0.385856 1.000000 0.385856
0.383891 1.000000 0.552396
0.381897 1.000000 0.721351
0.379880 1.000000 0.892303
0.378349 1.000000 1.000000
0.692745 0.000000 0.000000
0.691945 0.000000 0.043236
0.690152 0.000000 0.195169
0.688273 0.000000 0.354372
0.686345 0.000000 0.517840
0.684380 0.000000 0.684380
0.682386 0.000000 0.853335
0.680369 0.000000 1.000000
0.678837 0.000000 1.000000
0.684813 0.036104 0.000000
0.684012 0.035303 0.035303
0.682219 0.033510 0.187236
0.680341 0.031632 0.346439
0.678412 0.029703 0.509907
0.676447 0.027738 0.676447
0.674453 0.025745 0.845402
0.672436 0.023727 1.000000
0.670905 0.022196 1.000000
0.667055 0.172072 0.000000
0.666254 0.171271 0.017545
0.664461 0.169478 0.169478
0.662583 0.167600 0.328681
0.660654 0.165671 0.492149
0.658689 0.163706 0.658689
0.656695 0.161712 0.827644
0.654678 0.159695 0.998596
0.653147 0.158164 1.000000
0.648447 0.314545 0.000000
0.647646 0.313744 0.000000
0.645853 0.311952 0.150871
0.643975 0.310073 0.310073
0.642046 0.308144 0.473541
0.640081 0.306179 0.640081
0.638088 0.304186 0.809036
0.636070 0.302169 0.979988
0.634539 0.300637 1.000000
0.629341 0.460836 0.000000
0.628540 0.460035 0.000000
0.626747 0.458242 0.131764
0.624869 0.456364 0.290967
0.622940 0.454435 0.454435
0.620975 0.452470 0.620975
0.618981 0.450476 0.789930
0.616964 0.448459 0.960882
0.615433 0.446928 1.000000
0.609875 0.609875 0.000000
0.609075 0.609075 0.000000
0.607282 0.607282 0.112299
0.605403 0.605403 0.271502
0.603475 0.603475 0.434970
0.601510 0.601510 0.601510
0.599516 0.599516 0.770465
0.597499 0.597499 0.941416
0.595967 0.595967 1.000000
0.590128 0.761077 0.000000
0.589327 0.760276 0.000000
0.587534 0.758483 0.092551
0.585656 0.756605 0.251754
0.583727 0.754676 0.415222
0.581762 0.752711 0.581762
0.579768 0.750717 0.750717
0.577751 0.748700 0.921669
0.576220 0.747169 1.000000
0.570147 0.914064 0.000000
0.569346 0.913263 0.000000
0.567553 0.911471 0.072570
0.565675 0.909592 0.231773
0.563746 0.907664 0.395241
0.561781 0.905698 0.561781
0.559787 0.903705 0.730736
0.557770 0.901688 0.901688
0.556239 0.900156 1.000000
0.554975 1.000000 0.000000
0.554174 1.000000 0.000000
0.552382 1.000000 0.057399
0.550503 1.000000 0.216602
0.548575 1.000000 0.380070
0.546609 1.000000 0.546609
0.544616 1.000000 0.715565
0.542599 1.000000 0.886516
0.541067 1.000000 1.000000
0.857824 0.000000 0.000000
0.857023 0.000000 0.037366
0.855230 0.000000 0.189299
0.853352 0.000000 0.348501
0.851423 0.000000 0.511969
0.849458 0.000000 0.678509
0.847465 0.000000 0.847465
0.845448 0.000000 1.000000
0.843916 0.000000 1.000000
0.849891 0.030234 0.000000
0.849091 0.029433 0.029433
0.847298 0.027640 0.181366
0.845419 0.025762 0.340569
0.843491 0.023833 0.504037
0.841526 0.021868 0.670577
0.839532 0.019874 0.839532
0.837515 0.017857 1.000000
0.835983 0.016326 1.000000
0.832133 0.166202 0.000000
0.831332 0.165401 0.011675
0.829540 0.163608 0.163608
0.827661 0.161730 0.322811
0.825733 0.159801 0.486279
0.823767 0.157836 0.652819
0.821774 0.155842 0.821774
0.819757 0.153825 0.992726
0.818225 0.152294 1.000000
0.813526 0.308675 0.000000
0.812725 0.307874 0.000000
0.810932 0.306082 0.145000
0.809054 0.304203 0.304203
0.807125 0.302274 0.467671
0.805160 0.300309 0.634211
0.803166 0.298316 0.803166
0.801149 0.296299 0.974118
0.799618 0.294767 1.000000
0.794419 0.454965 0.000000
0.793618 0.454165 0.000000
0.791826 0.452372 0.125894
0.789947 0.450494 0.285097
0.788019 0.448565 0.448565
0.786053 0.446600 0.615105
0.784060 0.444606 0.784060
0.782043 0.442589 0.955012
0.780511 0.441057 1.000000
0.774954 0.604005 0.000000
0.774153 0.603204 0.000000
0.772360 0.601412 0.106429
0.770482 0.599533 0.265631
0.768553 0.597604 0.429099
0.766588 0.595639 0.595639
0.764595 0.593646 0.764595
0.762578 0.591629 0.935546
0.761046 0.590097 1.000000
0.755206 0.755206 0.000000
0.754406 0.754406 0.000000
0.752613 0.752613 0.086681
0.750734 0.750734 0.245884
0.748806 0.748806 0.409352
0.746841 0.746841 0.575892
0.744847 0.744847 0.744847
0.742830 0.742830 0.915799
0.741298 0.741298 1.000000
0.735225 0.908194 0.000000
0.734425 0.907393 0.000000
0.732632 0.905601 0.066700
0.730753 0.903722 0.225903
0.728825 0.901793 0.389371
0.726860 0.899828 0.555911
0.724866 0.897835 0.724866
0.722849 0.895818 0.895818
0.721317 0.894286 1.000000
0.720054 1.000000 0.000000
0.719253 1.000000 0.000000
0.717460 1.000000 0.051529
0.715582 1.000000 0.210731
0.713653 1.000000 0.374199
0.711688 1.000000 0.540739
0.709695 1.000000 0.709695
0.707677 1.000000 0.880646
0.706146 1.000000 1.000000
1.000000 0.000000 0.000000
1.000000 0.000000 0.031426
1.000000 0.000000 0.183359
1.000000 0.000000 0.342562
1.000000 0.000000 0.506030
1.000000 0.000000 0.672570
1.000000 0.000000 0.841525
1.000000 0.000000 1.000000
1.000000 0.000000 1.000000
1.000000 0.024294 0.000000
1.000000 0.023493 0.023493
1.000000 0.021701 0.175427
1.000000 0.019822 0.334629
1.000000 0.017893 0.498097
1.000000 0.015928 0.664637
1.000000 0.013935 0.833592
1.000000 0.011918 1.000000
1.000000 0.010386 1.000000
0.999162 0.160262 0.000000
0.998362 0.159461 0.005735
0.996569 0.157669 0.157669
0.994690 0.155790 0.316871
0.992762 0.153861 0.480339
0.990797 0.151896 0.646879
0.988803 0.149903 0.815834
0.986786 0.147886 0.986786
0.985254 0.146354 1.000000
0.980555 0.302735 0.000000
0.979754 0.301935 0.000000
0.977961 0.300142 0.139061
0.976083 0.298264 0.298264
0.974154 0.296335 0.461731
0.972189 0.294370 0.628271
0.970195 0.292376 0.797227
0.968178 0.290359 0.968178
0.966647 0.288827 1.000000
0.961448 0.449026 0.000000
0.960648 0.448225 0.000000
0.958855 0.446432 0.119955
0.956977 0.444554 0.279157
0.955048 0.442625 0.442625
0.953083 0.440660 0.609165
0.951089 0.438667 0.778120
0.949072 0.436650 0.949072
0.947540 0.435118 1.000000
0.941983 0.598066 0.000000
0.941182 0.597265 0.000000
0.939390 0.595472 0.100489
0.937511 0.593594 0.259692
0.935582 0.591665 0.423160
0.933617 0.589700 0.589700
0.931624 0.587706 0.758655
0.929607 0.585689 0.929607
0.928075 0.584158 1.000000
0.922236 0.749267 0.000000
0.921435 0.748466 0.000000
0.919642 0.746673 0.080742
0.917764 0.744795 0.239944
0.915835 0.742866 0.403412
0.913870 0.740901 0.569952
0.911876 0.738907 0.738907
0.909859 0.736890 0.909859
0.908328 0.735359 1.000000
0.902255 0.902255 0.000000
0.901454 0.901454 0.000000
0.899661 0.899661 0.060761
0.897783 0.897783 0.219963
0.895854 0.895854 0.383431
0.893889 0.893889 0.549971
0.891895 0.891895 0.718927
0.889878 0.889878 0.889878
0.888347 0.888347 1.000000
0.887083 1.000000 0.000000
0.886282 1.000000 0.000000
0.884490 1.000000 0.045589
0.882611 1.000000 0.204792
0.880682 1.000000 0.368260
0.878717 1.000000 0.534800
0.876724 1.000000 0.703755
0.874707 1.000000 0.874707
0.873175 1.000000 1.000000
1.000000 0.000000 0.000000
1.000000 0.000000 0.026916
1.000000 0.000000 0.178849
1.000000 0.000000 0.338052
1.000000 0.000000 0.501520
1.000000 0.000000 0.668060
1.000000 0.000000 0.837015
1.000000 0.000000 1.000000
1.000000 0.000000 1.000000
1.000000 0.019784 0.000000
1.000000 0.018984 0.018984
1.000000 0.017191 0.170917
1.000000 0.015312 0.330119
1.000000 0.013384 0.493587
1.000000 0.011419 0.660127
1.000000 0.009425 0.829083
1.000000 0.007408 1.000000
1.000000 0.005876 1.000000
1.000000 0.155752 0.000000
1.000000 0.154951 0.001225
1.000000 0.153159 0.153159
1.000000 0.151280 0.312361
1.000000 0.149351 0.475829
1.000000 0.147386 0.642369
1.000000 0.145393 0.811325
1.000000 0.143376 0.982276
1.000000 0.141844 1.000000
1.000000 0.298226 0.000000
1.000000 0.297425 0.000000
1.000000 0.295632 0.134551
1.000000 0.293754 0.293754
1.000000 0.291825 0.457222
1.000000 0.289860 0.623762
1.000000 0.287866 0.792717
1.000000 0.285849 0.963668
1.000000 0.284318 1.000000
1.000000 0.444516 0.000000
1.000000 0.443715 0.000000
1.000000 0.441923 0.115445
1.000000 0.440044 0.274647
1.000000 0.438115 0.438115
1.000000 0.436150 0.604655
1.000000 0.434157 0.773611
1.000000 0.432140 0.944562
1.000000 0.430608 1.000000
1.000000 0.593556 0.000000
1.000000 0.592755 0.000000
1.000000 0.590962 0.095979
1.000000 0.589084 0.255182
1.000000 0.587155 0.418650
1.000000 0.585190 0.585190
1.000000 0.583196 0.754145
1.000000 0.581179 0.925097
1.000000 0.579648 1.000000
1.000000 0.744757 0.000000
1.000000 0.743956 0.000000
1.000000 0.742163 0.076232
1.000000 0.740285 0.235434
1.000000 0.738356 0.398902
1.000000 0.736391 0.565442
1.000000 0.734398 0.734398
1.000000 0.732381 0.905349
1.000000 0.730849 1.000000
1.000000 0.897745 0.000000
1.000000 0.896944 0.000000
1.000000 0.895151 0.056251
1.000000 0.893273 0.215453
1.000000 0.891344 0.378921
1.000000 0.889379 0.545461
1.000000 0.887385 0.714417
1.000000 0.885368 0.885368
1.000000 0.883837 1.000000
1.000000 1.000000 0.000000
1.000000 1.000000 0.000000
1.000000 1.000000 0.041079
1.000000 1.000000 0.200282
1.000000 1.000000 0.363750
1.000000 1.000000 0.530290
1.000000 1.000000 0.699245
1.000000 1.000000 0.870197
1.000000 1.000000 1.000000
