skills/editops-orchestrator/assets/grade/luts/trailer_punch_v15.cube
TITLE "trailer_punch_v15"
LUT_3D_SIZE 17
DOMAIN_MIN 0.0 0.0 0.0
DOMAIN_MAX 1.0 1.0 1.0
0.000000 0.000000 0.000000
0.000000 0.000000 0.000000
0.000000 0.000000 0.067870
0.000000 0.000000 0.142556
0.000000 0.000000 0.219803
0.000000 0.000000 0.298757
0.000000 0.000000 0.379006
0.000000 0.000000 0.460300
0.000000 0.000000 0.542474
0.000000 0.000000 0.625408
0.000000 0.000000 0.709013
0.000000 0.000000 0.793219
0.000000 0.000000 0.877969
0.000000 0.000000 0.963215
0.000000 0.000000 1.000000
0.000000 0.000000 1.000000
0.000000 0.000000 1.000000
0.000000 0.000000 0.000000
0.000000 0.000000 0.000000
0.000000 0.000000 0.067870
0.000000 0.000000 0.142556
0.000000 0.000000 0.219803
0.000000 0.000000 0.298757
0.000000 0.000000 0.379006
0.000000 0.000000 0.460300
0.000000 0.000000 0.542474
0.000000 0.000000 0.625408
0.000000 0.000000 0.709013
0.000000 0.000000 0.793219
0.000000 0.000000 0.877969
0.000000 0.000000 0.963215
0.000000 0.000000 1.000000
0.000000 0.000000 1.000000
0.000000 0.000000 1.000000
0.000000 0.060738 0.000000
0.000000 0.060738 0.000000
0.000000 0.059937 0.059937
0.000000 0.059056 0.134624
0.000000 0.058144 0.211870
0.000000 0.057213 0.290825
0.000000 0.056266 0.371073
0.000000 0.055307 0.452367
0.000000 0.054337 0.534541
0.000000 0.053359 0.617475
0.000000 0.052372 0.701081
0.000000 0.051378 0.785287
0.000000 0.050378 0.870036
0.000000 0.049373 0.955283
0.000000 0.048361 1.000000
0.000000 0.047345 1.000000
0.000000 0.046830 1.000000
0.000000 0.127576 0.000000
0.000000 0.127576 0.000000
0.000000 0.126776 0.051208
0.000000 0.125894 0.125894
0.000000 0.124983 0.203141
0.000000 0.124051 0.282095
0.000000 0.123104 0.362343
0.000000 0.122145 0.443638
0.000000 0.121176 0.525811
0.000000 0.120197 0.608746
0.000000 0.119211 0.692351
0.000000 0.118217 0.776557
0.000000 0.117217 0.861307
0.000000 0.116211 0.946553
0.000000 0.115200 1.000000
0.000000 0.114184 1.000000
0.000000 0.113668 1.000000
0.000000 0.196706 0.000000
0.000000 0.196706 0.000000
0.000000 0.195905 0.042179
0.000000 0.195024 0.116866
0.000000 0.194112 0.194112
0.000000 0.193181 0.273067
0.000000 0.192234 0.353315
0.000000 0.191275 0.434609
0.000000 0.190305 0.516783
0.000000 0.189326 0.599717
0.000000 0.188340 0.683323
0.000000 0.187346 0.767528
0.000000 0.186346 0.852278
0.000000 0.185341 0.937525
0.000000 0.184329 1.000000
0.000000 0.183313 1.000000
0.000000 0.182798 1.000000
0.000000 0.267363 0.000000
0.000000 0.267363 0.000000
0.000000 0.266563 0.032951
0.000000 0.265681 0.107637
0.000000 0.264770 0.184884
0.000000 0.263838 0.263838
0.000000 0.262892 0.344087
0.000000 0.261932 0.425381
0.000000 0.260963 0.507555
0.000000 0.259984 0.590489
0.000000 0.258998 0.674094
0.000000 0.258004 0.758300
0.000000 0.257004 0.843050
0.000000 0.255998 0.928296
0.000000 0.254987 1.000000
0.000000 0.253971 1.000000
0.000000 0.253455 1.000000
0.000000 0.339179 0.000000
0.000000 0.339179 0.000000
0.000000 0.338378 0.023571
0.000000 0.337497 0.098258
0.000000 0.336586 0.175504
0.000000 0.335654 0.254459
0.000000 0.334707 0.334707
0.000000 0.333748 0.416001
0.000000 0.332778 0.498175
0.000000 0.331800 0.581110
0.000000 0.330813 0.664715
0.000000 0.329820 0.748921
0.000000 0.328820 0.833670
0.000000 0.327814 0.918917
0.000000 0.326803 1.000000
0.000000 0.325786 1.000000
0.000000 0.325271 1.000000
0.000000 0.411931 0.000000
0.000000 0.411931 0.000000
0.000000 0.411130 0.014070
0.000000 0.410249 0.088756
0.000000 0.409337 0.166003
0.000000 0.408406 0.244957
0.000000 0.407459 0.325205
0.000000 0.406499 0.406499
0.000000 0.405530 0.488673
0.000000 0.404551 0.571608
0.000000 0.403565 0.655213
0.000000 0.402571 0.739419
0.000000 0.401571 0.824169
0.000000 0.400565 0.909415
0.000000 0.399554 0.995120
0.000000 0.398538 1.000000
0.000000 0.398023 1.000000
0.000000 0.485470 0.000000
0.000000 0.485470 0.000000
0.000000 0.484669 0.004465
0.000000 0.483788 0.079152
0.000000 0.482876 0.156398
0.000000 0.481944 0.235353
0.000000 0.480998 0.315601
0.000000 0.480038 0.396895
0.000000 0.479069 0.479069
0.000000 0.478090 0.562003
0.000000 0.477104 0.645609
0.000000 0.476110 0.729815
0.000000 0.475110 0.814564
0.000000 0.474104 0.899811
0.000000 0.473093 0.985516
0.000000 0.472077 1.000000
0.000000 0.471562 1.000000
0.000000 0.559689 0.000000
0.000000 0.559689 0.000000
0.000000 0.558888 0.000000
0.000000 0.558007 0.069458
0.000000 0.557096 0.146705
0.000000 0.556164 0.225659
0.000000 0.555217 0.305907
0.000000 0.554258 0.387201
0.000000 0.553289 0.469375
0.000000 0.552310 0.552310
0.000000 0.551323 0.635915
0.000000 0.550330 0.720121
0.000000 0.549330 0.804871
0.000000 0.548324 0.890117
0.000000 0.547313 0.975822
0.000000 0.546297 1.000000
0.000000 0.545781 1.000000
0.000000 0.634509 0.000000
0.000000 0.634509 0.000000
0.000000 0.633708 0.000000
0.000000 0.632827 0.059686
0.000000 0.631916 0.136933
0.000000 0.630984 0.215887
0.000000 0.630037 0.296136
0.000000 0.629078 0.377430
0.000000 0.628108 0.459603
0.000000 0.627130 0.542538
0.000000 0.626143 0.626143
0.000000 0.625150 0.710349
0.000000 0.624150 0.795099
0.000000 0.623144 0.880345
0.000000 0.622133 0.966050
0.000000 0.621117 1.000000
0.000000 0.620601 1.000000
0.000000 0.709867 0.000000
0.000000 0.709867 0.000000
0.000000 0.709066 0.000000
0.000000 0.708184 0.049844
0.000000 0.707273 0.127091
0.000000 0.706341 0.206045
0.000000 0.705395 0.286294
0.000000 0.704435 0.367588
0.000000 0.703466 0.449761
0.000000 0.702487 0.532696
0.000000 0.701501 0.616301
0.000000 0.700507 0.700507
0.000000 0.699507 0.785257
0.000000 0.698501 0.870503
0.000000 0.697490 0.956208
0.000000 0.696474 1.000000
0.000000 0.695959 1.000000
0.000000 0.785710 0.000000
0.000000 0.785710 0.000000
0.000000 0.784910 0.000000
0.000000 0.784028 0.039939
0.000000 0.783117 0.117185
0.000000 0.782185 0.196140
0.000000 0.781238 0.276388
0.000000 0.780279 0.357682
0.000000 0.779310 0.439856
0.000000 0.778331 0.522790
0.000000 0.777345 0.606396
0.000000 0.776351 0.690602
0.000000 0.775351 0.775351
0.000000 0.774345 0.860598
0.000000 0.773334 0.946303
0.000000 0.772318 1.000000
0.000000 0.771802 1.000000
0.000000 0.861999 0.000000
0.000000 0.861999 0.000000
0.000000 0.861198 0.000000
0.000000 0.860317 0.029975
0.000000 0.859406 0.107222
0.000000 0.858474 0.186176
0.000000 0.857527 0.266424
0.000000 0.856568 0.347718
0.000000 0.855599 0.429892
0.000000 0.854620 0.512827
0.000000 0.853633 0.596432
0.000000 0.852640 0.680638
0.000000 0.851640 0.765387
0.000000 0.850634 0.850634
0.000000 0.849623 0.936339
0.000000 0.848607 1.000000
0.000000 0.848091 1.000000
0.000000 0.938698 0.000000
0.000000 0.938698 0.000000
0.000000 0.937897 0.000000
0.000000 0.937016 0.019958
0.000000 0.936105 0.097204
0.000000 0.935173 0.176159
0.000000 0.934226 0.256407
0.000000 0.933267 0.337701
0.000000 0.932297 0.419875
0.000000 0.931319 0.502810
0.000000 0.930332 0.586415
0.000000 0.929339 0.670621
0.000000 0.928339 0.755370
0.000000 0.927333 0.840617
0.000000 0.926322 0.926322
0.000000 0.925306 1.000000
0.000000 0.924790 1.000000
0.000000 1.000000 0.000000
0.000000 1.000000 0.000000
0.000000 1.000000 0.000000
0.000000 1.000000 0.009891
0.000000 1.000000 0.087137
0.000000 1.000000 0.166092
0.000000 1.000000 0.246340
0.000000 1.000000 0.327634
0.000000 1.000000 0.409808
0.000000 1.000000 0.492743
0.000000 1.000000 0.576348
0.000000 1.000000 0.660554
0.000000 1.000000 0.745303
0.000000 1.000000 0.830550
0.000000 1.000000 0.916255
0.000000 1.000000 1.000000
0.000000 1.000000 1.000000
0.000000 1.000000 0.000000
0.000000 1.000000 0.000000
0.000000 1.000000 0.000000
0.000000 1.000000 0.004786
0.000000 1.000000 0.082033
0.000000 1.000000 0.160987
0.000000 1.000000 0.241235
0.000000 1.000000 0.322529
0.000000 1.000000 0.404703
0.000000 1.000000 0.487638
0.000000 1.000000 0.571243
0.000000 1.000000 0.655449
0.000000 1.000000 0.740199
0.000000 1.000000 0.825445
0.000000 1.000000 0.911150
0.000000 1.000000 0.997280
0.000000 1.000000 1.000000
0.000000 0.000000 0.000000
0.000000 0.000000 0.000000
0.000000 0.000000 0.067870
0.000000 0.000000 0.142556
0.000000 0.000000 0.219803
0.000000 0.000000 0.298757
0.000000 0.000000 0.379006
0.000000 0.000000 0.460300
0.000000 0.000000 0.542474
0.000000 0.000000 0.625408
0.000000 0.000000 0.709013
0.000000 0.000000 0.793219
0.000000 0.000000 0.877969
0.000000 0.000000 0.963215
0.000000 0.000000 1.000000
0.000000 0.000000 1.000000
0.000000 0.000000 1.000000
0.000000 0.000000 0.000000
0.000000 0.000000 0.000000
0.000000 0.000000 0.067870
0.000000 0.000000 0.142556
0.000000 0.000000 0.219803
0.000000 0.000000 0.298757
0.000000 0.000000 0.379006
0.000000 0.000000 0.460300
0.000000 0.000000 0.542474
0.000000 0.000000 0.625408
0.000000 0.000000 0.709013
0.000000 0.000000 0.793219
0.000000 0.000000 0.877969
0.000000 0.000000 0.963215
0.000000 0.000000 1.000000
0.000000 0.000000 1.000000
0.000000 0.000000 1.000000
0.000000 0.060738 0.000000
0.000000 0.060738 0.000000
0.000000 0.059937 0.059937
0.000000 0.059056 0.134624
0.000000 0.058144 0.211870
0.000000 0.057213 0.290825
0.000000 0.056266 0.371073
0.000000 0.055307 0.452367
0.000000 0.054337 0.534541
0.000000 0.053359 0.617475
0.000000 0.052372 0.701081
0.000000 0.051378 0.785287
0.000000 0.050378 0.870036
0.000000 0.049373 0.955283
0.000000 0.048361 1.000000
0.000000 0.047345 1.000000
0.000000 0.046830 1.000000
0.000000 0.127576 0.000000
0.000000 0.127576 0.000000
0.000000 0.126776 0.051208
0.000000 0.125894 0.125894
0.000000 0.124983 0.203141
0.000000 0.124051 0.282095
0.000000 0.123104 0.362343
0.000000 0.122145 0.443638
0.000000 0.121176 0.525811
0.000000 0.120197 0.608746
0.000000 0.119211 0.692351
0.000000 0.118217 0.776557
0.000000 0.117217 0.861307
0.000000 0.116211 0.946553
0.000000 0.115200 1.000000
0.000000 0.114184 1.000000
0.000000 0.113668 1.000000
0.000000 0.196706 0.000000
0.000000 0.196706 0.000000
0.000000 0.195905 0.042179
0.000000 0.195024 0.116866
0.000000 0.194112 0.194112
0.000000 0.193181 0.273067
0.000000 0.192234 0.353315
0.000000 0.191275 0.434609
0.000000 0.190305 0.516783
0.000000 0.189326 0.599717
0.000000 0.188340 0.683323
0.000000 0.187346 0.767528
0.000000 0.186346 0.852278
0.000000 0.185341 0.937525
0.000000 0.184329 1.000000
0.000000 0.183313 1.000000
0.000000 0.182798 1.000000
0.000000 0.267363 0.000000
0.000000 0.267363 0.000000
0.000000 0.266563 0.032951
0.000000 0.265681 0.107637
0.000000 0.264770 0.184884
0.000000 0.263838 0.263838
0.000000 0.262892 0.344087
0.000000 0.261932 0.425381
0.000000 0.260963 0.507555
0.000000 0.259984 0.590489
0.000000 0.258998 0.674094
0.000000 0.258004 0.758300
0.000000 0.257004 0.843050
0.000000 0.255998 0.928296
0.000000 0.254987 1.000000
0.000000 0.253971 1.000000
0.000000 0.253455 1.000000
0.000000 0.339179 0.000000
0.000000 0.339179 0.000000
0.000000 0.338378 0.023571
0.000000 0.337497 0.098258
0.000000 0.336586 0.175504
0.000000 0.335654 0.254459
0.000000 0.334707 0.334707
0.000000 0.333748 0.416001
0.000000 0.332778 0.498175
0.000000 0.331800 0.581110
0.000000 0.330813 0.664715
0.000000 0.329820 0.748921
0.000000 0.328820 0.833670
0.000000 0.327814 0.918917
0.000000 0.326803 1.000000
0.000000 0.325786 1.000000
0.000000 0.325271 1.000000
0.000000 0.411931 0.000000
0.000000 0.411931 0.000000
0.000000 0.411130 0.014070
0.000000 0.410249 0.088756
0.000000 0.409337 0.166003
0.000000 0.408406 0.244957
0.000000 0.407459 0.325205
0.000000 0.406499 0.406499
0.000000 0.405530 0.488673
0.000000 0.404551 0.571608
0.000000 0.403565 0.655213
0.000000 0.402571 0.739419
0.000000 0.401571 0.824169
0.000000 0.400565 0.909415
0.000000 0.399554 0.995120
0.000000 0.398538 1.000000
0.000000 0.398023 1.000000
0.000000 0.485470 0.000000
0.000000 0.485470 0.000000
0.000000 0.484669 0.004465
0.000000 0.483788 0.079152
0.000000 0.482876 0.156398
0.000000 0.481944 0.235353
0.000000 0.480998 0.315601
0.000000 0.480038 0.396895
0.000000 0.479069 0.479069
0.000000 0.478090 0.562003
0.000000 0.477104 0.645609
0.000000 0.476110 0.729815
0.000000 0.475110 0.814564
0.000000 0.474104 0.899811
0.000000 0.473093 0.985516
0.000000 0.472077 1.000000
0.000000 0.471562 1.000000
0.000000 0.559689 0.000000
0.000000 0.559689 0.000000
0.000000 0.558888 0.000000
0.000000 0.558007 0.069458
0.000000 0.557096 0.146705
0.000000 0.556164 0.225659
0.000000 0.555217 0.305907
0.000000 0.554258 0.387201
0.000000 0.553289 0.469375
0.000000 0.552310 0.552310
0.000000 0.551323 0.635915
0.000000 0.550330 0.720121
0.000000 0.549330 0.804871
0.000000 0.548324 0.890117
0.000000 0.547313 0.975822
0.000000 0.546297 1.000000
0.000000 0.545781 1.000000
0.000000 0.634509 0.000000
0.000000 0.634509 0.000000
0.000000 0.633708 0.000000
0.000000 0.632827 0.059686
0.000000 0.631916 0.136933
0.000000 0.630984 0.215887
0.000000 0.630037 0.296136
0.000000 0.629078 0.377430
0.000000 0.628108 0.459603
0.000000 0.627130 0.542538
0.000000 0.626143 0.626143
0.000000 0.625150 0.710349
0.000000 0.624150 0.795099
0.000000 0.623144 0.880345
0.000000 0.622133 0.966050
0.000000 0.621117 1.000000
0.000000 0.620601 1.000000
0.000000 0.709867 0.000000
0.000000 0.709867 0.000000
0.000000 0.709066 0.000000
0.000000 0.708184 0.049844
0.000000 0.707273 0.127091
0.000000 0.706341 0.206045
0.000000 0.705395 0.286294
0.000000 0.704435 0.367588
0.000000 0.703466 0.449761
0.000000 0.702487 0.532696
0.000000 0.701501 0.616301
0.000000 0.700507 0.700507
0.000000 0.699507 0.785257
0.000000 0.698501 0.870503
0.000000 0.697490 0.956208
0.000000 0.696474 1.000000
0.000000 0.695959 1.000000
0.000000 0.785710 0.000000
0.000000 0.785710 0.000000
0.000000 0.784910 0.000000
0.000000 0.784028 0.039939
0.000000 0.783117 0.117185
0.000000 0.782185 0.196140
0.000000 0.781238 0.276388
0.000000 0.780279 0.357682
0.000000 0.779310 0.439856
0.000000 0.778331 0.522790
0.000000 0.777345 0.606396
0.000000 0.776351 0.690602
0.000000 0.775351 0.775351
0.000000 0.774345 0.860598
0.000000 0.773334 0.946303
0.000000 0.772318 1.000000
0.000000 0.771802 1.000000
0.000000 0.861999 0.000000
0.000000 0.861999 0.000000
0.000000 0.861198 0.000000
0.000000 0.860317 0.029975
0.000000 0.859406 0.107222
0.000000 0.858474 0.186176
0.000000 0.857527 0.266424
0.000000 0.856568 0.347718
0.000000 0.855599 0.429892
0.000000 0.854620 0.512827
0.000000 0.853633 0.596432
0.000000 0.852640 0.680638
0.000000 0.851640 0.765387
0.000000 0.850634 0.850634
0.000000 0.849623 0.936339
0.000000 0.848607 1.000000
0.000000 0.848091 1.000000
0.000000 0.938698 0.000000
0.000000 0.938698 0.000000
0.000000 0.937897 0.000000
0.000000 0.937016 0.019958
0.000000 0.936105 0.097204
0.000000 0.935173 0.176159
0.000000 0.934226 0.256407
0.000000 0.933267 0.337701
0.000000 0.932297 0.419875
0.000000 0.931319 0.502810
0.000000 0.930332 0.586415
0.000000 0.929339 0.670621
0.000000 0.928339 0.755370
0.000000 0.927333 0.840617
0.000000 0.926322 0.926322
0.000000 0.925306 1.000000
0.000000 0.924790 1.000000
0.000000 1.000000 0.000000
0.000000 1.000000 0.000000
0.000000 1.000000 0.000000
0.000000 1.000000 0.009891
0.000000 1.000000 0.087137
0.000000 1.000000 0.166092
0.000000 1.000000 0.246340
0.000000 1.000000 0.327634
0.000000 1.000000 0.409808
0.000000 1.000000 0.492743
0.000000 1.000000 0.576348
0.000000 1.000000 0.660554
0.000000 1.000000 0.745303
0.000000 1.000000 0.830550
0.000000 1.000000 0.916255
0.000000 1.000000 1.000000
0.000000 1.000000 1.000000
0.000000 1.000000 0.000000
0.000000 1.000000 0.000000
0.000000 1.000000 0.000000
0.000000 1.000000 0.004786
0.000000 1.000000 0.082033
0.000000 1.000000 0.160987
0.000000 1.000000 0.241235
0.000000 1.000000 0.322529
0.000000 1.000000 0.404703
0.000000 1.000000 0.487638
0.000000 1.000000 0.571243
0.000000 1.000000 0.655449
0.000000 1.000000 0.740199
0.000000 1.000000 0.825445
0.000000 1.000000 0.911150
0.000000 1.000000 0.997280
0.000000 1.000000 1.000000
0.066312 0.000000 0.000000
0.066312 0.000000 0.000000
0.065512 0.000000 0.065512
0.064630 0.000000 0.140198
0.063719 0.000000 0.217445
0.062787 0.000000 0.296399
0.061840 0.000000 0.376648
0.060881 0.000000 0.457942
0.059912 0.000000 0.540115
0.058933 0.000000 0.623050
0.057947 0.000000 0.706655
0.056953 0.000000 0.790861
0.055953 0.000000 0.875611
0.054947 0.000000 0.960857
0.053936 0.000000 1.000000
0.052920 0.000000 1.000000
0.052404 0.000000 1.000000
0.066312 0.000000 0.000000
0.066312 0.000000 0.000000
0.065512 0.000000 0.065512
0.064630 0.000000 0.140198
0.063719 0.000000 0.217445
0.062787 0.000000 0.296399
0.061840 0.000000 0.376648
0.060881 0.000000 0.457942
0.059912 0.000000 0.540115
0.058933 0.000000 0.623050
0.057947 0.000000 0.706655
0.056953 0.000000 0.790861
0.055953 0.000000 0.875611
0.054947 0.000000 0.960857
0.053936 0.000000 1.000000
0.052920 0.000000 1.000000
0.052404 0.000000 1.000000
0.058380 0.058380 0.000000
0.058380 0.058380 0.000000
0.057579 0.057579 0.057579
0.056698 0.056698 0.132266
0.055786 0.055786 0.209512
0.054855 0.054855 0.288467
0.053908 0.053908 0.368715
0.052949 0.052949 0.450009
0.051979 0.051979 0.532183
0.051000 0.051000 0.615117
0.050014 0.050014 0.698723
0.049020 0.049020 0.782929
0.048020 0.048020 0.867678
0.047015 0.047015 0.952925
0.046003 0.046003 1.000000
0.044987 0.044987 1.000000
0.044472 0.044472 1.000000
0.049650 0.125218 0.000000
0.049650 0.125218 0.000000
0.048850 0.124417 0.048850
0.047968 0.123536 0.123536
0.047057 0.122625 0.200783
0.046125 0.121693 0.279737
0.045178 0.120746 0.359985
0.044219 0.119787 0.441279
0.043250 0.118818 0.523453
0.042271 0.117839 0.606388
0.041285 0.116852 0.689993
0.040291 0.115859 0.774199
0.039291 0.114859 0.858949
0.038285 0.113853 0.944195
0.037274 0.112842 1.000000
0.036258 0.111826 1.000000
0.035742 0.111310 1.000000
0.040622 0.194348 0.000000
0.040622 0.194348 0.000000
0.039821 0.193547 0.039821
0.038940 0.192666 0.114508
0.038028 0.191754 0.191754
0.037097 0.190823 0.270709
0.036150 0.189876 0.350957
0.035191 0.188916 0.432251
0.034221 0.187947 0.514425
0.033242 0.186968 0.597359
0.032256 0.185982 0.680965
0.031262 0.184988 0.765170
0.030262 0.183988 0.849920
0.029257 0.182982 0.935167
0.028245 0.181971 1.000000
0.027229 0.180955 1.000000
0.026714 0.180440 1.000000
0.031393 0.265005 0.000000
0.031393 0.265005 0.000000
0.030593 0.264205 0.030593
0.029711 0.263323 0.105279
0.028800 0.262412 0.182526
0.027868 0.261480 0.261480
0.026921 0.260533 0.341729
0.025962 0.259574 0.423023
0.024993 0.258605 0.505196
0.024014 0.257626 0.588131
0.023028 0.256640 0.671736
0.022034 0.255646 0.755942
0.021034 0.254646 0.840692
0.020028 0.253640 0.925938
0.019017 0.252629 1.000000
0.018001 0.251613 1.000000
0.017485 0.251097 1.000000
0.022014 0.336821 0.000000
0.022014 0.336821 0.000000
0.021213 0.336020 0.021213
0.020332 0.335139 0.095900
0.019420 0.334228 0.173146
0.018489 0.333296 0.252101
0.017542 0.332349 0.332349
0.016583 0.331390 0.413643
0.015613 0.330420 0.495817
0.014635 0.329442 0.578752
0.013648 0.328455 0.662357
0.012655 0.327462 0.746563
0.011655 0.326462 0.831312
0.010649 0.325456 0.916559
0.009638 0.324445 1.000000
0.008621 0.323428 1.000000
0.008106 0.322913 1.000000
0.012512 0.409573 0.000000
0.012512 0.409573 0.000000
0.011711 0.408772 0.011711
0.010830 0.407890 0.086398
0.009919 0.406979 0.163645
0.008987 0.406047 0.242599
0.008040 0.405101 0.322847
0.007081 0.404141 0.404141
0.006112 0.403172 0.486315
0.005133 0.402193 0.569250
0.004146 0.401207 0.652855
0.003153 0.400213 0.737061
0.002153 0.399213 0.821811
0.001147 0.398207 0.907057
0.000136 0.397196 0.992762
0.000000 0.396180 1.000000
0.000000 0.395665 1.000000
0.002908 0.483111 0.000000
0.002908 0.483111 0.000000
0.002107 0.482311 0.002107
0.001226 0.481429 0.076794
0.000314 0.480518 0.154040
0.000000 0.479586 0.232995
0.000000 0.478640 0.313243
0.000000 0.477680 0.394537
0.000000 0.476711 0.476711
0.000000 0.475732 0.559645
0.000000 0.474746 0.643251
0.000000 0.473752 0.727456
0.000000 0.472752 0.812206
0.000000 0.471746 0.897453
0.000000 0.470735 0.983158
0.000000 0.469719 1.000000
0.000000 0.469203 1.000000
0.000000 0.557331 0.000000
0.000000 0.557331 0.000000
0.000000 0.556530 0.000000
0.000000 0.555649 0.067100
0.000000 0.554738 0.144347
0.000000 0.553806 0.223301
0.000000 0.552859 0.303549
0.000000 0.551900 0.384843
0.000000 0.550930 0.467017
0.000000 0.549952 0.549952
0.000000 0.548965 0.633557
0.000000 0.547972 0.717763
0.000000 0.546972 0.802513
0.000000 0.545966 0.887759
0.000000 0.544955 0.973464
0.000000 0.543939 1.000000
0.000000 0.543423 1.000000
0.000000 0.632151 0.000000
0.000000 0.632151 0.000000
0.000000 0.631350 0.000000
0.000000 0.630469 0.057328
0.000000 0.629558 0.134575
0.000000 0.628626 0.213529
0.000000 0.627679 0.293777
0.000000 0.626720 0.375072
0.000000 0.625750 0.457245
0.000000 0.624772 0.540180
0.000000 0.623785 0.623785
0.000000 0.622792 0.707991
0.000000 0.621792 0.792741
0.000000 0.620786 0.877987
0.000000 0.619775 0.963692
0.000000 0.618758 1.000000
0.000000 0.618243 1.000000
0.000000 0.707508 0.000000
0.000000 0.707508 0.000000
0.000000 0.706708 0.000000
0.000000 0.705826 0.047486
0.000000 0.704915 0.124733
0.000000 0.703983 0.203687
0.000000 0.703036 0.283935
0.000000 0.702077 0.365229
0.000000 0.701108 0.447403
0.000000 0.700129 0.530338
0.000000 0.699143 0.613943
0.000000 0.698149 0.698149
0.000000 0.697149 0.782899
0.000000 0.696143 0.868145
0.000000 0.695132 0.953850
0.000000 0.694116 1.000000
0.000000 0.693600 1.000000
0.000000 0.783352 0.000000
0.000000 0.783352 0.000000
0.000000 0.782552 0.000000
0.000000 0.781670 0.037581
0.000000 0.780759 0.114827
0.000000 0.779827 0.193782
0.000000 0.778880 0.274030
0.000000 0.777921 0.355324
0.000000 0.776952 0.437498
0.000000 0.775973 0.520432
0.000000 0.774987 0.604038
0.000000 0.773993 0.688244
0.000000 0.772993 0.772993
0.000000 0.771987 0.858240
0.000000 0.770976 0.943945
0.000000 0.769960 1.000000
0.000000 0.769444 1.000000
0.000000 0.859641 0.000000
0.000000 0.859641 0.000000
0.000000 0.858840 0.000000
0.000000 0.857959 0.027617
0.000000 0.857048 0.104864
0.000000 0.856116 0.183818
0.000000 0.855169 0.264066
0.000000 0.854210 0.345360
0.000000 0.853240 0.427534
0.000000 0.852262 0.510469
0.000000 0.851275 0.594074
0.000000 0.850282 0.678280
0.000000 0.849282 0.763029
0.000000 0.848276 0.848276
0.000000 0.847265 0.933981
0.000000 0.846249 1.000000
0.000000 0.845733 1.000000
0.000000 0.936340 0.000000
0.000000 0.936340 0.000000
0.000000 0.935539 0.000000
0.000000 0.934658 0.017600
0.000000 0.933747 0.094846
0.000000 0.932815 0.173801
0.000000 0.931868 0.254049
0.000000 0.930909 0.335343
0.000000 0.929939 0.417517
0.000000 0.928961 0.500451
0.000000 0.927974 0.584057
0.000000 0.926981 0.668263
0.000000 0.925981 0.753012
0.000000 0.924975 0.838259
0.000000 0.923964 0.923964
0.000000 0.922947 1.000000
0.000000 0.922432 1.000000
0.000000 1.000000 0.000000
0.000000 1.000000 0.000000
0.000000 1.000000 0.000000
0.000000 1.000000 0.007533
0.000000 1.000000 0.084779
0.000000 1.000000 0.163734
0.000000 1.000000 0.243982
0.000000 1.000000 0.325276
0.000000 1.000000 0.407450
0.000000 1.000000 0.490385
0.000000 1.000000 0.573990
0.000000 1.000000 0.658196
0.000000 1.000000 0.742945
0.000000 1.000000 0.828192
0.000000 1.000000 0.913897
0.000000 1.000000 1.000000
0.000000 0.999511 1.000000
0.000000 1.000000 0.000000
0.000000 1.000000 0.000000
0.000000 1.000000 0.000000
0.000000 1.000000 0.002428
0.000000 1.000000 0.079675
0.000000 1.000000 0.158629
0.000000 1.000000 0.238877
0.000000 1.000000 0.320171
0.000000 1.000000 0.402345
0.000000 1.000000 0.485280
0.000000 1.000000 0.568885
0.000000 1.000000 0.653091
0.000000 1.000000 0.737841
0.000000 1.000000 0.823087
0.000000 1.000000 0.908792
0.000000 1.000000 0.994922
0.000000 1.000000 1.000000
0.139285 0.000000 0.000000
0.139285 0.000000 0.000000
0.138485 0.000000 0.062917
0.137603 0.000000 0.137603
0.136692 0.000000 0.214850
0.135760 0.000000 0.293804
0.134813 0.000000 0.374053
0.133854 0.000000 0.455347
0.132885 0.000000 0.537521
0.131906 0.000000 0.620455
0.130920 0.000000 0.704061
0.129926 0.000000 0.788266
0.128926 0.000000 0.873016
0.127920 0.000000 0.958262
0.126909 0.000000 1.000000
0.125893 0.000000 1.000000
0.125377 0.000000 1.000000
0.139285 0.000000 0.000000
