skills/editops-orchestrator/assets/grade/luts/trailer_punch_v08.cube
TITLE "trailer_punch_v08"
LUT_3D_SIZE 17
DOMAIN_MIN 0.0 0.0 0.0
DOMAIN_MAX 1.0 1.0 1.0
0.000000 0.000000 0.000000
0.000000 0.000000 0.020956
0.000000 0.000000 0.089490
0.000000 0.000000 0.160503
0.000000 0.000000 0.232853
0.000000 0.000000 0.306137
0.000000 0.000000 0.380144
0.000000 0.000000 0.454741
0.000000 0.000000 0.529839
0.000000 0.000000 0.605370
0.000000 0.000000 0.681284
0.000000 0.000000 0.757543
0.000000 0.000000 0.834114
0.000000 0.000000 0.910970
0.000000 0.000000 0.988089
0.000000 0.000000 1.000000
0.000000 0.000000 1.000000
0.000000 0.019432 0.000000
0.000000 0.019261 0.019261
0.000000 0.018702 0.087796
0.000000 0.018122 0.158809
0.000000 0.017532 0.231158
0.000000 0.016933 0.304443
0.000000 0.016329 0.378450
0.000000 0.015720 0.453047
0.000000 0.015107 0.528144
0.000000 0.014491 0.603675
0.000000 0.013871 0.679590
0.000000 0.013248 0.755848
0.000000 0.012623 0.832419
0.000000 0.011996 0.909275
0.000000 0.011366 0.986394
0.000000 0.010735 1.000000
0.000000 0.010312 1.000000
0.000000 0.082984 0.000000
0.000000 0.082813 0.013719
0.000000 0.082254 0.082254
0.000000 0.081674 0.153267
0.000000 0.081084 0.225616
0.000000 0.080485 0.298901
0.000000 0.079881 0.372908
0.000000 0.079272 0.447505
0.000000 0.078659 0.522602
0.000000 0.078043 0.598133
0.000000 0.077423 0.674048
0.000000 0.076800 0.750306
0.000000 0.076175 0.826877
0.000000 0.075548 0.903733
0.000000 0.074918 0.980852
0.000000 0.074287 1.000000
0.000000 0.073864 1.000000
0.000000 0.148834 0.000000
0.000000 0.148663 0.007977
0.000000 0.148104 0.076512
0.000000 0.147524 0.147524
0.000000 0.146934 0.219874
0.000000 0.146335 0.293158
0.000000 0.145731 0.367165
0.000000 0.145122 0.441763
0.000000 0.144509 0.516860
0.000000 0.143893 0.592391
0.000000 0.143273 0.668305
0.000000 0.142650 0.744564
0.000000 0.142025 0.821135
0.000000 0.141398 0.897991
0.000000 0.140768 0.975110
0.000000 0.140137 1.000000
0.000000 0.139714 1.000000
0.000000 0.215924 0.000000
0.000000 0.215753 0.002127
0.000000 0.215194 0.070661
0.000000 0.214614 0.141674
0.000000 0.214023 0.214023
0.000000 0.213425 0.287308
0.000000 0.212821 0.361315
0.000000 0.212212 0.435912
0.000000 0.211599 0.511009
0.000000 0.210983 0.586540
0.000000 0.210363 0.662455
0.000000 0.209740 0.738713
0.000000 0.209115 0.815284
0.000000 0.208488 0.892140
0.000000 0.207858 0.969259
0.000000 0.207227 1.000000
0.000000 0.206804 1.000000
0.000000 0.283881 0.000000
0.000000 0.283710 0.000000
0.000000 0.283150 0.064735
0.000000 0.282571 0.135748
0.000000 0.281980 0.208097
0.000000 0.281382 0.281382
0.000000 0.280778 0.355389
0.000000 0.280169 0.429986
0.000000 0.279556 0.505083
0.000000 0.278939 0.580614
0.000000 0.278319 0.656529
0.000000 0.277697 0.732787
0.000000 0.277072 0.809358
0.000000 0.276444 0.886214
0.000000 0.275815 0.963333
0.000000 0.275183 1.000000
0.000000 0.274761 1.000000
0.000000 0.352507 0.000000
0.000000 0.352336 0.000000
0.000000 0.351777 0.058750
0.000000 0.351197 0.129763
0.000000 0.350607 0.202113
0.000000 0.350008 0.275397
0.000000 0.349404 0.349404
0.000000 0.348795 0.424001
0.000000 0.348182 0.499099
0.000000 0.347566 0.574630
0.000000 0.346946 0.650544
0.000000 0.346323 0.726803
0.000000 0.345698 0.803374
0.000000 0.345071 0.880230
0.000000 0.344441 0.957349
0.000000 0.343810 1.000000
0.000000 0.343387 1.000000
0.000000 0.421681 0.000000
0.000000 0.421510 0.000000
0.000000 0.420951 0.052718
0.000000 0.420371 0.123731
0.000000 0.419781 0.196081
0.000000 0.419182 0.269365
0.000000 0.418578 0.343372
0.000000 0.417969 0.417969
0.000000 0.417356 0.493066
0.000000 0.416740 0.568597
0.000000 0.416120 0.644512
0.000000 0.415497 0.720771
0.000000 0.414872 0.797341
0.000000 0.414245 0.874197
0.000000 0.413615 0.951317
0.000000 0.412984 1.000000
0.000000 0.412561 1.000000
0.000000 0.491319 0.000000
0.000000 0.491148 0.000000
0.000000 0.490588 0.046646
0.000000 0.490009 0.117658
0.000000 0.489418 0.190008
0.000000 0.488820 0.263292
0.000000 0.488216 0.337299
0.000000 0.487607 0.411897
0.000000 0.486994 0.486994
0.000000 0.486377 0.562525
0.000000 0.485757 0.638439
0.000000 0.485135 0.714698
0.000000 0.484510 0.791269
0.000000 0.483882 0.868125
0.000000 0.483253 0.945244
0.000000 0.482621 1.000000
0.000000 0.482199 1.000000
0.000000 0.561359 0.000000
0.000000 0.561188 0.000000
0.000000 0.560628 0.040538
0.000000 0.560048 0.111550
0.000000 0.559458 0.183900
0.000000 0.558860 0.257185
0.000000 0.558256 0.331192
0.000000 0.557647 0.405789
0.000000 0.557034 0.480886
0.000000 0.556417 0.556417
0.000000 0.555797 0.632332
0.000000 0.555175 0.708590
0.000000 0.554550 0.785161
0.000000 0.553922 0.862017
0.000000 0.553293 0.939136
0.000000 0.552661 1.000000
0.000000 0.552239 1.000000
0.000000 0.631754 0.000000
0.000000 0.631583 0.000000
0.000000 0.631024 0.034399
0.000000 0.630444 0.105412
0.000000 0.629853 0.177761
0.000000 0.629255 0.251046
0.000000 0.628651 0.325053
0.000000 0.628042 0.399650
0.000000 0.627429 0.474747
0.000000 0.626813 0.550278
0.000000 0.626193 0.626193
0.000000 0.625570 0.702451
0.000000 0.624945 0.779022
0.000000 0.624318 0.855878
0.000000 0.623688 0.932997
0.000000 0.623057 1.000000
0.000000 0.622634 1.000000
0.000000 0.702469 0.000000
0.000000 0.702298 0.000000
0.000000 0.701738 0.028232
0.000000 0.701159 0.099245
0.000000 0.700568 0.171595
0.000000 0.699970 0.244879
0.000000 0.699366 0.318886
0.000000 0.698757 0.393483
0.000000 0.698144 0.468581
0.000000 0.697527 0.544112
0.000000 0.696907 0.620026
0.000000 0.696285 0.696285
0.000000 0.695660 0.772856
0.000000 0.695032 0.849712
0.000000 0.694403 0.926831
0.000000 0.693771 1.000000
0.000000 0.693349 1.000000
0.000000 0.773473 0.000000
0.000000 0.773302 0.000000
0.000000 0.772742 0.022041
0.000000 0.772163 0.093053
0.000000 0.771572 0.165403
0.000000 0.770974 0.238688
0.000000 0.770370 0.312694
0.000000 0.769761 0.387292
0.000000 0.769148 0.462389
0.000000 0.768531 0.537920
0.000000 0.767911 0.613834
0.000000 0.767289 0.690093
0.000000 0.766664 0.766664
0.000000 0.766036 0.843520
0.000000 0.765407 0.920639
0.000000 0.764775 0.998002
0.000000 0.764353 1.000000
0.000000 0.844741 0.000000
0.000000 0.844570 0.000000
0.000000 0.844011 0.015826
0.000000 0.843431 0.086838
0.000000 0.842841 0.159188
0.000000 0.842242 0.232473
0.000000 0.841638 0.306479
0.000000 0.841029 0.381077
0.000000 0.840416 0.456174
0.000000 0.839800 0.531705
0.000000 0.839180 0.607620
0.000000 0.838557 0.683878
0.000000 0.837932 0.760449
0.000000 0.837305 0.837305
0.000000 0.836675 0.914424
0.000000 0.836044 0.991787
0.000000 0.835621 1.000000
0.000000 0.916254 0.000000
0.000000 0.916083 0.000000
0.000000 0.915523 0.009590
0.000000 0.914944 0.080602
0.000000 0.914353 0.152952
0.000000 0.913755 0.226236
0.000000 0.913151 0.300243
0.000000 0.912542 0.374841
0.000000 0.911929 0.449938
0.000000 0.911312 0.525469
0.000000 0.910692 0.601383
0.000000 0.910070 0.677642
0.000000 0.909445 0.754213
0.000000 0.908817 0.831069
0.000000 0.908188 0.908188
0.000000 0.907556 0.985551
0.000000 0.907134 1.000000
0.000000 0.987993 0.000000
0.000000 0.987822 0.000000
0.000000 0.987262 0.003334
0.000000 0.986683 0.074346
0.000000 0.986092 0.146696
0.000000 0.985494 0.219981
0.000000 0.984890 0.293987
0.000000 0.984281 0.368585
0.000000 0.983668 0.443682
0.000000 0.983051 0.519213
0.000000 0.982431 0.595127
0.000000 0.981809 0.671386
0.000000 0.981184 0.747957
0.000000 0.980556 0.824813
0.000000 0.979927 0.901932
0.000000 0.979295 0.979295
0.000000 0.978873 1.000000
0.000000 1.000000 0.000000
0.000000 1.000000 0.000000
0.000000 1.000000 0.000000
0.000000 1.000000 0.070162
0.000000 1.000000 0.142512
0.000000 1.000000 0.215796
0.000000 1.000000 0.289803
0.000000 1.000000 0.364400
0.000000 1.000000 0.439498
0.000000 1.000000 0.515029
0.000000 1.000000 0.590943
0.000000 1.000000 0.667202
0.000000 1.000000 0.743772
0.000000 1.000000 0.820629
0.000000 1.000000 0.897748
0.000000 1.000000 0.975111
0.000000 1.000000 1.000000
0.020623 0.000000 0.000000
0.020452 0.000000 0.020452
0.019893 0.000000 0.088987
0.019313 0.000000 0.159999
0.018722 0.000000 0.232349
0.018124 0.000000 0.305634
0.017520 0.000000 0.379641
0.016911 0.000000 0.454238
0.016298 0.000000 0.529335
0.015681 0.000000 0.604866
0.015062 0.000000 0.680781
0.014439 0.000000 0.757039
0.013814 0.000000 0.833610
0.013187 0.000000 0.910466
0.012557 0.000000 0.987585
0.011926 0.000000 1.000000
0.011503 0.000000 1.000000
0.018929 0.018929 0.000000
0.018758 0.018758 0.018758
0.018198 0.018198 0.087292
0.017618 0.017618 0.158305
0.017028 0.017028 0.230655
0.016430 0.016430 0.303939
0.015825 0.015825 0.377946
0.015217 0.015217 0.452543
0.014603 0.014603 0.527640
0.013987 0.013987 0.603171
0.013367 0.013367 0.679086
0.012745 0.012745 0.755345
0.012120 0.012120 0.831915
0.011492 0.011492 0.908771
0.010863 0.010863 0.985890
0.010231 0.010231 1.000000
0.009809 0.009809 1.000000
0.013387 0.082481 0.000000
0.013216 0.082310 0.013216
0.012656 0.081750 0.081750
0.012076 0.081170 0.152763
0.011486 0.080580 0.225113
0.010888 0.079982 0.298397
0.010283 0.079377 0.372404
0.009675 0.078769 0.447001
0.009061 0.078155 0.522098
0.008445 0.077539 0.597629
0.007825 0.076919 0.673544
0.007203 0.076297 0.749803
0.006578 0.075672 0.826373
0.005950 0.075044 0.903229
0.005321 0.074415 0.980349
0.004689 0.073783 1.000000
0.004267 0.073361 1.000000
0.007644 0.148331 0.000000
0.007473 0.148160 0.007473
0.006914 0.147600 0.076008
0.006334 0.147020 0.147020
0.005743 0.146430 0.219370
0.005145 0.145832 0.292655
0.004541 0.145227 0.366662
0.003932 0.144618 0.441259
0.003319 0.144005 0.516356
0.002703 0.143389 0.591887
0.002083 0.142769 0.667802
0.001460 0.142147 0.744060
0.000835 0.141522 0.820631
0.000208 0.140894 0.897487
0.000000 0.140265 0.974606
0.000000 0.139633 1.000000
0.000000 0.139211 1.000000
0.001794 0.215421 0.000000
0.001623 0.215250 0.001623
0.001063 0.214690 0.070157
0.000484 0.214110 0.141170
0.000000 0.213520 0.213520
0.000000 0.212921 0.286804
0.000000 0.212317 0.360811
0.000000 0.211708 0.435408
0.000000 0.211095 0.510505
0.000000 0.210479 0.586036
0.000000 0.209859 0.661951
0.000000 0.209237 0.738210
0.000000 0.208611 0.814780
0.000000 0.207984 0.891636
0.000000 0.207355 0.968756
0.000000 0.206723 1.000000
0.000000 0.206301 1.000000
0.000000 0.283377 0.000000
0.000000 0.283206 0.000000
0.000000 0.282647 0.064231
0.000000 0.282067 0.135244
0.000000 0.281476 0.207594
0.000000 0.280878 0.280878
0.000000 0.280274 0.354885
0.000000 0.279665 0.429482
0.000000 0.279052 0.504579
0.000000 0.278435 0.580110
0.000000 0.277816 0.656025
0.000000 0.277193 0.732284
0.000000 0.276568 0.808854
0.000000 0.275941 0.885710
0.000000 0.275311 0.962830
0.000000 0.274680 1.000000
0.000000 0.274257 1.000000
0.000000 0.352004 0.000000
0.000000 0.351833 0.000000
0.000000 0.351273 0.058247
0.000000 0.350693 0.129259
0.000000 0.350103 0.201609
0.000000 0.349505 0.274894
0.000000 0.348900 0.348900
0.000000 0.348292 0.423498
0.000000 0.347678 0.498595
0.000000 0.347062 0.574126
0.000000 0.346442 0.650041
0.000000 0.345820 0.726299
0.000000 0.345195 0.802870
0.000000 0.344567 0.879726
0.000000 0.343938 0.956845
0.000000 0.343306 1.000000
0.000000 0.342884 1.000000
0.000000 0.421178 0.000000
0.000000 0.421007 0.000000
0.000000 0.420447 0.052214
0.000000 0.419867 0.123227
0.000000 0.419277 0.195577
0.000000 0.418679 0.268861
0.000000 0.418074 0.342868
0.000000 0.417465 0.417465
0.000000 0.416852 0.492563
0.000000 0.416236 0.568094
0.000000 0.415616 0.644008
0.000000 0.414994 0.720267
0.000000 0.414369 0.796838
0.000000 0.413741 0.873694
0.000000 0.413112 0.950813
0.000000 0.412480 1.000000
0.000000 0.412058 1.000000
0.000000 0.490815 0.000000
0.000000 0.490644 0.000000
0.000000 0.490085 0.046142
0.000000 0.489505 0.117154
0.000000 0.488914 0.189504
0.000000 0.488316 0.262789
0.000000 0.487712 0.336796
0.000000 0.487103 0.411393
0.000000 0.486490 0.486490
0.000000 0.485873 0.562021
0.000000 0.485254 0.637936
0.000000 0.484631 0.714194
0.000000 0.484006 0.790765
0.000000 0.483379 0.867621
0.000000 0.482749 0.944740
0.000000 0.482118 1.000000
0.000000 0.481695 1.000000
0.000000 0.560855 0.000000
0.000000 0.560684 0.000000
0.000000 0.560124 0.040034
0.000000 0.559545 0.111047
0.000000 0.558954 0.183397
0.000000 0.558356 0.256681
0.000000 0.557752 0.330688
0.000000 0.557143 0.405285
0.000000 0.556530 0.480382
0.000000 0.555913 0.555913
0.000000 0.555293 0.631828
0.000000 0.554671 0.708087
0.000000 0.554046 0.784657
0.000000 0.553418 0.861513
0.000000 0.552789 0.938632
0.000000 0.552157 1.000000
0.000000 0.551735 1.000000
0.000000 0.631251 0.000000
0.000000 0.631080 0.000000
0.000000 0.630520 0.033895
0.000000 0.629940 0.104908
0.000000 0.629350 0.177258
0.000000 0.628752 0.250542
0.000000 0.628147 0.324549
0.000000 0.627538 0.399146
0.000000 0.626925 0.474243
0.000000 0.626309 0.549774
0.000000 0.625689 0.625689
0.000000 0.625067 0.701948
0.000000 0.624441 0.778518
0.000000 0.623814 0.855374
0.000000 0.623185 0.932494
0.000000 0.622553 1.000000
0.000000 0.622131 1.000000
0.000000 0.701965 0.000000
0.000000 0.701794 0.000000
0.000000 0.701235 0.027729
0.000000 0.700655 0.098741
0.000000 0.700064 0.171091
0.000000 0.699466 0.244376
0.000000 0.698862 0.318382
0.000000 0.698253 0.392980
0.000000 0.697640 0.468077
0.000000 0.697023 0.543608
0.000000 0.696404 0.619522
0.000000 0.695781 0.695781
0.000000 0.695156 0.772352
0.000000 0.694529 0.849208
0.000000 0.693899 0.926327
0.000000 0.693268 1.000000
0.000000 0.692845 1.000000
0.000000 0.772969 0.000000
0.000000 0.772798 0.000000
0.000000 0.772239 0.021537
0.000000 0.771659 0.092550
0.000000 0.771068 0.164899
0.000000 0.770470 0.238184
0.000000 0.769866 0.312191
0.000000 0.769257 0.386788
0.000000 0.768644 0.461885
0.000000 0.768027 0.537416
0.000000 0.767408 0.613331
0.000000 0.766785 0.689589
0.000000 0.766160 0.766160
0.000000 0.765533 0.843016
0.000000 0.764903 0.920135
0.000000 0.764271 0.997499
0.000000 0.763849 1.000000
0.000000 0.844238 0.000000
0.000000 0.844067 0.000000
0.000000 0.843507 0.015322
0.000000 0.842927 0.086335
0.000000 0.842337 0.158684
0.000000 0.841739 0.231969
0.000000 0.841134 0.305976
0.000000 0.840525 0.380573
0.000000 0.839912 0.455670
0.000000 0.839296 0.531201
0.000000 0.838676 0.607116
0.000000 0.838054 0.683374
0.000000 0.837429 0.759945
0.000000 0.836801 0.836801
0.000000 0.836172 0.913920
0.000000 0.835540 0.991284
0.000000 0.835118 1.000000
0.000000 0.915750 0.000000
0.000000 0.915579 0.000000
0.000000 0.915020 0.009086
0.000000 0.914440 0.080098
0.000000 0.913849 0.152448
0.000000 0.913251 0.225733
0.000000 0.912647 0.299740
0.000000 0.912038 0.374337
0.000000 0.911425 0.449434
0.000000 0.910808 0.524965
0.000000 0.910189 0.600880
0.000000 0.909566 0.677138
0.000000 0.908941 0.753709
0.000000 0.908314 0.830565
0.000000 0.907684 0.907684
0.000000 0.907053 0.985048
0.000000 0.906630 1.000000
0.000000 0.987489 0.000000
0.000000 0.987318 0.000000
0.000000 0.986759 0.002830
0.000000 0.986179 0.073843
0.000000 0.985588 0.146192
0.000000 0.984990 0.219477
0.000000 0.984386 0.293484
0.000000 0.983777 0.368081
0.000000 0.983164 0.443178
0.000000 0.982547 0.518709
0.000000 0.981928 0.594624
0.000000 0.981305 0.670882
0.000000 0.980680 0.747453
0.000000 0.980053 0.824309
0.000000 0.979423 0.901428
0.000000 0.978792 0.978792
0.000000 0.978369 1.000000
0.000000 1.000000 0.000000
0.000000 1.000000 0.000000
0.000000 1.000000 0.000000
0.000000 1.000000 0.069658
0.000000 1.000000 0.142008
0.000000 1.000000 0.215293
0.000000 1.000000 0.289299
0.000000 1.000000 0.363897
0.000000 1.000000 0.438994
0.000000 1.000000 0.514525
0.000000 1.000000 0.590439
0.000000 1.000000 0.666698
0.000000 1.000000 0.743269
0.000000 1.000000 0.820125
0.000000 1.000000 0.897244
0.000000 1.000000 0.974607
0.000000 1.000000 1.000000
0.088070 0.000000 0.000000
0.087899 0.000000 0.018805
0.087339 0.000000 0.087339
0.086760 0.000000 0.158352
0.086169 0.000000 0.230702
0.085571 0.000000 0.303986
0.084967 0.000000 0.377993
0.084358 0.000000 0.452590
0.083745 0.000000 0.527687
0.083128 0.000000 0.603218
0.082508 0.000000 0.679133
0.081886 0.000000 0.755392
0.081261 0.000000 0.831962
0.080633 0.000000 0.908818
0.080004 0.000000 0.985938
0.079372 0.000000 1.000000
0.078950 0.000000 1.000000
0.086375 0.017281 0.000000
0.086204 0.017110 0.017110
0.085645 0.016551 0.085645
0.085065 0.015971 0.156657
0.084474 0.015380 0.229007
0.083876 0.014782 0.302292
0.083272 0.014178 0.376299
0.082663 0.013569 0.450896
0.082050 0.012956 0.525993
0.081433 0.012339 0.601524
0.080814 0.011720 0.677439
0.080191 0.011097 0.753697
0.079566 0.010472 0.830268
0.078939 0.009845 0.907124
0.078309 0.009215 0.984243
0.077678 0.008584 1.000000
0.077255 0.008161 1.000000
0.080833 0.080833 0.000000
0.080662 0.080662 0.011568
0.080103 0.080103 0.080103
0.079523 0.079523 0.151115
0.078932 0.078932 0.223465
0.078334 0.078334 0.296750
0.077730 0.077730 0.370757
0.077121 0.077121 0.445354
0.076508 0.076508 0.520451
0.075892 0.075892 0.595982
0.075272 0.075272 0.671897
0.074649 0.074649 0.748155
0.074024 0.074024 0.824726
0.073397 0.073397 0.901582
0.072767 0.072767 0.978701
0.072136 0.072136 1.000000
0.071713 0.071713 1.000000
0.075091 0.146683 0.000000
0.074920 0.146512 0.005826
0.074360 0.145953 0.074360
0.073781 0.145373 0.145373
0.073190 0.144782 0.217723
0.072592 0.144184 0.291007
0.071988 0.143580 0.365014
0.071379 0.142971 0.439611
0.070766 0.142358 0.514708
0.070149 0.141741 0.590240
0.069529 0.141122 0.666154
0.068907 0.140499 0.742413
0.068282 0.139874 0.818983
0.067654 0.139247 0.895840
0.067025 0.138617 0.972959
0.066393 0.137986 1.000000
0.065971 0.137563 1.000000
0.069240 0.213773 0.000000
0.069069 0.213602 0.000000
0.068510 0.213043 0.068510
0.067930 0.212463 0.139523
0.067340 0.211872 0.211872
0.066741 0.211274 0.285157
0.066137 0.210670 0.359164
0.065528 0.210061 0.433761
0.064915 0.209448 0.508858
0.064299 0.208831 0.584389
0.063679 0.208212 0.660304
0.063056 0.207589 0.736562
0.062431 0.206964 0.813133
0.061804 0.206337 0.889989
0.061174 0.205707 0.967108
0.060543 0.205076 1.000000
0.060120 0.204653 1.000000
0.063314 0.281730 0.000000
0.063143 0.281559 0.000000
0.062584 0.280999 0.062584
0.062004 0.280420 0.133596
0.061414 0.279829 0.205946
0.060815 0.279231 0.279231
0.060211 0.278627 0.353238
0.059602 0.278018 0.427835
0.058989 0.277405 0.502932
0.058373 0.276788 0.578463
0.057753 0.276168 0.654378
0.057130 0.275546 0.730636
0.056505 0.274921 0.807207
0.055878 0.274293 0.884063
0.055248 0.273664 0.961182
0.054617 0.273032 1.000000
0.054194 0.272610 1.000000
0.057330 0.350356 0.000000
0.057159 0.350185 0.000000
0.056599 0.349626 0.056599
0.056020 0.349046 0.127612
0.055429 0.348455 0.199962
0.054831 0.347857 0.273246
0.054227 0.347253 0.347253
0.053618 0.346644 0.421850
0.053005 0.346031 0.496947
0.052388 0.345414 0.572478
0.051768 0.344795 0.648393
0.051146 0.344172 0.724652
0.050521 0.343547 0.801222
0.049893 0.342920 0.878078
0.049264 0.342290 0.955198
0.048632 0.341659 1.000000
0.048210 0.341236 1.000000
0.051298 0.419530 0.000000
0.051127 0.419359 0.000000
0.050567 0.418800 0.050567
0.049987 0.418220 0.121580
0.049397 0.417629 0.193930
0.048799 0.417031 0.267214
0.048194 0.416427 0.341221
0.047585 0.415818 0.415818
0.046972 0.415205 0.490915
0.046356 0.414588 0.566446
0.045736 0.413969 0.642361
0.045114 0.413346 0.718620
0.044488 0.412721 0.795190
0.043861 0.412094 0.872046
0.043232 0.411464 0.949165
0.042600 0.410833 1.000000
0.042178 0.410410 1.000000
0.045225 0.489168 0.000000
0.045054 0.488997 0.000000
0.044494 0.488437 0.044494
0.043915 0.487858 0.115507
0.043324 0.487267 0.187857
0.042726 0.486669 0.261141
0.042122 0.486065 0.335148
0.041513 0.485456 0.409745
0.040900 0.484843 0.484843
0.040283 0.484226 0.560374
0.039663 0.483606 0.636288
0.039041 0.482984 0.712547
0.038416 0.482359 0.789117
0.037788 0.481731 0.865974
0.037159 0.481102 0.943093
0.036527 0.480470 1.000000
0.036105 0.480048 1.000000
0.039117 0.559208 0.000000
0.038946 0.559037 0.000000
0.038387 0.558477 0.038387
0.037807 0.557897 0.109399
0.037216 0.557307 0.181749
0.036618 0.556709 0.255034
0.036014 0.556104 0.329040
0.035405 0.555495 0.403638
0.034792 0.554882 0.478735
0.034175 0.554266 0.554266
0.033556 0.553646 0.630180
0.032933 0.553024 0.706439
0.032308 0.552398 0.783010
0.031681 0.551771 0.859866
0.031051 0.551142 0.936985
0.030420 0.550510 1.000000
0.029997 0.550088 1.000000
0.032978 0.629603 0.000000
0.032807 0.629432 0.000000
0.032248 0.628873 0.032248
0.031668 0.628293 0.103261
0.031078 0.627702 0.175610
0.030479 0.627104 0.248895
0.029875 0.626500 0.322902
0.029266 0.625891 0.397499
0.028653 0.625278 0.472596
0.028037 0.624661 0.548127
0.027417 0.624042 0.624042
0.026794 0.623419 0.700300
0.026169 0.622794 0.776871
0.025542 0.622167 0.853727
0.024912 0.621537 0.930846
0.024281 0.620906 1.000000
0.023858 0.620483 1.000000
0.026812 0.700318 0.000000
0.026641 0.700147 0.000000
0.026081 0.699587 0.026081
0.025502 0.699008 0.097094
0.024911 0.698417 0.169444
0.024313 0.697819 0.242728
0.023709 0.697215 0.316735
0.023100 0.696606 0.391332
0.022487 0.695993 0.466429
0.021870 0.695376 0.541960
0.021250 0.694756 0.617875
0.020628 0.694134 0.694134
0.020003 0.693509 0.770704
0.019375 0.692881 0.847560
0.018746 0.692252 0.924680
0.018114 0.691620 1.000000
0.017692 0.691198 1.000000
0.020620 0.771322 0.000000
0.020449 0.771151 0.000000
0.019889 0.770591 0.019889
0.019310 0.770011 0.090902
0.018719 0.769421 0.163252
0.018121 0.768823 0.236536
0.017517 0.768218 0.310543
0.016908 0.767609 0.385140
0.016295 0.766996 0.460238
0.015678 0.766380 0.535769
0.015059 0.765760 0.611683
0.014436 0.765138 0.687942
0.013811 0.764513 0.764513
0.013184 0.763885 0.841369
0.012554 0.763256 0.918488
0.011922 0.762624 0.995851
0.011500 0.762202 1.000000
0.014405 0.842590 0.000000
0.014234 0.842419 0.000000
0.013675 0.841860 0.013675
0.013095 0.841280 0.084687
0.012504 0.840689 0.157037
0.011906 0.840091 0.230321
0.011302 0.839487 0.304328
0.010693 0.838878 0.378926
0.010080 0.838265 0.454023
0.009463 0.837648 0.529554
0.008844 0.837029 0.605468
0.008221 0.836406 0.681727
0.007596 0.835781 0.758298
0.006969 0.835154 0.835154
0.006339 0.834524 0.912273
0.005708 0.833893 0.989636
0.005285 0.833470 1.000000
0.008169 0.914103 0.000000
0.007998 0.913932 0.000000
0.007438 0.913372 0.007438
0.006859 0.912793 0.078451
0.006268 0.912202 0.150801
0.005670 0.911604 0.224085
0.005066 0.911000 0.298092
0.004457 0.910391 0.372689
0.003844 0.909778 0.447787
0.003227 0.909161 0.523318
0.002607 0.908541 0.599232
0.001985 0.907919 0.675491
0.001360 0.907294 0.752061
0.000732 0.906666 0.828918
0.000103 0.906037 0.906037
0.000000 0.905405 0.983400
0.000000 0.904983 1.000000
0.001913 0.985842 0.000000
0.001742 0.985671 0.000000
0.001182 0.985111 0.001182
0.000603 0.984532 0.072195
0.000012 0.983941 0.144545
0.000000 0.983343 0.217829
0.000000 0.982739 0.291836
0.000000 0.982130 0.366433
0.000000 0.981517 0.441531
0.000000 0.980900 0.517062
0.000000 0.980280 0.592976
0.000000 0.979658 0.669235
0.000000 0.979033 0.745806
0.000000 0.978405 0.822662
0.000000 0.977776 0.899781
0.000000 0.977144 0.977144
0.000000 0.976722 1.000000
0.000000 1.000000 0.000000
0.000000 1.000000 0.000000
0.000000 1.000000 0.000000
0.000000 1.000000 0.068011
0.000000 1.000000 0.140361
0.000000 1.000000 0.213645
0.000000 1.000000 0.287652
0.000000 1.000000 0.362249
0.000000 1.000000 0.437346
0.000000 1.000000 0.512877
0.000000 1.000000 0.588792
0.000000 1.000000 0.665051
0.000000 1.000000 0.741621
0.000000 1.000000 0.818477
0.000000 1.000000 0.895597
0.000000 1.000000 0.972960
0.000000 1.000000 1.000000
0.157955 0.000000 0.000000
0.157784 0.000000 0.017098
0.157225 0.000000 0.085632
0.156645 0.000000 0.156645
0.156054 0.000000 0.228995
0.155456 0.000000 0.302279
0.154852 0.000000 0.376286
0.154243 0.000000 0.450883
0.153630 0.000000 0.525980
0.153013 0.000000 0.601511
0.152394 0.000000 0.677426
0.151771 0.000000 0.753685
0.151146 0.000000 0.830255
0.150519 0.000000 0.907111
0.149889 0.000000 0.984231
0.149258 0.000000 1.000000
0.148835 0.000000 1.000000
0.156261 0.015574 0.000000
