skills/editops-orchestrator/assets/grade/luts/trailer_punch_v17.cube
TITLE "trailer_punch_v17"
LUT_3D_SIZE 9
DOMAIN_MIN 0.0 0.0 0.0
DOMAIN_MAX 1.0 1.0 1.0
0.000000 0.000000 0.000000
0.000000 0.000000 0.061516
0.000000 0.000000 0.215648
0.000000 0.000000 0.378224
0.000000 0.000000 0.545689
0.000000 0.000000 0.716662
0.000000 0.000000 0.890390
0.000000 0.000000 1.000000
0.000000 0.000000 1.000000
0.000000 0.054521 0.000000
0.000000 0.053735 0.053735
0.000000 0.051767 0.207867
0.000000 0.049691 0.370443
0.000000 0.047553 0.537907
0.000000 0.045369 0.708881
0.000000 0.043151 0.882608
0.000000 0.040903 1.000000
0.000000 0.039245 1.000000
0.000000 0.191124 0.000000
0.000000 0.190339 0.034239
0.000000 0.188371 0.188371
0.000000 0.186295 0.350947
0.000000 0.184156 0.518411
0.000000 0.181973 0.689384
0.000000 0.179755 0.863112
0.000000 0.177507 1.000000
0.000000 0.175848 1.000000
0.000000 0.335212 0.000000
0.000000 0.334426 0.013674
0.000000 0.332458 0.167806
0.000000 0.330382 0.330382
0.000000 0.328244 0.497847
0.000000 0.326061 0.668820
0.000000 0.323842 0.842548
0.000000 0.321595 1.000000
0.000000 0.319936 1.000000
0.000000 0.483632 0.000000
0.000000 0.482847 0.000000
0.000000 0.480879 0.146624
0.000000 0.478803 0.309200
0.000000 0.476664 0.476664
0.000000 0.474481 0.647637
0.000000 0.472263 0.821365
0.000000 0.470015 0.997369
0.000000 0.468356 1.000000
0.000000 0.635162 0.000000
0.000000 0.634376 0.000000
0.000000 0.632408 0.124997
0.000000 0.630332 0.287573
0.000000 0.628194 0.455038
0.000000 0.626011 0.626011
0.000000 0.623792 0.799739
0.000000 0.621545 0.975742
0.000000 0.619886 1.000000
0.000000 0.789133 0.000000
0.000000 0.788348 0.000000
0.000000 0.786380 0.103022
0.000000 0.784304 0.265598
0.000000 0.782165 0.433063
0.000000 0.779982 0.604036
0.000000 0.777764 0.777764
0.000000 0.775516 0.953767
0.000000 0.773857 1.000000
0.000000 0.945121 0.000000
0.000000 0.944336 0.000000
0.000000 0.942368 0.080759
0.000000 0.940292 0.243335
0.000000 0.938153 0.410800
0.000000 0.935970 0.581773
0.000000 0.933752 0.755501
0.000000 0.931504 0.931504
0.000000 0.929845 1.000000
0.000000 1.000000 0.000000
0.000000 1.000000 0.000000
0.000000 1.000000 0.064327
0.000000 1.000000 0.226903
0.000000 1.000000 0.394367
0.000000 1.000000 0.565341
0.000000 1.000000 0.739068
0.000000 1.000000 0.915072
0.000000 1.000000 1.000000
0.059989 0.000000 0.000000
0.059203 0.000000 0.059203
0.057235 0.000000 0.213335
0.055159 0.000000 0.375911
0.053021 0.000000 0.543376
0.050838 0.000000 0.714349
0.048619 0.000000 0.888077
0.046372 0.000000 1.000000
0.044713 0.000000 1.000000
0.052208 0.052208 0.000000
0.051422 0.051422 0.051422
0.049454 0.049454 0.205554
0.047378 0.047378 0.368130
0.045239 0.045239 0.535594
0.043056 0.043056 0.706567
0.040838 0.040838 0.880295
0.038590 0.038590 1.000000
0.036932 0.036932 1.000000
0.032711 0.188811 0.000000
0.031926 0.188026 0.031926
0.029958 0.186058 0.186058
0.027882 0.183982 0.348634
0.025743 0.181843 0.516098
0.023560 0.179660 0.687071
0.021342 0.177442 0.860799
0.019094 0.175194 1.000000
0.017435 0.173535 1.000000
0.012147 0.332899 0.000000
0.011361 0.332113 0.011361
0.009393 0.330145 0.165493
0.007317 0.328069 0.328069
0.005179 0.325931 0.495534
0.002996 0.323748 0.666507
0.000777 0.321529 0.840235
0.000000 0.319282 1.000000
0.000000 0.317623 1.000000
0.000000 0.481319 0.000000
0.000000 0.480534 0.000000
0.000000 0.478565 0.144311
0.000000 0.476489 0.306887
0.000000 0.474351 0.474351
0.000000 0.472168 0.645324
0.000000 0.469949 0.819052
0.000000 0.467702 0.995055
0.000000 0.466043 1.000000
0.000000 0.632849 0.000000
0.000000 0.632063 0.000000
0.000000 0.630095 0.122684
0.000000 0.628019 0.285260
0.000000 0.625881 0.452725
0.000000 0.623698 0.623698
0.000000 0.621479 0.797425
0.000000 0.619232 0.973429
0.000000 0.617573 1.000000
0.000000 0.786820 0.000000
0.000000 0.786035 0.000000
0.000000 0.784067 0.100709
0.000000 0.781991 0.263285
0.000000 0.779852 0.430750
0.000000 0.777669 0.601723
0.000000 0.775450 0.775450
0.000000 0.773203 0.951454
0.000000 0.771544 1.000000
0.000000 0.942808 0.000000
0.000000 0.942023 0.000000
0.000000 0.940055 0.078446
0.000000 0.937979 0.241022
0.000000 0.935840 0.408487
0.000000 0.933657 0.579460
0.000000 0.931439 0.753188
0.000000 0.929191 0.929191
0.000000 0.927532 1.000000
0.000000 1.000000 0.000000
0.000000 1.000000 0.000000
0.000000 1.000000 0.062014
0.000000 1.000000 0.224590
0.000000 1.000000 0.392054
0.000000 1.000000 0.563027
0.000000 1.000000 0.736755
0.000000 1.000000 0.912759
0.000000 1.000000 1.000000
0.210293 0.000000 0.000000
0.209508 0.000000 0.053408
0.207540 0.000000 0.207540
0.205464 0.000000 0.370116
0.203325 0.000000 0.537580
0.201142 0.000000 0.708553
0.198924 0.000000 0.882281
0.196676 0.000000 1.000000
0.195017 0.000000 1.000000
0.202512 0.046412 0.000000
0.201727 0.045627 0.045627
0.199758 0.043658 0.199758
0.197682 0.041582 0.362334
0.195544 0.039444 0.529799
0.193361 0.037261 0.700772
0.191142 0.035042 0.874500
0.188895 0.032795 1.000000
0.187236 0.031136 1.000000
0.183016 0.183016 0.000000
0.182230 0.182230 0.026130
0.180262 0.180262 0.180262
0.178186 0.178186 0.342838
0.176048 0.176048 0.510303
0.173865 0.173865 0.681276
0.171646 0.171646 0.855004
0.169399 0.169399 1.000000
0.167740 0.167740 1.000000
0.162451 0.327104 0.000000
0.161666 0.326318 0.005566
0.159698 0.324350 0.159698
0.157622 0.322274 0.322274
0.155483 0.320135 0.489738
0.153300 0.317952 0.660711
0.151082 0.315734 0.834439
0.148834 0.313486 1.000000
0.147175 0.311828 1.000000
0.141269 0.475524 0.000000
0.140483 0.474738 0.000000
0.138515 0.472770 0.138515
0.136439 0.470694 0.301091
0.134301 0.468556 0.468556
0.132117 0.466372 0.639529
0.129899 0.464154 0.813257
0.127652 0.461907 0.989260
0.125993 0.460248 1.000000
0.119642 0.627053 0.000000
0.118857 0.626268 0.000000
0.116889 0.624300 0.116889
0.114813 0.622224 0.279465
0.112674 0.620085 0.446929
0.110491 0.617902 0.617902
0.108273 0.615684 0.791630
0.106025 0.613436 0.967634
0.104366 0.611777 1.000000
0.097667 0.781025 0.000000
0.096882 0.780239 0.000000
0.094914 0.778271 0.094914
0.092838 0.776195 0.257490
0.090699 0.774057 0.424954
0.088516 0.771873 0.595927
0.086298 0.769655 0.769655
0.084050 0.767408 0.945659
0.082391 0.765749 1.000000
0.075404 0.937013 0.000000
0.074619 0.936227 0.000000
0.072651 0.934259 0.072651
0.070575 0.932183 0.235227
0.068436 0.930045 0.402691
0.066253 0.927862 0.573664
0.064035 0.925643 0.747392
0.061787 0.923396 0.923396
0.060128 0.921737 1.000000
0.058972 1.000000 0.000000
0.058187 1.000000 0.000000
0.056218 1.000000 0.056218
0.054142 1.000000 0.218794
0.052004 1.000000 0.386259
0.049821 1.000000 0.557232
0.047602 1.000000 0.730960
0.045355 1.000000 0.906963
0.043696 1.000000 1.000000
0.368832 0.000000 0.000000
0.368047 0.000000 0.047295
0.366079 0.000000 0.201427
0.364003 0.000000 0.364003
0.361864 0.000000 0.531467
0.359681 0.000000 0.702440
0.357463 0.000000 0.876168
0.355215 0.000000 1.000000
0.353556 0.000000 1.000000
0.361051 0.040299 0.000000
0.360266 0.039514 0.039514
0.358297 0.037545 0.193645
0.356221 0.035470 0.356221
0.354083 0.033331 0.523686
0.351900 0.031148 0.694659
0.349681 0.028929 0.868387
0.347434 0.026682 1.000000
0.345775 0.025023 1.000000
0.341555 0.176903 0.000000
0.340769 0.176117 0.020017
0.338801 0.174149 0.174149
0.336725 0.172073 0.336725
0.334587 0.169935 0.504190
0.332404 0.167752 0.675163
0.330185 0.165533 0.848891
0.327938 0.163286 1.000000
0.326279 0.161627 1.000000
0.320991 0.320991 0.000000
0.320205 0.320205 0.000000
0.318237 0.318237 0.153585
0.316161 0.316161 0.316161
0.314022 0.314022 0.483625
0.311839 0.311839 0.654598
0.309621 0.309621 0.828326
0.307373 0.307373 1.000000
0.305715 0.305715 1.000000
0.299808 0.469411 0.000000
0.299022 0.468625 0.000000
0.297054 0.466657 0.132402
0.294978 0.464581 0.294978
0.292840 0.462443 0.462443
0.290657 0.460259 0.633416
0.288438 0.458041 0.807144
0.286191 0.455794 0.983147
0.284532 0.454135 1.000000
0.278181 0.620941 0.000000
0.277396 0.620155 0.000000
0.275428 0.618187 0.110776
0.273352 0.616111 0.273352
0.271213 0.613972 0.440816
0.269030 0.611789 0.611789
0.266812 0.609571 0.785517
0.264564 0.607323 0.961521
0.262905 0.605665 1.000000
0.256206 0.774912 0.000000
0.255421 0.774126 0.000000
0.253453 0.772158 0.088801
0.251377 0.770082 0.251377
0.249238 0.767944 0.418841
0.247055 0.765760 0.589814
0.244837 0.763542 0.763542
0.242589 0.761295 0.939546
0.240930 0.759636 1.000000
0.233944 0.930900 0.000000
0.233158 0.930114 0.000000
0.231190 0.928146 0.066538
0.229114 0.926070 0.229114
0.226975 0.923932 0.396578
0.224792 0.921749 0.567551
0.222574 0.919530 0.741279
0.220326 0.917283 0.917283
0.218668 0.915624 1.000000
0.217511 1.000000 0.000000
0.216726 1.000000 0.000000
0.214757 1.000000 0.050105
0.212681 1.000000 0.212681
0.210543 1.000000 0.380146
0.208360 1.000000 0.551119
0.206141 1.000000 0.724847
0.203894 1.000000 0.900850
0.202235 1.000000 1.000000
0.532139 0.000000 0.000000
0.531353 0.000000 0.040998
0.529385 0.000000 0.195130
0.527309 0.000000 0.357706
0.525171 0.000000 0.525171
0.522987 0.000000 0.696144
0.520769 0.000000 0.869871
0.518521 0.000000 1.000000
0.516863 0.000000 1.000000
0.524357 0.034002 0.000000
0.523572 0.033217 0.033217
0.521604 0.031249 0.187349
0.519528 0.029173 0.349925
0.517389 0.027034 0.517389
0.515206 0.024851 0.688362
0.512988 0.022633 0.862090
0.510740 0.020385 1.000000
0.509081 0.018726 1.000000
0.504861 0.170606 0.000000
0.504076 0.169821 0.013721
0.502107 0.167852 0.167852
0.500031 0.165776 0.330428
0.497893 0.163638 0.497893
0.495710 0.161455 0.668866
0.493491 0.159236 0.842594
0.491244 0.156989 1.000000
0.489585 0.155330 1.000000
0.484297 0.314694 0.000000
0.483511 0.313908 0.000000
0.481543 0.311940 0.147288
0.479467 0.309864 0.309864
0.477329 0.307726 0.477329
0.475145 0.305542 0.648302
0.472927 0.303324 0.822030
0.470680 0.301077 0.998033
0.469021 0.299418 1.000000
0.463114 0.463114 0.000000
0.462328 0.462328 0.000000
0.460360 0.460360 0.126105
0.458284 0.458284 0.288681
0.456146 0.456146 0.456146
0.453963 0.453963 0.627119
0.451744 0.451744 0.800847
0.449497 0.449497 0.976850
0.447838 0.447838 1.000000
0.441487 0.614644 0.000000
0.440702 0.613858 0.000000
0.438734 0.611890 0.104479
0.436658 0.609814 0.267055
0.434519 0.607676 0.434519
0.432336 0.605492 0.605492
0.430118 0.603274 0.779220
0.427870 0.601027 0.955224
0.426211 0.599368 1.000000
0.419513 0.768615 0.000000
0.418727 0.767830 0.000000
0.416759 0.765861 0.082504
0.414683 0.763785 0.245080
0.412544 0.761647 0.412544
0.410361 0.759464 0.583518
0.408143 0.757245 0.757245
0.405895 0.754998 0.933249
0.404237 0.753339 1.000000
0.397250 0.924603 0.000000
0.396464 0.923818 0.000000
0.394496 0.921849 0.060241
0.392420 0.919774 0.222817
0.390282 0.917635 0.390282
0.388098 0.915452 0.561255
0.385880 0.913233 0.734983
0.383633 0.910986 0.910986
0.381974 0.909327 1.000000
0.380817 1.000000 0.000000
0.380032 1.000000 0.000000
0.378064 1.000000 0.043809
0.375988 1.000000 0.206385
0.373849 1.000000 0.373849
0.371666 1.000000 0.544822
0.369448 1.000000 0.718550
0.367200 1.000000 0.894554
0.365541 1.000000 1.000000
0.698866 0.000000 0.000000
0.698081 0.000000 0.034569
0.696112 0.000000 0.188701
0.694037 0.000000 0.351277
0.691898 0.000000 0.518742
0.689715 0.000000 0.689715
0.687496 0.000000 0.863443
0.685249 0.000000 1.000000
0.683590 0.000000 1.000000
0.691085 0.027574 0.000000
0.690299 0.026788 0.026788
0.688331 0.024820 0.180920
0.686255 0.022744 0.343496
0.684117 0.020606 0.510961
0.681934 0.018422 0.681934
0.679715 0.016204 0.855661
0.677468 0.013957 1.000000
0.675809 0.012298 1.000000
0.671589 0.164177 0.000000
0.670803 0.163392 0.007292
0.668835 0.161424 0.161424
0.666759 0.159348 0.324000
0.664621 0.157209 0.491464
0.662437 0.155026 0.662437
0.660219 0.152808 0.836165
0.657972 0.150560 1.000000
0.656313 0.148901 1.000000
0.651024 0.308265 0.000000
0.650239 0.307480 0.000000
0.648271 0.305511 0.140859
0.646195 0.303435 0.303435
0.644056 0.301297 0.470900
0.641873 0.299114 0.641873
0.639655 0.296895 0.815601
0.637407 0.294648 0.991604
0.635748 0.292989 1.000000
0.629842 0.456685 0.000000
0.629056 0.455900 0.000000
0.627088 0.453932 0.119677
0.625012 0.451856 0.282253
0.622874 0.449717 0.449717
0.620690 0.447534 0.620690
0.618472 0.445316 0.794418
0.616224 0.443068 0.970422
0.614566 0.441409 1.000000
0.608215 0.608215 0.000000
0.607430 0.607430 0.000000
0.605461 0.605461 0.098050
0.603385 0.603385 0.260626
0.601247 0.601247 0.428091
0.599064 0.599064 0.599064
0.596845 0.596845 0.772792
0.594598 0.594598 0.948795
0.592939 0.592939 1.000000
0.586240 0.762186 0.000000
0.585455 0.761401 0.000000
0.583486 0.759433 0.076075
0.581410 0.757357 0.238651
0.579272 0.755218 0.406116
0.577089 0.753035 0.577089
0.574870 0.750817 0.750817
0.572623 0.748569 0.926820
0.570964 0.746910 1.000000
0.563977 0.918174 0.000000
0.563192 0.917389 0.000000
0.561224 0.915421 0.053812
0.559148 0.913345 0.216388
0.557009 0.911206 0.383853
0.554826 0.909023 0.554826
0.552608 0.906805 0.728554
0.550360 0.904557 0.904557
0.548701 0.902898 1.000000
0.547545 1.000000 0.000000
0.546759 1.000000 0.000000
0.544791 1.000000 0.037380
0.542715 1.000000 0.199956
0.540577 1.000000 0.367421
0.538394 1.000000 0.538394
0.536175 1.000000 0.712121
0.533928 1.000000 0.888125
0.532269 1.000000 1.000000
0.868280 0.000000 0.000000
0.867495 0.000000 0.028037
0.865526 0.000000 0.182169
0.863450 0.000000 0.344745
0.861312 0.000000 0.512210
0.859129 0.000000 0.683183
0.856910 0.000000 0.856910
0.854663 0.000000 1.000000
0.853004 0.000000 1.000000
0.860499 0.021041 0.000000
0.859713 0.020256 0.020256
0.857745 0.018288 0.174388
0.855669 0.016212 0.336964
0.853531 0.014073 0.504428
0.851348 0.011890 0.675401
0.849129 0.009672 0.849129
0.846882 0.007424 1.000000
0.845223 0.005765 1.000000
0.841003 0.157645 0.000000
0.840217 0.156860 0.000760
0.838249 0.154892 0.154892
0.836173 0.152816 0.317468
0.834035 0.150677 0.484932
0.831851 0.148494 0.655905
0.829633 0.146275 0.829633
0.827385 0.144028 1.000000
0.825727 0.142369 1.000000
0.820438 0.301733 0.000000
0.819653 0.300947 0.000000
0.817685 0.298979 0.134327
0.815609 0.296903 0.296903
0.813470 0.294765 0.464368
0.811287 0.292582 0.635341
0.809069 0.290363 0.809069
0.806821 0.288116 0.985072
0.805162 0.286457 1.000000
0.799256 0.450153 0.000000
0.798470 0.449368 0.000000
0.796502 0.447399 0.113144
0.794426 0.445323 0.275720
0.792287 0.443185 0.443185
0.790104 0.441002 0.614158
0.787886 0.438783 0.787886
0.785638 0.436536 0.963889
0.783980 0.434877 1.000000
0.777629 0.601683 0.000000
0.776844 0.600897 0.000000
0.774875 0.598929 0.091518
0.772799 0.596853 0.254094
0.770661 0.594715 0.421558
0.768478 0.592532 0.592532
0.766259 0.590313 0.766259
0.764012 0.588066 0.942263
0.762353 0.586407 1.000000
0.755654 0.755654 0.000000
0.754869 0.754869 0.000000
0.752900 0.752900 0.069543
0.750824 0.750824 0.232119
0.748686 0.748686 0.399583
0.746503 0.746503 0.570557
0.744284 0.744284 0.744284
0.742037 0.742037 0.920288
0.740378 0.740378 1.000000
0.733391 0.911642 0.000000
0.732606 0.910857 0.000000
0.730638 0.908889 0.047280
0.728562 0.906813 0.209856
0.726423 0.904674 0.377321
0.724240 0.902491 0.548294
0.722022 0.900273 0.722022
0.719774 0.898025 0.898025
0.718115 0.896366 1.000000
0.716959 1.000000 0.000000
0.716173 1.000000 0.000000
0.714205 1.000000 0.030848
0.712129 1.000000 0.193424
0.709991 1.000000 0.360888
0.707808 1.000000 0.531861
0.705589 1.000000 0.705589
0.703342 1.000000 0.881593
0.701683 1.000000 1.000000
1.000000 0.000000 0.000000
1.000000 0.000000 0.021419
1.000000 0.000000 0.175551
1.000000 0.000000 0.338127
1.000000 0.000000 0.505592
1.000000 0.000000 0.676565
1.000000 0.000000 0.850293
1.000000 0.000000 1.000000
1.000000 0.000000 1.000000
1.000000 0.014424 0.000000
1.000000 0.013638 0.013638
1.000000 0.011670 0.167770
1.000000 0.009594 0.330346
1.000000 0.007456 0.497810
1.000000 0.005272 0.668784
1.000000 0.003054 0.842511
1.000000 0.000806 1.000000
1.000000 0.000000 1.000000
1.000000 0.151027 0.000000
1.000000 0.150242 0.000000
1.000000 0.148274 0.148274
1.000000 0.146198 0.310850
1.000000 0.144059 0.478314
1.000000 0.141876 0.649287
1.000000 0.139658 0.823015
0.999019 0.137410 0.999019
0.997360 0.135751 1.000000
0.992071 0.295115 0.000000
0.991286 0.294329 0.000000
0.989318 0.292361 0.127709
0.987242 0.290285 0.290285
0.985103 0.288147 0.457750
0.982920 0.285964 0.628723
0.980702 0.283745 0.802451
0.978454 0.281498 0.978454
0.976795 0.279839 1.000000
0.970889 0.443535 0.000000
0.970103 0.442750 0.000000
0.968135 0.440782 0.106527
0.966059 0.438706 0.269103
0.963921 0.436567 0.436567
0.961737 0.434384 0.607540
0.959519 0.432166 0.781268
0.957272 0.429918 0.957272
0.955613 0.428259 1.000000
0.949262 0.595065 0.000000
0.948477 0.594279 0.000000
0.946508 0.592311 0.084900
0.944432 0.590235 0.247476
0.942294 0.588097 0.414941
0.940111 0.585914 0.585914
0.937892 0.583695 0.759642
0.935645 0.581448 0.935645
0.933986 0.579789 1.000000
0.927287 0.749036 0.000000
0.926502 0.748251 0.000000
0.924534 0.746283 0.062925
0.922458 0.744207 0.225501
0.920319 0.742068 0.392966
0.918136 0.739885 0.563939
0.915918 0.737667 0.737667
0.913670 0.735419 0.913670
0.912011 0.733760 1.000000
0.905024 0.905024 0.000000
0.904239 0.904239 0.000000
0.902271 0.902271 0.040662
0.900195 0.900195 0.203238
0.898056 0.898056 0.370703
0.895873 0.895873 0.541676
0.893655 0.893655 0.715404
0.891407 0.891407 0.891407
0.889748 0.889748 1.000000
0.888592 1.000000 0.000000
0.887806 1.000000 0.000000
0.885838 1.000000 0.024230
0.883762 1.000000 0.186806
0.881624 1.000000 0.354270
0.879441 1.000000 0.525244
0.877222 1.000000 0.698971
0.874975 1.000000 0.874975
0.873316 1.000000 1.000000
1.000000 0.000000 0.000000
1.000000 0.000000 0.016535
1.000000 0.000000 0.170666
1.000000 0.000000 0.333243
1.000000 0.000000 0.500707
1.000000 0.000000 0.671680
1.000000 0.000000 0.845408
1.000000 0.000000 1.000000
1.000000 0.000000 1.000000
1.000000 0.009539 0.000000
1.000000 0.008753 0.008753
1.000000 0.006785 0.162885
1.000000 0.004709 0.325461
1.000000 0.002571 0.492926
1.000000 0.000388 0.663899
1.000000 0.000000 0.837627
1.000000 0.000000 1.000000
1.000000 0.000000 1.000000
1.000000 0.146143 0.000000
1.000000 0.145357 0.000000
1.000000 0.143389 0.143389
1.000000 0.141313 0.305965
1.000000 0.139175 0.473430
1.000000 0.136991 0.644403
1.000000 0.134773 0.818130
1.000000 0.132526 0.994134
1.000000 0.130867 1.000000
1.000000 0.290230 0.000000
1.000000 0.289445 0.000000
1.000000 0.287477 0.122825
1.000000 0.285401 0.285401
1.000000 0.283262 0.452865
1.000000 0.281079 0.623838
1.000000 0.278861 0.797566
1.000000 0.276613 0.973570
1.000000 0.274954 1.000000
1.000000 0.438651 0.000000
1.000000 0.437865 0.000000
1.000000 0.435897 0.101642
1.000000 0.433821 0.264218
1.000000 0.431682 0.431682
1.000000 0.429499 0.602656
1.000000 0.427281 0.776383
1.000000 0.425033 0.952387
1.000000 0.423375 1.000000
1.000000 0.590180 0.000000
1.000000 0.589395 0.000000
1.000000 0.587427 0.080015
1.000000 0.585351 0.242591
1.000000 0.583212 0.410056
1.000000 0.581029 0.581029
1.000000 0.578811 0.754757
1.000000 0.576563 0.930760
1.000000 0.574904 1.000000
1.000000 0.744152 0.000000
1.000000 0.743366 0.000000
1.000000 0.741398 0.058040
1.000000 0.739322 0.220616
1.000000 0.737183 0.388081
1.000000 0.735000 0.559054
1.000000 0.732782 0.732782
1.000000 0.730534 0.908785
1.000000 0.728876 1.000000
1.000000 0.900140 0.000000
1.000000 0.899354 0.000000
1.000000 0.897386 0.035778
1.000000 0.895310 0.198354
1.000000 0.893172 0.365818
1.000000 0.890988 0.536791
1.000000 0.888770 0.710519
1.000000 0.886523 0.886523
1.000000 0.884864 1.000000
1.000000 1.000000 0.000000
1.000000 1.000000 0.000000
1.000000 1.000000 0.019345
1.000000 1.000000 0.181921
1.000000 1.000000 0.349386
1.000000 1.000000 0.520359
1.000000 1.000000 0.694087
1.000000 1.000000 0.870090
1.000000 1.000000 1.000000
