skills/editops-orchestrator/assets/grade/luts/trailer_punch_v05.cube
TITLE "trailer_punch_v05"
LUT_3D_SIZE 9
DOMAIN_MIN 0.0 0.0 0.0
DOMAIN_MAX 1.0 1.0 1.0
0.000000 0.000000 0.000000
0.000000 0.000000 0.098347
0.000000 0.000000 0.237706
0.000000 0.000000 0.379870
0.000000 0.000000 0.523776
0.000000 0.000000 0.668958
0.000000 0.000000 0.815151
0.000000 0.000000 0.962181
0.000000 0.000000 1.000000
0.000000 0.092672 0.000000
0.000000 0.092035 0.092035
0.000000 0.091132 0.231394
0.000000 0.090210 0.373557
0.000000 0.089278 0.517463
0.000000 0.088337 0.662646
0.000000 0.087390 0.808838
0.000000 0.086437 0.955868
0.000000 0.085604 1.000000
0.000000 0.223989 0.000000
0.000000 0.223352 0.083090
0.000000 0.222449 0.222449
0.000000 0.221528 0.364613
0.000000 0.220595 0.508519
0.000000 0.219655 0.653701
0.000000 0.218707 0.799893
0.000000 0.217755 0.946924
0.000000 0.216921 1.000000
0.000000 0.357949 0.000000
0.000000 0.357312 0.073965
0.000000 0.356409 0.213324
0.000000 0.355488 0.355488
0.000000 0.354555 0.499394
0.000000 0.353615 0.644576
0.000000 0.352667 0.790769
0.000000 0.351715 0.937799
0.000000 0.350881 1.000000
0.000000 0.493551 0.000000
0.000000 0.492914 0.064729
0.000000 0.492011 0.204088
0.000000 0.491090 0.346251
0.000000 0.490157 0.490157
0.000000 0.489217 0.635340
0.000000 0.488269 0.781532
0.000000 0.487317 0.928562
0.000000 0.486483 1.000000
0.000000 0.630356 0.000000
0.000000 0.629718 0.055410
0.000000 0.628815 0.194769
0.000000 0.627894 0.336933
0.000000 0.626962 0.480839
0.000000 0.626021 0.626021
0.000000 0.625074 0.772214
0.000000 0.624121 0.919244
0.000000 0.623288 1.000000
0.000000 0.768112 0.000000
0.000000 0.767475 0.046027
0.000000 0.766572 0.185386
0.000000 0.765651 0.327550
0.000000 0.764718 0.471456
0.000000 0.763778 0.616638
0.000000 0.762830 0.762830
0.000000 0.761878 0.909861
0.000000 0.761044 1.000000
0.000000 0.906658 0.000000
0.000000 0.906021 0.036590
0.000000 0.905118 0.175949
0.000000 0.904197 0.318112
0.000000 0.903264 0.462018
0.000000 0.902323 0.607201
0.000000 0.901376 0.753393
0.000000 0.900424 0.900424
0.000000 0.899590 1.000000
0.000000 1.000000 0.000000
0.000000 1.000000 0.028333
0.000000 1.000000 0.167692
0.000000 1.000000 0.309855
0.000000 1.000000 0.453761
0.000000 1.000000 0.598944
0.000000 1.000000 0.745136
0.000000 1.000000 0.892166
0.000000 1.000000 1.000000
0.097108 0.000000 0.000000
0.096471 0.000000 0.096471
0.095568 0.000000 0.235830
0.094646 0.000000 0.377993
0.093714 0.000000 0.521899
0.092773 0.000000 0.667082
0.091826 0.000000 0.813274
0.090873 0.000000 0.960304
0.090040 0.000000 1.000000
0.090795 0.090795 0.000000
0.090158 0.090158 0.090158
0.089255 0.089255 0.229517
0.088334 0.088334 0.371681
0.087402 0.087402 0.515587
0.086461 0.086461 0.660769
0.085514 0.085514 0.806962
0.084561 0.084561 0.953992
0.083727 0.083727 1.000000
0.081851 0.222113 0.000000
0.081213 0.221476 0.081213
0.080311 0.220573 0.220573
0.079389 0.219651 0.362736
0.078457 0.218719 0.506642
0.077516 0.217778 0.651824
0.076569 0.216831 0.798017
0.075616 0.215878 0.945047
0.074783 0.215045 1.000000
0.072726 0.356073 0.000000
0.072089 0.355436 0.072089
0.071186 0.354533 0.211448
0.070265 0.353611 0.353611
0.069332 0.352679 0.497518
0.068392 0.351738 0.642700
0.067444 0.350791 0.788892
0.066492 0.349838 0.935923
0.065658 0.349005 1.000000
0.063489 0.491675 0.000000
0.062852 0.491038 0.062852
0.061949 0.490135 0.202211
0.061028 0.489213 0.344375
0.060096 0.488281 0.488281
0.059155 0.487340 0.633463
0.058208 0.486393 0.779656
0.057255 0.485440 0.926686
0.056421 0.484607 1.000000
0.054171 0.628479 0.000000
0.053534 0.627842 0.053534
0.052631 0.626939 0.192893
0.051710 0.626018 0.335056
0.050777 0.625085 0.478962
0.049836 0.624145 0.624145
0.048889 0.623197 0.770337
0.047937 0.622245 0.917367
0.047103 0.621411 1.000000
0.044788 0.766236 0.000000
0.044150 0.765599 0.044150
0.043247 0.764696 0.183509
0.042326 0.763774 0.325673
0.041394 0.762842 0.469579
0.040453 0.761901 0.614761
0.039506 0.760954 0.760954
0.038553 0.760001 0.907984
0.037720 0.759168 1.000000
0.035351 0.904782 0.000000
0.034713 0.904144 0.034713
0.033810 0.903241 0.174072
0.032889 0.902320 0.316236
0.031957 0.901388 0.460142
0.031016 0.900447 0.605324
0.030069 0.899500 0.751517
0.029116 0.898547 0.898547
0.028283 0.897714 1.000000
0.027093 1.000000 0.000000
0.026456 1.000000 0.026456
0.025553 1.000000 0.165815
0.024632 1.000000 0.307979
0.023700 1.000000 0.451885
0.022759 1.000000 0.597067
0.021812 1.000000 0.743260
0.020859 1.000000 0.890290
0.020025 1.000000 1.000000
0.234711 0.000000 0.000000
0.234074 0.000000 0.093812
0.233171 0.000000 0.233171
0.232250 0.000000 0.375334
0.231317 0.000000 0.519240
0.230376 0.000000 0.664423
0.229429 0.000000 0.810615
0.228476 0.000000 0.957645
0.227643 0.000000 1.000000
0.228399 0.088137 0.000000
0.227761 0.087499 0.087499
0.226858 0.086596 0.226858
0.225937 0.085675 0.369022
0.225005 0.084743 0.512928
0.224064 0.083802 0.658110
0.223117 0.082855 0.804303
0.222164 0.081902 0.951333
0.221331 0.081069 1.000000
0.219454 0.219454 0.000000
0.218817 0.218817 0.078555
0.217914 0.217914 0.217914
0.216992 0.216992 0.360077
0.216060 0.216060 0.503983
0.215119 0.215119 0.649166
0.214172 0.214172 0.795358
0.213219 0.213219 0.942388
0.212386 0.212386 1.000000
0.210329 0.353414 0.000000
0.209692 0.352777 0.069430
0.208789 0.351874 0.208789
0.207868 0.350953 0.350953
0.206935 0.350020 0.494859
0.205995 0.349079 0.640041
0.205047 0.348132 0.786233
0.204095 0.347179 0.933264
0.203261 0.346346 1.000000
0.201093 0.489016 0.000000
0.200455 0.488379 0.060193
0.199552 0.487476 0.199552
0.198631 0.486554 0.341716
0.197699 0.485622 0.485622
0.196758 0.484681 0.630804
0.195811 0.483734 0.776997
0.194858 0.482781 0.924027
0.194025 0.481948 1.000000
0.191774 0.625820 0.000000
0.191137 0.625183 0.050875
0.190234 0.624280 0.190234
0.189313 0.623359 0.332398
0.188380 0.622427 0.476304
0.187440 0.621486 0.621486
0.186492 0.620539 0.767678
0.185540 0.619586 0.914709
0.184706 0.618752 1.000000
0.182391 0.763577 0.000000
0.181754 0.762940 0.041492
0.180851 0.762037 0.180851
0.179929 0.761115 0.323014
0.178997 0.760183 0.466920
0.178056 0.759242 0.612103
0.177109 0.758295 0.758295
0.176156 0.757342 0.905325
0.175323 0.756509 1.000000
0.172954 0.902123 0.000000
0.172316 0.901485 0.032054
0.171413 0.900582 0.171413
0.170492 0.899661 0.313577
0.169560 0.898729 0.457483
0.168619 0.897788 0.602665
0.167672 0.896841 0.748858
0.166719 0.895888 0.895888
0.165886 0.895055 1.000000
0.164697 1.000000 0.000000
0.164059 1.000000 0.023797
0.163156 1.000000 0.163156
0.162235 1.000000 0.305320
0.161303 1.000000 0.449226
0.160362 1.000000 0.594408
0.159415 1.000000 0.740601
0.158462 1.000000 0.887631
0.157629 1.000000 1.000000
0.375083 0.000000 0.000000
0.374446 0.000000 0.091099
0.373543 0.000000 0.230458
0.372622 0.000000 0.372622
0.371689 0.000000 0.516528
0.370749 0.000000 0.661710
0.369802 0.000000 0.807903
0.368849 0.000000 0.954933
0.368015 0.000000 1.000000
0.368771 0.085424 0.000000
0.368134 0.084787 0.084787
0.367231 0.083884 0.224146
0.366310 0.082963 0.366310
0.365377 0.082030 0.510216
0.364436 0.081090 0.655398
0.363489 0.080142 0.801590
0.362536 0.079190 0.948621
0.361703 0.078356 1.000000
0.359826 0.216741 0.000000
0.359189 0.216104 0.075842
0.358286 0.215201 0.215201
0.357365 0.214280 0.357365
0.356432 0.213348 0.501271
0.355492 0.212407 0.646453
0.354544 0.211460 0.792646
0.353592 0.210507 0.939676
0.352758 0.209673 1.000000
0.350701 0.350701 0.000000
0.350064 0.350064 0.066717
0.349161 0.349161 0.206077
0.348240 0.348240 0.348240
0.347308 0.347308 0.492146
0.346367 0.346367 0.637328
0.345420 0.345420 0.783521
0.344467 0.344467 0.930551
0.343633 0.343633 1.000000
0.341465 0.486303 0.000000
0.340828 0.485666 0.057481
0.339925 0.484763 0.196840
0.339004 0.483842 0.339004
0.338071 0.482910 0.482910
0.337130 0.481969 0.628092
0.336183 0.481022 0.774284
0.335230 0.480069 0.921315
0.334397 0.479235 1.000000
0.332146 0.623108 0.000000
0.331509 0.622471 0.048162
0.330606 0.621568 0.187521
0.329685 0.620647 0.329685
0.328753 0.619714 0.473591
0.327812 0.618773 0.618773
0.326865 0.617826 0.764966
0.325912 0.616873 0.911996
0.325078 0.616040 1.000000
0.322763 0.760864 0.000000
0.322126 0.760227 0.038779
0.321223 0.759324 0.178138
0.320302 0.758403 0.320302
0.319369 0.757471 0.464208
0.318429 0.756530 0.609390
0.317481 0.755583 0.755583
0.316529 0.754630 0.902613
0.315695 0.753796 1.000000
0.313326 0.899410 0.000000
0.312689 0.898773 0.029342
0.311786 0.897870 0.168701
0.310865 0.896949 0.310865
0.309932 0.896016 0.454771
0.308992 0.895076 0.599953
0.308044 0.894128 0.746146
0.307092 0.893176 0.893176
0.306258 0.892342 1.000000
0.305069 1.000000 0.000000
0.304432 1.000000 0.021085
0.303529 1.000000 0.160444
0.302608 1.000000 0.302608
0.301675 1.000000 0.446514
0.300734 1.000000 0.591696
0.299787 1.000000 0.737889
0.298835 1.000000 0.884919
0.298001 1.000000 1.000000
0.517176 0.000000 0.000000
0.516539 0.000000 0.088354
0.515636 0.000000 0.227713
0.514715 0.000000 0.369876
0.513782 0.000000 0.513782
0.512842 0.000000 0.658965
0.511894 0.000000 0.805157
0.510942 0.000000 0.952187
0.510108 0.000000 1.000000
0.510864 0.082678 0.000000
0.510227 0.082041 0.082041
0.509324 0.081138 0.221400
0.508402 0.080217 0.363564
0.507470 0.079285 0.507470
0.506529 0.078344 0.652652
0.505582 0.077397 0.798845
0.504629 0.076444 0.945875
0.503796 0.075610 1.000000
0.501919 0.213996 0.000000
0.501282 0.213359 0.073097
0.500379 0.212456 0.212456
0.499458 0.211534 0.354619
0.498525 0.210602 0.498525
0.497585 0.209661 0.643708
0.496637 0.208714 0.789900
0.495685 0.207761 0.936930
0.494851 0.206928 1.000000
0.492794 0.347956 0.000000
0.492157 0.347319 0.063972
0.491254 0.346416 0.203331
0.490333 0.345494 0.345494
0.489401 0.344562 0.489401
0.488460 0.343621 0.634583
0.487513 0.342674 0.780775
0.486560 0.341721 0.927806
0.485726 0.340888 1.000000
0.483558 0.483558 0.000000
0.482921 0.482921 0.054735
0.482018 0.482018 0.194094
0.481096 0.481096 0.336258
0.480164 0.480164 0.480164
0.479223 0.479223 0.625346
0.478276 0.478276 0.771539
0.477323 0.477323 0.918569
0.476490 0.476490 1.000000
0.474239 0.620362 0.000000
0.473602 0.619725 0.045417
0.472699 0.618822 0.184776
0.471778 0.617901 0.326939
0.470846 0.616968 0.470846
0.469905 0.616028 0.616028
0.468958 0.615081 0.762220
0.468005 0.614128 0.909251
0.467171 0.613294 1.000000
0.464856 0.758119 0.000000
0.464219 0.757482 0.036033
0.463316 0.756579 0.175393
0.462395 0.755657 0.317556
0.461462 0.754725 0.461462
0.460521 0.753784 0.606644
0.459574 0.752837 0.752837
0.458622 0.751884 0.899867
0.457788 0.751051 1.000000
0.455419 0.896665 0.000000
0.454782 0.896027 0.026596
0.453879 0.895124 0.165955
0.452958 0.894203 0.308119
0.452025 0.893271 0.452025
0.451084 0.892330 0.597207
0.450137 0.891383 0.743400
0.449184 0.890430 0.890430
0.448351 0.889597 1.000000
0.447162 1.000000 0.000000
0.446525 1.000000 0.018339
0.445622 1.000000 0.157698
0.444700 1.000000 0.299862
0.443768 1.000000 0.443768
0.442827 1.000000 0.588950
0.441880 1.000000 0.735143
0.440927 1.000000 0.882173
0.440094 1.000000 1.000000
0.660529 0.000000 0.000000
0.659892 0.000000 0.085584
0.658989 0.000000 0.224943
0.658068 0.000000 0.367106
0.657135 0.000000 0.511012
0.656195 0.000000 0.656195
0.655247 0.000000 0.802387
0.654295 0.000000 0.949417
0.653461 0.000000 1.000000
0.654217 0.079908 0.000000
0.653579 0.079271 0.079271
0.652677 0.078368 0.218630
0.651755 0.077447 0.360794
0.650823 0.076515 0.504700
0.649882 0.075574 0.649882
0.648935 0.074627 0.796075
0.647982 0.073674 0.943105
0.647149 0.072840 1.000000
0.645272 0.211226 0.000000
0.644635 0.210589 0.070327
0.643732 0.209686 0.209686
0.642811 0.208764 0.351849
0.641878 0.207832 0.495755
0.640938 0.206891 0.640938
0.639990 0.205944 0.787130
0.639038 0.204991 0.934160
0.638204 0.204158 1.000000
0.636147 0.345186 0.000000
0.635510 0.344549 0.061202
0.634607 0.343646 0.200561
0.633686 0.342724 0.342724
0.632754 0.341792 0.486631
0.631813 0.340851 0.631813
0.630866 0.339904 0.778005
0.629913 0.338951 0.925036
0.629079 0.338118 1.000000
0.626911 0.480788 0.000000
0.626274 0.480151 0.051965
0.625371 0.479248 0.191324
0.624449 0.478326 0.333488
0.623517 0.477394 0.477394
0.622576 0.476453 0.622576
0.621629 0.475506 0.768769
0.620676 0.474553 0.915799
0.619843 0.473720 1.000000
0.617592 0.617592 0.000000
0.616955 0.616955 0.042647
0.616052 0.616052 0.182006
0.615131 0.615131 0.324169
0.614198 0.614198 0.468076
0.613258 0.613258 0.613258
0.612311 0.612311 0.759450
0.611358 0.611358 0.906481
0.610524 0.610524 1.000000
0.608209 0.755349 0.000000
0.607572 0.754712 0.033263
0.606669 0.753809 0.172622
0.605748 0.752887 0.314786
0.604815 0.751955 0.458692
0.603874 0.751014 0.603874
0.602927 0.750067 0.750067
0.601975 0.749114 0.897097
0.601141 0.748281 1.000000
0.598772 0.893895 0.000000
0.598135 0.893257 0.023826
0.597232 0.892354 0.163185
0.596311 0.891433 0.305349
0.595378 0.890501 0.449255
0.594437 0.889560 0.594437
0.593490 0.888613 0.740630
0.592537 0.887660 0.887660
0.591704 0.886827 1.000000
0.590515 1.000000 0.000000
0.589878 1.000000 0.015569
0.588975 1.000000 0.154928
0.588053 1.000000 0.297092
0.587121 1.000000 0.440998
0.586180 1.000000 0.586180
0.585233 1.000000 0.732373
0.584280 1.000000 0.879403
0.583447 1.000000 1.000000
0.804880 0.000000 0.000000
0.804242 0.000000 0.082794
0.803339 0.000000 0.222153
0.802418 0.000000 0.364317
0.801486 0.000000 0.508223
0.800545 0.000000 0.653405
0.799598 0.000000 0.799598
0.798645 0.000000 0.946628
0.797812 0.000000 1.000000
0.798567 0.077119 0.000000
0.797930 0.076482 0.076482
0.797027 0.075579 0.215841
0.796106 0.074658 0.358005
0.795173 0.073725 0.501911
0.794233 0.072785 0.647093
0.793286 0.071837 0.793286
0.792333 0.070885 0.940316
0.791499 0.070051 1.000000
0.789623 0.208436 0.000000
0.788985 0.207799 0.067537
0.788082 0.206896 0.206896
0.787161 0.205975 0.349060
0.786229 0.205043 0.492966
0.785288 0.204102 0.638148
0.784341 0.203155 0.784341
0.783388 0.202202 0.931371
0.782555 0.201368 1.000000
0.780498 0.342397 0.000000
0.779861 0.341759 0.058413
0.778958 0.340856 0.197772
0.778036 0.339935 0.339935
0.777104 0.339003 0.483841
0.776163 0.338062 0.629024
0.775216 0.337115 0.775216
0.774263 0.336162 0.922246
0.773430 0.335329 1.000000
0.771261 0.477998 0.000000
0.770624 0.477361 0.049176
0.769721 0.476458 0.188535
0.768800 0.475537 0.330699
0.767867 0.474605 0.474605
0.766927 0.473664 0.619787
0.765980 0.472717 0.765980
0.765027 0.471764 0.913010
0.764193 0.470930 1.000000
0.761943 0.614803 0.000000
0.761306 0.614166 0.039857
0.760403 0.613263 0.179217
0.759481 0.612342 0.321380
0.758549 0.611409 0.465286
0.757608 0.610468 0.610468
0.756661 0.609521 0.756661
0.755708 0.608569 0.903691
0.754875 0.607735 1.000000
0.752560 0.752560 0.000000
0.751922 0.751922 0.030474
0.751019 0.751019 0.169833
0.750098 0.750098 0.311997
0.749166 0.749166 0.455903
0.748225 0.748225 0.601085
0.747278 0.747278 0.747278
0.746325 0.746325 0.894308
0.745492 0.745492 1.000000
0.743122 0.891105 0.000000
0.742485 0.890468 0.021037
0.741582 0.889565 0.160396
0.740661 0.888644 0.302560
0.739729 0.887711 0.446466
0.738788 0.886771 0.591648
0.737841 0.885824 0.737841
0.736888 0.884871 0.884871
0.736054 0.884037 1.000000
0.734865 1.000000 0.000000
0.734228 1.000000 0.012780
0.733325 1.000000 0.152139
0.732404 1.000000 0.294303
0.731472 1.000000 0.438209
0.730531 1.000000 0.583391
0.729584 1.000000 0.729584
0.728631 1.000000 0.876614
0.727797 1.000000 1.000000
0.950057 0.000000 0.000000
0.949420 0.000000 0.079989
0.948517 0.000000 0.219348
0.947596 0.000000 0.361512
0.946663 0.000000 0.505418
0.945723 0.000000 0.650600
0.944775 0.000000 0.796793
0.943823 0.000000 0.943823
0.942989 0.000000 1.000000
0.943745 0.074314 0.000000
0.943108 0.073677 0.073677
0.942205 0.072774 0.213036
0.941284 0.071853 0.355199
0.940351 0.070920 0.499105
0.939410 0.069979 0.644288
0.938463 0.069032 0.790480
0.937510 0.068079 0.937510
0.936677 0.067246 1.000000
0.934800 0.205631 0.000000
0.934163 0.204994 0.064732
0.933260 0.204091 0.204091
0.932339 0.203170 0.346255
0.931406 0.202237 0.490161
0.930466 0.201297 0.635343
0.929518 0.200349 0.781536
0.928566 0.199397 0.928566
0.927732 0.198563 1.000000
0.925675 0.339591 0.000000
0.925038 0.338954 0.055607
0.924135 0.338051 0.194966
0.923214 0.337130 0.337130
0.922282 0.336197 0.481036
0.921341 0.335257 0.626218
0.920394 0.334310 0.772411
0.919441 0.333357 0.919441
0.918607 0.332523 1.000000
0.916439 0.475193 0.000000
0.915802 0.474556 0.046371
0.914899 0.473653 0.185730
0.913978 0.472732 0.327893
0.913045 0.471799 0.471799
0.912104 0.470859 0.616982
0.911157 0.469911 0.763174
0.910204 0.468959 0.910204
0.909371 0.468125 1.000000
0.907120 0.611998 0.000000
0.906483 0.611360 0.037052
0.905580 0.610458 0.176411
0.904659 0.609536 0.318575
0.903727 0.608604 0.462481
0.902786 0.607663 0.607663
0.901839 0.606716 0.753856
0.900886 0.605763 0.900886
0.900052 0.604930 1.000000
0.897737 0.749754 0.000000
0.897100 0.749117 0.027669
0.896197 0.748214 0.167028
0.895276 0.747293 0.309192
0.894343 0.746360 0.453098
0.893403 0.745420 0.598280
0.892455 0.744472 0.744472
0.891503 0.743520 0.891503
0.890669 0.742686 1.000000
0.888300 0.888300 0.000000
0.887663 0.887663 0.018232
0.886760 0.886760 0.157591
0.885839 0.885839 0.299755
0.884906 0.884906 0.443661
0.883966 0.883966 0.588843
0.883018 0.883018 0.735035
0.882066 0.882066 0.882066
0.881232 0.881232 1.000000
0.880043 1.000000 0.000000
0.879406 1.000000 0.009975
0.878503 1.000000 0.149334
0.877582 1.000000 0.291497
0.876649 1.000000 0.435403
0.875708 1.000000 0.580586
0.874761 1.000000 0.726778
0.873808 1.000000 0.873808
0.872975 1.000000 1.000000
1.000000 0.000000 0.000000
1.000000 0.000000 0.077535
1.000000 0.000000 0.216894
1.000000 0.000000 0.359057
1.000000 0.000000 0.502963
1.000000 0.000000 0.648146
1.000000 0.000000 0.794338
1.000000 0.000000 0.941368
1.000000 0.000000 1.000000
1.000000 0.071859 0.000000
1.000000 0.071222 0.071222
1.000000 0.070319 0.210581
1.000000 0.069398 0.352745
1.000000 0.068466 0.496651
1.000000 0.067525 0.641833
1.000000 0.066578 0.788026
1.000000 0.065625 0.935056
1.000000 0.064791 1.000000
1.000000 0.203177 0.000000
1.000000 0.202539 0.062277
1.000000 0.201637 0.201637
1.000000 0.200715 0.343800
1.000000 0.199783 0.487706
1.000000 0.198842 0.632888
1.000000 0.197895 0.779081
1.000000 0.196942 0.926111
1.000000 0.196109 1.000000
1.000000 0.337137 0.000000
1.000000 0.336500 0.053153
1.000000 0.335597 0.192512
1.000000 0.334675 0.334675
1.000000 0.333743 0.478581
1.000000 0.332802 0.623764
1.000000 0.331855 0.769956
1.000000 0.330902 0.916987
1.000000 0.330069 1.000000
1.000000 0.472739 0.000000
1.000000 0.472101 0.043916
1.000000 0.471199 0.183275
1.000000 0.470277 0.325439
1.000000 0.469345 0.469345
1.000000 0.468404 0.614527
1.000000 0.467457 0.760720
1.000000 0.466504 0.907750
1.000000 0.465671 1.000000
1.000000 0.609543 0.000000
1.000000 0.608906 0.034598
1.000000 0.608003 0.173957
1.000000 0.607082 0.316120
1.000000 0.606149 0.460026
1.000000 0.605209 0.605209
1.000000 0.604261 0.751401
1.000000 0.603309 0.898431
1.000000 0.602475 1.000000
1.000000 0.747300 0.000000
1.000000 0.746663 0.025214
1.000000 0.745760 0.164573
1.000000 0.744838 0.306737
1.000000 0.743906 0.450643
1.000000 0.742965 0.595825
1.000000 0.742018 0.742018
1.000000 0.741065 0.889048
1.000000 0.740232 1.000000
1.000000 0.885846 0.000000
1.000000 0.885208 0.015777
1.000000 0.884305 0.155136
1.000000 0.883384 0.297300
1.000000 0.882452 0.441206
1.000000 0.881511 0.586388
1.000000 0.880564 0.732581
1.000000 0.879611 0.879611
1.000000 0.878778 1.000000
1.000000 1.000000 0.000000
1.000000 1.000000 0.007520
1.000000 1.000000 0.146879
1.000000 1.000000 0.289043
1.000000 1.000000 0.432949
1.000000 1.000000 0.578131
1.000000 1.000000 0.724324
1.000000 1.000000 0.871354
1.000000 1.000000 1.000000
