skills/editops-orchestrator/assets/grade/luts/trailer_punch_v18.cube
TITLE "trailer_punch_v18"
LUT_3D_SIZE 17
DOMAIN_MIN 0.0 0.0 0.0
DOMAIN_MAX 1.0 1.0 1.0
0.000000 0.000000 0.000000
0.000000 0.000000 0.000000
0.000000 0.000000 0.058322
0.000000 0.000000 0.134286
0.000000 0.000000 0.213502
0.000000 0.000000 0.294836
0.000000 0.000000 0.377758
0.000000 0.000000 0.461958
0.000000 0.000000 0.547230
0.000000 0.000000 0.633427
0.000000 0.000000 0.720439
0.000000 0.000000 0.808180
0.000000 0.000000 0.896581
0.000000 0.000000 0.985585
0.000000 0.000000 1.000000
0.000000 0.000000 1.000000
0.000000 0.000000 1.000000
0.000000 0.000000 0.000000
0.000000 0.000000 0.000000
0.000000 0.000000 0.058322
0.000000 0.000000 0.134286
0.000000 0.000000 0.213502
0.000000 0.000000 0.294836
0.000000 0.000000 0.377758
0.000000 0.000000 0.461958
0.000000 0.000000 0.547230
0.000000 0.000000 0.633427
0.000000 0.000000 0.720439
0.000000 0.000000 0.808180
0.000000 0.000000 0.896581
0.000000 0.000000 0.985585
0.000000 0.000000 1.000000
0.000000 0.000000 1.000000
0.000000 0.000000 1.000000
0.000000 0.051443 0.000000
0.000000 0.051443 0.000000
0.000000 0.050670 0.050670
0.000000 0.049664 0.126635
0.000000 0.048615 0.205851
0.000000 0.047538 0.287185
0.000000 0.046440 0.370107
0.000000 0.045325 0.454306
0.000000 0.044195 0.539578
0.000000 0.043054 0.625776
0.000000 0.041901 0.712788
0.000000 0.040739 0.800529
0.000000 0.039569 0.888929
0.000000 0.038390 0.977933
0.000000 0.037204 1.000000
0.000000 0.036011 1.000000
0.000000 0.035483 1.000000
0.000000 0.118448 0.000000
0.000000 0.118448 0.000000
0.000000 0.117675 0.040705
0.000000 0.116669 0.116669
0.000000 0.115620 0.195885
0.000000 0.114543 0.277219
0.000000 0.113445 0.360141
0.000000 0.112330 0.444341
0.000000 0.111200 0.529613
0.000000 0.110059 0.615810
0.000000 0.108906 0.702822
0.000000 0.107744 0.790563
0.000000 0.106574 0.878964
0.000000 0.105395 0.967967
0.000000 0.104209 1.000000
0.000000 0.103016 1.000000
0.000000 0.102488 1.000000
0.000000 0.188321 0.000000
0.000000 0.188321 0.000000
0.000000 0.187548 0.030312
0.000000 0.186542 0.106277
0.000000 0.185493 0.185493
0.000000 0.184416 0.266826
0.000000 0.183318 0.349748
0.000000 0.182202 0.433948
0.000000 0.181073 0.519220
0.000000 0.179932 0.605417
0.000000 0.178779 0.692429
0.000000 0.177617 0.780170
0.000000 0.176446 0.868571
0.000000 0.175268 0.957575
0.000000 0.174082 1.000000
0.000000 0.172889 1.000000
0.000000 0.172361 1.000000
0.000000 0.260061 0.000000
0.000000 0.260061 0.000000
0.000000 0.259288 0.019642
0.000000 0.258282 0.095607
0.000000 0.257233 0.174823
0.000000 0.256156 0.256156
0.000000 0.255058 0.339078
0.000000 0.253943 0.423278
0.000000 0.252813 0.508550
0.000000 0.251672 0.594747
0.000000 0.250520 0.681759
0.000000 0.249357 0.769500
0.000000 0.248187 0.857901
0.000000 0.247008 0.946905
0.000000 0.245822 1.000000
0.000000 0.244629 1.000000
0.000000 0.244101 1.000000
0.000000 0.333202 0.000000
0.000000 0.333202 0.000000
0.000000 0.332430 0.008763
0.000000 0.331424 0.084728
0.000000 0.330375 0.163944
0.000000 0.329298 0.245278
0.000000 0.328200 0.328200
0.000000 0.327084 0.412399
0.000000 0.325955 0.497671
0.000000 0.324814 0.583869
0.000000 0.323661 0.670881
0.000000 0.322499 0.758622
0.000000 0.321328 0.847022
0.000000 0.320150 0.936026
0.000000 0.318963 1.000000
0.000000 0.317771 1.000000
0.000000 0.317242 1.000000
0.000000 0.407471 0.000000
0.000000 0.407471 0.000000
0.000000 0.406699 0.000000
0.000000 0.405693 0.073682
0.000000 0.404644 0.152898
0.000000 0.403567 0.234231
0.000000 0.402468 0.317153
0.000000 0.401353 0.401353
0.000000 0.400224 0.486625
0.000000 0.399082 0.572822
0.000000 0.397930 0.659834
0.000000 0.396768 0.747575
0.000000 0.395597 0.835976
0.000000 0.394418 0.924980
0.000000 0.393232 1.000000
0.000000 0.392039 1.000000
0.000000 0.391511 1.000000
0.000000 0.482686 0.000000
0.000000 0.482686 0.000000
0.000000 0.481913 0.000000
0.000000 0.480907 0.062495
0.000000 0.479858 0.141711
0.000000 0.478781 0.223044
0.000000 0.477683 0.305966
0.000000 0.476568 0.390166
0.000000 0.475438 0.475438
0.000000 0.474297 0.561635
0.000000 0.473144 0.648648
0.000000 0.471982 0.736388
0.000000 0.470812 0.824789
0.000000 0.469633 0.913793
0.000000 0.468447 1.000000
0.000000 0.467254 1.000000
0.000000 0.466726 1.000000
0.000000 0.558716 0.000000
0.000000 0.558716 0.000000
0.000000 0.557944 0.000000
0.000000 0.556938 0.051187
0.000000 0.555889 0.130403
0.000000 0.554811 0.211736
0.000000 0.553713 0.294658
0.000000 0.552598 0.378858
0.000000 0.551469 0.464130
0.000000 0.550327 0.550327
0.000000 0.549175 0.637339
0.000000 0.548013 0.725080
0.000000 0.546842 0.813481
0.000000 0.545663 0.902485
0.000000 0.544477 0.992044
0.000000 0.543284 1.000000
0.000000 0.542756 1.000000
0.000000 0.635465 0.000000
0.000000 0.635465 0.000000
0.000000 0.634693 0.000000
0.000000 0.633687 0.039772
0.000000 0.632638 0.118988
0.000000 0.631561 0.200321
0.000000 0.630463 0.283243
0.000000 0.629347 0.367443
0.000000 0.628218 0.452715
0.000000 0.627076 0.538912
0.000000 0.625924 0.625924
0.000000 0.624762 0.713665
0.000000 0.623591 0.802066
0.000000 0.622413 0.891070
0.000000 0.621226 0.980629
0.000000 0.620034 1.000000
0.000000 0.619505 1.000000
0.000000 0.712858 0.000000
0.000000 0.712858 0.000000
0.000000 0.712085 0.000000
0.000000 0.711079 0.028261
0.000000 0.710030 0.107477
0.000000 0.708953 0.188810
0.000000 0.707855 0.271732
0.000000 0.706740 0.355932
0.000000 0.705610 0.441204
0.000000 0.704469 0.527401
0.000000 0.703316 0.614413
0.000000 0.702154 0.702154
0.000000 0.700984 0.790555
0.000000 0.699805 0.879559
0.000000 0.698619 0.969119
0.000000 0.697426 1.000000
0.000000 0.696898 1.000000
0.000000 0.790832 0.000000
0.000000 0.790832 0.000000
0.000000 0.790059 0.000000
0.000000 0.789053 0.016663
0.000000 0.788004 0.095879
0.000000 0.786927 0.177213
0.000000 0.785829 0.260135
0.000000 0.784714 0.344335
0.000000 0.783584 0.429607
0.000000 0.782443 0.515804
0.000000 0.781290 0.602816
0.000000 0.780128 0.690557
0.000000 0.778958 0.778958
0.000000 0.777779 0.867962
0.000000 0.776593 0.957521
0.000000 0.775400 1.000000
0.000000 0.774872 1.000000
0.000000 0.869338 0.000000
0.000000 0.869338 0.000000
0.000000 0.868566 0.000000
0.000000 0.867559 0.004987
0.000000 0.866510 0.084203
0.000000 0.865433 0.165536
0.000000 0.864335 0.248458
0.000000 0.863220 0.332658
0.000000 0.862091 0.417930
0.000000 0.860949 0.504127
0.000000 0.859797 0.591140
0.000000 0.858635 0.678880
0.000000 0.857464 0.767281
0.000000 0.856285 0.856285
0.000000 0.855099 0.945845
0.000000 0.853906 1.000000
0.000000 0.853378 1.000000
0.000000 0.948334 0.000000
0.000000 0.948334 0.000000
0.000000 0.947562 0.000000
0.000000 0.946556 0.000000
0.000000 0.945507 0.072454
0.000000 0.944430 0.153787
0.000000 0.943331 0.236709
0.000000 0.942216 0.320909
0.000000 0.941087 0.406181
0.000000 0.939945 0.492378
0.000000 0.938793 0.579390
0.000000 0.937631 0.667131
0.000000 0.936460 0.755532
0.000000 0.935281 0.844536
0.000000 0.934095 0.934095
0.000000 0.932902 1.000000
0.000000 0.932374 1.000000
0.000000 1.000000 0.000000
0.000000 1.000000 0.000000
0.000000 1.000000 0.000000
0.000000 1.000000 0.000000
0.000000 1.000000 0.060637
0.000000 1.000000 0.141970
0.000000 1.000000 0.224892
0.000000 1.000000 0.309092
0.000000 1.000000 0.394364
0.000000 1.000000 0.480561
0.000000 1.000000 0.567573
0.000000 1.000000 0.655314
0.000000 1.000000 0.743715
0.000000 1.000000 0.832719
0.000000 1.000000 0.922278
0.000000 1.000000 1.000000
0.000000 1.000000 1.000000
0.000000 1.000000 0.000000
0.000000 1.000000 0.000000
0.000000 1.000000 0.000000
0.000000 1.000000 0.000000
0.000000 1.000000 0.055406
0.000000 1.000000 0.136739
0.000000 1.000000 0.219661
0.000000 1.000000 0.303861
0.000000 1.000000 0.389133
0.000000 1.000000 0.475330
0.000000 1.000000 0.562342
0.000000 1.000000 0.650083
0.000000 1.000000 0.738484
0.000000 1.000000 0.827488
0.000000 1.000000 0.917047
0.000000 1.000000 1.000000
0.000000 1.000000 1.000000
0.000000 0.000000 0.000000
0.000000 0.000000 0.000000
0.000000 0.000000 0.058322
0.000000 0.000000 0.134286
0.000000 0.000000 0.213502
0.000000 0.000000 0.294836
0.000000 0.000000 0.377758
0.000000 0.000000 0.461958
0.000000 0.000000 0.547230
0.000000 0.000000 0.633427
0.000000 0.000000 0.720439
0.000000 0.000000 0.808180
0.000000 0.000000 0.896581
0.000000 0.000000 0.985585
0.000000 0.000000 1.000000
0.000000 0.000000 1.000000
0.000000 0.000000 1.000000
0.000000 0.000000 0.000000
0.000000 0.000000 0.000000
0.000000 0.000000 0.058322
0.000000 0.000000 0.134286
0.000000 0.000000 0.213502
0.000000 0.000000 0.294836
0.000000 0.000000 0.377758
0.000000 0.000000 0.461958
0.000000 0.000000 0.547230
0.000000 0.000000 0.633427
0.000000 0.000000 0.720439
0.000000 0.000000 0.808180
0.000000 0.000000 0.896581
0.000000 0.000000 0.985585
0.000000 0.000000 1.000000
0.000000 0.000000 1.000000
0.000000 0.000000 1.000000
0.000000 0.051443 0.000000
0.000000 0.051443 0.000000
0.000000 0.050670 0.050670
0.000000 0.049664 0.126635
0.000000 0.048615 0.205851
0.000000 0.047538 0.287185
0.000000 0.046440 0.370107
0.000000 0.045325 0.454306
0.000000 0.044195 0.539578
0.000000 0.043054 0.625776
0.000000 0.041901 0.712788
0.000000 0.040739 0.800529
0.000000 0.039569 0.888929
0.000000 0.038390 0.977933
0.000000 0.037204 1.000000
0.000000 0.036011 1.000000
0.000000 0.035483 1.000000
0.000000 0.118448 0.000000
0.000000 0.118448 0.000000
0.000000 0.117675 0.040705
0.000000 0.116669 0.116669
0.000000 0.115620 0.195885
0.000000 0.114543 0.277219
0.000000 0.113445 0.360141
0.000000 0.112330 0.444341
0.000000 0.111200 0.529613
0.000000 0.110059 0.615810
0.000000 0.108906 0.702822
0.000000 0.107744 0.790563
0.000000 0.106574 0.878964
0.000000 0.105395 0.967967
0.000000 0.104209 1.000000
0.000000 0.103016 1.000000
0.000000 0.102488 1.000000
0.000000 0.188321 0.000000
0.000000 0.188321 0.000000
0.000000 0.187548 0.030312
0.000000 0.186542 0.106277
0.000000 0.185493 0.185493
0.000000 0.184416 0.266826
0.000000 0.183318 0.349748
0.000000 0.182202 0.433948
0.000000 0.181073 0.519220
0.000000 0.179932 0.605417
0.000000 0.178779 0.692429
0.000000 0.177617 0.780170
0.000000 0.176446 0.868571
0.000000 0.175268 0.957575
0.000000 0.174082 1.000000
0.000000 0.172889 1.000000
0.000000 0.172361 1.000000
0.000000 0.260061 0.000000
0.000000 0.260061 0.000000
0.000000 0.259288 0.019642
0.000000 0.258282 0.095607
0.000000 0.257233 0.174823
0.000000 0.256156 0.256156
0.000000 0.255058 0.339078
0.000000 0.253943 0.423278
0.000000 0.252813 0.508550
0.000000 0.251672 0.594747
0.000000 0.250520 0.681759
0.000000 0.249357 0.769500
0.000000 0.248187 0.857901
0.000000 0.247008 0.946905
0.000000 0.245822 1.000000
0.000000 0.244629 1.000000
0.000000 0.244101 1.000000
0.000000 0.333202 0.000000
0.000000 0.333202 0.000000
0.000000 0.332430 0.008763
0.000000 0.331424 0.084728
0.000000 0.330375 0.163944
0.000000 0.329298 0.245278
0.000000 0.328200 0.328200
0.000000 0.327084 0.412399
0.000000 0.325955 0.497671
0.000000 0.324814 0.583869
0.000000 0.323661 0.670881
0.000000 0.322499 0.758622
0.000000 0.321328 0.847022
0.000000 0.320150 0.936026
0.000000 0.318963 1.000000
0.000000 0.317771 1.000000
0.000000 0.317242 1.000000
0.000000 0.407471 0.000000
0.000000 0.407471 0.000000
0.000000 0.406699 0.000000
0.000000 0.405693 0.073682
0.000000 0.404644 0.152898
0.000000 0.403567 0.234231
0.000000 0.402468 0.317153
0.000000 0.401353 0.401353
0.000000 0.400224 0.486625
0.000000 0.399082 0.572822
0.000000 0.397930 0.659834
0.000000 0.396768 0.747575
0.000000 0.395597 0.835976
0.000000 0.394418 0.924980
0.000000 0.393232 1.000000
0.000000 0.392039 1.000000
0.000000 0.391511 1.000000
0.000000 0.482686 0.000000
0.000000 0.482686 0.000000
0.000000 0.481913 0.000000
0.000000 0.480907 0.062495
0.000000 0.479858 0.141711
0.000000 0.478781 0.223044
0.000000 0.477683 0.305966
0.000000 0.476568 0.390166
0.000000 0.475438 0.475438
0.000000 0.474297 0.561635
0.000000 0.473144 0.648648
0.000000 0.471982 0.736388
0.000000 0.470812 0.824789
0.000000 0.469633 0.913793
0.000000 0.468447 1.000000
0.000000 0.467254 1.000000
0.000000 0.466726 1.000000
0.000000 0.558716 0.000000
0.000000 0.558716 0.000000
0.000000 0.557944 0.000000
0.000000 0.556938 0.051187
0.000000 0.555889 0.130403
0.000000 0.554811 0.211736
0.000000 0.553713 0.294658
0.000000 0.552598 0.378858
0.000000 0.551469 0.464130
0.000000 0.550327 0.550327
0.000000 0.549175 0.637339
0.000000 0.548013 0.725080
0.000000 0.546842 0.813481
0.000000 0.545663 0.902485
0.000000 0.544477 0.992044
0.000000 0.543284 1.000000
0.000000 0.542756 1.000000
0.000000 0.635465 0.000000
0.000000 0.635465 0.000000
0.000000 0.634693 0.000000
0.000000 0.633687 0.039772
0.000000 0.632638 0.118988
0.000000 0.631561 0.200321
0.000000 0.630463 0.283243
0.000000 0.629347 0.367443
0.000000 0.628218 0.452715
0.000000 0.627076 0.538912
0.000000 0.625924 0.625924
0.000000 0.624762 0.713665
0.000000 0.623591 0.802066
0.000000 0.622413 0.891070
0.000000 0.621226 0.980629
0.000000 0.620034 1.000000
0.000000 0.619505 1.000000
0.000000 0.712858 0.000000
0.000000 0.712858 0.000000
0.000000 0.712085 0.000000
0.000000 0.711079 0.028261
0.000000 0.710030 0.107477
0.000000 0.708953 0.188810
0.000000 0.707855 0.271732
0.000000 0.706740 0.355932
0.000000 0.705610 0.441204
0.000000 0.704469 0.527401
0.000000 0.703316 0.614413
0.000000 0.702154 0.702154
0.000000 0.700984 0.790555
0.000000 0.699805 0.879559
0.000000 0.698619 0.969119
0.000000 0.697426 1.000000
0.000000 0.696898 1.000000
0.000000 0.790832 0.000000
0.000000 0.790832 0.000000
0.000000 0.790059 0.000000
0.000000 0.789053 0.016663
0.000000 0.788004 0.095879
0.000000 0.786927 0.177213
0.000000 0.785829 0.260135
0.000000 0.784714 0.344335
0.000000 0.783584 0.429607
0.000000 0.782443 0.515804
0.000000 0.781290 0.602816
0.000000 0.780128 0.690557
0.000000 0.778958 0.778958
0.000000 0.777779 0.867962
0.000000 0.776593 0.957521
0.000000 0.775400 1.000000
0.000000 0.774872 1.000000
0.000000 0.869338 0.000000
0.000000 0.869338 0.000000
0.000000 0.868566 0.000000
0.000000 0.867559 0.004987
0.000000 0.866510 0.084203
0.000000 0.865433 0.165536
0.000000 0.864335 0.248458
0.000000 0.863220 0.332658
0.000000 0.862091 0.417930
0.000000 0.860949 0.504127
0.000000 0.859797 0.591140
0.000000 0.858635 0.678880
0.000000 0.857464 0.767281
0.000000 0.856285 0.856285
0.000000 0.855099 0.945845
0.000000 0.853906 1.000000
0.000000 0.853378 1.000000
0.000000 0.948334 0.000000
0.000000 0.948334 0.000000
0.000000 0.947562 0.000000
0.000000 0.946556 0.000000
0.000000 0.945507 0.072454
0.000000 0.944430 0.153787
0.000000 0.943331 0.236709
0.000000 0.942216 0.320909
0.000000 0.941087 0.406181
0.000000 0.939945 0.492378
0.000000 0.938793 0.579390
0.000000 0.937631 0.667131
0.000000 0.936460 0.755532
0.000000 0.935281 0.844536
0.000000 0.934095 0.934095
0.000000 0.932902 1.000000
0.000000 0.932374 1.000000
0.000000 1.000000 0.000000
0.000000 1.000000 0.000000
0.000000 1.000000 0.000000
0.000000 1.000000 0.000000
0.000000 1.000000 0.060637
0.000000 1.000000 0.141970
0.000000 1.000000 0.224892
0.000000 1.000000 0.309092
0.000000 1.000000 0.394364
0.000000 1.000000 0.480561
0.000000 1.000000 0.567573
0.000000 1.000000 0.655314
0.000000 1.000000 0.743715
0.000000 1.000000 0.832719
0.000000 1.000000 0.922278
0.000000 1.000000 1.000000
0.000000 1.000000 1.000000
0.000000 1.000000 0.000000
0.000000 1.000000 0.000000
0.000000 1.000000 0.000000
0.000000 1.000000 0.000000
0.000000 1.000000 0.055406
0.000000 1.000000 0.136739
0.000000 1.000000 0.219661
0.000000 1.000000 0.303861
0.000000 1.000000 0.389133
0.000000 1.000000 0.475330
0.000000 1.000000 0.562342
0.000000 1.000000 0.650083
0.000000 1.000000 0.738484
0.000000 1.000000 0.827488
0.000000 1.000000 0.917047
0.000000 1.000000 1.000000
0.000000 1.000000 1.000000
0.056820 0.000000 0.000000
0.056820 0.000000 0.000000
0.056047 0.000000 0.056047
0.055041 0.000000 0.132012
0.053992 0.000000 0.211228
0.052915 0.000000 0.292561
0.051817 0.000000 0.375483
0.050702 0.000000 0.459683
0.049572 0.000000 0.544955
0.048431 0.000000 0.631152
0.047278 0.000000 0.718165
0.046116 0.000000 0.805905
0.044946 0.000000 0.894306
0.043767 0.000000 0.983310
0.042581 0.000000 1.000000
0.041388 0.000000 1.000000
0.040860 0.000000 1.000000
0.056820 0.000000 0.000000
0.056820 0.000000 0.000000
0.056047 0.000000 0.056047
0.055041 0.000000 0.132012
0.053992 0.000000 0.211228
0.052915 0.000000 0.292561
0.051817 0.000000 0.375483
0.050702 0.000000 0.459683
0.049572 0.000000 0.544955
0.048431 0.000000 0.631152
0.047278 0.000000 0.718165
0.046116 0.000000 0.805905
0.044946 0.000000 0.894306
0.043767 0.000000 0.983310
0.042581 0.000000 1.000000
0.041388 0.000000 1.000000
0.040860 0.000000 1.000000
0.049168 0.049168 0.000000
0.049168 0.049168 0.000000
0.048396 0.048396 0.048396
0.047390 0.047390 0.124361
0.046341 0.046341 0.203577
0.045264 0.045264 0.284910
0.044165 0.044165 0.367832
0.043050 0.043050 0.452032
0.041921 0.041921 0.537304
0.040779 0.040779 0.623501
0.039627 0.039627 0.710513
0.038465 0.038465 0.798254
0.037294 0.037294 0.886655
0.036116 0.036116 0.975659
0.034929 0.034929 1.000000
0.033736 0.033736 1.000000
0.033208 0.033208 1.000000
0.039203 0.116173 0.000000
0.039203 0.116173 0.000000
0.038430 0.115401 0.038430
0.037424 0.114395 0.114395
0.036375 0.113346 0.193611
0.035298 0.112269 0.274944
0.034200 0.111170 0.357866
0.033084 0.110055 0.442066
0.031955 0.108926 0.527338
0.030814 0.107784 0.613535
0.029661 0.106632 0.700547
0.028499 0.105470 0.788288
0.027328 0.104299 0.876689
0.026150 0.103120 0.965693
0.024964 0.101934 1.000000
0.023771 0.100741 1.000000
0.023243 0.100213 1.000000
0.028810 0.186046 0.000000
0.028810 0.186046 0.000000
0.028038 0.185274 0.028038
0.027032 0.184268 0.104002
0.025983 0.183219 0.183219
0.024905 0.182141 0.264552
0.023807 0.181043 0.347474
0.022692 0.179928 0.431674
0.021563 0.178799 0.516946
0.020421 0.177657 0.603143
0.019269 0.176505 0.690155
0.018107 0.175343 0.777896
0.016936 0.174172 0.866297
0.015757 0.172993 0.955301
0.014571 0.171807 1.000000
0.013378 0.170614 1.000000
0.012850 0.170086 1.000000
0.018140 0.257786 0.000000
0.018140 0.257786 0.000000
0.017368 0.257014 0.017368
0.016361 0.256008 0.093332
0.015312 0.254959 0.172548
0.014235 0.253882 0.253882
0.013137 0.252784 0.336804
0.012022 0.251668 0.421004
0.010893 0.250539 0.506276
0.009751 0.249397 0.592473
0.008599 0.248245 0.679485
0.007437 0.247083 0.767226
0.006266 0.245912 0.855627
0.005087 0.244734 0.944630
0.003901 0.243547 1.000000
0.002708 0.242355 1.000000
0.002180 0.241826 1.000000
0.007261 0.330928 0.000000
0.007261 0.330928 0.000000
0.006489 0.330156 0.006489
0.005483 0.329150 0.082454
0.004434 0.328100 0.161670
0.003357 0.327023 0.243003
0.002258 0.325925 0.325925
0.001143 0.324810 0.410125
0.000014 0.323681 0.495397
0.000000 0.322539 0.581594
0.000000 0.321387 0.668606
0.000000 0.320225 0.756347
0.000000 0.319054 0.844748
0.000000 0.317875 0.933752
0.000000 0.316689 1.000000
0.000000 0.315496 1.000000
0.000000 0.314968 1.000000
0.000000 0.405197 0.000000
0.000000 0.405197 0.000000
0.000000 0.404424 0.000000
0.000000 0.403418 0.071407
0.000000 0.402369 0.150624
0.000000 0.401292 0.231957
0.000000 0.400194 0.314879
0.000000 0.399079 0.399079
0.000000 0.397949 0.484351
0.000000 0.396808 0.570548
0.000000 0.395656 0.657560
0.000000 0.394494 0.745301
0.000000 0.393323 0.833702
0.000000 0.392144 0.922706
0.000000 0.390958 1.000000
0.000000 0.389765 1.000000
0.000000 0.389237 1.000000
0.000000 0.480411 0.000000
0.000000 0.480411 0.000000
0.000000 0.479639 0.000000
0.000000 0.478633 0.060221
0.000000 0.477584 0.139437
0.000000 0.476507 0.220770
0.000000 0.475408 0.303692
0.000000 0.474293 0.387892
0.000000 0.473164 0.473164
0.000000 0.472022 0.559361
0.000000 0.470870 0.646373
0.000000 0.469708 0.734114
0.000000 0.468537 0.822515
0.000000 0.467358 0.911519
0.000000 0.466172 1.000000
0.000000 0.464979 1.000000
0.000000 0.464451 1.000000
0.000000 0.556442 0.000000
0.000000 0.556442 0.000000
0.000000 0.555669 0.000000
0.000000 0.554663 0.048912
0.000000 0.553614 0.128128
0.000000 0.552537 0.209462
0.000000 0.551439 0.292384
0.000000 0.550324 0.376584
0.000000 0.549194 0.461856
0.000000 0.548053 0.548053
0.000000 0.546900 0.635065
0.000000 0.545738 0.722806
0.000000 0.544568 0.811207
0.000000 0.543389 0.900210
0.000000 0.542203 0.989770
0.000000 0.541010 1.000000
0.000000 0.540482 1.000000
0.000000 0.633191 0.000000
0.000000 0.633191 0.000000
0.000000 0.632419 0.000000
0.000000 0.631413 0.037497
0.000000 0.630363 0.116713
0.000000 0.629286 0.198047
0.000000 0.628188 0.280969
0.000000 0.627073 0.365168
0.000000 0.625944 0.450440
0.000000 0.624802 0.536638
0.000000 0.623650 0.623650
0.000000 0.622488 0.711391
0.000000 0.621317 0.799791
0.000000 0.620138 0.888795
0.000000 0.618952 0.978355
0.000000 0.617759 1.000000
0.000000 0.617231 1.000000
0.000000 0.710583 0.000000
0.000000 0.710583 0.000000
0.000000 0.709811 0.000000
0.000000 0.708805 0.025986
0.000000 0.707756 0.105202
0.000000 0.706678 0.186536
0.000000 0.705580 0.269458
0.000000 0.704465 0.353658
0.000000 0.703336 0.438930
0.000000 0.702194 0.525127
0.000000 0.701042 0.612139
0.000000 0.699880 0.699880
0.000000 0.698709 0.788281
0.000000 0.697530 0.877284
0.000000 0.696344 0.966844
0.000000 0.695151 1.000000
0.000000 0.694623 1.000000
0.000000 0.788557 0.000000
0.000000 0.788557 0.000000
0.000000 0.787785 0.000000
0.000000 0.786779 0.014389
0.000000 0.785730 0.093605
0.000000 0.784653 0.174938
0.000000 0.783554 0.257860
0.000000 0.782439 0.342060
0.000000 0.781310 0.427332
0.000000 0.780168 0.513530
0.000000 0.779016 0.600542
0.000000 0.777854 0.688283
0.000000 0.776683 0.776683
0.000000 0.775505 0.865687
0.000000 0.774318 0.955247
0.000000 0.773125 1.000000
0.000000 0.772597 1.000000
0.000000 0.867064 0.000000
0.000000 0.867064 0.000000
0.000000 0.866291 0.000000
0.000000 0.865285 0.002712
0.000000 0.864236 0.081929
0.000000 0.863159 0.163262
0.000000 0.862061 0.246184
0.000000 0.860945 0.330384
0.000000 0.859816 0.415656
0.000000 0.858675 0.501853
0.000000 0.857522 0.588865
0.000000 0.856360 0.676606
0.000000 0.855189 0.765007
0.000000 0.854011 0.854011
0.000000 0.852825 0.943570
0.000000 0.851632 1.000000
0.000000 0.851104 1.000000
0.000000 0.946060 0.000000
0.000000 0.946060 0.000000
0.000000 0.945287 0.000000
0.000000 0.944281 0.000000
0.000000 0.943232 0.070179
0.000000 0.942155 0.151513
0.000000 0.941057 0.234435
0.000000 0.939942 0.318634
0.000000 0.938812 0.403906
0.000000 0.937671 0.490104
0.000000 0.936519 0.577116
0.000000 0.935357 0.664857
0.000000 0.934186 0.753257
0.000000 0.933007 0.842261
0.000000 0.931821 0.931821
0.000000 0.930628 1.000000
0.000000 0.930100 1.000000
0.000000 1.000000 0.000000
0.000000 1.000000 0.000000
0.000000 1.000000 0.000000
0.000000 1.000000 0.000000
0.000000 1.000000 0.058362
0.000000 1.000000 0.139696
0.000000 1.000000 0.222618
0.000000 1.000000 0.306817
0.000000 1.000000 0.392089
0.000000 1.000000 0.478287
0.000000 1.000000 0.565299
0.000000 1.000000 0.653040
0.000000 1.000000 0.741440
0.000000 1.000000 0.830444
0.000000 1.000000 0.920004
0.000000 1.000000 1.000000
0.000000 1.000000 1.000000
0.000000 1.000000 0.000000
0.000000 1.000000 0.000000
0.000000 1.000000 0.000000
0.000000 1.000000 0.000000
0.000000 1.000000 0.053131
0.000000 1.000000 0.134465
0.000000 1.000000 0.217387
0.000000 1.000000 0.301586
0.000000 1.000000 0.386858
0.000000 1.000000 0.473056
0.000000 1.000000 0.560068
0.000000 1.000000 0.647809
0.000000 1.000000 0.736209
0.000000 1.000000 0.825213
0.000000 1.000000 0.914773
0.000000 1.000000 1.000000
0.000000 1.000000 1.000000
0.130828 0.000000 0.000000
0.130828 0.000000 0.000000
0.130056 0.000000 0.053085
0.129049 0.000000 0.129049
0.128000 0.000000 0.208266
0.126923 0.000000 0.289599
0.125825 0.000000 0.372521
0.124710 0.000000 0.456721
0.123581 0.000000 0.541993
0.122439 0.000000 0.628190
0.121287 0.000000 0.715202
0.120125 0.000000 0.802943
0.118954 0.000000 0.891344
0.117775 0.000000 0.980348
0.116589 0.000000 1.000000
0.115396 0.000000 1.000000
0.114868 0.000000 1.000000
0.130828 0.000000 0.000000
