skills/editops-orchestrator/assets/grade/luts/trailer_punch_v03.cube
TITLE "trailer_punch_v03"
LUT_3D_SIZE 5
DOMAIN_MIN 0.0 0.0 0.0
DOMAIN_MAX 1.0 1.0 1.0
0.000000 0.000000 0.000000
0.000000 0.000000 0.240686
0.000000 0.000000 0.519521
0.000000 0.000000 0.802457
0.000000 0.000000 1.000000
0.000000 0.229302 0.000000
0.000000 0.228024 0.228024
0.000000 0.226543 0.506859
0.000000 0.225040 0.789795
0.000000 0.223602 1.000000
0.000000 0.494949 0.000000
0.000000 0.493670 0.213354
0.000000 0.492189 0.492189
0.000000 0.490687 0.775125
0.000000 0.489249 1.000000
0.000000 0.764502 0.000000
0.000000 0.763224 0.198469
0.000000 0.761743 0.477304
0.000000 0.760240 0.760240
0.000000 0.758802 1.000000
0.000000 1.000000 0.000000
0.000000 1.000000 0.184223
0.000000 1.000000 0.463058
0.000000 1.000000 0.745994
0.000000 1.000000 1.000000
0.238200 0.000000 0.000000
0.236922 0.000000 0.236922
0.235441 0.000000 0.515757
0.233938 0.000000 0.798693
0.232500 0.000000 1.000000
0.225538 0.225538 0.000000
0.224260 0.224260 0.224260
0.222779 0.222779 0.503095
0.221276 0.221276 0.786031
0.219838 0.219838 1.000000
0.210868 0.491185 0.000000
0.209590 0.489906 0.209590
0.208109 0.488425 0.488425
0.206607 0.486923 0.771361
0.205168 0.485485 1.000000
0.195983 0.760738 0.000000
0.194705 0.759460 0.194705
0.193224 0.757979 0.473540
0.191722 0.756476 0.756476
0.190283 0.755038 1.000000
0.181737 1.000000 0.000000
0.180459 1.000000 0.180459
0.178978 1.000000 0.459294
0.177475 1.000000 0.742230
0.176037 1.000000 1.000000
0.514156 0.000000 0.000000
0.512878 0.000000 0.232561
0.511397 0.000000 0.511397
0.509894 0.000000 0.794332
0.508456 0.000000 1.000000
0.501493 0.221177 0.000000
0.500215 0.219899 0.219899
0.498734 0.218418 0.498734
0.497232 0.216915 0.781670
0.495793 0.215477 1.000000
0.486824 0.486824 0.000000
0.485546 0.485546 0.205230
0.484065 0.484065 0.484065
0.482562 0.482562 0.767001
0.481124 0.481124 1.000000
0.471939 0.756377 0.000000
0.470661 0.755099 0.190344
0.469180 0.753618 0.469180
0.467677 0.752115 0.752115
0.466239 0.750677 1.000000
0.457693 1.000000 0.000000
0.456414 1.000000 0.176098
0.454934 1.000000 0.454934
0.453431 1.000000 0.737869
0.451993 1.000000 1.000000
0.794170 0.000000 0.000000
0.792891 0.000000 0.228137
0.791410 0.000000 0.506972
0.789908 0.000000 0.789908
0.788470 0.000000 1.000000
0.781507 0.216753 0.000000
0.780229 0.215474 0.215474
0.778748 0.213993 0.494310
0.777245 0.212491 0.777245
0.775807 0.211053 1.000000
0.766838 0.482399 0.000000
0.765559 0.481121 0.200805
0.764079 0.479640 0.479640
0.762576 0.478137 0.762576
0.761138 0.476699 1.000000
0.751953 0.751953 0.000000
0.750674 0.750674 0.185920
0.749193 0.749193 0.464755
0.747691 0.747691 0.747691
0.746253 0.746253 1.000000
0.737706 1.000000 0.000000
0.736428 1.000000 0.171674
0.734947 1.000000 0.450509
0.733445 1.000000 0.733445
0.732006 1.000000 1.000000
1.000000 0.000000 0.000000
1.000000 0.000000 0.223902
1.000000 0.000000 0.502737
1.000000 0.000000 0.785673
1.000000 0.000000 1.000000
1.000000 0.212518 0.000000
1.000000 0.211239 0.211239
1.000000 0.209759 0.490075
1.000000 0.208256 0.773011
1.000000 0.206818 1.000000
1.000000 0.478164 0.000000
1.000000 0.476886 0.196570
1.000000 0.475405 0.475405
1.000000 0.473903 0.758341
1.000000 0.472464 1.000000
1.000000 0.747718 0.000000
1.000000 0.746439 0.181685
1.000000 0.744959 0.460520
1.000000 0.743456 0.743456
1.000000 0.742018 1.000000
1.000000 1.000000 0.000000
1.000000 1.000000 0.167439
1.000000 1.000000 0.446274
1.000000 1.000000 0.729210
1.000000 1.000000 1.000000
