skills/editops-orchestrator/assets/grade/luts/trailer_punch_v18.cube
TITLE "trailer_punch_v18"
LUT_3D_SIZE 5
DOMAIN_MIN 0.0 0.0 0.0
DOMAIN_MAX 1.0 1.0 1.0
0.000000 0.000000 0.000000
0.000000 0.000000 0.213502
0.000000 0.000000 0.547230
0.000000 0.000000 0.896581
0.000000 0.000000 1.000000
0.000000 0.188321 0.000000
0.000000 0.185493 0.185493
0.000000 0.181073 0.519220
0.000000 0.176446 0.868571
0.000000 0.172361 1.000000
0.000000 0.482686 0.000000
0.000000 0.479858 0.141711
0.000000 0.475438 0.475438
0.000000 0.470812 0.824789
0.000000 0.466726 1.000000
0.000000 0.790832 0.000000
0.000000 0.788004 0.095879
0.000000 0.783584 0.429607
0.000000 0.778958 0.778958
0.000000 0.774872 1.000000
0.000000 1.000000 0.000000
0.000000 1.000000 0.055406
0.000000 1.000000 0.389133
0.000000 1.000000 0.738484
0.000000 1.000000 1.000000
0.208004 0.000000 0.000000
0.205176 0.000000 0.205176
0.200757 0.000000 0.538904
0.196130 0.000000 0.888255
0.192044 0.000000 1.000000
0.179994 0.179994 0.000000
0.177167 0.177167 0.177167
0.172747 0.172747 0.510894
0.168120 0.168120 0.860245
0.164034 0.164034 1.000000
0.136213 0.474360 0.000000
0.133385 0.471532 0.133385
0.128965 0.467112 0.467112
0.124338 0.462485 0.816463
0.120253 0.458400 1.000000
0.090381 0.782506 0.000000
0.087553 0.779678 0.087553
0.083134 0.775258 0.421281
0.078507 0.770632 0.770632
0.074421 0.766546 1.000000
0.049907 1.000000 0.000000
0.047080 1.000000 0.047080
0.042660 1.000000 0.380807
0.038033 1.000000 0.730158
0.033947 1.000000 1.000000
0.533136 0.000000 0.000000
0.530309 0.000000 0.192162
0.525889 0.000000 0.525889
0.521262 0.000000 0.875240
0.517176 0.000000 1.000000
0.505127 0.166980 0.000000
0.502299 0.164152 0.164152
0.497880 0.159732 0.497880
0.493253 0.155106 0.847230
0.489167 0.151020 1.000000
0.461345 0.461345 0.000000
0.458517 0.458517 0.120370
0.454098 0.454098 0.454098
0.449471 0.449471 0.803449
0.445385 0.445385 1.000000
0.415513 0.769491 0.000000
0.412686 0.766664 0.074539
0.408266 0.762244 0.408266
0.403639 0.757617 0.757617
0.399553 0.753531 1.000000
0.375040 1.000000 0.000000
0.372212 1.000000 0.034065
0.367792 1.000000 0.367792
0.363165 1.000000 0.717143
0.359080 1.000000 1.000000
0.873490 0.000000 0.000000
0.870663 0.000000 0.178538
0.866243 0.000000 0.512265
0.861616 0.000000 0.861616
0.857530 0.000000 1.000000
0.845481 0.153356 0.000000
0.842653 0.150528 0.150528
0.838233 0.146109 0.484256
0.833607 0.141482 0.833607
0.829521 0.137396 1.000000
0.801699 0.447721 0.000000
0.798871 0.444894 0.106746
0.794451 0.440474 0.440474
0.789825 0.435847 0.789825
0.785739 0.431761 1.000000
0.755867 0.755867 0.000000
0.753040 0.753040 0.060915
0.748620 0.748620 0.394642
0.743993 0.743993 0.743993
0.739907 0.739907 1.000000
0.715393 1.000000 0.000000
0.712566 1.000000 0.020441
0.708146 1.000000 0.354168
0.703519 1.000000 0.703519
0.699433 1.000000 1.000000
1.000000 0.000000 0.000000
1.000000 0.000000 0.166507
1.000000 0.000000 0.500234
1.000000 0.000000 0.849585
1.000000 0.000000 1.000000
1.000000 0.141325 0.000000
1.000000 0.138497 0.138497
1.000000 0.134077 0.472224
1.000000 0.129451 0.821575
1.000000 0.125365 1.000000
1.000000 0.435690 0.000000
1.000000 0.432862 0.094715
1.000000 0.428443 0.428443
1.000000 0.423816 0.777793
1.000000 0.419730 1.000000
1.000000 0.743836 0.000000
1.000000 0.741008 0.048884
1.000000 0.736589 0.382611
1.000000 0.731962 0.731962
1.000000 0.727876 1.000000
1.000000 1.000000 0.000000
1.000000 1.000000 0.008410
1.000000 1.000000 0.342137
1.000000 1.000000 0.691488
1.000000 1.000000 1.000000
