skills/editops-orchestrator/assets/grade/luts/trailer_punch_v09.cube
TITLE "trailer_punch_v09"
LUT_3D_SIZE 17
DOMAIN_MIN 0.0 0.0 0.0
DOMAIN_MAX 1.0 1.0 1.0
0.000000 0.000000 0.000000
0.000000 0.000000 0.017706
0.000000 0.000000 0.086477
0.000000 0.000000 0.158064
0.000000 0.000000 0.231135
0.000000 0.000000 0.305237
0.000000 0.000000 0.380134
0.000000 0.000000 0.455680
0.000000 0.000000 0.531774
0.000000 0.000000 0.608344
0.000000 0.000000 0.685335
0.000000 0.000000 0.762703
0.000000 0.000000 0.840413
0.000000 0.000000 0.918436
0.000000 0.000000 0.996747
0.000000 0.000000 1.000000
0.000000 0.000000 1.000000
0.000000 0.016333 0.000000
0.000000 0.016178 0.016178
0.000000 0.015580 0.084950
0.000000 0.014956 0.156537
0.000000 0.014320 0.229608
0.000000 0.013675 0.303710
0.000000 0.013023 0.378607
0.000000 0.012365 0.454152
0.000000 0.011702 0.530247
0.000000 0.011036 0.606817
0.000000 0.010365 0.683808
0.000000 0.009692 0.761176
0.000000 0.009015 0.838886
0.000000 0.008336 0.916909
0.000000 0.007654 0.995220
0.000000 0.006970 1.000000
0.000000 0.006529 1.000000
0.000000 0.079771 0.000000
0.000000 0.079617 0.010247
0.000000 0.079018 0.079018
0.000000 0.078395 0.150605
0.000000 0.077758 0.223676
0.000000 0.077113 0.297778
0.000000 0.076461 0.372675
0.000000 0.075803 0.448221
0.000000 0.075141 0.524315
0.000000 0.074474 0.600885
0.000000 0.073804 0.677876
0.000000 0.073130 0.755244
0.000000 0.072453 0.832954
0.000000 0.071774 0.910977
0.000000 0.071092 0.989288
0.000000 0.070408 1.000000
0.000000 0.069967 1.000000
0.000000 0.145807 0.000000
0.000000 0.145653 0.004073
0.000000 0.145054 0.072844
0.000000 0.144431 0.144431
0.000000 0.143794 0.217502
0.000000 0.143149 0.291604
0.000000 0.142497 0.366501
0.000000 0.141839 0.442047
0.000000 0.141177 0.518141
0.000000 0.140510 0.594711
0.000000 0.139840 0.671702
0.000000 0.139166 0.749070
0.000000 0.138489 0.826780
0.000000 0.137810 0.904803
0.000000 0.137128 0.983114
0.000000 0.136444 1.000000
0.000000 0.136003 1.000000
0.000000 0.213212 0.000000
0.000000 0.213058 0.000000
0.000000 0.212459 0.066541
0.000000 0.211836 0.138128
0.000000 0.211199 0.211199
0.000000 0.210554 0.285301
0.000000 0.209902 0.360199
0.000000 0.209244 0.435744
0.000000 0.208582 0.511838
0.000000 0.207915 0.588409
0.000000 0.207245 0.665400
0.000000 0.206571 0.742768
0.000000 0.205894 0.820478
0.000000 0.205215 0.898500
0.000000 0.204533 0.976812
0.000000 0.203849 1.000000
0.000000 0.203408 1.000000
0.000000 0.281568 0.000000
0.000000 0.281414 0.000000
0.000000 0.280815 0.060150
0.000000 0.280192 0.131737
0.000000 0.279555 0.204808
0.000000 0.278910 0.278910
0.000000 0.278258 0.353807
0.000000 0.277600 0.429353
0.000000 0.276938 0.505447
0.000000 0.276271 0.582017
0.000000 0.275601 0.659008
0.000000 0.274927 0.736376
0.000000 0.274250 0.814086
0.000000 0.273571 0.892109
0.000000 0.272889 0.970420
0.000000 0.272205 1.000000
0.000000 0.271764 1.000000
0.000000 0.350657 0.000000
0.000000 0.350503 0.000000
0.000000 0.349904 0.053690
0.000000 0.349281 0.125277
0.000000 0.348645 0.198348
0.000000 0.347999 0.272450
0.000000 0.347347 0.347347
0.000000 0.346690 0.422893
0.000000 0.346027 0.498987
0.000000 0.345360 0.575557
0.000000 0.344690 0.652548
0.000000 0.344016 0.729916
0.000000 0.343340 0.807626
0.000000 0.342660 0.885649
0.000000 0.341978 0.963960
0.000000 0.341294 1.000000
0.000000 0.340853 1.000000
0.000000 0.420345 0.000000
0.000000 0.420191 0.000000
0.000000 0.419592 0.047174
0.000000 0.418968 0.118761
0.000000 0.418332 0.191832
0.000000 0.417687 0.265934
0.000000 0.417035 0.340831
0.000000 0.416377 0.416377
0.000000 0.415714 0.492471
0.000000 0.415048 0.569042
0.000000 0.414377 0.646033
0.000000 0.413704 0.723401
0.000000 0.413027 0.801111
0.000000 0.412348 0.879133
0.000000 0.411666 0.957445
0.000000 0.410982 1.000000
0.000000 0.410541 1.000000
0.000000 0.490538 0.000000
0.000000 0.490384 0.000000
0.000000 0.489785 0.040611
0.000000 0.489162 0.112198
0.000000 0.488526 0.185269
0.000000 0.487881 0.259371
0.000000 0.487228 0.334268
0.000000 0.486571 0.409814
0.000000 0.485908 0.485908
0.000000 0.485241 0.562478
0.000000 0.484571 0.639469
0.000000 0.483897 0.716837
0.000000 0.483221 0.794547
0.000000 0.482541 0.872570
0.000000 0.481860 0.950881
0.000000 0.481175 1.000000
0.000000 0.480734 1.000000
0.000000 0.561171 0.000000
0.000000 0.561017 0.000000
0.000000 0.560418 0.034007
0.000000 0.559795 0.105594
0.000000 0.559159 0.178665
0.000000 0.558513 0.252767
0.000000 0.557861 0.327664
0.000000 0.557203 0.403210
0.000000 0.556541 0.479304
0.000000 0.555874 0.555874
0.000000 0.555204 0.632865
0.000000 0.554530 0.710233
0.000000 0.553854 0.787943
0.000000 0.553174 0.865966
0.000000 0.552492 0.944277
0.000000 0.551808 1.000000
0.000000 0.551367 1.000000
0.000000 0.632192 0.000000
0.000000 0.632038 0.000000
0.000000 0.631439 0.027366
0.000000 0.630816 0.098953
0.000000 0.630179 0.172024
0.000000 0.629534 0.246127
0.000000 0.628882 0.321024
0.000000 0.628224 0.396569
0.000000 0.627562 0.472663
0.000000 0.626895 0.549234
0.000000 0.626225 0.626225
0.000000 0.625551 0.703593
0.000000 0.624874 0.781303
0.000000 0.624195 0.859325
0.000000 0.623513 0.937637
0.000000 0.622829 1.000000
0.000000 0.622388 1.000000
0.000000 0.703561 0.000000
0.000000 0.703406 0.000000
0.000000 0.702808 0.020693
0.000000 0.702184 0.092280
0.000000 0.701548 0.165351
0.000000 0.700903 0.239454
0.000000 0.700251 0.314351
0.000000 0.699593 0.389896
0.000000 0.698930 0.465990
0.000000 0.698264 0.542561
0.000000 0.697593 0.619552
0.000000 0.696920 0.696920
0.000000 0.696243 0.774630
0.000000 0.695564 0.852652
0.000000 0.694882 0.930964
0.000000 0.694198 1.000000
0.000000 0.693757 1.000000
0.000000 0.775245 0.000000
0.000000 0.775091 0.000000
0.000000 0.774492 0.013991
0.000000 0.773868 0.085578
0.000000 0.773232 0.158649
0.000000 0.772587 0.232751
0.000000 0.771935 0.307648
0.000000 0.771277 0.383194
0.000000 0.770614 0.459288
0.000000 0.769948 0.535858
0.000000 0.769277 0.612849
0.000000 0.768604 0.690217
0.000000 0.767927 0.767927
0.000000 0.767248 0.845950
0.000000 0.766566 0.924261
0.000000 0.765882 1.000000
0.000000 0.765441 1.000000
0.000000 0.847217 0.000000
0.000000 0.847063 0.000000
0.000000 0.846464 0.007261
0.000000 0.845841 0.078848
0.000000 0.845205 0.151919
0.000000 0.844560 0.226022
0.000000 0.843907 0.300919
0.000000 0.843250 0.376464
0.000000 0.842587 0.452558
0.000000 0.841920 0.529129
0.000000 0.841250 0.606120
0.000000 0.840576 0.683488
0.000000 0.839900 0.761198
0.000000 0.839220 0.839220
0.000000 0.838539 0.917532
0.000000 0.837854 0.996110
0.000000 0.837413 1.000000
0.000000 0.919456 0.000000
0.000000 0.919302 0.000000
0.000000 0.918703 0.000507
0.000000 0.918080 0.072094
0.000000 0.917444 0.145165
0.000000 0.916798 0.219267
0.000000 0.916146 0.294164
0.000000 0.915488 0.369710
0.000000 0.914826 0.445804
0.000000 0.914159 0.522374
0.000000 0.913489 0.599365
0.000000 0.912815 0.676733
0.000000 0.912139 0.754443
0.000000 0.911459 0.832466
0.000000 0.910777 0.910777
0.000000 0.910093 0.989356
0.000000 0.909652 1.000000
0.000000 0.991942 0.000000
0.000000 0.991787 0.000000
0.000000 0.991189 0.000000
0.000000 0.990565 0.065316
0.000000 0.989929 0.138388
0.000000 0.989284 0.212490
0.000000 0.988632 0.287387
0.000000 0.987974 0.362932
0.000000 0.987311 0.439027
0.000000 0.986645 0.515597
0.000000 0.985974 0.592588
0.000000 0.985301 0.669956
0.000000 0.984624 0.747666
0.000000 0.983945 0.825689
0.000000 0.983263 0.904000
0.000000 0.982579 0.982579
0.000000 0.982138 1.000000
0.000000 1.000000 0.000000
0.000000 1.000000 0.000000
0.000000 1.000000 0.000000
0.000000 1.000000 0.060947
0.000000 1.000000 0.134018
0.000000 1.000000 0.208120
0.000000 1.000000 0.283017
0.000000 1.000000 0.358563
0.000000 1.000000 0.434657
0.000000 1.000000 0.511227
0.000000 1.000000 0.588218
0.000000 1.000000 0.665586
0.000000 1.000000 0.743296
0.000000 1.000000 0.821319
0.000000 1.000000 0.899630
0.000000 1.000000 0.978209
0.000000 1.000000 1.000000
0.017406 0.000000 0.000000
0.017252 0.000000 0.017252
0.016653 0.000000 0.086023
0.016030 0.000000 0.157610
0.015393 0.000000 0.230681
0.014748 0.000000 0.304783
0.014096 0.000000 0.379680
0.013438 0.000000 0.455226
0.012776 0.000000 0.531320
0.012109 0.000000 0.607890
0.011439 0.000000 0.684881
0.010765 0.000000 0.762249
0.010088 0.000000 0.839959
0.009409 0.000000 0.917982
0.008727 0.000000 0.996293
0.008043 0.000000 1.000000
0.007602 0.000000 1.000000
0.015879 0.015879 0.000000
0.015725 0.015725 0.015725
0.015126 0.015126 0.084496
0.014502 0.014502 0.156083
0.013866 0.013866 0.229154
0.013221 0.013221 0.303256
0.012569 0.012569 0.378153
0.011911 0.011911 0.453699
0.011249 0.011249 0.529793
0.010582 0.010582 0.606363
0.009911 0.009911 0.683354
0.009238 0.009238 0.760722
0.008561 0.008561 0.838432
0.007882 0.007882 0.916455
0.007200 0.007200 0.994766
0.006516 0.006516 1.000000
0.006075 0.006075 1.000000
0.009947 0.079317 0.000000
0.009793 0.079163 0.009793
0.009194 0.078564 0.078564
0.008571 0.077941 0.150151
0.007935 0.077304 0.223222
0.007289 0.076659 0.297324
0.006637 0.076007 0.372221
0.005980 0.075349 0.447767
0.005317 0.074687 0.523861
0.004650 0.074020 0.600432
0.003980 0.073350 0.677422
0.003306 0.072676 0.754791
0.002630 0.071999 0.832500
0.001950 0.071320 0.910523
0.001268 0.070638 0.988834
0.000584 0.069954 1.000000
0.000143 0.069513 1.000000
0.003773 0.145353 0.000000
0.003619 0.145199 0.003619
0.003020 0.144600 0.072390
0.002396 0.143977 0.143977
0.001760 0.143340 0.217048
0.001115 0.142695 0.291150
0.000463 0.142043 0.366047
0.000000 0.141385 0.441593
0.000000 0.140723 0.517687
0.000000 0.140056 0.594257
0.000000 0.139386 0.671248
0.000000 0.138712 0.748616
0.000000 0.138035 0.826326
0.000000 0.137356 0.904349
0.000000 0.136674 0.982660
0.000000 0.135990 1.000000
0.000000 0.135549 1.000000
0.000000 0.212758 0.000000
0.000000 0.212604 0.000000
0.000000 0.212005 0.066087
0.000000 0.211382 0.137674
0.000000 0.210745 0.210745
0.000000 0.210100 0.284848
0.000000 0.209448 0.359745
0.000000 0.208790 0.435290
0.000000 0.208128 0.511384
0.000000 0.207461 0.587955
0.000000 0.206791 0.664946
0.000000 0.206117 0.742314
0.000000 0.205440 0.820024
0.000000 0.204761 0.898046
0.000000 0.204079 0.976358
0.000000 0.203395 1.000000
0.000000 0.202954 1.000000
0.000000 0.281114 0.000000
0.000000 0.280960 0.000000
0.000000 0.280361 0.059696
0.000000 0.279738 0.131283
0.000000 0.279101 0.204354
0.000000 0.278456 0.278456
0.000000 0.277804 0.353353
0.000000 0.277146 0.428899
0.000000 0.276484 0.504993
0.000000 0.275817 0.581563
0.000000 0.275147 0.658554
0.000000 0.274473 0.735922
0.000000 0.273796 0.813632
0.000000 0.273117 0.891655
0.000000 0.272435 0.969966
0.000000 0.271751 1.000000
0.000000 0.271310 1.000000
0.000000 0.350203 0.000000
0.000000 0.350049 0.000000
0.000000 0.349450 0.053236
0.000000 0.348827 0.124823
0.000000 0.348191 0.197894
0.000000 0.347545 0.271996
0.000000 0.346893 0.346893
0.000000 0.346236 0.422439
0.000000 0.345573 0.498533
0.000000 0.344906 0.575103
0.000000 0.344236 0.652094
0.000000 0.343562 0.729462
0.000000 0.342886 0.807172
0.000000 0.342206 0.885195
0.000000 0.341524 0.963506
0.000000 0.340840 1.000000
0.000000 0.340399 1.000000
0.000000 0.419891 0.000000
0.000000 0.419737 0.000000
0.000000 0.419138 0.046720
0.000000 0.418514 0.118307
0.000000 0.417878 0.191378
0.000000 0.417233 0.265480
0.000000 0.416581 0.340378
0.000000 0.415923 0.415923
0.000000 0.415261 0.492017
0.000000 0.414594 0.568588
0.000000 0.413923 0.645579
0.000000 0.413250 0.722947
0.000000 0.412573 0.800657
0.000000 0.411894 0.878679
0.000000 0.411212 0.956991
0.000000 0.410528 1.000000
0.000000 0.410087 1.000000
0.000000 0.490084 0.000000
0.000000 0.489930 0.000000
0.000000 0.489331 0.040157
0.000000 0.488708 0.111744
0.000000 0.488072 0.184815
0.000000 0.487427 0.258917
0.000000 0.486775 0.333814
0.000000 0.486117 0.409360
0.000000 0.485454 0.485454
0.000000 0.484788 0.562024
0.000000 0.484117 0.639015
0.000000 0.483443 0.716383
0.000000 0.482767 0.794093
0.000000 0.482088 0.872116
0.000000 0.481406 0.950427
0.000000 0.480721 1.000000
0.000000 0.480280 1.000000
0.000000 0.560717 0.000000
0.000000 0.560563 0.000000
0.000000 0.559964 0.033553
0.000000 0.559341 0.105140
0.000000 0.558705 0.178211
0.000000 0.558059 0.252313
0.000000 0.557407 0.327210
0.000000 0.556750 0.402756
0.000000 0.556087 0.478850
0.000000 0.555420 0.555420
0.000000 0.554750 0.632411
0.000000 0.554076 0.709779
0.000000 0.553400 0.787489
0.000000 0.552720 0.865512
0.000000 0.552038 0.943823
0.000000 0.551354 1.000000
0.000000 0.550913 1.000000
0.000000 0.631738 0.000000
0.000000 0.631584 0.000000
0.000000 0.630985 0.026912
0.000000 0.630362 0.098499
0.000000 0.629725 0.171570
0.000000 0.629080 0.245673
0.000000 0.628428 0.320570
0.000000 0.627770 0.396115
0.000000 0.627108 0.472210
0.000000 0.626441 0.548780
0.000000 0.625771 0.625771
0.000000 0.625097 0.703139
0.000000 0.624420 0.780849
0.000000 0.623741 0.858872
0.000000 0.623059 0.937183
0.000000 0.622375 1.000000
0.000000 0.621934 1.000000
0.000000 0.703107 0.000000
0.000000 0.702952 0.000000
0.000000 0.702354 0.020239
0.000000 0.701730 0.091826
0.000000 0.701094 0.164897
0.000000 0.700449 0.239000
0.000000 0.699797 0.313897
0.000000 0.699139 0.389442
0.000000 0.698476 0.465536
0.000000 0.697810 0.542107
0.000000 0.697139 0.619098
0.000000 0.696466 0.696466
0.000000 0.695789 0.774176
0.000000 0.695110 0.852199
0.000000 0.694428 0.930510
0.000000 0.693744 1.000000
0.000000 0.693303 1.000000
0.000000 0.774791 0.000000
0.000000 0.774637 0.000000
0.000000 0.774038 0.013537
0.000000 0.773414 0.085124
0.000000 0.772778 0.158195
0.000000 0.772133 0.232297
0.000000 0.771481 0.307194
0.000000 0.770823 0.382740
0.000000 0.770161 0.458834
0.000000 0.769494 0.535404
0.000000 0.768823 0.612395
0.000000 0.768150 0.689763
0.000000 0.767473 0.767473
0.000000 0.766794 0.845496
0.000000 0.766112 0.923807
0.000000 0.765428 1.000000
0.000000 0.764987 1.000000
0.000000 0.846763 0.000000
0.000000 0.846609 0.000000
0.000000 0.846010 0.006807
0.000000 0.845387 0.078394
0.000000 0.844751 0.151465
0.000000 0.844106 0.225568
0.000000 0.843454 0.300465
0.000000 0.842796 0.376010
0.000000 0.842133 0.452104
0.000000 0.841467 0.528675
0.000000 0.840796 0.605666
0.000000 0.840122 0.683034
0.000000 0.839446 0.760744
0.000000 0.838767 0.838767
0.000000 0.838085 0.917078
0.000000 0.837400 0.995657
0.000000 0.836959 1.000000
0.000000 0.919002 0.000000
0.000000 0.918848 0.000000
0.000000 0.918249 0.000053
0.000000 0.917626 0.071640
0.000000 0.916990 0.144711
0.000000 0.916344 0.218813
0.000000 0.915692 0.293710
0.000000 0.915034 0.369256
0.000000 0.914372 0.445350
0.000000 0.913705 0.521920
0.000000 0.913035 0.598911
0.000000 0.912361 0.676279
0.000000 0.911685 0.753989
0.000000 0.911005 0.832012
0.000000 0.910323 0.910323
0.000000 0.909639 0.988902
0.000000 0.909198 1.000000
0.000000 0.991488 0.000000
0.000000 0.991333 0.000000
0.000000 0.990735 0.000000
0.000000 0.990111 0.064863
0.000000 0.989475 0.137934
0.000000 0.988830 0.212036
0.000000 0.988178 0.286933
0.000000 0.987520 0.362478
0.000000 0.986857 0.438573
0.000000 0.986191 0.515143
0.000000 0.985520 0.592134
0.000000 0.984847 0.669502
0.000000 0.984170 0.747212
0.000000 0.983491 0.825235
0.000000 0.982809 0.903546
0.000000 0.982125 0.982125
0.000000 0.981684 1.000000
0.000000 1.000000 0.000000
0.000000 1.000000 0.000000
0.000000 1.000000 0.000000
0.000000 1.000000 0.060493
0.000000 1.000000 0.133564
0.000000 1.000000 0.207666
0.000000 1.000000 0.282563
0.000000 1.000000 0.358109
0.000000 1.000000 0.434203
0.000000 1.000000 0.510774
0.000000 1.000000 0.587764
0.000000 1.000000 0.665133
0.000000 1.000000 0.742842
0.000000 1.000000 0.820865
0.000000 1.000000 0.899177
0.000000 1.000000 0.977755
0.000000 1.000000 1.000000
0.085012 0.000000 0.000000
0.084858 0.000000 0.015488
0.084259 0.000000 0.084259
0.083636 0.000000 0.155847
0.083000 0.000000 0.228918
0.082355 0.000000 0.303020
0.081703 0.000000 0.377917
0.081045 0.000000 0.453462
0.080382 0.000000 0.529557
0.079716 0.000000 0.606127
0.079045 0.000000 0.683118
0.078372 0.000000 0.760486
0.077695 0.000000 0.838196
0.077016 0.000000 0.916219
0.076334 0.000000 0.994530
0.075650 0.000000 1.000000
0.075208 0.000000 1.000000
0.083485 0.014115 0.000000
0.083331 0.013961 0.013961
0.082732 0.013363 0.082732
0.082109 0.012739 0.154319
0.081473 0.012103 0.227390
0.080828 0.011458 0.301493
0.080175 0.010806 0.376390
0.079518 0.010148 0.451935
0.078855 0.009485 0.528030
0.078188 0.008819 0.604600
0.077518 0.008148 0.681591
0.076844 0.007475 0.758959
0.076168 0.006798 0.836669
0.075488 0.006119 0.914692
0.074807 0.005437 0.993003
0.074122 0.004753 1.000000
0.073681 0.004311 1.000000
0.077554 0.077554 0.000000
0.077400 0.077400 0.008030
0.076801 0.076801 0.076801
0.076178 0.076178 0.148388
0.075541 0.075541 0.221459
0.074896 0.074896 0.295561
0.074244 0.074244 0.370458
0.073586 0.073586 0.446004
0.072924 0.072924 0.522098
0.072257 0.072257 0.598668
0.071587 0.071587 0.675659
0.070913 0.070913 0.753027
0.070236 0.070236 0.830737
0.069557 0.069557 0.908760
0.068875 0.068875 0.987071
0.068191 0.068191 1.000000
0.067750 0.067750 1.000000
0.071379 0.143590 0.000000
0.071225 0.143436 0.001855
0.070626 0.142837 0.070626
0.070003 0.142213 0.142213
0.069367 0.141577 0.215285
0.068722 0.140932 0.289387
0.068070 0.140280 0.364284
0.067412 0.139622 0.439829
0.066749 0.138960 0.515924
0.066083 0.138293 0.592494
0.065412 0.137623 0.669485
0.064738 0.136949 0.746853
0.064062 0.136272 0.824563
0.063383 0.135593 0.902586
0.062701 0.134911 0.980897
0.062016 0.134227 1.000000
0.061575 0.133786 1.000000
0.065077 0.210995 0.000000
0.064923 0.210840 0.000000
0.064324 0.210242 0.064324
0.063701 0.209618 0.135911
0.063064 0.208982 0.208982
0.062419 0.208337 0.283084
0.061767 0.207685 0.357981
0.061109 0.207027 0.433527
0.060447 0.206364 0.509621
0.059780 0.205698 0.586191
0.059110 0.205027 0.663182
0.058436 0.204354 0.740551
0.057759 0.203677 0.818260
0.057080 0.202998 0.896283
0.056398 0.202316 0.974594
0.055714 0.201632 1.000000
0.055273 0.201191 1.000000
0.058686 0.279351 0.000000
0.058531 0.279197 0.000000
0.057933 0.278598 0.057933
0.057309 0.277974 0.129520
0.056673 0.277338 0.202591
0.056028 0.276693 0.276693
0.055376 0.276041 0.351590
0.054718 0.275383 0.427136
0.054055 0.274721 0.503230
0.053389 0.274054 0.579800
0.052718 0.273383 0.656791
0.052045 0.272710 0.734159
0.051368 0.272033 0.811869
0.050689 0.271354 0.889892
0.050007 0.270672 0.968203
0.049323 0.269988 1.000000
0.048882 0.269547 1.000000
0.052226 0.348440 0.000000
0.052072 0.348286 0.000000
0.051473 0.347687 0.051473
0.050849 0.347064 0.123060
0.050213 0.346427 0.196131
0.049568 0.345782 0.270233
0.048916 0.345130 0.345130
0.048258 0.344472 0.420676
0.047596 0.343810 0.496770
0.046929 0.343143 0.573340
0.046259 0.342473 0.650331
0.045585 0.341799 0.727699
0.044908 0.341122 0.805409
0.044229 0.340443 0.883432
0.043547 0.339761 0.961743
0.042863 0.339077 1.000000
0.042422 0.338636 1.000000
0.045710 0.418128 0.000000
0.045556 0.417973 0.000000
0.044957 0.417375 0.044957
0.044334 0.416751 0.116544
0.043697 0.416115 0.189615
0.043052 0.415470 0.263717
0.042400 0.414818 0.338614
0.041742 0.414160 0.414160
0.041080 0.413497 0.490254
0.040413 0.412831 0.566824
0.039743 0.412160 0.643815
0.039069 0.411487 0.721183
0.038392 0.410810 0.798893
0.037713 0.410131 0.876916
0.037031 0.409449 0.955227
0.036347 0.408765 1.000000
0.035906 0.408324 1.000000
0.039147 0.488321 0.000000
0.038993 0.488167 0.000000
0.038394 0.487568 0.038394
0.037770 0.486945 0.109981
0.037134 0.486309 0.183052
0.036489 0.485663 0.257154
0.035837 0.485011 0.332051
0.035179 0.484354 0.407597
0.034517 0.483691 0.483691
0.033850 0.483024 0.560261
0.033180 0.482354 0.637252
0.032506 0.481680 0.714620
0.031829 0.481004 0.792330
0.031150 0.480324 0.870353
0.030468 0.479642 0.948664
0.029784 0.478958 1.000000
0.029343 0.478517 1.000000
0.032543 0.558954 0.000000
0.032388 0.558800 0.000000
0.031790 0.558201 0.031790
0.031166 0.557578 0.103377
0.030530 0.556941 0.176448
0.029885 0.556296 0.250550
0.029233 0.555644 0.325447
0.028575 0.554986 0.400993
0.027912 0.554324 0.477087
0.027246 0.553657 0.553657
0.026575 0.552987 0.630648
0.025902 0.552313 0.708016
0.025225 0.551636 0.785726
0.024546 0.550957 0.863749
0.023864 0.550275 0.942060
0.023180 0.549591 1.000000
0.022739 0.549150 1.000000
0.025902 0.629975 0.000000
0.025748 0.629821 0.000000
0.025149 0.629222 0.025149
0.024526 0.628598 0.096736
0.023890 0.627962 0.169807
0.023244 0.627317 0.243909
0.022592 0.626665 0.318806
0.021934 0.626007 0.394352
0.021272 0.625345 0.470446
0.020605 0.624678 0.547017
0.019935 0.624008 0.624008
0.019261 0.623334 0.701376
0.018585 0.622657 0.779086
0.017905 0.621978 0.857108
0.017223 0.621296 0.935420
0.016539 0.620612 1.000000
0.016098 0.620171 1.000000
0.019229 0.701343 0.000000
0.019075 0.701189 0.000000
0.018476 0.700590 0.018476
0.017853 0.699967 0.090063
0.017217 0.699331 0.163134
0.016571 0.698686 0.237236
0.015919 0.698034 0.312133
0.015261 0.697376 0.387679
0.014599 0.696713 0.463773
0.013932 0.696047 0.540344
0.013262 0.695376 0.617334
0.012588 0.694703 0.694703
0.011912 0.694026 0.772413
0.011232 0.693347 0.850435
0.010550 0.692665 0.928747
0.009866 0.691981 1.000000
0.009425 0.691539 1.000000
0.012527 0.773028 0.000000
0.012372 0.772873 0.000000
0.011774 0.772275 0.011774
0.011150 0.771651 0.083361
0.010514 0.771015 0.156432
0.009869 0.770370 0.230534
0.009217 0.769718 0.305431
0.008559 0.769060 0.380977
0.007896 0.768397 0.457071
0.007230 0.767731 0.533641
0.006559 0.767060 0.610632
0.005886 0.766387 0.688000
0.005209 0.765710 0.765710
0.004530 0.765031 0.843733
0.003848 0.764349 0.922044
0.003164 0.763665 1.000000
0.002723 0.763224 1.000000
0.005797 0.845000 0.000000
0.005643 0.844846 0.000000
0.005044 0.844247 0.005044
0.004421 0.843624 0.076631
0.003785 0.842988 0.149702
0.003139 0.842342 0.223804
0.002487 0.841690 0.298701
0.001829 0.841033 0.374247
0.001167 0.840370 0.450341
0.000500 0.839703 0.526912
0.000000 0.839033 0.603902
0.000000 0.838359 0.681271
0.000000 0.837683 0.758981
0.000000 0.837003 0.837003
0.000000 0.836321 0.915315
0.000000 0.835637 0.993893
0.000000 0.835196 1.000000
0.000000 0.917239 0.000000
0.000000 0.917085 0.000000
0.000000 0.916486 0.000000
0.000000 0.915863 0.069877
0.000000 0.915226 0.142948
0.000000 0.914581 0.217050
0.000000 0.913929 0.291947
0.000000 0.913271 0.367493
0.000000 0.912609 0.443587
0.000000 0.911942 0.520157
0.000000 0.911272 0.597148
0.000000 0.910598 0.674516
0.000000 0.909921 0.752226
0.000000 0.909242 0.830249
0.000000 0.908560 0.908560
0.000000 0.907876 0.987139
0.000000 0.907435 1.000000
0.000000 0.989724 0.000000
0.000000 0.989570 0.000000
0.000000 0.988971 0.000000
0.000000 0.988348 0.063099
0.000000 0.987712 0.136170
0.000000 0.987067 0.210273
0.000000 0.986415 0.285170
0.000000 0.985757 0.360715
0.000000 0.985094 0.436809
0.000000 0.984428 0.513380
0.000000 0.983757 0.590371
0.000000 0.983084 0.667739
0.000000 0.982407 0.745449
0.000000 0.981728 0.823472
0.000000 0.981046 0.901783
0.000000 0.980362 0.980362
0.000000 0.979920 1.000000
0.000000 1.000000 0.000000
0.000000 1.000000 0.000000
0.000000 1.000000 0.000000
0.000000 1.000000 0.058730
0.000000 1.000000 0.131801
0.000000 1.000000 0.205903
0.000000 1.000000 0.280800
0.000000 1.000000 0.356346
0.000000 1.000000 0.432440
0.000000 1.000000 0.509010
0.000000 1.000000 0.586001
0.000000 1.000000 0.663369
0.000000 1.000000 0.741079
0.000000 1.000000 0.819102
0.000000 1.000000 0.897413
0.000000 1.000000 0.975992
0.000000 1.000000 1.000000
0.155387 0.000000 0.000000
0.155233 0.000000 0.013653
0.154634 0.000000 0.082424
0.154011 0.000000 0.154011
0.153375 0.000000 0.227082
0.152730 0.000000 0.301184
0.152078 0.000000 0.376081
0.151420 0.000000 0.451627
0.150757 0.000000 0.527721
0.150091 0.000000 0.604292
0.149420 0.000000 0.681282
0.148747 0.000000 0.758651
0.148070 0.000000 0.836361
0.147391 0.000000 0.914383
0.146709 0.000000 0.992695
0.146024 0.000000 1.000000
0.145583 0.000000 1.000000
0.153860 0.012280 0.000000
