skills/editops-orchestrator/assets/grade/luts/trailer_punch_v01.cube
TITLE "trailer_punch_v01"
LUT_3D_SIZE 9
DOMAIN_MIN 0.0 0.0 0.0
DOMAIN_MAX 1.0 1.0 1.0
0.000000 0.000000 0.000000
0.000000 0.000000 0.109666
0.000000 0.000000 0.243458
0.000000 0.000000 0.378791
0.000000 0.000000 0.515099
0.000000 0.000000 0.652126
0.000000 0.000000 0.789725
0.000000 0.000000 0.927797
0.000000 0.000000 1.000000
0.000000 0.105659 0.000000
0.000000 0.105209 0.105209
0.000000 0.104660 0.239000
0.000000 0.104104 0.374333
0.000000 0.103545 0.510641
0.000000 0.102983 0.647668
0.000000 0.102418 0.785267
0.000000 0.101851 0.923339
0.000000 0.101327 1.000000
0.000000 0.234561 0.000000
0.000000 0.234111 0.099770
0.000000 0.233562 0.233562
0.000000 0.233006 0.368894
0.000000 0.232447 0.505202
0.000000 0.231885 0.642230
0.000000 0.231320 0.779828
0.000000 0.230754 0.917901
0.000000 0.230229 1.000000
0.000000 0.364947 0.000000
0.000000 0.364497 0.094269
0.000000 0.363948 0.228061
0.000000 0.363393 0.363393
0.000000 0.362834 0.499701
0.000000 0.362271 0.636729
0.000000 0.361707 0.774327
0.000000 0.361140 0.912400
0.000000 0.360615 1.000000
0.000000 0.496274 0.000000
0.000000 0.495824 0.088728
0.000000 0.495275 0.222520
0.000000 0.494720 0.357852
0.000000 0.494160 0.494160
0.000000 0.493598 0.631188
0.000000 0.493033 0.768786
0.000000 0.492467 0.906859
0.000000 0.491942 1.000000
0.000000 0.628294 0.000000
0.000000 0.627844 0.083158
0.000000 0.627295 0.216950
0.000000 0.626739 0.352282
0.000000 0.626180 0.488590
0.000000 0.625618 0.625618
0.000000 0.625053 0.763216
0.000000 0.624487 0.901289
0.000000 0.623962 1.000000
0.000000 0.760864 0.000000
0.000000 0.760414 0.077565
0.000000 0.759865 0.211357
0.000000 0.759309 0.346689
0.000000 0.758750 0.482997
0.000000 0.758188 0.620024
0.000000 0.757623 0.757623
0.000000 0.757056 0.895696
0.000000 0.756532 1.000000
0.000000 0.893890 0.000000
0.000000 0.893440 0.071952
0.000000 0.892891 0.205744
0.000000 0.892336 0.341076
0.000000 0.891777 0.477384
0.000000 0.891214 0.614412
0.000000 0.890650 0.752010
0.000000 0.890083 0.890083
0.000000 0.889558 1.000000
0.000000 1.000000 0.000000
0.000000 1.000000 0.066754
0.000000 1.000000 0.200546
0.000000 1.000000 0.335879
0.000000 1.000000 0.472187
0.000000 1.000000 0.609214
0.000000 1.000000 0.746813
0.000000 1.000000 0.884885
0.000000 1.000000 1.000000
0.108791 0.000000 0.000000
0.108341 0.000000 0.108341
0.107792 0.000000 0.242133
0.107237 0.000000 0.377465
0.106678 0.000000 0.513774
0.106115 0.000000 0.650801
0.105551 0.000000 0.788399
0.104984 0.000000 0.926472
0.104459 0.000000 1.000000
0.104333 0.104333 0.000000
0.103883 0.103883 0.103883
0.103334 0.103334 0.237675
0.102779 0.102779 0.373008
0.102220 0.102220 0.509316
0.101657 0.101657 0.646343
0.101093 0.101093 0.783942
0.100526 0.100526 0.922014
0.100001 0.100001 1.000000
0.098895 0.233236 0.000000
0.098445 0.232786 0.098445
0.097896 0.232237 0.232237
0.097341 0.231681 0.367569
0.096781 0.231122 0.503877
0.096219 0.230560 0.640905
0.095654 0.229995 0.778503
0.095088 0.229428 0.916576
0.094563 0.228904 1.000000
0.093394 0.363622 0.000000
0.092944 0.363172 0.092944
0.092395 0.362623 0.226736
0.091839 0.362068 0.362068
0.091280 0.361509 0.498376
0.090718 0.360946 0.635403
0.090153 0.360382 0.773002
0.089587 0.359815 0.911075
0.089062 0.359290 1.000000
0.087853 0.494949 0.000000
0.087403 0.494499 0.087403
0.086854 0.493950 0.221195
0.086299 0.493395 0.356527
0.085739 0.492835 0.492835
0.085177 0.492273 0.629863
0.084612 0.491708 0.767461
0.084046 0.491142 0.905534
0.083521 0.490617 1.000000
0.082283 0.626969 0.000000
0.081833 0.626519 0.081833
0.081284 0.625970 0.215625
0.080729 0.625414 0.350957
0.080169 0.624855 0.487265
0.079607 0.624293 0.624293
0.079042 0.623728 0.761891
0.078476 0.623161 0.899964
0.077951 0.622637 1.000000
0.076690 0.759539 0.000000
0.076240 0.759089 0.076240
0.075691 0.758539 0.210031
0.075135 0.757984 0.345364
0.074576 0.757425 0.481672
0.074014 0.756863 0.618699
0.073449 0.756298 0.756298
0.072882 0.755731 0.894370
0.072358 0.755207 1.000000
0.071077 0.892565 0.000000
0.070627 0.892115 0.070627
0.070078 0.891566 0.204419
0.069523 0.891011 0.339751
0.068963 0.890451 0.476059
0.068401 0.889889 0.613087
0.067836 0.889325 0.750685
0.067270 0.888758 0.888758
0.066745 0.888233 1.000000
0.065879 1.000000 0.000000
0.065429 1.000000 0.065429
0.064880 1.000000 0.199221
0.064325 1.000000 0.334553
0.063766 1.000000 0.470862
0.063203 1.000000 0.607889
0.062639 1.000000 0.745487
0.062072 1.000000 0.883560
0.061547 1.000000 1.000000
0.241515 0.000000 0.000000
0.241065 0.000000 0.106725
0.240516 0.000000 0.240516
0.239961 0.000000 0.375849
0.239402 0.000000 0.512157
0.238839 0.000000 0.649184
0.238275 0.000000 0.786783
0.237708 0.000000 0.924855
0.237183 0.000000 1.000000
0.237058 0.102717 0.000000
0.236608 0.102267 0.102267
0.236059 0.101718 0.236059
0.235503 0.101162 0.371391
0.234944 0.100603 0.507699
0.234382 0.100041 0.644726
0.233817 0.099476 0.782325
0.233250 0.098910 0.920398
0.232726 0.098385 1.000000
0.231619 0.231619 0.000000
0.231169 0.231169 0.096828
0.230620 0.230620 0.230620
0.230065 0.230065 0.365952
0.229505 0.229505 0.502260
0.228943 0.228943 0.639288
0.228378 0.228378 0.776886
0.227812 0.227812 0.914959
0.227287 0.227287 1.000000
0.226118 0.362006 0.000000
0.225668 0.361556 0.091327
0.225119 0.361007 0.225119
0.224564 0.360451 0.360451
0.224004 0.359892 0.496759
0.223442 0.359330 0.633787
0.222877 0.358765 0.771385
0.222311 0.358198 0.909458
0.221786 0.357674 1.000000
0.220577 0.493332 0.000000
0.220127 0.492882 0.085786
0.219578 0.492333 0.219578
0.219023 0.491778 0.354910
0.218463 0.491219 0.491219
0.217901 0.490656 0.628246
0.217336 0.490092 0.765845
0.216770 0.489525 0.903917
0.216245 0.489000 1.000000
0.215007 0.625352 0.000000
0.214557 0.624902 0.080216
0.214008 0.624353 0.214008
0.213453 0.623798 0.349340
0.212893 0.623238 0.485648
0.212331 0.622676 0.622676
0.211766 0.622111 0.760274
0.211200 0.621545 0.898347
0.210675 0.621020 1.000000
0.209414 0.757922 0.000000
0.208964 0.757472 0.074623
0.208415 0.756923 0.208415
0.207859 0.756368 0.343747
0.207300 0.755808 0.480055
0.206738 0.755246 0.617083
0.206173 0.754681 0.754681
0.205607 0.754115 0.892754
0.205082 0.753590 1.000000
0.203801 0.890949 0.000000
0.203351 0.890499 0.069010
0.202802 0.889949 0.202802
0.202247 0.889394 0.338135
0.201688 0.888835 0.474443
0.201125 0.888272 0.611470
0.200561 0.887708 0.749069
0.199994 0.887141 0.887141
0.199469 0.886617 1.000000
0.198603 1.000000 0.000000
0.198153 1.000000 0.063813
0.197604 1.000000 0.197604
0.197049 1.000000 0.332937
0.196490 1.000000 0.469245
0.195927 1.000000 0.606272
0.195363 1.000000 0.743871
0.194796 1.000000 0.881943
0.194271 1.000000 1.000000
0.375768 0.000000 0.000000
0.375318 0.000000 0.105089
0.374769 0.000000 0.238881
0.374213 0.000000 0.374213
0.373654 0.000000 0.510522
0.373092 0.000000 0.647549
0.372527 0.000000 0.785148
0.371961 0.000000 0.923220
0.371436 0.000000 1.000000
0.371310 0.101082 0.000000
0.370860 0.100632 0.100632
0.370311 0.100083 0.234423
0.369756 0.099527 0.369756
0.369196 0.098968 0.506064
0.368634 0.098406 0.643091
0.368069 0.097841 0.780690
0.367503 0.097274 0.918762
0.366978 0.096750 1.000000
0.365871 0.229984 0.000000
0.365421 0.229534 0.095193
0.364872 0.228985 0.228985
0.364317 0.228429 0.364317
0.363758 0.227870 0.500625
0.363195 0.227308 0.637653
0.362631 0.226743 0.775251
0.362064 0.226177 0.913324
0.361539 0.225652 1.000000
0.360370 0.360370 0.000000
0.359920 0.359920 0.089692
0.359371 0.359371 0.223484
0.358816 0.358816 0.358816
0.358257 0.358257 0.495124
0.357694 0.357694 0.632152
0.357130 0.357130 0.769750
0.356563 0.356563 0.907823
0.356038 0.356038 1.000000
0.354830 0.491697 0.000000
0.354379 0.491247 0.084151
0.353830 0.490698 0.217943
0.353275 0.490143 0.353275
0.352716 0.489583 0.489583
0.352153 0.489021 0.626611
0.351589 0.488456 0.764209
0.351022 0.487890 0.902282
0.350498 0.487365 1.000000
0.349259 0.623717 0.000000
0.348809 0.623267 0.078581
0.348260 0.622718 0.212373
0.347705 0.622162 0.347705
0.347146 0.621603 0.484013
0.346583 0.621041 0.621041
0.346019 0.620476 0.758639
0.345452 0.619909 0.896712
0.344927 0.619385 1.000000
0.343666 0.756287 0.000000
0.343216 0.755837 0.072988
0.342667 0.755288 0.206779
0.342112 0.754732 0.342112
0.341552 0.754173 0.478420
0.340990 0.753611 0.615447
0.340426 0.753046 0.753046
0.339859 0.752479 0.891119
0.339334 0.751955 1.000000
0.338054 0.889313 0.000000
0.337604 0.888863 0.067375
0.337055 0.888314 0.201167
0.336499 0.887759 0.336499
0.335940 0.887200 0.472807
0.335378 0.886637 0.609835
0.334813 0.886073 0.747433
0.334246 0.885506 0.885506
0.333722 0.884981 1.000000
0.332856 1.000000 0.000000
0.332406 1.000000 0.062177
0.331857 1.000000 0.195969
0.331301 1.000000 0.331301
0.330742 1.000000 0.467610
0.330180 1.000000 0.604637
0.329615 1.000000 0.742236
0.329049 1.000000 0.880308
0.328524 1.000000 1.000000
0.510988 0.000000 0.000000
0.510538 0.000000 0.103442
0.509989 0.000000 0.237234
0.509434 0.000000 0.372566
0.508875 0.000000 0.508875
0.508312 0.000000 0.645902
0.507748 0.000000 0.783501
0.507181 0.000000 0.921573
0.506656 0.000000 1.000000
0.506530 0.099435 0.000000
0.506080 0.098984 0.098984
0.505531 0.098435 0.232776
0.504976 0.097880 0.368109
0.504417 0.097321 0.504417
0.503854 0.096758 0.641444
0.503290 0.096194 0.779043
0.502723 0.095627 0.917115
0.502198 0.095103 1.000000
0.501092 0.228337 0.000000
0.500642 0.227887 0.093546
0.500093 0.227338 0.227338
0.499538 0.226782 0.362670
0.498978 0.226223 0.498978
0.498416 0.225661 0.636006
0.497851 0.225096 0.773604
0.497285 0.224529 0.911677
0.496760 0.224005 1.000000
0.495591 0.358723 0.000000
0.495141 0.358273 0.088045
0.494592 0.357724 0.221837
0.494036 0.357169 0.357169
0.493477 0.356610 0.493477
0.492915 0.356047 0.630504
0.492350 0.355483 0.768103
0.491783 0.354916 0.906176
0.491259 0.354391 1.000000
0.490050 0.490050 0.000000
0.489600 0.489600 0.082504
0.489051 0.489051 0.216296
0.488496 0.488496 0.351628
0.487936 0.487936 0.487936
0.487374 0.487374 0.624964
0.486809 0.486809 0.762562
0.486243 0.486243 0.900635
0.485718 0.485718 1.000000
0.484480 0.622070 0.000000
0.484030 0.621620 0.076934
0.483481 0.621071 0.210726
0.482926 0.620515 0.346058
0.482366 0.619956 0.482366
0.481804 0.619394 0.619394
0.481239 0.618829 0.756992
0.480673 0.618262 0.895065
0.480148 0.617738 1.000000
0.478887 0.754640 0.000000
0.478437 0.754190 0.071341
0.477888 0.753641 0.205132
0.477332 0.753085 0.340465
0.476773 0.752526 0.476773
0.476211 0.751964 0.613800
0.475646 0.751399 0.751399
0.475079 0.750832 0.889471
0.474555 0.750308 1.000000
0.473274 0.887666 0.000000
0.472824 0.887216 0.065728
0.472275 0.886667 0.199520
0.471720 0.886112 0.334852
0.471160 0.885552 0.471160
0.470598 0.884990 0.608188
0.470033 0.884426 0.745786
0.469467 0.883859 0.883859
0.468942 0.883334 1.000000
0.468076 1.000000 0.000000
0.467626 1.000000 0.060530
0.467077 1.000000 0.194322
0.466522 1.000000 0.329654
0.465963 1.000000 0.465963
0.465400 1.000000 0.602990
0.464836 1.000000 0.740589
0.464269 1.000000 0.878661
0.463744 1.000000 1.000000
0.646922 0.000000 0.000000
0.646472 0.000000 0.101787
0.645923 0.000000 0.235578
0.645368 0.000000 0.370911
0.644809 0.000000 0.507219
0.644246 0.000000 0.644246
0.643682 0.000000 0.781845
0.643115 0.000000 0.919917
0.642590 0.000000 1.000000
0.642464 0.097779 0.000000
0.642014 0.097329 0.097329
0.641465 0.096780 0.231120
0.640910 0.096224 0.366453
0.640351 0.095665 0.502761
0.639788 0.095103 0.639788
0.639224 0.094538 0.777387
0.638657 0.093971 0.915459
0.638132 0.093447 1.000000
0.637026 0.226681 0.000000
0.636576 0.226231 0.091890
0.636027 0.225682 0.225682
0.635472 0.225127 0.361014
0.634912 0.224567 0.497322
0.634350 0.224005 0.634350
0.633785 0.223440 0.771948
0.633219 0.222874 0.910021
0.632694 0.222349 1.000000
0.631525 0.357068 0.000000
0.631075 0.356617 0.086389
0.630526 0.356068 0.220181
0.629970 0.355513 0.355513
0.629411 0.354954 0.491821
0.628849 0.354391 0.628849
0.628284 0.353827 0.766447
0.627717 0.353260 0.904520
0.627193 0.352736 1.000000
0.625984 0.488394 0.000000
0.625534 0.487944 0.080848
0.624985 0.487395 0.214640
0.624430 0.486840 0.349972
0.623870 0.486280 0.486280
0.623308 0.485718 0.623308
0.622743 0.485154 0.760906
0.622177 0.484587 0.898979
0.621652 0.484062 1.000000
0.620414 0.620414 0.000000
0.619964 0.619964 0.075278
0.619415 0.619415 0.209070
0.618860 0.618860 0.344402
0.618300 0.618300 0.480710
0.617738 0.617738 0.617738
0.617173 0.617173 0.755336
0.616607 0.616607 0.893409
0.616082 0.616082 1.000000
0.614821 0.752984 0.000000
0.614371 0.752534 0.069685
0.613822 0.751985 0.203477
0.613266 0.751429 0.338809
0.612707 0.750870 0.475117
0.612145 0.750308 0.612145
0.611580 0.749743 0.749743
0.611013 0.749177 0.887816
0.610489 0.748652 1.000000
0.609208 0.886010 0.000000
0.608758 0.885560 0.064072
0.608209 0.885011 0.197864
0.607654 0.884456 0.333196
0.607094 0.883897 0.469505
0.606532 0.883334 0.606532
0.605967 0.882770 0.744131
0.605401 0.882203 0.882203
0.604876 0.881678 1.000000
0.604010 1.000000 0.000000
0.603560 1.000000 0.058875
0.603011 1.000000 0.192666
0.602456 1.000000 0.327999
0.601897 1.000000 0.464307
0.601334 1.000000 0.601334
0.600770 1.000000 0.738933
0.600203 1.000000 0.877005
0.599678 1.000000 1.000000
0.783423 0.000000 0.000000
0.782973 0.000000 0.100124
0.782424 0.000000 0.233916
0.781868 0.000000 0.369248
0.781309 0.000000 0.505556
0.780747 0.000000 0.642584
0.780182 0.000000 0.780182
0.779616 0.000000 0.918255
0.779091 0.000000 1.000000
0.778965 0.096116 0.000000
0.778515 0.095666 0.095666
0.777966 0.095117 0.229458
0.777411 0.094562 0.364790
0.776851 0.094002 0.501098
0.776289 0.093440 0.638126
0.775724 0.092875 0.775724
0.775158 0.092309 0.913797
0.774633 0.091784 1.000000
0.773526 0.225018 0.000000
0.773076 0.224568 0.090228
0.772527 0.224019 0.224019
0.771972 0.223464 0.359352
0.771413 0.222905 0.495660
0.770850 0.222342 0.632687
0.770286 0.221778 0.770286
0.769719 0.221211 0.908358
0.769194 0.220686 1.000000
0.768025 0.355405 0.000000
0.767575 0.354955 0.084726
0.767026 0.354406 0.218518
0.766471 0.353850 0.353850
0.765912 0.353291 0.490159
0.765349 0.352729 0.627186
0.764785 0.352164 0.764785
0.764218 0.351598 0.902857
0.763693 0.351073 1.000000
0.762484 0.486732 0.000000
0.762034 0.486282 0.079186
0.761485 0.485733 0.212977
0.760930 0.485177 0.348310
0.760371 0.484618 0.484618
0.759808 0.484056 0.621645
0.759244 0.483491 0.759244
0.758677 0.482924 0.897316
0.758152 0.482400 1.000000
0.756914 0.618751 0.000000
0.756464 0.618301 0.073616
0.755915 0.617752 0.207407
0.755360 0.617197 0.342740
0.754801 0.616638 0.479048
0.754238 0.616075 0.616075
0.753674 0.615511 0.753674
0.753107 0.614944 0.891746
0.752582 0.614419 1.000000
0.751321 0.751321 0.000000
0.750871 0.750871 0.068022
0.750322 0.750322 0.201814
0.749767 0.749767 0.337146
0.749207 0.749207 0.473454
0.748645 0.748645 0.610482
0.748080 0.748080 0.748080
0.747514 0.747514 0.886153
0.746989 0.746989 1.000000
0.745709 0.884348 0.000000
0.745259 0.883898 0.062410
0.744710 0.883349 0.196202
0.744154 0.882793 0.331534
0.743595 0.882234 0.467842
0.743033 0.881672 0.604869
0.742468 0.881107 0.742468
0.741901 0.880541 0.880541
0.741377 0.880016 1.000000
0.740511 1.000000 0.000000
0.740061 1.000000 0.057212
0.739512 1.000000 0.191004
0.738956 1.000000 0.326336
0.738397 1.000000 0.462644
0.737835 1.000000 0.599672
0.737270 1.000000 0.737270
0.736704 1.000000 0.875343
0.736179 1.000000 1.000000
0.920394 0.000000 0.000000
0.919944 0.000000 0.098456
0.919395 0.000000 0.232247
0.918839 0.000000 0.367580
0.918280 0.000000 0.503888
0.917718 0.000000 0.640915
0.917153 0.000000 0.778514
0.916586 0.000000 0.916586
0.916062 0.000000 1.000000
0.915936 0.094448 0.000000
0.915486 0.093998 0.093998
0.914937 0.093449 0.227789
0.914381 0.092893 0.363122
0.913822 0.092334 0.499430
0.913260 0.091772 0.636457
0.912695 0.091207 0.774056
0.912128 0.090640 0.912128
0.911604 0.090116 1.000000
0.910497 0.223350 0.000000
0.910047 0.222900 0.088559
0.909498 0.222351 0.222351
0.908943 0.221796 0.357683
0.908383 0.221236 0.493991
0.907821 0.220674 0.631019
0.907257 0.220109 0.768617
0.906690 0.219543 0.906690
0.906165 0.219018 1.000000
0.904996 0.353736 0.000000
0.904546 0.353286 0.083058
0.903997 0.352737 0.216850
0.903442 0.352182 0.352182
0.902882 0.351623 0.488490
0.902320 0.351060 0.625518
0.901755 0.350496 0.763116
0.901189 0.349929 0.901189
0.900664 0.349404 1.000000
0.899455 0.485063 0.000000
0.899005 0.484613 0.077517
0.898456 0.484064 0.211309
0.897901 0.483509 0.346641
0.897342 0.482949 0.482949
0.896779 0.482387 0.619977
0.896215 0.481822 0.757575
0.895648 0.481256 0.895648
0.895123 0.480731 1.000000
0.893885 0.617083 0.000000
0.893435 0.616633 0.071947
0.892886 0.616084 0.205739
0.892331 0.615528 0.341071
0.891771 0.614969 0.477379
0.891209 0.614407 0.614407
0.890645 0.613842 0.752005
0.890078 0.613276 0.890078
0.889553 0.612751 1.000000
0.888292 0.749653 0.000000
0.887842 0.749203 0.066354
0.887293 0.748654 0.200146
0.886738 0.748098 0.335478
0.886178 0.747539 0.471786
0.885616 0.746977 0.608814
0.885051 0.746412 0.746412
0.884485 0.745846 0.884485
0.883960 0.745321 1.000000
0.882679 0.882679 0.000000
0.882229 0.882229 0.060741
0.881680 0.881680 0.194533
0.881125 0.881125 0.329865
0.880566 0.880566 0.466174
0.880003 0.880003 0.603201
0.879439 0.879439 0.740800
0.878872 0.878872 0.878872
0.878347 0.878347 1.000000
0.877482 1.000000 0.000000
0.877032 1.000000 0.055544
0.876483 1.000000 0.189335
0.875927 1.000000 0.324668
0.875368 1.000000 0.460976
0.874806 1.000000 0.598003
0.874241 1.000000 0.735602
0.873674 1.000000 0.873674
0.873150 1.000000 1.000000
1.000000 0.000000 0.000000
1.000000 0.000000 0.096910
1.000000 0.000000 0.230702
1.000000 0.000000 0.366035
1.000000 0.000000 0.502343
1.000000 0.000000 0.639370
1.000000 0.000000 0.776969
1.000000 0.000000 0.915041
1.000000 0.000000 1.000000
1.000000 0.092903 0.000000
1.000000 0.092453 0.092453
1.000000 0.091904 0.226244
1.000000 0.091348 0.361577
1.000000 0.090789 0.497885
1.000000 0.090227 0.634912
1.000000 0.089662 0.772511
1.000000 0.089095 0.910583
1.000000 0.088571 1.000000
1.000000 0.221805 0.000000
1.000000 0.221355 0.087014
1.000000 0.220806 0.220806
1.000000 0.220250 0.356138
1.000000 0.219691 0.492446
1.000000 0.219129 0.629474
1.000000 0.218564 0.767072
1.000000 0.217998 0.905145
1.000000 0.217473 1.000000
1.000000 0.352191 0.000000
1.000000 0.351741 0.081513
1.000000 0.351192 0.215305
1.000000 0.350637 0.350637
1.000000 0.350078 0.486945
1.000000 0.349515 0.623973
1.000000 0.348951 0.761571
1.000000 0.348384 0.899644
1.000000 0.347859 1.000000
1.000000 0.483518 0.000000
1.000000 0.483068 0.075972
1.000000 0.482519 0.209764
1.000000 0.481964 0.345096
1.000000 0.481404 0.481404
1.000000 0.480842 0.618432
1.000000 0.480277 0.756030
1.000000 0.479711 0.894103
1.000000 0.479186 1.000000
1.000000 0.615538 0.000000
1.000000 0.615088 0.070402
1.000000 0.614539 0.204194
1.000000 0.613983 0.339526
1.000000 0.613424 0.475834
1.000000 0.612862 0.612862
1.000000 0.612297 0.750460
1.000000 0.611731 0.888533
1.000000 0.611206 1.000000
1.000000 0.748108 0.000000
1.000000 0.747658 0.064809
1.000000 0.747109 0.198601
1.000000 0.746553 0.333933
1.000000 0.745994 0.470241
1.000000 0.745432 0.607268
1.000000 0.744867 0.744867
1.000000 0.744300 0.882940
1.000000 0.743776 1.000000
1.000000 0.881134 0.000000
1.000000 0.880684 0.059196
1.000000 0.880135 0.192988
1.000000 0.879580 0.328320
1.000000 0.879021 0.464628
1.000000 0.878458 0.601656
1.000000 0.877894 0.739254
1.000000 0.877327 0.877327
1.000000 0.876802 1.000000
1.000000 1.000000 0.000000
1.000000 1.000000 0.053998
1.000000 1.000000 0.187790
1.000000 1.000000 0.323123
1.000000 1.000000 0.459431
1.000000 1.000000 0.596458
1.000000 1.000000 0.734057
1.000000 1.000000 0.872129
1.000000 1.000000 1.000000
