skills/editops-orchestrator/assets/grade/luts/trailer_punch_v11.cube
TITLE "trailer_punch_v11"
LUT_3D_SIZE 17
DOMAIN_MIN 0.0 0.0 0.0
DOMAIN_MAX 1.0 1.0 1.0
0.000000 0.000000 0.000000
0.000000 0.000000 0.011296
0.000000 0.000000 0.080367
0.000000 0.000000 0.153057
0.000000 0.000000 0.227550
0.000000 0.000000 0.303281
0.000000 0.000000 0.379961
0.000000 0.000000 0.457412
0.000000 0.000000 0.535515
0.000000 0.000000 0.614182
0.000000 0.000000 0.693348
0.000000 0.000000 0.772961
0.000000 0.000000 0.852979
0.000000 0.000000 0.933367
0.000000 0.000000 1.000000
0.000000 0.000000 1.000000
0.000000 0.000000 1.000000
0.000000 0.010313 0.000000
0.000000 0.010203 0.010203
0.000000 0.009528 0.079273
0.000000 0.008818 0.151964
0.000000 0.008090 0.226457
0.000000 0.007350 0.302188
0.000000 0.006601 0.378868
0.000000 0.005844 0.456319
0.000000 0.005081 0.534422
0.000000 0.004313 0.613089
0.000000 0.003539 0.692255
0.000000 0.002762 0.771868
0.000000 0.001980 0.851885
0.000000 0.001195 0.932274
0.000000 0.000406 1.000000
0.000000 0.000000 1.000000
0.000000 0.000000 1.000000
0.000000 0.073374 0.000000
0.000000 0.073264 0.003518
0.000000 0.072589 0.072589
0.000000 0.071879 0.145279
0.000000 0.071151 0.219773
0.000000 0.070411 0.295504
0.000000 0.069662 0.372183
0.000000 0.068906 0.449635
0.000000 0.068143 0.527737
0.000000 0.067374 0.606405
0.000000 0.066601 0.685571
0.000000 0.065823 0.765183
0.000000 0.065041 0.845201
0.000000 0.064256 0.925589
0.000000 0.063467 1.000000
0.000000 0.062675 1.000000
0.000000 0.062202 1.000000
0.000000 0.139740 0.000000
0.000000 0.139630 0.000000
0.000000 0.138955 0.065555
0.000000 0.138245 0.138245
0.000000 0.137517 0.212738
0.000000 0.136777 0.288469
0.000000 0.136028 0.365149
0.000000 0.135271 0.442600
0.000000 0.134508 0.520703
0.000000 0.133740 0.599370
0.000000 0.132966 0.678536
0.000000 0.132189 0.758149
0.000000 0.131407 0.838167
0.000000 0.130622 0.918555
0.000000 0.129833 0.999284
0.000000 0.129041 1.000000
0.000000 0.128568 1.000000
0.000000 0.207752 0.000000
0.000000 0.207642 0.000000
0.000000 0.206967 0.058345
0.000000 0.206257 0.131036
0.000000 0.205529 0.205529
0.000000 0.204789 0.281260
0.000000 0.204040 0.357940
0.000000 0.203284 0.435391
0.000000 0.202521 0.513494
0.000000 0.201752 0.592161
0.000000 0.200979 0.671327
0.000000 0.200201 0.750940
0.000000 0.199419 0.830958
0.000000 0.198634 0.911346
0.000000 0.197845 0.992075
0.000000 0.197053 1.000000
0.000000 0.196580 1.000000
0.000000 0.276894 0.000000
0.000000 0.276784 0.000000
0.000000 0.276109 0.051017
0.000000 0.275399 0.123707
0.000000 0.274671 0.198200
0.000000 0.273931 0.273931
0.000000 0.273182 0.350611
0.000000 0.272426 0.428062
0.000000 0.271663 0.506165
0.000000 0.270894 0.584832
0.000000 0.270121 0.663998
0.000000 0.269343 0.743611
0.000000 0.268561 0.823629
0.000000 0.267776 0.904017
0.000000 0.266987 0.984746
0.000000 0.266195 1.000000
0.000000 0.265722 1.000000
0.000000 0.346902 0.000000
0.000000 0.346792 0.000000
0.000000 0.346117 0.043596
0.000000 0.345407 0.116286
0.000000 0.344679 0.190780
0.000000 0.343940 0.266511
0.000000 0.343190 0.343190
0.000000 0.342434 0.420642
0.000000 0.341671 0.498744
0.000000 0.340902 0.577412
0.000000 0.340129 0.656578
0.000000 0.339351 0.736190
0.000000 0.338569 0.816208
0.000000 0.337784 0.896596
0.000000 0.336995 0.977326
0.000000 0.336203 1.000000
0.000000 0.335730 1.000000
0.000000 0.417615 0.000000
0.000000 0.417505 0.000000
0.000000 0.416830 0.036101
0.000000 0.416120 0.108791
0.000000 0.415392 0.183285
0.000000 0.414652 0.259016
0.000000 0.413903 0.335695
0.000000 0.413146 0.413146
0.000000 0.412383 0.491249
0.000000 0.411615 0.569916
0.000000 0.410841 0.649082
0.000000 0.410064 0.728695
0.000000 0.409282 0.808713
0.000000 0.408496 0.889101
0.000000 0.407708 0.969830
0.000000 0.406916 1.000000
0.000000 0.406443 1.000000
0.000000 0.488922 0.000000
0.000000 0.488812 0.000000
0.000000 0.488137 0.028542
0.000000 0.487427 0.101233
0.000000 0.486699 0.175726
0.000000 0.485959 0.251457
0.000000 0.485210 0.328137
0.000000 0.484454 0.405588
0.000000 0.483691 0.483691
0.000000 0.482922 0.562358
0.000000 0.482149 0.641524
0.000000 0.481371 0.721137
0.000000 0.480589 0.801154
0.000000 0.479804 0.881543
0.000000 0.479015 0.962272
0.000000 0.478223 1.000000
0.000000 0.477750 1.000000
0.000000 0.560745 0.000000
0.000000 0.560635 0.000000
0.000000 0.559960 0.020929
0.000000 0.559250 0.093620
0.000000 0.558522 0.168113
0.000000 0.557782 0.243844
0.000000 0.557033 0.320524
0.000000 0.556277 0.397975
0.000000 0.555514 0.476078
0.000000 0.554745 0.554745
0.000000 0.553972 0.633911
0.000000 0.553194 0.713524
0.000000 0.552412 0.793541
0.000000 0.551627 0.873930
0.000000 0.550838 0.954659
0.000000 0.550046 1.000000
0.000000 0.549573 1.000000
0.000000 0.633023 0.000000
0.000000 0.632913 0.000000
0.000000 0.632238 0.013268
0.000000 0.631528 0.085958
0.000000 0.630800 0.160452
0.000000 0.630061 0.236183
0.000000 0.629311 0.312863
0.000000 0.628555 0.390314
0.000000 0.627792 0.468416
0.000000 0.627023 0.547084
0.000000 0.626250 0.626250
0.000000 0.625472 0.705863
0.000000 0.624690 0.785880
0.000000 0.623905 0.866268
0.000000 0.623116 0.946998
0.000000 0.622324 1.000000
0.000000 0.621851 1.000000
0.000000 0.705709 0.000000
0.000000 0.705599 0.000000
0.000000 0.704924 0.005564
0.000000 0.704214 0.078254
0.000000 0.703486 0.152748
0.000000 0.702747 0.228479
0.000000 0.701997 0.305158
0.000000 0.701241 0.382609
0.000000 0.700478 0.460712
0.000000 0.699709 0.539379
0.000000 0.698936 0.618545
0.000000 0.698158 0.698158
0.000000 0.697376 0.778176
0.000000 0.696591 0.858564
0.000000 0.695802 0.939293
0.000000 0.695011 1.000000
0.000000 0.694537 1.000000
0.000000 0.778765 0.000000
0.000000 0.778655 0.000000
0.000000 0.777980 0.000000
0.000000 0.777270 0.070510
0.000000 0.776542 0.145004
0.000000 0.775802 0.220735
0.000000 0.775053 0.297414
0.000000 0.774297 0.374866
0.000000 0.773534 0.452968
0.000000 0.772765 0.531636
0.000000 0.771992 0.610802
0.000000 0.771214 0.690414
0.000000 0.770432 0.770432
0.000000 0.769647 0.850820
0.000000 0.768858 0.931550
0.000000 0.768066 1.000000
0.000000 0.767593 1.000000
0.000000 0.852159 0.000000
0.000000 0.852049 0.000000
0.000000 0.851374 0.000000
0.000000 0.850664 0.062731
0.000000 0.849936 0.137224
0.000000 0.849196 0.212955
0.000000 0.848447 0.289635
0.000000 0.847690 0.367086
0.000000 0.846927 0.445189
0.000000 0.846159 0.523856
0.000000 0.845386 0.603022
0.000000 0.844608 0.682635
0.000000 0.843826 0.762653
0.000000 0.843041 0.843041
0.000000 0.842252 0.923770
0.000000 0.841460 1.000000
0.000000 0.840987 1.000000
0.000000 0.925865 0.000000
0.000000 0.925754 0.000000
0.000000 0.925080 0.000000
0.000000 0.924369 0.054918
0.000000 0.923642 0.129412
0.000000 0.922902 0.205143
0.000000 0.922153 0.281822
0.000000 0.921396 0.359273
0.000000 0.920633 0.437376
0.000000 0.919865 0.516044
0.000000 0.919091 0.595210
0.000000 0.918313 0.674822
0.000000 0.917532 0.754840
0.000000 0.916746 0.835228
0.000000 0.915958 0.915958
0.000000 0.915166 0.997004
0.000000 0.914693 1.000000
0.000000 0.999860 0.000000
0.000000 0.999749 0.000000
0.000000 0.999074 0.000000
0.000000 0.998364 0.047075
0.000000 0.997637 0.121569
0.000000 0.996897 0.197300
0.000000 0.996148 0.273979
0.000000 0.995391 0.351430
0.000000 0.994628 0.429533
0.000000 0.993859 0.508200
0.000000 0.993086 0.587366
0.000000 0.992308 0.666979
0.000000 0.991526 0.746997
0.000000 0.990741 0.827385
0.000000 0.989952 0.908114
0.000000 0.989161 0.989161
0.000000 0.988688 1.000000
0.000000 1.000000 0.000000
0.000000 1.000000 0.000000
0.000000 1.000000 0.000000
0.000000 1.000000 0.042389
0.000000 1.000000 0.116883
0.000000 1.000000 0.192614
0.000000 1.000000 0.269293
0.000000 1.000000 0.346744
0.000000 1.000000 0.424847
0.000000 1.000000 0.503514
0.000000 1.000000 0.582680
0.000000 1.000000 0.662293
0.000000 1.000000 0.742311
0.000000 1.000000 0.822699
0.000000 1.000000 0.903428
0.000000 1.000000 0.984475
0.000000 1.000000 1.000000
0.011081 0.000000 0.000000
0.010971 0.000000 0.010971
0.010296 0.000000 0.080042
0.009586 0.000000 0.152732
0.008858 0.000000 0.227225
0.008118 0.000000 0.302956
0.007369 0.000000 0.379636
0.006613 0.000000 0.457087
0.005850 0.000000 0.535190
0.005081 0.000000 0.613857
0.004308 0.000000 0.693023
0.003530 0.000000 0.772636
0.002748 0.000000 0.852654
0.001963 0.000000 0.933042
0.001174 0.000000 1.000000
0.000382 0.000000 1.000000
0.000000 0.000000 1.000000
0.009988 0.009988 0.000000
0.009878 0.009878 0.009878
0.009203 0.009203 0.078948
0.008493 0.008493 0.151639
0.007765 0.007765 0.226132
0.007025 0.007025 0.301863
0.006276 0.006276 0.378543
0.005519 0.005519 0.455994
0.004756 0.004756 0.534097
0.003988 0.003988 0.612764
0.003214 0.003214 0.691930
0.002437 0.002437 0.771543
0.001655 0.001655 0.851560
0.000870 0.000870 0.931949
0.000081 0.000081 1.000000
0.000000 0.000000 1.000000
0.000000 0.000000 1.000000
0.003304 0.073049 0.000000
0.003193 0.072939 0.003193
0.002519 0.072264 0.072264
0.001809 0.071554 0.144954
0.001081 0.070826 0.219448
0.000341 0.070086 0.295179
0.000000 0.069337 0.371859
0.000000 0.068581 0.449310
0.000000 0.067818 0.527412
0.000000 0.067049 0.606080
0.000000 0.066276 0.685246
0.000000 0.065498 0.764859
0.000000 0.064716 0.844876
0.000000 0.063931 0.925264
0.000000 0.063142 1.000000
0.000000 0.062350 1.000000
0.000000 0.061877 1.000000
0.000000 0.139415 0.000000
0.000000 0.139305 0.000000
0.000000 0.138630 0.065230
0.000000 0.137920 0.137920
0.000000 0.137192 0.212413
0.000000 0.136452 0.288144
0.000000 0.135703 0.364824
0.000000 0.134946 0.442275
0.000000 0.134183 0.520378
0.000000 0.133415 0.599045
0.000000 0.132642 0.678211
0.000000 0.131864 0.757824
0.000000 0.131082 0.837842
0.000000 0.130297 0.918230
0.000000 0.129508 0.998959
0.000000 0.128716 1.000000
0.000000 0.128243 1.000000
0.000000 0.207427 0.000000
0.000000 0.207317 0.000000
0.000000 0.206642 0.058021
0.000000 0.205932 0.130711
0.000000 0.205204 0.205204
0.000000 0.204465 0.280935
0.000000 0.203715 0.357615
0.000000 0.202959 0.435066
0.000000 0.202196 0.513169
0.000000 0.201427 0.591836
0.000000 0.200654 0.671002
0.000000 0.199876 0.750615
0.000000 0.199094 0.830633
0.000000 0.198309 0.911021
0.000000 0.197520 0.991750
0.000000 0.196728 1.000000
0.000000 0.196255 1.000000
0.000000 0.276569 0.000000
0.000000 0.276459 0.000000
0.000000 0.275784 0.050692
0.000000 0.275074 0.123382
0.000000 0.274346 0.197876
0.000000 0.273607 0.273607
0.000000 0.272857 0.350286
0.000000 0.272101 0.427737
0.000000 0.271338 0.505840
0.000000 0.270569 0.584507
0.000000 0.269796 0.663673
0.000000 0.269018 0.743286
0.000000 0.268236 0.823304
0.000000 0.267451 0.903692
0.000000 0.266662 0.984421
0.000000 0.265870 1.000000
0.000000 0.265397 1.000000
0.000000 0.346577 0.000000
0.000000 0.346467 0.000000
0.000000 0.345792 0.043271
0.000000 0.345082 0.115961
0.000000 0.344354 0.190455
0.000000 0.343615 0.266186
0.000000 0.342865 0.342865
0.000000 0.342109 0.420317
0.000000 0.341346 0.498419
0.000000 0.340577 0.577087
0.000000 0.339804 0.656253
0.000000 0.339026 0.735865
0.000000 0.338244 0.815883
0.000000 0.337459 0.896271
0.000000 0.336670 0.977001
0.000000 0.335879 1.000000
0.000000 0.335405 1.000000
0.000000 0.417290 0.000000
0.000000 0.417180 0.000000
0.000000 0.416505 0.035776
0.000000 0.415795 0.108466
0.000000 0.415067 0.182960
0.000000 0.414327 0.258691
0.000000 0.413578 0.335370
0.000000 0.412821 0.412821
0.000000 0.412058 0.490924
0.000000 0.411290 0.569591
0.000000 0.410516 0.648757
0.000000 0.409739 0.728370
0.000000 0.408957 0.808388
0.000000 0.408171 0.888776
0.000000 0.407383 0.969505
0.000000 0.406591 1.000000
0.000000 0.406118 1.000000
0.000000 0.488597 0.000000
0.000000 0.488487 0.000000
0.000000 0.487812 0.028217
0.000000 0.487102 0.100908
0.000000 0.486374 0.175401
0.000000 0.485634 0.251132
0.000000 0.484885 0.327812
0.000000 0.484129 0.405263
0.000000 0.483366 0.483366
0.000000 0.482597 0.562033
0.000000 0.481824 0.641199
0.000000 0.481046 0.720812
0.000000 0.480264 0.800830
0.000000 0.479479 0.881218
0.000000 0.478690 0.961947
0.000000 0.477898 1.000000
0.000000 0.477425 1.000000
0.000000 0.560420 0.000000
0.000000 0.560310 0.000000
0.000000 0.559635 0.020604
0.000000 0.558925 0.093295
0.000000 0.558197 0.167788
0.000000 0.557457 0.243519
0.000000 0.556708 0.320199
0.000000 0.555952 0.397650
0.000000 0.555189 0.475753
0.000000 0.554420 0.554420
0.000000 0.553647 0.633586
0.000000 0.552869 0.713199
0.000000 0.552087 0.793217
0.000000 0.551302 0.873605
0.000000 0.550513 0.954334
0.000000 0.549721 1.000000
0.000000 0.549248 1.000000
0.000000 0.632698 0.000000
0.000000 0.632588 0.000000
0.000000 0.631913 0.012943
0.000000 0.631203 0.085633
0.000000 0.630475 0.160127
0.000000 0.629736 0.235858
0.000000 0.628986 0.312538
0.000000 0.628230 0.389989
0.000000 0.627467 0.468091
0.000000 0.626698 0.546759
0.000000 0.625925 0.625925
0.000000 0.625147 0.705538
0.000000 0.624365 0.785555
0.000000 0.623580 0.865943
0.000000 0.622791 0.946673
0.000000 0.622000 1.000000
0.000000 0.621526 1.000000
0.000000 0.705385 0.000000
0.000000 0.705274 0.000000
0.000000 0.704599 0.005239
0.000000 0.703889 0.077929
0.000000 0.703161 0.152423
0.000000 0.702422 0.228154
0.000000 0.701673 0.304833
0.000000 0.700916 0.382284
0.000000 0.700153 0.460387
0.000000 0.699384 0.539054
0.000000 0.698611 0.618220
0.000000 0.697833 0.697833
0.000000 0.697051 0.777851
0.000000 0.696266 0.858239
0.000000 0.695477 0.938968
0.000000 0.694686 1.000000
0.000000 0.694213 1.000000
0.000000 0.778440 0.000000
0.000000 0.778330 0.000000
0.000000 0.777655 0.000000
0.000000 0.776945 0.070185
0.000000 0.776217 0.144679
0.000000 0.775477 0.220410
0.000000 0.774728 0.297089
0.000000 0.773972 0.374541
0.000000 0.773209 0.452643
0.000000 0.772440 0.531311
0.000000 0.771667 0.610477
0.000000 0.770889 0.690089
0.000000 0.770107 0.770107
0.000000 0.769322 0.850495
0.000000 0.768533 0.931225
0.000000 0.767741 1.000000
0.000000 0.767268 1.000000
0.000000 0.851834 0.000000
0.000000 0.851724 0.000000
0.000000 0.851049 0.000000
0.000000 0.850339 0.062406
0.000000 0.849611 0.136899
0.000000 0.848871 0.212630
0.000000 0.848122 0.289310
0.000000 0.847366 0.366761
0.000000 0.846603 0.444864
0.000000 0.845834 0.523531
0.000000 0.845061 0.602697
0.000000 0.844283 0.682310
0.000000 0.843501 0.762328
0.000000 0.842716 0.842716
0.000000 0.841927 0.923445
0.000000 0.841135 1.000000
0.000000 0.840662 1.000000
0.000000 0.925540 0.000000
0.000000 0.925429 0.000000
0.000000 0.924755 0.000000
0.000000 0.924045 0.054593
0.000000 0.923317 0.129087
0.000000 0.922577 0.204818
0.000000 0.921828 0.281497
0.000000 0.921071 0.358949
0.000000 0.920308 0.437051
0.000000 0.919540 0.515719
0.000000 0.918766 0.594885
0.000000 0.917988 0.674497
0.000000 0.917207 0.754515
0.000000 0.916421 0.834903
0.000000 0.915633 0.915633
0.000000 0.914841 0.996679
0.000000 0.914368 1.000000
0.000000 0.999535 0.000000
0.000000 0.999424 0.000000
0.000000 0.998750 0.000000
0.000000 0.998039 0.046750
0.000000 0.997312 0.121244
0.000000 0.996572 0.196975
0.000000 0.995823 0.273654
0.000000 0.995066 0.351105
0.000000 0.994303 0.429208
0.000000 0.993534 0.507875
0.000000 0.992761 0.587041
0.000000 0.991983 0.666654
0.000000 0.991202 0.746672
0.000000 0.990416 0.827060
0.000000 0.989628 0.907789
0.000000 0.988836 0.988836
0.000000 0.988363 1.000000
0.000000 1.000000 0.000000
0.000000 1.000000 0.000000
0.000000 1.000000 0.000000
0.000000 1.000000 0.042064
0.000000 1.000000 0.116558
0.000000 1.000000 0.192289
0.000000 1.000000 0.268968
0.000000 1.000000 0.346419
0.000000 1.000000 0.424522
0.000000 1.000000 0.503189
0.000000 1.000000 0.582355
0.000000 1.000000 0.661968
0.000000 1.000000 0.741986
0.000000 1.000000 0.822374
0.000000 1.000000 0.903103
0.000000 1.000000 0.984150
0.000000 1.000000 1.000000
0.078840 0.000000 0.000000
0.078729 0.000000 0.008984
0.078055 0.000000 0.078055
0.077344 0.000000 0.150745
0.076617 0.000000 0.225238
0.075877 0.000000 0.300969
0.075128 0.000000 0.377649
0.074371 0.000000 0.455100
0.073608 0.000000 0.533203
0.072840 0.000000 0.611870
0.072066 0.000000 0.691036
0.071288 0.000000 0.770649
0.070507 0.000000 0.850667
0.069721 0.000000 0.931055
0.068933 0.000000 1.000000
0.068141 0.000000 1.000000
0.067668 0.000000 1.000000
0.077747 0.008001 0.000000
0.077636 0.007891 0.007891
0.076961 0.007216 0.076961
0.076251 0.006506 0.149652
0.075524 0.005778 0.224145
0.074784 0.005038 0.299876
0.074035 0.004289 0.376556
0.073278 0.003532 0.454007
0.072515 0.002769 0.532110
0.071746 0.002001 0.610777
0.070973 0.001227 0.689943
0.070195 0.000450 0.769556
0.069413 0.000000 0.849574
0.068628 0.000000 0.929962
0.067839 0.000000 1.000000
0.067048 0.000000 1.000000
0.066575 0.000000 1.000000
0.071062 0.071062 0.000000
0.070952 0.070952 0.001206
0.070277 0.070277 0.070277
0.069567 0.069567 0.142967
0.068839 0.068839 0.217461
0.068099 0.068099 0.293192
0.067350 0.067350 0.369872
0.066594 0.066594 0.447323
0.065831 0.065831 0.525425
0.065062 0.065062 0.604093
0.064289 0.064289 0.683259
0.063511 0.063511 0.762872
0.062729 0.062729 0.842889
0.061944 0.061944 0.923277
0.061155 0.061155 1.000000
0.060363 0.060363 1.000000
0.059890 0.059890 1.000000
0.064028 0.137428 0.000000
0.063917 0.137318 0.000000
0.063243 0.136643 0.063243
0.062533 0.135933 0.135933
0.061805 0.135205 0.210426
0.061065 0.134465 0.286157
0.060316 0.133716 0.362837
0.059559 0.132960 0.440288
0.058796 0.132196 0.518391
0.058028 0.131428 0.597058
0.057254 0.130655 0.676224
0.056476 0.129877 0.755837
0.055695 0.129095 0.835855
0.054909 0.128310 0.916243
0.054121 0.127521 0.996972
0.053329 0.126729 1.000000
0.052856 0.126256 1.000000
0.056819 0.205440 0.000000
0.056708 0.205330 0.000000
0.056034 0.204655 0.056034
0.055323 0.203945 0.128724
0.054596 0.203217 0.203217
0.053856 0.202478 0.278948
0.053107 0.201728 0.355628
0.052350 0.200972 0.433079
0.051587 0.200209 0.511182
0.050818 0.199440 0.589849
0.050045 0.198667 0.669015
0.049267 0.197889 0.748628
0.048486 0.197107 0.828646
0.047700 0.196322 0.909034
0.046912 0.195533 0.989763
0.046120 0.194742 1.000000
0.045647 0.194268 1.000000
0.049490 0.274582 0.000000
0.049380 0.274472 0.000000
0.048705 0.273797 0.048705
0.047995 0.273087 0.121395
0.047267 0.272359 0.195889
0.046527 0.271620 0.271620
0.045778 0.270870 0.348299
0.045021 0.270114 0.425750
0.044258 0.269351 0.503853
0.043490 0.268582 0.582520
0.042716 0.267809 0.661686
0.041938 0.267031 0.741299
0.041157 0.266249 0.821317
0.040371 0.265464 0.901705
0.039583 0.264675 0.982434
0.038791 0.263884 1.000000
0.038318 0.263410 1.000000
0.042069 0.344591 0.000000
0.041959 0.344480 0.000000
0.041284 0.343805 0.041284
0.040574 0.343095 0.113974
0.039846 0.342367 0.188468
0.039106 0.341628 0.264199
0.038357 0.340878 0.340878
0.037601 0.340122 0.418330
0.036838 0.339359 0.496432
0.036069 0.338590 0.575100
0.035296 0.337817 0.654266
0.034518 0.337039 0.733878
0.033736 0.336257 0.813896
0.032951 0.335472 0.894284
0.032162 0.334683 0.975014
0.031370 0.333892 1.000000
0.030897 0.333419 1.000000
0.034574 0.415303 0.000000
0.034464 0.415193 0.000000
0.033789 0.414518 0.033789
0.033079 0.413808 0.106479
0.032351 0.413080 0.180973
0.031611 0.412340 0.256704
0.030862 0.411591 0.333383
0.030105 0.410834 0.410834
0.029342 0.410071 0.488937
0.028574 0.409303 0.567604
0.027800 0.408529 0.646770
0.027023 0.407752 0.726383
0.026241 0.406970 0.806401
0.025456 0.406185 0.886789
0.024667 0.405396 0.967518
0.023875 0.404604 1.000000
0.023402 0.404131 1.000000
0.027016 0.486610 0.000000
0.026905 0.486500 0.000000
0.026231 0.485825 0.026231
0.025520 0.485115 0.098921
0.024793 0.484387 0.173414
0.024053 0.483648 0.249145
0.023304 0.482898 0.325825
0.022547 0.482142 0.403276
0.021784 0.481379 0.481379
0.021015 0.480610 0.560046
0.020242 0.479837 0.639212
0.019464 0.479059 0.718825
0.018683 0.478277 0.798843
0.017897 0.477492 0.879231
0.017108 0.476703 0.959960
0.016317 0.475911 1.000000
0.015844 0.475438 1.000000
0.019403 0.558433 0.000000
0.019292 0.558323 0.000000
0.018618 0.557648 0.018618
0.017907 0.556938 0.091308
0.017180 0.556210 0.165801
0.016440 0.555470 0.241532
0.015691 0.554721 0.318212
0.014934 0.553965 0.395663
0.014171 0.553202 0.473766
0.013402 0.552433 0.552433
0.012629 0.551660 0.631599
0.011851 0.550882 0.711212
0.011070 0.550100 0.791230
0.010284 0.549315 0.871618
0.009495 0.548526 0.952347
0.008704 0.547734 1.000000
0.008231 0.547261 1.000000
0.011741 0.630711 0.000000
0.011631 0.630601 0.000000
0.010956 0.629926 0.010956
0.010246 0.629216 0.083647
0.009518 0.628488 0.158140
0.008779 0.627749 0.233871
0.008029 0.626999 0.310551
0.007273 0.626243 0.388002
0.006510 0.625480 0.466105
0.005741 0.624711 0.544772
0.004968 0.623938 0.623938
0.004190 0.623160 0.703551
0.003408 0.622378 0.783568
0.002623 0.621593 0.863956
0.001834 0.620804 0.944686
0.001042 0.620013 1.000000
0.000569 0.619539 1.000000
0.004037 0.703398 0.000000
0.003927 0.703287 0.000000
0.003252 0.702612 0.003252
0.002542 0.701902 0.075942
0.001814 0.701175 0.150436
0.001074 0.700435 0.226167
0.000325 0.699686 0.302846
0.000000 0.698929 0.380297
0.000000 0.698166 0.458400
0.000000 0.697397 0.537067
0.000000 0.696624 0.616233
0.000000 0.695846 0.695846
0.000000 0.695064 0.775864
0.000000 0.694279 0.856252
0.000000 0.693490 0.936981
0.000000 0.692699 1.000000
0.000000 0.692226 1.000000
0.000000 0.776453 0.000000
0.000000 0.776343 0.000000
0.000000 0.775668 0.000000
0.000000 0.774958 0.068198
0.000000 0.774230 0.142692
0.000000 0.773490 0.218423
0.000000 0.772741 0.295102
0.000000 0.771985 0.372554
0.000000 0.771222 0.450656
0.000000 0.770453 0.529324
0.000000 0.769680 0.608490
0.000000 0.768902 0.688102
0.000000 0.768120 0.768120
0.000000 0.767335 0.848508
0.000000 0.766546 0.929238
0.000000 0.765754 1.000000
0.000000 0.765281 1.000000
0.000000 0.849847 0.000000
0.000000 0.849737 0.000000
0.000000 0.849062 0.000000
0.000000 0.848352 0.060419
0.000000 0.847624 0.134912
0.000000 0.846884 0.210643
0.000000 0.846135 0.287323
0.000000 0.845379 0.364774
0.000000 0.844616 0.442877
0.000000 0.843847 0.521544
0.000000 0.843074 0.600710
0.000000 0.842296 0.680323
0.000000 0.841514 0.760341
0.000000 0.840729 0.840729
0.000000 0.839940 0.921458
0.000000 0.839148 1.000000
0.000000 0.838675 1.000000
0.000000 0.923553 0.000000
0.000000 0.923443 0.000000
0.000000 0.922768 0.000000
0.000000 0.922058 0.052606
0.000000 0.921330 0.127100
0.000000 0.920590 0.202831
0.000000 0.919841 0.279510
0.000000 0.919084 0.356962
0.000000 0.918321 0.435064
0.000000 0.917553 0.513732
0.000000 0.916779 0.592898
0.000000 0.916001 0.672510
0.000000 0.915220 0.752528
0.000000 0.914434 0.832916
0.000000 0.913646 0.913646
0.000000 0.912854 0.994692
0.000000 0.912381 1.000000
0.000000 0.997548 0.000000
0.000000 0.997437 0.000000
0.000000 0.996763 0.000000
0.000000 0.996052 0.044763
0.000000 0.995325 0.119257
0.000000 0.994585 0.194988
0.000000 0.993836 0.271667
0.000000 0.993079 0.349118
0.000000 0.992316 0.427221
0.000000 0.991547 0.505888
0.000000 0.990774 0.585054
0.000000 0.989996 0.664667
0.000000 0.989215 0.744685
0.000000 0.988429 0.825073
0.000000 0.987641 0.905803
0.000000 0.986849 0.986849
0.000000 0.986376 1.000000
0.000000 1.000000 0.000000
0.000000 1.000000 0.000000
0.000000 1.000000 0.000000
0.000000 1.000000 0.040077
0.000000 1.000000 0.114571
0.000000 1.000000 0.190302
0.000000 1.000000 0.266981
0.000000 1.000000 0.344432
0.000000 1.000000 0.422535
0.000000 1.000000 0.501202
0.000000 1.000000 0.580368
0.000000 1.000000 0.659981
0.000000 1.000000 0.739999
0.000000 1.000000 0.820387
0.000000 1.000000 0.901116
0.000000 1.000000 0.982163
0.000000 1.000000 1.000000
0.150149 0.000000 0.000000
0.150039 0.000000 0.006893
0.149364 0.000000 0.075964
0.148654 0.000000 0.148654
0.147926 0.000000 0.223147
0.147186 0.000000 0.298878
0.146437 0.000000 0.375558
0.145680 0.000000 0.453009
0.144917 0.000000 0.531112
0.144149 0.000000 0.609779
0.143375 0.000000 0.688945
0.142598 0.000000 0.768558
0.141816 0.000000 0.848576
0.141031 0.000000 0.928964
0.140242 0.000000 1.000000
0.139450 0.000000 1.000000
0.138977 0.000000 1.000000
0.149056 0.005910 0.000000
