skills/editops-orchestrator/assets/grade/luts/trailer_punch_v12.cube
TITLE "trailer_punch_v12"
LUT_3D_SIZE 5
DOMAIN_MIN 0.0 0.0 0.0
DOMAIN_MAX 1.0 1.0 1.0
0.000000 0.000000 0.000000
0.000000 0.000000 0.225685
0.000000 0.000000 0.537320
0.000000 0.000000 0.859244
0.000000 0.000000 1.000000
0.000000 0.205006 0.000000
0.000000 0.202684 0.202684
0.000000 0.199478 0.514319
0.000000 0.196166 0.836243
0.000000 0.193150 1.000000
0.000000 0.488087 0.000000
0.000000 0.485765 0.170924
0.000000 0.482559 0.482559
0.000000 0.479246 0.804483
0.000000 0.476231 1.000000
0.000000 0.780514 0.000000
0.000000 0.778192 0.138114
0.000000 0.774985 0.449749
0.000000 0.771673 0.771673
0.000000 0.768658 1.000000
0.000000 1.000000 0.000000
0.000000 1.000000 0.108242
0.000000 1.000000 0.419877
0.000000 1.000000 0.741801
0.000000 1.000000 1.000000
0.221170 0.000000 0.000000
0.218848 0.000000 0.218848
0.215642 0.000000 0.530483
0.212329 0.000000 0.852407
0.209314 0.000000 1.000000
0.198169 0.198169 0.000000
0.195847 0.195847 0.195847
0.192641 0.192641 0.507482
0.189329 0.189329 0.829406
0.186313 0.186313 1.000000
0.166408 0.481250 0.000000
0.164086 0.478928 0.164086
0.160880 0.475721 0.475721
0.157568 0.472409 0.797645
0.154552 0.469394 1.000000
0.133599 0.773676 0.000000
0.131277 0.771354 0.131277
0.128071 0.768148 0.442912
0.124759 0.764836 0.764836
0.121743 0.761820 1.000000
0.103726 1.000000 0.000000
0.101404 1.000000 0.101404
0.098198 1.000000 0.413039
0.094886 1.000000 0.734963
0.091870 1.000000 1.000000
0.526570 0.000000 0.000000
0.524248 0.000000 0.209407
0.521042 0.000000 0.521042
0.517730 0.000000 0.842966
0.514714 0.000000 1.000000
0.503569 0.188728 0.000000
0.501247 0.186406 0.186406
0.498041 0.183200 0.498041
0.494729 0.179887 0.819965
0.491713 0.176872 1.000000
0.471808 0.471808 0.000000
0.469486 0.469486 0.154645
0.466280 0.466280 0.466280
0.462968 0.462968 0.788204
0.459952 0.459952 1.000000
0.438999 0.764235 0.000000
0.436677 0.761913 0.121836
0.433471 0.758707 0.433471
0.430159 0.755395 0.755395
0.427143 0.752379 1.000000
0.409127 1.000000 0.000000
0.406805 1.000000 0.091963
0.403598 1.000000 0.403598
0.400286 1.000000 0.725522
0.397271 1.000000 1.000000
0.842053 0.000000 0.000000
0.839731 0.000000 0.199654
0.836525 0.000000 0.511289
0.833213 0.000000 0.833213
0.830197 0.000000 1.000000
0.819052 0.178975 0.000000
0.816730 0.176653 0.176653
0.813524 0.173447 0.488288
0.810212 0.170135 0.810212
0.807196 0.167119 1.000000
0.787292 0.462056 0.000000
0.784970 0.459734 0.144892
0.781763 0.456527 0.456527
0.778451 0.453215 0.778451
0.775436 0.450200 1.000000
0.754482 0.754482 0.000000
0.752160 0.752160 0.112083
0.748954 0.748954 0.423718
0.745642 0.745642 0.745642
0.742626 0.742626 1.000000
0.724610 1.000000 0.000000
0.722288 1.000000 0.082211
0.719082 1.000000 0.393845
0.715769 1.000000 0.715769
0.712754 1.000000 1.000000
1.000000 0.000000 0.000000
1.000000 0.000000 0.190774
1.000000 0.000000 0.502409
1.000000 0.000000 0.824333
1.000000 0.000000 1.000000
1.000000 0.170095 0.000000
1.000000 0.167773 0.167773
1.000000 0.164567 0.479408
1.000000 0.161255 0.801332
1.000000 0.158239 1.000000
1.000000 0.453176 0.000000
1.000000 0.450854 0.136012
1.000000 0.447647 0.447647
1.000000 0.444335 0.769571
1.000000 0.441320 1.000000
1.000000 0.745603 0.000000
1.000000 0.743281 0.103203
1.000000 0.740074 0.414838
1.000000 0.736762 0.736762
1.000000 0.733747 1.000000
1.000000 1.000000 0.000000
1.000000 1.000000 0.073331
1.000000 1.000000 0.384966
1.000000 1.000000 0.706890
1.000000 1.000000 1.000000
