skills/editops-orchestrator/assets/grade/luts/trailer_punch_v12.cube
TITLE "trailer_punch_v12"
LUT_3D_SIZE 17
DOMAIN_MIN 0.0 0.0 0.0
DOMAIN_MAX 1.0 1.0 1.0
0.000000 0.000000 0.000000
0.000000 0.000000 0.008163
0.000000 0.000000 0.077274
0.000000 0.000000 0.150491
0.000000 0.000000 0.225685
0.000000 0.000000 0.302227
0.000000 0.000000 0.379798
0.000000 0.000000 0.458206
0.000000 0.000000 0.537320
0.000000 0.000000 0.617045
0.000000 0.000000 0.697310
0.000000 0.000000 0.778058
0.000000 0.000000 0.859244
0.000000 0.000000 0.940831
0.000000 0.000000 1.000000
0.000000 0.000000 1.000000
0.000000 0.000000 1.000000
0.000000 0.007415 0.000000
0.000000 0.007331 0.007331
0.000000 0.006620 0.076442
0.000000 0.005867 0.149659
0.000000 0.005094 0.224853
0.000000 0.004306 0.301395
0.000000 0.003508 0.378966
0.000000 0.002701 0.457374
0.000000 0.001887 0.536488
0.000000 0.001067 0.616213
0.000000 0.000241 0.696478
0.000000 0.000000 0.777226
0.000000 0.000000 0.858412
0.000000 0.000000 0.939999
0.000000 0.000000 1.000000
0.000000 0.000000 1.000000
0.000000 0.000000 1.000000
0.000000 0.070194 0.000000
0.000000 0.070110 0.000288
0.000000 0.069399 0.069399
0.000000 0.068645 0.142616
0.000000 0.067872 0.217810
0.000000 0.067084 0.294351
0.000000 0.066286 0.371923
0.000000 0.065479 0.450331
0.000000 0.064665 0.529445
0.000000 0.063845 0.609170
0.000000 0.063019 0.689434
0.000000 0.062188 0.770183
0.000000 0.061353 0.851369
0.000000 0.060514 0.932955
0.000000 0.059671 1.000000
0.000000 0.058824 1.000000
0.000000 0.058338 1.000000
0.000000 0.136702 0.000000
0.000000 0.136618 0.000000
0.000000 0.135907 0.061937
0.000000 0.135154 0.135154
0.000000 0.134380 0.210348
0.000000 0.133593 0.286889
0.000000 0.132794 0.364461
0.000000 0.131988 0.442869
0.000000 0.131174 0.521983
0.000000 0.130353 0.601708
0.000000 0.129528 0.681972
0.000000 0.128697 0.762721
0.000000 0.127862 0.843907
0.000000 0.127022 0.925493
0.000000 0.126179 1.000000
0.000000 0.125332 1.000000
0.000000 0.124846 1.000000
0.000000 0.205006 0.000000
0.000000 0.204922 0.000000
0.000000 0.204211 0.054273
0.000000 0.203458 0.127490
0.000000 0.202684 0.202684
0.000000 0.201897 0.279226
0.000000 0.201099 0.356797
0.000000 0.200292 0.435205
0.000000 0.199478 0.514319
0.000000 0.198658 0.594044
0.000000 0.197832 0.674309
0.000000 0.197001 0.755057
0.000000 0.196166 0.836243
0.000000 0.195326 0.917830
0.000000 0.194483 0.999786
0.000000 0.193636 1.000000
0.000000 0.193150 1.000000
0.000000 0.274534 0.000000
0.000000 0.274450 0.000000
0.000000 0.273739 0.046472
0.000000 0.272986 0.119689
0.000000 0.272212 0.194883
0.000000 0.271425 0.271425
0.000000 0.270627 0.348996
0.000000 0.269820 0.427404
0.000000 0.269006 0.506518
0.000000 0.268186 0.586243
0.000000 0.267360 0.666508
0.000000 0.266529 0.747256
0.000000 0.265694 0.828442
0.000000 0.264855 0.910029
0.000000 0.264011 0.991985
0.000000 0.263165 1.000000
0.000000 0.262678 1.000000
0.000000 0.344998 0.000000
0.000000 0.344914 0.000000
0.000000 0.344203 0.038566
0.000000 0.343450 0.111784
0.000000 0.342676 0.186978
0.000000 0.341889 0.263519
0.000000 0.341091 0.341091
0.000000 0.340284 0.419499
0.000000 0.339470 0.498613
0.000000 0.338650 0.578338
0.000000 0.337824 0.658602
0.000000 0.336993 0.739351
0.000000 0.336158 0.820537
0.000000 0.335318 0.902123
0.000000 0.334475 0.984079
0.000000 0.333629 1.000000
0.000000 0.333142 1.000000
0.000000 0.416222 0.000000
0.000000 0.416138 0.000000
0.000000 0.415427 0.030575
0.000000 0.414674 0.103793
0.000000 0.413900 0.178987
0.000000 0.413112 0.255528
0.000000 0.412314 0.333100
0.000000 0.411508 0.411508
0.000000 0.410694 0.490622
0.000000 0.409873 0.570347
0.000000 0.409048 0.650611
0.000000 0.408217 0.731359
0.000000 0.407382 0.812546
0.000000 0.406542 0.894132
0.000000 0.405699 0.976088
0.000000 0.404852 1.000000
0.000000 0.404366 1.000000
0.000000 0.488087 0.000000
0.000000 0.488003 0.000000
0.000000 0.487292 0.022512
0.000000 0.486538 0.095730
0.000000 0.485765 0.170924
0.000000 0.484977 0.247465
0.000000 0.484179 0.325037
0.000000 0.483373 0.403445
0.000000 0.482559 0.482559
0.000000 0.481738 0.562284
0.000000 0.480913 0.642548
0.000000 0.480082 0.723296
0.000000 0.479246 0.804483
0.000000 0.478407 0.886069
0.000000 0.477564 0.968025
0.000000 0.476717 1.000000
0.000000 0.476231 1.000000
0.000000 0.560507 0.000000
0.000000 0.560423 0.000000
0.000000 0.559712 0.014387
0.000000 0.558959 0.087604
0.000000 0.558185 0.162798
0.000000 0.557397 0.239340
0.000000 0.556599 0.316911
0.000000 0.555793 0.395319
0.000000 0.554979 0.474433
0.000000 0.554158 0.554158
0.000000 0.553333 0.634423
0.000000 0.552502 0.715171
0.000000 0.551667 0.796357
0.000000 0.550827 0.877944
0.000000 0.549984 0.959900
0.000000 0.549137 1.000000
0.000000 0.548651 1.000000
0.000000 0.633417 0.000000
0.000000 0.633333 0.000000
0.000000 0.632622 0.006207
0.000000 0.631869 0.079424
0.000000 0.631095 0.154618
0.000000 0.630308 0.231160
0.000000 0.629510 0.308731
0.000000 0.628703 0.387139
0.000000 0.627889 0.466253
0.000000 0.627069 0.545978
0.000000 0.626243 0.626243
0.000000 0.625412 0.706991
0.000000 0.624577 0.788177
0.000000 0.623737 0.869764
0.000000 0.622894 0.951720
0.000000 0.622047 1.000000
0.000000 0.621561 1.000000
0.000000 0.706766 0.000000
0.000000 0.706683 0.000000
0.000000 0.705971 0.000000
0.000000 0.705218 0.071195
0.000000 0.704445 0.146389
0.000000 0.703657 0.222930
0.000000 0.702859 0.300502
0.000000 0.702052 0.378910
0.000000 0.701238 0.458024
0.000000 0.700418 0.537749
0.000000 0.699592 0.618013
0.000000 0.698761 0.698761
0.000000 0.697926 0.779948
0.000000 0.697087 0.861534
0.000000 0.696244 0.943490
0.000000 0.695397 1.000000
0.000000 0.694910 1.000000
0.000000 0.780514 0.000000
0.000000 0.780430 0.000000
0.000000 0.779719 0.000000
0.000000 0.778965 0.062920
0.000000 0.778192 0.138114
0.000000 0.777404 0.214656
0.000000 0.776606 0.292227
0.000000 0.775799 0.370635
0.000000 0.774985 0.449749
0.000000 0.774165 0.529474
0.000000 0.773339 0.609739
0.000000 0.772509 0.690487
0.000000 0.771673 0.771673
0.000000 0.770834 0.853260
0.000000 0.769991 0.935216
0.000000 0.769144 1.000000
0.000000 0.768658 1.000000
0.000000 0.854625 0.000000
0.000000 0.854541 0.000000
0.000000 0.853830 0.000000
0.000000 0.853076 0.054605
0.000000 0.852303 0.129799
0.000000 0.851515 0.206341
0.000000 0.850717 0.283912
0.000000 0.849911 0.362321
0.000000 0.849097 0.441434
0.000000 0.848276 0.521160
0.000000 0.847450 0.601424
0.000000 0.846620 0.682172
0.000000 0.845784 0.763358
0.000000 0.844945 0.844945
0.000000 0.844102 0.926901
0.000000 0.843255 1.000000
0.000000 0.842769 1.000000
0.000000 0.929071 0.000000
0.000000 0.928987 0.000000
0.000000 0.928276 0.000000
0.000000 0.927523 0.046253
0.000000 0.926749 0.121447
0.000000 0.925962 0.197988
0.000000 0.925164 0.275560
0.000000 0.924357 0.353968
0.000000 0.923543 0.433082
0.000000 0.922723 0.512807
0.000000 0.921897 0.593072
0.000000 0.921066 0.673820
0.000000 0.920231 0.755006
0.000000 0.919392 0.836592
0.000000 0.918548 0.918548
0.000000 0.917702 1.000000
0.000000 0.917215 1.000000
0.000000 1.000000 0.000000
0.000000 1.000000 0.000000
0.000000 1.000000 0.000000
0.000000 1.000000 0.037865
0.000000 1.000000 0.113059
0.000000 1.000000 0.189601
0.000000 0.999921 0.267172
0.000000 0.999115 0.345580
0.000000 0.998301 0.424694
0.000000 0.997481 0.504419
0.000000 0.996655 0.584684
0.000000 0.995824 0.665432
0.000000 0.994989 0.746618
0.000000 0.994149 0.828205
0.000000 0.993306 0.910161
0.000000 0.992459 0.992459
0.000000 0.991973 1.000000
0.000000 1.000000 0.000000
0.000000 1.000000 0.000000
0.000000 1.000000 0.000000
0.000000 1.000000 0.033048
0.000000 1.000000 0.108242
0.000000 1.000000 0.184783
0.000000 1.000000 0.262355
0.000000 1.000000 0.340763
0.000000 1.000000 0.419877
0.000000 1.000000 0.499602
0.000000 1.000000 0.579867
0.000000 1.000000 0.660615
0.000000 1.000000 0.741801
0.000000 1.000000 0.823387
0.000000 1.000000 0.905343
0.000000 1.000000 0.987642
0.000000 1.000000 1.000000
0.008000 0.000000 0.000000
0.007916 0.000000 0.007916
0.007205 0.000000 0.077027
0.006452 0.000000 0.150244
0.005678 0.000000 0.225438
0.004891 0.000000 0.301979
0.004093 0.000000 0.379551
0.003286 0.000000 0.457959
0.002472 0.000000 0.537073
0.001652 0.000000 0.616798
0.000826 0.000000 0.697063
0.000000 0.000000 0.777811
0.000000 0.000000 0.858997
0.000000 0.000000 0.940583
0.000000 0.000000 1.000000
0.000000 0.000000 1.000000
0.000000 0.000000 1.000000
0.007168 0.007168 0.000000
0.007084 0.007084 0.007084
0.006373 0.006373 0.076195
0.005620 0.005620 0.149412
0.004846 0.004846 0.224606
0.004059 0.004059 0.301147
0.003261 0.003261 0.378719
0.002454 0.002454 0.457127
0.001640 0.001640 0.536241
0.000820 0.000820 0.615966
0.000000 0.000000 0.696231
0.000000 0.000000 0.776979
0.000000 0.000000 0.858165
0.000000 0.000000 0.939751
0.000000 0.000000 1.000000
0.000000 0.000000 1.000000
0.000000 0.000000 1.000000
0.000125 0.069946 0.000000
0.000041 0.069862 0.000041
0.000000 0.069151 0.069151
0.000000 0.068398 0.142368
0.000000 0.067624 0.217562
0.000000 0.066837 0.294104
0.000000 0.066039 0.371675
0.000000 0.065232 0.450083
0.000000 0.064418 0.529197
0.000000 0.063598 0.608922
0.000000 0.062772 0.689187
0.000000 0.061941 0.769935
0.000000 0.061106 0.851121
0.000000 0.060266 0.932708
0.000000 0.059423 1.000000
0.000000 0.058577 1.000000
0.000000 0.058090 1.000000
0.000000 0.136455 0.000000
0.000000 0.136371 0.000000
0.000000 0.135660 0.061689
0.000000 0.134906 0.134906
0.000000 0.134133 0.210100
0.000000 0.133345 0.286642
0.000000 0.132547 0.364213
0.000000 0.131740 0.442621
0.000000 0.130926 0.521735
0.000000 0.130106 0.601460
0.000000 0.129280 0.681725
0.000000 0.128450 0.762473
0.000000 0.127614 0.843659
0.000000 0.126775 0.925246
0.000000 0.125932 1.000000
0.000000 0.125085 1.000000
0.000000 0.124599 1.000000
0.000000 0.204759 0.000000
0.000000 0.204675 0.000000
0.000000 0.203964 0.054026
0.000000 0.203210 0.127243
0.000000 0.202437 0.202437
0.000000 0.201649 0.278978
0.000000 0.200851 0.356550
0.000000 0.200045 0.434958
0.000000 0.199231 0.514072
0.000000 0.198410 0.593797
0.000000 0.197585 0.674062
0.000000 0.196754 0.754810
0.000000 0.195918 0.835996
0.000000 0.195079 0.917583
0.000000 0.194236 0.999538
0.000000 0.193389 1.000000
0.000000 0.192903 1.000000
0.000000 0.274287 0.000000
0.000000 0.274203 0.000000
0.000000 0.273492 0.046225
0.000000 0.272739 0.119442
0.000000 0.271965 0.194636
0.000000 0.271178 0.271178
0.000000 0.270379 0.348749
0.000000 0.269573 0.427157
0.000000 0.268759 0.506271
0.000000 0.267939 0.585996
0.000000 0.267113 0.666261
0.000000 0.266282 0.747009
0.000000 0.265447 0.828195
0.000000 0.264607 0.909782
0.000000 0.263764 0.991738
0.000000 0.262917 1.000000
0.000000 0.262431 1.000000
0.000000 0.344751 0.000000
0.000000 0.344667 0.000000
0.000000 0.343956 0.038319
0.000000 0.343203 0.111536
0.000000 0.342429 0.186730
0.000000 0.341641 0.263272
0.000000 0.340843 0.340843
0.000000 0.340037 0.419251
0.000000 0.339223 0.498365
0.000000 0.338402 0.578090
0.000000 0.337577 0.658355
0.000000 0.336746 0.739103
0.000000 0.335911 0.820289
0.000000 0.335071 0.901876
0.000000 0.334228 0.983832
0.000000 0.333381 1.000000
0.000000 0.332895 1.000000
0.000000 0.415975 0.000000
0.000000 0.415891 0.000000
0.000000 0.415180 0.030328
0.000000 0.414426 0.103545
0.000000 0.413653 0.178739
0.000000 0.412865 0.255281
0.000000 0.412067 0.332852
0.000000 0.411260 0.411260
0.000000 0.410446 0.490374
0.000000 0.409626 0.570099
0.000000 0.408800 0.650364
0.000000 0.407970 0.731112
0.000000 0.407134 0.812298
0.000000 0.406295 0.893885
0.000000 0.405452 0.975841
0.000000 0.404605 1.000000
0.000000 0.404119 1.000000
0.000000 0.487839 0.000000
0.000000 0.487755 0.000000
0.000000 0.487044 0.022265
0.000000 0.486291 0.095482
0.000000 0.485518 0.170676
0.000000 0.484730 0.247218
0.000000 0.483932 0.324789
0.000000 0.483125 0.403197
0.000000 0.482311 0.482311
0.000000 0.481491 0.562036
0.000000 0.480665 0.642301
0.000000 0.479834 0.723049
0.000000 0.478999 0.804235
0.000000 0.478160 0.885822
0.000000 0.477317 0.967778
0.000000 0.476470 1.000000
0.000000 0.475983 1.000000
0.000000 0.560260 0.000000
0.000000 0.560176 0.000000
0.000000 0.559465 0.014140
0.000000 0.558711 0.087357
0.000000 0.557938 0.162551
0.000000 0.557150 0.239093
0.000000 0.556352 0.316664
0.000000 0.555545 0.395072
0.000000 0.554731 0.474186
0.000000 0.553911 0.553911
0.000000 0.553085 0.634176
0.000000 0.552255 0.714924
0.000000 0.551419 0.796110
0.000000 0.550580 0.877697
0.000000 0.549737 0.959653
0.000000 0.548890 1.000000
0.000000 0.548404 1.000000
0.000000 0.633170 0.000000
0.000000 0.633086 0.000000
0.000000 0.632375 0.005960
0.000000 0.631622 0.079177
0.000000 0.630848 0.154371
0.000000 0.630060 0.230912
0.000000 0.629262 0.308484
0.000000 0.628456 0.386892
0.000000 0.627642 0.466006
0.000000 0.626821 0.545731
0.000000 0.625996 0.625996
0.000000 0.625165 0.706744
0.000000 0.624330 0.787930
0.000000 0.623490 0.869516
0.000000 0.622647 0.951472
0.000000 0.621800 1.000000
0.000000 0.621314 1.000000
0.000000 0.706519 0.000000
0.000000 0.706435 0.000000
0.000000 0.705724 0.000000
0.000000 0.704971 0.070947
0.000000 0.704197 0.146141
0.000000 0.703410 0.222683
0.000000 0.702612 0.300254
0.000000 0.701805 0.378662
0.000000 0.700991 0.457776
0.000000 0.700171 0.537501
0.000000 0.699345 0.617766
0.000000 0.698514 0.698514
0.000000 0.697679 0.779700
0.000000 0.696839 0.861287
0.000000 0.695996 0.943243
0.000000 0.695150 1.000000
0.000000 0.694663 1.000000
0.000000 0.780266 0.000000
0.000000 0.780182 0.000000
0.000000 0.779471 0.000000
0.000000 0.778718 0.062673
0.000000 0.777944 0.137867
0.000000 0.777157 0.214409
0.000000 0.776359 0.291980
0.000000 0.775552 0.370388
0.000000 0.774738 0.449502
0.000000 0.773918 0.529227
0.000000 0.773092 0.609492
0.000000 0.772261 0.690240
0.000000 0.771426 0.771426
0.000000 0.770587 0.853013
0.000000 0.769743 0.934969
0.000000 0.768897 1.000000
0.000000 0.768410 1.000000
0.000000 0.854377 0.000000
0.000000 0.854293 0.000000
0.000000 0.853582 0.000000
0.000000 0.852829 0.054358
0.000000 0.852055 0.129552
0.000000 0.851268 0.206094
0.000000 0.850470 0.283665
0.000000 0.849663 0.362073
0.000000 0.848849 0.441187
0.000000 0.848029 0.520912
0.000000 0.847203 0.601177
0.000000 0.846372 0.681925
0.000000 0.845537 0.763111
0.000000 0.844698 0.844698
0.000000 0.843855 0.926654
0.000000 0.843008 1.000000
0.000000 0.842521 1.000000
0.000000 0.928824 0.000000
0.000000 0.928740 0.000000
0.000000 0.928029 0.000000
0.000000 0.927276 0.046005
0.000000 0.926502 0.121199
0.000000 0.925715 0.197741
0.000000 0.924916 0.275312
0.000000 0.924110 0.353721
0.000000 0.923296 0.432834
0.000000 0.922475 0.512560
0.000000 0.921650 0.592824
0.000000 0.920819 0.673572
0.000000 0.919984 0.754758
0.000000 0.919144 0.836345
0.000000 0.918301 0.918301
0.000000 0.917454 1.000000
0.000000 0.916968 1.000000
0.000000 1.000000 0.000000
0.000000 1.000000 0.000000
0.000000 1.000000 0.000000
0.000000 1.000000 0.037618
0.000000 1.000000 0.112812
0.000000 1.000000 0.189353
0.000000 0.999674 0.266925
0.000000 0.998867 0.345333
0.000000 0.998053 0.424447
0.000000 0.997233 0.504172
0.000000 0.996407 0.584437
0.000000 0.995577 0.665185
0.000000 0.994741 0.746371
0.000000 0.993902 0.827958
0.000000 0.993059 0.909913
0.000000 0.992212 0.992212
0.000000 0.991726 1.000000
0.000000 1.000000 0.000000
0.000000 1.000000 0.000000
0.000000 1.000000 0.000000
0.000000 1.000000 0.032800
0.000000 1.000000 0.107994
0.000000 1.000000 0.184536
0.000000 1.000000 0.262107
0.000000 1.000000 0.340516
0.000000 1.000000 0.419629
0.000000 1.000000 0.499355
0.000000 1.000000 0.579619
0.000000 1.000000 0.660367
0.000000 1.000000 0.741553
0.000000 1.000000 0.823140
0.000000 1.000000 0.905096
0.000000 1.000000 0.987394
0.000000 1.000000 1.000000
0.075728 0.000000 0.000000
0.075644 0.000000 0.005822
0.074933 0.000000 0.074933
0.074180 0.000000 0.148150
0.073406 0.000000 0.223344
0.072618 0.000000 0.299886
0.071820 0.000000 0.377457
0.071014 0.000000 0.455865
0.070200 0.000000 0.534979
0.069379 0.000000 0.614704
0.068554 0.000000 0.694969
0.067723 0.000000 0.775717
0.066888 0.000000 0.856903
0.066048 0.000000 0.938490
0.065205 0.000000 1.000000
0.064358 0.000000 1.000000
0.063872 0.000000 1.000000
0.074896 0.005074 0.000000
0.074812 0.004990 0.004990
0.074101 0.004279 0.074101
0.073348 0.003526 0.147318
0.072574 0.002752 0.222512
0.071786 0.001965 0.299054
0.070988 0.001167 0.376625
0.070182 0.000360 0.455033
0.069368 0.000000 0.534147
0.068547 0.000000 0.613872
0.067722 0.000000 0.694137
0.066891 0.000000 0.774885
0.066056 0.000000 0.856071
0.065216 0.000000 0.937658
0.064373 0.000000 1.000000
0.063526 0.000000 1.000000
0.063040 0.000000 1.000000
0.067852 0.067852 0.000000
0.067768 0.067768 0.000000
0.067057 0.067057 0.067057
0.066304 0.066304 0.140275
0.065531 0.065531 0.215469
0.064743 0.064743 0.292010
0.063945 0.063945 0.369582
0.063138 0.063138 0.447990
0.062324 0.062324 0.527104
0.061504 0.061504 0.606829
0.060678 0.060678 0.687093
0.059847 0.059847 0.767842
0.059012 0.059012 0.849028
0.058173 0.058173 0.930614
0.057330 0.057330 1.000000
0.056483 0.056483 1.000000
0.055996 0.055996 1.000000
0.060390 0.134361 0.000000
0.060306 0.134277 0.000000
0.059595 0.133566 0.059595
0.058842 0.132813 0.132813
0.058069 0.132039 0.208007
0.057281 0.131251 0.284548
0.056483 0.130453 0.362120
0.055676 0.129647 0.440528
0.054862 0.128833 0.519642
0.054042 0.128012 0.599367
0.053216 0.127187 0.679631
0.052385 0.126356 0.760380
0.051550 0.125521 0.841566
0.050711 0.124681 0.923152
0.049868 0.123838 1.000000
0.049021 0.122991 1.000000
0.048534 0.122505 1.000000
0.052727 0.202665 0.000000
0.052643 0.202581 0.000000
0.051932 0.201870 0.051932
0.051179 0.201117 0.125149
0.050405 0.200343 0.200343
0.049618 0.199556 0.276885
0.048819 0.198758 0.354456
0.048013 0.197951 0.432864
0.047199 0.197137 0.511978
0.046379 0.196317 0.591703
0.045553 0.195491 0.671968
0.044722 0.194660 0.752716
0.043887 0.193825 0.833902
0.043047 0.192985 0.915489
0.042204 0.192142 0.997445
0.041357 0.191295 1.000000
0.040871 0.190809 1.000000
0.044926 0.272193 0.000000
0.044842 0.272109 0.000000
0.044131 0.271398 0.044131
0.043378 0.270645 0.117348
0.042604 0.269871 0.192542
0.041817 0.269084 0.269084
0.041019 0.268286 0.346655
0.040212 0.267479 0.425063
0.039398 0.266665 0.504177
0.038578 0.265845 0.583902
0.037752 0.265019 0.664167
0.036921 0.264188 0.744915
0.036086 0.263353 0.826101
0.035246 0.262514 0.907688
0.034403 0.261670 0.989644
0.033557 0.260824 1.000000
0.033070 0.260337 1.000000
0.037020 0.342657 0.000000
0.036936 0.342573 0.000000
0.036225 0.341862 0.036225
0.035472 0.341109 0.109443
0.034698 0.340335 0.184637
0.033911 0.339548 0.261178
0.033113 0.338750 0.338750
0.032306 0.337943 0.417158
0.031492 0.337129 0.496272
0.030672 0.336309 0.575997
0.029846 0.335483 0.656261
0.029015 0.334652 0.737009
0.028180 0.333817 0.818196
0.027341 0.332977 0.899782
0.026497 0.332134 0.981738
0.025651 0.331287 1.000000
0.025164 0.330801 1.000000
0.029029 0.413881 0.000000
0.028945 0.413797 0.000000
0.028234 0.413086 0.028234
0.027481 0.412333 0.101451
0.026707 0.411559 0.176645
0.025920 0.410771 0.253187
0.025122 0.409973 0.330759
0.024315 0.409167 0.409167
0.023501 0.408353 0.488280
0.022681 0.407532 0.568006
0.021855 0.406707 0.648270
0.021024 0.405876 0.729018
0.020189 0.405041 0.810204
0.019350 0.404201 0.891791
0.018506 0.403358 0.973747
0.017660 0.402511 1.000000
0.017173 0.402025 1.000000
0.020966 0.485746 0.000000
0.020882 0.485662 0.000000
0.020171 0.484951 0.020171
0.019418 0.484197 0.093389
0.018644 0.483424 0.168583
0.017857 0.482636 0.245124
0.017059 0.481838 0.322696
0.016252 0.481031 0.401104
0.015438 0.480218 0.480218
0.014618 0.479397 0.559943
0.013792 0.478571 0.640207
0.012961 0.477741 0.720955
0.012126 0.476905 0.802142
0.011287 0.476066 0.883728
0.010443 0.475223 0.965684
0.009597 0.474376 1.000000
0.009110 0.473890 1.000000
0.012841 0.558166 0.000000
0.012757 0.558082 0.000000
0.012046 0.557371 0.012046
0.011293 0.556618 0.085263
0.010519 0.555844 0.160457
0.009732 0.555056 0.236999
0.008934 0.554258 0.314570
0.008127 0.553452 0.392978
0.007313 0.552638 0.472092
0.006493 0.551817 0.551817
0.005667 0.550992 0.632082
0.004836 0.550161 0.712830
0.004001 0.549326 0.794016
0.003161 0.548486 0.875603
0.002318 0.547643 0.957559
0.001471 0.546796 1.000000
0.000985 0.546310 1.000000
0.004661 0.631076 0.000000
0.004577 0.630992 0.000000
0.003866 0.630281 0.003866
0.003113 0.629528 0.077083
0.002339 0.628754 0.152277
0.001551 0.627967 0.228819
0.000753 0.627169 0.306390
0.000000 0.626362 0.384798
0.000000 0.625548 0.463912
0.000000 0.624728 0.543637
0.000000 0.623902 0.623902
0.000000 0.623071 0.704650
0.000000 0.622236 0.785836
0.000000 0.621396 0.867423
0.000000 0.620553 0.949379
0.000000 0.619706 1.000000
0.000000 0.619220 1.000000
0.000000 0.704425 0.000000
0.000000 0.704341 0.000000
0.000000 0.703630 0.000000
0.000000 0.702877 0.068853
0.000000 0.702103 0.144047
0.000000 0.701316 0.220589
0.000000 0.700518 0.298161
0.000000 0.699711 0.376569
0.000000 0.698897 0.455682
0.000000 0.698077 0.535408
0.000000 0.697251 0.615672
0.000000 0.696420 0.696420
0.000000 0.695585 0.777606
0.000000 0.694746 0.859193
0.000000 0.693903 0.941149
0.000000 0.693056 1.000000
0.000000 0.692569 1.000000
0.000000 0.778173 0.000000
0.000000 0.778089 0.000000
0.000000 0.777378 0.000000
0.000000 0.776624 0.060579
0.000000 0.775851 0.135773
0.000000 0.775063 0.212315
0.000000 0.774265 0.289886
0.000000 0.773458 0.368294
0.000000 0.772644 0.447408
0.000000 0.771824 0.527133
0.000000 0.770998 0.607398
0.000000 0.770168 0.688146
0.000000 0.769332 0.769332
0.000000 0.768493 0.850919
0.000000 0.767650 0.932875
0.000000 0.766803 1.000000
0.000000 0.766317 1.000000
0.000000 0.852284 0.000000
0.000000 0.852200 0.000000
0.000000 0.851489 0.000000
0.000000 0.850735 0.052264
0.000000 0.849962 0.127458
0.000000 0.849174 0.204000
0.000000 0.848376 0.281571
0.000000 0.847569 0.359979
0.000000 0.846755 0.439093
0.000000 0.845935 0.518818
0.000000 0.845109 0.599083
0.000000 0.844279 0.679831
0.000000 0.843443 0.761017
0.000000 0.842604 0.842604
0.000000 0.841761 0.924560
0.000000 0.840914 1.000000
0.000000 0.840428 1.000000
0.000000 0.926730 0.000000
0.000000 0.926646 0.000000
0.000000 0.925935 0.000000
0.000000 0.925182 0.043912
0.000000 0.924408 0.119106
0.000000 0.923621 0.195647
0.000000 0.922823 0.273219
0.000000 0.922016 0.351627
0.000000 0.921202 0.430741
0.000000 0.920382 0.510466
0.000000 0.919556 0.590731
0.000000 0.918725 0.671479
0.000000 0.917890 0.752665
0.000000 0.917050 0.834251
0.000000 0.916207 0.916207
0.000000 0.915361 0.998506
0.000000 0.914874 1.000000
0.000000 1.000000 0.000000
0.000000 1.000000 0.000000
0.000000 1.000000 0.000000
0.000000 0.999940 0.035524
0.000000 0.999166 0.110718
0.000000 0.998378 0.187260
0.000000 0.997580 0.264831
0.000000 0.996774 0.343239
0.000000 0.995960 0.422353
0.000000 0.995139 0.502078
0.000000 0.994314 0.582343
0.000000 0.993483 0.663091
0.000000 0.992648 0.744277
0.000000 0.991808 0.825864
0.000000 0.990965 0.907820
0.000000 0.990118 0.990118
0.000000 0.989632 1.000000
0.000000 1.000000 0.000000
0.000000 1.000000 0.000000
0.000000 1.000000 0.000000
0.000000 1.000000 0.030707
0.000000 1.000000 0.105901
0.000000 1.000000 0.182442
0.000000 1.000000 0.260014
0.000000 1.000000 0.338422
0.000000 1.000000 0.417536
0.000000 1.000000 0.497261
0.000000 1.000000 0.577526
0.000000 1.000000 0.658274
0.000000 1.000000 0.739460
0.000000 1.000000 0.821046
0.000000 1.000000 0.903002
0.000000 1.000000 0.985301
0.000000 1.000000 1.000000
0.147480 0.000000 0.000000
0.147396 0.000000 0.003604
0.146685 0.000000 0.072715
0.145932 0.000000 0.145932
0.145158 0.000000 0.221126
0.144371 0.000000 0.297667
0.143573 0.000000 0.375239
0.142766 0.000000 0.453647
0.141952 0.000000 0.532761
0.141132 0.000000 0.612486
0.140306 0.000000 0.692751
0.139475 0.000000 0.773499
0.138640 0.000000 0.854685
0.137800 0.000000 0.936272
0.136957 0.000000 1.000000
0.136111 0.000000 1.000000
0.135624 0.000000 1.000000
0.146648 0.002856 0.000000
