skills/editops-orchestrator/assets/grade/luts/trailer_punch_v18.cube
TITLE "trailer_punch_v18"
LUT_3D_SIZE 9
DOMAIN_MIN 0.0 0.0 0.0
DOMAIN_MAX 1.0 1.0 1.0
0.000000 0.000000 0.000000
0.000000 0.000000 0.058322
0.000000 0.000000 0.213502
0.000000 0.000000 0.377758
0.000000 0.000000 0.547230
0.000000 0.000000 0.720439
0.000000 0.000000 0.896581
0.000000 0.000000 1.000000
0.000000 0.000000 1.000000
0.000000 0.051443 0.000000
0.000000 0.050670 0.050670
0.000000 0.048615 0.205851
0.000000 0.046440 0.370107
0.000000 0.044195 0.539578
0.000000 0.041901 0.712788
0.000000 0.039569 0.888929
0.000000 0.037204 1.000000
0.000000 0.035483 1.000000
0.000000 0.188321 0.000000
0.000000 0.187548 0.030312
0.000000 0.185493 0.185493
0.000000 0.183318 0.349748
0.000000 0.181073 0.519220
0.000000 0.178779 0.692429
0.000000 0.176446 0.868571
0.000000 0.174082 1.000000
0.000000 0.172361 1.000000
0.000000 0.333202 0.000000
0.000000 0.332430 0.008763
0.000000 0.330375 0.163944
0.000000 0.328200 0.328200
0.000000 0.325955 0.497671
0.000000 0.323661 0.670881
0.000000 0.321328 0.847022
0.000000 0.318963 1.000000
0.000000 0.317242 1.000000
0.000000 0.482686 0.000000
0.000000 0.481913 0.000000
0.000000 0.479858 0.141711
0.000000 0.477683 0.305966
0.000000 0.475438 0.475438
0.000000 0.473144 0.648648
0.000000 0.470812 0.824789
0.000000 0.468447 1.000000
0.000000 0.466726 1.000000
0.000000 0.635465 0.000000
0.000000 0.634693 0.000000
0.000000 0.632638 0.118988
0.000000 0.630463 0.283243
0.000000 0.628218 0.452715
0.000000 0.625924 0.625924
0.000000 0.623591 0.802066
0.000000 0.621226 0.980629
0.000000 0.619505 1.000000
0.000000 0.790832 0.000000
0.000000 0.790059 0.000000
0.000000 0.788004 0.095879
0.000000 0.785829 0.260135
0.000000 0.783584 0.429607
0.000000 0.781290 0.602816
0.000000 0.778958 0.778958
0.000000 0.776593 0.957521
0.000000 0.774872 1.000000
0.000000 0.948334 0.000000
0.000000 0.947562 0.000000
0.000000 0.945507 0.072454
0.000000 0.943331 0.236709
0.000000 0.941087 0.406181
0.000000 0.938793 0.579390
0.000000 0.936460 0.755532
0.000000 0.934095 0.934095
0.000000 0.932374 1.000000
0.000000 1.000000 0.000000
0.000000 1.000000 0.000000
0.000000 1.000000 0.055406
0.000000 1.000000 0.219661
0.000000 1.000000 0.389133
0.000000 1.000000 0.562342
0.000000 1.000000 0.738484
0.000000 1.000000 0.917047
0.000000 1.000000 1.000000
0.056820 0.000000 0.000000
0.056047 0.000000 0.056047
0.053992 0.000000 0.211228
0.051817 0.000000 0.375483
0.049572 0.000000 0.544955
0.047278 0.000000 0.718165
0.044946 0.000000 0.894306
0.042581 0.000000 1.000000
0.040860 0.000000 1.000000
0.049168 0.049168 0.000000
0.048396 0.048396 0.048396
0.046341 0.046341 0.203577
0.044165 0.044165 0.367832
0.041921 0.041921 0.537304
0.039627 0.039627 0.710513
0.037294 0.037294 0.886655
0.034929 0.034929 1.000000
0.033208 0.033208 1.000000
0.028810 0.186046 0.000000
0.028038 0.185274 0.028038
0.025983 0.183219 0.183219
0.023807 0.181043 0.347474
0.021563 0.178799 0.516946
0.019269 0.176505 0.690155
0.016936 0.174172 0.866297
0.014571 0.171807 1.000000
0.012850 0.170086 1.000000
0.007261 0.330928 0.000000
0.006489 0.330156 0.006489
0.004434 0.328100 0.161670
0.002258 0.325925 0.325925
0.000014 0.323681 0.495397
0.000000 0.321387 0.668606
0.000000 0.319054 0.844748
0.000000 0.316689 1.000000
0.000000 0.314968 1.000000
0.000000 0.480411 0.000000
0.000000 0.479639 0.000000
0.000000 0.477584 0.139437
0.000000 0.475408 0.303692
0.000000 0.473164 0.473164
0.000000 0.470870 0.646373
0.000000 0.468537 0.822515
0.000000 0.466172 1.000000
0.000000 0.464451 1.000000
0.000000 0.633191 0.000000
0.000000 0.632419 0.000000
0.000000 0.630363 0.116713
0.000000 0.628188 0.280969
0.000000 0.625944 0.450440
0.000000 0.623650 0.623650
0.000000 0.621317 0.799791
0.000000 0.618952 0.978355
0.000000 0.617231 1.000000
0.000000 0.788557 0.000000
0.000000 0.787785 0.000000
0.000000 0.785730 0.093605
0.000000 0.783554 0.257860
0.000000 0.781310 0.427332
0.000000 0.779016 0.600542
0.000000 0.776683 0.776683
0.000000 0.774318 0.955247
0.000000 0.772597 1.000000
0.000000 0.946060 0.000000
0.000000 0.945287 0.000000
0.000000 0.943232 0.070179
0.000000 0.941057 0.234435
0.000000 0.938812 0.403906
0.000000 0.936519 0.577116
0.000000 0.934186 0.753257
0.000000 0.931821 0.931821
0.000000 0.930100 1.000000
0.000000 1.000000 0.000000
0.000000 1.000000 0.000000
0.000000 1.000000 0.053131
0.000000 1.000000 0.217387
0.000000 1.000000 0.386858
0.000000 1.000000 0.560068
0.000000 1.000000 0.736209
0.000000 1.000000 0.914773
0.000000 1.000000 1.000000
0.208004 0.000000 0.000000
0.207232 0.000000 0.049996
0.205176 0.000000 0.205176
0.203001 0.000000 0.369432
0.200757 0.000000 0.538904
0.198463 0.000000 0.712113
0.196130 0.000000 0.888255
0.193765 0.000000 1.000000
0.192044 0.000000 1.000000
0.200353 0.043117 0.000000
0.199580 0.042344 0.042344
0.197525 0.040289 0.197525
0.195350 0.038114 0.361780
0.193105 0.035869 0.531252
0.190811 0.033575 0.704462
0.188479 0.031243 0.880603
0.186114 0.028878 1.000000
0.184393 0.027157 1.000000
0.179994 0.179994 0.000000
0.179222 0.179222 0.021986
0.177167 0.177167 0.177167
0.174991 0.174991 0.341422
0.172747 0.172747 0.510894
0.170453 0.170453 0.684103
0.168120 0.168120 0.860245
0.165755 0.165755 1.000000
0.164034 0.164034 1.000000
0.158446 0.324876 0.000000
0.157673 0.324104 0.000437
0.155618 0.322049 0.155618
0.153443 0.319873 0.319873
0.151198 0.317629 0.489345
0.148904 0.315335 0.662555
0.146572 0.313002 0.838696
0.144207 0.310637 1.000000
0.142486 0.308916 1.000000
0.136213 0.474360 0.000000
0.135440 0.473587 0.000000
0.133385 0.471532 0.133385
0.131210 0.469357 0.297640
0.128965 0.467112 0.467112
0.126671 0.464818 0.640321
0.124338 0.462485 0.816463
0.121974 0.460121 0.995027
0.120253 0.458400 1.000000
0.113489 0.627139 0.000000
0.112717 0.626367 0.000000
0.110662 0.624312 0.110662
0.108486 0.622136 0.274917
0.106242 0.619892 0.444389
0.103948 0.617598 0.617598
0.101615 0.615265 0.793740
0.099250 0.612900 0.972303
0.097529 0.611179 1.000000
0.090381 0.782506 0.000000
0.089609 0.781733 0.000000
0.087553 0.779678 0.087553
0.085378 0.777503 0.251809
0.083134 0.775258 0.421281
0.080840 0.772964 0.594490
0.078507 0.770632 0.770632
0.076142 0.768267 0.949195
0.074421 0.766546 1.000000
0.066955 0.940008 0.000000
0.066183 0.939236 0.000000
0.064128 0.937181 0.064128
0.061952 0.935005 0.228383
0.059708 0.932761 0.397855
0.057414 0.930467 0.571064
0.055081 0.928134 0.747206
0.052716 0.925769 0.925769
0.050995 0.924048 1.000000
0.049907 1.000000 0.000000
0.049135 1.000000 0.000000
0.047080 1.000000 0.047080
0.044904 1.000000 0.211335
0.042660 1.000000 0.380807
0.040366 1.000000 0.554016
0.038033 1.000000 0.730158
0.035668 1.000000 0.908721
0.033947 1.000000 1.000000
0.368029 0.000000 0.000000
0.367257 0.000000 0.043590
0.365202 0.000000 0.198771
0.363026 0.000000 0.363026
0.360782 0.000000 0.532498
0.358488 0.000000 0.705707
0.356155 0.000000 0.881849
0.353790 0.000000 1.000000
0.352069 0.000000 1.000000
0.360378 0.036711 0.000000
0.359605 0.035939 0.035939
0.357550 0.033884 0.191120
0.355375 0.031708 0.355375
0.353130 0.029464 0.524847
0.350836 0.027170 0.698056
0.348504 0.024837 0.874198
0.346139 0.022472 1.000000
0.344418 0.020751 1.000000
0.340020 0.173589 0.000000
0.339247 0.172816 0.015580
0.337192 0.170761 0.170761
0.335017 0.168586 0.335017
0.332772 0.166341 0.504489
0.330478 0.164047 0.677698
0.328145 0.161715 0.853839
0.325781 0.159350 1.000000
0.324060 0.157629 1.000000
0.318471 0.318471 0.000000
0.317698 0.317698 0.000000
0.315643 0.315643 0.149212
0.313468 0.313468 0.313468
0.311223 0.311223 0.482940
0.308929 0.308929 0.656149
0.306597 0.306597 0.832291
0.304232 0.304232 1.000000
0.302511 0.302511 1.000000
0.296238 0.467954 0.000000
0.295465 0.467182 0.000000
0.293410 0.465126 0.126979
0.291235 0.462951 0.291235
0.288990 0.460707 0.460707
0.286696 0.458413 0.633916
0.284364 0.456080 0.810058
0.281999 0.453715 0.988621
0.280278 0.451994 1.000000
0.273514 0.620734 0.000000
0.272742 0.619961 0.000000
0.270687 0.617906 0.104256
0.268511 0.615731 0.268511
0.266267 0.613486 0.437983
0.263973 0.611192 0.611192
0.261640 0.608860 0.787334
0.259275 0.606495 0.965898
0.257554 0.604774 1.000000
0.250406 0.776100 0.000000
0.249634 0.775328 0.000000
0.247579 0.773273 0.081148
0.245403 0.771097 0.245403
0.243159 0.768853 0.414875
0.240865 0.766559 0.588084
0.238532 0.764226 0.764226
0.236167 0.761861 0.942789
0.234446 0.760140 1.000000
0.226980 0.933603 0.000000
0.226208 0.932830 0.000000
0.224153 0.930775 0.057722
0.221977 0.928600 0.221977
0.219733 0.926355 0.391449
0.217439 0.924061 0.564658
0.215106 0.921728 0.740800
0.212741 0.919364 0.919364
0.211020 0.917643 1.000000
0.209932 1.000000 0.000000
0.209160 1.000000 0.000000
0.207105 1.000000 0.040674
0.204929 1.000000 0.204929
0.202685 1.000000 0.374401
0.200391 1.000000 0.547610
0.198058 1.000000 0.723752
0.195693 1.000000 0.902316
0.193972 1.000000 1.000000
0.533136 0.000000 0.000000
0.532364 0.000000 0.036981
0.530309 0.000000 0.192162
0.528133 0.000000 0.356417
0.525889 0.000000 0.525889
0.523595 0.000000 0.699098
0.521262 0.000000 0.875240
0.518897 0.000000 1.000000
0.517176 0.000000 1.000000
0.525485 0.030102 0.000000
0.524713 0.029330 0.029330
0.522658 0.027275 0.184511
0.520482 0.025099 0.348766
0.518238 0.022855 0.518238
0.515944 0.020561 0.691447
0.513611 0.018228 0.867589
0.511246 0.015863 1.000000
0.509525 0.014142 1.000000
0.505127 0.166980 0.000000
0.504355 0.166207 0.008971
0.502299 0.164152 0.164152
0.500124 0.161977 0.328408
0.497880 0.159732 0.497880
0.495586 0.157438 0.671089
0.493253 0.155106 0.847230
0.490888 0.152741 1.000000
0.489167 0.151020 1.000000
0.483578 0.311862 0.000000
0.482806 0.311089 0.000000
0.480751 0.309034 0.142603
0.478575 0.306859 0.306859
0.476331 0.304614 0.476331
0.474037 0.302320 0.649540
0.471704 0.299988 0.825682
0.469339 0.297623 1.000000
0.467618 0.295902 1.000000
0.461345 0.461345 0.000000
0.460573 0.460573 0.000000
0.458517 0.458517 0.120370
0.456342 0.456342 0.284626
0.454098 0.454098 0.454098
0.451804 0.451804 0.627307
0.449471 0.449471 0.803449
0.447106 0.447106 0.982012
0.445385 0.445385 1.000000
0.438622 0.614125 0.000000
0.437849 0.613352 0.000000
0.435794 0.611297 0.097647
0.433619 0.609122 0.261902
0.431374 0.606877 0.431374
0.429080 0.604583 0.604583
0.426747 0.602251 0.780725
0.424383 0.599886 0.959289
0.422662 0.598165 1.000000
0.415513 0.769491 0.000000
0.414741 0.768719 0.000000
0.412686 0.766664 0.074539
0.410511 0.764488 0.238794
0.408266 0.762244 0.408266
0.405972 0.759950 0.581475
0.403639 0.757617 0.757617
0.401274 0.755252 0.936180
0.399553 0.753531 1.000000
0.392088 0.926994 0.000000
0.391315 0.926221 0.000000
0.389260 0.924166 0.051113
0.387085 0.921991 0.215368
0.384840 0.919746 0.384840
0.382546 0.917452 0.558049
0.380213 0.915119 0.734191
0.377849 0.912755 0.912755
0.376128 0.911034 1.000000
0.375040 1.000000 0.000000
0.374267 1.000000 0.000000
0.372212 1.000000 0.034065
0.370037 1.000000 0.198320
0.367792 1.000000 0.367792
0.365498 1.000000 0.541001
0.363165 1.000000 0.717143
0.360801 1.000000 0.895707
0.359080 1.000000 1.000000
0.701885 0.000000 0.000000
0.701112 0.000000 0.030226
0.699057 0.000000 0.185407
0.696882 0.000000 0.349662
0.694637 0.000000 0.519134
0.692344 0.000000 0.692344
0.690011 0.000000 0.868485
0.687646 0.000000 1.000000
0.685925 0.000000 1.000000
0.694234 0.023347 0.000000
0.693461 0.022575 0.022575
0.691406 0.020520 0.177756
0.689231 0.018344 0.342011
0.686986 0.016100 0.511483
0.684692 0.013806 0.684692
0.682359 0.011473 0.860834
0.679995 0.009108 1.000000
0.678274 0.007387 1.000000
0.673875 0.160225 0.000000
0.673103 0.159453 0.002217
0.671048 0.157397 0.157397
0.668872 0.155222 0.321653
0.666628 0.152978 0.491125
0.664334 0.150684 0.664334
0.662001 0.148351 0.840476
0.659636 0.145986 1.000000
0.657915 0.144265 1.000000
0.652327 0.305107 0.000000
0.651554 0.304335 0.000000
0.649499 0.302279 0.135849
0.647324 0.300104 0.300104
0.645079 0.297860 0.469576
0.642785 0.295566 0.642785
0.640452 0.293233 0.818927
0.638088 0.290868 0.997490
0.636367 0.289147 1.000000
0.630093 0.454590 0.000000
0.629321 0.453818 0.000000
0.627266 0.451763 0.113616
0.625091 0.449587 0.277871
0.622846 0.447343 0.447343
0.620552 0.445049 0.620552
0.618219 0.442716 0.796694
0.615854 0.440351 0.975257
0.614133 0.438630 1.000000
0.607370 0.607370 0.000000
0.606598 0.606598 0.000000
0.604542 0.604542 0.090892
0.602367 0.602367 0.255148
0.600123 0.600123 0.424619
0.597829 0.597829 0.597829
0.595496 0.595496 0.773970
0.593131 0.593131 0.952534
0.591410 0.591410 1.000000
0.584262 0.762736 0.000000
0.583490 0.761964 0.000000
0.581434 0.759909 0.067784
0.579259 0.757733 0.232039
0.577015 0.755489 0.401511
0.574721 0.753195 0.574721
0.572388 0.750862 0.750862
0.570023 0.748497 0.929426
0.568302 0.746776 1.000000
0.560836 0.920239 0.000000
0.560064 0.919466 0.000000
0.558008 0.917411 0.044358
0.555833 0.915236 0.208614
0.553589 0.912991 0.378085
0.551295 0.910698 0.551295
0.548962 0.908365 0.727436
0.546597 0.906000 0.906000
0.544876 0.904279 1.000000
0.543788 1.000000 0.000000
0.543016 1.000000 0.000000
0.540960 1.000000 0.027310
0.538785 1.000000 0.191566
0.536541 1.000000 0.361037
0.534247 1.000000 0.534247
0.531914 1.000000 0.710388
0.529549 1.000000 0.888952
0.527828 1.000000 1.000000
0.873490 0.000000 0.000000
0.872718 0.000000 0.023357
0.870663 0.000000 0.178538
0.868487 0.000000 0.342793
0.866243 0.000000 0.512265
0.863949 0.000000 0.685474
0.861616 0.000000 0.861616
0.859251 0.000000 1.000000
0.857530 0.000000 1.000000
0.865839 0.016478 0.000000
0.865067 0.015706 0.015706
0.863011 0.013651 0.170887
0.860836 0.011475 0.335142
0.858592 0.009231 0.504614
0.856298 0.006937 0.677823
0.853965 0.004604 0.853965
0.851600 0.002239 1.000000
0.849879 0.000518 1.000000
0.845481 0.153356 0.000000
0.844708 0.152584 0.000000
0.842653 0.150528 0.150528
0.840478 0.148353 0.314784
0.838233 0.146109 0.484256
0.835939 0.143815 0.657465
0.833607 0.141482 0.833607
0.831242 0.139117 1.000000
0.829521 0.137396 1.000000
0.823932 0.298238 0.000000
0.823160 0.297466 0.000000
0.821104 0.295410 0.128980
0.818929 0.293235 0.293235
0.816685 0.290991 0.462707
0.814391 0.288697 0.635916
0.812058 0.286364 0.812058
0.809693 0.283999 0.990621
0.807972 0.282278 1.000000
0.801699 0.447721 0.000000
0.800926 0.446949 0.000000
0.798871 0.444894 0.106746
0.796696 0.442718 0.271002
0.794451 0.440474 0.440474
0.792157 0.438180 0.613683
0.789825 0.435847 0.789825
0.787460 0.433482 0.968388
0.785739 0.431761 1.000000
0.778975 0.600501 0.000000
0.778203 0.599729 0.000000
0.776148 0.597673 0.084023
0.773972 0.595498 0.248278
0.771728 0.593254 0.417750
0.769434 0.590960 0.590960
0.767101 0.588627 0.767101
0.764736 0.586262 0.945665
0.763015 0.584541 1.000000
0.755867 0.755867 0.000000
0.755095 0.755095 0.000000
0.753040 0.753040 0.060915
0.750864 0.750864 0.225170
0.748620 0.748620 0.394642
0.746326 0.746326 0.567851
0.743993 0.743993 0.743993
0.741628 0.741628 0.922557
0.739907 0.739907 1.000000
0.732441 0.913370 0.000000
0.731669 0.912597 0.000000
0.729614 0.910542 0.037489
0.727438 0.908367 0.201744
0.725194 0.906122 0.371216
0.722900 0.903828 0.544426
0.720567 0.901496 0.720567
0.718202 0.899131 0.899131
0.716481 0.897410 1.000000
0.715393 1.000000 0.000000
0.714621 1.000000 0.000000
0.712566 1.000000 0.020441
0.710390 1.000000 0.184696
0.708146 1.000000 0.354168
0.705852 1.000000 0.527378
0.703519 1.000000 0.703519
0.701154 1.000000 0.882083
0.699433 1.000000 1.000000
1.000000 0.000000 0.000000
1.000000 0.000000 0.016394
1.000000 0.000000 0.171574
1.000000 0.000000 0.335830
1.000000 0.000000 0.505302
1.000000 0.000000 0.678511
1.000000 0.000000 0.854653
1.000000 0.000000 1.000000
1.000000 0.000000 1.000000
1.000000 0.009515 0.000000
1.000000 0.008742 0.008742
1.000000 0.006687 0.163923
1.000000 0.004512 0.328178
1.000000 0.002267 0.497650
1.000000 0.000000 0.670860
1.000000 0.000000 0.847001
1.000000 0.000000 1.000000
1.000000 0.000000 1.000000
1.000000 0.146392 0.000000
1.000000 0.145620 0.000000
1.000000 0.143565 0.143565
1.000000 0.141389 0.307820
1.000000 0.139145 0.477292
1.000000 0.136851 0.650501
1.000000 0.134518 0.826643
1.000000 0.132153 1.000000
1.000000 0.130432 1.000000
0.997897 0.291274 0.000000
0.997124 0.290502 0.000000
0.995069 0.288447 0.122016
0.992894 0.286271 0.286271
0.990649 0.284027 0.455743
0.988355 0.281733 0.628953
0.986023 0.279400 0.805094
0.983658 0.277035 0.983658
0.981937 0.275314 1.000000
0.975664 0.440758 0.000000
0.974891 0.439985 0.000000
0.972836 0.437930 0.099783
0.970661 0.435755 0.264038
0.968416 0.433510 0.433510
0.966122 0.431216 0.606719
0.963789 0.428883 0.782861
0.961425 0.426519 0.961425
0.959704 0.424798 1.000000
0.952940 0.593537 0.000000
0.952168 0.592765 0.000000
0.950113 0.590710 0.077060
0.947937 0.588534 0.241315
0.945693 0.586290 0.410787
0.943399 0.583996 0.583996
0.941066 0.581663 0.760138
0.938701 0.579298 0.938701
0.936980 0.577577 1.000000
0.929832 0.748904 0.000000
0.929060 0.748131 0.000000
0.927004 0.746076 0.053951
0.924829 0.743901 0.218207
0.922585 0.741656 0.387679
0.920291 0.739362 0.560888
0.917958 0.737030 0.737030
0.915593 0.734665 0.915593
0.913872 0.732944 1.000000
0.906406 0.906406 0.000000
0.905634 0.905634 0.000000
0.903579 0.903579 0.030526
0.901403 0.901403 0.194781
0.899159 0.899159 0.364253
0.896865 0.896865 0.537462
0.894532 0.894532 0.713604
0.892167 0.892167 0.892167
0.890446 0.890446 1.000000
0.889358 1.000000 0.000000
0.888586 1.000000 0.000000
0.886531 1.000000 0.013477
0.884355 1.000000 0.177733
0.882111 1.000000 0.347205
0.879817 1.000000 0.520414
0.877484 1.000000 0.696556
0.875119 1.000000 0.875119
0.873398 1.000000 1.000000
1.000000 0.000000 0.000000
1.000000 0.000000 0.011326
1.000000 0.000000 0.166507
1.000000 0.000000 0.330762
1.000000 0.000000 0.500234
1.000000 0.000000 0.673443
1.000000 0.000000 0.849585
1.000000 0.000000 1.000000
1.000000 0.000000 1.000000
1.000000 0.004447 0.000000
1.000000 0.003675 0.003675
1.000000 0.001619 0.158855
1.000000 0.000000 0.323111
1.000000 0.000000 0.492583
1.000000 0.000000 0.665792
1.000000 0.000000 0.841934
1.000000 0.000000 1.000000
1.000000 0.000000 1.000000
1.000000 0.141325 0.000000
1.000000 0.140552 0.000000
1.000000 0.138497 0.138497
1.000000 0.136322 0.302753
1.000000 0.134077 0.472224
1.000000 0.131783 0.645434
1.000000 0.129451 0.821575
1.000000 0.127086 1.000000
1.000000 0.125365 1.000000
1.000000 0.286207 0.000000
1.000000 0.285434 0.000000
1.000000 0.283379 0.116948
1.000000 0.281204 0.281204
1.000000 0.278959 0.450676
1.000000 0.276665 0.623885
1.000000 0.274333 0.800027
1.000000 0.271968 0.978590
1.000000 0.270247 1.000000
1.000000 0.435690 0.000000
1.000000 0.434918 0.000000
1.000000 0.432862 0.094715
1.000000 0.430687 0.258971
1.000000 0.428443 0.428443
1.000000 0.426149 0.601652
1.000000 0.423816 0.777793
1.000000 0.421451 0.956357
1.000000 0.419730 1.000000
1.000000 0.588470 0.000000
1.000000 0.587697 0.000000
1.000000 0.585642 0.071992
1.000000 0.583467 0.236247
1.000000 0.581222 0.405719
1.000000 0.578928 0.578928
1.000000 0.576596 0.755070
1.000000 0.574231 0.933634
1.000000 0.572510 1.000000
1.000000 0.743836 0.000000
1.000000 0.743064 0.000000
1.000000 0.741008 0.048884
1.000000 0.738833 0.213139
1.000000 0.736589 0.382611
1.000000 0.734295 0.555820
1.000000 0.731962 0.731962
1.000000 0.729597 0.910525
1.000000 0.727876 1.000000
1.000000 0.901339 0.000000
1.000000 0.900566 0.000000
1.000000 0.898511 0.025458
1.000000 0.896336 0.189713
1.000000 0.894091 0.359185
1.000000 0.891797 0.532394
1.000000 0.889464 0.708536
1.000000 0.887100 0.887100
1.000000 0.885379 1.000000
1.000000 1.000000 0.000000
1.000000 1.000000 0.000000
1.000000 1.000000 0.008410
1.000000 1.000000 0.172665
1.000000 1.000000 0.342137
1.000000 1.000000 0.515346
1.000000 1.000000 0.691488
1.000000 1.000000 0.870051
1.000000 1.000000 1.000000
