skills/editops-orchestrator/assets/grade/luts/vintage_fade_v03.cube
TITLE "vintage_fade_v03"
LUT_3D_SIZE 5
DOMAIN_MIN 0.0 0.0 0.0
DOMAIN_MAX 1.0 1.0 1.0
0.037364 0.037364 0.037364
0.039159 0.039159 0.255346
0.040927 0.040927 0.469960
0.042683 0.042683 0.683153
0.044431 0.044431 0.895416
0.055148 0.271335 0.055148
0.056944 0.273131 0.273131
0.058711 0.274898 0.487744
0.060467 0.276654 0.700937
0.062215 0.278402 0.913200
0.072658 0.501691 0.072658
0.074453 0.503486 0.290640
0.076221 0.505254 0.505254
0.077977 0.507010 0.718447
0.079725 0.508758 0.930710
0.090052 0.730522 0.090052
0.091847 0.732317 0.308034
0.093615 0.734085 0.522648
0.095371 0.735841 0.735841
0.097119 0.737589 0.948104
0.107370 0.958355 0.107370
0.109165 0.960150 0.325352
0.110933 0.961918 0.539966
0.112689 0.963674 0.753159
0.114437 0.965422 0.965422
0.258837 0.042650 0.042650
0.260633 0.044446 0.260633
0.262400 0.046213 0.475246
0.264156 0.047969 0.688439
0.265905 0.049717 0.900703
0.276622 0.276622 0.060435
0.278417 0.278417 0.278417
0.280185 0.280185 0.493031
0.281941 0.281941 0.706224
0.283689 0.283689 0.918487
0.294132 0.506978 0.077945
0.295927 0.508773 0.295927
0.297695 0.510541 0.510541
0.299451 0.512297 0.723734
0.301199 0.514045 0.935997
0.311525 0.735808 0.095338
0.313321 0.737604 0.313321
0.315088 0.739371 0.527934
0.316844 0.741127 0.741127
0.318593 0.742876 0.953391
0.328843 0.963641 0.112656
0.330639 0.965437 0.330639
0.332406 0.967204 0.545252
0.334162 0.968960 0.758445
0.335911 0.970709 0.970709
0.476888 0.047855 0.047855
0.478684 0.049651 0.265838
0.480451 0.051418 0.480451
0.482207 0.053174 0.693644
0.483955 0.054922 0.905907
0.494673 0.281827 0.065640
0.496468 0.283622 0.283622
0.498236 0.285390 0.498236
0.499992 0.287146 0.711429
0.501740 0.288894 0.923692
0.512183 0.512183 0.083150
0.513978 0.513978 0.301132
0.515746 0.515746 0.515746
0.517502 0.517502 0.728938
0.519250 0.519250 0.941202
0.529576 0.741013 0.100543
0.531372 0.742809 0.318526
0.533139 0.744576 0.533139
0.534895 0.746332 0.746332
0.536644 0.748081 0.958596
0.546894 0.968846 0.117861
0.548690 0.970642 0.335844
0.550457 0.972409 0.550457
0.552213 0.974165 0.763650
0.553962 0.975914 0.975914
0.693496 0.053026 0.053026
0.695291 0.054821 0.271008
0.697059 0.056589 0.485622
0.698815 0.058345 0.698815
0.700563 0.060093 0.911078
0.711280 0.286997 0.070810
0.713076 0.288793 0.288793
0.714843 0.290560 0.503406
0.716599 0.292316 0.716599
0.718347 0.294065 0.928862
0.728790 0.517353 0.088320
0.730585 0.519148 0.306302
0.732353 0.520916 0.520916
0.734109 0.522672 0.734109
0.735857 0.524420 0.946372
0.746184 0.746184 0.105714
0.747979 0.747979 0.323696
0.749747 0.749747 0.538310
0.751503 0.751503 0.751503
0.753251 0.753251 0.963766
0.763502 0.974017 0.123032
0.765297 0.975812 0.341014
0.767065 0.977580 0.555628
0.768821 0.979336 0.768821
0.770569 0.981084 0.981084
0.909159 0.058174 0.058174
0.910954 0.059969 0.276156
0.912722 0.061737 0.490770
0.914478 0.063493 0.703963
0.916226 0.065241 0.916226
0.926943 0.292145 0.075958
0.928739 0.293941 0.293941
0.930506 0.295708 0.508554
0.932262 0.297464 0.721747
0.934010 0.299212 0.934010
0.944453 0.522501 0.093468
0.946248 0.524296 0.311450
0.948016 0.526064 0.526064
0.949772 0.527820 0.739257
0.951520 0.529568 0.951520
0.961847 0.751332 0.110862
0.963642 0.753127 0.328844
0.965410 0.754895 0.543458
0.967166 0.756651 0.756651
0.968914 0.758399 0.968914
0.979165 0.979165 0.128180
0.980960 0.980960 0.346162
0.982728 0.982728 0.560776
0.984484 0.984484 0.773969
0.986232 0.986232 0.986232
