skills/editops-orchestrator/assets/grade/luts/vintage_fade_v16.cube
TITLE "vintage_fade_v16"
LUT_3D_SIZE 9
DOMAIN_MIN 0.0 0.0 0.0
DOMAIN_MAX 1.0 1.0 1.0
0.145738 0.145738 0.145738
0.147696 0.147696 0.227465
0.149606 0.149606 0.307213
0.151490 0.151490 0.385865
0.153356 0.153356 0.463752
0.155207 0.155207 0.541055
0.157048 0.157048 0.617883
0.158878 0.158878 0.694312
0.160701 0.160701 0.770398
0.165130 0.244900 0.165130
0.167088 0.246857 0.246857
0.168998 0.248768 0.326606
0.170882 0.250652 0.405257
0.172748 0.252517 0.483145
0.174600 0.254369 0.560447
0.176440 0.256209 0.637275
0.178271 0.258040 0.713705
0.180094 0.259863 0.789791
0.184053 0.341661 0.184053
0.186011 0.343618 0.265780
0.187921 0.345529 0.345529
0.189805 0.347413 0.424180
0.191671 0.349278 0.502068
0.193523 0.351130 0.579370
0.195363 0.352971 0.656198
0.197194 0.354801 0.732628
0.199017 0.356624 0.808714
0.202716 0.437091 0.202716
0.204674 0.439049 0.284443
0.206584 0.440959 0.364191
0.208468 0.442843 0.442843
0.210334 0.444709 0.520731
0.212186 0.446560 0.598033
0.214026 0.448401 0.674861
0.215857 0.450231 0.751291
0.217679 0.452054 0.827377
0.221198 0.531595 0.221198
0.223155 0.533552 0.302925
0.225066 0.535463 0.382673
0.226950 0.537347 0.461324
0.228815 0.539212 0.539212
0.230667 0.541064 0.616515
0.232507 0.542904 0.693343
0.234338 0.544735 0.769772
0.236161 0.546558 0.845858
0.239540 0.625388 0.239540
0.241498 0.627346 0.321267
0.243408 0.629256 0.401016
0.245292 0.631140 0.479667
0.247158 0.633006 0.557555
0.249010 0.634857 0.634857
0.250850 0.636698 0.711685
0.252681 0.638528 0.788115
0.254503 0.640351 0.864201
0.257770 0.718606 0.257770
0.259728 0.720563 0.339497
0.261638 0.722474 0.419246
0.263522 0.724358 0.497897
0.265388 0.726223 0.575785
0.267240 0.728075 0.653087
0.269080 0.729915 0.729915
0.270911 0.731746 0.806345
0.272733 0.733569 0.882431
0.275906 0.811340 0.275906
0.277864 0.813297 0.357633
0.279774 0.815208 0.437381
0.281658 0.817092 0.516033
0.283524 0.818957 0.593920
0.285375 0.820809 0.671223
0.287216 0.822649 0.748051
0.289046 0.824480 0.824480
0.290869 0.826303 0.900566
0.293960 0.903657 0.293960
0.295918 0.905615 0.375687
0.297828 0.907525 0.455435
0.299712 0.909409 0.534087
0.301578 0.911275 0.611974
0.303429 0.913127 0.689277
0.305270 0.914967 0.766105
0.307100 0.916798 0.842534
0.308923 0.918620 0.918620
0.231272 0.151502 0.151502
0.233229 0.153460 0.233229
0.235140 0.155370 0.312978
0.237024 0.157254 0.391629
0.238889 0.159120 0.469517
0.240741 0.160972 0.546820
0.242582 0.162812 0.623648
0.244412 0.164643 0.700077
0.246235 0.166466 0.776163
0.250664 0.250664 0.170895
0.252622 0.252622 0.252622
0.254532 0.254532 0.332370
0.256416 0.256416 0.411022
0.258282 0.258282 0.488910
0.260134 0.260134 0.566212
0.261974 0.261974 0.643040
0.263805 0.263805 0.719469
0.265627 0.265627 0.795555
0.269587 0.347425 0.189818
0.271545 0.349383 0.271545
0.273455 0.351293 0.351293
0.275339 0.353177 0.429945
0.277205 0.355043 0.507833
0.279057 0.356895 0.585135
0.280897 0.358735 0.661963
0.282728 0.360566 0.738392
0.284550 0.362388 0.814478
0.288250 0.442855 0.208481
0.290208 0.444813 0.290208
0.292118 0.446723 0.369956
0.294002 0.448607 0.448607
0.295868 0.450473 0.526495
0.297719 0.452325 0.603798
0.299560 0.454165 0.680626
0.301391 0.455996 0.757055
0.303213 0.457819 0.833141
0.306732 0.537359 0.226962
0.308689 0.539317 0.308689
0.310600 0.541227 0.388438
0.312484 0.543111 0.467089
0.314349 0.544977 0.544977
0.316201 0.546829 0.622279
0.318041 0.548669 0.699107
0.319872 0.550500 0.775537
0.321695 0.552322 0.851623
0.325074 0.631153 0.245305
0.327032 0.633110 0.327032
0.328942 0.635021 0.406780
0.330826 0.636905 0.485432
0.332692 0.638770 0.563320
0.334544 0.640622 0.640622
0.336384 0.642462 0.717450
0.338215 0.644293 0.793879
0.340037 0.646116 0.869965
0.343304 0.724370 0.263535
0.345262 0.726328 0.345262
0.347172 0.728238 0.425010
0.349056 0.730122 0.503662
0.350922 0.731988 0.581550
0.352774 0.733840 0.658852
0.354614 0.735680 0.735680
0.356445 0.737511 0.812109
0.358267 0.739333 0.888195
0.361440 0.817104 0.281670
0.363397 0.819062 0.363397
0.365308 0.820972 0.443146
0.367192 0.822856 0.521797
0.369057 0.824722 0.599685
0.370909 0.826574 0.676988
0.372750 0.828414 0.753815
0.374580 0.830245 0.830245
0.376403 0.832067 0.906331
0.379494 0.909422 0.299724
0.381451 0.911379 0.381451
0.383362 0.913290 0.461200
0.385246 0.915174 0.539851
0.387111 0.917039 0.617739
0.388963 0.918891 0.695041
0.390804 0.920732 0.771869
0.392634 0.922562 0.848299
0.394457 0.924385 0.924385
0.314735 0.157128 0.157128
0.316693 0.159085 0.238855
0.318603 0.160996 0.318603
0.320487 0.162880 0.397254
0.322353 0.164745 0.475142
0.324204 0.166597 0.552445
0.326045 0.168437 0.629273
0.327875 0.170268 0.705702
0.329698 0.172091 0.781788
0.334127 0.256289 0.176520
0.336085 0.258247 0.258247
0.337995 0.260157 0.337995
0.339879 0.262041 0.416647
0.341745 0.263907 0.494535
0.343597 0.265759 0.571837
0.345437 0.267599 0.648665
0.347268 0.269430 0.725094
0.349091 0.271252 0.801180
0.353050 0.353050 0.195443
0.355008 0.355008 0.277170
0.356918 0.356918 0.356918
0.358802 0.358802 0.435570
0.360668 0.360668 0.513458
0.362520 0.362520 0.590760
0.364360 0.364360 0.667588
0.366191 0.366191 0.744017
0.368014 0.368014 0.820103
0.371713 0.448481 0.214106
0.373671 0.450438 0.295833
0.375581 0.452348 0.375581
0.377465 0.454233 0.454233
0.379331 0.456098 0.532120
0.381183 0.457950 0.609423
0.383023 0.459790 0.686251
0.384854 0.461621 0.762680
0.386676 0.463444 0.838766
0.390195 0.542984 0.232587
0.392152 0.544942 0.314314
0.394063 0.546852 0.394063
0.395947 0.548736 0.472714
0.397812 0.550602 0.550602
0.399664 0.552454 0.627904
0.401504 0.554294 0.704732
0.403335 0.556125 0.781162
0.405158 0.557947 0.857248
0.408537 0.636778 0.250930
0.410495 0.638735 0.332657
0.412405 0.640646 0.412405
0.414289 0.642530 0.491057
0.416155 0.644395 0.568945
0.418007 0.646247 0.646247
0.419847 0.648087 0.723075
0.421678 0.649918 0.799504
0.423500 0.651741 0.875590
0.426767 0.729995 0.269160
0.428725 0.731953 0.350887
0.430635 0.733863 0.430635
0.432519 0.735747 0.509287
0.434385 0.737613 0.587175
0.436237 0.739465 0.664477
0.438077 0.741305 0.741305
0.439908 0.743136 0.817734
0.441731 0.744958 0.893820
0.444903 0.822729 0.287296
0.446861 0.824687 0.369022
0.448771 0.826597 0.448771
0.450655 0.828481 0.527422
0.452521 0.830347 0.605310
0.454372 0.832199 0.682613
0.456213 0.834039 0.759441
0.458043 0.835870 0.835870
0.459866 0.837692 0.911956
0.462957 0.915047 0.305350
0.464915 0.917004 0.387076
0.466825 0.918915 0.466825
0.468709 0.920799 0.545476
0.470575 0.922665 0.623364
0.472426 0.924516 0.700667
0.474267 0.926357 0.777495
0.476097 0.928187 0.853924
0.477920 0.930010 0.930010
0.397050 0.162675 0.162675
0.399008 0.164633 0.244402
0.400918 0.166543 0.324151
0.402802 0.168427 0.402802
0.404668 0.170293 0.480690
0.406519 0.172145 0.557992
0.408360 0.173985 0.634820
0.410190 0.175816 0.711250
0.412013 0.177638 0.787336
0.416442 0.261837 0.182068
0.418400 0.263795 0.263795
0.420310 0.265705 0.343543
0.422194 0.267589 0.422194
0.424060 0.269455 0.500082
0.425912 0.271306 0.577385
0.427752 0.273147 0.654213
0.429583 0.274978 0.730642
0.431406 0.276800 0.806728
0.435365 0.358598 0.200991
0.437323 0.360556 0.282718
0.439233 0.362466 0.362466
0.441117 0.364350 0.441117
0.442983 0.366216 0.519005
0.444835 0.368068 0.596308
0.446675 0.369908 0.673136
0.448506 0.371739 0.749565
0.450329 0.373561 0.825651
0.454028 0.454028 0.219653
0.455986 0.455986 0.301380
0.457896 0.457896 0.381129
0.459780 0.459780 0.459780
0.461646 0.461646 0.537668
0.463498 0.463498 0.614970
0.465338 0.465338 0.691798
0.467169 0.467169 0.768228
0.468991 0.468991 0.844314
0.472510 0.548532 0.238135
0.474467 0.550490 0.319862
0.476378 0.552400 0.399610
0.478262 0.554284 0.478262
0.480127 0.556150 0.556150
0.481979 0.558001 0.633452
0.483820 0.559842 0.710280
0.485650 0.561672 0.786709
0.487473 0.563495 0.862795
0.490852 0.642325 0.256478
0.492810 0.644283 0.338205
0.494720 0.646193 0.417953
0.496604 0.648077 0.496604
0.498470 0.649943 0.574492
0.500322 0.651795 0.651795
0.502162 0.653635 0.728623
0.503993 0.655466 0.805052
0.505815 0.657288 0.881138
0.509082 0.735543 0.274708
0.511040 0.737501 0.356435
0.512950 0.739411 0.436183
0.514834 0.741295 0.514834
0.516700 0.743161 0.592722
0.518552 0.745012 0.670025
0.520392 0.746853 0.746853
0.522223 0.748684 0.823282
0.524046 0.750506 0.899368
0.527218 0.828277 0.292843
0.529176 0.830235 0.374570
0.531086 0.832145 0.454319
0.532970 0.834029 0.532970
0.534836 0.835895 0.610858
0.536687 0.837746 0.688160
0.538528 0.839587 0.764988
0.540358 0.841418 0.841418
0.542181 0.843240 0.917504
0.545272 0.920594 0.310897
0.547230 0.922552 0.392624
0.549140 0.924462 0.472373
0.551024 0.926346 0.551024
0.552890 0.928212 0.628912
0.554741 0.930064 0.706214
0.556582 0.931904 0.783042
0.558412 0.933735 0.859472
0.560235 0.935558 0.935558
0.478566 0.168169 0.168169
0.480524 0.170127 0.249896
0.482434 0.172037 0.329644
0.484318 0.173921 0.408296
0.486184 0.175787 0.486184
0.488035 0.177638 0.563486
0.489876 0.179479 0.640314
0.491706 0.181310 0.716743
0.493529 0.183132 0.792829
0.497958 0.267331 0.187562
0.499916 0.269288 0.269288
0.501826 0.271199 0.349037
0.503710 0.273083 0.427688
0.505576 0.274949 0.505576
0.507428 0.276800 0.582879
0.509268 0.278641 0.659707
0.511099 0.280471 0.736136
0.512922 0.282294 0.812222
0.516881 0.364092 0.206485
0.518839 0.366050 0.288212
0.520749 0.367960 0.367960
0.522633 0.369844 0.446611
0.524499 0.371710 0.524499
0.526351 0.373561 0.601802
0.528191 0.375402 0.678630
0.530022 0.377232 0.755059
0.531845 0.379055 0.831145
0.535544 0.459522 0.225147
0.537502 0.461480 0.306874
0.539412 0.463390 0.386623
0.541296 0.465274 0.465274
0.543162 0.467140 0.543162
0.545014 0.468991 0.620464
0.546854 0.470832 0.697292
0.548685 0.472663 0.773722
0.550507 0.474485 0.849808
0.554026 0.554026 0.243629
0.555983 0.555983 0.325356
0.557894 0.557894 0.405104
0.559778 0.559778 0.483756
0.561643 0.561643 0.561643
0.563495 0.563495 0.638946
0.565335 0.565335 0.715774
0.567166 0.567166 0.792203
0.568989 0.568989 0.868289
0.572368 0.647819 0.261971
0.574326 0.649777 0.343698
0.576236 0.651687 0.423447
0.578120 0.653571 0.502098
0.579986 0.655437 0.579986
0.581838 0.657289 0.657289
0.583678 0.659129 0.734116
0.585509 0.660960 0.810546
0.587331 0.662782 0.886632
0.590598 0.741037 0.280202
0.592556 0.742994 0.361928
0.594466 0.744905 0.441677
0.596350 0.746789 0.520328
0.598216 0.748654 0.598216
0.600068 0.750506 0.675519
0.601908 0.752347 0.752347
0.603739 0.754177 0.828776
0.605562 0.756000 0.904862
0.608734 0.833771 0.298337
0.610692 0.835729 0.380064
0.612602 0.837639 0.459812
0.614486 0.839523 0.538464
0.616352 0.841389 0.616352
0.618203 0.843240 0.693654
0.620044 0.845081 0.770482
0.621874 0.846911 0.846911
0.623697 0.848734 0.922997
0.626788 0.926088 0.316391
0.628746 0.928046 0.398118
0.630656 0.929956 0.477866
0.632540 0.931840 0.556518
0.634406 0.933706 0.634406
0.636257 0.935558 0.711708
0.638098 0.937398 0.788536
0.639928 0.939229 0.864965
0.641751 0.941051 0.941051
0.559469 0.173622 0.173622
0.561427 0.175579 0.255349
0.563337 0.177490 0.335097
0.565221 0.179374 0.413748
0.567087 0.181239 0.491636
0.568939 0.183091 0.568939
0.570779 0.184931 0.645767
0.572610 0.186762 0.722196
0.574432 0.188585 0.798282
0.578862 0.272783 0.193014
0.580819 0.274741 0.274741
0.582730 0.276651 0.354489
0.584614 0.278535 0.433141
0.586479 0.280401 0.511029
0.588331 0.282253 0.588331
0.590171 0.284093 0.665159
0.592002 0.285924 0.741588
0.593825 0.287746 0.817674
0.597785 0.369544 0.211937
0.599742 0.371502 0.293664
0.601653 0.373412 0.373412
0.603537 0.375296 0.452064
0.605402 0.377162 0.529952
0.607254 0.379014 0.607254
0.609094 0.380854 0.684082
0.610925 0.382685 0.760511
0.612748 0.384508 0.836597
0.616447 0.464975 0.230600
0.618405 0.466932 0.312327
0.620315 0.468843 0.392075
0.622199 0.470727 0.470727
0.624065 0.472592 0.548614
0.625917 0.474444 0.625917
0.627757 0.476284 0.702745
0.629588 0.478115 0.779174
0.631411 0.479938 0.855260
0.634929 0.559478 0.249081
0.636887 0.561436 0.330808
0.638797 0.563346 0.410557
0.640681 0.565230 0.489208
0.642547 0.567096 0.567096
0.644398 0.568948 0.644398
0.646239 0.570788 0.721226
0.648070 0.572619 0.797656
0.649892 0.574441 0.873742
0.653272 0.653272 0.267424
0.655229 0.655229 0.349151
0.657140 0.657140 0.428899
0.659024 0.659024 0.507551
0.660889 0.660889 0.585439
0.662741 0.662741 0.662741
0.664581 0.664581 0.739569
0.666412 0.666412 0.815998
0.668235 0.668235 0.892084
0.671502 0.746489 0.285654
0.673459 0.748447 0.367381
0.675370 0.750357 0.447129
0.677254 0.752241 0.525781
0.679119 0.754107 0.603669
0.680971 0.755959 0.680971
0.682811 0.757799 0.757799
0.684642 0.759630 0.834228
0.686465 0.761452 0.910314
0.689637 0.839223 0.303790
0.691595 0.841181 0.385516
0.693505 0.843091 0.465265
0.695389 0.844975 0.543916
0.697255 0.846841 0.621804
0.699107 0.848693 0.699107
0.700947 0.850533 0.775935
0.702778 0.852364 0.852364
0.704600 0.854187 0.928450
0.707691 0.931541 0.321844
0.709649 0.933498 0.403570
0.711559 0.935409 0.483319
0.713443 0.937293 0.561970
0.715309 0.939159 0.639858
0.717161 0.941010 0.717161
0.719001 0.942851 0.793989
0.720832 0.944681 0.870418
0.722654 0.946504 0.946504
0.639876 0.179041 0.179041
0.641834 0.180998 0.260768
0.643744 0.182909 0.340516
0.645628 0.184793 0.419167
0.647494 0.186658 0.497055
0.649345 0.188510 0.574358
0.651186 0.190350 0.651186
0.653016 0.192181 0.727615
0.654839 0.194004 0.803701
0.659268 0.278202 0.198433
0.661226 0.280160 0.280160
0.663136 0.282070 0.359908
0.665020 0.283954 0.438560
0.666886 0.285820 0.516448
0.668738 0.287672 0.593750
0.670578 0.289512 0.670578
0.672409 0.291343 0.747008
0.674231 0.293166 0.823094
0.678191 0.374963 0.217356
0.680149 0.376921 0.299083
0.682059 0.378831 0.378831
0.683943 0.380715 0.457483
0.685809 0.382581 0.535371
0.687661 0.384433 0.612673
0.689501 0.386273 0.689501
0.691332 0.388104 0.765931
0.693154 0.389927 0.842017
0.696854 0.470394 0.236019
0.698812 0.472351 0.317746
0.700722 0.474262 0.397494
0.702606 0.476146 0.476146
0.704472 0.478011 0.554033
0.706324 0.479863 0.631336
0.708164 0.481703 0.708164
0.709995 0.483534 0.784593
0.711817 0.485357 0.860679
0.715336 0.564897 0.254500
0.717293 0.566855 0.336227
0.719204 0.568765 0.415976
0.721088 0.570649 0.494627
0.722953 0.572515 0.572515
0.724805 0.574367 0.649817
0.726645 0.576207 0.726645
0.728476 0.578038 0.803075
0.730299 0.579860 0.879161
0.733678 0.658691 0.272843
0.735636 0.660648 0.354570
0.737546 0.662559 0.434318
0.739430 0.664443 0.512970
0.741296 0.666308 0.590858
0.743148 0.668160 0.668160
0.744988 0.670000 0.744988
0.746819 0.671831 0.821417
0.748641 0.673654 0.897503
0.751908 0.751908 0.291073
0.753866 0.753866 0.372800
0.755776 0.755776 0.452548
0.757660 0.757660 0.531200
0.759526 0.759526 0.609088
0.761378 0.761378 0.686390
0.763218 0.763218 0.763218
0.765049 0.765049 0.839648
0.766871 0.766871 0.915734
0.770044 0.844642 0.309209
0.772002 0.846600 0.390936
0.773912 0.848510 0.470684
0.775796 0.850394 0.549335
0.777662 0.852260 0.627223
0.779513 0.854112 0.704526
0.781354 0.855952 0.781354
0.783184 0.857783 0.857783
0.785007 0.859606 0.933869
0.788098 0.936960 0.327263
0.790056 0.938918 0.408990
0.791966 0.940828 0.488738
0.793850 0.942712 0.567389
0.795716 0.944578 0.645277
0.797567 0.946429 0.722580
0.799408 0.948270 0.799408
0.801238 0.950100 0.875837
0.803061 0.951923 0.951923
0.719865 0.184432 0.184432
0.721823 0.186389 0.266159
0.723733 0.188300 0.345907
0.725617 0.190184 0.424558
0.727483 0.192049 0.502446
0.729335 0.193901 0.579749
0.731175 0.195741 0.656577
0.733006 0.197572 0.733006
0.734829 0.199395 0.809092
0.739258 0.283593 0.203824
0.741216 0.285551 0.285551
0.743126 0.287461 0.365299
0.745010 0.289345 0.443951
0.746876 0.291211 0.521839
0.748727 0.293063 0.599141
0.750568 0.294903 0.675969
0.752398 0.296734 0.752398
0.754221 0.298556 0.828484
0.758181 0.380354 0.222747
0.760139 0.382312 0.304474
0.762049 0.384222 0.384222
0.763933 0.386106 0.462874
0.765799 0.387972 0.540762
0.767650 0.389824 0.618064
0.769491 0.391664 0.694892
0.771321 0.393495 0.771321
0.773144 0.395318 0.847407
0.776844 0.475785 0.241410
0.778801 0.477742 0.323137
0.780712 0.479653 0.402885
0.782596 0.481537 0.481537
0.784461 0.483402 0.559424
0.786313 0.485254 0.636727
0.788153 0.487094 0.713555
0.789984 0.488925 0.789984
0.791807 0.490748 0.866070
0.795325 0.570288 0.259891
0.797283 0.572246 0.341618
0.799193 0.574156 0.421367
0.801077 0.576040 0.500018
0.802943 0.577906 0.577906
0.804795 0.579758 0.655208
0.806635 0.581598 0.732036
0.808466 0.583429 0.808466
0.810288 0.585251 0.884552
0.813668 0.664082 0.278234
0.815626 0.666039 0.359961
0.817536 0.667950 0.439709
0.819420 0.669834 0.518361
0.821286 0.671699 0.596249
0.823137 0.673551 0.673551
0.824978 0.675391 0.750379
0.826808 0.677222 0.826808
0.828631 0.679045 0.902894
0.831898 0.757299 0.296464
0.833856 0.759257 0.378191
0.835766 0.761167 0.457939
0.837650 0.763051 0.536591
0.839516 0.764917 0.614479
0.841367 0.766769 0.691781
0.843208 0.768609 0.768609
0.845038 0.770440 0.845038
0.846861 0.772262 0.921124
0.850033 0.850033 0.314600
0.851991 0.851991 0.396326
0.853901 0.853901 0.476075
0.855785 0.855785 0.554726
0.857651 0.857651 0.632614
0.859503 0.859503 0.709917
0.861343 0.861343 0.786745
0.863174 0.863174 0.863174
0.864997 0.864997 0.939260
0.868087 0.942351 0.332654
0.870045 0.944309 0.414380
0.871955 0.946219 0.494129
0.873839 0.948103 0.572780
0.875705 0.949969 0.650668
0.877557 0.951820 0.727971
0.879397 0.953661 0.804799
0.881228 0.955491 0.881228
0.883051 0.957314 0.957314
0.799496 0.189798 0.189798
0.801453 0.191756 0.271525
0.803364 0.193666 0.351274
0.805248 0.195550 0.429925
0.807113 0.197416 0.507813
0.808965 0.199268 0.585115
0.810805 0.201108 0.661943
0.812636 0.202939 0.738373
0.814459 0.204761 0.814459
0.818888 0.288960 0.209191
0.820846 0.290918 0.290918
0.822756 0.292828 0.370666
0.824640 0.294712 0.449318
0.826506 0.296578 0.527205
0.828358 0.298429 0.604508
0.830198 0.300270 0.681336
0.832029 0.302101 0.757765
0.833851 0.303923 0.833851
0.837811 0.385721 0.228114
0.839769 0.387679 0.309841
0.841679 0.389589 0.389589
0.843563 0.391473 0.468241
0.845429 0.393339 0.546128
0.847281 0.395191 0.623431
0.849121 0.397031 0.700259
0.850952 0.398862 0.776688
0.852774 0.400684 0.852774
0.856474 0.481151 0.246777
0.858432 0.483109 0.328503
0.860342 0.485019 0.408252
0.862226 0.486903 0.486903
0.864092 0.488769 0.564791
0.865943 0.490621 0.642094
0.867784 0.492461 0.718922
0.869614 0.494292 0.795351
0.871437 0.496114 0.871437
0.874955 0.575655 0.265258
0.876913 0.577613 0.346985
0.878823 0.579523 0.426733
0.880707 0.581407 0.505385
0.882573 0.583273 0.583273
0.884425 0.585124 0.660575
0.886265 0.586965 0.737403
0.888096 0.588796 0.813832
0.889918 0.590618 0.889918
0.893298 0.669448 0.283601
0.895256 0.671406 0.365328
0.897166 0.673316 0.445076
0.899050 0.675200 0.523727
0.900916 0.677066 0.601615
0.902767 0.678918 0.678918
0.904608 0.680758 0.755746
0.906439 0.682589 0.832175
0.908261 0.684411 0.908261
0.911528 0.762666 0.301831
0.913486 0.764624 0.383558
0.915396 0.766534 0.463306
0.917280 0.768418 0.541957
0.919146 0.770284 0.619845
0.920997 0.772135 0.697148
0.922838 0.773976 0.773976
0.924669 0.775807 0.850405
0.926491 0.777629 0.926491
0.929664 0.855400 0.319966
0.931621 0.857358 0.401693
0.933532 0.859268 0.481442
0.935416 0.861152 0.560093
0.937281 0.863018 0.637981
0.939133 0.864870 0.715283
0.940973 0.866710 0.792111
0.942804 0.868541 0.868541
0.944627 0.870363 0.944627
0.947718 0.947718 0.338020
0.949675 0.949675 0.419747
0.951586 0.951586 0.499496
0.953470 0.953470 0.578147
0.955335 0.955335 0.656035
0.957187 0.957187 0.733337
0.959027 0.959027 0.810165
0.960858 0.960858 0.886595
0.962681 0.962681 0.962681
