skills/editops-orchestrator/assets/grade/luts/vintage_fade_v08.cube
TITLE "vintage_fade_v08"
LUT_3D_SIZE 5
DOMAIN_MIN 0.0 0.0 0.0
DOMAIN_MAX 1.0 1.0 1.0
0.079531 0.079531 0.079531
0.082201 0.082201 0.274854
0.084812 0.084812 0.465850
0.087397 0.087397 0.654896
0.089963 0.089963 0.842655
0.105982 0.298634 0.105982
0.108652 0.301304 0.301304
0.111263 0.303915 0.492300
0.113847 0.306500 0.681347
0.116414 0.309067 0.869106
0.131846 0.512884 0.131846
0.134516 0.515554 0.327169
0.137127 0.518165 0.518165
0.139712 0.520749 0.707212
0.142279 0.523316 0.894970
0.157447 0.724947 0.157447
0.160117 0.727617 0.352770
0.162728 0.730228 0.543766
0.165313 0.732812 0.732812
0.167879 0.735379 0.920571
0.182873 0.935565 0.182873
0.185543 0.938235 0.378196
0.188154 0.940846 0.569192
0.190739 0.943430 0.758238
0.193306 0.945997 0.945997
0.280046 0.087394 0.087394
0.282716 0.090064 0.282716
0.285327 0.092675 0.473712
0.287912 0.095259 0.662759
0.290479 0.097826 0.850518
0.306497 0.306497 0.113844
0.309167 0.309167 0.309167
0.311778 0.311778 0.500163
0.314362 0.314362 0.689210
0.316929 0.316929 0.876968
0.332361 0.520746 0.139709
0.335032 0.523417 0.335032
0.337643 0.526028 0.526028
0.340227 0.528612 0.715074
0.342794 0.531179 0.902833
0.357962 0.732809 0.165310
0.360632 0.735479 0.360632
0.363243 0.738090 0.551628
0.365828 0.740675 0.740675
0.368395 0.743242 0.928434
0.383388 0.943427 0.190736
0.386059 0.946098 0.386059
0.388670 0.948709 0.577055
0.391254 0.951293 0.766101
0.393821 0.953860 0.953860
0.476120 0.095082 0.095082
0.478790 0.097752 0.290405
0.481401 0.100363 0.481401
0.483985 0.102948 0.670447
0.486552 0.105515 0.858206
0.502570 0.314185 0.121533
0.505241 0.316855 0.316855
0.507852 0.319467 0.507852
0.510436 0.322051 0.696898
0.513003 0.324618 0.884657
0.528435 0.528435 0.147397
0.531105 0.531105 0.342720
0.533716 0.533716 0.533716
0.536301 0.536301 0.722763
0.538867 0.538867 0.910522
0.554036 0.740498 0.172998
0.556706 0.743168 0.368321
0.559317 0.745779 0.559317
0.561901 0.748363 0.748363
0.564468 0.750930 0.936122
0.579462 0.951116 0.198424
0.582132 0.953786 0.393747
0.584743 0.956397 0.584743
0.587328 0.958982 0.773790
0.589894 0.961548 0.961548
0.670192 0.102692 0.102692
0.672862 0.105362 0.298015
0.675473 0.107973 0.489011
0.678058 0.110558 0.678058
0.680624 0.113125 0.865816
0.696642 0.321795 0.129143
0.699313 0.324466 0.324466
0.701924 0.327077 0.515462
0.704508 0.329661 0.704508
0.707075 0.332228 0.892267
0.722507 0.536045 0.155007
0.725177 0.538715 0.350330
0.727788 0.541326 0.541326
0.730373 0.543911 0.730373
0.732940 0.546478 0.918132
0.748108 0.748108 0.180608
0.750778 0.750778 0.375931
0.753389 0.753389 0.566927
0.755973 0.755973 0.755973
0.758540 0.758540 0.943732
0.773534 0.958726 0.206034
0.776204 0.961396 0.401357
0.778815 0.964007 0.592353
0.781400 0.966592 0.781400
0.783967 0.969158 0.969158
0.862942 0.110250 0.110250
0.865612 0.112921 0.305573
0.868223 0.115532 0.496569
0.870808 0.118116 0.685616
0.873374 0.120683 0.873374
0.889393 0.329353 0.136701
0.892063 0.332024 0.332024
0.894674 0.334635 0.523020
0.897258 0.337219 0.712066
0.899825 0.339786 0.899825
0.915257 0.543603 0.162566
0.917927 0.546273 0.357888
0.920539 0.548885 0.548885
0.923123 0.551469 0.737931
0.925690 0.554036 0.925690
0.940858 0.755666 0.188166
0.943528 0.758336 0.383489
0.946139 0.760947 0.574485
0.948724 0.763532 0.763532
0.951290 0.766098 0.951290
0.966284 0.966284 0.213593
0.968954 0.968954 0.408915
0.971565 0.971565 0.599911
0.974150 0.974150 0.788958
0.976717 0.976717 0.976717
