skills/editops-orchestrator/assets/grade/luts/vintage_fade_v14.cube
TITLE "vintage_fade_v14"
LUT_3D_SIZE 17
DOMAIN_MIN 0.0 0.0 0.0
DOMAIN_MAX 1.0 1.0 1.0
0.129351 0.129351 0.129351
0.130267 0.130267 0.172622
0.131168 0.131168 0.215162
0.132059 0.132059 0.257244
0.132942 0.132942 0.298993
0.133821 0.133821 0.340480
0.134695 0.134695 0.381751
0.135565 0.135565 0.422840
0.136431 0.136431 0.463769
0.137295 0.137295 0.504557
0.138156 0.138156 0.545219
0.139014 0.139014 0.585768
0.139870 0.139870 0.626212
0.140725 0.140725 0.666560
0.141577 0.141577 0.706820
0.142428 0.142428 0.746997
0.143277 0.143277 0.787097
0.138426 0.180781 0.138426
0.139342 0.181698 0.181698
0.140243 0.182598 0.224237
0.141134 0.183489 0.266319
0.142018 0.184373 0.308068
0.142896 0.185252 0.349555
0.143770 0.186125 0.390827
0.144640 0.186995 0.431915
0.145506 0.187862 0.472844
0.146370 0.188725 0.513632
0.147231 0.189586 0.554295
0.148090 0.190445 0.594843
0.148946 0.191301 0.635287
0.149800 0.192155 0.675636
0.150652 0.193008 0.715895
0.151503 0.193858 0.756072
0.152352 0.194707 0.796172
0.147348 0.231342 0.147348
0.148264 0.232258 0.190619
0.149165 0.233159 0.233159
0.150056 0.234050 0.275241
0.150940 0.234934 0.316990
0.151818 0.235812 0.358477
0.152692 0.236686 0.399748
0.153562 0.237556 0.440837
0.154428 0.238422 0.481766
0.155292 0.239286 0.522554
0.156153 0.240147 0.563216
0.157011 0.241005 0.603765
0.157868 0.241862 0.644209
0.158722 0.242716 0.684557
0.159574 0.243568 0.724817
0.160425 0.244419 0.764994
0.161274 0.245268 0.805094
0.156174 0.281359 0.156174
0.157090 0.282275 0.199445
0.157991 0.283176 0.241985
0.158882 0.284067 0.284067
0.159765 0.284951 0.325816
0.160644 0.285829 0.367303
0.161518 0.286703 0.408574
0.162388 0.287573 0.449662
0.163254 0.288439 0.490592
0.164118 0.289303 0.531380
0.164979 0.290164 0.572042
0.165837 0.291022 0.612591
0.166693 0.291879 0.653035
0.167548 0.292733 0.693383
0.168400 0.293585 0.733643
0.169251 0.294436 0.773820
0.170100 0.295285 0.813920
0.164930 0.330980 0.164930
0.165846 0.331896 0.208201
0.166747 0.332797 0.250741
0.167638 0.333688 0.292823
0.168521 0.334572 0.334572
0.169400 0.335450 0.376059
0.170274 0.336324 0.417330
0.171144 0.337194 0.458419
0.172010 0.338060 0.499348
0.172874 0.338924 0.540136
0.173735 0.339785 0.580798
0.174593 0.340643 0.621347
0.175449 0.341500 0.661791
0.176304 0.342354 0.702139
0.177156 0.343206 0.742399
0.178007 0.344057 0.782576
0.178856 0.344906 0.822676
0.173631 0.380290 0.173631
0.174547 0.381206 0.216902
0.175448 0.382107 0.259442
0.176339 0.382998 0.301524
0.177223 0.383882 0.343273
0.178101 0.384760 0.384760
0.178975 0.385634 0.426031
0.179845 0.386504 0.467120
0.180711 0.387370 0.508049
0.181575 0.388234 0.548837
0.182436 0.389095 0.589499
0.183294 0.389953 0.630048
0.184151 0.390810 0.670492
0.185005 0.391664 0.710840
0.185857 0.392516 0.751100
0.186708 0.393367 0.791277
0.187557 0.394216 0.831377
0.182287 0.429343 0.182287
0.183203 0.430259 0.225558
0.184104 0.431160 0.268098
0.184994 0.432051 0.310180
0.185878 0.432935 0.351929
0.186757 0.433813 0.393416
0.187631 0.434687 0.434687
0.188501 0.435557 0.475775
0.189367 0.436424 0.516704
0.190231 0.437287 0.557493
0.191092 0.438148 0.598155
0.191950 0.439007 0.638704
0.192806 0.439863 0.679148
0.193661 0.440717 0.719496
0.194513 0.441570 0.759756
0.195364 0.442420 0.799933
0.196213 0.443269 0.840033
0.190904 0.478179 0.190904
0.191820 0.479095 0.234176
0.192721 0.479996 0.276715
0.193612 0.480887 0.318797
0.194496 0.481771 0.360546
0.195374 0.482649 0.402033
0.196248 0.483523 0.443305
0.197118 0.484393 0.484393
0.197985 0.485259 0.525322
0.198848 0.486123 0.566110
0.199709 0.486984 0.606773
0.200568 0.487842 0.647321
0.201424 0.488699 0.687765
0.202278 0.489553 0.728114
0.203131 0.490405 0.768373
0.203981 0.491256 0.808550
0.204830 0.492105 0.848650
0.199488 0.526826 0.199488
0.200404 0.527742 0.242760
0.201305 0.528642 0.285299
0.202196 0.529533 0.327381
0.203080 0.530417 0.369130
0.203958 0.531296 0.410617
0.204832 0.532169 0.451889
0.205702 0.533039 0.492977
0.206569 0.533906 0.533906
0.207432 0.534770 0.574694
0.208293 0.535630 0.615357
0.209152 0.536489 0.655905
0.210008 0.537345 0.696349
0.210862 0.538200 0.736698
0.211715 0.539052 0.776957
0.212565 0.539903 0.817135
0.213414 0.540752 0.857235
0.208043 0.575305 0.208043
0.208959 0.576221 0.251314
0.209860 0.577122 0.293854
0.210750 0.578013 0.335936
0.211634 0.578897 0.377685
0.212513 0.579775 0.419172
0.213387 0.580649 0.460443
0.214257 0.581519 0.501531
0.215123 0.582385 0.542460
0.215987 0.583249 0.583249
0.216848 0.584110 0.623911
0.217706 0.584968 0.664460
0.218562 0.585825 0.704904
0.219417 0.586679 0.745252
0.220269 0.587531 0.785512
0.221120 0.588382 0.825689
0.221969 0.589231 0.865789
0.216571 0.623634 0.216571
0.217487 0.624551 0.259842
0.218388 0.625451 0.302382
0.219279 0.626342 0.344464
0.220163 0.627226 0.386213
0.221041 0.628105 0.427700
0.221915 0.628978 0.468971
0.222785 0.629848 0.510060
0.223651 0.630715 0.550989
0.224515 0.631578 0.591777
0.225376 0.632439 0.632439
0.226234 0.633298 0.672988
0.227091 0.634154 0.713432
0.227945 0.635008 0.753780
0.228797 0.635861 0.794040
0.229648 0.636711 0.834217
0.230497 0.637560 0.874317
0.225075 0.671828 0.225075
0.225991 0.672745 0.268347
0.226892 0.673645 0.310886
0.227783 0.674536 0.352968
0.228667 0.675420 0.394717
0.229545 0.676299 0.436204
0.230419 0.677172 0.477476
0.231289 0.678042 0.518564
0.232155 0.678909 0.559493
0.233019 0.679772 0.600281
0.233880 0.680633 0.640944
0.234738 0.681492 0.681492
0.235595 0.682348 0.721936
0.236449 0.683202 0.762284
0.237301 0.684055 0.802544
0.238152 0.684905 0.842721
0.239001 0.685754 0.882821
0.233557 0.719899 0.233557
0.234474 0.720815 0.276829
0.235374 0.721716 0.319368
0.236265 0.722606 0.361450
0.237149 0.723490 0.403199
0.238027 0.724369 0.444687
0.238901 0.725243 0.485958
0.239771 0.726113 0.527046
0.240638 0.726979 0.567975
0.241501 0.727843 0.608764
0.242362 0.728704 0.649426
0.243221 0.729562 0.689974
0.244077 0.730418 0.730418
0.244931 0.731273 0.770767
0.245784 0.732125 0.811027
0.246634 0.732976 0.851204
0.247483 0.733825 0.891304
0.242020 0.767855 0.242020
0.242936 0.768771 0.285291
0.243836 0.769672 0.327830
0.244727 0.770563 0.369913
0.245611 0.771447 0.411662
0.246490 0.772325 0.453149
0.247364 0.773199 0.494420
0.248234 0.774069 0.535508
0.249100 0.774936 0.576437
0.249964 0.775799 0.617226
0.250825 0.776660 0.657888
0.251683 0.777519 0.698436
0.252539 0.778375 0.738881
0.253394 0.779229 0.779229
0.254246 0.780081 0.819489
0.255097 0.780932 0.859666
0.255946 0.781781 0.899766
0.250463 0.815706 0.250463
0.251379 0.816622 0.293735
0.252280 0.817523 0.336274
0.253171 0.818414 0.378356
0.254055 0.819298 0.420105
0.254933 0.820176 0.461592
0.255807 0.821050 0.502864
0.256677 0.821920 0.543952
0.257544 0.822787 0.584881
0.258407 0.823650 0.625669
0.259268 0.824511 0.666332
0.260127 0.825370 0.706880
0.260983 0.826226 0.747324
0.261837 0.827080 0.787673
0.262690 0.827932 0.827932
0.263540 0.828783 0.868110
0.264389 0.829632 0.908210
0.258890 0.863459 0.258890
0.259806 0.864375 0.302161
0.260706 0.865276 0.344701
0.261597 0.866167 0.386783
0.262481 0.867051 0.428532
0.263360 0.867929 0.470019
0.264234 0.868803 0.511290
0.265104 0.869673 0.552378
0.265970 0.870539 0.593307
0.266834 0.871403 0.634096
0.267695 0.872264 0.674758
0.268553 0.873122 0.715307
0.269409 0.873979 0.755751
0.270264 0.874833 0.796099
0.271116 0.875685 0.836359
0.271967 0.876536 0.876536
0.272816 0.877385 0.916636
0.267300 0.911120 0.267300
0.268216 0.912036 0.310571
0.269117 0.912937 0.353111
0.270008 0.913828 0.395193
0.270892 0.914712 0.436942
0.271770 0.915590 0.478429
0.272644 0.916464 0.519700
0.273514 0.917334 0.560789
0.274380 0.918201 0.601718
0.275244 0.919064 0.642506
0.276105 0.919925 0.683168
0.276963 0.920784 0.723717
0.277820 0.921640 0.764161
0.278674 0.922494 0.804509
0.279526 0.923347 0.844769
0.280377 0.924197 0.884946
0.281226 0.925046 0.925046
0.174404 0.132048 0.132048
0.175320 0.132965 0.175320
0.176221 0.133865 0.217859
0.177112 0.134756 0.259941
0.177996 0.135640 0.301690
0.178874 0.136519 0.343178
0.179748 0.137392 0.384449
0.180618 0.138262 0.425537
0.181484 0.139129 0.466466
0.182348 0.139992 0.507255
0.183209 0.140853 0.547917
0.184067 0.141712 0.588465
0.184924 0.142568 0.628910
0.185778 0.143422 0.669258
0.186630 0.144275 0.709518
0.187481 0.145126 0.749695
0.188330 0.145975 0.789795
0.183479 0.183479 0.141124
0.184395 0.184395 0.184395
0.185296 0.185296 0.226935
0.186187 0.186187 0.269017
0.187071 0.187071 0.310766
0.187949 0.187949 0.352253
0.188823 0.188823 0.393524
0.189693 0.189693 0.434613
0.190560 0.190560 0.475542
0.191423 0.191423 0.516330
0.192284 0.192284 0.556992
0.193143 0.193143 0.597541
0.193999 0.193999 0.637985
0.194853 0.194853 0.678333
0.195706 0.195706 0.718593
0.196556 0.196556 0.758770
0.197405 0.197405 0.798870
0.192401 0.234040 0.150046
0.193317 0.234956 0.193317
0.194218 0.235856 0.235856
0.195109 0.236747 0.277939
0.195993 0.237631 0.319688
0.196871 0.238510 0.361175
0.197745 0.239384 0.402446
0.198615 0.240253 0.443534
0.199481 0.241120 0.484463
0.200345 0.241984 0.525252
0.201206 0.242845 0.565914
0.202064 0.243703 0.606462
0.202921 0.244559 0.646907
0.203775 0.245414 0.687255
0.204627 0.246266 0.727515
0.205478 0.247117 0.767692
0.206327 0.247966 0.807792
0.201227 0.284057 0.158871
0.202143 0.284973 0.202143
0.203044 0.285873 0.244682
0.203935 0.286764 0.286764
0.204819 0.287648 0.328513
0.205697 0.288527 0.370001
0.206571 0.289401 0.411272
0.207441 0.290270 0.452360
0.208307 0.291137 0.493289
0.209171 0.292001 0.534078
0.210032 0.292862 0.574740
0.210890 0.293720 0.615288
0.211747 0.294576 0.655733
0.212601 0.295431 0.696081
0.213453 0.296283 0.736341
0.214304 0.297134 0.776518
0.215153 0.297983 0.816618
0.209983 0.333678 0.167627
0.210899 0.334594 0.210899
0.211800 0.335495 0.253438
0.212691 0.336386 0.295520
0.213575 0.337269 0.337269
0.214453 0.338148 0.378757
0.215327 0.339022 0.420028
0.216197 0.339892 0.461116
0.217063 0.340758 0.502045
0.217927 0.341622 0.542834
0.218788 0.342483 0.583496
0.219646 0.343341 0.624044
0.220503 0.344198 0.664489
0.221357 0.345052 0.704837
0.222209 0.345904 0.745097
0.223060 0.346755 0.785274
0.223909 0.347604 0.825374
0.218684 0.382988 0.176329
0.219600 0.383904 0.219600
0.220501 0.384804 0.262139
0.221392 0.385695 0.304222
0.222276 0.386579 0.345971
0.223154 0.387458 0.387458
0.224028 0.388332 0.428729
0.224898 0.389201 0.469817
0.225764 0.390068 0.510746
0.226628 0.390932 0.551535
0.227489 0.391793 0.592197
0.228347 0.392651 0.632745
0.229204 0.393507 0.673190
0.230058 0.394362 0.713538
0.230910 0.395214 0.753798
0.231761 0.396065 0.793975
0.232610 0.396914 0.834075
0.227340 0.432041 0.184984
0.228256 0.432957 0.228256
0.229157 0.433858 0.270795
0.230048 0.434749 0.312877
0.230931 0.435633 0.354626
0.231810 0.436511 0.396114
0.232684 0.437385 0.437385
0.233554 0.438255 0.478473
0.234420 0.439121 0.519402
0.235284 0.439985 0.560191
0.236145 0.440846 0.600853
0.237003 0.441705 0.641401
0.237860 0.442561 0.681845
0.238714 0.443415 0.722194
0.239566 0.444267 0.762454
0.240417 0.445118 0.802631
0.241266 0.445967 0.842731
0.235957 0.480877 0.193602
0.236873 0.481793 0.236873
0.237774 0.482694 0.279413
0.238665 0.483585 0.321495
0.239549 0.484468 0.363244
0.240427 0.485347 0.404731
0.241301 0.486221 0.446002
0.242171 0.487091 0.487091
0.243038 0.487957 0.528020
0.243901 0.488821 0.568808
0.244762 0.489682 0.609470
0.245621 0.490540 0.650019
0.246477 0.491397 0.690463
0.247331 0.492251 0.730811
0.248184 0.493103 0.771071
0.249034 0.493954 0.811248
0.249883 0.494803 0.851348
0.244541 0.529523 0.202186
0.245457 0.530439 0.245457
0.246358 0.531340 0.287997
0.247249 0.532231 0.330079
0.248133 0.533115 0.371828
0.249011 0.533993 0.413315
0.249885 0.534867 0.454586
0.250755 0.535737 0.495675
0.251622 0.536604 0.536604
0.252485 0.537467 0.577392
0.253346 0.538328 0.618054
0.254205 0.539187 0.658603
0.255061 0.540043 0.699047
0.255915 0.540897 0.739395
0.256768 0.541750 0.779655
0.257618 0.542600 0.819832
0.258467 0.543449 0.859932
0.253096 0.578003 0.210740
0.254012 0.578919 0.254012
0.254913 0.579819 0.296551
0.255804 0.580710 0.338633
0.256687 0.581594 0.380382
0.257566 0.582473 0.421870
0.258440 0.583346 0.463141
0.259310 0.584216 0.504229
0.260176 0.585083 0.545158
0.261040 0.585947 0.585947
0.261901 0.586807 0.626609
0.262759 0.587666 0.667157
0.263616 0.588522 0.707601
0.264470 0.589377 0.747950
0.265322 0.590229 0.788210
0.266173 0.591080 0.828387
0.267022 0.591929 0.868487
0.261624 0.626332 0.219269
0.262540 0.627248 0.262540
0.263441 0.628149 0.305079
0.264332 0.629040 0.347162
0.265216 0.629924 0.388911
0.266094 0.630802 0.430398
0.266968 0.631676 0.471669
0.267838 0.632546 0.512757
0.268704 0.633413 0.553686
0.269568 0.634276 0.594475
0.270429 0.635137 0.635137
0.271287 0.635996 0.675685
0.272144 0.636852 0.716130
0.272998 0.637706 0.756478
0.273850 0.638559 0.796738
0.274701 0.639409 0.836915
0.275550 0.640258 0.877015
0.270128 0.674526 0.227773
0.271044 0.675442 0.271044
0.271945 0.676343 0.313584
0.272836 0.677234 0.355666
0.273720 0.678118 0.397415
0.274598 0.678996 0.438902
0.275472 0.679870 0.480173
0.276342 0.680740 0.521262
0.277209 0.681607 0.562191
0.278072 0.682470 0.602979
0.278933 0.683331 0.643641
0.279792 0.684190 0.684190
0.280648 0.685046 0.724634
0.281502 0.685900 0.764982
0.282354 0.686753 0.805242
0.283205 0.687603 0.845419
0.284054 0.688452 0.885519
0.278610 0.722596 0.236255
0.279527 0.723513 0.279527
0.280427 0.724413 0.322066
0.281318 0.725304 0.364148
0.282202 0.726188 0.405897
0.283081 0.727067 0.447384
0.283954 0.727940 0.488656
0.284824 0.728810 0.529744
0.285691 0.729677 0.570673
0.286554 0.730540 0.611461
0.287415 0.731401 0.652124
0.288274 0.732260 0.692672
0.289130 0.733116 0.733116
0.289984 0.733970 0.773465
0.290837 0.734823 0.813724
0.291687 0.735673 0.853901
0.292537 0.736522 0.894001
0.287073 0.770553 0.244717
0.287989 0.771469 0.287989
0.288890 0.772370 0.330528
0.289781 0.773261 0.372610
0.290664 0.774145 0.414359
0.291543 0.775023 0.455847
0.292417 0.775897 0.497118
0.293287 0.776767 0.538206
0.294153 0.777633 0.579135
0.295017 0.778497 0.619924
0.295878 0.779358 0.660586
0.296736 0.780216 0.701134
0.297592 0.781073 0.741578
0.298447 0.781927 0.781927
0.299299 0.782779 0.822187
0.300150 0.783630 0.862364
0.300999 0.784479 0.902464
0.295516 0.818404 0.253161
0.296433 0.819320 0.296433
0.297333 0.820221 0.338972
0.298224 0.821112 0.381054
0.299108 0.821996 0.422803
0.299986 0.822874 0.464290
0.300860 0.823748 0.505562
0.301730 0.824618 0.546650
0.302597 0.825484 0.587579
0.303460 0.826348 0.628367
0.304321 0.827209 0.669030
0.305180 0.828067 0.709578
0.306036 0.828924 0.750022
0.306890 0.829778 0.790370
0.307743 0.830630 0.830630
0.308593 0.831481 0.870807
0.309442 0.832330 0.910907
0.303943 0.866157 0.261587
0.304859 0.867073 0.304859
0.305760 0.867974 0.347398
0.306651 0.868864 0.389480
0.307534 0.869748 0.431229
0.308413 0.870627 0.472717
0.309287 0.871501 0.513988
0.310157 0.872371 0.555076
0.311023 0.873237 0.596005
0.311887 0.874101 0.636794
0.312748 0.874962 0.677456
0.313606 0.875820 0.718004
0.314462 0.876676 0.758448
0.315317 0.877531 0.798797
0.316169 0.878383 0.839057
0.317020 0.879234 0.879234
0.317869 0.880083 0.919334
0.312353 0.913818 0.269998
0.313269 0.914734 0.313269
0.314170 0.915635 0.355808
0.315061 0.916526 0.397891
0.315945 0.917410 0.439640
0.316823 0.918288 0.481127
0.317697 0.919162 0.522398
0.318567 0.920032 0.563486
0.319433 0.920898 0.604415
0.320297 0.921762 0.645204
0.321158 0.922623 0.685866
0.322016 0.923481 0.726414
0.322873 0.924338 0.766859
0.323727 0.925192 0.807207
0.324579 0.926044 0.847467
0.325430 0.926895 0.887644
0.326279 0.927744 0.927744
0.218695 0.134701 0.134701
0.219611 0.135617 0.177972
0.220511 0.136517 0.220511
0.221402 0.137408 0.262594
0.222286 0.138292 0.304343
0.223165 0.139171 0.345830
0.224038 0.140044 0.387101
0.224908 0.140914 0.428189
0.225775 0.141781 0.469118
0.226639 0.142645 0.509907
0.227499 0.143505 0.550569
0.228358 0.144364 0.591117
0.229214 0.145220 0.631562
0.230069 0.146075 0.671910
0.230921 0.146927 0.712170
0.231772 0.147778 0.752347
0.232621 0.148627 0.792447
0.227770 0.186131 0.143776
0.228686 0.187047 0.187047
0.229587 0.187948 0.229587
0.230478 0.188839 0.271669
0.231362 0.189723 0.313418
0.232240 0.190601 0.354905
0.233114 0.191475 0.396176
0.233984 0.192345 0.437265
0.234850 0.193212 0.478194
0.235714 0.194075 0.518982
0.236575 0.194936 0.559644
0.237433 0.195795 0.600193
0.238290 0.196651 0.640637
0.239144 0.197505 0.680985
0.239996 0.198358 0.721245
0.240847 0.199208 0.761422
0.241696 0.200057 0.801522
0.236692 0.236692 0.152698
0.237608 0.237608 0.195969
0.238508 0.238508 0.238508
0.239399 0.239399 0.280591
0.240283 0.240283 0.322340
0.241162 0.241162 0.363827
0.242036 0.242036 0.405098
0.242906 0.242906 0.446186
0.243772 0.243772 0.487115
0.244636 0.244636 0.527904
0.245497 0.245497 0.568566
0.246355 0.246355 0.609114
0.247211 0.247211 0.649559
0.248066 0.248066 0.689907
0.248918 0.248918 0.730167
0.249769 0.249769 0.770344
0.250618 0.250618 0.810444
0.245518 0.286709 0.161524
0.246434 0.287625 0.204795
0.247334 0.288526 0.247334
0.248225 0.289417 0.289417
0.249109 0.290300 0.331166
0.249988 0.291179 0.372653
0.250861 0.292053 0.413924
0.251731 0.292923 0.455012
0.252598 0.293789 0.495941
0.253462 0.294653 0.536730
0.254322 0.295514 0.577392
0.255181 0.296372 0.617940
0.256037 0.297228 0.658385
0.256892 0.298083 0.698733
0.257744 0.298935 0.738993
0.258595 0.299786 0.779170
0.259444 0.300635 0.819270
0.254274 0.336330 0.170280
0.255190 0.337246 0.213551
0.256090 0.338147 0.256090
0.256981 0.339038 0.298173
0.257865 0.339922 0.339922
0.258744 0.340800 0.381409
0.259617 0.341674 0.422680
0.260487 0.342544 0.463768
0.261354 0.343410 0.504697
0.262218 0.344274 0.545486
0.263079 0.345135 0.586148
0.263937 0.345993 0.626696
0.264793 0.346850 0.667141
0.265648 0.347704 0.707489
0.266500 0.348556 0.747749
0.267351 0.349407 0.787926
0.268200 0.350256 0.828026
0.262975 0.385640 0.178981
0.263891 0.386556 0.222252
0.264791 0.387456 0.264791
0.265682 0.388347 0.306874
0.266566 0.389231 0.348623
0.267445 0.390110 0.390110
0.268319 0.390984 0.431381
0.269189 0.391854 0.472469
0.270055 0.392720 0.513398
0.270919 0.393584 0.554187
0.271780 0.394445 0.594849
0.272638 0.395303 0.635397
0.273494 0.396159 0.675842
0.274349 0.397014 0.716190
0.275201 0.397866 0.756450
0.276052 0.398717 0.796627
0.276901 0.399566 0.836727
0.271631 0.434693 0.187636
0.272547 0.435609 0.230908
0.273447 0.436510 0.273447
0.274338 0.437401 0.315529
0.275222 0.438285 0.357279
0.276101 0.439163 0.398766
0.276974 0.440037 0.440037
0.277844 0.440907 0.481125
0.278711 0.441774 0.522054
0.279575 0.442637 0.562843
0.280435 0.443498 0.603505
0.281294 0.444357 0.644053
0.282150 0.445213 0.684498
0.283005 0.446067 0.724846
0.283857 0.446920 0.765106
0.284708 0.447770 0.805283
0.285557 0.448619 0.845383
0.280248 0.483529 0.196254
0.281164 0.484445 0.239525
0.282065 0.485346 0.282065
0.282956 0.486237 0.324147
0.283840 0.487121 0.365896
0.284718 0.487999 0.407383
0.285592 0.488873 0.448654
0.286462 0.489743 0.489743
0.287328 0.490609 0.530672
0.288192 0.491473 0.571460
0.289053 0.492334 0.612122
0.289911 0.493192 0.652671
0.290768 0.494049 0.693115
0.291622 0.494903 0.733463
0.292474 0.495755 0.773723
0.293325 0.496606 0.813900
0.294174 0.497455 0.854000
0.288832 0.532175 0.204838
0.289748 0.533092 0.248109
0.290649 0.533992 0.290649
0.291540 0.534883 0.332731
0.292424 0.535767 0.374480
0.293302 0.536645 0.415967
0.294176 0.537519 0.457239
0.295046 0.538389 0.498327
0.295912 0.539256 0.539256
0.296776 0.540119 0.580044
0.297637 0.540980 0.620706
0.298495 0.541839 0.661255
0.299352 0.542695 0.701699
0.300206 0.543549 0.742047
0.301058 0.544402 0.782307
0.301909 0.545252 0.822484
0.302758 0.546101 0.862584
0.297387 0.580655 0.213393
0.298303 0.581571 0.256664
0.299203 0.582471 0.299203
0.300094 0.583362 0.341285
0.300978 0.584246 0.383035
0.301857 0.585125 0.424522
0.302730 0.585999 0.465793
0.303600 0.586869 0.506881
0.304467 0.587735 0.547810
0.305331 0.588599 0.588599
0.306191 0.589460 0.629261
0.307050 0.590318 0.669809
0.307906 0.591174 0.710254
0.308761 0.592029 0.750602
0.309613 0.592881 0.790862
0.310464 0.593732 0.831039
0.311313 0.594581 0.871139
0.305915 0.628984 0.221921
0.306831 0.629900 0.265192
0.307731 0.630801 0.307731
0.308622 0.631692 0.349814
0.309506 0.632576 0.391563
0.310385 0.633454 0.433050
0.311259 0.634328 0.474321
0.312128 0.635198 0.515409
0.312995 0.636065 0.556338
0.313859 0.636928 0.597127
0.314720 0.637789 0.637789
0.315578 0.638648 0.678337
0.316434 0.639504 0.718782
0.317289 0.640358 0.759130
0.318141 0.641211 0.799390
0.318992 0.642061 0.839567
0.319841 0.642910 0.879667
0.314419 0.677178 0.230425
0.315335 0.678094 0.273696
0.316236 0.678995 0.316236
0.317127 0.679886 0.358318
0.318011 0.680770 0.400067
0.318889 0.681648 0.441554
0.319763 0.682522 0.482825
0.320633 0.683392 0.523914
0.321499 0.684259 0.564843
0.322363 0.685122 0.605631
0.323224 0.685983 0.646293
0.324082 0.686842 0.686842
0.324939 0.687698 0.727286
0.325793 0.688552 0.767634
0.326645 0.689405 0.807894
0.327496 0.690255 0.848071
0.328345 0.691104 0.888171
0.322901 0.725248 0.238907
0.323817 0.726165 0.282179
0.324718 0.727065 0.324718
0.325609 0.727956 0.366800
0.326493 0.728840 0.408549
0.327371 0.729719 0.450036
0.328245 0.730592 0.491308
0.329115 0.731462 0.532396
0.329982 0.732329 0.573325
0.330845 0.733193 0.614113
0.331706 0.734053 0.654776
0.332565 0.734912 0.695324
0.333421 0.735768 0.735768
0.334275 0.736623 0.776117
0.335128 0.737475 0.816376
0.335978 0.738326 0.856554
0.336827 0.739175 0.896654
0.331363 0.773205 0.247369
0.332280 0.774121 0.290641
0.333180 0.775022 0.333180
0.334071 0.775913 0.375262
0.334955 0.776797 0.417011
0.335834 0.777675 0.458499
0.336707 0.778549 0.499770
0.337577 0.779419 0.540858
0.338444 0.780285 0.581787
0.339307 0.781149 0.622576
0.340168 0.782010 0.663238
0.341027 0.782868 0.703786
0.341883 0.783725 0.744231
0.342737 0.784579 0.784579
0.343590 0.785431 0.824839
0.344441 0.786282 0.865016
0.345290 0.787131 0.905116
0.339807 0.821056 0.255813
0.340723 0.821972 0.299085
0.341624 0.822873 0.341624
0.342515 0.823764 0.383706
0.343399 0.824648 0.425455
0.344277 0.825526 0.466942
0.345151 0.826400 0.508214
0.346021 0.827270 0.549302
0.346888 0.828136 0.590231
0.347751 0.829000 0.631019
0.348612 0.829861 0.671682
0.349471 0.830719 0.712230
0.350327 0.831576 0.752674
0.351181 0.832430 0.793023
0.352034 0.833282 0.833282
0.352884 0.834133 0.873459
0.353733 0.834982 0.913559
0.348233 0.868809 0.264239
0.349150 0.869725 0.307511
0.350050 0.870626 0.350050
0.350941 0.871517 0.392132
0.351825 0.872401 0.433881
0.352704 0.873279 0.475369
0.353577 0.874153 0.516640
0.354447 0.875023 0.557728
0.355314 0.875889 0.598657
0.356178 0.876753 0.639446
0.357038 0.877614 0.680108
0.357897 0.878472 0.720656
0.358753 0.879329 0.761101
0.359608 0.880183 0.801449
0.360460 0.881035 0.841709
0.361311 0.881886 0.881886
0.362160 0.882735 0.921986
0.356644 0.916470 0.272650
0.357560 0.917386 0.315921
0.358460 0.918287 0.358460
0.359351 0.919178 0.400543
0.360235 0.920062 0.442292
0.361114 0.920940 0.483779
0.361988 0.921814 0.525050
0.362858 0.922684 0.566138
0.363724 0.923550 0.607067
0.364588 0.924414 0.647856
0.365449 0.925275 0.688518
0.366307 0.926133 0.729067
0.367163 0.926990 0.769511
0.368018 0.927844 0.809859
0.368870 0.928696 0.850119
0.369721 0.929547 0.890296
0.370570 0.930396 0.930396
0.262509 0.137324 0.137324
0.263425 0.138240 0.180596
0.264326 0.139141 0.223135
0.265217 0.140032 0.265217
0.266101 0.140916 0.306966
0.266979 0.141794 0.348453
0.267853 0.142668 0.389725
0.268723 0.143538 0.430813
0.269590 0.144405 0.471742
0.270453 0.145268 0.512530
0.271314 0.146129 0.553193
0.272173 0.146988 0.593741
0.273029 0.147844 0.634185
0.273883 0.148698 0.674534
0.274736 0.149551 0.714793
0.275586 0.150401 0.754970
0.276435 0.151250 0.795070
0.271585 0.188755 0.146399
