skills/editops-orchestrator/assets/grade/luts/vintage_fade_v16.cube
TITLE "vintage_fade_v16"
LUT_3D_SIZE 5
DOMAIN_MIN 0.0 0.0 0.0
DOMAIN_MAX 1.0 1.0 1.0
0.145738 0.145738 0.145738
0.149606 0.149606 0.307213
0.153356 0.153356 0.463752
0.157048 0.157048 0.617883
0.160701 0.160701 0.770398
0.184053 0.341661 0.184053
0.187921 0.345529 0.345529
0.191671 0.349278 0.502068
0.195363 0.352971 0.656198
0.199017 0.356624 0.808714
0.221198 0.531595 0.221198
0.225066 0.535463 0.382673
0.228815 0.539212 0.539212
0.232507 0.542904 0.693343
0.236161 0.546558 0.845858
0.257770 0.718606 0.257770
0.261638 0.722474 0.419246
0.265388 0.726223 0.575785
0.269080 0.729915 0.729915
0.272733 0.733569 0.882431
0.293960 0.903657 0.293960
0.297828 0.907525 0.455435
0.301578 0.911275 0.611974
0.305270 0.914967 0.766105
0.308923 0.918620 0.918620
0.314735 0.157128 0.157128
0.318603 0.160996 0.318603
0.322353 0.164745 0.475142
0.326045 0.168437 0.629273
0.329698 0.172091 0.781788
0.353050 0.353050 0.195443
0.356918 0.356918 0.356918
0.360668 0.360668 0.513458
0.364360 0.364360 0.667588
0.368014 0.368014 0.820103
0.390195 0.542984 0.232587
0.394063 0.546852 0.394063
0.397812 0.550602 0.550602
0.401504 0.554294 0.704732
0.405158 0.557947 0.857248
0.426767 0.729995 0.269160
0.430635 0.733863 0.430635
0.434385 0.737613 0.587175
0.438077 0.741305 0.741305
0.441731 0.744958 0.893820
0.462957 0.915047 0.305350
0.466825 0.918915 0.466825
0.470575 0.922665 0.623364
0.474267 0.926357 0.777495
0.477920 0.930010 0.930010
0.478566 0.168169 0.168169
0.482434 0.172037 0.329644
0.486184 0.175787 0.486184
0.489876 0.179479 0.640314
0.493529 0.183132 0.792829
0.516881 0.364092 0.206485
0.520749 0.367960 0.367960
0.524499 0.371710 0.524499
0.528191 0.375402 0.678630
0.531845 0.379055 0.831145
0.554026 0.554026 0.243629
0.557894 0.557894 0.405104
0.561643 0.561643 0.561643
0.565335 0.565335 0.715774
0.568989 0.568989 0.868289
0.590598 0.741037 0.280202
0.594466 0.744905 0.441677
0.598216 0.748654 0.598216
0.601908 0.752347 0.752347
0.605562 0.756000 0.904862
0.626788 0.926088 0.316391
0.630656 0.929956 0.477866
0.634406 0.933706 0.634406
0.638098 0.937398 0.788536
0.641751 0.941051 0.941051
0.639876 0.179041 0.179041
0.643744 0.182909 0.340516
0.647494 0.186658 0.497055
0.651186 0.190350 0.651186
0.654839 0.194004 0.803701
0.678191 0.374963 0.217356
0.682059 0.378831 0.378831
0.685809 0.382581 0.535371
0.689501 0.386273 0.689501
0.693154 0.389927 0.842017
0.715336 0.564897 0.254500
0.719204 0.568765 0.415976
0.722953 0.572515 0.572515
0.726645 0.576207 0.726645
0.730299 0.579860 0.879161
0.751908 0.751908 0.291073
0.755776 0.755776 0.452548
0.759526 0.759526 0.609088
0.763218 0.763218 0.763218
0.766871 0.766871 0.915734
0.788098 0.936960 0.327263
0.791966 0.940828 0.488738
0.795716 0.944578 0.645277
0.799408 0.948270 0.799408
0.803061 0.951923 0.951923
0.799496 0.189798 0.189798
0.803364 0.193666 0.351274
0.807113 0.197416 0.507813
0.810805 0.201108 0.661943
0.814459 0.204761 0.814459
0.837811 0.385721 0.228114
0.841679 0.389589 0.389589
0.845429 0.393339 0.546128
0.849121 0.397031 0.700259
0.852774 0.400684 0.852774
0.874955 0.575655 0.265258
0.878823 0.579523 0.426733
0.882573 0.583273 0.583273
0.886265 0.586965 0.737403
0.889918 0.590618 0.889918
0.911528 0.762666 0.301831
0.915396 0.766534 0.463306
0.919146 0.770284 0.619845
0.922838 0.773976 0.773976
0.926491 0.777629 0.926491
0.947718 0.947718 0.338020
0.951586 0.951586 0.499496
0.955335 0.955335 0.656035
0.959027 0.959027 0.810165
0.962681 0.962681 0.962681
