skills/editops-orchestrator/assets/grade/luts/vintage_fade_v08.cube
TITLE "vintage_fade_v08"
LUT_3D_SIZE 17
DOMAIN_MIN 0.0 0.0 0.0
DOMAIN_MAX 1.0 1.0 1.0
0.079531 0.079531 0.079531
0.080210 0.080210 0.129191
0.080879 0.080879 0.178119
0.081542 0.081542 0.226632
0.082201 0.082201 0.274854
0.082857 0.082857 0.322850
0.083511 0.083511 0.370664
0.084162 0.084162 0.418324
0.084812 0.084812 0.465850
0.085460 0.085460 0.513259
0.086107 0.086107 0.560563
0.086752 0.086752 0.607773
0.087397 0.087397 0.654896
0.088040 0.088040 0.701941
0.088682 0.088682 0.748912
0.089323 0.089323 0.795815
0.089963 0.089963 0.842655
0.086256 0.135237 0.086256
0.086935 0.135916 0.135916
0.087604 0.136585 0.184844
0.088267 0.137248 0.233357
0.088926 0.137907 0.281579
0.089582 0.138563 0.329575
0.090236 0.139217 0.377389
0.090887 0.139868 0.425049
0.091537 0.140518 0.472575
0.092185 0.141166 0.519984
0.092832 0.141813 0.567288
0.093477 0.142458 0.614498
0.094122 0.143103 0.661621
0.094765 0.143746 0.708666
0.095407 0.144388 0.755637
0.096048 0.145029 0.802540
0.096688 0.145669 0.849380
0.092882 0.190122 0.092882
0.093561 0.190801 0.142542
0.094229 0.191470 0.191470
0.094893 0.192133 0.239983
0.095552 0.192792 0.288204
0.096208 0.193448 0.336201
0.096862 0.194102 0.384015
0.097513 0.194753 0.431674
0.098163 0.195403 0.479201
0.098811 0.196051 0.526609
0.099458 0.196698 0.573914
0.100103 0.197343 0.621123
0.100747 0.197988 0.668247
0.101391 0.198631 0.715291
0.102033 0.199273 0.762263
0.102674 0.199914 0.809166
0.103314 0.200554 0.856006
0.099451 0.244541 0.099451
0.100130 0.245220 0.149111
0.100799 0.245889 0.198039
0.101462 0.246552 0.246552
0.102122 0.247212 0.294774
0.102778 0.247868 0.342771
0.103431 0.248521 0.390585
0.104083 0.249173 0.438244
0.104733 0.249823 0.485770
0.105381 0.250471 0.533179
0.106027 0.251118 0.580483
0.106673 0.251763 0.627693
0.107317 0.252407 0.674817
0.107960 0.253050 0.721861
0.108602 0.253692 0.768832
0.109243 0.254334 0.815736
0.109884 0.254974 0.862575
0.105982 0.298634 0.105982
0.106660 0.299313 0.155641
0.107329 0.299982 0.204569
0.107992 0.300645 0.253083
0.108652 0.301304 0.301304
0.109308 0.301960 0.349301
0.109962 0.302614 0.397115
0.110613 0.303266 0.444774
0.111263 0.303915 0.492300
0.111911 0.304563 0.539709
0.112558 0.305210 0.587014
0.113203 0.305856 0.634223
0.113847 0.306500 0.681347
0.114490 0.307143 0.728391
0.115132 0.307785 0.775363
0.115774 0.308426 0.822266
0.116414 0.309067 0.869106
0.112481 0.352474 0.112481
0.113160 0.353153 0.162141
0.113829 0.353822 0.211069
0.114492 0.354485 0.259582
0.115151 0.355145 0.307804
0.115808 0.355801 0.355801
0.116461 0.356454 0.403614
0.117113 0.357106 0.451274
0.117762 0.357756 0.498800
0.118411 0.358404 0.546209
0.119057 0.359050 0.593513
0.119703 0.359696 0.640723
0.120347 0.360340 0.687847
0.120990 0.360983 0.734891
0.121632 0.361625 0.781862
0.122273 0.362266 0.828766
0.122914 0.362907 0.875605
0.118956 0.406109 0.118956
0.119635 0.406788 0.168616
0.120304 0.407457 0.217544
0.120967 0.408120 0.266057
0.121626 0.408780 0.314279
0.122283 0.409436 0.362276
0.122936 0.410089 0.410089
0.123588 0.410741 0.457749
0.124237 0.411391 0.505275
0.124886 0.412039 0.552684
0.125532 0.412685 0.599988
0.126178 0.413331 0.647198
0.126822 0.413975 0.694321
0.127465 0.414618 0.741366
0.128107 0.415260 0.788337
0.128748 0.415901 0.835241
0.129389 0.416542 0.882080
0.125410 0.459571 0.125410
0.126089 0.460250 0.175070
0.126758 0.460919 0.223998
0.127421 0.461582 0.272511
0.128080 0.462242 0.320733
0.128737 0.462898 0.368730
0.129390 0.463551 0.416543
0.130042 0.464203 0.464203
0.130691 0.464853 0.511729
0.131340 0.465501 0.559138
0.131986 0.466147 0.606442
0.132632 0.466793 0.653652
0.133276 0.467437 0.700776
0.133919 0.468080 0.747820
0.134561 0.468722 0.794791
0.135202 0.469363 0.841695
0.135843 0.470004 0.888534
0.131846 0.512884 0.131846
0.132525 0.513563 0.181506
0.133194 0.514232 0.230434
0.133857 0.514895 0.278947
0.134516 0.515554 0.327169
0.135173 0.516210 0.375166
0.135826 0.516864 0.422979
0.136478 0.517515 0.470639
0.137127 0.518165 0.518165
0.137776 0.518813 0.565574
0.138422 0.519460 0.612878
0.139068 0.520105 0.660088
0.139712 0.520749 0.707212
0.140355 0.521393 0.754256
0.140997 0.522035 0.801227
0.141638 0.522676 0.848131
0.142279 0.523316 0.894970
0.138266 0.566065 0.138266
0.138945 0.566744 0.187926
0.139614 0.567412 0.236854
0.140277 0.568076 0.285367
0.140937 0.568735 0.333589
0.141593 0.569391 0.381586
0.142246 0.570045 0.429400
0.142898 0.570696 0.477059
0.143548 0.571346 0.524585
0.144196 0.571994 0.571994
0.144842 0.572641 0.619298
0.145488 0.573286 0.666508
0.146132 0.573930 0.713632
0.146775 0.574574 0.760676
0.147417 0.575216 0.807647
0.148058 0.575857 0.854551
0.148699 0.576497 0.901390
0.144672 0.619128 0.144672
0.145351 0.619807 0.194332
0.146020 0.620476 0.243260
0.146683 0.621139 0.291773
0.147342 0.621798 0.339995
0.147999 0.622455 0.387992
0.148652 0.623108 0.435805
0.149304 0.623760 0.483465
0.149954 0.624409 0.530991
0.150602 0.625058 0.578400
0.151248 0.625704 0.625704
0.151894 0.626350 0.672914
0.152538 0.626994 0.720038
0.153181 0.627637 0.767082
0.153823 0.628279 0.814053
0.154464 0.628920 0.860957
0.155105 0.629561 0.907796
0.151065 0.672086 0.151065
0.151744 0.672765 0.200725
0.152413 0.673433 0.249653
0.153076 0.674097 0.298166
0.153736 0.674756 0.346388
0.154392 0.675412 0.394385
0.155045 0.676066 0.442199
0.155697 0.676717 0.489858
0.156347 0.677367 0.537384
0.156995 0.678015 0.584793
0.157641 0.678662 0.632097
0.158287 0.679307 0.679307
0.158931 0.679951 0.726431
0.159574 0.680594 0.773475
0.160216 0.681237 0.820446
0.160858 0.681878 0.867350
0.161498 0.682518 0.914189
0.157447 0.724947 0.157447
0.158126 0.725625 0.207107
0.158795 0.726294 0.256035
0.159458 0.726957 0.304548
0.160117 0.727617 0.352770
0.160773 0.728273 0.400766
0.161427 0.728927 0.448580
0.162078 0.729578 0.496240
0.162728 0.730228 0.543766
0.163376 0.730876 0.591175
0.164023 0.731523 0.638479
0.164668 0.732168 0.685689
0.165313 0.732812 0.732812
0.165956 0.733455 0.779857
0.166598 0.734097 0.826828
0.167239 0.734739 0.873731
0.167879 0.735379 0.920571
0.163818 0.777719 0.163818
0.164496 0.778397 0.213477
0.165165 0.779066 0.262406
0.165829 0.779730 0.310919
0.166488 0.780389 0.359140
0.167144 0.781045 0.407137
0.167798 0.781699 0.454951
0.168449 0.782350 0.502610
0.169099 0.783000 0.550136
0.169747 0.783648 0.597545
0.170394 0.784295 0.644850
0.171039 0.784940 0.692059
0.171683 0.785584 0.739183
0.172326 0.786227 0.786227
0.172969 0.786870 0.833199
0.173610 0.787511 0.880102
0.174250 0.788151 0.926942
0.170178 0.830409 0.170178
0.170857 0.831087 0.219838
0.171526 0.831756 0.268766
0.172189 0.832420 0.317280
0.172849 0.833079 0.365501
0.173505 0.833735 0.413498
0.174158 0.834389 0.461312
0.174810 0.835040 0.508971
0.175460 0.835690 0.556497
0.176108 0.836338 0.603906
0.176755 0.836985 0.651211
0.177400 0.837630 0.698420
0.178044 0.838274 0.745544
0.178687 0.838917 0.792588
0.179329 0.839560 0.839560
0.179971 0.840201 0.886463
0.180611 0.840841 0.933303
0.176530 0.883022 0.176530
0.177209 0.883701 0.226190
0.177878 0.884370 0.275118
0.178541 0.885033 0.323631
0.179200 0.885693 0.371853
0.179856 0.886349 0.419850
0.180510 0.887002 0.467663
0.181162 0.887654 0.515323
0.181811 0.888304 0.562849
0.182459 0.888952 0.610258
0.183106 0.889598 0.657562
0.183752 0.890244 0.704772
0.184396 0.890888 0.751895
0.185039 0.891531 0.798940
0.185681 0.892173 0.845911
0.186322 0.892814 0.892814
0.186963 0.893455 0.939654
0.182873 0.935565 0.182873
0.183552 0.936244 0.232533
0.184221 0.936913 0.281461
0.184884 0.937576 0.329974
0.185543 0.938235 0.378196
0.186199 0.938891 0.426193
0.186853 0.939545 0.474006
0.187505 0.940196 0.521666
0.188154 0.940846 0.569192
0.188803 0.941494 0.616601
0.189449 0.942141 0.663905
0.190095 0.942786 0.711115
0.190739 0.943430 0.758238
0.191382 0.944074 0.805283
0.192024 0.944716 0.852254
0.192665 0.945357 0.899157
0.193306 0.945997 0.945997
0.130511 0.081530 0.081530
0.131190 0.082209 0.131190
0.131859 0.082878 0.180118
0.132522 0.083541 0.228631
0.133181 0.084200 0.276853
0.133837 0.084856 0.324849
0.134491 0.085510 0.372663
0.135142 0.086162 0.420323
0.135792 0.086811 0.467849
0.136440 0.087459 0.515258
0.137087 0.088106 0.562562
0.137732 0.088751 0.609772
0.138377 0.089396 0.656895
0.139020 0.090039 0.703940
0.139662 0.090681 0.750911
0.140303 0.091322 0.797814
0.140943 0.091962 0.844654
0.137236 0.137236 0.088255
0.137915 0.137915 0.137915
0.138584 0.138584 0.186843
0.139247 0.139247 0.235356
0.139906 0.139906 0.283578
0.140562 0.140562 0.331574
0.141216 0.141216 0.379388
0.141867 0.141867 0.427048
0.142517 0.142517 0.474574
0.143165 0.143165 0.521983
0.143812 0.143812 0.569287
0.144457 0.144457 0.616497
0.145102 0.145102 0.663620
0.145745 0.145745 0.710665
0.146387 0.146387 0.757636
0.147028 0.147028 0.804539
0.147668 0.147668 0.851379
0.143862 0.192121 0.094881
0.144541 0.192800 0.144541
0.145209 0.193469 0.193469
0.145873 0.194132 0.241982
0.146532 0.194791 0.290203
0.147188 0.195447 0.338200
0.147842 0.196101 0.386014
0.148493 0.196752 0.433673
0.149143 0.197402 0.481200
0.149791 0.198050 0.528609
0.150438 0.198697 0.575913
0.151083 0.199342 0.623123
0.151727 0.199987 0.670246
0.152371 0.200630 0.717291
0.153013 0.201272 0.764262
0.153654 0.201913 0.811165
0.154294 0.202553 0.858005
0.150431 0.246541 0.101450
0.151110 0.247219 0.151110
0.151779 0.247888 0.200038
0.152442 0.248552 0.248552
0.153102 0.249211 0.296773
0.153758 0.249867 0.344770
0.154411 0.250521 0.392584
0.155063 0.251172 0.440243
0.155713 0.251822 0.487769
0.156361 0.252470 0.535178
0.157007 0.253117 0.582482
0.157653 0.253762 0.629692
0.158297 0.254406 0.676816
0.158940 0.255049 0.723860
0.159582 0.255691 0.770831
0.160224 0.256333 0.817735
0.160864 0.256973 0.864575
0.156962 0.300633 0.107981
0.157640 0.301312 0.157640
0.158309 0.301981 0.206568
0.158973 0.302644 0.255082
0.159632 0.303303 0.303303
0.160288 0.303959 0.351300
0.160942 0.304613 0.399114
0.161593 0.305265 0.446773
0.162243 0.305914 0.494299
0.162891 0.306562 0.541708
0.163538 0.307209 0.589013
0.164183 0.307855 0.636222
0.164827 0.308499 0.683346
0.165470 0.309142 0.730390
0.166112 0.309784 0.777362
0.166754 0.310425 0.824265
0.167394 0.311066 0.871105
0.163461 0.354473 0.114480
0.164140 0.355152 0.164140
0.164809 0.355821 0.213068
0.165472 0.356484 0.261581
0.166131 0.357144 0.309803
0.166788 0.357800 0.357800
0.167441 0.358453 0.405613
0.168093 0.359105 0.453273
0.168743 0.359755 0.500799
0.169391 0.360403 0.548208
0.170037 0.361049 0.595512
0.170683 0.361695 0.642722
0.171327 0.362339 0.689846
0.171970 0.362982 0.736890
0.172612 0.363624 0.783861
0.173253 0.364266 0.830765
0.173894 0.364906 0.877604
0.169936 0.408108 0.120955
0.170615 0.408787 0.170615
0.171284 0.409456 0.219543
0.171947 0.410119 0.268056
0.172606 0.410779 0.316278
0.173263 0.411435 0.364275
0.173916 0.412088 0.412088
0.174568 0.412740 0.459748
0.175217 0.413390 0.507274
0.175866 0.414038 0.554683
0.176512 0.414684 0.601987
0.177158 0.415330 0.649197
0.177802 0.415974 0.696321
0.178445 0.416617 0.743365
0.179087 0.417259 0.790336
0.179728 0.417901 0.837240
0.180369 0.418541 0.884079
0.176390 0.461570 0.127409
0.177069 0.462249 0.177069
0.177738 0.462918 0.225997
0.178401 0.463581 0.274510
0.179060 0.464241 0.322732
0.179717 0.464897 0.370729
0.180370 0.465550 0.418542
0.181022 0.466202 0.466202
0.181671 0.466852 0.513728
0.182320 0.467500 0.561137
0.182966 0.468146 0.608441
0.183612 0.468792 0.655651
0.184256 0.469436 0.702775
0.184899 0.470079 0.749819
0.185541 0.470721 0.796790
0.186182 0.471363 0.843694
0.186823 0.472003 0.890533
0.182826 0.514883 0.133845
0.183505 0.515562 0.183505
0.184174 0.516231 0.232433
0.184837 0.516894 0.280946
0.185496 0.517553 0.329168
0.186153 0.518209 0.377165
0.186806 0.518863 0.424978
0.187458 0.519514 0.472638
0.188107 0.520164 0.520164
0.188756 0.520812 0.567573
0.189402 0.521459 0.614877
0.190048 0.522104 0.662087
0.190692 0.522749 0.709211
0.191335 0.523392 0.756255
0.191977 0.524034 0.803226
0.192618 0.524675 0.850130
0.193259 0.525315 0.896969
0.189246 0.568064 0.140265
0.189925 0.568743 0.189925
0.190594 0.569412 0.238853
0.191257 0.570075 0.287366
0.191917 0.570734 0.335588
0.192573 0.571390 0.383585
0.193226 0.572044 0.431399
0.193878 0.572695 0.479058
0.194528 0.573345 0.526584
0.195176 0.573993 0.573993
0.195822 0.574640 0.621297
0.196468 0.575285 0.668507
0.197112 0.575929 0.715631
0.197755 0.576573 0.762675
0.198397 0.577215 0.809646
0.199038 0.577856 0.856550
0.199679 0.578496 0.903389
0.195652 0.621127 0.146671
0.196331 0.621806 0.196331
0.197000 0.622475 0.245259
0.197663 0.623138 0.293772
0.198322 0.623797 0.341994
0.198979 0.624454 0.389991
0.199632 0.625107 0.437804
0.200284 0.625759 0.485464
0.200934 0.626409 0.532990
0.201582 0.627057 0.580399
0.202228 0.627703 0.627703
0.202874 0.628349 0.674913
0.203518 0.628993 0.722037
0.204161 0.629636 0.769081
0.204803 0.630278 0.816052
0.205444 0.630919 0.862956
0.206085 0.631560 0.909795
0.202045 0.674085 0.153064
0.202724 0.674764 0.202724
0.203393 0.675433 0.251652
0.204056 0.676096 0.300166
0.204716 0.676755 0.348387
0.205372 0.677411 0.396384
0.206025 0.678065 0.444198
0.206677 0.678716 0.491857
0.207327 0.679366 0.539383
0.207975 0.680014 0.586792
0.208621 0.680661 0.634096
0.209267 0.681306 0.681306
0.209911 0.681950 0.728430
0.210554 0.682594 0.775474
0.211196 0.683236 0.822446
0.211838 0.683877 0.869349
0.212478 0.684517 0.916189
0.208427 0.726946 0.159446
0.209106 0.727624 0.209106
0.209775 0.728293 0.258034
0.210438 0.728957 0.306547
0.211097 0.729616 0.354769
0.211753 0.730272 0.402765
0.212407 0.730926 0.450579
0.213058 0.731577 0.498239
0.213708 0.732227 0.545765
0.214356 0.732875 0.593174
0.215003 0.733522 0.640478
0.215648 0.734167 0.687688
0.216293 0.734811 0.734811
0.216936 0.735454 0.781856
0.217578 0.736097 0.828827
0.218219 0.736738 0.875730
0.218859 0.737378 0.922570
0.214798 0.779718 0.165817
0.215477 0.780397 0.215477
0.216145 0.781065 0.264405
0.216809 0.781729 0.312918
0.217468 0.782388 0.361139
0.218124 0.783044 0.409136
0.218778 0.783698 0.456950
0.219429 0.784349 0.504609
0.220079 0.784999 0.552136
0.220727 0.785647 0.599544
0.221374 0.786294 0.646849
0.222019 0.786939 0.694058
0.222663 0.787583 0.741182
0.223306 0.788226 0.788226
0.223949 0.788869 0.835198
0.224590 0.789510 0.882101
0.225230 0.790150 0.928941
0.221158 0.832408 0.172178
0.221837 0.833087 0.221837
0.222506 0.833755 0.270765
0.223169 0.834419 0.319279
0.223829 0.835078 0.367500
0.224485 0.835734 0.415497
0.225138 0.836388 0.463311
0.225790 0.837039 0.510970
0.226440 0.837689 0.558496
0.227088 0.838337 0.605905
0.227735 0.838984 0.653210
0.228380 0.839629 0.700419
0.229024 0.840273 0.747543
0.229667 0.840916 0.794587
0.230309 0.841559 0.841559
0.230951 0.842200 0.888462
0.231591 0.842840 0.935302
0.227510 0.885021 0.178529
0.228189 0.885700 0.228189
0.228858 0.886369 0.277117
0.229521 0.887032 0.325630
0.230180 0.887692 0.373852
0.230836 0.888348 0.421849
0.231490 0.889001 0.469662
0.232142 0.889653 0.517322
0.232791 0.890303 0.564848
0.233439 0.890951 0.612257
0.234086 0.891597 0.659561
0.234732 0.892243 0.706771
0.235376 0.892887 0.753894
0.236019 0.893530 0.800939
0.236661 0.894172 0.847910
0.237302 0.894814 0.894814
0.237943 0.895454 0.941653
0.233853 0.937564 0.184872
0.234532 0.938243 0.234532
0.235201 0.938912 0.283460
0.235864 0.939575 0.331973
0.236523 0.940234 0.380195
0.237180 0.940890 0.428192
0.237833 0.941544 0.476005
0.238485 0.942195 0.523665
0.239134 0.942845 0.571191
0.239783 0.943493 0.618600
0.240429 0.944140 0.665904
0.241075 0.944785 0.713114
0.241719 0.945429 0.760238
0.242362 0.946073 0.807282
0.243004 0.946715 0.854253
0.243645 0.947356 0.901157
0.244286 0.947996 0.947996
0.180740 0.083500 0.083500
0.181419 0.084178 0.133159
0.182087 0.084847 0.182087
0.182751 0.085511 0.230601
0.183410 0.086170 0.278822
0.184066 0.086826 0.326819
0.184720 0.087480 0.374633
0.185371 0.088131 0.422292
0.186021 0.088781 0.469818
0.186669 0.089429 0.517227
0.187316 0.090076 0.564532
0.187961 0.090721 0.611741
0.188605 0.091365 0.658865
0.189249 0.092008 0.705909
0.189891 0.092651 0.752881
0.190532 0.093292 0.799784
0.191172 0.093932 0.846624
0.187465 0.139205 0.090225
0.188144 0.139884 0.139884
0.188812 0.140553 0.188812
0.189476 0.141216 0.237326
0.190135 0.141876 0.285547
0.190791 0.142532 0.333544
0.191445 0.143185 0.381358
0.192096 0.143837 0.429017
0.192746 0.144487 0.476543
0.193394 0.145135 0.523952
0.194041 0.145782 0.571257
0.194686 0.146427 0.618466
0.195330 0.147071 0.665590
0.195973 0.147714 0.712634
0.196616 0.148356 0.759606
0.197257 0.148998 0.806509
0.197897 0.149638 0.853349
0.194090 0.194090 0.096850
0.194769 0.194769 0.146510
0.195438 0.195438 0.195438
0.196101 0.196101 0.243951
0.196761 0.196761 0.292173
0.197417 0.197417 0.340170
0.198070 0.198070 0.387984
0.198722 0.198722 0.435643
0.199372 0.199372 0.483169
0.200020 0.200020 0.530578
0.200667 0.200667 0.577882
0.201312 0.201312 0.625092
0.201956 0.201956 0.672216
0.202599 0.202599 0.719260
0.203241 0.203241 0.766231
0.203883 0.203883 0.813135
0.204523 0.204523 0.859974
0.200660 0.248510 0.103420
0.201339 0.249189 0.153080
0.202008 0.249858 0.202008
0.202671 0.250521 0.250521
0.203330 0.251180 0.298743
0.203987 0.251836 0.346739
0.204640 0.252490 0.394553
0.205292 0.253142 0.442213
0.205941 0.253791 0.489739
0.206590 0.254439 0.537148
0.207236 0.255086 0.584452
0.207882 0.255732 0.631662
0.208526 0.256376 0.678785
0.209169 0.257019 0.725830
0.209811 0.257661 0.772801
0.210452 0.258302 0.819704
0.211093 0.258943 0.866544
0.207190 0.302603 0.109950
0.207869 0.303282 0.159610
0.208538 0.303950 0.208538
0.209201 0.304614 0.257051
0.209861 0.305273 0.305273
0.210517 0.305929 0.353270
0.211170 0.306583 0.401083
0.211822 0.307234 0.448743
0.212472 0.307884 0.496269
0.213120 0.308532 0.543678
0.213766 0.309179 0.590982
0.214412 0.309824 0.638192
0.215056 0.310468 0.685315
0.215699 0.311111 0.732360
0.216341 0.311754 0.779331
0.216982 0.312395 0.826235
0.217623 0.313035 0.873074
0.213690 0.356443 0.116450
0.214369 0.357122 0.166110
0.215038 0.357791 0.215038
0.215701 0.358454 0.263551
0.216360 0.359113 0.311773
0.217016 0.359769 0.359769
0.217670 0.360423 0.407583
0.218322 0.361075 0.455243
0.218971 0.361724 0.502769
0.219619 0.362372 0.550178
0.220266 0.363019 0.597482
0.220911 0.363664 0.644692
0.221556 0.364309 0.691815
0.222199 0.364952 0.738860
0.222841 0.365594 0.785831
0.223482 0.366235 0.832734
0.224123 0.366875 0.879574
0.220165 0.410078 0.122925
0.220844 0.410757 0.172585
0.221513 0.411426 0.221513
0.222176 0.412089 0.270026
0.222835 0.412748 0.318248
0.223491 0.413404 0.366244
0.224145 0.414058 0.414058
0.224797 0.414710 0.461717
0.225446 0.415359 0.509244
0.226094 0.416007 0.556653
0.226741 0.416654 0.603957
0.227386 0.417299 0.651167
0.228031 0.417944 0.698290
0.228674 0.418587 0.745335
0.229316 0.419229 0.792306
0.229957 0.419870 0.839209
0.230597 0.420510 0.886049
0.226619 0.463540 0.129379
0.227298 0.464219 0.179039
0.227967 0.464888 0.227967
0.228630 0.465551 0.276480
0.229289 0.466210 0.324702
0.229945 0.466866 0.372698
0.230599 0.467520 0.420512
0.231251 0.468172 0.468172
0.231900 0.468821 0.515698
0.232548 0.469469 0.563107
0.233195 0.470116 0.610411
0.233840 0.470761 0.657621
0.234485 0.471406 0.704744
0.235128 0.472049 0.751789
0.235770 0.472691 0.798760
0.236411 0.473332 0.845663
0.237051 0.473972 0.892503
0.233055 0.516852 0.135815
0.233734 0.517531 0.185475
0.234403 0.518200 0.234403
0.235066 0.518863 0.282916
0.235725 0.519523 0.331138
0.236381 0.520179 0.379134
0.237035 0.520832 0.426948
0.237687 0.521484 0.474608
0.238336 0.522134 0.522134
0.238984 0.522782 0.569543
0.239631 0.523429 0.616847
0.240276 0.524074 0.664057
0.240921 0.524718 0.711180
0.241564 0.525361 0.758225
0.242206 0.526003 0.805196
0.242847 0.526645 0.852099
0.243487 0.527285 0.898939
0.239475 0.570033 0.142235
0.240154 0.570712 0.191895
0.240823 0.571381 0.240823
0.241486 0.572044 0.289336
0.242145 0.572704 0.337558
0.242801 0.573360 0.385554
0.243455 0.574013 0.433368
0.244107 0.574665 0.481028
0.244756 0.575315 0.528554
0.245404 0.575963 0.575963
0.246051 0.576609 0.623267
0.246697 0.577255 0.670477
0.247341 0.577899 0.717600
0.247984 0.578542 0.764645
0.248626 0.579184 0.811616
0.249267 0.579826 0.858519
0.249908 0.580466 0.905359
0.245881 0.623097 0.148641
0.246560 0.623776 0.198301
0.247229 0.624445 0.247229
0.247892 0.625108 0.295742
0.248551 0.625767 0.343964
0.249207 0.626423 0.391960
0.249861 0.627077 0.439774
0.250513 0.627728 0.487434
0.251162 0.628378 0.534960
0.251810 0.629026 0.582369
0.252457 0.629673 0.629673
0.253103 0.630318 0.676883
0.253747 0.630963 0.724006
0.254390 0.631606 0.771051
0.255032 0.632248 0.818022
0.255673 0.632889 0.864925
0.256314 0.633529 0.911765
0.252274 0.676054 0.155034
0.252953 0.676733 0.204694
0.253622 0.677402 0.253622
0.254285 0.678065 0.302135
0.254944 0.678725 0.350357
0.255601 0.679381 0.398354
0.256254 0.680034 0.446167
0.256906 0.680686 0.493827
0.257555 0.681336 0.541353
0.258204 0.681984 0.588762
0.258850 0.682630 0.636066
0.259496 0.683276 0.683276
0.260140 0.683920 0.730399
0.260783 0.684563 0.777444
0.261425 0.685205 0.824415
0.262066 0.685846 0.871318
0.262707 0.686487 0.918158
0.258656 0.728915 0.161415
0.259335 0.729594 0.211075
0.260003 0.730263 0.260003
0.260667 0.730926 0.308517
0.261326 0.731585 0.356738
0.261982 0.732242 0.404735
0.262636 0.732895 0.452549
0.263287 0.733547 0.500208
0.263937 0.734196 0.547734
0.264585 0.734845 0.595143
0.265232 0.735491 0.642448
0.265877 0.736137 0.689657
0.266521 0.736781 0.736781
0.267164 0.737424 0.783825
0.267807 0.738066 0.830797
0.268448 0.738707 0.877700
0.269088 0.739348 0.924540
0.265026 0.781687 0.167786
0.265705 0.782366 0.217446
0.266374 0.783035 0.266374
0.267037 0.783698 0.314887
0.267697 0.784357 0.363109
0.268353 0.785014 0.411106
0.269006 0.785667 0.458919
0.269658 0.786319 0.506579
0.270308 0.786968 0.554105
0.270956 0.787617 0.601514
0.271602 0.788263 0.648818
0.272248 0.788909 0.696028
0.272892 0.789553 0.743152
0.273535 0.790196 0.790196
0.274177 0.790838 0.837167
0.274819 0.791479 0.884071
0.275459 0.792120 0.930910
0.271387 0.834377 0.174147
0.272066 0.835056 0.223807
0.272735 0.835725 0.272735
0.273398 0.836388 0.321248
0.274057 0.837047 0.369470
0.274714 0.837704 0.417467
0.275367 0.838357 0.465280
0.276019 0.839009 0.512940
0.276669 0.839659 0.560466
0.277317 0.840307 0.607875
0.277963 0.840953 0.655179
0.278609 0.841599 0.702389
0.279253 0.842243 0.749512
0.279896 0.842886 0.796557
0.280538 0.843528 0.843528
0.281179 0.844169 0.890431
0.281820 0.844810 0.937271
0.277739 0.886991 0.180499
0.278418 0.887670 0.230159
0.279087 0.888339 0.279087
0.279750 0.889002 0.327600
0.280409 0.889661 0.375821
0.281065 0.890317 0.423818
0.281719 0.890971 0.471632
0.282370 0.891623 0.519291
0.283020 0.892272 0.566818
0.283668 0.892920 0.614227
0.284315 0.893567 0.661531
0.284960 0.894212 0.708741
0.285605 0.894857 0.755864
0.286248 0.895500 0.802909
0.286890 0.896142 0.849880
0.287531 0.896783 0.896783
0.288171 0.897423 0.943623
0.284082 0.939533 0.186842
0.284761 0.940212 0.236502
0.285430 0.940881 0.285430
0.286093 0.941544 0.333943
0.286752 0.942204 0.382165
0.287408 0.942860 0.430161
0.288062 0.943513 0.477975
0.288713 0.944165 0.525634
0.289363 0.944815 0.573161
0.290011 0.945463 0.620570
0.290658 0.946109 0.667874
0.291303 0.946755 0.715084
0.291948 0.947399 0.762207
0.292591 0.948042 0.809252
0.293233 0.948684 0.856223
0.293874 0.949326 0.903126
0.294514 0.949966 0.949966
0.230543 0.085452 0.085452
0.231221 0.086131 0.135112
0.231890 0.086800 0.184040
0.232554 0.087463 0.232554
0.233213 0.088123 0.280775
0.233869 0.088779 0.328772
0.234523 0.089432 0.376586
0.235174 0.090084 0.424245
0.235824 0.090734 0.471771
0.236472 0.091382 0.519180
0.237119 0.092029 0.566485
0.237764 0.092674 0.613694
0.238408 0.093318 0.660818
0.239051 0.093961 0.707862
0.239694 0.094603 0.754834
0.240335 0.095245 0.801737
0.240975 0.095885 0.848577
0.237268 0.141158 0.092177
