skills/editops-orchestrator/assets/grade/luts/vintage_fade_v04.cube
TITLE "vintage_fade_v04"
LUT_3D_SIZE 5
DOMAIN_MIN 0.0 0.0 0.0
DOMAIN_MAX 1.0 1.0 1.0
0.045837 0.045837 0.045837
0.047815 0.047815 0.259203
0.049760 0.049760 0.468963
0.051690 0.051690 0.677179
0.053611 0.053611 0.884383
0.065432 0.276820 0.065432
0.067410 0.278798 0.278798
0.069355 0.280743 0.488558
0.071285 0.282673 0.696774
0.073206 0.284594 0.903978
0.084695 0.503898 0.084695
0.086674 0.505877 0.298062
0.088618 0.507821 0.507821
0.090549 0.509752 0.716037
0.092469 0.511673 0.923241
0.103817 0.729306 0.103817
0.105795 0.731284 0.317183
0.107740 0.733229 0.526943
0.109670 0.735159 0.735159
0.111591 0.737080 0.942363
0.122846 0.953617 0.122846
0.124824 0.955596 0.336212
0.126769 0.957540 0.545972
0.128699 0.959471 0.754188
0.130620 0.961392 0.961392
0.263050 0.051662 0.051662
0.265028 0.053640 0.265028
0.266973 0.055585 0.474788
0.268903 0.057515 0.683004
0.270824 0.059436 0.890208
0.282645 0.282645 0.071257
0.284623 0.284623 0.284623
0.286567 0.286567 0.494382
0.288498 0.288498 0.702598
0.290419 0.290419 0.909802
0.301908 0.509723 0.090520
0.303886 0.511701 0.303886
0.305831 0.513646 0.513646
0.307761 0.515576 0.721862
0.309682 0.517497 0.929066
0.321030 0.735130 0.109642
0.323008 0.737109 0.323008
0.324953 0.739053 0.532768
0.326883 0.740984 0.740984
0.328804 0.742905 0.948187
0.340059 0.959442 0.128671
0.342037 0.961420 0.342037
0.343981 0.963365 0.551796
0.345912 0.965295 0.760012
0.347833 0.967216 0.967216
0.476591 0.057388 0.057388
0.478569 0.059366 0.270754
0.480514 0.061311 0.480514
0.482444 0.063241 0.688730
0.484365 0.065162 0.895934
0.496186 0.288371 0.076983
0.498164 0.290349 0.290349
0.500109 0.292294 0.500109
0.502039 0.294224 0.708325
0.503960 0.296145 0.915529
0.515449 0.515449 0.096246
0.517428 0.517428 0.309612
0.519372 0.519372 0.519372
0.521303 0.521303 0.727588
0.523224 0.523224 0.934792
0.534571 0.740857 0.115368
0.536549 0.742835 0.328734
0.538494 0.744779 0.538494
0.540424 0.746710 0.746710
0.542345 0.748631 0.953914
0.553600 0.965168 0.134397
0.555578 0.967146 0.347763
0.557523 0.969091 0.557523
0.559453 0.971022 0.765739
0.561374 0.972942 0.972942
0.688561 0.063072 0.063072
0.690539 0.065050 0.276438
0.692484 0.066995 0.486198
0.694414 0.068925 0.694414
0.696335 0.070846 0.901618
0.708156 0.294055 0.082667
0.710134 0.296033 0.296033
0.712078 0.297978 0.505793
0.714009 0.299908 0.714009
0.715930 0.301829 0.921213
0.727419 0.521134 0.101930
0.729397 0.523112 0.315297
0.731342 0.525056 0.525056
0.733272 0.526987 0.733272
0.735193 0.528908 0.940476
0.746541 0.746541 0.121052
0.748519 0.748519 0.334418
0.750464 0.750464 0.544178
0.752394 0.752394 0.752394
0.754315 0.754315 0.959598
0.765570 0.970853 0.140081
0.767548 0.972831 0.353447
0.769492 0.974775 0.563207
0.771423 0.976706 0.771423
0.773344 0.978627 0.978627
0.899500 0.068729 0.068729
0.901478 0.070707 0.282095
0.903423 0.072652 0.491855
0.905353 0.074582 0.700071
0.907274 0.076503 0.907274
0.919095 0.299711 0.088323
0.921073 0.301690 0.301690
0.923018 0.303634 0.511449
0.924948 0.305565 0.719665
0.926869 0.307486 0.926869
0.938359 0.526790 0.107587
0.940337 0.528768 0.320953
0.942281 0.530713 0.530713
0.944212 0.532643 0.738929
0.946133 0.534564 0.946133
0.957480 0.752197 0.126709
0.959458 0.754175 0.340075
0.961403 0.756120 0.549835
0.963333 0.758050 0.758050
0.965254 0.759971 0.965254
0.976509 0.976509 0.145737
0.978487 0.978487 0.359104
0.980432 0.980432 0.568863
0.982362 0.982362 0.777079
0.984283 0.984283 0.984283
