skills/editops-orchestrator/assets/grade/luts/vintage_fade_v04.cube
TITLE "vintage_fade_v04"
LUT_3D_SIZE 9
DOMAIN_MIN 0.0 0.0 0.0
DOMAIN_MAX 1.0 1.0 1.0
0.045837 0.045837 0.045837
0.046834 0.046834 0.153327
0.047815 0.047815 0.259203
0.048790 0.048790 0.364332
0.049760 0.049760 0.468963
0.050727 0.050727 0.573221
0.051690 0.051690 0.677179
0.052652 0.052652 0.780888
0.053611 0.053611 0.884383
0.055709 0.162202 0.055709
0.056705 0.163198 0.163198
0.057687 0.164180 0.269075
0.058661 0.165155 0.374203
0.059631 0.166125 0.478834
0.060598 0.167091 0.583092
0.061562 0.168055 0.687050
0.062523 0.169016 0.790759
0.063483 0.169976 0.894254
0.065432 0.276820 0.065432
0.066428 0.277816 0.172922
0.067410 0.278798 0.278798
0.068385 0.279773 0.383927
0.069355 0.280743 0.488558
0.070321 0.281709 0.592815
0.071285 0.282673 0.696774
0.072247 0.283635 0.800483
0.073206 0.284594 0.903978
0.075087 0.390628 0.075087
0.076083 0.391625 0.182576
0.077065 0.392607 0.288453
0.078039 0.393581 0.393581
0.079009 0.394551 0.498212
0.079976 0.395518 0.602470
0.080940 0.396482 0.706428
0.081901 0.397443 0.810137
0.082861 0.398403 0.913632
0.084695 0.503898 0.084695
0.085692 0.504895 0.192185
0.086674 0.505877 0.298062
0.087648 0.506851 0.403190
0.088618 0.507821 0.507821
0.089585 0.508788 0.612079
0.090549 0.509752 0.716037
0.091510 0.510713 0.819746
0.092469 0.511673 0.923241
0.094270 0.616764 0.094270
0.095267 0.617761 0.201760
0.096248 0.618742 0.307636
0.097223 0.619717 0.412765
0.098193 0.620687 0.517396
0.099159 0.621653 0.621653
0.100123 0.622617 0.725612
0.101085 0.623579 0.829321
0.102044 0.624538 0.932816
0.103817 0.729306 0.103817
0.104814 0.730302 0.211307
0.105795 0.731284 0.317183
0.106770 0.732258 0.422312
0.107740 0.733229 0.526943
0.108706 0.734195 0.631200
0.109670 0.735159 0.735159
0.110632 0.736120 0.838868
0.111591 0.737080 0.942363
0.113341 0.841577 0.113341
0.114338 0.842574 0.220831
0.115319 0.843555 0.326707
0.116294 0.844530 0.431836
0.117264 0.845500 0.536467
0.118231 0.846467 0.640725
0.119194 0.847430 0.744683
0.120156 0.848392 0.848392
0.121115 0.849351 0.951887
0.122846 0.953617 0.122846
0.123842 0.954614 0.230336
0.124824 0.955596 0.336212
0.125799 0.956570 0.441341
0.126769 0.957540 0.545972
0.127735 0.958507 0.650229
0.128699 0.959471 0.754188
0.129660 0.960432 0.857897
0.130620 0.961392 0.961392
0.155265 0.048772 0.048772
0.156261 0.049768 0.156261
0.157243 0.050750 0.262138
0.158217 0.051724 0.367266
0.159188 0.052694 0.471897
0.160154 0.053661 0.576155
0.161118 0.054625 0.680113
0.162079 0.055586 0.783822
0.163039 0.056546 0.887317
0.165136 0.165136 0.058643
0.166133 0.166133 0.166133
0.167114 0.167114 0.272009
0.168089 0.168089 0.377138
0.169059 0.169059 0.481769
0.170026 0.170026 0.586026
0.170989 0.170989 0.689985
0.171951 0.171951 0.793694
0.172910 0.172910 0.897189
0.174859 0.279754 0.068366
0.175856 0.280751 0.175856
0.176838 0.281732 0.281732
0.177812 0.282707 0.386861
0.178782 0.283677 0.491492
0.179749 0.284644 0.595750
0.180713 0.285607 0.699708
0.181674 0.286569 0.803417
0.182634 0.287528 0.906912
0.184514 0.393563 0.078021
0.185511 0.394559 0.185511
0.186492 0.395541 0.291387
0.187467 0.396516 0.396516
0.188437 0.397486 0.501147
0.189403 0.398452 0.605404
0.190367 0.399416 0.709363
0.191329 0.400377 0.813072
0.192288 0.401337 0.916567
0.194123 0.506833 0.087630
0.195119 0.507829 0.195119
0.196101 0.508811 0.300996
0.197076 0.509786 0.406125
0.198046 0.510756 0.510756
0.199012 0.511722 0.615013
0.199976 0.512686 0.718972
0.200938 0.513647 0.822680
0.201897 0.514607 0.926175
0.203698 0.619698 0.097204
0.204694 0.620695 0.204694
0.205676 0.621677 0.310570
0.206650 0.622651 0.415699
0.207620 0.623621 0.520330
0.208587 0.624588 0.624588
0.209551 0.625552 0.728546
0.210512 0.626513 0.832255
0.211472 0.627473 0.935750
0.213245 0.732240 0.106751
0.214241 0.733237 0.214241
0.215223 0.734218 0.320118
0.216197 0.735193 0.425246
0.217167 0.736163 0.529877
0.218134 0.737129 0.634135
0.219098 0.738093 0.738093
0.220059 0.739055 0.841802
0.221019 0.740014 0.945297
0.222769 0.844512 0.116276
0.223765 0.845508 0.223765
0.224747 0.846490 0.329642
0.225722 0.847464 0.434770
0.226692 0.848435 0.539402
0.227658 0.849401 0.643659
0.228622 0.850365 0.747617
0.229583 0.851326 0.851326
0.230543 0.852286 0.954821
0.232273 0.956552 0.125780
0.233270 0.957548 0.233270
0.234252 0.958530 0.339146
0.235226 0.959505 0.444275
0.236196 0.960475 0.548906
0.237163 0.961441 0.653164
0.238127 0.962405 0.757122
0.239088 0.963366 0.860831
0.240048 0.964326 0.964326
0.263050 0.051662 0.051662
0.264046 0.052658 0.159152
0.265028 0.053640 0.265028
0.266003 0.054615 0.370157
0.266973 0.055585 0.474788
0.267939 0.056551 0.579045
0.268903 0.057515 0.683004
0.269865 0.058477 0.786713
0.270824 0.059436 0.890208
0.272921 0.168027 0.061533
0.273918 0.169023 0.169023
0.274899 0.170005 0.274899
0.275874 0.170979 0.380028
0.276844 0.171949 0.484659
0.277811 0.172916 0.588917
0.278774 0.173880 0.692875
0.279736 0.174841 0.796584
0.280695 0.175801 0.900079
0.282645 0.282645 0.071257
0.283641 0.283641 0.178746
0.284623 0.284623 0.284623
0.285597 0.285597 0.389751
0.286567 0.286567 0.494382
0.287534 0.287534 0.598640
0.288498 0.288498 0.702598
0.289459 0.289459 0.806307
0.290419 0.290419 0.909802
0.292299 0.396453 0.080911
0.293296 0.397450 0.188401
0.294277 0.398431 0.294277
0.295252 0.399406 0.399406
0.296222 0.400376 0.504037
0.297189 0.401343 0.608295
0.298152 0.402306 0.712253
0.299114 0.403268 0.815962
0.300073 0.404227 0.919457
0.301908 0.509723 0.090520
0.302905 0.510720 0.198010
0.303886 0.511701 0.303886
0.304861 0.512676 0.409015
0.305831 0.513646 0.513646
0.306797 0.514613 0.617903
0.307761 0.515576 0.721862
0.308723 0.516538 0.825571
0.309682 0.517497 0.929066
0.311483 0.622589 0.100095
0.312479 0.623585 0.207584
0.313461 0.624567 0.313461
0.314435 0.625541 0.418589
0.315405 0.626512 0.523221
0.316372 0.627478 0.627478
0.317336 0.628442 0.731436
0.318297 0.629403 0.835145
0.319257 0.630363 0.938640
0.321030 0.735130 0.109642
0.322026 0.736127 0.217132
0.323008 0.737109 0.323008
0.323983 0.738083 0.428137
0.324953 0.739053 0.532768
0.325919 0.740020 0.637025
0.326883 0.740984 0.740984
0.327844 0.741945 0.844692
0.328804 0.742905 0.948187
0.330554 0.847402 0.119166
0.331551 0.848399 0.226656
0.332532 0.849380 0.332532
0.333507 0.850355 0.437661
0.334477 0.851325 0.542292
0.335443 0.852291 0.646549
0.336407 0.853255 0.750508
0.337369 0.854217 0.854217
0.338328 0.855176 0.957712
0.340059 0.959442 0.128671
0.341055 0.960439 0.236160
0.342037 0.961420 0.342037
0.343011 0.962395 0.447165
0.343981 0.963365 0.551796
0.344948 0.964331 0.656054
0.345912 0.965295 0.760012
0.346873 0.966257 0.863721
0.347833 0.967216 0.967216
0.370074 0.054532 0.054532
0.371070 0.055528 0.162022
0.372052 0.056510 0.267898
0.373027 0.057485 0.373027
0.373997 0.058455 0.477658
0.374963 0.059421 0.581915
0.375927 0.060385 0.685874
0.376888 0.061346 0.789582
0.377848 0.062306 0.893077
0.379945 0.170896 0.064403
0.380942 0.171893 0.171893
0.381923 0.172875 0.277769
0.382898 0.173849 0.382898
0.383868 0.174819 0.487529
0.384835 0.175786 0.591787
0.385798 0.176750 0.695745
0.386760 0.177711 0.799454
0.387719 0.178671 0.902949
0.389669 0.285515 0.074127
0.390665 0.286511 0.181616
0.391647 0.287493 0.287493
0.392621 0.288467 0.392621
0.393591 0.289437 0.497252
0.394558 0.290404 0.601510
0.395522 0.291368 0.705468
0.396483 0.292329 0.809177
0.397443 0.293289 0.912672
0.399323 0.399323 0.083781
0.400320 0.400320 0.191271
0.401301 0.401301 0.297147
0.402276 0.402276 0.402276
0.403246 0.403246 0.506907
0.404212 0.404212 0.611165
0.405176 0.405176 0.715123
0.406138 0.406138 0.818832
0.407097 0.407097 0.922327
0.408932 0.512593 0.093390
0.409929 0.513590 0.200880
0.410910 0.514571 0.306756
0.411885 0.515546 0.411885
0.412855 0.516516 0.516516
0.413821 0.517482 0.620773
0.414785 0.518446 0.724732
0.415747 0.519408 0.828441
0.416706 0.520367 0.931936
0.418507 0.625459 0.102965
0.419503 0.626455 0.210454
0.420485 0.627437 0.316331
0.421459 0.628411 0.421459
0.422429 0.629381 0.526090
0.423396 0.630348 0.630348
0.424360 0.631312 0.734306
0.425321 0.632273 0.838015
0.426281 0.633233 0.941510
0.428054 0.738000 0.112512
0.429050 0.738997 0.220001
0.430032 0.739978 0.325878
0.431006 0.740953 0.431006
0.431977 0.741923 0.535638
0.432943 0.742890 0.639895
0.433907 0.743853 0.743853
0.434868 0.744815 0.847562
0.435828 0.745774 0.951057
0.437578 0.850272 0.122036
0.438574 0.851269 0.229526
0.439556 0.852250 0.335402
0.440531 0.853225 0.440531
0.441501 0.854195 0.545162
0.442467 0.855161 0.649419
0.443431 0.856125 0.753378
0.444393 0.857087 0.857087
0.445352 0.858046 0.960582
0.447083 0.962312 0.131541
0.448079 0.963309 0.239030
0.449061 0.964290 0.344907
0.450035 0.965265 0.450035
0.451005 0.966235 0.554666
0.451972 0.967201 0.658924
0.452936 0.968165 0.762882
0.453897 0.969127 0.866591
0.454857 0.970086 0.970086
0.476591 0.057388 0.057388
0.477588 0.058385 0.164878
0.478569 0.059366 0.270754
0.479544 0.060341 0.375883
0.480514 0.061311 0.480514
0.481481 0.062278 0.584772
0.482444 0.063241 0.688730
0.483406 0.064203 0.792439
0.484365 0.065162 0.895934
0.486463 0.173753 0.067260
0.487459 0.174749 0.174749
0.488441 0.175731 0.280626
0.489415 0.176706 0.385754
0.490385 0.177676 0.490385
0.491352 0.178642 0.594643
0.492316 0.179606 0.698601
0.493277 0.180567 0.802310
0.494237 0.181527 0.905805
0.496186 0.288371 0.076983
0.497182 0.289367 0.184473
0.498164 0.290349 0.290349
0.499139 0.291324 0.395478
0.500109 0.292294 0.500109
0.501075 0.293260 0.604366
0.502039 0.294224 0.708325
0.503001 0.295185 0.812034
0.503960 0.296145 0.915529
0.505841 0.402179 0.086637
0.506837 0.403176 0.194127
0.507819 0.404158 0.300004
0.508793 0.405132 0.405132
0.509763 0.406102 0.509763
0.510730 0.407069 0.614021
0.511694 0.408033 0.717979
0.512655 0.408994 0.821688
0.513615 0.409954 0.925183
0.515449 0.515449 0.096246
0.516446 0.516446 0.203736
0.517428 0.517428 0.309612
0.518402 0.518402 0.414741
0.519372 0.519372 0.519372
0.520339 0.520339 0.623630
0.521303 0.521303 0.727588
0.522264 0.522264 0.831297
0.523224 0.523224 0.934792
0.525024 0.628315 0.105821
0.526021 0.629312 0.213311
0.527002 0.630293 0.319187
0.527977 0.631268 0.424316
0.528947 0.632238 0.528947
0.529913 0.633204 0.633204
0.530877 0.634168 0.737163
0.531839 0.635130 0.840872
0.532798 0.636089 0.944367
0.534571 0.740857 0.115368
0.535568 0.741853 0.222858
0.536549 0.742835 0.328734
0.537524 0.743809 0.433863
0.538494 0.744779 0.538494
0.539460 0.745746 0.642751
0.540424 0.746710 0.746710
0.541386 0.747671 0.850419
0.542345 0.748631 0.953914
0.544095 0.853128 0.124892
0.545092 0.854125 0.232382
0.546073 0.855106 0.338258
0.547048 0.856081 0.443387
0.548018 0.857051 0.548018
0.548985 0.858018 0.652276
0.549948 0.858981 0.756234
0.550910 0.859943 0.859943
0.551869 0.860902 0.963438
0.553600 0.965168 0.134397
0.554596 0.966165 0.241887
0.555578 0.967146 0.347763
0.556553 0.968121 0.452892
0.557523 0.969091 0.557523
0.558489 0.970058 0.661780
0.559453 0.971022 0.765739
0.560415 0.971983 0.869447
0.561374 0.972942 0.972942
0.582728 0.060234 0.060234
0.583725 0.061231 0.167724
0.584706 0.062212 0.273600
0.585681 0.063187 0.378729
0.586651 0.064157 0.483360
0.587618 0.065124 0.587618
0.588581 0.066087 0.691576
0.589543 0.067049 0.795285
0.590502 0.068008 0.898780
0.592600 0.176599 0.070106
0.593596 0.177595 0.177595
0.594578 0.178577 0.283472
0.595553 0.179552 0.388600
0.596523 0.180522 0.493232
0.597489 0.181488 0.597489
0.598453 0.182452 0.701447
0.599414 0.183414 0.805156
0.600374 0.184373 0.908651
0.602323 0.291217 0.079829
0.603320 0.292214 0.187319
0.604301 0.293195 0.293195
0.605276 0.294170 0.398324
0.606246 0.295140 0.502955
0.607212 0.296106 0.607212
0.608176 0.297070 0.711171
0.609138 0.298032 0.814880
0.610097 0.298991 0.918375
0.611978 0.405026 0.089484
0.612974 0.406022 0.196973
0.613956 0.407004 0.302850
0.614930 0.407978 0.407978
0.615900 0.408948 0.512609
0.616867 0.409915 0.616867
0.617831 0.410879 0.720825
0.618792 0.411840 0.824534
0.619752 0.412800 0.928029
0.621587 0.518296 0.099093
0.622583 0.519292 0.206582
0.623565 0.520274 0.312459
0.624539 0.521248 0.417587
0.625509 0.522218 0.522218
0.626476 0.523185 0.626476
0.627440 0.524149 0.730434
0.628401 0.525110 0.834143
0.629361 0.526070 0.937638
0.631161 0.631161 0.108667
0.632158 0.632158 0.216157
0.633139 0.633139 0.322033
0.634114 0.634114 0.427162
0.635084 0.635084 0.531793
0.636050 0.636050 0.636050
0.637014 0.637014 0.740009
0.637976 0.637976 0.843718
0.638935 0.638935 0.947213
0.640708 0.743703 0.118214
0.641705 0.744699 0.225704
0.642686 0.745681 0.331580
0.643661 0.746656 0.436709
0.644631 0.747626 0.541340
0.645598 0.748592 0.645598
0.646561 0.749556 0.749556
0.647523 0.750517 0.853265
0.648482 0.751477 0.956760
0.650232 0.855974 0.127738
0.651229 0.856971 0.235228
0.652211 0.857953 0.341105
0.653185 0.858927 0.446233
0.654155 0.859897 0.550864
0.655122 0.860864 0.655122
0.656086 0.861828 0.759080
0.657047 0.862789 0.862789
0.658007 0.863749 0.966284
0.659737 0.968015 0.137243
0.660734 0.969011 0.244733
0.661715 0.969993 0.350609
0.662690 0.970967 0.455738
0.663660 0.971937 0.560369
0.664626 0.972904 0.664626
0.665590 0.973868 0.768585
0.666552 0.974829 0.872294
0.667511 0.975789 0.975789
0.688561 0.063072 0.063072
0.689557 0.064069 0.170562
0.690539 0.065050 0.276438
0.691514 0.066025 0.381567
0.692484 0.066995 0.486198
0.693450 0.067962 0.590456
0.694414 0.068925 0.694414
0.695376 0.069887 0.798123
0.696335 0.070846 0.901618
0.698432 0.179437 0.072944
0.699429 0.180433 0.180433
0.700410 0.181415 0.286310
0.701385 0.182390 0.391438
0.702355 0.183360 0.496070
0.703322 0.184326 0.600327
0.704285 0.185290 0.704285
0.705247 0.186251 0.807994
0.706206 0.187211 0.911489
0.708156 0.294055 0.082667
0.709152 0.295052 0.190157
0.710134 0.296033 0.296033
0.711108 0.297008 0.401162
0.712078 0.297978 0.505793
0.713045 0.298944 0.610050
0.714009 0.299908 0.714009
0.714970 0.300870 0.817718
0.715930 0.301829 0.921213
0.717810 0.407864 0.092322
0.718807 0.408860 0.199811
0.719788 0.409842 0.305688
0.720763 0.410816 0.410816
0.721733 0.411786 0.515447
0.722700 0.412753 0.619705
0.723663 0.413717 0.723663
0.724625 0.414678 0.827372
0.725584 0.415638 0.930867
0.727419 0.521134 0.101930
0.728416 0.522130 0.209420
0.729397 0.523112 0.315297
0.730372 0.524086 0.420425
0.731342 0.525056 0.525056
0.732308 0.526023 0.629314
0.733272 0.526987 0.733272
0.734234 0.527948 0.836981
0.735193 0.528908 0.940476
0.736994 0.633999 0.111505
0.737990 0.634996 0.218995
0.738972 0.635977 0.324871
0.739946 0.636952 0.430000
0.740916 0.637922 0.534631
0.741883 0.638888 0.638888
0.742847 0.639852 0.742847
0.743808 0.640814 0.846556
0.744768 0.641773 0.950051
0.746541 0.746541 0.121052
0.747537 0.747537 0.228542
0.748519 0.748519 0.334418
0.749494 0.749494 0.439547
0.750464 0.750464 0.544178
0.751430 0.751430 0.648436
0.752394 0.752394 0.752394
0.753355 0.753355 0.856103
0.754315 0.754315 0.959598
0.756065 0.858812 0.130576
0.757062 0.859809 0.238066
0.758043 0.860791 0.343943
0.759018 0.861765 0.449071
0.759988 0.862735 0.553702
0.760954 0.863702 0.657960
0.761918 0.864666 0.761918
0.762880 0.865627 0.865627
0.763839 0.866587 0.969122
0.765570 0.970853 0.140081
0.766566 0.971849 0.247571
0.767548 0.972831 0.353447
0.768522 0.973805 0.458576
0.769492 0.974775 0.563207
0.770459 0.975742 0.667464
0.771423 0.976706 0.771423
0.772384 0.977667 0.875132
0.773344 0.978627 0.978627
0.794140 0.065903 0.065903
0.795136 0.066900 0.173393
0.796118 0.067882 0.279270
0.797092 0.068856 0.384398
0.798062 0.069826 0.489029
0.799029 0.070793 0.593287
0.799993 0.071757 0.697245
0.800954 0.072718 0.800954
0.801914 0.073678 0.904449
0.804011 0.182268 0.075775
0.805007 0.183265 0.183265
0.805989 0.184246 0.289141
0.806964 0.185221 0.394270
0.807934 0.186191 0.498901
0.808900 0.187157 0.603158
0.809864 0.188121 0.707117
0.810826 0.189083 0.810826
0.811785 0.190042 0.914321
0.813734 0.296886 0.085498
0.814731 0.297883 0.192988
0.815712 0.298864 0.298864
0.816687 0.299839 0.403993
0.817657 0.300809 0.508624
0.818624 0.301775 0.612882
0.819587 0.302739 0.716840
0.820549 0.303701 0.820549
0.821508 0.304660 0.924044
0.823389 0.410695 0.095153
0.824385 0.411691 0.202642
0.825367 0.412673 0.308519
0.826342 0.413647 0.413647
0.827312 0.414617 0.518279
0.828278 0.415584 0.622536
0.829242 0.416548 0.726494
0.830203 0.417509 0.830203
0.831163 0.418469 0.933698
0.832998 0.523965 0.104762
0.833994 0.524961 0.212251
0.834976 0.525943 0.318128
0.835950 0.526917 0.423256
0.836920 0.527887 0.527887
0.837887 0.528854 0.632145
0.838851 0.529818 0.736103
0.839812 0.530779 0.839812
0.840772 0.531739 0.943307
0.842572 0.636830 0.114336
0.843569 0.637827 0.221826
0.844550 0.638808 0.327702
0.845525 0.639783 0.432831
0.846495 0.640753 0.537462
0.847462 0.641720 0.641720
0.848425 0.642683 0.745678
0.849387 0.643645 0.849387
0.850346 0.644604 0.952882
0.852119 0.749372 0.123883
0.853116 0.750369 0.231373
0.854098 0.751350 0.337249
0.855072 0.752325 0.442378
0.856042 0.753295 0.547009
0.857009 0.754261 0.651267
0.857973 0.755225 0.755225
0.858934 0.756187 0.858934
0.859893 0.757146 0.962429
0.861644 0.861644 0.133408
0.862640 0.862640 0.240897
0.863622 0.863622 0.346774
0.864596 0.864596 0.451902
0.865566 0.865566 0.556533
0.866533 0.866533 0.660791
0.867497 0.867497 0.764749
0.868458 0.868458 0.868458
0.869418 0.869418 0.971953
0.871148 0.973684 0.142912
0.872145 0.974680 0.250402
0.873126 0.975662 0.356278
0.874101 0.976636 0.461407
0.875071 0.977606 0.566038
0.876038 0.978573 0.670296
0.877001 0.979537 0.774254
0.877963 0.980498 0.877963
0.878922 0.981458 0.981458
0.899500 0.068729 0.068729
0.900497 0.069725 0.176218
0.901478 0.070707 0.282095
0.902453 0.071682 0.387224
0.903423 0.072652 0.491855
0.904390 0.073618 0.596112
0.905353 0.074582 0.700071
0.906315 0.075543 0.803779
0.907274 0.076503 0.907274
0.909372 0.185093 0.078600
0.910368 0.186090 0.186090
0.911350 0.187071 0.291966
0.912324 0.188046 0.397095
0.913295 0.189016 0.501726
0.914261 0.189983 0.605984
0.915225 0.190946 0.709942
0.916186 0.191908 0.813651
0.917146 0.192867 0.917146
0.919095 0.299711 0.088323
0.920092 0.300708 0.195813
0.921073 0.301690 0.301690
0.922048 0.302664 0.406818
0.923018 0.303634 0.511449
0.923984 0.304601 0.615707
0.924948 0.305565 0.719665
0.925910 0.306526 0.823374
0.926869 0.307486 0.926869
0.928750 0.413520 0.097978
0.929746 0.414517 0.205468
0.930728 0.415498 0.311344
0.931702 0.416473 0.416473
0.932672 0.417443 0.521104
0.933639 0.418409 0.625361
0.934603 0.419373 0.729320
0.935564 0.420335 0.833029
0.936524 0.421294 0.936524
0.938359 0.526790 0.107587
0.939355 0.527787 0.215077
0.940337 0.528768 0.320953
0.941311 0.529743 0.426082
0.942281 0.530713 0.530713
0.943248 0.531679 0.634970
0.944212 0.532643 0.738929
0.945173 0.533605 0.842638
0.946133 0.534564 0.946133
0.947933 0.639656 0.117162
0.948930 0.640652 0.224651
0.949911 0.641634 0.330528
0.950886 0.642608 0.435656
0.951856 0.643578 0.540287
0.952822 0.644545 0.644545
0.953786 0.645509 0.748503
0.954748 0.646470 0.852212
0.955707 0.647430 0.955707
0.957480 0.752197 0.126709
0.958477 0.753194 0.234198
0.959458 0.754175 0.340075
0.960433 0.755150 0.445203
0.961403 0.756120 0.549835
0.962370 0.757087 0.654092
0.963333 0.758050 0.758050
0.964295 0.759012 0.861759
0.965254 0.759971 0.965254
0.967004 0.864469 0.136233
0.968001 0.865465 0.243723
0.968983 0.866447 0.349599
0.969957 0.867422 0.454728
0.970927 0.868392 0.559359
0.971894 0.869358 0.663616
0.972858 0.870322 0.767575
0.973819 0.871284 0.871284
0.974779 0.872243 0.974779
0.976509 0.976509 0.145737
0.977506 0.977506 0.253227
0.978487 0.978487 0.359104
0.979462 0.979462 0.464232
0.980432 0.980432 0.568863
0.981398 0.981398 0.673121
0.982362 0.982362 0.777079
0.983324 0.983324 0.880788
0.984283 0.984283 0.984283
