skills/editops-orchestrator/assets/grade/luts/vintage_fade_v15.cube
TITLE "vintage_fade_v15"
LUT_3D_SIZE 5
DOMAIN_MIN 0.0 0.0 0.0
DOMAIN_MAX 1.0 1.0 1.0
0.137559 0.137559 0.137559
0.141291 0.141291 0.303092
0.144912 0.144912 0.463719
0.148479 0.148479 0.621972
0.152011 0.152011 0.778636
0.174525 0.336327 0.174525
0.178257 0.340059 0.340059
0.181878 0.343680 0.500685
0.185446 0.347247 0.658938
0.188978 0.350779 0.815602
0.210396 0.529203 0.210396
0.214127 0.532934 0.375929
0.217749 0.536555 0.536555
0.221316 0.540123 0.694808
0.224848 0.543655 0.851473
0.245736 0.719228 0.245736
0.249468 0.722960 0.411269
0.253089 0.726581 0.571896
0.256657 0.730149 0.730149
0.260188 0.733681 0.886813
0.280722 0.907346 0.280722
0.284453 0.911078 0.446255
0.288075 0.914699 0.606882
0.291642 0.918267 0.765134
0.295174 0.921799 0.921799
0.310349 0.148547 0.148547
0.314081 0.152279 0.314081
0.317702 0.155900 0.474707
0.321270 0.159468 0.632960
0.324801 0.163000 0.789625
0.347315 0.347315 0.185514
0.351047 0.351047 0.351047
0.354668 0.354668 0.511674
0.358236 0.358236 0.669926
0.361768 0.361768 0.826591
0.383186 0.540191 0.221384
0.386918 0.543923 0.386918
0.390539 0.547544 0.547544
0.394106 0.551112 0.705797
0.397638 0.554644 0.862461
0.418526 0.730217 0.256725
0.422258 0.733948 0.422258
0.425879 0.737570 0.582884
0.429447 0.741137 0.741137
0.432979 0.744669 0.897802
0.453512 0.918335 0.291710
0.457244 0.922067 0.457244
0.460865 0.925688 0.617870
0.464433 0.929256 0.776123
0.467964 0.932787 0.932787
0.478017 0.159210 0.159210
0.481749 0.162942 0.324744
0.485370 0.166563 0.485370
0.488938 0.170131 0.643623
0.492470 0.173663 0.800287
0.514983 0.357978 0.196177
0.518715 0.361710 0.361710
0.522336 0.365331 0.522336
0.525904 0.368899 0.680589
0.529436 0.372431 0.837254
0.550854 0.550854 0.232047
0.554586 0.554586 0.397580
0.558207 0.558207 0.558207
0.561775 0.561775 0.716460
0.565306 0.565306 0.873124
0.586194 0.740880 0.267387
0.589926 0.744611 0.432921
0.593547 0.748232 0.593547
0.597115 0.751800 0.751800
0.600647 0.755332 0.908465
0.621180 0.928998 0.302373
0.624912 0.932730 0.467907
0.628533 0.936351 0.628533
0.632101 0.939918 0.786786
0.635632 0.943450 0.943450
0.643208 0.169716 0.169716
0.646939 0.173447 0.335249
0.650561 0.177068 0.495875
0.654128 0.180636 0.654128
0.657660 0.184168 0.810793
0.680174 0.368483 0.206682
0.683906 0.372215 0.372215
0.687527 0.375836 0.532842
0.691095 0.379404 0.691095
0.694626 0.382936 0.847759
0.716044 0.561359 0.242552
0.719776 0.565091 0.408086
0.723397 0.568712 0.568712
0.726965 0.572280 0.726965
0.730497 0.575812 0.883629
0.751385 0.751385 0.277893
0.755117 0.755117 0.443426
0.758738 0.758738 0.604053
0.762305 0.762305 0.762305
0.765837 0.765837 0.918970
0.786371 0.939503 0.312878
0.790102 0.943235 0.478412
0.793723 0.946856 0.639038
0.797291 0.950424 0.797291
0.800823 0.953956 0.953956
0.806740 0.180115 0.180115
0.810472 0.183847 0.345649
0.814093 0.187468 0.506275
0.817661 0.191036 0.664528
0.821193 0.194568 0.821193
0.843706 0.378883 0.217082
0.847438 0.382615 0.382615
0.851059 0.386236 0.543242
0.854627 0.389804 0.701494
0.858159 0.393336 0.858159
0.879577 0.571759 0.252952
0.883309 0.575491 0.418486
0.886930 0.579112 0.579112
0.890497 0.582680 0.737365
0.894029 0.586211 0.894029
0.914917 0.761785 0.288293
0.918649 0.765516 0.453826
0.922270 0.769138 0.614452
0.925838 0.772705 0.772705
0.929370 0.776237 0.929370
0.949903 0.949903 0.323278
0.953635 0.953635 0.488812
0.957256 0.957256 0.649438
0.960824 0.960824 0.807691
0.964355 0.964355 0.964355
