skills/editops-orchestrator/assets/grade/luts/vintage_fade_v14.cube
TITLE "vintage_fade_v14"
LUT_3D_SIZE 5
DOMAIN_MIN 0.0 0.0 0.0
DOMAIN_MAX 1.0 1.0 1.0
0.129351 0.129351 0.129351
0.132942 0.132942 0.298993
0.136431 0.136431 0.463769
0.139870 0.139870 0.626212
0.143277 0.143277 0.787097
0.164930 0.330980 0.164930
0.168521 0.334572 0.334572
0.172010 0.338060 0.499348
0.175449 0.341500 0.661791
0.178856 0.344906 0.822676
0.199488 0.526826 0.199488
0.203080 0.530417 0.369130
0.206569 0.533906 0.533906
0.210008 0.537345 0.696349
0.213414 0.540752 0.857235
0.233557 0.719899 0.233557
0.237149 0.723490 0.403199
0.240638 0.726979 0.567975
0.244077 0.730418 0.730418
0.247483 0.733825 0.891304
0.267300 0.911120 0.267300
0.270892 0.914712 0.436942
0.274380 0.918201 0.601718
0.277820 0.921640 0.764161
0.281226 0.925046 0.925046
0.305977 0.139927 0.139927
0.309569 0.143519 0.309569
0.313058 0.147007 0.474345
0.316497 0.150447 0.636788
0.319903 0.153853 0.797673
0.341556 0.341556 0.175506
0.345148 0.345148 0.345148
0.348637 0.348637 0.509924
0.352076 0.352076 0.672367
0.355482 0.355482 0.833252
0.376115 0.537402 0.210064
0.379706 0.540993 0.379706
0.383195 0.544482 0.544482
0.386634 0.547921 0.706925
0.390041 0.551328 0.867811
0.410184 0.730475 0.244134
0.413776 0.734067 0.413776
0.417264 0.737555 0.578551
0.420704 0.740995 0.740995
0.424110 0.744401 0.901880
0.443926 0.921696 0.277876
0.447518 0.925288 0.447518
0.451007 0.928777 0.612294
0.454446 0.932216 0.774737
0.457852 0.935622 0.935622
0.477537 0.150200 0.150200
0.481129 0.153791 0.319842
0.484618 0.157280 0.484618
0.488057 0.160719 0.647061
0.491463 0.164126 0.807946
0.513116 0.351829 0.185779
0.516708 0.355421 0.355421
0.520197 0.358909 0.520197
0.523636 0.362349 0.682640
0.527042 0.365755 0.843525
0.547675 0.547675 0.220337
0.551266 0.551266 0.389979
0.554755 0.554755 0.554755
0.558194 0.558194 0.717198
0.561601 0.561601 0.878084
0.581744 0.740748 0.254406
0.585335 0.744339 0.424048
0.588824 0.747828 0.588824
0.592264 0.751267 0.751267
0.595670 0.754674 0.912153
0.615486 0.931969 0.288149
0.619078 0.935561 0.457791
0.622567 0.939050 0.622567
0.626006 0.942489 0.785010
0.629412 0.945895 0.945895
0.646668 0.160327 0.160327
0.650260 0.163919 0.329969
0.653749 0.167408 0.494745
0.657188 0.170847 0.657188
0.660595 0.174253 0.818073
0.682247 0.361956 0.195906
0.685839 0.365548 0.365548
0.689328 0.369037 0.530324
0.692767 0.372476 0.692767
0.696174 0.375883 0.853653
0.716806 0.557802 0.230465
0.720398 0.561394 0.400107
0.723886 0.564882 0.564882
0.727326 0.568322 0.727326
0.730732 0.571728 0.888211
0.750875 0.750875 0.264534
0.754467 0.754467 0.434176
0.757956 0.757956 0.598952
0.761395 0.761395 0.761395
0.764801 0.764801 0.922280
0.784618 0.942097 0.298276
0.788209 0.945688 0.467918
0.791698 0.949177 0.632694
0.795137 0.952616 0.795137
0.798544 0.956023 0.956023
0.814178 0.170357 0.170357
0.817769 0.173949 0.339999
0.821258 0.177438 0.504775
0.824697 0.180877 0.667218
0.828104 0.184283 0.828104
0.849757 0.371987 0.205936
0.853348 0.375578 0.375578
0.856837 0.379067 0.540354
0.860276 0.382506 0.702797
0.863683 0.385913 0.863683
0.884315 0.567832 0.240495
0.887907 0.571424 0.410137
0.891396 0.574913 0.574913
0.894835 0.578352 0.737356
0.898241 0.581758 0.898241
0.918384 0.760905 0.274564
0.921976 0.764497 0.444206
0.925465 0.767986 0.608982
0.928904 0.771425 0.771425
0.932310 0.774831 0.932310
0.952127 0.952127 0.308307
0.955719 0.955719 0.477949
0.959207 0.959207 0.642724
0.962647 0.962647 0.805168
0.966053 0.966053 0.966053
