skills/editops-orchestrator/assets/grade/luts/vintage_fade_v05.cube
TITLE "vintage_fade_v05"
LUT_3D_SIZE 17
DOMAIN_MIN 0.0 0.0 0.0
DOMAIN_MAX 1.0 1.0 1.0
0.054292 0.054292 0.054292
0.054839 0.054839 0.107260
0.055379 0.055379 0.159532
0.055915 0.055915 0.211434
0.056449 0.056449 0.263083
0.056981 0.056981 0.314537
0.057510 0.057510 0.365835
0.058039 0.058039 0.417001
0.058566 0.058566 0.468054
0.059093 0.059093 0.519007
0.059618 0.059618 0.569871
0.060143 0.060143 0.620656
0.060667 0.060667 0.671367
0.061190 0.061190 0.722012
0.061713 0.061713 0.772595
0.062235 0.062235 0.823120
0.062756 0.062756 0.873592
0.059712 0.112133 0.059712
0.060260 0.112680 0.112680
0.060800 0.113220 0.164952
0.061336 0.113756 0.216855
0.061869 0.114290 0.268503
0.062401 0.114822 0.319958
0.062931 0.115351 0.371255
0.063459 0.115880 0.422422
0.063987 0.116407 0.473474
0.064513 0.116934 0.524428
0.065039 0.117459 0.575292
0.065563 0.117984 0.626076
0.066087 0.118508 0.676788
0.066610 0.119031 0.727432
0.067133 0.119554 0.778015
0.067655 0.120076 0.828540
0.068176 0.120597 0.879012
0.065062 0.169214 0.065062
0.065609 0.169761 0.118029
0.066149 0.170301 0.170301
0.066685 0.170837 0.222204
0.067219 0.171371 0.273852
0.067750 0.171902 0.325307
0.068280 0.172432 0.376605
0.068809 0.172961 0.427771
0.069336 0.173488 0.478824
0.069862 0.174015 0.529777
0.070388 0.174540 0.580641
0.070913 0.175065 0.631425
0.071436 0.175589 0.682137
0.071960 0.176112 0.732781
0.072482 0.176635 0.783364
0.073004 0.177156 0.833890
0.073526 0.177678 0.884361
0.070373 0.225892 0.070373
0.070920 0.226439 0.123341
0.071460 0.226979 0.175613
0.071996 0.227515 0.227515
0.072530 0.228049 0.279164
0.073062 0.228580 0.330618
0.073591 0.229110 0.381916
0.074120 0.229639 0.433082
0.074647 0.230166 0.484135
0.075174 0.230693 0.535088
0.075699 0.231218 0.585952
0.076224 0.231743 0.636737
0.076748 0.232267 0.687448
0.077271 0.232790 0.738093
0.077794 0.233312 0.788676
0.078316 0.233834 0.839201
0.078837 0.234356 0.889673
0.075658 0.282292 0.075658
0.076206 0.282839 0.128626
0.076746 0.283379 0.180898
0.077282 0.283916 0.232801
0.077815 0.284449 0.284449
0.078347 0.284981 0.335904
0.078877 0.285511 0.387201
0.079405 0.286039 0.438368
0.079933 0.286567 0.489420
0.080459 0.287093 0.540374
0.080985 0.287618 0.591238
0.081509 0.288143 0.642022
0.082033 0.288667 0.692734
0.082556 0.289190 0.743378
0.083079 0.289713 0.793961
0.083601 0.290235 0.844486
0.084122 0.290756 0.894958
0.080924 0.338481 0.080924
0.081471 0.339028 0.133892
0.082011 0.339568 0.186164
0.082547 0.340104 0.238066
0.083081 0.340638 0.289715
0.083613 0.341169 0.341169
0.084142 0.341699 0.392467
0.084671 0.342228 0.443633
0.085198 0.342755 0.494686
0.085725 0.343282 0.545639
0.086250 0.343807 0.596503
0.086775 0.344332 0.647288
0.087299 0.344856 0.697999
0.087822 0.345379 0.748644
0.088345 0.345901 0.799227
0.088867 0.346423 0.849752
0.089388 0.346945 0.900224
0.086174 0.394498 0.086174
0.086721 0.395045 0.139141
0.087261 0.395585 0.191413
0.087797 0.396122 0.243316
0.088330 0.396655 0.294964
0.088862 0.397187 0.346419
0.089392 0.397717 0.397717
0.089921 0.398245 0.448883
0.090448 0.398773 0.499935
0.090974 0.399299 0.550889
0.091500 0.399824 0.601753
0.092024 0.400349 0.652537
0.092548 0.400873 0.703249
0.093072 0.401396 0.753893
0.093594 0.401919 0.804476
0.094116 0.402441 0.855002
0.094637 0.402962 0.905473
0.091410 0.450372 0.091410
0.091957 0.450919 0.144377
0.092497 0.451459 0.196649
0.093033 0.451995 0.248552
0.093567 0.452529 0.300200
0.094098 0.453060 0.351655
0.094628 0.453590 0.402953
0.095157 0.454119 0.454119
0.095684 0.454646 0.505171
0.096210 0.455173 0.556125
0.096736 0.455698 0.606989
0.097261 0.456223 0.657773
0.097784 0.456747 0.708485
0.098308 0.457270 0.759129
0.098830 0.457792 0.809712
0.099352 0.458314 0.860238
0.099874 0.458836 0.910709
0.096634 0.506121 0.096634
0.097181 0.506669 0.149602
0.097721 0.507209 0.201874
0.098257 0.507745 0.253776
0.098791 0.508278 0.305425
0.099323 0.508810 0.356879
0.099852 0.509340 0.408177
0.100381 0.509869 0.459343
0.100908 0.510396 0.510396
0.101435 0.510922 0.561349
0.101960 0.511448 0.612213
0.102485 0.511972 0.662998
0.103009 0.512496 0.713709
0.103532 0.513020 0.764354
0.104055 0.513542 0.814937
0.104577 0.514064 0.865462
0.105098 0.514585 0.915934
0.101848 0.561762 0.101848
0.102395 0.562310 0.154816
0.102935 0.562850 0.207088
0.103472 0.563386 0.258990
0.104005 0.563919 0.310639
0.104537 0.564451 0.362094
0.105067 0.564981 0.413391
0.105595 0.565510 0.464557
0.106123 0.566037 0.515610
0.106649 0.566563 0.566563
0.107175 0.567089 0.617428
0.107699 0.567613 0.668212
0.108223 0.568137 0.718924
0.108746 0.568661 0.769568
0.109269 0.569183 0.820151
0.109791 0.569705 0.870676
0.110312 0.570226 0.921148
0.107053 0.617307 0.107053
0.107601 0.617854 0.160021
0.108141 0.618394 0.212293
0.108677 0.618930 0.264196
0.109210 0.619464 0.315844
0.109742 0.619995 0.367299
0.110272 0.620525 0.418596
0.110800 0.621054 0.469763
0.111328 0.621581 0.520815
0.111854 0.622107 0.571769
0.112380 0.622633 0.622633
0.112904 0.623158 0.673417
0.113428 0.623681 0.724129
0.113951 0.624205 0.774773
0.114474 0.624727 0.825356
0.114996 0.625249 0.875881
0.115517 0.625771 0.926353
0.112250 0.672763 0.112250
0.112798 0.673310 0.165218
0.113338 0.673850 0.217490
0.113874 0.674387 0.269392
0.114407 0.674920 0.321041
0.114939 0.675452 0.372496
0.115469 0.675982 0.423793
0.115997 0.676510 0.474960
0.116525 0.677038 0.526012
0.117051 0.677564 0.576965
0.117577 0.678090 0.627830
0.118101 0.678614 0.678614
0.118625 0.679138 0.729326
0.119148 0.679661 0.779970
0.119671 0.680184 0.830553
0.120193 0.680706 0.881078
0.120714 0.681227 0.931550
0.117440 0.728140 0.117440
0.117987 0.728688 0.170408
0.118527 0.729228 0.222679
0.119063 0.729764 0.274582
0.119597 0.730297 0.326231
0.120128 0.730829 0.377685
0.120658 0.731359 0.428983
0.121187 0.731887 0.480149
0.121714 0.732415 0.531202
0.122241 0.732941 0.582155
0.122766 0.733467 0.633019
0.123291 0.733991 0.683804
0.123815 0.734515 0.734515
0.124338 0.735038 0.785160
0.124860 0.735561 0.835743
0.125382 0.736083 0.886268
0.125904 0.736604 0.936740
0.122623 0.783444 0.122623
0.123170 0.783992 0.175590
0.123710 0.784532 0.227862
0.124246 0.785068 0.279765
0.124780 0.785601 0.331413
0.125311 0.786133 0.382868
0.125841 0.786663 0.434166
0.126370 0.787191 0.485332
0.126897 0.787719 0.536385
0.127423 0.788245 0.587338
0.127949 0.788771 0.638202
0.128474 0.789295 0.688986
0.128997 0.789819 0.739698
0.129521 0.790342 0.790342
0.130043 0.790865 0.840925
0.130565 0.791387 0.891451
0.131087 0.791908 0.941922
0.127799 0.838681 0.127799
0.128346 0.839228 0.180767
0.128886 0.839768 0.233038
0.129422 0.840304 0.284941
0.129956 0.840838 0.336590
0.130487 0.841370 0.388044
0.131017 0.841899 0.439342
0.131546 0.842428 0.490508
0.132073 0.842955 0.541561
0.132600 0.843482 0.592514
0.133125 0.844007 0.643378
0.133650 0.844532 0.694163
0.134174 0.845056 0.744874
0.134697 0.845579 0.795519
0.135220 0.846102 0.846102
0.135741 0.846624 0.896627
0.136263 0.847145 0.947099
0.132969 0.893855 0.132969
0.133517 0.894402 0.185937
0.134057 0.894942 0.238209
0.134593 0.895478 0.290112
0.135126 0.896012 0.341760
0.135658 0.896543 0.393215
0.136188 0.897073 0.444512
0.136716 0.897602 0.495679
0.137244 0.898129 0.546731
0.137770 0.898656 0.597684
0.138296 0.899181 0.648549
0.138820 0.899706 0.699333
0.139344 0.900230 0.750045
0.139867 0.900753 0.800689
0.140390 0.901275 0.851272
0.140912 0.901797 0.901797
0.141433 0.902319 0.952269
0.138134 0.948970 0.138134
0.138682 0.949517 0.191102
0.139222 0.950057 0.243374
0.139758 0.950594 0.295276
0.140291 0.951127 0.346925
0.140823 0.951659 0.398380
0.141353 0.952189 0.449677
0.141881 0.952717 0.500844
0.142409 0.953245 0.551896
0.142935 0.953771 0.602849
0.143461 0.954297 0.653714
0.143985 0.954821 0.704498
0.144509 0.955345 0.755210
0.145032 0.955868 0.805854
0.145555 0.956391 0.856437
0.146077 0.956913 0.906962
0.146598 0.957434 0.957434
0.108324 0.055903 0.055903
0.108871 0.056450 0.108871
0.109411 0.056990 0.161143
0.109947 0.057527 0.213045
0.110481 0.058060 0.264694
0.111012 0.058592 0.316149
0.111542 0.059122 0.367446
0.112071 0.059650 0.418612
0.112598 0.060178 0.469665
0.113125 0.060704 0.520618
0.113650 0.061230 0.571483
0.114175 0.061754 0.622267
0.114699 0.062278 0.672979
0.115222 0.062801 0.723623
0.115744 0.063324 0.774206
0.116266 0.063846 0.824731
0.116788 0.064367 0.875203
0.113744 0.113744 0.061324
0.114291 0.114291 0.114291
0.114832 0.114832 0.166563
0.115368 0.115368 0.218466
0.115901 0.115901 0.270114
0.116433 0.116433 0.321569
0.116963 0.116963 0.372867
0.117491 0.117491 0.424033
0.118019 0.118019 0.475086
0.118545 0.118545 0.526039
0.119071 0.119071 0.576903
0.119595 0.119595 0.627688
0.120119 0.120119 0.678399
0.120642 0.120642 0.729044
0.121165 0.121165 0.779626
0.121687 0.121687 0.830152
0.122208 0.122208 0.880623
0.119093 0.170825 0.066673
0.119641 0.171372 0.119641
0.120181 0.171912 0.171912
0.120717 0.172449 0.223815
0.121250 0.172982 0.275464
0.121782 0.173514 0.326918
0.122312 0.174044 0.378216
0.122841 0.174572 0.429382
0.123368 0.175100 0.480435
0.123894 0.175626 0.531388
0.124420 0.176152 0.582252
0.124944 0.176676 0.633037
0.125468 0.177200 0.683748
0.125992 0.177723 0.734393
0.126514 0.178246 0.784976
0.127036 0.178768 0.835501
0.127557 0.179289 0.885973
0.124405 0.227503 0.071984
0.124952 0.228050 0.124952
0.125492 0.228590 0.177224
0.126028 0.229126 0.229126
0.126562 0.229660 0.280775
0.127093 0.230192 0.332230
0.127623 0.230721 0.383527
0.128152 0.231250 0.434693
0.128679 0.231777 0.485746
0.129206 0.232304 0.536699
0.129731 0.232829 0.587564
0.130256 0.233354 0.638348
0.130780 0.233878 0.689060
0.131303 0.234401 0.739704
0.131825 0.234924 0.790287
0.132347 0.235446 0.840812
0.132869 0.235967 0.891284
0.129690 0.283903 0.077270
0.130238 0.284451 0.130238
0.130778 0.284991 0.182509
0.131314 0.285527 0.234412
0.131847 0.286060 0.286060
0.132379 0.286592 0.337515
0.132909 0.287122 0.388813
0.133437 0.287650 0.439979
0.133965 0.288178 0.491032
0.134491 0.288704 0.541985
0.135017 0.289230 0.592849
0.135541 0.289754 0.643634
0.136065 0.290278 0.694345
0.136588 0.290801 0.744990
0.137111 0.291324 0.795572
0.137633 0.291846 0.846098
0.138154 0.292367 0.896570
0.134956 0.340092 0.082535
0.135503 0.340639 0.135503
0.136043 0.341179 0.187775
0.136579 0.341715 0.239677
0.137113 0.342249 0.291326
0.137644 0.342781 0.342781
0.138174 0.343310 0.394078
0.138703 0.343839 0.445244
0.139230 0.344366 0.496297
0.139757 0.344893 0.547250
0.140282 0.345418 0.598115
0.140807 0.345943 0.648899
0.141331 0.346467 0.699611
0.141854 0.346990 0.750255
0.142376 0.347513 0.800838
0.142898 0.348035 0.851363
0.143420 0.348556 0.901835
0.140205 0.396109 0.087785
0.140753 0.396657 0.140753
0.141293 0.397197 0.193024
0.141829 0.397733 0.244927
0.142362 0.398266 0.296575
0.142894 0.398798 0.348030
0.143424 0.399328 0.399328
0.143952 0.399856 0.450494
0.144480 0.400384 0.501547
0.145006 0.400910 0.552500
0.145532 0.401436 0.603364
0.146056 0.401960 0.654149
0.146580 0.402484 0.704860
0.147103 0.403007 0.755505
0.147626 0.403530 0.806087
0.148148 0.404052 0.856613
0.148669 0.404573 0.907085
0.145441 0.451983 0.093021
0.145989 0.452530 0.145989
0.146529 0.453070 0.198260
0.147065 0.453606 0.250163
0.147598 0.454140 0.301811
0.148130 0.454672 0.353266
0.148660 0.455201 0.404564
0.149188 0.455730 0.455730
0.149716 0.456257 0.506783
0.150242 0.456784 0.557736
0.150768 0.457309 0.608600
0.151292 0.457834 0.659385
0.151816 0.458358 0.710096
0.152339 0.458881 0.760741
0.152862 0.459404 0.811324
0.153384 0.459926 0.861849
0.153905 0.460447 0.912321
0.150666 0.507733 0.098245
0.151213 0.508280 0.151213
0.151753 0.508820 0.203485
0.152289 0.509356 0.255387
0.152823 0.509890 0.307036
0.153354 0.510421 0.358491
0.153884 0.510951 0.409788
0.154413 0.511480 0.460954
0.154940 0.512007 0.512007
0.155467 0.512534 0.562960
0.155992 0.513059 0.613825
0.156517 0.513584 0.664609
0.157041 0.514108 0.715321
0.157564 0.514631 0.765965
0.158086 0.515153 0.816548
0.158608 0.515675 0.867073
0.159130 0.516197 0.917545
0.155880 0.563374 0.103460
0.156427 0.563921 0.156427
0.156967 0.564461 0.208699
0.157504 0.564997 0.260602
0.158037 0.565531 0.312250
0.158569 0.566062 0.363705
0.159099 0.566592 0.415003
0.159627 0.567121 0.466169
0.160155 0.567648 0.517221
0.160681 0.568175 0.568175
0.161206 0.568700 0.619039
0.161731 0.569225 0.669823
0.162255 0.569749 0.720535
0.162778 0.570272 0.771179
0.163301 0.570794 0.821762
0.163823 0.571316 0.872288
0.164344 0.571838 0.922759
0.161085 0.618918 0.108665
0.161632 0.619465 0.161632
0.162172 0.620005 0.213904
0.162709 0.620541 0.265807
0.163242 0.621075 0.317455
0.163774 0.621606 0.368910
0.164304 0.622136 0.420208
0.164832 0.622665 0.471374
0.165360 0.623192 0.522427
0.165886 0.623719 0.573380
0.166412 0.624244 0.624244
0.166936 0.624769 0.675029
0.167460 0.625293 0.725740
0.167983 0.625816 0.776385
0.168506 0.626338 0.826967
0.169028 0.626860 0.877493
0.169549 0.627382 0.927964
0.166282 0.674375 0.113862
0.166829 0.674922 0.166829
0.167369 0.675462 0.219101
0.167906 0.675998 0.271004
0.168439 0.676532 0.322652
0.168971 0.677063 0.374107
0.169501 0.677593 0.425405
0.170029 0.678122 0.476571
0.170557 0.678649 0.527624
0.171083 0.679175 0.578577
0.171609 0.679701 0.629441
0.172133 0.680225 0.680225
0.172657 0.680749 0.730937
0.173180 0.681273 0.781582
0.173703 0.681795 0.832164
0.174225 0.682317 0.882690
0.174746 0.682838 0.933161
0.171472 0.729752 0.119051
0.172019 0.730299 0.172019
0.172559 0.730839 0.224291
0.173095 0.731375 0.276193
0.173629 0.731909 0.327842
0.174160 0.732440 0.379296
0.174690 0.732970 0.430594
0.175219 0.733499 0.481760
0.175746 0.734026 0.532813
0.176273 0.734552 0.583766
0.176798 0.735078 0.634631
0.177323 0.735603 0.685415
0.177847 0.736126 0.736126
0.178370 0.736650 0.786771
0.178892 0.737172 0.837354
0.179414 0.737694 0.887879
0.179936 0.738216 0.938351
0.176654 0.785056 0.124234
0.177202 0.785603 0.177202
0.177742 0.786143 0.229473
0.178278 0.786679 0.281376
0.178811 0.787213 0.333025
0.179343 0.787744 0.384479
0.179873 0.788274 0.435777
0.180402 0.788803 0.486943
0.180929 0.789330 0.537996
0.181455 0.789857 0.588949
0.181981 0.790382 0.639813
0.182505 0.790907 0.690598
0.183029 0.791431 0.741309
0.183552 0.791954 0.791954
0.184075 0.792476 0.842537
0.184597 0.792998 0.893062
0.185118 0.793520 0.943534
0.181831 0.840292 0.129410
0.182378 0.840839 0.182378
0.182918 0.841379 0.234650
0.183454 0.841916 0.286552
0.183988 0.842449 0.338201
0.184519 0.842981 0.389655
0.185049 0.843511 0.440953
0.185578 0.844039 0.492119
0.186105 0.844567 0.543172
0.186632 0.845093 0.594125
0.187157 0.845619 0.644990
0.187682 0.846143 0.695774
0.188206 0.846667 0.746486
0.188729 0.847190 0.797130
0.189251 0.847713 0.847713
0.189773 0.848235 0.898238
0.190295 0.848756 0.948710
0.187001 0.895466 0.134581
0.187548 0.896013 0.187548
0.188088 0.896553 0.239820
0.188625 0.897090 0.291723
0.189158 0.897623 0.343371
0.189690 0.898155 0.394826
0.190220 0.898685 0.446124
0.190748 0.899213 0.497290
0.191276 0.899741 0.548343
0.191802 0.900267 0.599296
0.192328 0.900792 0.650160
0.192852 0.901317 0.700945
0.193376 0.901841 0.751656
0.193899 0.902364 0.802301
0.194422 0.902887 0.852883
0.194944 0.903409 0.903409
0.195465 0.903930 0.953880
0.192166 0.950582 0.139746
0.192713 0.951129 0.192713
0.193253 0.951669 0.244985
0.193790 0.952205 0.296888
0.194323 0.952738 0.348536
0.194855 0.953270 0.399991
0.195385 0.953800 0.451289
0.195913 0.954329 0.502455
0.196441 0.954856 0.553508
0.196967 0.955382 0.604461
0.197493 0.955908 0.655325
0.198017 0.956432 0.706109
0.198541 0.956956 0.756821
0.199064 0.957480 0.807466
0.199587 0.958002 0.858048
0.200109 0.958524 0.908574
0.200630 0.959045 0.959045
0.161646 0.057493 0.057493
0.162193 0.058041 0.110461
0.162733 0.058581 0.162733
0.163269 0.059117 0.214635
0.163803 0.059650 0.266284
0.164334 0.060182 0.317739
0.164864 0.060712 0.369036
0.165393 0.061240 0.420203
0.165920 0.061768 0.471255
0.166447 0.062294 0.522208
0.166972 0.062820 0.573073
0.167497 0.063344 0.623857
0.168021 0.063868 0.674569
0.168544 0.064391 0.725213
0.169066 0.064914 0.775796
0.169588 0.065436 0.826321
0.170110 0.065957 0.876793
0.167066 0.115334 0.062914
0.167613 0.115882 0.115882
0.168153 0.116422 0.168153
0.168690 0.116958 0.220056
0.169223 0.117491 0.271704
0.169755 0.118023 0.323159
0.170285 0.118553 0.374457
0.170813 0.119081 0.425623
0.171341 0.119609 0.476676
0.171867 0.120135 0.527629
0.172392 0.120661 0.578493
0.172917 0.121185 0.629278
0.173441 0.121709 0.679989
0.173964 0.122232 0.730634
0.174487 0.122755 0.781216
0.175009 0.123277 0.831742
0.175530 0.123798 0.882214
0.172415 0.172415 0.068263
0.172962 0.172962 0.121231
0.173502 0.173502 0.173502
0.174039 0.174039 0.225405
0.174572 0.174572 0.277054
0.175104 0.175104 0.328508
0.175634 0.175634 0.379806
0.176162 0.176162 0.430972
0.176690 0.176690 0.482025
0.177216 0.177216 0.532978
0.177742 0.177742 0.583842
0.178266 0.178266 0.634627
0.178790 0.178790 0.685338
0.179313 0.179313 0.735983
0.179836 0.179836 0.786566
0.180358 0.180358 0.837091
0.180879 0.180879 0.887563
0.177727 0.229093 0.073574
0.178274 0.229640 0.126542
0.178814 0.230180 0.178814
0.179350 0.230716 0.230716
0.179884 0.231250 0.282365
0.180415 0.231782 0.333820
0.180945 0.232312 0.385117
0.181474 0.232840 0.436284
0.182001 0.233368 0.487336
0.182528 0.233894 0.538289
0.183053 0.234419 0.589154
0.183578 0.234944 0.639938
0.184102 0.235468 0.690650
0.184625 0.235991 0.741294
0.185147 0.236514 0.791877
0.185669 0.237036 0.842402
0.186191 0.237557 0.892874
0.183012 0.285493 0.078860
0.183559 0.286041 0.131828
0.184099 0.286581 0.184099
0.184636 0.287117 0.236002
0.185169 0.287650 0.287650
0.185701 0.288182 0.339105
0.186231 0.288712 0.390403
0.186759 0.289241 0.441569
0.187287 0.289768 0.492622
0.187813 0.290294 0.543575
0.188338 0.290820 0.594439
0.188863 0.291344 0.645224
0.189387 0.291868 0.695935
0.189910 0.292392 0.746580
0.190433 0.292914 0.797162
0.190955 0.293436 0.847688
0.191476 0.293957 0.898160
0.188278 0.341682 0.084125
0.188825 0.342229 0.137093
0.189365 0.342769 0.189365
0.189901 0.343306 0.241267
0.190435 0.343839 0.292916
0.190966 0.344371 0.344371
0.191496 0.344901 0.395668
0.192025 0.345429 0.446835
0.192552 0.345957 0.497887
0.193079 0.346483 0.548840
0.193604 0.347008 0.599705
0.194129 0.347533 0.650489
0.194653 0.348057 0.701201
0.195176 0.348580 0.751845
0.195698 0.349103 0.802428
0.196220 0.349625 0.852953
0.196742 0.350146 0.903425
0.193527 0.397699 0.089375
0.194074 0.398247 0.142343
0.194614 0.398787 0.194614
0.195151 0.399323 0.246517
0.195684 0.399856 0.298166
0.196216 0.400388 0.349620
0.196746 0.400918 0.400918
0.197274 0.401447 0.452084
0.197802 0.401974 0.503137
0.198328 0.402500 0.554090
0.198854 0.403026 0.604954
0.199378 0.403550 0.655739
0.199902 0.404074 0.706450
0.200425 0.404598 0.757095
0.200948 0.405120 0.807678
0.201470 0.405642 0.858203
0.201991 0.406163 0.908675
0.198763 0.453573 0.094611
0.199310 0.454120 0.147579
0.199850 0.454660 0.199850
0.200387 0.455196 0.251753
0.200920 0.455730 0.303402
0.201452 0.456262 0.354856
0.201982 0.456792 0.406154
0.202510 0.457320 0.457320
0.203038 0.457848 0.508373
0.203564 0.458374 0.559326
0.204090 0.458899 0.610190
0.204614 0.459424 0.660975
0.205138 0.459948 0.711686
0.205661 0.460471 0.762331
0.206184 0.460994 0.812914
0.206706 0.461516 0.863439
0.207227 0.462037 0.913911
0.203988 0.509323 0.099835
0.204535 0.509870 0.152803
0.205075 0.510410 0.205075
0.205611 0.510946 0.256977
0.206145 0.511480 0.308626
0.206676 0.512011 0.360081
0.207206 0.512541 0.411378
0.207735 0.513070 0.462545
0.208262 0.513597 0.513597
0.208789 0.514124 0.564550
0.209314 0.514649 0.615415
0.209839 0.515174 0.666199
0.210363 0.515698 0.716911
0.210886 0.516221 0.767555
0.211408 0.516743 0.818138
0.211930 0.517265 0.868663
0.212452 0.517787 0.919135
0.209202 0.564964 0.105050
0.209749 0.565511 0.158017
0.210289 0.566051 0.210289
0.210825 0.566587 0.262192
0.211359 0.567121 0.313840
0.211890 0.567652 0.365295
0.212420 0.568182 0.416593
0.212949 0.568711 0.467759
0.213476 0.569238 0.518812
0.214003 0.569765 0.569765
0.214528 0.570290 0.620629
0.215053 0.570815 0.671413
0.215577 0.571339 0.722125
0.216100 0.571862 0.772770
0.216623 0.572384 0.823352
0.217144 0.572906 0.873878
0.217666 0.573428 0.924349
0.214407 0.620508 0.110255
0.214954 0.621055 0.163223
0.215494 0.621595 0.215494
0.216030 0.622131 0.267397
0.216564 0.622665 0.319045
0.217096 0.623196 0.370500
0.217626 0.623726 0.421798
0.218154 0.624255 0.472964
0.218682 0.624782 0.524017
0.219208 0.625309 0.574970
0.219733 0.625834 0.625834
0.220258 0.626359 0.676619
0.220782 0.626883 0.727330
0.221305 0.627406 0.777975
0.221828 0.627929 0.828557
0.222350 0.628451 0.879083
0.222871 0.628972 0.929555
0.219604 0.675965 0.115452
0.220151 0.676512 0.168420
0.220691 0.677052 0.220691
0.221227 0.677588 0.272594
0.221761 0.678122 0.324242
0.222293 0.678653 0.375697
0.222823 0.679183 0.426995
0.223351 0.679712 0.478161
0.223879 0.680239 0.529214
0.224405 0.680765 0.580167
0.224930 0.681291 0.631031
0.225455 0.681816 0.681816
0.225979 0.682339 0.732527
0.226502 0.682863 0.783172
0.227025 0.683385 0.833754
0.227547 0.683907 0.884280
0.228068 0.684429 0.934752
0.224794 0.731342 0.120641
0.225341 0.731889 0.173609
0.225881 0.732429 0.225881
0.226417 0.732965 0.277783
0.226951 0.733499 0.329432
0.227482 0.734030 0.380887
0.228012 0.734560 0.432184
0.228541 0.735089 0.483350
0.229068 0.735616 0.534403
0.229594 0.736143 0.585356
0.230120 0.736668 0.636221
0.230645 0.737193 0.687005
0.231168 0.737717 0.737717
0.231692 0.738240 0.788361
0.232214 0.738762 0.838944
0.232736 0.739284 0.889469
0.233258 0.739806 0.939941
0.229976 0.786646 0.125824
0.230523 0.787193 0.178792
0.231063 0.787733 0.231063
0.231600 0.788269 0.282966
0.232133 0.788803 0.334615
0.232665 0.789334 0.386069
0.233195 0.789864 0.437367
0.233723 0.790393 0.488533
0.234251 0.790920 0.539586
0.234777 0.791447 0.590539
0.235303 0.791972 0.641403
0.235827 0.792497 0.692188
0.236351 0.793021 0.742899
0.236874 0.793544 0.793544
0.237397 0.794066 0.844127
0.237919 0.794588 0.894652
0.238440 0.795110 0.945124
0.235153 0.841882 0.131000
0.235700 0.842430 0.183968
0.236240 0.842970 0.236240
0.236776 0.843506 0.288142
0.237310 0.844039 0.339791
0.237841 0.844571 0.391246
0.238371 0.845101 0.442543
0.238900 0.845629 0.493709
0.239427 0.846157 0.544762
0.239953 0.846683 0.595715
0.240479 0.847209 0.646580
0.241004 0.847733 0.697364
0.241527 0.848257 0.748076
0.242051 0.848780 0.798720
0.242573 0.849303 0.849303
0.243095 0.849825 0.899828
0.243617 0.850346 0.950300
0.240323 0.897056 0.136171
0.240870 0.897603 0.189139
0.241410 0.898143 0.241410
0.241946 0.898680 0.293313
0.242480 0.899213 0.344961
0.243012 0.899745 0.396416
0.243542 0.900275 0.447714
0.244070 0.900803 0.498880
0.244598 0.901331 0.549933
0.245124 0.901857 0.600886
0.245649 0.902383 0.651750
0.246174 0.902907 0.702535
0.246698 0.903431 0.753246
0.247221 0.903954 0.803891
0.247744 0.904477 0.854473
0.248266 0.904999 0.904999
0.248787 0.905520 0.955471
0.245488 0.952172 0.141336
0.246035 0.952719 0.194304
0.246575 0.953259 0.246575
0.247111 0.953795 0.298478
0.247645 0.954329 0.350126
0.248177 0.954860 0.401581
0.248707 0.955390 0.452879
0.249235 0.955919 0.504045
0.249763 0.956446 0.555098
0.250289 0.956972 0.606051
0.250814 0.957498 0.656915
0.251339 0.958023 0.707700
0.251863 0.958546 0.758411
0.252386 0.959070 0.809056
0.252909 0.959592 0.859638
0.253431 0.960114 0.910164
0.253952 0.960636 0.960636
0.214591 0.059072 0.059072
0.215138 0.059619 0.112040
0.215678 0.060159 0.164312
0.216214 0.060696 0.216214
0.216748 0.061229 0.267863
0.217279 0.061761 0.319318
0.217809 0.062291 0.370615
0.218338 0.062819 0.421781
0.218865 0.063347 0.472834
0.219392 0.063873 0.523787
0.219917 0.064399 0.574652
0.220442 0.064923 0.625436
0.220966 0.065447 0.676148
0.221489 0.065970 0.726792
0.222012 0.066493 0.777375
0.222534 0.067015 0.827900
0.223055 0.067536 0.878372
0.220011 0.116913 0.064493
