skills/editops-orchestrator/assets/grade/luts/vintage_fade_v09.cube
TITLE "vintage_fade_v09"
LUT_3D_SIZE 5
DOMAIN_MIN 0.0 0.0 0.0
DOMAIN_MAX 1.0 1.0 1.0
0.087898 0.087898 0.087898
0.090732 0.090732 0.278822
0.093499 0.093499 0.465289
0.096236 0.096236 0.649724
0.098954 0.098954 0.832816
0.115966 0.304056 0.115966
0.118800 0.306890 0.306890
0.121567 0.309657 0.493357
0.124305 0.312395 0.677793
0.127022 0.315112 0.860884
0.143379 0.515169 0.143379
0.146213 0.518002 0.334303
0.148980 0.520770 0.520770
0.151718 0.523507 0.705206
0.154435 0.526224 0.888297
0.170494 0.723982 0.170494
0.173327 0.726815 0.361417
0.176095 0.729583 0.547884
0.178832 0.732320 0.732320
0.181549 0.735037 0.915412
0.197411 0.931273 0.197411
0.200244 0.934107 0.388334
0.203012 0.936874 0.574801
0.205749 0.939611 0.759237
0.208466 0.942329 0.942329
0.284332 0.096242 0.096242
0.287165 0.099075 0.287165
0.289933 0.101843 0.473632
0.292670 0.104580 0.658068
0.295387 0.107297 0.841160
0.312400 0.312400 0.124310
0.315233 0.315233 0.315233
0.318001 0.318001 0.501700
0.320738 0.320738 0.686136
0.323455 0.323455 0.869228
0.339813 0.523512 0.151723
0.342646 0.526346 0.342646
0.345414 0.529113 0.529113
0.348151 0.531851 0.713549
0.350868 0.534568 0.896641
0.366927 0.732325 0.178837
0.369761 0.735159 0.369761
0.372528 0.737926 0.556228
0.375265 0.740664 0.740664
0.377983 0.743381 0.923755
0.393844 0.939617 0.205754
0.396678 0.942450 0.396678
0.399445 0.945218 0.583145
0.402182 0.947955 0.767580
0.404900 0.950672 0.950672
0.476180 0.104391 0.104391
0.479014 0.107224 0.295314
0.481781 0.109991 0.481781
0.484518 0.112729 0.666217
0.487235 0.115446 0.849309
0.504248 0.320549 0.132459
0.507082 0.323382 0.323382
0.509849 0.326150 0.509849
0.512586 0.328887 0.694285
0.515304 0.331604 0.877377
0.531661 0.531661 0.159872
0.534495 0.534495 0.350795
0.537262 0.537262 0.537262
0.539999 0.539999 0.721698
0.542717 0.542717 0.904790
0.558776 0.740474 0.186986
0.561609 0.743308 0.377910
0.564377 0.746075 0.564377
0.567114 0.748812 0.748812
0.569831 0.751530 0.931904
0.585693 0.947766 0.213903
0.588526 0.950599 0.404827
0.591293 0.953366 0.591293
0.594031 0.956104 0.775729
0.596748 0.958821 0.958821
0.665939 0.112451 0.112451
0.668772 0.115284 0.303374
0.671540 0.118051 0.489841
0.674277 0.120789 0.674277
0.676994 0.123506 0.857369
0.694007 0.328609 0.140519
0.696840 0.331442 0.331442
0.699608 0.334210 0.517909
0.702345 0.336947 0.702345
0.705062 0.339664 0.885437
0.721420 0.539721 0.167932
0.724253 0.542555 0.358855
0.727021 0.545322 0.545322
0.729758 0.548059 0.729758
0.732475 0.550777 0.912850
0.748534 0.748534 0.195046
0.751368 0.751368 0.385970
0.754135 0.754135 0.572437
0.756872 0.756872 0.756872
0.759590 0.759590 0.939964
0.775451 0.955826 0.221963
0.778285 0.958659 0.412887
0.781052 0.961427 0.599353
0.783789 0.964164 0.783789
0.786506 0.966881 0.966881
0.854314 0.120452 0.120452
0.857148 0.123285 0.311375
0.859915 0.126053 0.497842
0.862653 0.128790 0.682278
0.865370 0.131507 0.865370
0.882383 0.336610 0.148520
0.885216 0.339444 0.339444
0.887984 0.342211 0.525910
0.890721 0.344948 0.710346
0.893438 0.347665 0.893438
0.909796 0.547723 0.175933
0.912629 0.550556 0.366857
0.915397 0.553323 0.553323
0.918134 0.556061 0.737759
0.920851 0.558778 0.920851
0.936910 0.756536 0.203048
0.939744 0.759369 0.393971
0.942511 0.762136 0.580438
0.945248 0.764874 0.764874
0.947965 0.767591 0.947965
0.963827 0.963827 0.229964
0.966660 0.966660 0.420888
0.969428 0.969428 0.607355
0.972165 0.972165 0.791790
0.974882 0.974882 0.974882
