skills/editops-orchestrator/assets/grade/luts/vintage_fade_v05.cube
TITLE "vintage_fade_v05"
LUT_3D_SIZE 5
DOMAIN_MIN 0.0 0.0 0.0
DOMAIN_MAX 1.0 1.0 1.0
0.054292 0.054292 0.054292
0.056449 0.056449 0.263083
0.058566 0.058566 0.468054
0.060667 0.060667 0.671367
0.062756 0.062756 0.873592
0.075658 0.282292 0.075658
0.077815 0.284449 0.284449
0.079933 0.286567 0.489420
0.082033 0.288667 0.692734
0.084122 0.290756 0.894958
0.096634 0.506121 0.096634
0.098791 0.508278 0.305425
0.100908 0.510396 0.510396
0.103009 0.512496 0.713709
0.105098 0.514585 0.915934
0.117440 0.728140 0.117440
0.119597 0.730297 0.326231
0.121714 0.732415 0.531202
0.123815 0.734515 0.734515
0.125904 0.736604 0.936740
0.138134 0.948970 0.138134
0.140291 0.951127 0.346925
0.142409 0.953245 0.551896
0.144509 0.955345 0.755210
0.146598 0.957434 0.957434
0.267277 0.060643 0.060643
0.269434 0.062800 0.269434
0.271552 0.064918 0.474405
0.273652 0.067018 0.677719
0.275741 0.069107 0.879943
0.288643 0.288643 0.082010
0.290800 0.290800 0.290800
0.292918 0.292918 0.495772
0.295018 0.295018 0.699085
0.297107 0.297107 0.901310
0.309619 0.512473 0.102985
0.311776 0.514630 0.311776
0.313894 0.516747 0.516747
0.315994 0.518848 0.720061
0.318083 0.520937 0.922285
0.330425 0.734492 0.123791
0.332582 0.736649 0.332582
0.334699 0.738766 0.537553
0.336800 0.740867 0.740867
0.338889 0.742956 0.943091
0.351119 0.955322 0.144486
0.353276 0.957479 0.353276
0.355394 0.959596 0.558248
0.357494 0.961696 0.761561
0.359583 0.963786 0.963786
0.476366 0.066879 0.066879
0.478523 0.069036 0.275669
0.480641 0.071153 0.480641
0.482741 0.073253 0.683954
0.484830 0.075343 0.886178
0.497732 0.294879 0.088245
0.499889 0.297036 0.297036
0.502007 0.299153 0.502007
0.504107 0.301254 0.705320
0.506196 0.303343 0.907545
0.518708 0.518708 0.109221
0.520865 0.520865 0.318011
0.522982 0.522982 0.522982
0.525083 0.525083 0.726296
0.527172 0.527172 0.928520
0.539514 0.740727 0.130026
0.541671 0.742884 0.338817
0.543788 0.745001 0.543788
0.545889 0.747102 0.747102
0.547978 0.749191 0.949326
0.560208 0.961557 0.150721
0.562365 0.963714 0.359512
0.564483 0.965831 0.564483
0.566583 0.967932 0.767796
0.568672 0.970021 0.970021
0.683764 0.073063 0.073063
0.685921 0.075220 0.281854
0.688038 0.077338 0.486825
0.690139 0.079438 0.690139
0.692228 0.081527 0.892363
0.705130 0.301063 0.094430
0.707287 0.303220 0.303220
0.709405 0.305338 0.508192
0.711505 0.307438 0.711505
0.713594 0.309527 0.913730
0.726106 0.524893 0.115405
0.728263 0.527050 0.324196
0.730380 0.529167 0.529167
0.732481 0.531268 0.732481
0.734570 0.533357 0.934705
0.746912 0.746912 0.136211
0.749069 0.749069 0.345002
0.751186 0.751186 0.549973
0.753287 0.753287 0.753287
0.755376 0.755376 0.955511
0.767606 0.967742 0.156906
0.769763 0.969899 0.365696
0.771881 0.972016 0.570668
0.773981 0.974116 0.773981
0.776070 0.976206 0.976206
0.890051 0.079215 0.079215
0.892208 0.081372 0.288006
0.894325 0.083489 0.492977
0.896426 0.085590 0.696290
0.898515 0.087679 0.898515
0.911417 0.307215 0.100581
0.913574 0.309372 0.309372
0.915692 0.311490 0.514343
0.917792 0.313590 0.717657
0.919881 0.315679 0.919881
0.932393 0.531044 0.121557
0.934550 0.533201 0.330348
0.936667 0.535319 0.535319
0.938768 0.537419 0.738632
0.940857 0.539508 0.940857
0.953199 0.753063 0.142363
0.955356 0.755220 0.351154
0.957473 0.757338 0.556125
0.959574 0.759438 0.759438
0.961663 0.761527 0.961663
0.973893 0.973893 0.163057
0.976050 0.976050 0.371848
0.978168 0.978168 0.576819
0.980268 0.980268 0.780133
0.982357 0.982357 0.982357
