skills/editops-orchestrator/assets/grade/luts/vintage_fade_v11.cube
TITLE "vintage_fade_v11"
LUT_3D_SIZE 9
DOMAIN_MIN 0.0 0.0 0.0
DOMAIN_MAX 1.0 1.0 1.0
0.104559 0.104559 0.104559
0.106150 0.106150 0.196664
0.107707 0.107707 0.286824
0.109247 0.109247 0.375971
0.110775 0.110775 0.464425
0.112294 0.112294 0.552351
0.113805 0.113805 0.639853
0.115311 0.115311 0.726999
0.116811 0.116811 0.813839
0.120319 0.210833 0.120319
0.121910 0.212424 0.212424
0.123467 0.213981 0.302585
0.125007 0.215521 0.391731
0.126535 0.217049 0.480185
0.128054 0.218568 0.568111
0.129565 0.220080 0.655613
0.131071 0.221585 0.742759
0.132571 0.223085 0.829599
0.135746 0.314864 0.135746
0.137337 0.316455 0.227851
0.138895 0.318012 0.318012
0.140435 0.319552 0.407159
0.141963 0.321080 0.495612
0.143482 0.322599 0.583539
0.144993 0.324110 0.671041
0.146498 0.325616 0.758187
0.147998 0.327116 0.845027
0.151000 0.417725 0.151000
0.152591 0.419316 0.243105
0.154149 0.420873 0.333266
0.155689 0.422413 0.422413
0.157217 0.423941 0.510866
0.158736 0.425460 0.598793
0.160247 0.426971 0.686295
0.161752 0.428476 0.773441
0.163252 0.429977 0.860281
0.166136 0.519786 0.166136
0.167727 0.521377 0.258241
0.169284 0.522934 0.348402
0.170824 0.524474 0.437548
0.172352 0.526002 0.526002
0.173871 0.527521 0.613929
0.175383 0.529032 0.701430
0.176888 0.530538 0.788576
0.178388 0.532038 0.875416
0.181181 0.621239 0.181181
0.182772 0.622830 0.273286
0.184330 0.624387 0.363447
0.185870 0.625927 0.452594
0.187397 0.627455 0.541047
0.188916 0.628974 0.628974
0.190428 0.630485 0.716476
0.191933 0.631991 0.803621
0.193433 0.633491 0.890461
0.196154 0.722201 0.196154
0.197745 0.723792 0.288259
0.199302 0.725350 0.378419
0.200842 0.726890 0.467566
0.202370 0.728418 0.556020
0.203889 0.729937 0.643946
0.205400 0.731448 0.731448
0.206906 0.732953 0.818594
0.208406 0.734453 0.905434
0.211065 0.822754 0.211065
0.212656 0.824345 0.303170
0.214214 0.825902 0.393331
0.215754 0.827442 0.482478
0.217282 0.828970 0.570931
0.218801 0.830489 0.658858
0.220312 0.832000 0.746360
0.221817 0.833506 0.833506
0.223317 0.835006 0.920346
0.225925 0.922953 0.225925
0.227516 0.924544 0.318030
0.229073 0.926101 0.408190
0.230613 0.927641 0.497337
0.232141 0.929169 0.585791
0.233660 0.930688 0.673717
0.235171 0.932199 0.761219
0.236677 0.933705 0.848365
0.238177 0.935205 0.935205
0.199758 0.109244 0.109244
0.201349 0.110835 0.201349
0.202906 0.112392 0.291509
0.204446 0.113932 0.380656
0.205974 0.115460 0.469109
0.207493 0.116979 0.557036
0.209004 0.118490 0.644538
0.210509 0.119995 0.731684
0.212010 0.121496 0.818524
0.215518 0.215518 0.125004
0.217109 0.217109 0.217109
0.218666 0.218666 0.307269
0.220206 0.220206 0.396416
0.221734 0.221734 0.484870
0.223253 0.223253 0.572796
0.224764 0.224764 0.660298
0.226270 0.226270 0.747444
0.227770 0.227770 0.834284
0.230945 0.319549 0.140431
0.232536 0.321140 0.232536
0.234094 0.322697 0.322697
0.235634 0.324237 0.411844
0.237162 0.325765 0.500297
0.238680 0.327284 0.588224
0.240192 0.328795 0.675726
0.241697 0.330300 0.762872
0.243197 0.331801 0.849711
0.246199 0.422409 0.155685
0.247790 0.424000 0.247790
0.249348 0.425558 0.337951
0.250888 0.427098 0.427098
0.252416 0.428626 0.515551
0.253934 0.430144 0.603478
0.255446 0.431656 0.690980
0.256951 0.433161 0.778126
0.258451 0.434661 0.864965
0.261335 0.524470 0.170821
0.262926 0.526061 0.262926
0.264483 0.527619 0.353086
0.266023 0.529159 0.442233
0.267551 0.530687 0.530687
0.269070 0.532206 0.618613
0.270581 0.533717 0.706115
0.272087 0.535222 0.793261
0.273587 0.536722 0.880101
0.276380 0.625924 0.185866
0.277971 0.627515 0.277971
0.279529 0.629072 0.368132
0.281068 0.630612 0.457278
0.282596 0.632140 0.545732
0.284115 0.633659 0.633659
0.285627 0.635170 0.721160
0.287132 0.636676 0.808306
0.288632 0.638176 0.895146
0.291353 0.726886 0.200839
0.292944 0.728477 0.292944
0.294501 0.730035 0.383104
0.296041 0.731575 0.472251
0.297569 0.733103 0.560705
0.299088 0.734621 0.648631
0.300599 0.736133 0.736133
0.302105 0.737638 0.823279
0.303605 0.739138 0.910119
0.306264 0.827439 0.215750
0.307855 0.829030 0.307855
0.309413 0.830587 0.398016
0.310953 0.832127 0.487163
0.312481 0.833655 0.575616
0.313999 0.835174 0.663543
0.315511 0.836685 0.751045
0.317016 0.838191 0.838191
0.318516 0.839691 0.925030
0.321124 0.927638 0.230610
0.322715 0.929229 0.322715
0.324272 0.930786 0.412875
0.325812 0.932326 0.502022
0.327340 0.933854 0.590476
0.328859 0.935373 0.678402
0.330370 0.936884 0.765904
0.331876 0.938390 0.853050
0.333376 0.939890 0.939890
0.292947 0.113830 0.113830
0.294538 0.115421 0.205935
0.296095 0.116978 0.296095
0.297635 0.118518 0.385242
0.299163 0.120046 0.473695
0.300682 0.121565 0.561622
0.302193 0.123076 0.649124
0.303699 0.124581 0.736270
0.305199 0.126082 0.823110
0.308707 0.220104 0.129590
0.310298 0.221695 0.221695
0.311855 0.223252 0.311855
0.313395 0.224792 0.401002
0.314923 0.226320 0.489456
0.316442 0.227839 0.577382
0.317954 0.229350 0.664884
0.319459 0.230856 0.752030
0.320959 0.232356 0.838870
0.324135 0.324135 0.145017
0.325726 0.325726 0.237122
0.327283 0.327283 0.327283
0.328823 0.328823 0.416430
0.330351 0.330351 0.504883
0.331870 0.331870 0.592810
0.333381 0.333381 0.680312
0.334886 0.334886 0.767457
0.336387 0.336387 0.854297
0.339389 0.426995 0.160271
0.340980 0.428586 0.252376
0.342537 0.430144 0.342537
0.344077 0.431684 0.431684
0.345605 0.433212 0.520137
0.347124 0.434730 0.608064
0.348635 0.436242 0.695566
0.350140 0.437747 0.782712
0.351641 0.439247 0.869551
0.354524 0.529056 0.175407
0.356115 0.530647 0.267512
0.357672 0.532205 0.357672
0.359212 0.533745 0.446819
0.360740 0.535273 0.535273
0.362259 0.536792 0.623199
0.363771 0.538303 0.710701
0.365276 0.539808 0.797847
0.366776 0.541308 0.884687
0.369569 0.630510 0.190452
0.371160 0.632101 0.282557
0.372718 0.633658 0.372718
0.374258 0.635198 0.461864
0.375786 0.636726 0.550318
0.377304 0.638245 0.638245
0.378816 0.639756 0.725746
0.380321 0.641261 0.812892
0.381821 0.642762 0.899732
0.384542 0.731472 0.205425
0.386133 0.733063 0.297530
0.387690 0.734621 0.387690
0.389230 0.736161 0.476837
0.390758 0.737689 0.565291
0.392277 0.739207 0.653217
0.393788 0.740719 0.740719
0.395294 0.742224 0.827865
0.396794 0.743724 0.914705
0.399454 0.832025 0.220336
0.401045 0.833616 0.312441
0.402602 0.835173 0.402602
0.404142 0.836713 0.491749
0.405670 0.838241 0.580202
0.407189 0.839760 0.668129
0.408700 0.841271 0.755631
0.410205 0.842776 0.842776
0.411706 0.844277 0.929616
0.414313 0.932224 0.235196
0.415904 0.933815 0.327301
0.417461 0.935372 0.417461
0.419001 0.936912 0.506608
0.420529 0.938440 0.595062
0.422048 0.939959 0.682988
0.423559 0.941470 0.770490
0.425065 0.942976 0.857636
0.426565 0.944476 0.944476
0.385088 0.118364 0.118364
0.386679 0.119955 0.210469
0.388236 0.121512 0.300630
0.389776 0.123052 0.389776
0.391304 0.124580 0.478230
0.392823 0.126099 0.566157
0.394335 0.127611 0.653658
0.395840 0.129116 0.740804
0.397340 0.130616 0.827644
0.400848 0.224638 0.134124
0.402439 0.226229 0.226229
0.403997 0.227787 0.316390
0.405537 0.229327 0.405537
0.407064 0.230854 0.493990
0.408583 0.232373 0.581917
0.410095 0.233885 0.669418
0.411600 0.235390 0.756564
0.413100 0.236890 0.843404
0.416276 0.328669 0.149552
0.417867 0.330260 0.241657
0.419424 0.331817 0.331817
0.420964 0.333357 0.420964
0.422492 0.334885 0.509418
0.424011 0.336404 0.597344
0.425522 0.337916 0.684846
0.427028 0.339421 0.771992
0.428528 0.340921 0.858832
0.431530 0.431530 0.164806
0.433121 0.433121 0.256911
0.434678 0.434678 0.347071
0.436218 0.436218 0.436218
0.437746 0.437746 0.524672
0.439265 0.439265 0.612598
0.440776 0.440776 0.700100
0.442282 0.442282 0.787246
0.443782 0.443782 0.874086
0.446665 0.533591 0.179941
0.448256 0.535182 0.272046
0.449814 0.536739 0.362207
0.451354 0.538279 0.451354
0.452881 0.539807 0.539807
0.454400 0.541326 0.627734
0.455912 0.542837 0.715236
0.457417 0.544343 0.802381
0.458917 0.545843 0.889221
0.461710 0.635044 0.194986
0.463301 0.636635 0.287091
0.464859 0.638192 0.377252
0.466399 0.639732 0.466399
0.467927 0.641260 0.554852
0.469446 0.642779 0.642779
0.470957 0.644291 0.730281
0.472462 0.645796 0.817427
0.473962 0.647296 0.904267
0.476683 0.736007 0.209959
0.478274 0.737598 0.302064
0.479831 0.739155 0.392225
0.481371 0.740695 0.481371
0.482899 0.742223 0.569825
0.484418 0.743742 0.657752
0.485930 0.745253 0.745253
0.487435 0.746759 0.832399
0.488935 0.748259 0.919239
0.491595 0.836559 0.224871
0.493186 0.838150 0.316976
0.494743 0.839707 0.407136
0.496283 0.841247 0.496283
0.497811 0.842775 0.584737
0.499330 0.844294 0.672663
0.500841 0.845806 0.760165
0.502347 0.847311 0.847311
0.503847 0.848811 0.934151
0.506454 0.936758 0.239730
0.508045 0.938349 0.331835
0.509602 0.939907 0.421996
0.511142 0.941446 0.511142
0.512670 0.942974 0.599596
0.514189 0.944493 0.687523
0.515701 0.946005 0.775024
0.517206 0.947510 0.862170
0.518706 0.949010 0.949010
0.476513 0.122863 0.122863
0.478104 0.124454 0.214968
0.479661 0.126012 0.305129
0.481201 0.127551 0.394275
0.482729 0.129079 0.482729
0.484248 0.130598 0.570656
0.485759 0.132110 0.658157
0.487265 0.133615 0.745303
0.488765 0.135115 0.832143
0.492273 0.229137 0.138623
0.493864 0.230728 0.230728
0.495421 0.232286 0.320889
0.496961 0.233826 0.410036
0.498489 0.235354 0.498489
0.500008 0.236872 0.586416
0.501520 0.238384 0.673918
0.503025 0.239889 0.761064
0.504525 0.241389 0.847903
0.507701 0.333168 0.154051
0.509292 0.334759 0.246156
0.510849 0.336317 0.336317
0.512389 0.337856 0.425463
0.513917 0.339384 0.513917
0.515436 0.340903 0.601843
0.516947 0.342415 0.689345
0.518452 0.343920 0.776491
0.519953 0.345420 0.863331
0.522955 0.436029 0.169305
0.524546 0.437620 0.261410
0.526103 0.439177 0.351571
0.527643 0.440717 0.440717
0.529171 0.442245 0.529171
0.530690 0.443764 0.617097
0.532201 0.445276 0.704599
0.533707 0.446781 0.791745
0.535207 0.448281 0.878585
0.538090 0.538090 0.184440
0.539681 0.539681 0.276545
0.541238 0.541238 0.366706
0.542778 0.542778 0.455853
0.544306 0.544306 0.544306
0.545825 0.545825 0.632233
0.547337 0.547337 0.719735
0.548842 0.548842 0.806881
0.550342 0.550342 0.893720
0.553135 0.639543 0.199486
0.554726 0.641134 0.291591
0.556284 0.642692 0.381751
0.557824 0.644231 0.470898
0.559352 0.645759 0.559352
0.560870 0.647278 0.647278
0.562382 0.648790 0.734780
0.563887 0.650295 0.821926
0.565387 0.651795 0.908766
0.568108 0.740506 0.214458
0.569699 0.742097 0.306563
0.571256 0.743654 0.396724
0.572796 0.745194 0.485871
0.574324 0.746722 0.574324
0.575843 0.748241 0.662251
0.577354 0.749752 0.749752
0.578860 0.751258 0.836898
0.580360 0.752758 0.923738
0.583020 0.841058 0.229370
0.584611 0.842649 0.321475
0.586168 0.844207 0.411636
0.587708 0.845746 0.500782
0.589236 0.847274 0.589236
0.590755 0.848793 0.677162
0.592266 0.850305 0.764664
0.593771 0.851810 0.851810
0.595272 0.853310 0.938650
0.597879 0.941257 0.244229
0.599470 0.942848 0.336334
0.601027 0.944406 0.426495
0.602567 0.945946 0.515642
0.604095 0.947474 0.604095
0.605614 0.948992 0.692022
0.607125 0.950504 0.779523
0.608631 0.952009 0.866669
0.610131 0.953509 0.953509
0.567393 0.127335 0.127335
0.568984 0.128926 0.219440
0.570541 0.130484 0.309601
0.572081 0.132024 0.398748
0.573609 0.133552 0.487201
0.575128 0.135071 0.575128
0.576640 0.136582 0.662630
0.578145 0.138087 0.749776
0.579645 0.139587 0.836616
0.583153 0.233610 0.143096
0.584744 0.235201 0.235201
0.586302 0.236758 0.325361
0.587842 0.238298 0.414508
0.589369 0.239826 0.502962
0.590888 0.241345 0.590888
0.592400 0.242856 0.678390
0.593905 0.244362 0.765536
0.595405 0.245862 0.852376
0.598581 0.337640 0.158523
0.600172 0.339231 0.250628
0.601729 0.340789 0.340789
0.603269 0.342329 0.429936
0.604797 0.343857 0.518389
0.606316 0.345376 0.606316
0.607827 0.346887 0.693818
0.609333 0.348392 0.780963
0.610833 0.349892 0.867803
0.613835 0.440501 0.173777
0.615426 0.442092 0.265882
0.616983 0.443650 0.356043
0.618523 0.445190 0.445190
0.620051 0.446718 0.533643
0.621570 0.448236 0.621570
0.623081 0.449748 0.709072
0.624587 0.451253 0.796217
0.626087 0.452753 0.883057
0.628970 0.542562 0.188913
0.630561 0.544153 0.281018
0.632119 0.545711 0.371178
0.633659 0.547251 0.460325
0.635186 0.548779 0.548779
0.636705 0.550297 0.636705
0.638217 0.551809 0.724207
0.639722 0.553314 0.811353
0.641222 0.554814 0.898193
0.644015 0.644015 0.203958
0.645606 0.645606 0.296063
0.647164 0.647164 0.386224
0.648704 0.648704 0.475370
0.650232 0.650232 0.563824
0.651751 0.651751 0.651751
0.653262 0.653262 0.739252
0.654767 0.654767 0.826398
0.656267 0.656267 0.913238
0.658988 0.744978 0.218931
0.660579 0.746569 0.311036
0.662136 0.748127 0.401196
0.663676 0.749667 0.490343
0.665204 0.751195 0.578796
0.666723 0.752713 0.666723
0.668235 0.754225 0.754225
0.669740 0.755730 0.841371
0.671240 0.757230 0.928211
0.673900 0.845530 0.233842
0.675491 0.847121 0.325947
0.677048 0.848679 0.416108
0.678588 0.850219 0.505255
0.680116 0.851747 0.593708
0.681635 0.853266 0.681635
0.683146 0.854777 0.769137
0.684652 0.856282 0.856282
0.686152 0.857782 0.943122
0.688759 0.945730 0.248702
0.690350 0.947321 0.340807
0.691907 0.948878 0.430967
0.693447 0.950418 0.520114
0.694975 0.951946 0.608567
0.696494 0.953465 0.696494
0.698006 0.954976 0.783996
0.699511 0.956482 0.871142
0.701011 0.957982 0.957982
0.657834 0.131786 0.131786
0.659425 0.133377 0.223891
0.660982 0.134935 0.314052
0.662522 0.136474 0.403199
0.664050 0.138002 0.491652
0.665569 0.139521 0.579579
0.667080 0.141033 0.667080
0.668586 0.142538 0.754226
0.670086 0.144038 0.841066
0.673594 0.238060 0.147546
0.675185 0.239651 0.239651
0.676743 0.241209 0.329812
0.678282 0.242749 0.418959
0.679810 0.244277 0.507412
0.681329 0.245796 0.595339
0.682841 0.247307 0.682841
0.684346 0.248812 0.769987
0.685846 0.250312 0.856827
0.689022 0.342091 0.162974
0.690613 0.343682 0.255079
0.692170 0.345240 0.345240
0.693710 0.346779 0.434386
0.695238 0.348307 0.522840
0.696757 0.349826 0.610767
0.698268 0.351338 0.698268
0.699774 0.352843 0.785414
0.701274 0.354343 0.872254
0.704276 0.444952 0.178228
0.705867 0.446543 0.270333
0.707424 0.448100 0.360494
0.708964 0.449640 0.449640
0.710492 0.451168 0.538094
0.712011 0.452687 0.626021
0.713522 0.454199 0.713522
0.715028 0.455704 0.800668
0.716528 0.457204 0.887508
0.719411 0.547013 0.193363
0.721002 0.548604 0.285468
0.722560 0.550162 0.375629
0.724099 0.551701 0.464776
0.725627 0.553229 0.553229
0.727146 0.554748 0.641156
0.728658 0.556260 0.728658
0.730163 0.557765 0.815804
0.731663 0.559265 0.902644
0.734456 0.648466 0.208409
0.736047 0.650057 0.300514
0.737605 0.651615 0.390674
0.739145 0.653155 0.479821
0.740673 0.654682 0.568275
0.742192 0.656201 0.656201
0.743703 0.657713 0.743703
0.745208 0.659218 0.830849
0.746708 0.660718 0.917689
0.749429 0.749429 0.223381
0.751020 0.751020 0.315486
0.752577 0.752577 0.405647
0.754117 0.754117 0.494794
0.755645 0.755645 0.583247
0.757164 0.757164 0.671174
0.758676 0.758676 0.758676
0.760181 0.760181 0.845821
0.761681 0.761681 0.932661
0.764341 0.849981 0.238293
0.765932 0.851572 0.330398
0.767489 0.853130 0.420559
0.769029 0.854670 0.509705
0.770557 0.856197 0.598159
0.772076 0.857716 0.686086
0.773587 0.859228 0.773587
0.775093 0.860733 0.860733
0.776593 0.862233 0.947573
0.779200 0.950180 0.253152
0.780791 0.951771 0.345257
0.782348 0.953329 0.435418
0.783888 0.954869 0.524565
0.785416 0.956397 0.613018
0.786935 0.957915 0.700945
0.788447 0.959427 0.788447
0.789952 0.960932 0.875592
0.791452 0.962432 0.962432
0.747907 0.136219 0.136219
0.749498 0.137810 0.228324
0.751055 0.139367 0.318484
0.752595 0.140907 0.407631
0.754123 0.142435 0.496085
0.755642 0.143954 0.584011
0.757154 0.145465 0.671513
0.758659 0.146971 0.758659
0.760159 0.148471 0.845499
0.763667 0.242493 0.151979
0.765258 0.244084 0.244084
0.766816 0.245641 0.334245
0.768356 0.247181 0.423391
0.769884 0.248709 0.511845
0.771402 0.250228 0.599772
0.772914 0.251740 0.687273
0.774419 0.253245 0.774419
0.775919 0.254745 0.861259
0.779095 0.346524 0.167407
0.780686 0.348115 0.259512
0.782243 0.349672 0.349672
0.783783 0.351212 0.438819
0.785311 0.352740 0.527273
0.786830 0.354259 0.615199
0.788341 0.355770 0.702701
0.789847 0.357276 0.789847
0.791347 0.358776 0.876687
0.794349 0.449385 0.182661
0.795940 0.450976 0.274766
0.797497 0.452533 0.364926
0.799037 0.454073 0.454073
0.800565 0.455601 0.542527
0.802084 0.457120 0.630453
0.803595 0.458631 0.717955
0.805101 0.460137 0.805101
0.806601 0.461637 0.891941
0.809484 0.551446 0.197796
0.811075 0.553037 0.289901
0.812633 0.554594 0.380062
0.814173 0.556134 0.469208
0.815701 0.557662 0.557662
0.817219 0.559181 0.645589
0.818731 0.560692 0.733090
0.820236 0.562198 0.820236
0.821736 0.563698 0.907076
0.824530 0.652899 0.212841
0.826121 0.654490 0.304946
0.827678 0.656047 0.395107
0.829218 0.657587 0.484254
0.830746 0.659115 0.572707
0.832265 0.660634 0.660634
0.833776 0.662145 0.748136
0.835282 0.663651 0.835282
0.836782 0.665151 0.922121
0.839502 0.753862 0.227814
0.841093 0.755453 0.319919
0.842651 0.757010 0.410080
0.844190 0.758550 0.499226
0.845718 0.760078 0.587680
0.847237 0.761597 0.675606
0.848749 0.763108 0.763108
0.850254 0.764614 0.850254
0.851754 0.766114 0.937094
0.854414 0.854414 0.242726
0.856005 0.856005 0.334831
0.857562 0.857562 0.424991
0.859102 0.859102 0.514138
0.860630 0.860630 0.602592
0.862149 0.862149 0.690518
0.863660 0.863660 0.778020
0.865166 0.865166 0.865166
0.866666 0.866666 0.952006
0.869273 0.954613 0.257585
0.870864 0.956204 0.349690
0.872422 0.957761 0.439851
0.873961 0.959301 0.528997
0.875489 0.960829 0.617451
0.877008 0.962348 0.705377
0.878520 0.963860 0.792879
0.880025 0.965365 0.880025
0.881525 0.966865 0.966865
0.837664 0.140636 0.140636
0.839255 0.142227 0.232741
0.840812 0.143784 0.322902
0.842352 0.145324 0.412048
0.843880 0.146852 0.500502
0.845399 0.148371 0.588428
0.846911 0.149882 0.675930
0.848416 0.151388 0.763076
0.849916 0.152888 0.849916
0.853424 0.246910 0.156396
0.855015 0.248501 0.248501
0.856573 0.250059 0.338662
0.858113 0.251598 0.427808
0.859640 0.253126 0.516262
0.861159 0.254645 0.604189
0.862671 0.256157 0.691690
0.864176 0.257662 0.778836
0.865676 0.259162 0.865676
0.868852 0.350941 0.171824
0.870443 0.352532 0.263929
0.872000 0.354089 0.354089
0.873540 0.355629 0.443236
0.875068 0.357157 0.531690
0.876587 0.358676 0.619616
0.878098 0.360187 0.707118
0.879604 0.361693 0.794264
0.881104 0.363193 0.881104
0.884106 0.453802 0.187078
0.885697 0.455393 0.279183
0.887254 0.456950 0.369343
0.888794 0.458490 0.458490
0.890322 0.460018 0.546944
0.891841 0.461537 0.634870
0.893352 0.463048 0.722372
0.894858 0.464554 0.809518
0.896358 0.466054 0.896358
0.899241 0.555863 0.202213
0.900832 0.557454 0.294318
0.902390 0.559011 0.384479
0.903930 0.560551 0.473626
0.905458 0.562079 0.562079
0.906976 0.563598 0.650006
0.908488 0.565109 0.737507
0.909993 0.566615 0.824653
0.911493 0.568115 0.911493
0.914287 0.657316 0.217258
0.915878 0.658907 0.309363
0.917435 0.660464 0.399524
0.918975 0.662004 0.488671
0.920503 0.663532 0.577124
0.922022 0.665051 0.665051
0.923533 0.666562 0.752553
0.925038 0.668068 0.839699
0.926539 0.669568 0.926539
0.929259 0.758279 0.232231
0.930850 0.759870 0.324336
0.932407 0.761427 0.414497
0.933947 0.762967 0.503643
0.935475 0.764495 0.592097
0.936994 0.766014 0.680024
0.938506 0.767525 0.767525
0.940011 0.769031 0.854671
0.941511 0.770531 0.941511
0.944171 0.858831 0.247143
0.945762 0.860422 0.339248
0.947319 0.861979 0.429408
0.948859 0.863519 0.518555
0.950387 0.865047 0.607009
0.951906 0.866566 0.694935
0.953417 0.868077 0.782437
0.954923 0.869583 0.869583
0.956423 0.871083 0.956423
0.959030 0.959030 0.262002
0.960621 0.960621 0.354107
0.962178 0.962178 0.444268
0.963718 0.963718 0.533414
0.965246 0.965246 0.621868
0.966765 0.966765 0.709795
0.968277 0.968277 0.797296
0.969782 0.969782 0.884442
0.971282 0.971282 0.971282
