skills/editops-orchestrator/assets/grade/luts/vintage_fade_v01.cube
TITLE "vintage_fade_v01"
LUT_3D_SIZE 17
DOMAIN_MIN 0.0 0.0 0.0
DOMAIN_MAX 1.0 1.0 1.0
0.020367 0.020367 0.020367
0.020725 0.020725 0.077819
0.021080 0.021080 0.134688
0.021433 0.021433 0.191283
0.021785 0.021785 0.247697
0.022136 0.022136 0.303974
0.022486 0.022486 0.360142
0.022836 0.022836 0.416218
0.023186 0.023186 0.472216
0.023535 0.023535 0.528145
0.023883 0.023883 0.584013
0.024231 0.024231 0.639826
0.024579 0.024579 0.695588
0.024927 0.024927 0.751305
0.025274 0.025274 0.806980
0.025621 0.025621 0.862615
0.025968 0.025968 0.918214
0.023917 0.081012 0.023917
0.024276 0.081370 0.081370
0.024631 0.081725 0.138238
0.024984 0.082078 0.194834
0.025336 0.082430 0.251248
0.025687 0.082781 0.307525
0.026037 0.083132 0.363693
0.026387 0.083481 0.419769
0.026736 0.083831 0.475767
0.027085 0.084180 0.531696
0.027434 0.084528 0.587564
0.027782 0.084877 0.643376
0.028130 0.085224 0.699139
0.028478 0.085572 0.754856
0.028825 0.085919 0.810531
0.029172 0.086267 0.866166
0.029519 0.086613 0.921764
0.027432 0.141040 0.027432
0.027790 0.141398 0.084885
0.028145 0.141753 0.141753
0.028498 0.142106 0.198349
0.028850 0.142458 0.254763
0.029201 0.142809 0.311040
0.029552 0.143160 0.367208
0.029902 0.143509 0.423284
0.030251 0.143859 0.479281
0.030600 0.144208 0.535210
0.030949 0.144556 0.591078
0.031297 0.144905 0.646891
0.031645 0.145252 0.702654
0.031992 0.145600 0.758371
0.032340 0.145947 0.814045
0.032687 0.146295 0.869681
0.033034 0.146641 0.925279
0.030930 0.200780 0.030930
0.031288 0.201139 0.088383
0.031643 0.201493 0.145251
0.031996 0.201846 0.201846
0.032348 0.202198 0.258260
0.032699 0.202550 0.314538
0.033050 0.202900 0.370705
0.033400 0.203250 0.426782
0.033749 0.203599 0.482779
0.034098 0.203948 0.538708
0.034446 0.204297 0.594576
0.034795 0.204645 0.650389
0.035143 0.204993 0.706152
0.035490 0.205340 0.761869
0.035838 0.205688 0.817543
0.036185 0.206035 0.873178
0.036532 0.206382 0.928777
0.034416 0.260329 0.034416
0.034775 0.260687 0.091869
0.035130 0.261042 0.148737
0.035483 0.261395 0.205333
0.035835 0.261747 0.261747
0.036186 0.262098 0.318024
0.036536 0.262449 0.374192
0.036886 0.262798 0.430268
0.037235 0.263148 0.486266
0.037584 0.263497 0.542195
0.037933 0.263845 0.598063
0.038281 0.264193 0.653875
0.038629 0.264541 0.709638
0.038977 0.264889 0.765355
0.039324 0.265236 0.821030
0.039671 0.265583 0.876665
0.040018 0.265930 0.932263
0.037894 0.319733 0.037894
0.038253 0.320091 0.095347
0.038608 0.320446 0.152215
0.038961 0.320799 0.208811
0.039313 0.321151 0.265225
0.039664 0.321502 0.321502
0.040014 0.321853 0.377670
0.040364 0.322203 0.433746
0.040714 0.322552 0.489744
0.041063 0.322901 0.545673
0.041411 0.323250 0.601541
0.041759 0.323598 0.657354
0.042107 0.323946 0.713116
0.042455 0.324293 0.768833
0.042802 0.324641 0.824508
0.043149 0.324988 0.880143
0.043496 0.325335 0.935742
0.041366 0.379021 0.041366
0.041724 0.379380 0.098819
0.042079 0.379735 0.155687
0.042432 0.380088 0.212282
0.042784 0.380440 0.268696
0.043135 0.380791 0.324974
0.043486 0.381141 0.381141
0.043836 0.381491 0.437218
0.044185 0.381841 0.493215
0.044534 0.382190 0.549144
0.044882 0.382538 0.605012
0.045231 0.382886 0.660825
0.045579 0.383234 0.716588
0.045926 0.383582 0.772305
0.046274 0.383929 0.827979
0.046621 0.384276 0.883614
0.046968 0.384623 0.939213
0.044832 0.438213 0.044832
0.045190 0.438572 0.102284
0.045545 0.438927 0.159153
0.045898 0.439280 0.215748
0.046250 0.439632 0.272162
0.046601 0.439983 0.328439
0.046951 0.440333 0.384607
0.047301 0.440683 0.440683
0.047651 0.441033 0.496681
0.048000 0.441382 0.552610
0.048348 0.441730 0.608478
0.048696 0.442078 0.664291
0.049044 0.442426 0.720053
0.049392 0.442774 0.775770
0.049739 0.443121 0.831445
0.050086 0.443468 0.887080
0.050433 0.443815 0.942679
0.048292 0.497323 0.048292
0.048651 0.497681 0.105745
0.049006 0.498036 0.162613
0.049359 0.498389 0.219209
0.049711 0.498741 0.275623
0.050062 0.499092 0.331900
0.050412 0.499443 0.388068
0.050762 0.499792 0.444144
0.051111 0.500142 0.500142
0.051460 0.500491 0.556071
0.051809 0.500839 0.611939
0.052157 0.501188 0.667751
0.052505 0.501535 0.723514
0.052853 0.501883 0.779231
0.053200 0.502230 0.834906
0.053547 0.502578 0.890541
0.053894 0.502924 0.946139
0.051749 0.556359 0.051749
0.052107 0.556718 0.109202
0.052462 0.557073 0.166070
0.052815 0.557426 0.222666
0.053167 0.557778 0.279080
0.053518 0.558129 0.335357
0.053869 0.558479 0.391524
0.054219 0.558829 0.447601
0.054568 0.559178 0.503598
0.054917 0.559527 0.559527
0.055266 0.559876 0.615395
0.055614 0.560224 0.671208
0.055962 0.560572 0.726971
0.056309 0.560920 0.782688
0.056657 0.561267 0.838362
0.057004 0.561614 0.893998
0.057351 0.561961 0.949596
0.055202 0.615331 0.055202
0.055560 0.615690 0.112655
0.055915 0.616045 0.169523
0.056268 0.616398 0.226118
0.056620 0.616750 0.282532
0.056971 0.617101 0.338810
0.057322 0.617451 0.394977
0.057672 0.617801 0.451053
0.058021 0.618151 0.507051
0.058370 0.618499 0.562980
0.058718 0.618848 0.618848
0.059067 0.619196 0.674661
0.059415 0.619544 0.730424
0.059762 0.619892 0.786141
0.060110 0.620239 0.841815
0.060457 0.620586 0.897450
0.060804 0.620933 0.953049
0.058651 0.674245 0.058651
0.059010 0.674604 0.116104
0.059364 0.674959 0.172972
0.059718 0.675312 0.229568
0.060070 0.675664 0.285982
0.060421 0.676015 0.342259
0.060771 0.676365 0.398427
0.061121 0.676715 0.454503
0.061470 0.677065 0.510501
0.061819 0.677414 0.566430
0.062168 0.677762 0.622297
0.062516 0.678110 0.678110
0.062864 0.678458 0.733873
0.063212 0.678806 0.789590
0.063559 0.679153 0.845265
0.063906 0.679500 0.900900
0.064253 0.679847 0.956498
0.062098 0.733107 0.062098
0.062456 0.733465 0.119550
0.062811 0.733820 0.176419
0.063164 0.734173 0.233014
0.063516 0.734525 0.289428
0.063867 0.734876 0.345705
0.064217 0.735227 0.401873
0.064567 0.735576 0.457949
0.064917 0.735926 0.513947
0.065266 0.736275 0.569876
0.065614 0.736623 0.625744
0.065962 0.736972 0.681557
0.066310 0.737319 0.737319
0.066658 0.737667 0.793036
0.067005 0.738014 0.848711
0.067352 0.738362 0.904346
0.067699 0.738708 0.959945
0.065541 0.791919 0.065541
0.065899 0.792278 0.122994
0.066254 0.792633 0.179862
0.066607 0.792986 0.236458
0.066959 0.793338 0.292872
0.067310 0.793689 0.349149
0.067661 0.794039 0.405317
0.068011 0.794389 0.461393
0.068360 0.794739 0.517390
0.068709 0.795087 0.573319
0.069058 0.795436 0.629187
0.069406 0.795784 0.685000
0.069754 0.796132 0.740763
0.070101 0.796480 0.796480
0.070449 0.796827 0.852154
0.070796 0.797174 0.907790
0.071143 0.797521 0.963388
0.068982 0.850687 0.068982
0.069340 0.851046 0.126435
0.069695 0.851401 0.183303
0.070048 0.851754 0.239899
0.070400 0.852106 0.296312
0.070751 0.852457 0.352590
0.071102 0.852807 0.408757
0.071452 0.853157 0.464834
0.071801 0.853507 0.520831
0.072150 0.853856 0.576760
0.072499 0.854204 0.632628
0.072847 0.854552 0.688441
0.073195 0.854900 0.744204
0.073542 0.855248 0.799921
0.073890 0.855595 0.855595
0.074237 0.855942 0.911230
0.074584 0.856289 0.966829
0.072420 0.909414 0.072420
0.072779 0.909772 0.129873
0.073134 0.910127 0.186741
0.073487 0.910480 0.243337
0.073839 0.910832 0.299751
0.074190 0.911184 0.356028
0.074540 0.911534 0.412196
0.074890 0.911884 0.468272
0.075239 0.912233 0.524270
0.075588 0.912582 0.580199
0.075937 0.912931 0.636067
0.076285 0.913279 0.691879
0.076633 0.913627 0.747642
0.076981 0.913974 0.803359
0.077328 0.914322 0.859034
0.077675 0.914669 0.914669
0.078022 0.915016 0.970267
0.075856 0.968102 0.075856
0.076215 0.968460 0.133309
0.076570 0.968815 0.190177
0.076923 0.969168 0.246773
0.077275 0.969520 0.303187
0.077626 0.969871 0.359464
0.077976 0.970222 0.415632
0.078326 0.970572 0.471708
0.078676 0.970921 0.527706
0.079025 0.971270 0.583635
0.079373 0.971618 0.639503
0.079721 0.971967 0.695316
0.080069 0.972315 0.751078
0.080417 0.972662 0.806795
0.080764 0.973010 0.862470
0.081111 0.973357 0.918105
0.081458 0.973704 0.973704
0.078516 0.021422 0.021422
0.078875 0.021781 0.078875
0.079230 0.022135 0.135743
0.079583 0.022488 0.192339
0.079935 0.022840 0.248753
0.080286 0.023192 0.305030
0.080636 0.023542 0.361198
0.080986 0.023892 0.417274
0.081336 0.024241 0.473272
0.081684 0.024590 0.529201
0.082033 0.024939 0.585068
0.082381 0.025287 0.640881
0.082729 0.025635 0.696644
0.083077 0.025982 0.752361
0.083424 0.026330 0.808035
0.083771 0.026677 0.863671
0.084118 0.027024 0.919269
0.082067 0.082067 0.024973
0.082426 0.082426 0.082426
0.082780 0.082780 0.139294
0.083134 0.083134 0.195890
0.083486 0.083486 0.252303
0.083837 0.083837 0.308581
0.084187 0.084187 0.364748
0.084537 0.084537 0.420825
0.084886 0.084886 0.476822
0.085235 0.085235 0.532751
0.085584 0.085584 0.588619
0.085932 0.085932 0.644432
0.086280 0.086280 0.700195
0.086628 0.086628 0.755912
0.086975 0.086975 0.811586
0.087322 0.087322 0.867221
0.087669 0.087669 0.922820
0.085582 0.142095 0.028487
0.085940 0.142454 0.085940
0.086295 0.142808 0.142808
0.086648 0.143162 0.199404
0.087000 0.143514 0.255818
0.087351 0.143865 0.312095
0.087702 0.144215 0.368263
0.088052 0.144565 0.424339
0.088401 0.144914 0.480337
0.088750 0.145263 0.536266
0.089098 0.145612 0.592134
0.089447 0.145960 0.647947
0.089795 0.146308 0.703709
0.090142 0.146656 0.759426
0.090490 0.147003 0.815101
0.090837 0.147350 0.870736
0.091184 0.147697 0.926335
0.089080 0.201836 0.031985
0.089438 0.202194 0.089438
0.089793 0.202549 0.146306
0.090146 0.202902 0.202902
0.090498 0.203254 0.259316
0.090849 0.203605 0.315593
0.091199 0.203955 0.371761
0.091549 0.204305 0.427837
0.091899 0.204655 0.483835
0.092248 0.205004 0.539764
0.092596 0.205352 0.595632
0.092944 0.205700 0.651444
0.093292 0.206048 0.707207
0.093640 0.206396 0.762924
0.093987 0.206743 0.818599
0.094334 0.207090 0.874234
0.094681 0.207437 0.929832
0.092566 0.261384 0.035472
0.092925 0.261743 0.092925
0.093279 0.262097 0.149793
0.093633 0.262450 0.206389
0.093985 0.262802 0.262802
0.094336 0.263154 0.319080
0.094686 0.263504 0.375247
0.095036 0.263854 0.431324
0.095385 0.264203 0.487321
0.095734 0.264552 0.543250
0.096083 0.264901 0.599118
0.096431 0.265249 0.654931
0.096779 0.265597 0.710694
0.097127 0.265945 0.766411
0.097474 0.266292 0.822085
0.097821 0.266639 0.877720
0.098168 0.266986 0.933319
0.096044 0.320788 0.038950
0.096403 0.321147 0.096403
0.096758 0.321502 0.153271
0.097111 0.321855 0.209867
0.097463 0.322207 0.266281
0.097814 0.322558 0.322558
0.098164 0.322908 0.378725
0.098514 0.323258 0.434802
0.098863 0.323608 0.490799
0.099212 0.323956 0.546728
0.099561 0.324305 0.602596
0.099909 0.324653 0.658409
0.100257 0.325001 0.714172
0.100605 0.325349 0.769889
0.100952 0.325696 0.825563
0.101299 0.326043 0.881199
0.101646 0.326390 0.936797
0.099516 0.380077 0.042421
0.099874 0.380435 0.099874
0.100229 0.380790 0.156742
0.100582 0.381143 0.213338
0.100934 0.381495 0.269752
0.101285 0.381846 0.326029
0.101636 0.382197 0.382197
0.101985 0.382547 0.438273
0.102335 0.382896 0.494271
0.102684 0.383245 0.550200
0.103032 0.383594 0.606068
0.103381 0.383942 0.661880
0.103728 0.384290 0.717643
0.104076 0.384637 0.773360
0.104423 0.384985 0.829035
0.104771 0.385332 0.884670
0.105117 0.385679 0.940268
0.102981 0.439269 0.045887
0.103340 0.439627 0.103340
0.103695 0.439982 0.160208
0.104048 0.440335 0.216804
0.104400 0.440687 0.273218
0.104751 0.441038 0.329495
0.105101 0.441389 0.385663
0.105451 0.441739 0.441739
0.105800 0.442088 0.497736
0.106149 0.442437 0.553665
0.106498 0.442786 0.609533
0.106846 0.443134 0.665346
0.107194 0.443482 0.721109
0.107542 0.443829 0.776826
0.107889 0.444177 0.832500
0.108236 0.444524 0.888136
0.108583 0.444871 0.943734
0.106442 0.498378 0.049348
0.106801 0.498737 0.106801
0.107155 0.499091 0.163669
0.107509 0.499445 0.220265
0.107861 0.499797 0.276678
0.108212 0.500148 0.332956
0.108562 0.500498 0.389123
0.108912 0.500848 0.445200
0.109261 0.501197 0.501197
0.109610 0.501546 0.557126
0.109959 0.501895 0.612994
0.110307 0.502243 0.668807
0.110655 0.502591 0.724570
0.111003 0.502939 0.780287
0.111350 0.503286 0.835961
0.111697 0.503633 0.891596
0.112044 0.503980 0.947195
0.109899 0.557415 0.052804
0.110257 0.557773 0.110257
0.110612 0.558128 0.167125
0.110965 0.558481 0.223721
0.111317 0.558833 0.280135
0.111668 0.559184 0.336412
0.112019 0.559535 0.392580
0.112369 0.559885 0.448656
0.112718 0.560234 0.504654
0.113067 0.560583 0.560583
0.113415 0.560931 0.616451
0.113764 0.561280 0.672264
0.114112 0.561628 0.728026
0.114459 0.561975 0.783743
0.114807 0.562323 0.839418
0.115154 0.562670 0.895053
0.115501 0.563017 0.950652
0.113352 0.616387 0.056257
0.113710 0.616745 0.113710
0.114065 0.617100 0.170578
0.114418 0.617453 0.227174
0.114770 0.617805 0.283588
0.115121 0.618156 0.339865
0.115471 0.618507 0.396033
0.115821 0.618857 0.452109
0.116171 0.619206 0.508107
0.116520 0.619555 0.564036
0.116868 0.619904 0.619904
0.117216 0.620252 0.675716
0.117564 0.620600 0.731479
0.117912 0.620947 0.787196
0.118259 0.621295 0.842871
0.118606 0.621642 0.898506
0.118953 0.621989 0.954104
0.116801 0.675301 0.059707
0.117159 0.675659 0.117159
0.117514 0.676014 0.174028
0.117867 0.676367 0.230623
0.118219 0.676719 0.287037
0.118570 0.677070 0.343315
0.118921 0.677421 0.399482
0.119271 0.677771 0.455558
0.119620 0.678120 0.511556
0.119969 0.678469 0.567485
0.120318 0.678818 0.623353
0.120666 0.679166 0.679166
0.121014 0.679514 0.734929
0.121361 0.679861 0.790646
0.121709 0.680209 0.846320
0.122056 0.680556 0.901955
0.122403 0.680903 0.957554
0.120247 0.734162 0.063153
0.120606 0.734521 0.120606
0.120961 0.734875 0.177474
0.121314 0.735229 0.234070
0.121666 0.735580 0.290484
0.122017 0.735932 0.346761
0.122367 0.736282 0.402929
0.122717 0.736632 0.459005
0.123066 0.736981 0.515002
0.123415 0.737330 0.570931
0.123764 0.737679 0.626799
0.124112 0.738027 0.682612
0.124460 0.738375 0.738375
0.124808 0.738723 0.794092
0.125155 0.739070 0.849766
0.125502 0.739417 0.905402
0.125849 0.739764 0.961000
0.123691 0.792975 0.066596
0.124049 0.793333 0.124049
0.124404 0.793688 0.180917
0.124757 0.794041 0.237513
0.125109 0.794393 0.293927
0.125460 0.794744 0.350204
0.125811 0.795095 0.406372
0.126161 0.795445 0.462448
0.126510 0.795794 0.518446
0.126859 0.796143 0.574375
0.127207 0.796492 0.630243
0.127556 0.796840 0.686056
0.127904 0.797188 0.741818
0.128251 0.797535 0.797535
0.128599 0.797883 0.853210
0.128946 0.798230 0.908845
0.129293 0.798577 0.964444
0.127132 0.851743 0.070037
0.127490 0.852101 0.127490
0.127845 0.852456 0.184358
0.128198 0.852809 0.240954
0.128550 0.853161 0.297368
0.128901 0.853512 0.353645
0.129252 0.853863 0.409813
0.129601 0.854213 0.465889
0.129951 0.854562 0.521887
0.130300 0.854911 0.577816
0.130648 0.855260 0.633684
0.130997 0.855608 0.689496
0.131344 0.855956 0.745259
0.131692 0.856303 0.800976
0.132039 0.856651 0.856651
0.132387 0.856998 0.912286
0.132733 0.857345 0.967884
0.130570 0.910470 0.073476
0.130929 0.910828 0.130929
0.131283 0.911183 0.187797
0.131636 0.911536 0.244392
0.131988 0.911888 0.300806
0.132340 0.912239 0.357084
0.132690 0.912589 0.413251
0.133040 0.912939 0.469328
0.133389 0.913289 0.525325
0.133738 0.913638 0.581254
0.134087 0.913986 0.637122
0.134435 0.914334 0.692935
0.134783 0.914682 0.748698
0.135131 0.915030 0.804415
0.135478 0.915377 0.860089
0.135825 0.915724 0.915724
0.136172 0.916071 0.971323
0.134006 0.969157 0.076912
0.134365 0.969516 0.134365
0.134720 0.969871 0.191233
0.135073 0.970224 0.247829
0.135425 0.970576 0.304243
0.135776 0.970927 0.360520
0.136126 0.971277 0.416687
0.136476 0.971627 0.472764
0.136825 0.971976 0.528761
0.137174 0.972325 0.584690
0.137523 0.972674 0.640558
0.137871 0.973022 0.696371
0.138219 0.973370 0.752134
0.138567 0.973718 0.807851
0.138914 0.974065 0.863525
0.139261 0.974412 0.919161
0.139608 0.974759 0.974759
0.136075 0.022467 0.022467
0.136433 0.022825 0.079920
0.136788 0.023180 0.136788
0.137141 0.023533 0.193384
0.137493 0.023885 0.249797
0.137844 0.024236 0.306075
0.138194 0.024587 0.362242
0.138544 0.024937 0.418319
0.138894 0.025286 0.474316
0.139243 0.025635 0.530245
0.139591 0.025983 0.586113
0.139939 0.026332 0.641926
0.140287 0.026680 0.697689
0.140635 0.027027 0.753406
0.140982 0.027375 0.809080
0.141329 0.027722 0.864715
0.141676 0.028069 0.920314
0.139625 0.083112 0.026018
0.139984 0.083470 0.083470
0.140339 0.083825 0.140339
0.140692 0.084178 0.196934
0.141044 0.084530 0.253348
0.141395 0.084881 0.309625
0.141745 0.085232 0.365793
0.142095 0.085582 0.421869
0.142444 0.085931 0.477867
0.142793 0.086280 0.533796
0.143142 0.086629 0.589664
0.143490 0.086977 0.645477
0.143838 0.087325 0.701240
0.144186 0.087672 0.756956
0.144533 0.088020 0.812631
0.144880 0.088367 0.868266
0.145227 0.088714 0.923865
0.143140 0.143140 0.029532
0.143498 0.143498 0.086985
0.143853 0.143853 0.143853
0.144206 0.144206 0.200449
0.144558 0.144558 0.256863
0.144909 0.144909 0.313140
0.145260 0.145260 0.369308
0.145610 0.145610 0.425384
0.145959 0.145959 0.481382
0.146308 0.146308 0.537311
0.146657 0.146657 0.593179
0.147005 0.147005 0.648991
0.147353 0.147353 0.704754
0.147700 0.147700 0.760471
0.148048 0.148048 0.816146
0.148395 0.148395 0.871781
0.148742 0.148742 0.927379
0.146638 0.202880 0.033030
0.146996 0.203239 0.090483
0.147351 0.203594 0.147351
0.147704 0.203947 0.203947
0.148056 0.204299 0.260361
0.148407 0.204650 0.316638
0.148758 0.205000 0.372806
0.149108 0.205350 0.428882
0.149457 0.205699 0.484879
0.149806 0.206048 0.540808
0.150154 0.206397 0.596676
0.150503 0.206745 0.652489
0.150851 0.207093 0.708252
0.151198 0.207441 0.763969
0.151546 0.207788 0.819643
0.151893 0.208135 0.875279
0.152240 0.208482 0.930877
0.150124 0.262429 0.036517
0.150483 0.262787 0.093969
0.150838 0.263142 0.150838
0.151191 0.263495 0.207433
0.151543 0.263847 0.263847
0.151894 0.264198 0.320124
0.152244 0.264549 0.376292
0.152594 0.264899 0.432368
0.152943 0.265248 0.488366
0.153292 0.265597 0.544295
0.153641 0.265946 0.600163
0.153989 0.266294 0.655976
0.154337 0.266642 0.711739
0.154685 0.266989 0.767455
0.155032 0.267337 0.823130
0.155379 0.267684 0.878765
0.155726 0.268031 0.934364
0.153602 0.321833 0.039995
0.153961 0.322192 0.097448
0.154316 0.322546 0.154316
0.154669 0.322899 0.210911
0.155021 0.323251 0.267325
0.155372 0.323603 0.323603
0.155722 0.323953 0.379770
0.156072 0.324303 0.435846
0.156422 0.324652 0.491844
0.156771 0.325001 0.547773
0.157119 0.325350 0.603641
0.157467 0.325698 0.659454
0.157815 0.326046 0.715217
0.158163 0.326394 0.770934
0.158510 0.326741 0.826608
0.158857 0.327088 0.882243
0.159204 0.327435 0.937842
0.157074 0.381122 0.043466
0.157432 0.381480 0.100919
0.157787 0.381835 0.157787
0.158140 0.382188 0.214383
0.158492 0.382540 0.270797
0.158843 0.382891 0.327074
0.159194 0.383242 0.383242
0.159544 0.383591 0.439318
0.159893 0.383941 0.495316
0.160242 0.384290 0.551245
0.160590 0.384638 0.607112
0.160939 0.384987 0.662925
0.161287 0.385334 0.718688
0.161634 0.385682 0.774405
0.161982 0.386029 0.830079
0.162329 0.386377 0.885715
0.162676 0.386723 0.941313
0.160540 0.440314 0.046932
0.160898 0.440672 0.104385
0.161253 0.441027 0.161253
0.161606 0.441380 0.217848
0.161958 0.441732 0.274262
0.162309 0.442083 0.330540
0.162659 0.442434 0.386707
0.163009 0.442783 0.442783
0.163359 0.443133 0.498781
0.163708 0.443482 0.554710
0.164056 0.443830 0.610578
0.164404 0.444179 0.666391
0.164752 0.444527 0.722154
0.165100 0.444874 0.777871
0.165447 0.445221 0.833545
0.165794 0.445569 0.889180
0.166141 0.445915 0.944779
0.164000 0.499423 0.050393
0.164359 0.499781 0.107845
0.164714 0.500136 0.164714
0.165067 0.500489 0.221309
0.165419 0.500841 0.277723
0.165770 0.501192 0.334000
0.166120 0.501543 0.390168
0.166470 0.501893 0.446244
0.166819 0.502242 0.502242
0.167168 0.502591 0.558171
0.167517 0.502940 0.614039
0.167865 0.503288 0.669852
0.168213 0.503636 0.725615
0.168561 0.503983 0.781331
0.168908 0.504331 0.837006
0.169255 0.504678 0.892641
0.169602 0.505025 0.948240
0.167457 0.558460 0.053849
0.167815 0.558818 0.111302
0.168170 0.559173 0.168170
0.168523 0.559526 0.224766
0.168875 0.559878 0.281180
0.169226 0.560229 0.337457
0.169577 0.560579 0.393625
0.169927 0.560929 0.449701
0.170276 0.561279 0.505699
0.170625 0.561628 0.561628
0.170974 0.561976 0.617496
0.171322 0.562324 0.673308
0.171670 0.562672 0.729071
0.172017 0.563020 0.784788
0.172365 0.563367 0.840463
0.172712 0.563714 0.896098
0.173059 0.564061 0.951696
0.170910 0.617432 0.057302
0.171268 0.617790 0.114755
0.171623 0.618145 0.171623
0.171976 0.618498 0.228219
0.172328 0.618850 0.284633
0.172679 0.619201 0.340910
0.173030 0.619552 0.397078
0.173380 0.619901 0.453154
0.173729 0.620251 0.509151
0.174078 0.620600 0.565080
0.174426 0.620948 0.620948
0.174775 0.621297 0.676761
0.175123 0.621644 0.732524
0.175470 0.621992 0.788241
0.175818 0.622339 0.843915
0.176165 0.622687 0.899551
0.176512 0.623033 0.955149
0.174359 0.676346 0.060751
0.174718 0.676704 0.118204
0.175072 0.677059 0.175072
0.175426 0.677412 0.231668
0.175778 0.677764 0.288082
0.176129 0.678115 0.344359
0.176479 0.678466 0.400527
0.176829 0.678815 0.456603
0.177178 0.679165 0.512601
0.177527 0.679514 0.568530
0.177876 0.679862 0.624398
0.178224 0.680211 0.680211
0.178572 0.680558 0.735973
0.178920 0.680906 0.791690
0.179267 0.681253 0.847365
0.179614 0.681601 0.903000
0.179961 0.681947 0.958599
0.177806 0.735207 0.064198
0.178164 0.735565 0.121651
0.178519 0.735920 0.178519
0.178872 0.736273 0.235114
0.179224 0.736625 0.291528
0.179575 0.736976 0.347806
0.179925 0.737327 0.403973
0.180275 0.737677 0.460049
0.180625 0.738026 0.516047
0.180974 0.738375 0.571976
0.181322 0.738724 0.627844
0.181670 0.739072 0.683657
0.182018 0.739420 0.739420
0.182366 0.739767 0.795137
0.182713 0.740115 0.850811
0.183060 0.740462 0.906446
0.183407 0.740809 0.962045
0.181249 0.794020 0.067641
0.181607 0.794378 0.125094
0.181962 0.794733 0.181962
0.182315 0.795086 0.238558
0.182667 0.795438 0.294972
0.183018 0.795789 0.351249
0.183369 0.796140 0.407417
0.183719 0.796489 0.463493
0.184068 0.796839 0.519491
0.184417 0.797188 0.575420
0.184766 0.797536 0.631288
0.185114 0.797885 0.687100
0.185462 0.798232 0.742863
0.185809 0.798580 0.798580
0.186157 0.798927 0.854255
0.186504 0.799275 0.909890
0.186851 0.799621 0.965488
0.184690 0.852788 0.071082
0.185048 0.853146 0.128535
0.185403 0.853501 0.185403
0.185756 0.853854 0.241999
0.186108 0.854206 0.298413
0.186459 0.854557 0.354690
0.186810 0.854908 0.410858
0.187160 0.855258 0.466934
0.187509 0.855607 0.522932
0.187858 0.855956 0.578861
0.188207 0.856304 0.634728
0.188555 0.856653 0.690541
0.188903 0.857001 0.746304
0.189250 0.857348 0.802021
0.189598 0.857696 0.857696
0.189945 0.858043 0.913331
0.190292 0.858390 0.968929
0.188128 0.911514 0.074521
0.188487 0.911873 0.131973
0.188842 0.912228 0.188842
0.189195 0.912581 0.245437
0.189547 0.912933 0.301851
0.189898 0.913284 0.358128
0.190248 0.913634 0.414296
0.190598 0.913984 0.470372
0.190947 0.914333 0.526370
0.191296 0.914682 0.582299
0.191645 0.915031 0.638167
0.191993 0.915379 0.693980
0.192341 0.915727 0.749742
0.192689 0.916075 0.805459
0.193036 0.916422 0.861134
0.193383 0.916769 0.916769
0.193730 0.917116 0.972368
0.191564 0.970202 0.077957
0.191923 0.970561 0.135410
0.192278 0.970915 0.192278
0.192631 0.971268 0.248873
0.192983 0.971620 0.305287
0.193334 0.971972 0.361565
0.193684 0.972322 0.417732
0.194034 0.972672 0.473808
0.194384 0.973021 0.529806
0.194733 0.973370 0.585735
0.195081 0.973719 0.641603
0.195429 0.974067 0.697416
0.195777 0.974415 0.753179
0.196125 0.974763 0.808896
0.196472 0.975110 0.864570
0.196819 0.975457 0.920205
0.197166 0.975804 0.975804
0.193357 0.023507 0.023507
0.193715 0.023865 0.080959
0.194070 0.024220 0.137828
0.194423 0.024573 0.194423
0.194775 0.024925 0.250837
0.195126 0.025276 0.307114
0.195477 0.025626 0.363282
0.195827 0.025976 0.419358
0.196176 0.026326 0.475356
0.196525 0.026675 0.531285
0.196874 0.027023 0.587153
0.197222 0.027371 0.642966
0.197570 0.027719 0.698728
0.197917 0.028067 0.754445
0.198265 0.028414 0.810120
0.198612 0.028761 0.865755
0.198959 0.029108 0.921354
0.196908 0.084152 0.027057
