skills/editops-orchestrator/assets/grade/luts/vintage_fade_v16.cube
TITLE "vintage_fade_v16"
LUT_3D_SIZE 17
DOMAIN_MIN 0.0 0.0 0.0
DOMAIN_MAX 1.0 1.0 1.0
0.145738 0.145738 0.145738
0.146725 0.146725 0.186961
0.147696 0.147696 0.227465
0.148655 0.148655 0.267509
0.149606 0.149606 0.307213
0.150551 0.150551 0.346650
0.151490 0.151490 0.385865
0.152425 0.152425 0.424891
0.153356 0.153356 0.463752
0.154283 0.154283 0.502469
0.155207 0.155207 0.541055
0.156129 0.156129 0.579523
0.157048 0.157048 0.617883
0.157964 0.157964 0.656144
0.158878 0.158878 0.694312
0.159791 0.159791 0.732395
0.160701 0.160701 0.770398
0.155519 0.195755 0.155519
0.156507 0.196742 0.196742
0.157477 0.197713 0.237246
0.158436 0.198672 0.277290
0.159387 0.199623 0.316995
0.160332 0.200568 0.356431
0.161271 0.201507 0.395646
0.162206 0.202442 0.434672
0.163137 0.203373 0.473534
0.164065 0.204300 0.512250
0.164989 0.205224 0.550836
0.165910 0.206146 0.589304
0.166829 0.207065 0.627664
0.167746 0.207981 0.665925
0.168660 0.208895 0.704094
0.169572 0.209808 0.742177
0.170483 0.210718 0.780180
0.165130 0.244900 0.165130
0.166118 0.245887 0.206353
0.167088 0.246857 0.246857
0.168047 0.247817 0.286901
0.168998 0.248768 0.326606
0.169943 0.249712 0.366042
0.170882 0.250652 0.405257
0.171817 0.251586 0.444283
0.172748 0.252517 0.483145
0.173676 0.253445 0.521861
0.174600 0.254369 0.560447
0.175521 0.255291 0.598915
0.176440 0.256209 0.637275
0.177357 0.257126 0.675536
0.178271 0.258040 0.713705
0.179183 0.258952 0.751788
0.180094 0.259863 0.789791
0.174632 0.293486 0.174632
0.175620 0.294473 0.215855
0.176590 0.295444 0.256359
0.177549 0.296403 0.296403
0.178500 0.297354 0.336107
0.179445 0.298299 0.375544
0.180384 0.299238 0.414759
0.181319 0.300173 0.453785
0.182250 0.301104 0.492647
0.183177 0.302031 0.531363
0.184102 0.302955 0.569949
0.185023 0.303877 0.608417
0.185942 0.304796 0.646777
0.186858 0.305712 0.685038
0.187773 0.306626 0.723207
0.188685 0.307539 0.761290
0.189595 0.308449 0.799293
0.184053 0.341661 0.184053
0.185041 0.342648 0.225276
0.186011 0.343618 0.265780
0.186970 0.344578 0.305824
0.187921 0.345529 0.345529
0.188866 0.346473 0.384965
0.189805 0.347413 0.424180
0.190740 0.348348 0.463206
0.191671 0.349278 0.502068
0.192599 0.350206 0.540784
0.193523 0.351130 0.579370
0.194444 0.352052 0.617838
0.195363 0.352971 0.656198
0.196280 0.353887 0.694459
0.197194 0.354801 0.732628
0.198106 0.355714 0.770711
0.199017 0.356624 0.808714
0.193411 0.389510 0.193411
0.194399 0.390498 0.234634
0.195369 0.391468 0.275138
0.196328 0.392427 0.315182
0.197279 0.393378 0.354886
0.198224 0.394323 0.394323
0.199163 0.395262 0.433538
0.200098 0.396197 0.472564
0.201029 0.397128 0.511426
0.201956 0.398055 0.550142
0.202880 0.398980 0.588728
0.203802 0.399901 0.627196
0.204721 0.400820 0.665556
0.205637 0.401737 0.703817
0.206552 0.402651 0.741985
0.207464 0.403563 0.780069
0.208374 0.404473 0.818071
0.202716 0.437091 0.202716
0.203704 0.438078 0.243939
0.204674 0.439049 0.284443
0.205633 0.440008 0.324487
0.206584 0.440959 0.364191
0.207529 0.441904 0.403628
0.208468 0.442843 0.442843
0.209403 0.443778 0.481869
0.210334 0.444709 0.520731
0.211261 0.445636 0.559447
0.212186 0.446560 0.598033
0.213107 0.447482 0.636501
0.214026 0.448401 0.674861
0.214942 0.449317 0.713122
0.215857 0.450231 0.751291
0.216769 0.451144 0.789374
0.217679 0.452054 0.827377
0.211976 0.484442 0.211976
0.212964 0.485430 0.253199
0.213934 0.486400 0.293703
0.214893 0.487359 0.333747
0.215844 0.488310 0.373452
0.216789 0.489255 0.412888
0.217728 0.490194 0.452103
0.218663 0.491129 0.491129
0.219594 0.492060 0.529991
0.220522 0.492988 0.568707
0.221446 0.493912 0.607293
0.222367 0.494833 0.645761
0.223286 0.495752 0.684121
0.224203 0.496669 0.722382
0.225117 0.497583 0.760551
0.226029 0.498495 0.798634
0.226940 0.499406 0.836637
0.221198 0.531595 0.221198
0.222185 0.532582 0.262421
0.223155 0.533552 0.302925
0.224115 0.534511 0.342968
0.225066 0.535463 0.382673
0.226010 0.536407 0.422110
0.226950 0.537347 0.461324
0.227885 0.538281 0.500351
0.228815 0.539212 0.539212
0.229743 0.540140 0.577929
0.230667 0.541064 0.616515
0.231589 0.541985 0.654983
0.232507 0.542904 0.693343
0.233424 0.543821 0.731603
0.234338 0.544735 0.769772
0.235250 0.545647 0.807855
0.236161 0.546558 0.845858
0.230384 0.578570 0.230384
0.231372 0.579558 0.271607
0.232342 0.580528 0.312111
0.233301 0.581487 0.352155
0.234252 0.582438 0.391860
0.235197 0.583383 0.431296
0.236136 0.584322 0.470511
0.237071 0.585257 0.509537
0.238002 0.586188 0.548399
0.238930 0.587115 0.587115
0.239854 0.588040 0.625702
0.240775 0.588961 0.664169
0.241694 0.589880 0.702529
0.242611 0.590797 0.740790
0.243525 0.591711 0.778959
0.244437 0.592623 0.817042
0.245348 0.593533 0.855045
0.239540 0.625388 0.239540
0.240528 0.626375 0.280763
0.241498 0.627346 0.321267
0.242457 0.628305 0.361311
0.243408 0.629256 0.401016
0.244353 0.630201 0.440452
0.245292 0.631140 0.479667
0.246227 0.632075 0.518693
0.247158 0.633006 0.557555
0.248085 0.633933 0.596271
0.249010 0.634857 0.634857
0.249931 0.635779 0.673325
0.250850 0.636698 0.711685
0.251767 0.637614 0.749946
0.252681 0.638528 0.788115
0.253593 0.639441 0.826198
0.254503 0.640351 0.864201
0.248668 0.672062 0.248668
0.249656 0.673050 0.289891
0.250626 0.674020 0.330395
0.251585 0.674979 0.370439
0.252536 0.675930 0.410143
0.253481 0.676875 0.449580
0.254420 0.677814 0.488795
0.255355 0.678749 0.527821
0.256286 0.679680 0.566683
0.257213 0.680607 0.605399
0.258138 0.681532 0.643985
0.259059 0.682453 0.682453
0.259978 0.683372 0.720813
0.260894 0.684289 0.759074
0.261809 0.685203 0.797243
0.262721 0.686115 0.835326
0.263631 0.687025 0.873329
0.257770 0.718606 0.257770
0.258758 0.719593 0.298993
0.259728 0.720563 0.339497
0.260687 0.721523 0.379541
0.261638 0.722474 0.419246
0.262583 0.723418 0.458682
0.263522 0.724358 0.497897
0.264457 0.725292 0.536923
0.265388 0.726223 0.575785
0.266316 0.727151 0.614501
0.267240 0.728075 0.653087
0.268161 0.728997 0.691555
0.269080 0.729915 0.729915
0.269997 0.730832 0.768176
0.270911 0.731746 0.806345
0.271823 0.732658 0.844428
0.272733 0.733569 0.882431
0.266849 0.765028 0.266849
0.267836 0.766016 0.308072
0.268807 0.766986 0.348576
0.269766 0.767945 0.388620
0.270717 0.768896 0.428324
0.271662 0.769841 0.467761
0.272601 0.770780 0.506976
0.273536 0.771715 0.546002
0.274467 0.772646 0.584864
0.275394 0.773574 0.623580
0.276318 0.774498 0.662166
0.277240 0.775419 0.700634
0.278159 0.776338 0.738994
0.279075 0.777255 0.777255
0.279990 0.778169 0.815423
0.280902 0.779081 0.853507
0.281812 0.779992 0.891509
0.275906 0.811340 0.275906
0.276893 0.812327 0.317129
0.277864 0.813297 0.357633
0.278823 0.814257 0.397677
0.279774 0.815208 0.437381
0.280719 0.816152 0.476818
0.281658 0.817092 0.516033
0.282593 0.818027 0.555059
0.283524 0.818957 0.593920
0.284451 0.819885 0.632637
0.285375 0.820809 0.671223
0.286297 0.821731 0.709691
0.287216 0.822649 0.748051
0.288132 0.823566 0.786312
0.289046 0.824480 0.824480
0.289959 0.825393 0.862563
0.290869 0.826303 0.900566
0.284942 0.857547 0.284942
0.285930 0.858534 0.326165
0.286900 0.859505 0.366669
0.287859 0.860464 0.406713
0.288810 0.861415 0.446418
0.289755 0.862360 0.485854
0.290694 0.863299 0.525069
0.291629 0.864234 0.564095
0.292560 0.865165 0.602957
0.293487 0.866092 0.641673
0.294412 0.867016 0.680259
0.295333 0.867938 0.718727
0.296252 0.868857 0.757087
0.297169 0.869773 0.795348
0.298083 0.870688 0.833517
0.298995 0.871600 0.871600
0.299905 0.872510 0.909603
0.293960 0.903657 0.293960
0.294947 0.904645 0.335183
0.295918 0.905615 0.375687
0.296877 0.906574 0.415731
0.297828 0.907525 0.455435
0.298772 0.908470 0.494872
0.299712 0.909409 0.534087
0.300647 0.910344 0.573113
0.301578 0.911275 0.611974
0.302505 0.912202 0.650691
0.303429 0.913127 0.689277
0.304351 0.914048 0.727745
0.305270 0.914967 0.766105
0.306186 0.915883 0.804366
0.307100 0.916798 0.842534
0.308013 0.917710 0.880617
0.308923 0.918620 0.918620
0.188881 0.148646 0.148646
0.189868 0.149633 0.189868
0.190839 0.150603 0.230373
0.191798 0.151562 0.270416
0.192749 0.152514 0.310121
0.193694 0.153458 0.349557
0.194633 0.154398 0.388772
0.195568 0.155332 0.427798
0.196499 0.156263 0.466660
0.197426 0.157191 0.505377
0.198350 0.158115 0.543963
0.199272 0.159036 0.582431
0.200191 0.159955 0.620791
0.201107 0.160872 0.659051
0.202022 0.161786 0.697220
0.202934 0.162698 0.735303
0.203844 0.163609 0.773306
0.198663 0.198663 0.158427
0.199650 0.199650 0.199650
0.200620 0.200620 0.240154
0.201579 0.201579 0.280198
0.202531 0.202531 0.319902
0.203475 0.203475 0.359339
0.204415 0.204415 0.398554
0.205349 0.205349 0.437580
0.206280 0.206280 0.476442
0.207208 0.207208 0.515158
0.208132 0.208132 0.553744
0.209053 0.209053 0.592212
0.209972 0.209972 0.630572
0.210889 0.210889 0.668833
0.211803 0.211803 0.707002
0.212715 0.212715 0.745085
0.213626 0.213626 0.783088
0.208274 0.247807 0.168038
0.209261 0.248795 0.209261
0.210231 0.249765 0.249765
0.211190 0.250724 0.289809
0.212142 0.251675 0.329513
0.213086 0.252620 0.368950
0.214026 0.253559 0.408165
0.214960 0.254494 0.447191
0.215891 0.255425 0.486053
0.216819 0.256352 0.524769
0.217743 0.257277 0.563355
0.218664 0.258198 0.601823
0.219583 0.259117 0.640183
0.220500 0.260034 0.678444
0.221414 0.260948 0.716612
0.222326 0.261860 0.754696
0.223237 0.262770 0.792698
0.217775 0.296394 0.177540
0.218763 0.297381 0.218763
0.219733 0.298351 0.259267
0.220692 0.299310 0.299310
0.221643 0.300262 0.339015
0.222588 0.301206 0.378452
0.223527 0.302146 0.417667
0.224462 0.303080 0.456693
0.225393 0.304011 0.495554
0.226320 0.304939 0.534271
0.227245 0.305863 0.572857
0.228166 0.306784 0.611325
0.229085 0.307703 0.649685
0.230002 0.308620 0.687945
0.230916 0.309534 0.726114
0.231828 0.310446 0.764197
0.232738 0.311357 0.802200
0.227197 0.344568 0.186961
0.228184 0.345556 0.228184
0.229154 0.346526 0.268688
0.230113 0.347485 0.308732
0.231065 0.348436 0.348436
0.232009 0.349381 0.387873
0.232949 0.350320 0.427088
0.233883 0.351255 0.466114
0.234814 0.352186 0.504976
0.235742 0.353114 0.543692
0.236666 0.354038 0.582278
0.237587 0.354959 0.620746
0.238506 0.355878 0.659106
0.239423 0.356795 0.697367
0.240337 0.357709 0.735535
0.241249 0.358621 0.773619
0.242160 0.359532 0.811621
0.236554 0.392418 0.196319
0.237542 0.393405 0.237542
0.238512 0.394376 0.278046
0.239471 0.395335 0.318089
0.240422 0.396286 0.357794
0.241367 0.397231 0.397231
0.242306 0.398170 0.436445
0.243241 0.399105 0.475472
0.244172 0.400036 0.514333
0.245099 0.400963 0.553050
0.246024 0.401887 0.591636
0.246945 0.402809 0.630104
0.247864 0.403728 0.668464
0.248780 0.404644 0.706724
0.249695 0.405558 0.744893
0.250607 0.406471 0.782976
0.251517 0.407381 0.820979
0.245859 0.439999 0.205624
0.246847 0.440986 0.246847
0.247817 0.441956 0.287351
0.248776 0.442915 0.327394
0.249727 0.443866 0.367099
0.250672 0.444811 0.406536
0.251611 0.445751 0.445751
0.252546 0.446685 0.484777
0.253477 0.447616 0.523638
0.254404 0.448544 0.562355
0.255329 0.449468 0.600941
0.256250 0.450389 0.639409
0.257169 0.451308 0.677769
0.258086 0.452225 0.716030
0.259000 0.453139 0.754198
0.259912 0.454051 0.792281
0.260822 0.454962 0.830284
0.255120 0.487350 0.214884
0.256107 0.488338 0.256107
0.257077 0.489308 0.296611
0.258036 0.490267 0.336655
0.258988 0.491218 0.376359
0.259932 0.492163 0.415796
0.260872 0.493102 0.455011
0.261806 0.494037 0.494037
0.262737 0.494968 0.532899
0.263665 0.495895 0.571615
0.264589 0.496819 0.610201
0.265510 0.497741 0.648669
0.266429 0.498660 0.687029
0.267346 0.499576 0.725290
0.268260 0.500491 0.763458
0.269172 0.501403 0.801542
0.270083 0.502313 0.839544
0.264341 0.534502 0.224105
0.265328 0.535490 0.265328
0.266299 0.536460 0.305832
0.267258 0.537419 0.345876
0.268209 0.538370 0.385581
0.269153 0.539315 0.425017
0.270093 0.540254 0.464232
0.271028 0.541189 0.503258
0.271959 0.542120 0.542120
0.272886 0.543047 0.580836
0.273810 0.543972 0.619422
0.274732 0.544893 0.657890
0.275651 0.545812 0.696250
0.276567 0.546728 0.734511
0.277481 0.547643 0.772680
0.278394 0.548555 0.810763
0.279304 0.549465 0.848766
0.273528 0.581478 0.233292
0.274515 0.582465 0.274515
0.275485 0.583436 0.315019
0.276444 0.584395 0.355063
0.277396 0.585346 0.394767
0.278340 0.586291 0.434204
0.279280 0.587230 0.473419
0.280214 0.588165 0.512445
0.281145 0.589096 0.551307
0.282073 0.590023 0.590023
0.282997 0.590947 0.628609
0.283918 0.591869 0.667077
0.284837 0.592788 0.705437
0.285754 0.593704 0.743698
0.286668 0.594619 0.781867
0.287580 0.595531 0.819950
0.288491 0.596441 0.857953
0.282683 0.628296 0.242448
0.283671 0.629283 0.283671
0.284641 0.630253 0.324175
0.285600 0.631212 0.364219
0.286551 0.632164 0.403923
0.287496 0.633108 0.443360
0.288435 0.634048 0.482575
0.289370 0.634982 0.521601
0.290301 0.635913 0.560463
0.291229 0.636841 0.599179
0.292153 0.637765 0.637765
0.293074 0.638686 0.676233
0.293993 0.639605 0.714593
0.294910 0.640522 0.752854
0.295824 0.641436 0.791022
0.296736 0.642348 0.829105
0.297647 0.643259 0.867108
0.291811 0.674970 0.251576
0.292799 0.675957 0.292799
0.293769 0.676928 0.333303
0.294728 0.677887 0.373346
0.295679 0.678838 0.413051
0.296624 0.679783 0.452488
0.297563 0.680722 0.491703
0.298498 0.681657 0.530729
0.299429 0.682588 0.569590
0.300356 0.683515 0.608307
0.301281 0.684439 0.646893
0.302202 0.685361 0.685361
0.303121 0.686280 0.723721
0.304038 0.687196 0.761982
0.304952 0.688110 0.800150
0.305864 0.689023 0.838233
0.306774 0.689933 0.876236
0.300914 0.721513 0.260678
0.301901 0.722501 0.301901
0.302871 0.723471 0.342405
0.303830 0.724430 0.382449
0.304781 0.725381 0.422153
0.305726 0.726326 0.461590
0.306666 0.727265 0.500805
0.307600 0.728200 0.539831
0.308531 0.729131 0.578693
0.309459 0.730058 0.617409
0.310383 0.730983 0.655995
0.311304 0.731904 0.694463
0.312223 0.732823 0.732823
0.313140 0.733740 0.771084
0.314054 0.734654 0.809252
0.314966 0.735566 0.847336
0.315877 0.736476 0.885338
0.309992 0.767936 0.269757
0.310980 0.768924 0.310980
0.311950 0.769894 0.351484
0.312909 0.770853 0.391527
0.313860 0.771804 0.431232
0.314805 0.772749 0.470669
0.315744 0.773688 0.509883
0.316679 0.774623 0.548910
0.317610 0.775554 0.587771
0.318537 0.776481 0.626488
0.319462 0.777406 0.665074
0.320383 0.778327 0.703542
0.321302 0.779246 0.741902
0.322218 0.780162 0.780162
0.323133 0.781077 0.818331
0.324045 0.781989 0.856414
0.324955 0.782899 0.894417
0.319049 0.814247 0.278814
0.320036 0.815235 0.320036
0.321007 0.816205 0.360540
0.321966 0.817164 0.400584
0.322917 0.818115 0.440289
0.323862 0.819060 0.479725
0.324801 0.819999 0.518940
0.325736 0.820934 0.557966
0.326667 0.821865 0.596828
0.327594 0.822793 0.635545
0.328518 0.823717 0.674131
0.329440 0.824638 0.712598
0.330359 0.825557 0.750959
0.331275 0.826474 0.789219
0.332190 0.827388 0.827388
0.333102 0.828300 0.865471
0.334012 0.829211 0.903474
0.328085 0.860455 0.287850
0.329073 0.861442 0.329073
0.330043 0.862412 0.369577
0.331002 0.863372 0.409621
0.331953 0.864323 0.449325
0.332898 0.865267 0.488762
0.333837 0.866207 0.527977
0.334772 0.867142 0.567003
0.335703 0.868072 0.605865
0.336631 0.869000 0.644581
0.337555 0.869924 0.683167
0.338476 0.870846 0.721635
0.339395 0.871764 0.759995
0.340312 0.872681 0.798256
0.341226 0.873595 0.836424
0.342138 0.874507 0.874507
0.343049 0.875418 0.912510
0.337103 0.906565 0.296868
0.338090 0.907552 0.338090
0.339061 0.908522 0.378594
0.340020 0.909482 0.418638
0.340971 0.910433 0.458343
0.341916 0.911377 0.497779
0.342855 0.912317 0.536994
0.343790 0.913252 0.576020
0.344721 0.914183 0.614882
0.345648 0.915110 0.653599
0.346572 0.916034 0.692185
0.347494 0.916956 0.730652
0.348413 0.917875 0.769013
0.349329 0.918791 0.807273
0.350244 0.919705 0.845442
0.351156 0.920618 0.883525
0.352066 0.921528 0.921528
0.231272 0.151502 0.151502
0.232259 0.152490 0.192725
0.233229 0.153460 0.233229
0.234189 0.154419 0.273273
0.235140 0.155370 0.312978
0.236084 0.156315 0.352414
0.237024 0.157254 0.391629
0.237959 0.158189 0.430655
0.238889 0.159120 0.469517
0.239817 0.160048 0.508233
0.240741 0.160972 0.546820
0.241663 0.161893 0.585287
0.242582 0.162812 0.623648
0.243498 0.163729 0.661908
0.244412 0.164643 0.700077
0.245325 0.165555 0.738160
0.246235 0.166466 0.776163
0.241053 0.201520 0.161284
0.242041 0.202507 0.202507
0.243011 0.203477 0.243011
0.243970 0.204436 0.283055
0.244921 0.205387 0.322759
0.245866 0.206332 0.362196
0.246805 0.207272 0.401411
0.247740 0.208206 0.440437
0.248671 0.209137 0.479299
0.249598 0.210065 0.518015
0.250523 0.210989 0.556601
0.251444 0.211910 0.595069
0.252363 0.212829 0.633429
0.253280 0.213746 0.671690
0.254194 0.214660 0.709858
0.255106 0.215572 0.747942
0.256016 0.216483 0.785944
0.250664 0.250664 0.170895
0.251652 0.251652 0.212118
0.252622 0.252622 0.252622
0.253581 0.253581 0.292666
0.254532 0.254532 0.332370
0.255477 0.255477 0.371807
0.256416 0.256416 0.411022
0.257351 0.257351 0.450048
0.258282 0.258282 0.488910
0.259209 0.259209 0.527626
0.260134 0.260134 0.566212
0.261055 0.261055 0.604680
0.261974 0.261974 0.643040
0.262891 0.262891 0.681301
0.263805 0.263805 0.719469
0.264717 0.264717 0.757552
0.265627 0.265627 0.795555
0.260166 0.299250 0.180397
0.261153 0.300238 0.221620
0.262124 0.301208 0.262124
0.263083 0.302167 0.302167
0.264034 0.303118 0.341872
0.264979 0.304063 0.381309
0.265918 0.305002 0.420523
0.266853 0.305937 0.459550
0.267784 0.306868 0.498411
0.268711 0.307796 0.537128
0.269635 0.308720 0.575714
0.270557 0.309641 0.614182
0.271476 0.310560 0.652542
0.272392 0.311477 0.690802
0.273307 0.312391 0.728971
0.274219 0.313303 0.767054
0.275129 0.314214 0.805057
0.269587 0.347425 0.189818
0.270575 0.348413 0.231041
0.271545 0.349383 0.271545
0.272504 0.350342 0.311589
0.273455 0.351293 0.351293
0.274400 0.352238 0.390730
0.275339 0.353177 0.429945
0.276274 0.354112 0.468971
0.277205 0.355043 0.507833
0.278132 0.355971 0.546549
0.279057 0.356895 0.585135
0.279978 0.357816 0.623603
0.280897 0.358735 0.661963
0.281814 0.359652 0.700224
0.282728 0.360566 0.738392
0.283640 0.361478 0.776475
0.284550 0.362388 0.814478
0.278945 0.395275 0.199176
0.279932 0.396262 0.240399
0.280903 0.397233 0.280903
0.281862 0.398192 0.320946
0.282813 0.399143 0.360651
0.283758 0.400088 0.400088
0.284697 0.401027 0.439302
0.285632 0.401962 0.478328
0.286563 0.402893 0.517190
0.287490 0.403820 0.555907
0.288414 0.404744 0.594493
0.289336 0.405666 0.632961
0.290255 0.406585 0.671321
0.291171 0.407501 0.709581
0.292086 0.408415 0.747750
0.292998 0.409328 0.785833
0.293908 0.410238 0.823836
0.288250 0.442855 0.208481
0.289237 0.443843 0.249704
0.290208 0.444813 0.290208
0.291167 0.445772 0.330251
0.292118 0.446723 0.369956
0.293063 0.447668 0.409393
0.294002 0.448607 0.448607
0.294937 0.449542 0.487634
0.295868 0.450473 0.526495
0.296795 0.451401 0.565212
0.297719 0.452325 0.603798
0.298641 0.453246 0.642266
0.299560 0.454165 0.680626
0.300476 0.455082 0.718886
0.301391 0.455996 0.757055
0.302303 0.456908 0.795138
0.303213 0.457819 0.833141
0.297510 0.490207 0.217741
0.298498 0.491194 0.258964
0.299468 0.492165 0.299468
0.300427 0.493124 0.339512
0.301378 0.494075 0.379216
0.302323 0.495020 0.418653
0.303262 0.495959 0.457868
0.304197 0.496894 0.496894
0.305128 0.497825 0.535756
0.306055 0.498752 0.574472
0.306980 0.499676 0.613058
0.307901 0.500598 0.651526
0.308820 0.501517 0.689886
0.309737 0.502433 0.728147
0.310651 0.503348 0.766315
0.311563 0.504260 0.804398
0.312473 0.505170 0.842401
0.306732 0.537359 0.226962
0.307719 0.538347 0.268185
0.308689 0.539317 0.308689
0.309648 0.540276 0.348733
0.310600 0.541227 0.388438
0.311544 0.542172 0.427874
0.312484 0.543111 0.467089
0.313418 0.544046 0.506115
0.314349 0.544977 0.544977
0.315277 0.545904 0.583693
0.316201 0.546829 0.622279
0.317122 0.547750 0.660747
0.318041 0.548669 0.699107
0.318958 0.549585 0.737368
0.319872 0.550500 0.775537
0.320784 0.551412 0.813620
0.321695 0.552322 0.851623
0.315918 0.584335 0.236149
0.316906 0.585322 0.277372
0.317876 0.586293 0.317876
0.318835 0.587252 0.357920
0.319786 0.588203 0.397624
0.320731 0.589148 0.437061
0.321670 0.590087 0.476276
0.322605 0.591022 0.515302
0.323536 0.591953 0.554164
0.324463 0.592880 0.592880
0.325388 0.593804 0.631466
0.326309 0.594726 0.669934
0.327228 0.595645 0.708294
0.328145 0.596561 0.746555
0.329059 0.597475 0.784723
0.329971 0.598388 0.822807
0.330881 0.599298 0.860809
0.325074 0.631153 0.245305
0.326062 0.632140 0.286528
0.327032 0.633110 0.327032
0.327991 0.634069 0.367076
0.328942 0.635021 0.406780
0.329887 0.635965 0.446217
0.330826 0.636905 0.485432
0.331761 0.637839 0.524458
0.332692 0.638770 0.563320
0.333619 0.639698 0.602036
0.334544 0.640622 0.640622
0.335465 0.641543 0.679090
0.336384 0.642462 0.717450
0.337300 0.643379 0.755711
0.338215 0.644293 0.793879
0.339127 0.645205 0.831962
0.340037 0.646116 0.869965
0.334202 0.677827 0.254433
0.335189 0.678814 0.295656
0.336160 0.679785 0.336160
0.337119 0.680744 0.376203
0.338070 0.681695 0.415908
0.339015 0.682639 0.455345
0.339954 0.683579 0.494559
0.340889 0.684514 0.533586
0.341820 0.685445 0.572447
0.342747 0.686372 0.611164
0.343671 0.687296 0.649750
0.344593 0.688218 0.688218
0.345512 0.689137 0.726578
0.346428 0.690053 0.764838
0.347343 0.690967 0.803007
0.348255 0.691880 0.841090
0.349165 0.692790 0.879093
0.343304 0.724370 0.263535
0.344292 0.725358 0.304758
0.345262 0.726328 0.345262
0.346221 0.727287 0.385306
0.347172 0.728238 0.425010
0.348117 0.729183 0.464447
0.349056 0.730122 0.503662
0.349991 0.731057 0.542688
0.350922 0.731988 0.581550
0.351849 0.732915 0.620266
0.352774 0.733840 0.658852
0.353695 0.734761 0.697320
0.354614 0.735680 0.735680
0.355531 0.736596 0.773941
0.356445 0.737511 0.812109
0.357357 0.738423 0.850192
0.358267 0.739333 0.888195
0.352383 0.770793 0.272614
0.353370 0.771781 0.313837
0.354341 0.772751 0.354341
0.355300 0.773710 0.394384
0.356251 0.774661 0.434089
0.357196 0.775606 0.473525
0.358135 0.776545 0.512740
0.359070 0.777480 0.551766
0.360001 0.778411 0.590628
0.360928 0.779338 0.629345
0.361852 0.780263 0.667931
0.362774 0.781184 0.706399
0.363693 0.782103 0.744759
0.364609 0.783019 0.783019
0.365523 0.783934 0.821188
0.366436 0.784846 0.859271
0.367346 0.785756 0.897274
0.361440 0.817104 0.281670
0.362427 0.818092 0.322893
0.363397 0.819062 0.363397
0.364357 0.820021 0.403441
0.365308 0.820972 0.443146
0.366252 0.821917 0.482582
0.367192 0.822856 0.521797
0.368127 0.823791 0.560823
0.369057 0.824722 0.599685
0.369985 0.825649 0.638401
0.370909 0.826574 0.676988
0.371831 0.827495 0.715455
0.372750 0.828414 0.753815
0.373666 0.829331 0.792076
0.374580 0.830245 0.830245
0.375493 0.831157 0.868328
0.376403 0.832067 0.906331
0.370476 0.863312 0.290707
0.371464 0.864299 0.331930
0.372434 0.865269 0.372434
0.373393 0.866229 0.412478
0.374344 0.867180 0.452182
0.375289 0.868124 0.491619
0.376228 0.869064 0.530834
0.377163 0.869998 0.569860
0.378094 0.870929 0.608722
0.379021 0.871857 0.647438
0.379946 0.872781 0.686024
0.380867 0.873703 0.724492
0.381786 0.874621 0.762852
0.382703 0.875538 0.801113
0.383617 0.876452 0.839281
0.384529 0.877364 0.877364
0.385439 0.878275 0.915367
0.379494 0.909422 0.299724
0.380481 0.910409 0.340947
0.381451 0.911379 0.381451
0.382411 0.912339 0.421495
0.383362 0.913290 0.461200
0.384306 0.914234 0.500636
0.385246 0.915174 0.539851
0.386181 0.916109 0.578877
0.387111 0.917039 0.617739
0.388039 0.917967 0.656455
0.388963 0.918891 0.695041
0.389885 0.919813 0.733509
0.390804 0.920732 0.771869
0.391720 0.921648 0.810130
0.392634 0.922562 0.848299
0.393547 0.923475 0.886382
0.394457 0.924385 0.924385
0.273181 0.154327 0.154327
0.274168 0.155314 0.195550
0.275138 0.156285 0.236054
0.276098 0.157244 0.276098
0.277049 0.158195 0.315802
0.277993 0.159140 0.355239
0.278933 0.160079 0.394454
0.279868 0.161014 0.433480
0.280798 0.161945 0.472342
0.281726 0.162872 0.511058
0.282650 0.163796 0.549644
0.283572 0.164718 0.588112
0.284490 0.165637 0.626472
0.285407 0.166553 0.664733
0.286321 0.167468 0.702901
0.287234 0.168380 0.740984
0.288144 0.169290 0.778987
0.282962 0.204344 0.164109
