skills/editops-orchestrator/assets/grade/luts/vintage_fade_v17.cube
TITLE "vintage_fade_v17"
LUT_3D_SIZE 5
DOMAIN_MIN 0.0 0.0 0.0
DOMAIN_MAX 1.0 1.0 1.0
0.153887 0.153887 0.153887
0.157888 0.157888 0.311355
0.161762 0.161762 0.463869
0.165575 0.165575 0.613945
0.169346 0.169346 0.762382
0.193514 0.346982 0.193514
0.197514 0.350982 0.350982
0.201389 0.354857 0.503496
0.205202 0.358669 0.653572
0.208972 0.362440 0.802009
0.231894 0.534002 0.231894
0.235895 0.538002 0.389362
0.239769 0.541876 0.541876
0.243582 0.545689 0.691952
0.247353 0.549460 0.840389
0.269661 0.718031 0.269661
0.273661 0.722031 0.427129
0.277536 0.725906 0.579643
0.281348 0.729718 0.729718
0.285119 0.733489 0.878156
0.307015 0.900052 0.307015
0.311015 0.904052 0.464483
0.314890 0.907926 0.616997
0.318702 0.911739 0.767073
0.322473 0.915510 0.915510
0.319134 0.165667 0.165667
0.323135 0.169667 0.323135
0.327009 0.173542 0.475649
0.330822 0.177354 0.625724
0.334593 0.181125 0.774162
0.358761 0.358761 0.205294
0.362762 0.362762 0.362762
0.366636 0.366636 0.515276
0.370449 0.370449 0.665351
0.374220 0.374220 0.813789
0.397142 0.545781 0.243674
0.401142 0.549781 0.401142
0.405016 0.553656 0.553656
0.408829 0.557468 0.703731
0.412600 0.561239 0.852169
0.434908 0.729810 0.281440
0.438908 0.733811 0.438908
0.442783 0.737685 0.591422
0.446595 0.741498 0.741498
0.450366 0.745269 0.889935
0.472262 0.911831 0.318795
0.476263 0.915831 0.476263
0.480137 0.919706 0.628777
0.483950 0.923519 0.778852
0.487721 0.927289 0.927289
0.479183 0.177076 0.177076
0.483183 0.181076 0.334544
0.487058 0.184950 0.487058
0.490870 0.188763 0.637133
0.494641 0.192534 0.785571
0.518810 0.370170 0.216702
0.522810 0.374171 0.374171
0.526685 0.378045 0.526685
0.530497 0.381858 0.676760
0.534268 0.385629 0.825197
0.557190 0.557190 0.255083
0.561190 0.561190 0.412551
0.565065 0.565065 0.565065
0.568877 0.568877 0.715140
0.572648 0.572648 0.863578
0.594956 0.741219 0.292849
0.598957 0.745220 0.450317
0.602831 0.749094 0.602831
0.606644 0.752907 0.752907
0.610415 0.756678 0.901344
0.632311 0.923240 0.330203
0.636311 0.927240 0.487672
0.640186 0.931115 0.640186
0.643998 0.934927 0.790261
0.647769 0.938698 0.938698
0.636672 0.188302 0.188302
0.640672 0.192302 0.345770
0.644547 0.196177 0.498284
0.648360 0.199989 0.648360
0.652130 0.203760 0.796797
0.676299 0.381397 0.227929
0.680299 0.385397 0.385397
0.684174 0.389272 0.537911
0.687986 0.393084 0.687986
0.691757 0.396855 0.836424
0.714679 0.568416 0.266309
0.718680 0.572417 0.423777
0.722554 0.576291 0.576291
0.726367 0.580104 0.726367
0.730138 0.583875 0.874804
0.752446 0.752446 0.304076
0.756446 0.756446 0.461544
0.760321 0.760321 0.614058
0.764133 0.764133 0.764133
0.767904 0.767904 0.912570
0.789800 0.934466 0.341430
0.793800 0.938467 0.498898
0.797675 0.942341 0.651412
0.801487 0.946154 0.801487
0.805258 0.949925 0.949925
0.792442 0.199406 0.199406
0.796443 0.203406 0.356874
0.800317 0.207281 0.509388
0.804130 0.211093 0.659463
0.807901 0.214864 0.807901
0.832069 0.392501 0.239033
0.836070 0.396501 0.396501
0.839944 0.400375 0.549015
0.843757 0.404188 0.699090
0.847528 0.407959 0.847528
0.870450 0.579520 0.277413
0.874450 0.583521 0.434881
0.878324 0.587395 0.587395
0.882137 0.591208 0.737471
0.885908 0.594979 0.885908
0.908216 0.763550 0.315179
0.912216 0.767550 0.472648
0.916091 0.771424 0.625162
0.919903 0.775237 0.775237
0.923674 0.779008 0.923674
0.945570 0.945570 0.352534
0.949571 0.949571 0.510002
0.953445 0.953445 0.662516
0.957258 0.957258 0.812591
0.961029 0.961029 0.961029
