skills/editops-orchestrator/assets/grade/luts/vintage_fade_v15.cube
TITLE "vintage_fade_v15"
LUT_3D_SIZE 17
DOMAIN_MIN 0.0 0.0 0.0
DOMAIN_MAX 1.0 1.0 1.0
0.137559 0.137559 0.137559
0.138511 0.138511 0.179801
0.139447 0.139447 0.221316
0.140373 0.140373 0.262372
0.141291 0.141291 0.303092
0.142203 0.142203 0.343547
0.143110 0.143110 0.383782
0.144013 0.144013 0.423831
0.144912 0.144912 0.463719
0.145808 0.145808 0.503463
0.146701 0.146701 0.543079
0.147591 0.147591 0.582578
0.148479 0.148479 0.621972
0.149365 0.149365 0.661267
0.150249 0.150249 0.700473
0.151131 0.151131 0.739594
0.152011 0.152011 0.778636
0.146992 0.188282 0.146992
0.147944 0.189234 0.189234
0.148880 0.190170 0.230749
0.149806 0.191095 0.271806
0.150724 0.192013 0.312526
0.151636 0.192925 0.352980
0.152543 0.193832 0.393215
0.153446 0.194735 0.433265
0.154345 0.195635 0.473152
0.155241 0.196530 0.512896
0.156134 0.197424 0.552512
0.157025 0.198314 0.592011
0.157913 0.199202 0.631405
0.158799 0.200088 0.670701
0.159682 0.200972 0.709906
0.160564 0.201854 0.749027
0.161445 0.202734 0.788069
0.156263 0.238132 0.156263
0.157216 0.239085 0.198505
0.158151 0.240021 0.240021
0.159077 0.240946 0.281077
0.159995 0.241864 0.321797
0.160907 0.242776 0.362251
0.161814 0.243683 0.402487
0.162717 0.244586 0.442536
0.163616 0.245485 0.482423
0.164512 0.246381 0.522167
0.165405 0.247274 0.561783
0.166296 0.248165 0.601282
0.167184 0.249053 0.640676
0.168070 0.249939 0.679972
0.168954 0.250823 0.719177
0.169835 0.251705 0.758298
0.170716 0.252585 0.797340
0.165432 0.287432 0.165432
0.166384 0.288384 0.207674
0.167320 0.289320 0.249189
0.168246 0.290245 0.290245
0.169164 0.291163 0.330965
0.170076 0.292075 0.371420
0.170983 0.292982 0.411655
0.171885 0.293885 0.451704
0.172785 0.294785 0.491592
0.173681 0.295681 0.531336
0.174574 0.296574 0.570951
0.175464 0.297464 0.610451
0.176352 0.298352 0.649844
0.177238 0.299238 0.689140
0.178122 0.300122 0.728345
0.179004 0.301004 0.767467
0.179884 0.301884 0.806509
0.174525 0.336327 0.174525
0.175477 0.337279 0.216767
0.176413 0.338215 0.258282
0.177339 0.339141 0.299339
0.178257 0.340059 0.340059
0.179169 0.340971 0.380513
0.180076 0.341878 0.420748
0.180979 0.342780 0.460798
0.181878 0.343680 0.500685
0.182774 0.344576 0.540429
0.183667 0.345469 0.580045
0.184558 0.346359 0.619544
0.185446 0.347247 0.658938
0.186332 0.348133 0.698234
0.187215 0.349017 0.737439
0.188097 0.349899 0.776560
0.188978 0.350779 0.815602
0.183559 0.384903 0.183559
0.184512 0.385856 0.225801
0.185447 0.386792 0.267317
0.186373 0.387717 0.308373
0.187291 0.388635 0.349093
0.188203 0.389547 0.389547
0.189110 0.390454 0.429783
0.190013 0.391357 0.469832
0.190912 0.392256 0.509719
0.191808 0.393152 0.549463
0.192701 0.394045 0.589079
0.193592 0.394936 0.628579
0.194480 0.395824 0.667972
0.195366 0.396710 0.707268
0.196250 0.397594 0.746473
0.197131 0.398476 0.785594
0.198012 0.399356 0.824636
0.192544 0.433217 0.192544
0.193497 0.434169 0.234786
0.194433 0.435105 0.276302
0.195358 0.436031 0.317358
0.196276 0.436949 0.358078
0.197188 0.437861 0.398532
0.198095 0.438768 0.438768
0.198998 0.439671 0.478817
0.199897 0.440570 0.518704
0.200793 0.441466 0.558448
0.201686 0.442359 0.598064
0.202577 0.443249 0.637564
0.203465 0.444138 0.676957
0.204351 0.445023 0.716253
0.205235 0.445907 0.755458
0.206117 0.446789 0.794579
0.206997 0.447669 0.833622
0.201488 0.481307 0.201488
0.202440 0.482259 0.243730
0.203376 0.483195 0.285245
0.204302 0.484121 0.326302
0.205220 0.485039 0.367022
0.206132 0.485951 0.407476
0.207039 0.486858 0.447711
0.207942 0.487761 0.487761
0.208841 0.488660 0.527648
0.209737 0.489556 0.567392
0.210630 0.490449 0.607008
0.211521 0.491339 0.646507
0.212409 0.492228 0.685901
0.213295 0.493113 0.725197
0.214178 0.493997 0.764402
0.215060 0.494879 0.803523
0.215941 0.495759 0.842565
0.210396 0.529203 0.210396
0.211348 0.530155 0.252637
0.212284 0.531091 0.294153
0.213209 0.532016 0.335209
0.214127 0.532934 0.375929
0.215039 0.533846 0.416383
0.215946 0.534753 0.456619
0.216849 0.535656 0.496668
0.217749 0.536555 0.536555
0.218645 0.537451 0.576300
0.219538 0.538345 0.615915
0.220428 0.539235 0.655415
0.221316 0.540123 0.694808
0.222202 0.541009 0.734104
0.223086 0.541893 0.773309
0.223968 0.542775 0.812430
0.224848 0.543655 0.851473
0.219271 0.576926 0.219271
0.220223 0.577878 0.261513
0.221159 0.578814 0.303028
0.222085 0.579740 0.344085
0.223003 0.580658 0.384805
0.223915 0.581570 0.425259
0.224822 0.582477 0.465494
0.225725 0.583380 0.505544
0.226624 0.584279 0.545431
0.227520 0.585175 0.585175
0.228413 0.586068 0.624791
0.229304 0.586959 0.664290
0.230192 0.587847 0.703684
0.231078 0.588733 0.742980
0.231961 0.589616 0.782185
0.232843 0.590498 0.821306
0.233724 0.591379 0.860348
0.228118 0.624496 0.228118
0.229070 0.625448 0.270360
0.230006 0.626384 0.311875
0.230932 0.627309 0.352932
0.231850 0.628227 0.393651
0.232762 0.629139 0.434106
0.233669 0.630046 0.474341
0.234572 0.630949 0.514391
0.235471 0.631849 0.554278
0.236367 0.632745 0.594022
0.237260 0.633638 0.633638
0.238150 0.634528 0.673137
0.239039 0.635416 0.712531
0.239924 0.636302 0.751826
0.240808 0.637186 0.791032
0.241690 0.638068 0.830153
0.242570 0.638948 0.869195
0.236939 0.671926 0.236939
0.237891 0.672878 0.279181
0.238827 0.673814 0.320696
0.239753 0.674739 0.361752
0.240671 0.675657 0.402472
0.241583 0.676569 0.442927
0.242490 0.677476 0.483162
0.243393 0.678379 0.523211
0.244292 0.679279 0.563099
0.245188 0.680175 0.602843
0.246081 0.681068 0.642459
0.246971 0.681958 0.681958
0.247859 0.682846 0.721352
0.248745 0.683732 0.760647
0.249629 0.684616 0.799853
0.250511 0.685498 0.838974
0.251391 0.686378 0.878016
0.245736 0.719228 0.245736
0.246688 0.720180 0.287978
0.247624 0.721116 0.329493
0.248550 0.722042 0.370550
0.249468 0.722960 0.411269
0.250380 0.723872 0.451724
0.251287 0.724779 0.491959
0.252190 0.725682 0.532009
0.253089 0.726581 0.571896
0.253985 0.727477 0.611640
0.254878 0.728370 0.651256
0.255768 0.729261 0.690755
0.256657 0.730149 0.730149
0.257542 0.731035 0.769444
0.258426 0.731918 0.808650
0.259308 0.732800 0.847771
0.260188 0.733681 0.886813
0.254511 0.766413 0.254511
0.255464 0.767366 0.296753
0.256400 0.768302 0.338269
0.257325 0.769227 0.379325
0.258243 0.770145 0.420045
0.259155 0.771057 0.460499
0.260062 0.771964 0.500735
0.260965 0.772867 0.540784
0.261864 0.773766 0.580671
0.262760 0.774662 0.620415
0.263653 0.775555 0.660031
0.264544 0.776446 0.699531
0.265432 0.777334 0.738924
0.266318 0.778220 0.778220
0.267202 0.779104 0.817425
0.268084 0.779986 0.856546
0.268964 0.780866 0.895589
0.263267 0.813490 0.263267
0.264219 0.814442 0.305508
0.265155 0.815378 0.347024
0.266080 0.816304 0.388080
0.266998 0.817222 0.428800
0.267910 0.818134 0.469254
0.268817 0.819041 0.509490
0.269720 0.819944 0.549539
0.270619 0.820843 0.589426
0.271515 0.821739 0.629171
0.272409 0.822632 0.668786
0.273299 0.823522 0.708286
0.274187 0.824411 0.747679
0.275073 0.825296 0.786975
0.275957 0.826180 0.826180
0.276839 0.827062 0.865301
0.277719 0.827942 0.904344
0.272003 0.860465 0.272003
0.272955 0.861418 0.314245
0.273891 0.862354 0.355760
0.274817 0.863279 0.396817
0.275735 0.864197 0.437536
0.276647 0.865109 0.477991
0.277554 0.866016 0.518226
0.278457 0.866919 0.558275
0.279356 0.867818 0.598163
0.280252 0.868714 0.637907
0.281145 0.869607 0.677523
0.282035 0.870498 0.717022
0.282923 0.871386 0.756416
0.283809 0.872272 0.795711
0.284693 0.873156 0.834917
0.285575 0.874038 0.874038
0.286455 0.874918 0.913080
0.280722 0.907346 0.280722
0.281674 0.908299 0.322963
0.282610 0.909235 0.364479
0.283536 0.910160 0.405535
0.284453 0.911078 0.446255
0.285365 0.911990 0.486710
0.286273 0.912897 0.526945
0.287175 0.913800 0.566994
0.288075 0.914699 0.606882
0.288971 0.915595 0.646626
0.289864 0.916488 0.686241
0.290754 0.917379 0.725741
0.291642 0.918267 0.765134
0.292528 0.919153 0.804430
0.293412 0.920037 0.843635
0.294294 0.920919 0.882757
0.295174 0.921799 0.921799
0.181652 0.140363 0.140363
0.182605 0.141315 0.182605
0.183541 0.142251 0.224120
0.184466 0.143177 0.265177
0.185384 0.144095 0.305896
0.186296 0.145007 0.346351
0.187203 0.145914 0.386586
0.188106 0.146817 0.426636
0.189005 0.147716 0.466523
0.189901 0.148612 0.506267
0.190794 0.149505 0.545883
0.191685 0.150395 0.585382
0.192573 0.151284 0.624776
0.193459 0.152169 0.664071
0.194343 0.153053 0.703277
0.195225 0.153935 0.742398
0.196105 0.154815 0.781440
0.191086 0.191086 0.149796
0.192038 0.192038 0.192038
0.192974 0.192974 0.233554
0.193899 0.193899 0.274610
0.194817 0.194817 0.315330
0.195729 0.195729 0.355784
0.196637 0.196637 0.396020
0.197539 0.197539 0.436069
0.198439 0.198439 0.475956
0.199335 0.199335 0.515700
0.200228 0.200228 0.555316
0.201118 0.201118 0.594816
0.202006 0.202006 0.634209
0.202892 0.202892 0.673505
0.203776 0.203776 0.712710
0.204658 0.204658 0.751831
0.205538 0.205538 0.790873
0.200357 0.240936 0.159067
0.201309 0.241889 0.201309
0.202245 0.242825 0.242825
0.203171 0.243750 0.283881
0.204089 0.244668 0.324601
0.205001 0.245580 0.365055
0.205908 0.246487 0.405291
0.206811 0.247390 0.445340
0.207710 0.248289 0.485227
0.208606 0.249185 0.524971
0.209499 0.250078 0.564587
0.210389 0.250969 0.604087
0.211277 0.251857 0.643480
0.212163 0.252743 0.682776
0.213047 0.253627 0.721981
0.213929 0.254509 0.761102
0.214809 0.255389 0.800144
0.209525 0.290236 0.168236
0.210478 0.291188 0.210478
0.211414 0.292124 0.251993
0.212339 0.293050 0.293050
0.213257 0.293967 0.333769
0.214169 0.294879 0.374224
0.215076 0.295787 0.414459
0.215979 0.296689 0.454508
0.216878 0.297589 0.494396
0.217774 0.298485 0.534140
0.218667 0.299378 0.573756
0.219558 0.300268 0.613255
0.220446 0.301156 0.652649
0.221332 0.302042 0.691944
0.222216 0.302926 0.731150
0.223098 0.303808 0.770271
0.223978 0.304688 0.809313
0.218619 0.339131 0.177329
0.219571 0.340083 0.219571
0.220507 0.341019 0.261087
0.221433 0.341945 0.302143
0.222350 0.342863 0.342863
0.223262 0.343775 0.383317
0.224170 0.344682 0.423553
0.225072 0.345585 0.463602
0.225972 0.346484 0.503489
0.226868 0.347380 0.543233
0.227761 0.348273 0.582849
0.228651 0.349163 0.622349
0.229539 0.350051 0.661742
0.230425 0.350937 0.701038
0.231309 0.351821 0.740243
0.232191 0.352703 0.779364
0.233071 0.353583 0.818406
0.227653 0.387707 0.186363
0.228605 0.388660 0.228605
0.229541 0.389596 0.270121
0.230467 0.390521 0.311177
0.231385 0.391439 0.351897
0.232297 0.392351 0.392351
0.233204 0.393258 0.432587
0.234107 0.394161 0.472636
0.235006 0.395060 0.512523
0.235902 0.395956 0.552267
0.236795 0.396849 0.591883
0.237685 0.397740 0.631383
0.238573 0.398628 0.670776
0.239459 0.399514 0.710072
0.240343 0.400398 0.749277
0.241225 0.401280 0.788398
0.242105 0.402160 0.827441
0.236638 0.436021 0.195349
0.237590 0.436973 0.237590
0.238526 0.437909 0.279106
0.239452 0.438835 0.320162
0.240370 0.439753 0.360882
0.241282 0.440665 0.401336
0.242189 0.441572 0.441572
0.243092 0.442475 0.481621
0.243991 0.443374 0.521508
0.244887 0.444270 0.561253
0.245780 0.445163 0.600868
0.246671 0.446054 0.640368
0.247559 0.446942 0.679761
0.248445 0.447828 0.719057
0.249328 0.448711 0.758262
0.250210 0.449593 0.797383
0.251090 0.450473 0.836426
0.245582 0.484111 0.204292
0.246534 0.485063 0.246534
0.247470 0.485999 0.288050
0.248396 0.486925 0.329106
0.249313 0.487843 0.369826
0.250225 0.488755 0.410280
0.251133 0.489662 0.450516
0.252035 0.490565 0.490565
0.252935 0.491464 0.530452
0.253831 0.492360 0.570196
0.254724 0.493253 0.609812
0.255614 0.494144 0.649312
0.256502 0.495032 0.688705
0.257388 0.495918 0.728001
0.258272 0.496801 0.767206
0.259154 0.497683 0.806327
0.260034 0.498564 0.845369
0.254489 0.532007 0.213200
0.255441 0.532959 0.255441
0.256377 0.533895 0.296957
0.257303 0.534820 0.338013
0.258221 0.535738 0.378733
0.259133 0.536650 0.419188
0.260040 0.537558 0.459423
0.260943 0.538460 0.499472
0.261842 0.539360 0.539360
0.262738 0.540256 0.579104
0.263631 0.541149 0.618719
0.264522 0.542039 0.658219
0.265410 0.542927 0.697612
0.266296 0.543813 0.736908
0.267179 0.544697 0.776113
0.268061 0.545579 0.815235
0.268942 0.546459 0.854277
0.263365 0.579730 0.222075
0.264317 0.580683 0.264317
0.265253 0.581618 0.305833
0.266178 0.582544 0.346889
0.267096 0.583462 0.387609
0.268008 0.584374 0.428063
0.268916 0.585281 0.468299
0.269818 0.586184 0.508348
0.270718 0.587083 0.548235
0.271614 0.587979 0.587979
0.272507 0.588872 0.627595
0.273397 0.589763 0.667095
0.274285 0.590651 0.706488
0.275171 0.591537 0.745784
0.276055 0.592421 0.784989
0.276937 0.593302 0.824110
0.277817 0.594183 0.863152
0.272212 0.627300 0.230922
0.273164 0.628252 0.273164
0.274100 0.629188 0.314679
0.275025 0.630114 0.355736
0.275943 0.631032 0.396455
0.276855 0.631944 0.436910
0.277762 0.632851 0.477145
0.278665 0.633753 0.517195
0.279564 0.634653 0.557082
0.280460 0.635549 0.596826
0.281354 0.636442 0.636442
0.282244 0.637332 0.675941
0.283132 0.638220 0.715335
0.284018 0.639106 0.754630
0.284902 0.639990 0.793836
0.285784 0.640872 0.832957
0.286664 0.641752 0.871999
0.281032 0.674730 0.239743
0.281985 0.675682 0.281985
0.282921 0.676618 0.323500
0.283846 0.677544 0.364557
0.284764 0.678462 0.405276
0.285676 0.679374 0.445731
0.286583 0.680281 0.485966
0.287486 0.681183 0.526016
0.288385 0.682083 0.565903
0.289281 0.682979 0.605647
0.290174 0.683872 0.645263
0.291065 0.684762 0.684762
0.291953 0.685650 0.724156
0.292839 0.686536 0.763451
0.293723 0.687420 0.802657
0.294605 0.688302 0.841778
0.295485 0.689182 0.880820
0.289830 0.722032 0.248540
0.290782 0.722985 0.290782
0.291718 0.723920 0.332298
0.292643 0.724846 0.373354
0.293561 0.725764 0.414074
0.294473 0.726676 0.454528
0.295380 0.727583 0.494763
0.296283 0.728486 0.534813
0.297183 0.729385 0.574700
0.298079 0.730281 0.614444
0.298972 0.731174 0.654060
0.299862 0.732065 0.693559
0.300750 0.732953 0.732953
0.301636 0.733839 0.772249
0.302520 0.734723 0.811454
0.303402 0.735604 0.850575
0.304282 0.736485 0.889617
0.298605 0.769217 0.257316
0.299557 0.770170 0.299557
0.300493 0.771106 0.341073
0.301419 0.772031 0.382129
0.302337 0.772949 0.422849
0.303249 0.773861 0.463303
0.304156 0.774768 0.503539
0.305059 0.775671 0.543588
0.305958 0.776570 0.583475
0.306854 0.777466 0.623219
0.307747 0.778359 0.662835
0.308637 0.779250 0.702335
0.309526 0.780138 0.741728
0.310411 0.781024 0.781024
0.311295 0.781908 0.820229
0.312177 0.782790 0.859350
0.313057 0.783670 0.898393
0.307360 0.816294 0.266071
0.308312 0.817246 0.308312
0.309248 0.818182 0.349828
0.310174 0.819108 0.390884
0.311092 0.820026 0.431604
0.312004 0.820938 0.472059
0.312911 0.821845 0.512294
0.313814 0.822748 0.552343
0.314713 0.823647 0.592231
0.315609 0.824543 0.631975
0.316502 0.825436 0.671590
0.317393 0.826327 0.711090
0.318281 0.827215 0.750483
0.319167 0.828101 0.789779
0.320050 0.828984 0.828984
0.320932 0.829866 0.868105
0.321813 0.830747 0.907148
0.316097 0.863270 0.274807
0.317049 0.864222 0.317049
0.317985 0.865158 0.358564
0.318910 0.866083 0.399621
0.319828 0.867001 0.440340
0.320740 0.867913 0.480795
0.321647 0.868820 0.521030
0.322550 0.869723 0.561080
0.323449 0.870623 0.600967
0.324345 0.871519 0.640711
0.325239 0.872412 0.680327
0.326129 0.873302 0.719826
0.327017 0.874190 0.759220
0.327903 0.875076 0.798515
0.328787 0.875960 0.837721
0.329669 0.876842 0.876842
0.330549 0.877722 0.915884
0.324815 0.910151 0.283526
0.325768 0.911103 0.325768
0.326704 0.912039 0.367283
0.327629 0.912964 0.408339
0.328547 0.913882 0.449059
0.329459 0.914794 0.489514
0.330366 0.915701 0.529749
0.331269 0.916604 0.569798
0.332168 0.917504 0.609686
0.333064 0.918399 0.649430
0.333957 0.919293 0.689046
0.334848 0.920183 0.728545
0.335736 0.921071 0.767939
0.336622 0.921957 0.807234
0.337506 0.922841 0.846440
0.338388 0.923723 0.885561
0.339268 0.924603 0.924603
0.224988 0.143119 0.143119
0.225940 0.144071 0.185361
0.226876 0.145007 0.226876
0.227802 0.145933 0.267933
0.228720 0.146851 0.308652
0.229632 0.147763 0.349107
0.230539 0.148670 0.389342
0.231442 0.149573 0.429391
0.232341 0.150472 0.469279
0.233237 0.151368 0.509023
0.234130 0.152261 0.548639
0.235021 0.153151 0.588138
0.235909 0.154039 0.627532
0.236794 0.154925 0.666827
0.237678 0.155809 0.706033
0.238560 0.156691 0.745154
0.239440 0.157571 0.784196
0.234421 0.193842 0.152552
0.235374 0.194794 0.194794
0.236310 0.195730 0.236310
0.237235 0.196655 0.277366
0.238153 0.197573 0.318086
0.239065 0.198485 0.358540
0.239972 0.199392 0.398775
0.240875 0.200295 0.438825
0.241774 0.201195 0.478712
0.242670 0.202091 0.518456
0.243563 0.202984 0.558072
0.244454 0.203874 0.597571
0.245342 0.204762 0.636965
0.246228 0.205648 0.676261
0.247112 0.206532 0.715466
0.247994 0.207414 0.754587
0.248874 0.208294 0.793629
0.243692 0.243692 0.161823
0.244645 0.244645 0.204065
0.245581 0.245581 0.245581
0.246506 0.246506 0.286637
0.247424 0.247424 0.327357
0.248336 0.248336 0.367811
0.249243 0.249243 0.408047
0.250146 0.250146 0.448096
0.251045 0.251045 0.487983
0.251941 0.251941 0.527727
0.252834 0.252834 0.567343
0.253725 0.253725 0.606843
0.254613 0.254613 0.646236
0.255499 0.255499 0.685532
0.256383 0.256383 0.724737
0.257265 0.257265 0.763858
0.258145 0.258145 0.802900
0.252861 0.292992 0.170992
0.253813 0.293944 0.213234
0.254749 0.294880 0.254749
0.255675 0.295805 0.295805
0.256593 0.296723 0.336525
0.257505 0.297635 0.376980
0.258412 0.298542 0.417215
0.259315 0.299445 0.457264
0.260214 0.300345 0.497152
0.261110 0.301241 0.536896
0.262003 0.302134 0.576512
0.262893 0.303024 0.616011
0.263782 0.303912 0.655404
0.264667 0.304798 0.694700
0.265551 0.305682 0.733906
0.266433 0.306564 0.773027
0.267313 0.307444 0.812069
0.261954 0.341887 0.180085
0.262907 0.342839 0.222327
0.263843 0.343775 0.263843
0.264768 0.344701 0.304899
0.265686 0.345619 0.345619
0.266598 0.346531 0.386073
0.267505 0.347438 0.426309
0.268408 0.348341 0.466358
0.269307 0.349240 0.506245
0.270203 0.350136 0.545989
0.271096 0.351029 0.585605
0.271987 0.351919 0.625104
0.272875 0.352807 0.664498
0.273761 0.353693 0.703794
0.274645 0.354577 0.742999
0.275527 0.355459 0.782120
0.276407 0.356339 0.821162
0.270988 0.390463 0.189119
0.271941 0.391416 0.231361
0.272877 0.392352 0.272877
0.273802 0.393277 0.313933
0.274720 0.394195 0.354653
0.275632 0.395107 0.395107
0.276539 0.396014 0.435343
0.277442 0.396917 0.475392
0.278341 0.397816 0.515279
0.279237 0.398712 0.555023
0.280130 0.399605 0.594639
0.281021 0.400496 0.634139
0.281909 0.401384 0.673532
0.282795 0.402270 0.712828
0.283679 0.403154 0.752033
0.284561 0.404036 0.791154
0.285441 0.404916 0.830196
0.279974 0.438777 0.198105
0.280926 0.439729 0.240346
0.281862 0.440665 0.281862
0.282787 0.441591 0.322918
0.283705 0.442509 0.363638
0.284617 0.443421 0.404092
0.285525 0.444328 0.444328
0.286427 0.445231 0.484377
0.287327 0.446130 0.524264
0.288223 0.447026 0.564008
0.289116 0.447919 0.603624
0.290006 0.448810 0.643124
0.290894 0.449698 0.682517
0.291780 0.450583 0.721813
0.292664 0.451467 0.761018
0.293546 0.452349 0.800139
0.294426 0.453229 0.839182
0.288917 0.486867 0.207048
0.289870 0.487819 0.249290
0.290806 0.488755 0.290806
0.291731 0.489681 0.331862
0.292649 0.490599 0.372582
0.293561 0.491511 0.413036
0.294468 0.492418 0.453271
0.295371 0.493321 0.493321
0.296270 0.494220 0.533208
0.297166 0.495116 0.572952
0.298059 0.496009 0.612568
0.298950 0.496900 0.652067
0.299838 0.497788 0.691461
0.300724 0.498673 0.730757
0.301608 0.499557 0.769962
0.302490 0.500439 0.809083
0.303370 0.501319 0.848125
0.297825 0.534763 0.215956
0.298777 0.535715 0.258197
0.299713 0.536651 0.299713
0.300639 0.537576 0.340769
0.301557 0.538494 0.381489
0.302469 0.539406 0.421944
0.303376 0.540313 0.462179
0.304279 0.541216 0.502228
0.305178 0.542116 0.542116
0.306074 0.543012 0.581860
0.306967 0.543905 0.621475
0.307857 0.544795 0.660975
0.308745 0.545683 0.700368
0.309631 0.546569 0.739664
0.310515 0.547453 0.778869
0.311397 0.548335 0.817990
0.312277 0.549215 0.857033
0.306700 0.582486 0.224831
0.307653 0.583438 0.267073
0.308589 0.584374 0.308589
0.309514 0.585300 0.349645
0.310432 0.586218 0.390365
0.311344 0.587130 0.430819
0.312251 0.588037 0.471054
0.313154 0.588940 0.511104
0.314053 0.589839 0.550991
0.314949 0.590735 0.590735
0.315842 0.591628 0.630351
0.316733 0.592519 0.669850
0.317621 0.593407 0.709244
0.318507 0.594293 0.748540
0.319391 0.595176 0.787745
0.320273 0.596058 0.826866
0.321153 0.596939 0.865908
0.315547 0.630056 0.233678
0.316499 0.631008 0.275920
0.317435 0.631944 0.317435
0.318361 0.632869 0.358492
0.319279 0.633787 0.399211
0.320191 0.634699 0.439666
0.321098 0.635607 0.479901
0.322001 0.636509 0.519951
0.322900 0.637409 0.559838
0.323796 0.638305 0.599582
0.324689 0.639198 0.639198
0.325580 0.640088 0.678697
0.326468 0.640976 0.718091
0.327354 0.641862 0.757386
0.328237 0.642746 0.796592
0.329119 0.643628 0.835713
0.330000 0.644508 0.874755
0.324368 0.677486 0.242499
0.325320 0.678438 0.284741
0.326256 0.679374 0.326256
0.327182 0.680299 0.367313
0.328100 0.681217 0.408032
0.329012 0.682129 0.448487
0.329919 0.683037 0.488722
0.330822 0.683939 0.528771
0.331721 0.684839 0.568659
0.332617 0.685735 0.608403
0.333510 0.686628 0.648019
0.334401 0.687518 0.687518
0.335289 0.688406 0.726912
0.336174 0.689292 0.766207
0.337058 0.690176 0.805413
0.337940 0.691058 0.844534
0.338820 0.691938 0.883576
0.333165 0.724788 0.251296
0.334118 0.725740 0.293538
0.335053 0.726676 0.335053
0.335979 0.727602 0.376110
0.336897 0.728520 0.416829
0.337809 0.729432 0.457284
0.338716 0.730339 0.497519
0.339619 0.731242 0.537569
0.340518 0.732141 0.577456
0.341414 0.733037 0.617200
0.342307 0.733930 0.656816
0.343198 0.734821 0.696315
0.344086 0.735709 0.735709
0.344972 0.736595 0.775004
0.345855 0.737478 0.814210
0.346737 0.738360 0.853331
0.347618 0.739241 0.892373
0.341941 0.771973 0.260071
0.342893 0.772926 0.302313
0.343829 0.773862 0.343829
0.344754 0.774787 0.384885
0.345672 0.775705 0.425605
0.346584 0.776617 0.466059
0.347491 0.777524 0.506295
0.348394 0.778427 0.546344
0.349294 0.779326 0.586231
0.350189 0.780222 0.625975
0.351083 0.781115 0.665591
0.351973 0.782006 0.705091
0.352861 0.782894 0.744484
0.353747 0.783780 0.783780
0.354631 0.784664 0.822985
0.355513 0.785546 0.862106
0.356393 0.786426 0.901149
0.350696 0.819050 0.268827
0.351648 0.820002 0.311068
0.352584 0.820938 0.352584
0.353510 0.821864 0.393640
0.354428 0.822782 0.434360
0.355340 0.823694 0.474814
0.356247 0.824601 0.515050
0.357149 0.825504 0.555099
0.358049 0.826403 0.594986
0.358945 0.827299 0.634731
0.359838 0.828192 0.674346
0.360728 0.829083 0.713846
0.361616 0.829971 0.753239
0.362502 0.830856 0.792535
0.363386 0.831740 0.831740
0.364268 0.832622 0.870861
0.365148 0.833502 0.909904
0.359432 0.866026 0.277563
0.360384 0.866978 0.319805
0.361320 0.867914 0.361320
0.362246 0.868839 0.402377
0.363164 0.869757 0.443096
0.364076 0.870669 0.483551
0.364983 0.871576 0.523786
0.365886 0.872479 0.563836
0.366785 0.873378 0.603723
0.367681 0.874274 0.643467
0.368574 0.875168 0.683083
0.369465 0.876058 0.722582
0.370353 0.876946 0.761976
0.371239 0.877832 0.801271
0.372122 0.878716 0.840477
0.373004 0.879598 0.879598
0.373885 0.880478 0.918640
0.368151 0.912907 0.286282
0.369103 0.913859 0.328524
0.370039 0.914795 0.370039
0.370965 0.915720 0.411095
0.371883 0.916638 0.451815
0.372795 0.917550 0.492270
0.373702 0.918457 0.532505
0.374605 0.919360 0.572554
0.375504 0.920259 0.612442
0.376400 0.921155 0.652186
0.377293 0.922049 0.691801
0.378183 0.922939 0.731301
0.379071 0.923827 0.770694
0.379957 0.924713 0.809990
0.380841 0.925597 0.849195
0.381723 0.926479 0.888317
0.382603 0.927359 0.927359
0.267844 0.145844 0.145844
0.268796 0.146797 0.188086
0.269732 0.147733 0.229602
0.270658 0.148658 0.270658
0.271576 0.149576 0.311378
0.272488 0.150488 0.351832
0.273395 0.151395 0.392068
0.274298 0.152298 0.432117
0.275197 0.153197 0.472004
0.276093 0.154093 0.511748
0.276986 0.154986 0.551364
0.277877 0.155877 0.590864
0.278765 0.156765 0.630257
0.279651 0.157651 0.669553
0.280534 0.158535 0.708758
0.281416 0.159417 0.747879
0.282297 0.160297 0.786921
0.277277 0.196567 0.155278
