skills/editops-orchestrator/assets/grade/luts/vintage_fade_v03.cube
TITLE "vintage_fade_v03"
LUT_3D_SIZE 17
DOMAIN_MIN 0.0 0.0 0.0
DOMAIN_MAX 1.0 1.0 1.0
0.037364 0.037364 0.037364
0.037818 0.037818 0.092567
0.038268 0.038268 0.147118
0.038714 0.038714 0.201343
0.039159 0.039159 0.255346
0.039602 0.039602 0.309182
0.040045 0.040045 0.362882
0.040486 0.040486 0.416470
0.040927 0.040927 0.469960
0.041367 0.041367 0.523365
0.041806 0.041806 0.576694
0.042244 0.042244 0.629954
0.042683 0.042683 0.683153
0.043120 0.043120 0.736294
0.043558 0.043558 0.789382
0.043994 0.043994 0.842422
0.044431 0.044431 0.895416
0.041868 0.096616 0.041868
0.042322 0.097071 0.097071
0.042772 0.097520 0.151622
0.043218 0.097966 0.205847
0.043663 0.098411 0.259850
0.044106 0.098855 0.313686
0.044549 0.099297 0.367386
0.044990 0.099738 0.420973
0.045431 0.100179 0.474464
0.045870 0.100619 0.527868
0.046310 0.101058 0.581197
0.046748 0.101497 0.634458
0.047186 0.101935 0.687656
0.047624 0.102372 0.740798
0.048061 0.102810 0.793886
0.048498 0.103247 0.846926
0.048935 0.103683 0.899920
0.046318 0.155169 0.046318
0.046773 0.155623 0.101521
0.047222 0.156073 0.156073
0.047669 0.156519 0.210297
0.048114 0.156964 0.264301
0.048557 0.157407 0.318136
0.048999 0.157850 0.371837
0.049441 0.158291 0.425424
0.049881 0.158732 0.478914
0.050321 0.159171 0.532319
0.050760 0.159611 0.585648
0.051199 0.160049 0.638909
0.051637 0.160488 0.692107
0.052075 0.160925 0.745248
0.052512 0.161362 0.798337
0.052949 0.161799 0.851377
0.053385 0.162236 0.904370
0.050742 0.213371 0.050742
0.051197 0.213825 0.105945
0.051646 0.214275 0.160497
0.052093 0.214721 0.214721
0.052538 0.215166 0.268725
0.052981 0.215610 0.322560
0.053423 0.216052 0.376261
0.053865 0.216493 0.429848
0.054305 0.216934 0.483338
0.054745 0.217374 0.536743
0.055184 0.217813 0.590072
0.055623 0.218252 0.643333
0.056061 0.218690 0.696531
0.056499 0.219127 0.749672
0.056936 0.219565 0.802761
0.057373 0.220001 0.855801
0.057809 0.220438 0.908794
0.055148 0.271335 0.055148
0.055603 0.271790 0.110351
0.056052 0.272239 0.164903
0.056499 0.272686 0.219127
0.056944 0.273131 0.273131
0.057387 0.273574 0.326966
0.057829 0.274016 0.380667
0.058271 0.274458 0.434254
0.058711 0.274898 0.487744
0.059151 0.275338 0.541149
0.059590 0.275777 0.594478
0.060029 0.276216 0.647739
0.060467 0.276654 0.700937
0.060905 0.277092 0.754078
0.061342 0.277529 0.807167
0.061779 0.277966 0.860207
0.062215 0.278402 0.913200
0.059541 0.329120 0.059541
0.059995 0.329574 0.114744
0.060445 0.330024 0.169295
0.060891 0.330470 0.223520
0.061336 0.330915 0.277523
0.061779 0.331359 0.331359
0.062222 0.331801 0.385059
0.062663 0.332242 0.438646
0.063104 0.332683 0.492137
0.063543 0.333123 0.545541
0.063983 0.333562 0.598870
0.064421 0.334001 0.652131
0.064859 0.334439 0.705329
0.065297 0.334876 0.758471
0.065734 0.335314 0.811559
0.066171 0.335750 0.864599
0.066608 0.336187 0.917593
0.063922 0.386759 0.063922
0.064377 0.387214 0.119125
0.064826 0.387663 0.173676
0.065272 0.388110 0.227901
0.065717 0.388555 0.281904
0.066161 0.388998 0.335740
0.066603 0.389440 0.389440
0.067044 0.389882 0.443028
0.067485 0.390322 0.496518
0.067925 0.390762 0.549923
0.068364 0.391201 0.603252
0.068803 0.391640 0.656512
0.069241 0.392078 0.709711
0.069678 0.392516 0.762852
0.070116 0.392953 0.815941
0.070553 0.393390 0.868980
0.070989 0.393826 0.921974
0.068294 0.444277 0.068294
0.068749 0.444732 0.123497
0.069198 0.445181 0.178048
0.069644 0.445628 0.232273
0.070089 0.446073 0.286276
0.070533 0.446516 0.340112
0.070975 0.446958 0.393812
0.071416 0.447400 0.447400
0.071857 0.447840 0.500890
0.072297 0.448280 0.554295
0.072736 0.448719 0.607624
0.073175 0.449158 0.660884
0.073613 0.449596 0.714083
0.074050 0.450034 0.767224
0.074488 0.450471 0.820313
0.074925 0.450908 0.873352
0.075361 0.451344 0.926346
0.072658 0.501691 0.072658
0.073113 0.502146 0.127861
0.073562 0.502595 0.182412
0.074009 0.503042 0.236637
0.074453 0.503486 0.290640
0.074897 0.503930 0.344476
0.075339 0.504372 0.398176
0.075780 0.504813 0.451764
0.076221 0.505254 0.505254
0.076661 0.505694 0.558659
0.077100 0.506133 0.611988
0.077539 0.506572 0.665249
0.077977 0.507010 0.718447
0.078415 0.507448 0.771588
0.078852 0.507885 0.824677
0.079289 0.508322 0.877716
0.079725 0.508758 0.930710
0.077015 0.559013 0.077015
0.077470 0.559468 0.132218
0.077919 0.559917 0.186769
0.078366 0.560364 0.240994
0.078811 0.560809 0.294998
0.079254 0.561252 0.348833
0.079696 0.561694 0.402534
0.080138 0.562136 0.456121
0.080578 0.562576 0.509611
0.081018 0.563016 0.563016
0.081457 0.563455 0.616345
0.081896 0.563894 0.669606
0.082334 0.564332 0.722804
0.082772 0.564770 0.775945
0.083209 0.565207 0.829034
0.083646 0.565644 0.882073
0.084082 0.566080 0.935067
0.081366 0.616254 0.081366
0.081821 0.616709 0.136569
0.082270 0.617158 0.191120
0.082717 0.617605 0.245345
0.083161 0.618049 0.299349
0.083605 0.618493 0.353184
0.084047 0.618935 0.406885
0.084489 0.619376 0.460472
0.084929 0.619817 0.513962
0.085369 0.620257 0.567367
0.085808 0.620696 0.620696
0.086247 0.621135 0.673957
0.086685 0.621573 0.727155
0.087123 0.622011 0.780296
0.087560 0.622448 0.833385
0.087997 0.622885 0.886424
0.088433 0.623321 0.939418
0.085712 0.673421 0.085712
0.086166 0.673876 0.140914
0.086615 0.674325 0.195466
0.087062 0.674772 0.249691
0.087507 0.675217 0.303694
0.087950 0.675660 0.357529
0.088393 0.676102 0.411230
0.088834 0.676544 0.464817
0.089274 0.676984 0.518308
0.089714 0.677424 0.571712
0.090154 0.677863 0.625041
0.090592 0.678302 0.678302
0.091030 0.678740 0.731500
0.091468 0.679178 0.784642
0.091905 0.679615 0.837730
0.092342 0.680052 0.890770
0.092779 0.680488 0.943764
0.090052 0.730522 0.090052
0.090506 0.730976 0.145255
0.090956 0.731426 0.199806
0.091402 0.731872 0.254031
0.091847 0.732317 0.308034
0.092291 0.732761 0.361870
0.092733 0.733203 0.415570
0.093174 0.733644 0.469158
0.093615 0.734085 0.522648
0.094055 0.734525 0.576053
0.094494 0.734964 0.629382
0.094933 0.735403 0.682642
0.095371 0.735841 0.735841
0.095808 0.736278 0.788982
0.096246 0.736716 0.842071
0.096683 0.737153 0.895110
0.097119 0.737589 0.948104
0.094387 0.787561 0.094387
0.094842 0.788016 0.149590
0.095291 0.788465 0.204142
0.095738 0.788912 0.258367
0.096183 0.789356 0.312370
0.096626 0.789800 0.366205
0.097069 0.790242 0.419906
0.097510 0.790683 0.473493
0.097950 0.791124 0.526983
0.098390 0.791564 0.580388
0.098830 0.792003 0.633717
0.099268 0.792442 0.686978
0.099706 0.792880 0.740176
0.100144 0.793318 0.793318
0.100581 0.793755 0.846406
0.101018 0.794192 0.899446
0.101455 0.794628 0.952440
0.098719 0.844544 0.098719
0.099173 0.844998 0.153922
0.099623 0.845448 0.208473
0.100069 0.845894 0.262698
0.100514 0.846339 0.316701
0.100958 0.846782 0.370537
0.101400 0.847225 0.424237
0.101841 0.847666 0.477825
0.102282 0.848107 0.531315
0.102722 0.848547 0.584720
0.103161 0.848986 0.638049
0.103600 0.849424 0.691309
0.104038 0.849863 0.744508
0.104475 0.850300 0.797649
0.104913 0.850738 0.850738
0.105350 0.851174 0.903777
0.105786 0.851611 0.956771
0.103046 0.901474 0.103046
0.103501 0.901928 0.158249
0.103950 0.902378 0.212800
0.104397 0.902824 0.267025
0.104842 0.903269 0.321029
0.105285 0.903713 0.374864
0.105727 0.904155 0.428565
0.106169 0.904596 0.482152
0.106609 0.905037 0.535642
0.107049 0.905477 0.589047
0.107488 0.905916 0.642376
0.107927 0.906355 0.695637
0.108365 0.906793 0.748835
0.108803 0.907230 0.801976
0.109240 0.907668 0.855065
0.109677 0.908104 0.908104
0.110113 0.908541 0.961098
0.107370 0.958355 0.107370
0.107824 0.958809 0.162573
0.108274 0.959259 0.217124
0.108720 0.959705 0.271349
0.109165 0.960150 0.325352
0.109609 0.960594 0.379188
0.110051 0.961036 0.432888
0.110492 0.961477 0.486476
0.110933 0.961918 0.539966
0.111373 0.962358 0.593371
0.111812 0.962797 0.646700
0.112251 0.963236 0.699960
0.112689 0.963674 0.753159
0.113126 0.964111 0.806300
0.113564 0.964549 0.859389
0.114000 0.964985 0.912428
0.114437 0.965422 0.965422
0.093451 0.038703 0.038703
0.093905 0.039157 0.093905
0.094355 0.039606 0.148457
0.094801 0.040053 0.202682
0.095246 0.040498 0.256685
0.095690 0.040941 0.310520
0.096132 0.041384 0.364221
0.096573 0.041825 0.417808
0.097014 0.042265 0.471299
0.097454 0.042705 0.524703
0.097893 0.043145 0.578032
0.098332 0.043583 0.631293
0.098770 0.044021 0.684491
0.099207 0.044459 0.737633
0.099645 0.044896 0.790721
0.100082 0.045333 0.843761
0.100518 0.045770 0.896755
0.097955 0.097955 0.043206
0.098409 0.098409 0.098409
0.098859 0.098859 0.152961
0.099305 0.099305 0.207185
0.099750 0.099750 0.261189
0.100193 0.100193 0.315024
0.100636 0.100636 0.368725
0.101077 0.101077 0.422312
0.101518 0.101518 0.475802
0.101958 0.101958 0.529207
0.102397 0.102397 0.582536
0.102835 0.102835 0.635797
0.103274 0.103274 0.688995
0.103711 0.103711 0.742137
0.104149 0.104149 0.795225
0.104585 0.104585 0.848265
0.105022 0.105022 0.901259
0.102405 0.156507 0.047657
0.102860 0.156962 0.102860
0.103309 0.157411 0.157411
0.103756 0.157858 0.211636
0.104201 0.158303 0.265639
0.104644 0.158746 0.319475
0.105086 0.159188 0.373176
0.105528 0.159630 0.426763
0.105968 0.160070 0.480253
0.106408 0.160510 0.533658
0.106847 0.160949 0.586987
0.107286 0.161388 0.640248
0.107724 0.161826 0.693446
0.108162 0.162264 0.746587
0.108599 0.162701 0.799676
0.109036 0.163138 0.852715
0.109473 0.163575 0.905709
0.106829 0.214710 0.052081
0.107284 0.215164 0.107284
0.107733 0.215614 0.161835
0.108180 0.216060 0.216060
0.108625 0.216505 0.270063
0.109068 0.216948 0.323899
0.109510 0.217391 0.377600
0.109952 0.217832 0.431187
0.110392 0.218273 0.484677
0.110832 0.218712 0.538082
0.111272 0.219152 0.591411
0.111710 0.219590 0.644672
0.112148 0.220028 0.697870
0.112586 0.220466 0.751011
0.113023 0.220903 0.804100
0.113460 0.221340 0.857139
0.113897 0.221777 0.910133
0.111235 0.272674 0.056487
0.111690 0.273129 0.111690
0.112139 0.273578 0.166241
0.112586 0.274025 0.220466
0.113031 0.274469 0.274469
0.113474 0.274913 0.328305
0.113916 0.275355 0.382006
0.114358 0.275797 0.435593
0.114798 0.276237 0.489083
0.115238 0.276677 0.542488
0.115677 0.277116 0.595817
0.116116 0.277555 0.649078
0.116554 0.277993 0.702276
0.116992 0.278431 0.755417
0.117429 0.278868 0.808506
0.117866 0.279305 0.861545
0.118303 0.279741 0.914539
0.115628 0.330459 0.060879
0.116082 0.330913 0.116082
0.116532 0.331363 0.170634
0.116978 0.331809 0.224858
0.117423 0.332254 0.278862
0.117866 0.332697 0.332697
0.118309 0.333140 0.386398
0.118750 0.333581 0.439985
0.119191 0.334022 0.493475
0.119631 0.334461 0.546880
0.120070 0.334901 0.600209
0.120508 0.335339 0.653470
0.120947 0.335777 0.706668
0.121384 0.336215 0.759810
0.121822 0.336652 0.812898
0.122258 0.337089 0.865938
0.122695 0.337526 0.918932
0.120009 0.388098 0.065261
0.120464 0.388553 0.120464
0.120913 0.389002 0.175015
0.121360 0.389449 0.229240
0.121804 0.389893 0.283243
0.122248 0.390337 0.337079
0.122690 0.390779 0.390779
0.123131 0.391220 0.444367
0.123572 0.391661 0.497857
0.124012 0.392101 0.551262
0.124451 0.392540 0.604591
0.124890 0.392979 0.657851
0.125328 0.393417 0.711050
0.125766 0.393855 0.764191
0.126203 0.394292 0.817279
0.126640 0.394729 0.870319
0.127076 0.395165 0.923313
0.124381 0.445616 0.069633
0.124836 0.446071 0.124836
0.125285 0.446520 0.179387
0.125732 0.446967 0.233612
0.126176 0.447411 0.287615
0.126620 0.447855 0.341451
0.127062 0.448297 0.395151
0.127503 0.448739 0.448739
0.127944 0.449179 0.502229
0.128384 0.449619 0.555634
0.128823 0.450058 0.608963
0.129262 0.450497 0.662223
0.129700 0.450935 0.715422
0.130138 0.451373 0.768563
0.130575 0.451810 0.821651
0.131012 0.452247 0.874691
0.131448 0.452683 0.927685
0.128745 0.503030 0.073997
0.129200 0.503485 0.129200
0.129649 0.503934 0.183751
0.130096 0.504380 0.237976
0.130541 0.504825 0.291979
0.130984 0.505269 0.345815
0.131426 0.505711 0.399515
0.131868 0.506152 0.453103
0.132308 0.506593 0.506593
0.132748 0.507033 0.559998
0.133187 0.507472 0.613327
0.133626 0.507911 0.666587
0.134064 0.508349 0.719786
0.134502 0.508786 0.772927
0.134939 0.509224 0.826016
0.135376 0.509661 0.879055
0.135812 0.510097 0.932049
0.133102 0.560352 0.078354
0.133557 0.560807 0.133557
0.134006 0.561256 0.188108
0.134453 0.561703 0.242333
0.134898 0.562147 0.296336
0.135341 0.562591 0.350172
0.135783 0.563033 0.403872
0.136225 0.563474 0.457460
0.136665 0.563915 0.510950
0.137105 0.564355 0.564355
0.137544 0.564794 0.617684
0.137983 0.565233 0.670945
0.138421 0.565671 0.724143
0.138859 0.566109 0.777284
0.139296 0.566546 0.830373
0.139733 0.566983 0.883412
0.140169 0.567419 0.936406
0.137453 0.617593 0.082705
0.137908 0.618047 0.137908
0.138357 0.618497 0.192459
0.138804 0.618943 0.246684
0.139249 0.619388 0.300687
0.139692 0.619832 0.354523
0.140134 0.620274 0.408223
0.140576 0.620715 0.461811
0.141016 0.621156 0.515301
0.141456 0.621596 0.568706
0.141895 0.622035 0.622035
0.142334 0.622474 0.675295
0.142772 0.622912 0.728494
0.143210 0.623349 0.781635
0.143647 0.623787 0.834724
0.144084 0.624223 0.887763
0.144520 0.624660 0.940757
0.141799 0.674760 0.087050
0.142253 0.675215 0.142253
0.142703 0.675664 0.196805
0.143149 0.676111 0.251029
0.143594 0.676555 0.305033
0.144037 0.676999 0.358868
0.144480 0.677441 0.412569
0.144921 0.677883 0.466156
0.145362 0.678323 0.519646
0.145801 0.678763 0.573051
0.146241 0.679202 0.626380
0.146679 0.679641 0.679641
0.147118 0.680079 0.732839
0.147555 0.680517 0.785980
0.147992 0.680954 0.839069
0.148429 0.681391 0.892109
0.148866 0.681827 0.945103
0.146139 0.731861 0.091391
0.146594 0.732315 0.146594
0.147043 0.732765 0.201145
0.147490 0.733211 0.255370
0.147934 0.733656 0.309373
0.148378 0.734099 0.363209
0.148820 0.734542 0.416909
0.149261 0.734983 0.470496
0.149702 0.735424 0.523987
0.150142 0.735863 0.577392
0.150581 0.736303 0.630721
0.151020 0.736741 0.683981
0.151458 0.737180 0.737180
0.151896 0.737617 0.790321
0.152333 0.738054 0.843409
0.152770 0.738491 0.896449
0.153206 0.738928 0.949443
0.150475 0.788900 0.095726
0.150929 0.789355 0.150929
0.151379 0.789804 0.205481
0.151825 0.790250 0.259705
0.152270 0.790695 0.313709
0.152713 0.791139 0.367544
0.153156 0.791581 0.421245
0.153597 0.792022 0.474832
0.154038 0.792463 0.528322
0.154477 0.792903 0.581727
0.154917 0.793342 0.635056
0.155355 0.793781 0.688317
0.155794 0.794219 0.741515
0.156231 0.794656 0.794656
0.156668 0.795094 0.847745
0.157105 0.795531 0.900785
0.157542 0.795967 0.953778
0.154806 0.845883 0.100058
0.155261 0.846337 0.155261
0.155710 0.846786 0.209812
0.156157 0.847233 0.264037
0.156601 0.847678 0.318040
0.157045 0.848121 0.371876
0.157487 0.848564 0.425576
0.157928 0.849005 0.479163
0.158369 0.849446 0.532654
0.158809 0.849885 0.586059
0.159248 0.850325 0.639388
0.159687 0.850763 0.692648
0.160125 0.851201 0.745847
0.160563 0.851639 0.798988
0.161000 0.852076 0.852076
0.161437 0.852513 0.905116
0.161873 0.852950 0.958110
0.159133 0.902813 0.104385
0.159588 0.903267 0.159588
0.160037 0.903717 0.214139
0.160484 0.904163 0.268364
0.160929 0.904608 0.322367
0.161372 0.905051 0.376203
0.161814 0.905494 0.429903
0.162256 0.905935 0.483491
0.162696 0.906376 0.536981
0.163136 0.906815 0.590386
0.163575 0.907255 0.643715
0.164014 0.907693 0.696976
0.164452 0.908132 0.750174
0.164890 0.908569 0.803315
0.165327 0.909006 0.856404
0.165764 0.909443 0.909443
0.166200 0.909880 0.962437
0.163457 0.959694 0.108709
0.163912 0.960148 0.163912
0.164361 0.960598 0.218463
0.164808 0.961044 0.272688
0.165252 0.961489 0.326691
0.165696 0.961932 0.380527
0.166138 0.962375 0.434227
0.166579 0.962816 0.487814
0.167020 0.963257 0.541305
0.167460 0.963696 0.594710
0.167899 0.964136 0.648039
0.168338 0.964574 0.701299
0.168776 0.965013 0.754498
0.169214 0.965450 0.807639
0.169651 0.965887 0.860727
0.170088 0.966324 0.913767
0.170524 0.966761 0.966761
0.148876 0.040026 0.040026
0.149331 0.040480 0.095229
0.149780 0.040929 0.149780
0.150226 0.041376 0.204005
0.150671 0.041821 0.258008
0.151115 0.042264 0.311843
0.151557 0.042707 0.365544
0.151998 0.043148 0.419131
0.152439 0.043589 0.472622
0.152879 0.044028 0.526026
0.153318 0.044468 0.579355
0.153757 0.044906 0.632616
0.154195 0.045344 0.685814
0.154632 0.045782 0.738956
0.155070 0.046219 0.792044
0.155507 0.046656 0.845084
0.155943 0.047093 0.898078
0.153380 0.099278 0.044529
0.153834 0.099732 0.099732
0.154284 0.100182 0.154284
0.154730 0.100628 0.208508
0.155175 0.101073 0.262512
0.155619 0.101516 0.316347
0.156061 0.101959 0.370048
0.156502 0.102400 0.423635
0.156943 0.102841 0.477125
0.157383 0.103281 0.530530
0.157822 0.103720 0.583859
0.158260 0.104158 0.637120
0.158699 0.104597 0.690318
0.159136 0.105034 0.743460
0.159574 0.105472 0.796548
0.160010 0.105908 0.849588
0.160447 0.106345 0.902582
0.157830 0.157830 0.048980
0.158285 0.158285 0.104183
0.158734 0.158734 0.158734
0.159181 0.159181 0.212959
0.159626 0.159626 0.266962
0.160069 0.160069 0.320798
0.160511 0.160511 0.374499
0.160953 0.160953 0.428086
0.161393 0.161393 0.481576
0.161833 0.161833 0.534981
0.162273 0.162273 0.588310
0.162711 0.162711 0.641571
0.163149 0.163149 0.694769
0.163587 0.163587 0.747910
0.164024 0.164024 0.800999
0.164461 0.164461 0.854038
0.164898 0.164898 0.907032
0.162254 0.216033 0.053404
0.162709 0.216487 0.108607
0.163158 0.216937 0.163158
0.163605 0.217383 0.217383
0.164050 0.217828 0.271387
0.164493 0.218271 0.325222
0.164936 0.218714 0.378923
0.165377 0.219155 0.432510
0.165817 0.219596 0.486000
0.166257 0.220035 0.539405
0.166697 0.220475 0.592734
0.167135 0.220913 0.645995
0.167573 0.221351 0.699193
0.168011 0.221789 0.752334
0.168448 0.222226 0.805423
0.168885 0.222663 0.858462
0.169322 0.223100 0.911456
0.166660 0.273997 0.057810
0.167115 0.274452 0.113013
0.167564 0.274901 0.167564
0.168011 0.275348 0.221789
0.168456 0.275792 0.275792
0.168899 0.276236 0.329628
0.169342 0.276678 0.383329
0.169783 0.277120 0.436916
0.170223 0.277560 0.490406
0.170663 0.278000 0.543811
0.171103 0.278439 0.597140
0.171541 0.278878 0.650401
0.171979 0.279316 0.703599
0.172417 0.279754 0.756740
0.172854 0.280191 0.809829
0.173291 0.280628 0.862868
0.173728 0.281064 0.915862
0.171053 0.331782 0.062202
0.171507 0.332236 0.117405
0.171957 0.332686 0.171957
0.172403 0.333132 0.226181
0.172848 0.333577 0.280185
0.173292 0.334020 0.334020
0.173734 0.334463 0.387721
0.174175 0.334904 0.441308
0.174616 0.335345 0.494798
0.175056 0.335784 0.548203
0.175495 0.336224 0.601532
0.175933 0.336662 0.654793
0.176372 0.337101 0.707991
0.176809 0.337538 0.761133
0.177247 0.337975 0.814221
0.177683 0.338412 0.867261
0.178120 0.338849 0.920255
0.175434 0.389421 0.066584
0.175889 0.389876 0.121787
0.176338 0.390325 0.176338
0.176785 0.390772 0.230563
0.177229 0.391216 0.284566
0.177673 0.391660 0.338402
0.178115 0.392102 0.392102
0.178556 0.392543 0.445690
0.178997 0.392984 0.499180
0.179437 0.393424 0.552585
0.179876 0.393863 0.605914
0.180315 0.394302 0.659174
0.180753 0.394740 0.712373
0.181191 0.395178 0.765514
0.181628 0.395615 0.818602
0.182065 0.396052 0.871642
0.182501 0.396488 0.924636
0.179806 0.446939 0.070956
0.180261 0.447394 0.126159
0.180710 0.447843 0.180710
0.181157 0.448290 0.234935
0.181601 0.448734 0.288938
0.182045 0.449178 0.342774
0.182487 0.449620 0.396474
0.182928 0.450062 0.450062
0.183369 0.450502 0.503552
0.183809 0.450942 0.556957
0.184248 0.451381 0.610286
0.184687 0.451820 0.663546
0.185125 0.452258 0.716745
0.185563 0.452696 0.769886
0.186000 0.453133 0.822974
0.186437 0.453570 0.876014
0.186873 0.454006 0.929008
0.184170 0.504353 0.075320
0.184625 0.504808 0.130523
0.185074 0.505257 0.185074
0.185521 0.505703 0.239299
0.185966 0.506148 0.293302
0.186409 0.506592 0.347138
0.186851 0.507034 0.400838
0.187293 0.507475 0.454426
0.187733 0.507916 0.507916
0.188173 0.508356 0.561321
0.188612 0.508795 0.614650
0.189051 0.509234 0.667910
0.189489 0.509672 0.721109
0.189927 0.510109 0.774250
0.190364 0.510547 0.827339
0.190801 0.510984 0.880378
0.191237 0.511420 0.933372
0.188527 0.561675 0.079677
0.188982 0.562130 0.134880
0.189431 0.562579 0.189431
0.189878 0.563026 0.243656
0.190323 0.563470 0.297659
0.190766 0.563914 0.351495
0.191208 0.564356 0.405195
0.191650 0.564797 0.458783
0.192090 0.565238 0.512273
0.192530 0.565678 0.565678
0.192969 0.566117 0.619007
0.193408 0.566556 0.672268
0.193846 0.566994 0.725466
0.194284 0.567432 0.778607
0.194721 0.567869 0.831696
0.195158 0.568306 0.884735
0.195595 0.568742 0.937729
0.192878 0.618916 0.084028
0.193333 0.619370 0.139231
0.193782 0.619820 0.193782
0.194229 0.620266 0.248007
0.194674 0.620711 0.302010
0.195117 0.621155 0.355846
0.195559 0.621597 0.409546
0.196001 0.622038 0.463134
0.196441 0.622479 0.516624
0.196881 0.622919 0.570029
0.197320 0.623358 0.623358
0.197759 0.623797 0.676618
0.198197 0.624235 0.729817
0.198635 0.624672 0.782958
0.199072 0.625110 0.836047
0.199509 0.625546 0.889086
0.199945 0.625983 0.942080
0.197224 0.676083 0.088373
0.197678 0.676538 0.143576
0.198128 0.676987 0.198128
0.198574 0.677434 0.252352
0.199019 0.677878 0.306356
0.199462 0.678322 0.360191
0.199905 0.678764 0.413892
0.200346 0.679206 0.467479
0.200787 0.679646 0.520969
0.201227 0.680086 0.574374
0.201666 0.680525 0.627703
0.202104 0.680964 0.680964
0.202543 0.681402 0.734162
0.202980 0.681840 0.787304
0.203418 0.682277 0.840392
0.203854 0.682714 0.893432
0.204291 0.683150 0.946426
0.201564 0.733184 0.092714
0.202019 0.733638 0.147917
0.202468 0.734088 0.202468
0.202915 0.734534 0.256693
0.203359 0.734979 0.310696
0.203803 0.735422 0.364532
0.204245 0.735865 0.418232
0.204686 0.736306 0.471819
0.205127 0.736747 0.525310
0.205567 0.737186 0.578715
0.206006 0.737626 0.632044
0.206445 0.738064 0.685304
0.206883 0.738503 0.738503
0.207321 0.738940 0.791644
0.207758 0.739377 0.844732
0.208195 0.739814 0.897772
0.208631 0.740251 0.950766
0.205900 0.790223 0.097049
0.206354 0.790678 0.152252
0.206804 0.791127 0.206804
0.207250 0.791573 0.261028
0.207695 0.792018 0.315032
0.208138 0.792462 0.368867
0.208581 0.792904 0.422568
0.209022 0.793345 0.476155
0.209463 0.793786 0.529645
0.209902 0.794226 0.583050
0.210342 0.794665 0.636379
0.210780 0.795104 0.689640
0.211219 0.795542 0.742838
0.211656 0.795979 0.795979
0.212093 0.796417 0.849068
0.212530 0.796854 0.902108
0.212967 0.797290 0.955101
0.210231 0.847206 0.101381
0.210686 0.847660 0.156584
0.211135 0.848109 0.211135
0.211582 0.848556 0.265360
0.212026 0.849001 0.319363
0.212470 0.849444 0.373199
0.212912 0.849887 0.426899
0.213353 0.850328 0.480486
0.213794 0.850769 0.533977
0.214234 0.851208 0.587382
0.214673 0.851648 0.640711
0.215112 0.852086 0.693971
0.215550 0.852524 0.747170
0.215988 0.852962 0.800311
0.216425 0.853399 0.853399
0.216862 0.853836 0.906439
0.217298 0.854273 0.959433
0.214558 0.904136 0.105708
0.215013 0.904590 0.160911
0.215462 0.905040 0.215462
0.215909 0.905486 0.269687
0.216354 0.905931 0.323690
0.216797 0.906374 0.377526
0.217239 0.906817 0.431226
0.217681 0.907258 0.484814
0.218121 0.907699 0.538304
0.218561 0.908138 0.591709
0.219000 0.908578 0.645038
0.219439 0.909016 0.698299
0.219877 0.909455 0.751497
0.220315 0.909892 0.804638
0.220752 0.910329 0.857727
0.221189 0.910766 0.910766
0.221626 0.911203 0.963760
0.218882 0.961017 0.110032
0.219337 0.961471 0.165235
0.219786 0.961921 0.219786
0.220233 0.962367 0.274011
0.220677 0.962812 0.328014
0.221121 0.963255 0.381850
0.221563 0.963698 0.435550
0.222004 0.964139 0.489137
0.222445 0.964580 0.542628
0.222885 0.965019 0.596033
0.223324 0.965459 0.649362
0.223763 0.965897 0.702622
0.224201 0.966336 0.755821
0.224639 0.966773 0.808962
0.225076 0.967210 0.862050
0.225513 0.967647 0.915090
0.225949 0.968084 0.968084
0.203969 0.041341 0.041341
0.204424 0.041795 0.096544
0.204873 0.042245 0.151095
0.205320 0.042691 0.205320
0.205764 0.043136 0.259323
0.206208 0.043579 0.313159
0.206650 0.044022 0.366859
0.207092 0.044463 0.420446
0.207532 0.044904 0.473937
0.207972 0.045343 0.527342
0.208411 0.045783 0.580671
0.208850 0.046221 0.633931
0.209288 0.046660 0.687129
0.209726 0.047097 0.740271
0.210163 0.047534 0.793359
0.210600 0.047971 0.846399
0.211036 0.048408 0.899393
0.208473 0.100593 0.045844
