skills/editops-orchestrator/assets/grade/luts/vintage_fade_v20.cube
TITLE "vintage_fade_v20"
LUT_3D_SIZE 5
DOMAIN_MIN 0.0 0.0 0.0
DOMAIN_MAX 1.0 1.0 1.0
0.178151 0.178151 0.178151
0.182526 0.182526 0.323907
0.186752 0.186752 0.464713
0.190904 0.190904 0.603022
0.195004 0.195004 0.739645
0.221487 0.362868 0.221487
0.225861 0.367242 0.367242
0.230088 0.371468 0.508048
0.234239 0.375620 0.646357
0.238339 0.379720 0.782980
0.263350 0.541311 0.263350
0.267725 0.545686 0.409106
0.271951 0.549912 0.549912
0.276102 0.554063 0.688221
0.280203 0.558164 0.824843
0.304472 0.716590 0.304472
0.308846 0.720965 0.450227
0.313073 0.725191 0.591033
0.317224 0.729342 0.729342
0.321324 0.733443 0.865965
0.345091 0.889732 0.345091
0.349466 0.894107 0.490847
0.353692 0.898333 0.631653
0.357844 0.902484 0.769962
0.361944 0.906585 0.906585
0.332414 0.191033 0.191033
0.336789 0.195408 0.336789
0.341015 0.199634 0.477595
0.345166 0.203785 0.615904
0.349267 0.207886 0.752526
0.375749 0.375749 0.234368
0.380124 0.380124 0.380124
0.384350 0.384350 0.520930
0.388501 0.388501 0.659239
0.392602 0.392602 0.795862
0.417613 0.554193 0.276232
0.421988 0.558568 0.421988
0.426214 0.562794 0.562794
0.430365 0.566945 0.701103
0.434466 0.571046 0.837725
0.458734 0.729472 0.317353
0.463109 0.733847 0.463109
0.467335 0.738073 0.603915
0.471486 0.742224 0.742224
0.475587 0.746325 0.878847
0.499354 0.902614 0.357973
0.503729 0.906988 0.503729
0.507955 0.911215 0.644535
0.512106 0.915366 0.782844
0.516207 0.919466 0.919466
0.481438 0.203478 0.203478
0.485813 0.207852 0.349233
0.490039 0.212079 0.490039
0.494190 0.216230 0.628348
0.498291 0.220330 0.764971
0.524773 0.388194 0.246813
0.529148 0.392568 0.392568
0.533374 0.396795 0.533374
0.537526 0.400946 0.671683
0.541626 0.405046 0.808306
0.566637 0.566637 0.288677
0.571012 0.571012 0.434432
0.575238 0.575238 0.575238
0.579389 0.579389 0.713547
0.583490 0.583490 0.850170
0.607758 0.741916 0.329798
0.612133 0.746291 0.475553
0.616359 0.750517 0.616359
0.620511 0.754668 0.754668
0.624611 0.758769 0.891291
0.648378 0.915058 0.370418
0.652753 0.919433 0.516173
0.656979 0.923659 0.656979
0.661130 0.927810 0.795288
0.665231 0.931911 0.931911
0.627820 0.215701 0.215701
0.632195 0.220076 0.361457
0.636421 0.224302 0.502263
0.640572 0.228453 0.640572
0.644673 0.232554 0.777194
0.671155 0.400417 0.259037
0.675530 0.404792 0.404792
0.679756 0.409018 0.545598
0.683907 0.413170 0.683907
0.688008 0.417270 0.820530
0.713019 0.578861 0.300900
0.717393 0.583236 0.446656
0.721620 0.587462 0.587462
0.725771 0.591613 0.725771
0.729871 0.595714 0.862393
0.754140 0.754140 0.342021
0.758515 0.758515 0.487777
0.762741 0.762741 0.628583
0.766892 0.766892 0.766892
0.770993 0.770993 0.903515
0.794760 0.927282 0.382641
0.799135 0.931656 0.528397
0.803361 0.935883 0.669203
0.807512 0.940034 0.807512
0.811613 0.944134 0.944134
0.772416 0.227776 0.227776
0.776791 0.232151 0.373532
0.781017 0.236377 0.514337
0.785168 0.240528 0.652647
0.789269 0.244629 0.789269
0.815752 0.412492 0.271111
0.820126 0.416867 0.416867
0.824352 0.421093 0.557673
0.828504 0.425244 0.695982
0.832604 0.429345 0.832604
0.857615 0.590935 0.312975
0.861990 0.595310 0.458730
0.866216 0.599536 0.599536
0.870367 0.603688 0.737845
0.874468 0.607788 0.874468
0.898737 0.766215 0.354096
0.903111 0.770589 0.499852
0.907337 0.774816 0.640658
0.911489 0.778967 0.778967
0.915589 0.783067 0.915589
0.939356 0.939356 0.394716
0.943731 0.943731 0.540472
0.947957 0.947957 0.681278
0.952109 0.952109 0.819587
0.956209 0.956209 0.956209
