skills/editops-orchestrator/assets/grade/luts/vintage_fade_v05.cube
TITLE "vintage_fade_v05"
LUT_3D_SIZE 9
DOMAIN_MIN 0.0 0.0 0.0
DOMAIN_MAX 1.0 1.0 1.0
0.054292 0.054292 0.054292
0.055379 0.055379 0.159532
0.056449 0.056449 0.263083
0.057510 0.057510 0.365835
0.058566 0.058566 0.468054
0.059618 0.059618 0.569871
0.060667 0.060667 0.671367
0.061713 0.061713 0.772595
0.062756 0.062756 0.873592
0.065062 0.169214 0.065062
0.066149 0.170301 0.170301
0.067219 0.171371 0.273852
0.068280 0.172432 0.376605
0.069336 0.173488 0.478824
0.070388 0.174540 0.580641
0.071436 0.175589 0.682137
0.072482 0.176635 0.783364
0.073526 0.177678 0.884361
0.075658 0.282292 0.075658
0.076746 0.283379 0.180898
0.077815 0.284449 0.284449
0.078877 0.285511 0.387201
0.079933 0.286567 0.489420
0.080985 0.287618 0.591238
0.082033 0.288667 0.692734
0.083079 0.289713 0.793961
0.084122 0.290756 0.894958
0.086174 0.394498 0.086174
0.087261 0.395585 0.191413
0.088330 0.396655 0.294964
0.089392 0.397717 0.397717
0.090448 0.398773 0.499935
0.091500 0.399824 0.601753
0.092548 0.400873 0.703249
0.093594 0.401919 0.804476
0.094637 0.402962 0.905473
0.096634 0.506121 0.096634
0.097721 0.507209 0.201874
0.098791 0.508278 0.305425
0.099852 0.509340 0.408177
0.100908 0.510396 0.510396
0.101960 0.511448 0.612213
0.103009 0.512496 0.713709
0.104055 0.513542 0.814937
0.105098 0.514585 0.915934
0.107053 0.617307 0.107053
0.108141 0.618394 0.212293
0.109210 0.619464 0.315844
0.110272 0.620525 0.418596
0.111328 0.621581 0.520815
0.112380 0.622633 0.622633
0.113428 0.623681 0.724129
0.114474 0.624727 0.825356
0.115517 0.625771 0.926353
0.117440 0.728140 0.117440
0.118527 0.729228 0.222679
0.119597 0.730297 0.326231
0.120658 0.731359 0.428983
0.121714 0.732415 0.531202
0.122766 0.733467 0.633019
0.123815 0.734515 0.734515
0.124860 0.735561 0.835743
0.125904 0.736604 0.936740
0.127799 0.838681 0.127799
0.128886 0.839768 0.233038
0.129956 0.840838 0.336590
0.131017 0.841899 0.439342
0.132073 0.842955 0.541561
0.133125 0.844007 0.643378
0.134174 0.845056 0.744874
0.135220 0.846102 0.846102
0.136263 0.847145 0.947099
0.138134 0.948970 0.138134
0.139222 0.950057 0.243374
0.140291 0.951127 0.346925
0.141353 0.952189 0.449677
0.142409 0.953245 0.551896
0.143461 0.954297 0.653714
0.144509 0.955345 0.755210
0.145555 0.956391 0.856437
0.146598 0.957434 0.957434
0.161646 0.057493 0.057493
0.162733 0.058581 0.162733
0.163803 0.059650 0.266284
0.164864 0.060712 0.369036
0.165920 0.061768 0.471255
0.166972 0.062820 0.573073
0.168021 0.063868 0.674569
0.169066 0.064914 0.775796
0.170110 0.065957 0.876793
0.172415 0.172415 0.068263
0.173502 0.173502 0.173502
0.174572 0.174572 0.277054
0.175634 0.175634 0.379806
0.176690 0.176690 0.482025
0.177742 0.177742 0.583842
0.178790 0.178790 0.685338
0.179836 0.179836 0.786566
0.180879 0.180879 0.887563
0.183012 0.285493 0.078860
0.184099 0.286581 0.184099
0.185169 0.287650 0.287650
0.186231 0.288712 0.390403
0.187287 0.289768 0.492622
0.188338 0.290820 0.594439
0.189387 0.291868 0.695935
0.190433 0.292914 0.797162
0.191476 0.293957 0.898160
0.193527 0.397699 0.089375
0.194614 0.398787 0.194614
0.195684 0.399856 0.298166
0.196746 0.400918 0.400918
0.197802 0.401974 0.503137
0.198854 0.403026 0.604954
0.199902 0.404074 0.706450
0.200948 0.405120 0.807678
0.201991 0.406163 0.908675
0.203988 0.509323 0.099835
0.205075 0.510410 0.205075
0.206145 0.511480 0.308626
0.207206 0.512541 0.411378
0.208262 0.513597 0.513597
0.209314 0.514649 0.615415
0.210363 0.515698 0.716911
0.211408 0.516743 0.818138
0.212452 0.517787 0.919135
0.214407 0.620508 0.110255
0.215494 0.621595 0.215494
0.216564 0.622665 0.319045
0.217626 0.623726 0.421798
0.218682 0.624782 0.524017
0.219733 0.625834 0.625834
0.220782 0.626883 0.727330
0.221828 0.627929 0.828557
0.222871 0.628972 0.929555
0.224794 0.731342 0.120641
0.225881 0.732429 0.225881
0.226951 0.733499 0.329432
0.228012 0.734560 0.432184
0.229068 0.735616 0.534403
0.230120 0.736668 0.636221
0.231168 0.737717 0.737717
0.232214 0.738762 0.838944
0.233258 0.739806 0.939941
0.235153 0.841882 0.131000
0.236240 0.842970 0.236240
0.237310 0.844039 0.339791
0.238371 0.845101 0.442543
0.239427 0.846157 0.544762
0.240479 0.847209 0.646580
0.241527 0.848257 0.748076
0.242573 0.849303 0.849303
0.243617 0.850346 0.950300
0.245488 0.952172 0.141336
0.246575 0.953259 0.246575
0.247645 0.954329 0.350126
0.248707 0.955390 0.452879
0.249763 0.956446 0.555098
0.250814 0.957498 0.656915
0.251863 0.958546 0.758411
0.252909 0.959592 0.859638
0.253952 0.960636 0.960636
0.267277 0.060643 0.060643
0.268364 0.061731 0.165883
0.269434 0.062800 0.269434
0.270496 0.063862 0.372186
0.271552 0.064918 0.474405
0.272603 0.065970 0.576223
0.273652 0.067018 0.677719
0.274698 0.068064 0.778946
0.275741 0.069107 0.879943
0.278047 0.175565 0.071413
0.279134 0.176653 0.176653
0.280204 0.177722 0.280204
0.281265 0.178784 0.382956
0.282321 0.179840 0.485175
0.283373 0.180892 0.586992
0.284422 0.181940 0.688488
0.285467 0.182986 0.789716
0.286511 0.184029 0.890713
0.288643 0.288643 0.082010
0.289731 0.289731 0.187249
0.290800 0.290800 0.290800
0.291862 0.291862 0.393553
0.292918 0.292918 0.495772
0.293970 0.293970 0.597589
0.295018 0.295018 0.699085
0.296064 0.296064 0.800312
0.297107 0.297107 0.901310
0.299159 0.400849 0.092525
0.300246 0.401937 0.197764
0.301316 0.403006 0.301316
0.302377 0.404068 0.404068
0.303433 0.405124 0.506287
0.304485 0.406176 0.608104
0.305533 0.407224 0.709600
0.306579 0.408270 0.810828
0.307623 0.409313 0.911825
0.309619 0.512473 0.102985
0.310706 0.513560 0.208225
0.311776 0.514630 0.311776
0.312838 0.515691 0.414528
0.313894 0.516747 0.516747
0.314945 0.517799 0.618565
0.315994 0.518848 0.720061
0.317040 0.519893 0.821288
0.318083 0.520937 0.922285
0.320038 0.623658 0.113405
0.321126 0.624745 0.218644
0.322195 0.625815 0.322195
0.323257 0.626876 0.424948
0.324313 0.627932 0.527167
0.325365 0.628984 0.628984
0.326413 0.630033 0.730480
0.327459 0.631079 0.831707
0.328502 0.632122 0.932705
0.330425 0.734492 0.123791
0.331512 0.735579 0.229031
0.332582 0.736649 0.332582
0.333643 0.737710 0.435334
0.334699 0.738766 0.537553
0.335751 0.739818 0.639371
0.336800 0.740867 0.740867
0.337846 0.741912 0.842094
0.338889 0.742956 0.943091
0.340784 0.845032 0.134150
0.341871 0.846120 0.239390
0.342941 0.847189 0.342941
0.344002 0.848251 0.445693
0.345058 0.849307 0.547912
0.346110 0.850359 0.649730
0.347159 0.851407 0.751226
0.348205 0.852453 0.852453
0.349248 0.853496 0.953450
0.351119 0.955322 0.144486
0.352207 0.956409 0.249725
0.353276 0.957479 0.353276
0.354338 0.958540 0.456029
0.355394 0.959596 0.558248
0.356446 0.960648 0.660065
0.357494 0.961696 0.761561
0.358540 0.962742 0.862788
0.359583 0.963786 0.963786
0.372094 0.063769 0.063769
0.373181 0.064856 0.169009
0.374251 0.065926 0.272560
0.375312 0.066988 0.375312
0.376368 0.068044 0.477531
0.377420 0.069095 0.579349
0.378469 0.070144 0.680844
0.379514 0.071190 0.782072
0.380558 0.072233 0.883069
0.382863 0.178691 0.074539
0.383950 0.179778 0.179778
0.385020 0.180848 0.283329
0.386082 0.181909 0.386082
0.387138 0.182965 0.488301
0.388190 0.184017 0.590118
0.389238 0.185066 0.691614
0.390284 0.186112 0.792841
0.391327 0.187155 0.893838
0.393460 0.291769 0.085136
0.394547 0.292856 0.190375
0.395617 0.293926 0.293926
0.396679 0.294988 0.396679
0.397735 0.296044 0.498897
0.398786 0.297096 0.600715
0.399835 0.298144 0.702211
0.400881 0.299190 0.803438
0.401924 0.300233 0.904435
0.403975 0.403975 0.095651
0.405062 0.405062 0.200890
0.406132 0.406132 0.304441
0.407194 0.407194 0.407194
0.408250 0.408250 0.509413
0.409301 0.409301 0.611230
0.410350 0.410350 0.712726
0.411396 0.411396 0.813953
0.412439 0.412439 0.914950
0.414436 0.515599 0.106111
0.415523 0.516686 0.211351
0.416593 0.517756 0.314902
0.417654 0.518817 0.417654
0.418710 0.519873 0.519873
0.419762 0.520925 0.621691
0.420811 0.521973 0.723186
0.421856 0.523019 0.824414
0.422900 0.524063 0.925411
0.424855 0.626784 0.116531
0.425942 0.627871 0.221770
0.427012 0.628941 0.325321
0.428074 0.630002 0.428074
0.429130 0.631058 0.530292
0.430181 0.632110 0.632110
0.431230 0.633159 0.733606
0.432276 0.634204 0.834833
0.433319 0.635248 0.935830
0.435242 0.737617 0.126917
0.436329 0.738705 0.232157
0.437399 0.739774 0.335708
0.438460 0.740836 0.438460
0.439516 0.741892 0.540679
0.440568 0.742944 0.642496
0.441616 0.743992 0.743992
0.442662 0.745038 0.845220
0.443706 0.746081 0.946217
0.445601 0.848158 0.137276
0.446688 0.849245 0.242516
0.447758 0.850315 0.346067
0.448819 0.851377 0.448819
0.449875 0.852433 0.551038
0.450927 0.853484 0.652855
0.451975 0.854533 0.754351
0.453021 0.855579 0.855579
0.454065 0.856622 0.956576
0.455936 0.958447 0.147611
0.457023 0.959535 0.252851
0.458093 0.960604 0.356402
0.459155 0.961666 0.459155
0.460211 0.962722 0.561373
0.461262 0.963774 0.663191
0.462311 0.964822 0.764687
0.463357 0.965868 0.865914
0.464400 0.966911 0.966911
0.476366 0.066879 0.066879
0.477453 0.067966 0.172118
0.478523 0.069036 0.275669
0.479585 0.070097 0.378422
0.480641 0.071153 0.480641
0.481692 0.072205 0.582458
0.482741 0.073253 0.683954
0.483787 0.074299 0.785181
0.484830 0.075343 0.886178
0.487136 0.181800 0.077648
0.488223 0.182888 0.182888
0.489293 0.183957 0.286439
0.490354 0.185019 0.389191
0.491410 0.186075 0.491410
0.492462 0.187127 0.593228
0.493510 0.188175 0.694723
0.494556 0.189221 0.795951
0.495600 0.190264 0.896948
0.497732 0.294879 0.088245
0.498820 0.295966 0.193485
0.499889 0.297036 0.297036
0.500951 0.298097 0.399788
0.502007 0.299153 0.502007
0.503059 0.300205 0.603824
0.504107 0.301254 0.705320
0.505153 0.302299 0.806548
0.506196 0.303343 0.907545
0.508248 0.407085 0.098760
0.509335 0.408172 0.204000
0.510405 0.409242 0.307551
0.511466 0.410303 0.410303
0.512522 0.411359 0.512522
0.513574 0.412411 0.614340
0.514622 0.413459 0.715835
0.515668 0.414505 0.817063
0.516712 0.415549 0.918060
0.518708 0.518708 0.109221
0.519795 0.519795 0.214460
0.520865 0.520865 0.318011
0.521927 0.521927 0.420764
0.522982 0.522982 0.522982
0.524034 0.524034 0.624800
0.525083 0.525083 0.726296
0.526129 0.526129 0.827523
0.527172 0.527172 0.928520
0.529127 0.629893 0.119640
0.530215 0.630980 0.224879
0.531284 0.632050 0.328431
0.532346 0.633112 0.431183
0.533402 0.634168 0.533402
0.534454 0.635219 0.635219
0.535502 0.636268 0.736715
0.536548 0.637314 0.837943
0.537591 0.638357 0.938940
0.539514 0.740727 0.130026
0.540601 0.741814 0.235266
0.541671 0.742884 0.338817
0.542732 0.743945 0.441570
0.543788 0.745001 0.543788
0.544840 0.746053 0.645606
0.545889 0.747102 0.747102
0.546935 0.748148 0.848329
0.547978 0.749191 0.949326
0.549873 0.851268 0.140385
0.550960 0.852355 0.245625
0.552030 0.853425 0.349176
0.553091 0.854486 0.451929
0.554147 0.855542 0.554147
0.555199 0.856594 0.655965
0.556248 0.857642 0.757461
0.557294 0.858688 0.858688
0.558337 0.859732 0.959685
0.560208 0.961557 0.150721
0.561296 0.962644 0.255960
0.562365 0.963714 0.359512
0.563427 0.964775 0.462264
0.564483 0.965831 0.564483
0.565535 0.966883 0.666300
0.566583 0.967932 0.767796
0.567629 0.968977 0.869024
0.568672 0.970021 0.970021
0.580229 0.069976 0.069976
0.581316 0.071063 0.175215
0.582386 0.072133 0.278766
0.583447 0.073194 0.381519
0.584503 0.074250 0.483738
0.585555 0.075302 0.585555
0.586604 0.076351 0.687051
0.587650 0.077396 0.788279
0.588693 0.078440 0.889276
0.590999 0.184898 0.080745
0.592086 0.185985 0.185985
0.593156 0.187055 0.289536
0.594217 0.188116 0.392288
0.595273 0.189172 0.494507
0.596325 0.190224 0.596325
0.597373 0.191273 0.697821
0.598419 0.192318 0.799048
0.599463 0.193362 0.900045
0.601595 0.297976 0.091342
0.602683 0.299063 0.196582
0.603752 0.300133 0.300133
0.604814 0.301194 0.402885
0.605870 0.302250 0.505104
0.606922 0.303302 0.606922
0.607970 0.304351 0.708418
0.609016 0.305397 0.809645
0.610059 0.306440 0.910642
0.612111 0.410182 0.101857
0.613198 0.411269 0.207097
0.614267 0.412339 0.310648
0.615329 0.413400 0.413400
0.616385 0.414456 0.515619
0.617437 0.415508 0.617437
0.618485 0.416557 0.718933
0.619531 0.417603 0.820160
0.620574 0.418646 0.921157
0.622571 0.521805 0.112318
0.623658 0.522893 0.217557
0.624728 0.523962 0.321108
0.625789 0.525024 0.423861
0.626845 0.526080 0.526080
0.627897 0.527132 0.627897
0.628946 0.528180 0.729393
0.629992 0.529226 0.830621
0.631035 0.530269 0.931618
0.632990 0.632990 0.122737
0.634078 0.634078 0.227977
0.635147 0.635147 0.331528
0.636209 0.636209 0.434280
0.637265 0.637265 0.536499
0.638317 0.638317 0.638317
0.639365 0.639365 0.739813
0.640411 0.640411 0.841040
0.641454 0.641454 0.942037
0.643377 0.743824 0.133124
0.644464 0.744911 0.238363
0.645534 0.745981 0.341914
0.646595 0.747043 0.444667
0.647651 0.748099 0.546886
0.648703 0.749151 0.648703
0.649752 0.750199 0.750199
0.650797 0.751245 0.851426
0.651841 0.752288 0.952424
0.653736 0.854365 0.143483
0.654823 0.855452 0.248722
0.655893 0.856522 0.352273
0.656954 0.857583 0.455026
0.658010 0.858639 0.557245
0.659062 0.859691 0.659062
0.660111 0.860740 0.760558
0.661157 0.861785 0.861785
0.662200 0.862829 0.962783
0.664071 0.964654 0.153818
0.665159 0.965741 0.259058
0.666228 0.966811 0.362609
0.667290 0.967873 0.465361
0.668346 0.968929 0.567580
0.669398 0.969980 0.669398
0.670446 0.971029 0.770894
0.671492 0.972075 0.872121
0.672535 0.973118 0.973118
0.683764 0.073063 0.073063
0.684851 0.074151 0.178303
0.685921 0.075220 0.281854
0.686982 0.076282 0.384606
0.688038 0.077338 0.486825
0.689090 0.078390 0.588643
0.690139 0.079438 0.690139
0.691184 0.080484 0.791366
0.692228 0.081527 0.892363
0.694533 0.187985 0.083833
0.695621 0.189072 0.189072
0.696690 0.190142 0.292624
0.697752 0.191204 0.395376
0.698808 0.192260 0.497595
0.699860 0.193312 0.599412
0.700908 0.194360 0.700908
0.701954 0.195406 0.802136
0.702997 0.196449 0.903133
0.705130 0.301063 0.094430
0.706217 0.302151 0.199669
0.707287 0.303220 0.303220
0.708349 0.304282 0.405973
0.709405 0.305338 0.508192
0.710457 0.306390 0.610009
0.711505 0.307438 0.711505
0.712551 0.308484 0.812732
0.713594 0.309527 0.913730
0.715645 0.413269 0.104945
0.716732 0.414357 0.210184
0.717802 0.415426 0.313735
0.718864 0.416488 0.416488
0.719920 0.417544 0.518707
0.720972 0.418596 0.620524
0.722020 0.419644 0.722020
0.723066 0.420690 0.823248
0.724109 0.421733 0.924245
0.726106 0.524893 0.115405
0.727193 0.525980 0.220645
0.728263 0.527050 0.324196
0.729324 0.528111 0.426948
0.730380 0.529167 0.529167
0.731432 0.530219 0.630985
0.732481 0.531268 0.732481
0.733526 0.532313 0.833708
0.734570 0.533357 0.934705
0.736525 0.636078 0.125825
0.737612 0.637165 0.231064
0.738682 0.638235 0.334615
0.739744 0.639296 0.437368
0.740800 0.640352 0.539587
0.741852 0.641404 0.641404
0.742900 0.642453 0.742900
0.743946 0.643498 0.844127
0.744989 0.644542 0.945125
0.746912 0.746912 0.136211
0.747999 0.747999 0.241451
0.749069 0.749069 0.345002
0.750130 0.750130 0.447754
0.751186 0.751186 0.549973
0.752238 0.752238 0.651791
0.753287 0.753287 0.753287
0.754332 0.754332 0.854514
0.755376 0.755376 0.955511
0.757271 0.857452 0.146570
0.758358 0.858540 0.251810
0.759428 0.859609 0.355361
0.760489 0.860671 0.458113
0.761545 0.861727 0.560332
0.762597 0.862779 0.662150
0.763646 0.863827 0.763646
0.764691 0.864873 0.864873
0.765735 0.865916 0.965870
0.767606 0.967742 0.156906
0.768693 0.968829 0.262145
0.769763 0.969899 0.365696
0.770825 0.970960 0.468449
0.771881 0.972016 0.570668
0.772932 0.973068 0.672485
0.773981 0.974116 0.773981
0.775027 0.975162 0.875208
0.776070 0.976206 0.976206
0.787025 0.076143 0.076143
0.788112 0.077230 0.181382
0.789182 0.078300 0.284933
0.790243 0.079361 0.387686
0.791299 0.080417 0.489905
0.792351 0.081469 0.591722
0.793400 0.082517 0.693218
0.794445 0.083563 0.794445
0.795489 0.084607 0.895442
0.797794 0.191065 0.086912
0.798882 0.192152 0.192152
0.799951 0.193222 0.295703
0.801013 0.194283 0.398455
0.802069 0.195339 0.500674
0.803121 0.196391 0.602492
0.804169 0.197439 0.703988
0.805215 0.198485 0.805215
0.806258 0.199529 0.906212
0.808391 0.304143 0.097509
0.809478 0.305230 0.202749
0.810548 0.306300 0.306300
0.811610 0.307361 0.409052
0.812666 0.308417 0.511271
0.813717 0.309469 0.613089
0.814766 0.310518 0.714584
0.815812 0.311563 0.815812
0.816855 0.312607 0.916809
0.818906 0.416349 0.108024
0.819993 0.417436 0.213264
0.821063 0.418506 0.316815
0.822125 0.419567 0.419567
0.823181 0.420623 0.521786
0.824233 0.421675 0.623604
0.825281 0.422724 0.725099
0.826327 0.423769 0.826327
0.827370 0.424813 0.927324
0.829367 0.527972 0.118485
0.830454 0.529059 0.223724
0.831524 0.530129 0.327275
0.832585 0.531191 0.430028
0.833641 0.532247 0.532247
0.834693 0.533298 0.634064
0.835742 0.534347 0.735560
0.836787 0.535393 0.836787
0.837831 0.536436 0.937784
0.839786 0.639157 0.128904
0.840873 0.640244 0.234144
0.841943 0.641314 0.337695
0.843005 0.642376 0.440447
0.844061 0.643432 0.542666
0.845112 0.644484 0.644484
0.846161 0.645532 0.745979
0.847207 0.646578 0.847207
0.848250 0.647621 0.948204
0.850173 0.749991 0.139291
0.851260 0.751078 0.244530
0.852330 0.752148 0.348081
0.853391 0.753209 0.450834
0.854447 0.754265 0.553052
0.855499 0.755317 0.654870
0.856547 0.756366 0.756366
0.857593 0.757412 0.857593
0.858637 0.758455 0.958590
0.860532 0.860532 0.149650
0.861619 0.861619 0.254889
0.862689 0.862689 0.358440
0.863750 0.863750 0.461193
0.864806 0.864806 0.563411
0.865858 0.865858 0.665229
0.866906 0.866906 0.766725
0.867952 0.867952 0.867952
0.868996 0.868996 0.968949
0.870867 0.970821 0.159985
0.871954 0.971908 0.265225
0.873024 0.972978 0.368776
0.874086 0.974039 0.471528
0.875142 0.975095 0.573747
0.876193 0.976147 0.675564
0.877242 0.977196 0.777060
0.878288 0.978241 0.878288
0.879331 0.979285 0.979285
0.890051 0.079215 0.079215
0.891138 0.080302 0.184454
0.892208 0.081372 0.288006
0.893269 0.082433 0.390758
0.894325 0.083489 0.492977
0.895377 0.084541 0.594794
0.896426 0.085590 0.696290
0.897471 0.086636 0.797518
0.898515 0.087679 0.898515
0.900820 0.194137 0.089985
0.901908 0.195224 0.195224
0.902977 0.196294 0.298775
0.904039 0.197355 0.401528
0.905095 0.198411 0.503746
0.906147 0.199463 0.605564
0.907195 0.200512 0.707060
0.908241 0.201557 0.808287
0.909284 0.202601 0.909284
0.911417 0.307215 0.100581
0.912504 0.308302 0.205821
0.913574 0.309372 0.309372
0.914636 0.310434 0.412124
0.915692 0.311490 0.514343
0.916744 0.312541 0.616161
0.917792 0.313590 0.717657
0.918838 0.314636 0.818884
0.919881 0.315679 0.919881
0.921932 0.419421 0.111096
0.923020 0.420508 0.216336
0.924089 0.421578 0.319887
0.925151 0.422640 0.422640
0.926207 0.423696 0.524858
0.927259 0.424747 0.626676
0.928307 0.425796 0.728172
0.929353 0.426842 0.829399
0.930396 0.427885 0.930396
0.932393 0.531044 0.121557
0.933480 0.532132 0.226796
0.934550 0.533201 0.330348
0.935611 0.534263 0.433100
0.936667 0.535319 0.535319
0.937719 0.536371 0.637136
0.938768 0.537419 0.738632
0.939813 0.538465 0.839860
0.940857 0.539508 0.940857
0.942812 0.642230 0.131976
0.943899 0.643317 0.237216
0.944969 0.644386 0.340767
0.946031 0.645448 0.443519
0.947087 0.646504 0.545738
0.948139 0.647556 0.647556
0.949187 0.648604 0.749052
0.950233 0.649650 0.850279
0.951276 0.650693 0.951276
0.953199 0.753063 0.142363
0.954286 0.754151 0.247602
0.955356 0.755220 0.351154
0.956417 0.756282 0.453906
0.957473 0.757338 0.556125
0.958525 0.758390 0.657942
0.959574 0.759438 0.759438
0.960619 0.760484 0.860666
0.961663 0.761527 0.961663
0.963558 0.863604 0.152722
0.964645 0.864691 0.257961
0.965715 0.865761 0.361513
0.966776 0.866822 0.464265
0.967832 0.867878 0.566484
0.968884 0.868930 0.668301
0.969933 0.869979 0.769797
0.970978 0.871025 0.871025
0.972022 0.872068 0.972022
0.973893 0.973893 0.163057
0.974980 0.974980 0.268297
0.976050 0.976050 0.371848
0.977112 0.977112 0.474600
0.978168 0.978168 0.576819
0.979219 0.979219 0.678637
0.980268 0.980268 0.780133
0.981314 0.981314 0.881360
0.982357 0.982357 0.982357
