skills/editops-orchestrator/assets/grade/luts/vintage_fade_v04.cube
TITLE "vintage_fade_v04"
LUT_3D_SIZE 17
DOMAIN_MIN 0.0 0.0 0.0
DOMAIN_MAX 1.0 1.0 1.0
0.045837 0.045837 0.045837
0.046339 0.046339 0.099920
0.046834 0.046834 0.153327
0.047326 0.047326 0.206384
0.047815 0.047815 0.259203
0.048303 0.048303 0.311841
0.048790 0.048790 0.364332
0.049275 0.049275 0.416700
0.049760 0.049760 0.468963
0.050244 0.050244 0.521133
0.050727 0.050727 0.573221
0.051209 0.051209 0.625234
0.051690 0.051690 0.677179
0.052171 0.052171 0.729062
0.052652 0.052652 0.780888
0.053132 0.053132 0.832660
0.053611 0.053611 0.884383
0.050804 0.104386 0.050804
0.051305 0.104887 0.104887
0.051801 0.105382 0.158294
0.052292 0.105874 0.211351
0.052782 0.106364 0.264170
0.053270 0.106852 0.316808
0.053757 0.107338 0.369299
0.054242 0.107824 0.421667
0.054727 0.108308 0.473930
0.055210 0.108792 0.526100
0.055693 0.109275 0.578187
0.056176 0.109757 0.630200
0.056657 0.110239 0.682146
0.057138 0.110720 0.734029
0.057619 0.111200 0.785855
0.058099 0.111680 0.837627
0.058578 0.112160 0.889350
0.055709 0.162202 0.055709
0.056210 0.162703 0.109792
0.056705 0.163198 0.163198
0.057197 0.163690 0.216256
0.057687 0.164180 0.269075
0.058175 0.164668 0.321712
0.058661 0.165155 0.374203
0.059147 0.165640 0.426572
0.059631 0.166125 0.478834
0.060115 0.166608 0.531005
0.060598 0.167091 0.583092
0.061080 0.167573 0.635105
0.061562 0.168055 0.687050
0.062043 0.168536 0.738934
0.062523 0.169016 0.790759
0.063003 0.169496 0.842532
0.063483 0.169976 0.894254
0.060581 0.219640 0.060581
0.061083 0.220141 0.114664
0.061578 0.220637 0.168071
0.062070 0.221128 0.221128
0.062559 0.221618 0.273947
0.063047 0.222106 0.326585
0.063534 0.222593 0.379076
0.064019 0.223078 0.431444
0.064504 0.223563 0.483707
0.064988 0.224046 0.535877
0.065471 0.224529 0.587965
0.065953 0.225012 0.639978
0.066434 0.225493 0.691923
0.066915 0.225974 0.743806
0.067396 0.226455 0.795632
0.067876 0.226935 0.847404
0.068355 0.227414 0.899127
0.065432 0.276820 0.065432
0.065933 0.277321 0.119515
0.066428 0.277816 0.172922
0.066920 0.278308 0.225979
0.067410 0.278798 0.278798
0.067898 0.279286 0.331436
0.068385 0.279773 0.383927
0.068870 0.280258 0.436295
0.069355 0.280743 0.488558
0.069838 0.281226 0.540728
0.070321 0.281709 0.592815
0.070803 0.282191 0.644828
0.071285 0.282673 0.696774
0.071766 0.283154 0.748657
0.072247 0.283635 0.800483
0.072726 0.284115 0.852255
0.073206 0.284594 0.903978
0.070266 0.333803 0.070266
0.070767 0.334305 0.124349
0.071262 0.334800 0.177756
0.071754 0.335292 0.230813
0.072244 0.335782 0.283632
0.072732 0.336270 0.336270
0.073219 0.336756 0.388761
0.073704 0.337242 0.441129
0.074189 0.337726 0.493392
0.074672 0.338210 0.545562
0.075155 0.338693 0.597649
0.075637 0.339175 0.649662
0.076119 0.339657 0.701608
0.076600 0.340138 0.753491
0.077081 0.340618 0.805317
0.077560 0.341098 0.857089
0.078040 0.341578 0.908812
0.075087 0.390628 0.075087
0.075588 0.391130 0.129170
0.076083 0.391625 0.182576
0.076575 0.392117 0.235634
0.077065 0.392607 0.288453
0.077553 0.393095 0.341090
0.078039 0.393581 0.393581
0.078525 0.394067 0.445950
0.079009 0.394551 0.498212
0.079493 0.395035 0.550382
0.079976 0.395518 0.602470
0.080458 0.396000 0.654483
0.080940 0.396482 0.706428
0.081421 0.396963 0.758311
0.081901 0.397443 0.810137
0.082381 0.397923 0.861910
0.082861 0.398403 0.913632
0.079896 0.447321 0.079896
0.080397 0.447822 0.133979
0.080892 0.448317 0.187385
0.081384 0.448809 0.240443
0.081874 0.449299 0.293262
0.082362 0.449787 0.345899
0.082849 0.450273 0.398391
0.083334 0.450759 0.450759
0.083819 0.451243 0.503022
0.084302 0.451727 0.555192
0.084785 0.452210 0.607279
0.085267 0.452692 0.659292
0.085749 0.453174 0.711238
0.086230 0.453655 0.763121
0.086710 0.454135 0.814946
0.087190 0.454615 0.866719
0.087670 0.455095 0.918441
0.084695 0.503898 0.084695
0.085197 0.504400 0.138778
0.085692 0.504895 0.192185
0.086184 0.505387 0.245243
0.086674 0.505877 0.298062
0.087161 0.506365 0.350699
0.087648 0.506851 0.403190
0.088134 0.507337 0.455559
0.088618 0.507821 0.507821
0.089102 0.508305 0.559991
0.089585 0.508788 0.612079
0.090067 0.509270 0.664092
0.090549 0.509752 0.716037
0.091030 0.510233 0.767920
0.091510 0.510713 0.819746
0.091990 0.511193 0.871518
0.092469 0.511673 0.923241
0.089486 0.560376 0.089486
0.089988 0.560877 0.143569
0.090483 0.561372 0.196976
0.090975 0.561864 0.250034
0.091465 0.562354 0.302853
0.091953 0.562842 0.355490
0.092439 0.563329 0.407981
0.092925 0.563814 0.460350
0.093409 0.564299 0.512612
0.093893 0.564782 0.564782
0.094376 0.565265 0.616870
0.094858 0.565747 0.668883
0.095340 0.566229 0.720828
0.095821 0.566710 0.772711
0.096301 0.567191 0.824537
0.096781 0.567671 0.876310
0.097261 0.568150 0.928032
0.094270 0.616764 0.094270
0.094771 0.617265 0.148353
0.095267 0.617761 0.201760
0.095758 0.618252 0.254817
0.096248 0.618742 0.307636
0.096736 0.619230 0.360274
0.097223 0.619717 0.412765
0.097708 0.620202 0.465133
0.098193 0.620687 0.517396
0.098676 0.621170 0.569566
0.099159 0.621653 0.621653
0.099642 0.622136 0.673666
0.100123 0.622617 0.725612
0.100604 0.623098 0.777495
0.101085 0.623579 0.829321
0.101565 0.624059 0.881093
0.102044 0.624538 0.932816
0.099047 0.673072 0.099047
0.099548 0.673573 0.153130
0.100043 0.674068 0.206536
0.100535 0.674560 0.259594
0.101025 0.675050 0.312413
0.101513 0.675538 0.365050
0.101999 0.676024 0.417541
0.102485 0.676510 0.469910
0.102969 0.676994 0.522173
0.103453 0.677478 0.574343
0.103936 0.677961 0.626430
0.104418 0.678443 0.678443
0.104900 0.678925 0.730388
0.105381 0.679406 0.782272
0.105861 0.679886 0.834097
0.106341 0.680366 0.885870
0.106821 0.680846 0.937592
0.103817 0.729306 0.103817
0.104319 0.729807 0.157900
0.104814 0.730302 0.211307
0.105306 0.730794 0.264364
0.105795 0.731284 0.317183
0.106283 0.731772 0.369821
0.106770 0.732258 0.422312
0.107255 0.732744 0.474680
0.107740 0.733229 0.526943
0.108224 0.733712 0.579113
0.108706 0.734195 0.631200
0.109189 0.734677 0.683214
0.109670 0.735159 0.735159
0.110151 0.735640 0.787042
0.110632 0.736120 0.838868
0.111112 0.736600 0.890640
0.111591 0.737080 0.942363
0.108582 0.785473 0.108582
0.109083 0.785974 0.162665
0.109578 0.786469 0.216072
0.110070 0.786961 0.269129
0.110560 0.787451 0.321948
0.111048 0.787939 0.374585
0.111535 0.788425 0.427077
0.112020 0.788911 0.479445
0.112505 0.789395 0.531708
0.112988 0.789879 0.583878
0.113471 0.790362 0.635965
0.113953 0.790844 0.687978
0.114435 0.791326 0.739924
0.114916 0.791807 0.791807
0.115396 0.792287 0.843632
0.115876 0.792767 0.895405
0.116356 0.793247 0.947127
0.113341 0.841577 0.113341
0.113843 0.842079 0.167424
0.114338 0.842574 0.220831
0.114830 0.843066 0.273888
0.115319 0.843555 0.326707
0.115807 0.844043 0.379345
0.116294 0.844530 0.431836
0.116780 0.845016 0.484204
0.117264 0.845500 0.536467
0.117748 0.845984 0.588637
0.118231 0.846467 0.640725
0.118713 0.846949 0.692738
0.119194 0.847430 0.744683
0.119675 0.847911 0.796566
0.120156 0.848392 0.848392
0.120636 0.848872 0.900164
0.121115 0.849351 0.951887
0.118096 0.897624 0.118096
0.118597 0.898126 0.172179
0.119092 0.898621 0.225586
0.119584 0.899113 0.278643
0.120074 0.899602 0.331462
0.120562 0.900090 0.384100
0.121049 0.900577 0.436591
0.121534 0.901063 0.488959
0.122019 0.901547 0.541222
0.122502 0.902031 0.593392
0.122985 0.902514 0.645479
0.123467 0.902996 0.697492
0.123949 0.903477 0.749438
0.124430 0.903958 0.801321
0.124910 0.904439 0.853147
0.125390 0.904919 0.904919
0.125870 0.905398 0.956642
0.122846 0.953617 0.122846
0.123347 0.954119 0.176929
0.123842 0.954614 0.230336
0.124334 0.955106 0.283393
0.124824 0.955596 0.336212
0.125312 0.956084 0.388850
0.125799 0.956570 0.441341
0.126284 0.957056 0.493709
0.126769 0.957540 0.545972
0.127252 0.958024 0.598142
0.127735 0.958507 0.650229
0.128217 0.958989 0.702242
0.128699 0.959471 0.754188
0.129180 0.959952 0.806071
0.129660 0.960432 0.857897
0.130140 0.960912 0.909669
0.130620 0.961392 0.961392
0.100895 0.047314 0.047314
0.101397 0.047815 0.101397
0.101892 0.048310 0.154803
0.102384 0.048802 0.207861
0.102873 0.049292 0.260680
0.103361 0.049780 0.313317
0.103848 0.050266 0.365808
0.104333 0.050752 0.418177
0.104818 0.051236 0.470439
0.105302 0.051720 0.522610
0.105785 0.052203 0.574697
0.106267 0.052685 0.626710
0.106748 0.053167 0.678655
0.107229 0.053648 0.730539
0.107710 0.054128 0.782364
0.108190 0.054608 0.834137
0.108669 0.055088 0.885859
0.105862 0.105862 0.052280
0.106363 0.106363 0.106363
0.106859 0.106859 0.159770
0.107350 0.107350 0.212828
0.107840 0.107840 0.265647
0.108328 0.108328 0.318284
0.108815 0.108815 0.370775
0.109300 0.109300 0.423144
0.109785 0.109785 0.475406
0.110268 0.110268 0.527576
0.110751 0.110751 0.579664
0.111234 0.111234 0.631677
0.111715 0.111715 0.683622
0.112196 0.112196 0.735505
0.112677 0.112677 0.787331
0.113157 0.113157 0.839103
0.113636 0.113636 0.890826
0.110767 0.163678 0.057185
0.111268 0.164180 0.111268
0.111763 0.164675 0.164675
0.112255 0.165167 0.217732
0.112745 0.165656 0.270551
0.113233 0.166144 0.323189
0.113719 0.166631 0.375680
0.114205 0.167116 0.428048
0.114689 0.167601 0.480311
0.115173 0.168085 0.532481
0.115656 0.168568 0.584568
0.116138 0.169050 0.636581
0.116620 0.169531 0.688527
0.117101 0.170012 0.740410
0.117581 0.170493 0.792236
0.118061 0.170973 0.844008
0.118541 0.171452 0.895731
0.115639 0.221116 0.062058
0.116141 0.221618 0.116141
0.116636 0.222113 0.169547
0.117128 0.222605 0.222605
0.117617 0.223095 0.275424
0.118105 0.223583 0.328061
0.118592 0.224069 0.380552
0.119077 0.224555 0.432921
0.119562 0.225039 0.485183
0.120046 0.225523 0.537354
0.120529 0.226006 0.589441
0.121011 0.226488 0.641454
0.121492 0.226970 0.693399
0.121973 0.227451 0.745283
0.122454 0.227931 0.797108
0.122934 0.228411 0.848881
0.123413 0.228890 0.900603
0.120490 0.278296 0.066908
0.120991 0.278798 0.120991
0.121486 0.279293 0.174398
0.121978 0.279785 0.227456
0.122468 0.280274 0.280274
0.122956 0.280762 0.332912
0.123443 0.281249 0.385403
0.123928 0.281735 0.437771
0.124413 0.282219 0.490034
0.124896 0.282703 0.542204
0.125379 0.283186 0.594292
0.125861 0.283668 0.646305
0.126343 0.284149 0.698250
0.126824 0.284630 0.750133
0.127305 0.285111 0.801959
0.127785 0.285591 0.853731
0.128264 0.286070 0.905454
0.125324 0.335280 0.071742
0.125825 0.335781 0.125825
0.126320 0.336276 0.179232
0.126812 0.336768 0.232290
0.127302 0.337258 0.285108
0.127790 0.337746 0.337746
0.128277 0.338233 0.390237
0.128762 0.338718 0.442605
0.129247 0.339203 0.494868
0.129730 0.339686 0.547038
0.130213 0.340169 0.599126
0.130695 0.340651 0.651139
0.131177 0.341133 0.703084
0.131658 0.341614 0.754967
0.132139 0.342094 0.806793
0.132619 0.342574 0.858565
0.133098 0.343054 0.910288
0.130145 0.392105 0.076563
0.130646 0.392606 0.130646
0.131141 0.393101 0.184053
0.131633 0.393593 0.237110
0.132123 0.394083 0.289929
0.132611 0.394571 0.342567
0.133097 0.395058 0.395058
0.133583 0.395543 0.447426
0.134067 0.396028 0.499689
0.134551 0.396511 0.551859
0.135034 0.396994 0.603946
0.135516 0.397476 0.655959
0.135998 0.397958 0.707905
0.136479 0.398439 0.759788
0.136959 0.398920 0.811614
0.137439 0.399399 0.863386
0.137919 0.399879 0.915109
0.134954 0.448797 0.081372
0.135455 0.449298 0.135455
0.135950 0.449794 0.188862
0.136442 0.450285 0.241919
0.136932 0.450775 0.294738
0.137420 0.451263 0.347376
0.137907 0.451750 0.399867
0.138392 0.452235 0.452235
0.138877 0.452720 0.504498
0.139360 0.453204 0.556668
0.139843 0.453686 0.608756
0.140325 0.454169 0.660769
0.140807 0.454650 0.712714
0.141288 0.455131 0.764597
0.141768 0.455612 0.816423
0.142248 0.456092 0.868195
0.142728 0.456571 0.919918
0.139753 0.505375 0.086172
0.140255 0.505876 0.140255
0.140750 0.506371 0.193662
0.141242 0.506863 0.246719
0.141732 0.507353 0.299538
0.142220 0.507841 0.352175
0.142706 0.508328 0.404667
0.143192 0.508813 0.457035
0.143676 0.509298 0.509298
0.144160 0.509781 0.561468
0.144643 0.510264 0.613555
0.145125 0.510746 0.665568
0.145607 0.511228 0.717514
0.146088 0.511709 0.769397
0.146568 0.512189 0.821222
0.147048 0.512669 0.872995
0.147528 0.513149 0.924717
0.144545 0.561852 0.090963
0.145046 0.562354 0.145046
0.145541 0.562849 0.198453
0.146033 0.563341 0.251510
0.146523 0.563830 0.304329
0.147011 0.564318 0.356967
0.147497 0.564805 0.409458
0.147983 0.565291 0.461826
0.148467 0.565775 0.514089
0.148951 0.566259 0.566259
0.149434 0.566742 0.618346
0.149916 0.567224 0.670359
0.150398 0.567705 0.722305
0.150879 0.568186 0.774188
0.151359 0.568667 0.826014
0.151839 0.569147 0.877786
0.152319 0.569626 0.929509
0.149328 0.618240 0.095746
0.149829 0.618742 0.149829
0.150325 0.619237 0.203236
0.150816 0.619729 0.256294
0.151306 0.620219 0.309113
0.151794 0.620707 0.361750
0.152281 0.621193 0.414241
0.152766 0.621679 0.466610
0.153251 0.622163 0.518872
0.153734 0.622647 0.571042
0.154217 0.623130 0.623130
0.154700 0.623612 0.675143
0.155181 0.624094 0.727088
0.155662 0.624575 0.778971
0.156143 0.625055 0.830797
0.156623 0.625535 0.882569
0.157102 0.626015 0.934292
0.154105 0.674548 0.100523
0.154606 0.675049 0.154606
0.155101 0.675545 0.208013
0.155593 0.676036 0.261070
0.156083 0.676526 0.313889
0.156571 0.677014 0.366527
0.157057 0.677501 0.419018
0.157543 0.677986 0.471386
0.158027 0.678471 0.523649
0.158511 0.678954 0.575819
0.158994 0.679437 0.627906
0.159476 0.679920 0.679920
0.159958 0.680401 0.731865
0.160439 0.680882 0.783748
0.160919 0.681363 0.835574
0.161399 0.681843 0.887346
0.161879 0.682322 0.939069
0.158875 0.730782 0.105294
0.159377 0.731284 0.159377
0.159872 0.731779 0.212783
0.160364 0.732271 0.265841
0.160853 0.732760 0.318660
0.161341 0.733248 0.371297
0.161828 0.733735 0.423788
0.162313 0.734220 0.476157
0.162798 0.734705 0.528419
0.163282 0.735189 0.580589
0.163764 0.735671 0.632677
0.164247 0.736154 0.684690
0.164728 0.736635 0.736635
0.165209 0.737116 0.788518
0.165690 0.737597 0.840344
0.166170 0.738077 0.892117
0.166649 0.738556 0.943839
0.163640 0.786949 0.110058
0.164141 0.787450 0.164141
0.164636 0.787946 0.217548
0.165128 0.788437 0.270605
0.165618 0.788927 0.323424
0.166106 0.789415 0.376062
0.166593 0.789902 0.428553
0.167078 0.790387 0.480921
0.167563 0.790872 0.533184
0.168046 0.791355 0.585354
0.168529 0.791838 0.637442
0.169011 0.792321 0.689455
0.169493 0.792802 0.741400
0.169974 0.793283 0.793283
0.170454 0.793764 0.845109
0.170934 0.794244 0.896881
0.171414 0.794723 0.948604
0.168399 0.843054 0.114818
0.168901 0.843555 0.168901
0.169396 0.844050 0.222307
0.169888 0.844542 0.275365
0.170377 0.845032 0.328184
0.170865 0.845520 0.380821
0.171352 0.846007 0.433312
0.171838 0.846492 0.485681
0.172322 0.846977 0.537944
0.172806 0.847460 0.590114
0.173289 0.847943 0.642201
0.173771 0.848425 0.694214
0.174252 0.848907 0.746159
0.174733 0.849388 0.798043
0.175214 0.849868 0.849868
0.175694 0.850348 0.901641
0.176173 0.850828 0.953363
0.173154 0.899101 0.119572
0.173655 0.899602 0.173655
0.174150 0.900097 0.227062
0.174642 0.900589 0.280119
0.175132 0.901079 0.332938
0.175620 0.901567 0.385576
0.176107 0.902054 0.438067
0.176592 0.902539 0.490435
0.177077 0.903024 0.542698
0.177560 0.903507 0.594868
0.178043 0.903990 0.646956
0.178525 0.904472 0.698969
0.179007 0.904954 0.750914
0.179488 0.905435 0.802797
0.179969 0.905915 0.854623
0.180448 0.906395 0.906395
0.180928 0.906875 0.958118
0.177904 0.955094 0.124322
0.178405 0.955595 0.178405
0.178900 0.956090 0.231812
0.179392 0.956582 0.284869
0.179882 0.957072 0.337688
0.180370 0.957560 0.390326
0.180857 0.958047 0.442817
0.181342 0.958532 0.495185
0.181827 0.959017 0.547448
0.182310 0.959500 0.599618
0.182793 0.959983 0.651706
0.183275 0.960465 0.703719
0.183757 0.960947 0.755664
0.184238 0.961428 0.807547
0.184719 0.961908 0.859373
0.185198 0.962388 0.911145
0.185678 0.962868 0.962868
0.155265 0.048772 0.048772
0.155766 0.049273 0.102855
0.156261 0.049768 0.156261
0.156753 0.050260 0.209319
0.157243 0.050750 0.262138
0.157731 0.051238 0.314775
0.158217 0.051724 0.367266
0.158703 0.052210 0.419635
0.159188 0.052694 0.471897
0.159671 0.053178 0.524067
0.160154 0.053661 0.576155
0.160636 0.054143 0.628168
0.161118 0.054625 0.680113
0.161599 0.055106 0.731996
0.162079 0.055586 0.783822
0.162559 0.056066 0.835595
0.163039 0.056546 0.887317
0.160232 0.107320 0.053738
0.160733 0.107821 0.107821
0.161228 0.108316 0.161228
0.161720 0.108808 0.214286
0.162210 0.109298 0.267104
0.162698 0.109786 0.319742
0.163184 0.110273 0.372233
0.163670 0.110758 0.424601
0.164154 0.111243 0.476864
0.164638 0.111726 0.529034
0.165121 0.112209 0.581122
0.165603 0.112691 0.633135
0.166085 0.113173 0.685080
0.166566 0.113654 0.736963
0.167046 0.114135 0.788789
0.167526 0.114615 0.840561
0.168006 0.115094 0.892284
0.165136 0.165136 0.058643
0.165638 0.165638 0.112726
0.166133 0.166133 0.166133
0.166625 0.166625 0.219190
0.167114 0.167114 0.272009
0.167602 0.167602 0.324647
0.168089 0.168089 0.377138
0.168574 0.168574 0.429506
0.169059 0.169059 0.481769
0.169543 0.169543 0.533939
0.170026 0.170026 0.586026
0.170508 0.170508 0.638039
0.170989 0.170989 0.689985
0.171470 0.171470 0.741868
0.171951 0.171951 0.793694
0.172431 0.172431 0.845466
0.172910 0.172910 0.897189
0.170009 0.222574 0.063516
0.170510 0.223076 0.117599
0.171005 0.223571 0.171005
0.171497 0.224063 0.224063
0.171987 0.224552 0.276882
0.172475 0.225040 0.329519
0.172962 0.225527 0.382010
0.173447 0.226013 0.434379
0.173932 0.226497 0.486641
0.174415 0.226981 0.538811
0.174898 0.227464 0.590899
0.175380 0.227946 0.642912
0.175862 0.228427 0.694857
0.176343 0.228908 0.746741
0.176823 0.229389 0.798566
0.177303 0.229869 0.850339
0.177783 0.230348 0.902061
0.174859 0.279754 0.068366
0.175361 0.280256 0.122449
0.175856 0.280751 0.175856
0.176348 0.281243 0.228913
0.176838 0.281732 0.281732
0.177326 0.282220 0.334370
0.177812 0.282707 0.386861
0.178298 0.283193 0.439229
0.178782 0.283677 0.491492
0.179266 0.284161 0.543662
0.179749 0.284644 0.595750
0.180231 0.285126 0.647763
0.180713 0.285607 0.699708
0.181194 0.286088 0.751591
0.181674 0.286569 0.803417
0.182154 0.287049 0.855189
0.182634 0.287528 0.906912
0.179693 0.336738 0.073200
0.180195 0.337239 0.127283
0.180690 0.337734 0.180690
0.181182 0.338226 0.233747
0.181672 0.338716 0.286566
0.182160 0.339204 0.339204
0.182646 0.339691 0.391695
0.183132 0.340176 0.444063
0.183616 0.340661 0.496326
0.184100 0.341144 0.548496
0.184583 0.341627 0.600584
0.185065 0.342109 0.652597
0.185547 0.342591 0.704542
0.186028 0.343072 0.756425
0.186508 0.343552 0.808251
0.186988 0.344032 0.860023
0.187468 0.344512 0.911746
0.184514 0.393563 0.078021
0.185015 0.394064 0.132104
0.185511 0.394559 0.185511
0.186002 0.395051 0.238568
0.186492 0.395541 0.291387
0.186980 0.396029 0.344025
0.187467 0.396516 0.396516
0.187952 0.397001 0.448884
0.188437 0.397486 0.501147
0.188920 0.397969 0.553317
0.189403 0.398452 0.605404
0.189886 0.398934 0.657417
0.190367 0.399416 0.709363
0.190848 0.399897 0.761246
0.191329 0.400377 0.813072
0.191809 0.400857 0.864844
0.192288 0.401337 0.916567
0.189323 0.450255 0.082830
0.189825 0.450756 0.136913
0.190320 0.451252 0.190320
0.190812 0.451743 0.243377
0.191301 0.452233 0.296196
0.191789 0.452721 0.348834
0.192276 0.453208 0.401325
0.192762 0.453693 0.453693
0.193246 0.454178 0.505956
0.193730 0.454661 0.558126
0.194213 0.455144 0.610214
0.194695 0.455627 0.662227
0.195176 0.456108 0.714172
0.195657 0.456589 0.766055
0.196138 0.457070 0.817881
0.196618 0.457550 0.869653
0.197097 0.458029 0.921376
0.194123 0.506833 0.087630
0.194624 0.507334 0.141713
0.195119 0.507829 0.195119
0.195611 0.508321 0.248177
0.196101 0.508811 0.300996
0.196589 0.509299 0.353633
0.197076 0.509786 0.406125
0.197561 0.510271 0.458493
0.198046 0.510756 0.510756
0.198529 0.511239 0.562926
0.199012 0.511722 0.615013
0.199494 0.512204 0.667026
0.199976 0.512686 0.718972
0.200457 0.513167 0.770855
0.200938 0.513647 0.822680
0.201418 0.514127 0.874453
0.201897 0.514607 0.926175
0.198914 0.563310 0.092421
0.199415 0.563812 0.146504
0.199911 0.564307 0.199911
0.200402 0.564799 0.252968
0.200892 0.565288 0.305787
0.201380 0.565776 0.358425
0.201867 0.566263 0.410916
0.202352 0.566749 0.463284
0.202837 0.567233 0.515547
0.203320 0.567717 0.567717
0.203803 0.568200 0.619804
0.204286 0.568682 0.671817
0.204767 0.569163 0.723763
0.205248 0.569644 0.775646
0.205729 0.570125 0.827472
0.206209 0.570605 0.879244
0.206688 0.571084 0.930966
0.203698 0.619698 0.097204
0.204199 0.620200 0.151287
0.204694 0.620695 0.204694
0.205186 0.621187 0.257752
0.205676 0.621677 0.310570
0.206164 0.622165 0.363208
0.206650 0.622651 0.415699
0.207136 0.623137 0.468067
0.207620 0.623621 0.520330
0.208104 0.624105 0.572500
0.208587 0.624588 0.624588
0.209069 0.625070 0.676601
0.209551 0.625552 0.728546
0.210032 0.626033 0.780429
0.210512 0.626513 0.832255
0.210992 0.626993 0.884027
0.211472 0.627473 0.935750
0.208474 0.676006 0.101981
0.208976 0.676507 0.156064
0.209471 0.677002 0.209471
0.209963 0.677494 0.262528
0.210452 0.677984 0.315347
0.210940 0.678472 0.367985
0.211427 0.678959 0.420476
0.211912 0.679444 0.472844
0.212397 0.679929 0.525107
0.212881 0.680412 0.577277
0.213364 0.680895 0.629364
0.213846 0.681377 0.681377
0.214327 0.681859 0.733323
0.214808 0.682340 0.785206
0.215289 0.682821 0.837032
0.215769 0.683301 0.888804
0.216248 0.683780 0.940527
0.213245 0.732240 0.106751
0.213746 0.732742 0.160834
0.214241 0.733237 0.214241
0.214733 0.733729 0.267299
0.215223 0.734218 0.320118
0.215711 0.734706 0.372755
0.216197 0.735193 0.425246
0.216683 0.735678 0.477615
0.217167 0.736163 0.529877
0.217651 0.736647 0.582047
0.218134 0.737129 0.634135
0.218616 0.737612 0.686148
0.219098 0.738093 0.738093
0.219579 0.738574 0.789976
0.220059 0.739055 0.841802
0.220539 0.739535 0.893575
0.221019 0.740014 0.945297
0.218009 0.788407 0.111516
0.218511 0.788908 0.165599
0.219006 0.789404 0.219006
0.219498 0.789895 0.272063
0.219987 0.790385 0.324882
0.220475 0.790873 0.377520
0.220962 0.791360 0.430011
0.221448 0.791845 0.482379
0.221932 0.792330 0.534642
0.222416 0.792813 0.586812
0.222899 0.793296 0.638900
0.223381 0.793779 0.690913
0.223863 0.794260 0.742858
0.224344 0.794741 0.794741
0.224824 0.795222 0.846567
0.225304 0.795702 0.898339
0.225783 0.796181 0.950062
0.222769 0.844512 0.116276
0.223270 0.845013 0.170359
0.223765 0.845508 0.223765
0.224257 0.846000 0.276823
0.224747 0.846490 0.329642
0.225235 0.846978 0.382279
0.225722 0.847464 0.434770
0.226207 0.847950 0.487139
0.226692 0.848435 0.539402
0.227175 0.848918 0.591572
0.227658 0.849401 0.643659
0.228140 0.849883 0.695672
0.228622 0.850365 0.747617
0.229103 0.850846 0.799501
0.229583 0.851326 0.851326
0.230063 0.851806 0.903099
0.230543 0.852286 0.954821
0.227523 0.900559 0.121030
0.228025 0.901060 0.175113
0.228520 0.901555 0.228520
0.229012 0.902047 0.281577
0.229502 0.902537 0.334396
0.229990 0.903025 0.387034
0.230476 0.903511 0.439525
0.230962 0.903997 0.491893
0.231446 0.904482 0.544156
0.231930 0.904965 0.596326
0.232413 0.905448 0.648414
0.232895 0.905930 0.700427
0.233377 0.906412 0.752372
0.233858 0.906893 0.804255
0.234338 0.907373 0.856081
0.234818 0.907853 0.907853
0.235298 0.908333 0.959576
0.232273 0.956552 0.125780
0.232775 0.957053 0.179863
0.233270 0.957548 0.233270
0.233762 0.958040 0.286327
0.234252 0.958530 0.339146
0.234740 0.959018 0.391784
0.235226 0.959505 0.444275
0.235712 0.959990 0.496643
0.236196 0.960475 0.548906
0.236680 0.960958 0.601076
0.237163 0.961441 0.653164
0.237645 0.961923 0.705177
0.238127 0.962405 0.757122
0.238608 0.962886 0.809005
0.239088 0.963366 0.860831
0.239568 0.963846 0.912603
0.240048 0.964326 0.964326
0.209279 0.050220 0.050220
0.209780 0.050721 0.104303
0.210275 0.051217 0.157710
0.210767 0.051708 0.210767
0.211257 0.052198 0.263586
0.211745 0.052686 0.316224
0.212232 0.053173 0.368715
0.212717 0.053658 0.421083
0.213202 0.054143 0.473346
0.213685 0.054626 0.525516
0.214168 0.055109 0.577603
0.214650 0.055592 0.629616
0.215132 0.056073 0.681562
0.215613 0.056554 0.733445
0.216093 0.057035 0.785271
0.216573 0.057515 0.837043
0.217053 0.057994 0.888766
0.214246 0.108768 0.055187
