skills/editops-orchestrator/assets/grade/luts/vintage_fade_v17.cube
TITLE "vintage_fade_v17"
LUT_3D_SIZE 9
DOMAIN_MIN 0.0 0.0 0.0
DOMAIN_MAX 1.0 1.0 1.0
0.153887 0.153887 0.153887
0.155912 0.155912 0.233607
0.157888 0.157888 0.311355
0.159835 0.159835 0.387998
0.161762 0.161762 0.463869
0.163674 0.163674 0.539148
0.165575 0.165575 0.613945
0.167465 0.167465 0.688338
0.169346 0.169346 0.762382
0.173949 0.251644 0.173949
0.175974 0.253669 0.253669
0.177949 0.255644 0.331417
0.179896 0.257591 0.408060
0.181824 0.259518 0.483931
0.183736 0.261431 0.559209
0.185636 0.263331 0.634006
0.187526 0.265221 0.708399
0.189407 0.267102 0.782444
0.193514 0.346982 0.193514
0.195539 0.349007 0.273234
0.197514 0.350982 0.350982
0.199462 0.352929 0.427625
0.201389 0.354857 0.503496
0.203301 0.356769 0.578774
0.205202 0.358669 0.653572
0.207091 0.360559 0.727965
0.208972 0.362440 0.802009
0.212801 0.440965 0.212801
0.214827 0.442990 0.292521
0.216802 0.444965 0.370269
0.218749 0.446912 0.446912
0.220676 0.448840 0.522783
0.222589 0.450752 0.598062
0.224489 0.452652 0.672859
0.226379 0.454542 0.747252
0.228260 0.456423 0.821296
0.231894 0.534002 0.231894
0.233919 0.536027 0.311614
0.235895 0.538002 0.389362
0.237842 0.539949 0.466005
0.239769 0.541876 0.541876
0.241682 0.543789 0.617155
0.243582 0.545689 0.691952
0.245472 0.547579 0.766345
0.247353 0.549460 0.840389
0.250838 0.626311 0.250838
0.252863 0.628336 0.330558
0.254838 0.630311 0.408306
0.256785 0.632259 0.484949
0.258713 0.634186 0.560820
0.260625 0.636098 0.636098
0.262525 0.637999 0.710896
0.264415 0.639888 0.785289
0.266296 0.641769 0.859333
0.269661 0.718031 0.269661
0.271686 0.720056 0.349381
0.273661 0.722031 0.427129
0.275608 0.723978 0.503772
0.277536 0.725906 0.579643
0.279448 0.727818 0.654921
0.281348 0.729718 0.729718
0.283238 0.731608 0.804111
0.285119 0.733489 0.878156
0.288382 0.809255 0.288382
0.290407 0.811280 0.368102
0.292382 0.813255 0.445850
0.294329 0.815202 0.522493
0.296257 0.817130 0.598364
0.298169 0.819042 0.673642
0.300069 0.820942 0.748439
0.301959 0.822832 0.822832
0.303840 0.824713 0.896877
0.307015 0.900052 0.307015
0.309040 0.902077 0.386735
0.311015 0.904052 0.464483
0.312962 0.905999 0.541126
0.314890 0.907926 0.616997
0.316802 0.909839 0.692275
0.318702 0.911739 0.767073
0.320592 0.913629 0.841466
0.322473 0.915510 0.915510
0.237546 0.159851 0.159851
0.239571 0.161876 0.239571
0.241546 0.163851 0.317319
0.243493 0.165798 0.393962
0.245420 0.167726 0.469833
0.247333 0.169638 0.545111
0.249233 0.171538 0.619908
0.251123 0.173428 0.694301
0.253004 0.175309 0.768346
0.257607 0.257607 0.179912
0.259632 0.259632 0.259632
0.261607 0.261607 0.337380
0.263554 0.263554 0.414023
0.265482 0.265482 0.489894
0.267394 0.267394 0.565173
0.269294 0.269294 0.639970
0.271184 0.271184 0.714363
0.273065 0.273065 0.788407
0.277172 0.352945 0.199478
0.279198 0.354971 0.279198
0.281173 0.356946 0.356946
0.283120 0.358893 0.433589
0.285047 0.360820 0.509460
0.286960 0.362733 0.584738
0.288860 0.364633 0.659535
0.290750 0.366523 0.733928
0.292631 0.368404 0.807973
0.296460 0.446928 0.218765
0.298485 0.448954 0.298485
0.300460 0.450929 0.376233
0.302407 0.452876 0.452876
0.304334 0.454803 0.528747
0.306247 0.456716 0.604025
0.308147 0.458616 0.678822
0.310037 0.460506 0.753215
0.311918 0.462387 0.827260
0.315553 0.539965 0.237858
0.317578 0.541990 0.317578
0.319553 0.543965 0.395326
0.321500 0.545912 0.471969
0.323427 0.547840 0.547840
0.325340 0.549752 0.623118
0.327240 0.551652 0.697915
0.329130 0.553542 0.772308
0.331011 0.555423 0.846353
0.334496 0.632275 0.256802
0.336522 0.634300 0.336522
0.338497 0.636275 0.414270
0.340444 0.638222 0.490913
0.342371 0.640149 0.566784
0.344284 0.642062 0.642062
0.346184 0.643962 0.716859
0.348074 0.645852 0.791252
0.349955 0.647733 0.865296
0.353319 0.723994 0.275624
0.355344 0.726020 0.355344
0.357319 0.727995 0.433092
0.359266 0.729942 0.509735
0.361194 0.731869 0.585606
0.363106 0.733782 0.660885
0.365006 0.735682 0.735682
0.366896 0.737572 0.810075
0.368777 0.739453 0.884119
0.372040 0.815218 0.294345
0.374065 0.817244 0.374065
0.376040 0.819219 0.451813
0.377987 0.821166 0.528456
0.379915 0.823093 0.604327
0.381827 0.825006 0.679606
0.383727 0.826906 0.754403
0.385617 0.828796 0.828796
0.387498 0.830677 0.902840
0.390673 0.906015 0.312979
0.392699 0.908040 0.392699
0.394674 0.910015 0.470447
0.396621 0.911963 0.547090
0.398548 0.913890 0.622961
0.400461 0.915802 0.698239
0.402361 0.917703 0.773036
0.404251 0.919592 0.847429
0.406132 0.921473 0.921473
0.319134 0.165667 0.165667
0.321160 0.167692 0.245387
0.323135 0.169667 0.323135
0.325082 0.171614 0.399778
0.327009 0.173542 0.475649
0.328922 0.175454 0.550927
0.330822 0.177354 0.625724
0.332712 0.179244 0.700117
0.334593 0.181125 0.774162
0.339196 0.263423 0.185728
0.341221 0.265448 0.265448
0.343196 0.267423 0.343196
0.345143 0.269370 0.419839
0.347071 0.271298 0.495710
0.348983 0.273210 0.570989
0.350883 0.275110 0.645786
0.352773 0.277000 0.720179
0.354654 0.278881 0.794223
0.358761 0.358761 0.205294
0.360787 0.360787 0.285014
0.362762 0.362762 0.362762
0.364709 0.364709 0.439405
0.366636 0.366636 0.515276
0.368549 0.368549 0.590554
0.370449 0.370449 0.665351
0.372339 0.372339 0.739744
0.374220 0.374220 0.813789
0.378049 0.452744 0.224581
0.380074 0.454770 0.304301
0.382049 0.456745 0.382049
0.383996 0.458692 0.458692
0.385923 0.460619 0.534563
0.387836 0.462532 0.609841
0.389736 0.464432 0.684638
0.391626 0.466322 0.759031
0.393507 0.468203 0.833076
0.397142 0.545781 0.243674
0.399167 0.547806 0.323394
0.401142 0.549781 0.401142
0.403089 0.551728 0.477785
0.405016 0.553656 0.553656
0.406929 0.555568 0.628934
0.408829 0.557468 0.703731
0.410719 0.559358 0.778124
0.412600 0.561239 0.852169
0.416085 0.638091 0.262617
0.418111 0.640116 0.342338
0.420086 0.642091 0.420086
0.422033 0.644038 0.496729
0.423960 0.645965 0.572600
0.425873 0.647878 0.647878
0.427773 0.649778 0.722675
0.429663 0.651668 0.797068
0.431544 0.653549 0.871112
0.434908 0.729810 0.281440
0.436933 0.731836 0.361160
0.438908 0.733811 0.438908
0.440855 0.735758 0.515551
0.442783 0.737685 0.591422
0.444695 0.739598 0.666701
0.446595 0.741498 0.741498
0.448485 0.743388 0.815891
0.450366 0.745269 0.889935
0.453629 0.821034 0.300161
0.455654 0.823060 0.379881
0.457629 0.825035 0.457629
0.459576 0.826982 0.534272
0.461504 0.828909 0.610143
0.463416 0.830822 0.685422
0.465316 0.832722 0.760219
0.467206 0.834612 0.834612
0.469087 0.836493 0.908656
0.472262 0.911831 0.318795
0.474288 0.913856 0.398515
0.476263 0.915831 0.476263
0.478210 0.917779 0.552906
0.480137 0.919706 0.628777
0.482050 0.921618 0.704055
0.483950 0.923519 0.778852
0.485840 0.925408 0.853245
0.487721 0.927289 0.927289
0.399564 0.171400 0.171400
0.401589 0.173425 0.251120
0.403564 0.175400 0.328868
0.405511 0.177347 0.405511
0.407439 0.179275 0.481382
0.409351 0.181187 0.556660
0.411251 0.183087 0.631458
0.413141 0.184977 0.705850
0.415022 0.186858 0.779895
0.419625 0.269156 0.191462
0.421650 0.271182 0.271182
0.423626 0.273157 0.348930
0.425573 0.275104 0.425573
0.427500 0.277031 0.501444
0.429412 0.278944 0.576722
0.431313 0.280844 0.651519
0.433203 0.282734 0.725912
0.435084 0.284615 0.799956
0.439191 0.364495 0.211027
0.441216 0.366520 0.290747
0.443191 0.368495 0.368495
0.445138 0.370442 0.445138
0.447065 0.372370 0.521009
0.448978 0.374282 0.596287
0.450878 0.376182 0.671084
0.452768 0.378072 0.745477
0.454649 0.379953 0.819522
0.458478 0.458478 0.230314
0.460503 0.460503 0.310034
0.462478 0.462478 0.387782
0.464425 0.464425 0.464425
0.466353 0.466353 0.540296
0.468265 0.468265 0.615574
0.470165 0.470165 0.690372
0.472055 0.472055 0.764765
0.473936 0.473936 0.838809
0.477571 0.551514 0.249407
0.479596 0.553540 0.329127
0.481571 0.555515 0.406875
0.483518 0.557462 0.483518
0.485446 0.559389 0.559389
0.487358 0.561302 0.634667
0.489258 0.563202 0.709465
0.491148 0.565092 0.783858
0.493029 0.566973 0.857902
0.496514 0.643824 0.268351
0.498540 0.645849 0.348071
0.500515 0.647824 0.425819
0.502462 0.649771 0.502462
0.504389 0.651699 0.578333
0.506302 0.653611 0.653611
0.508202 0.655511 0.728408
0.510092 0.657401 0.802801
0.511973 0.659282 0.876846
0.515337 0.735544 0.287174
0.517362 0.737569 0.366894
0.519338 0.739544 0.444642
0.521285 0.741491 0.521285
0.523212 0.743419 0.597156
0.525124 0.745331 0.672434
0.527025 0.747231 0.747231
0.528915 0.749121 0.821624
0.530796 0.751002 0.895668
0.534058 0.826768 0.305895
0.536083 0.828793 0.385615
0.538059 0.830768 0.463363
0.540006 0.832715 0.540006
0.541933 0.834643 0.615877
0.543845 0.836555 0.691155
0.545746 0.838455 0.765952
0.547636 0.840345 0.840345
0.549517 0.842226 0.914389
0.552691 0.917564 0.324528
0.554717 0.919590 0.404248
0.556692 0.921565 0.481996
0.558639 0.923512 0.558639
0.560566 0.925439 0.634510
0.562479 0.927352 0.709788
0.564379 0.929252 0.784585
0.566269 0.931142 0.858978
0.568150 0.933023 0.933023
0.479183 0.177076 0.177076
0.481208 0.179101 0.256796
0.483183 0.181076 0.334544
0.485130 0.183023 0.411187
0.487058 0.184950 0.487058
0.488970 0.186863 0.562336
0.490870 0.188763 0.637133
0.492760 0.190653 0.711526
0.494641 0.192534 0.785571
0.499244 0.274832 0.197137
0.501270 0.276857 0.276857
0.503245 0.278832 0.354605
0.505192 0.280779 0.431248
0.507119 0.282707 0.507119
0.509032 0.284619 0.582397
0.510932 0.286519 0.657195
0.512822 0.288409 0.731588
0.514703 0.290290 0.805632
0.518810 0.370170 0.216702
0.520835 0.372195 0.296422
0.522810 0.374171 0.374171
0.524757 0.376118 0.450814
0.526685 0.378045 0.526685
0.528597 0.379957 0.601963
0.530497 0.381858 0.676760
0.532387 0.383748 0.751153
0.534268 0.385629 0.825197
0.538097 0.464153 0.235990
0.540122 0.466179 0.315710
0.542097 0.468154 0.393458
0.544044 0.470101 0.470101
0.545972 0.472028 0.545972
0.547884 0.473941 0.621250
0.549784 0.475841 0.696047
0.551674 0.477731 0.770440
0.553555 0.479612 0.844485
0.557190 0.557190 0.255083
0.559215 0.559215 0.334803
0.561190 0.561190 0.412551
0.563137 0.563137 0.489194
0.565065 0.565065 0.565065
0.566977 0.566977 0.640343
0.568877 0.568877 0.715140
0.570767 0.570767 0.789533
0.572648 0.572648 0.863578
0.576134 0.649499 0.274026
0.578159 0.651525 0.353746
0.580134 0.653500 0.431495
0.582081 0.655447 0.508137
0.584009 0.657374 0.584009
0.585921 0.659287 0.659287
0.587821 0.661187 0.734084
0.589711 0.663077 0.808477
0.591592 0.664958 0.882521
0.594956 0.741219 0.292849
0.596982 0.743244 0.372569
0.598957 0.745220 0.450317
0.600904 0.747167 0.526960
0.602831 0.749094 0.602831
0.604744 0.751006 0.678109
0.606644 0.752907 0.752907
0.608534 0.754797 0.827300
0.610415 0.756678 0.901344
0.613677 0.832443 0.311570
0.615703 0.834468 0.391290
0.617678 0.836444 0.469038
0.619625 0.838391 0.545681
0.621552 0.840318 0.621552
0.623465 0.842230 0.696830
0.625365 0.844131 0.771628
0.627255 0.846021 0.846021
0.629136 0.847902 0.920065
0.632311 0.923240 0.330203
0.634336 0.925265 0.409923
0.636311 0.927240 0.487672
0.638258 0.929187 0.564314
0.640186 0.931115 0.640186
0.642098 0.933027 0.715464
0.643998 0.934927 0.790261
0.645888 0.936817 0.864654
0.647769 0.938698 0.938698
0.558180 0.182707 0.182707
0.560205 0.184732 0.262427
0.562180 0.186707 0.340175
0.564127 0.188654 0.416818
0.566055 0.190582 0.492689
0.567967 0.192494 0.567967
0.569867 0.194394 0.642764
0.571757 0.196284 0.717157
0.573638 0.198165 0.791202
0.578241 0.280463 0.202768
0.580267 0.282488 0.282488
0.582242 0.284463 0.360236
0.584189 0.286411 0.436879
0.586116 0.288338 0.512750
0.588029 0.290250 0.588029
0.589929 0.292151 0.662826
0.591819 0.294040 0.737219
0.593700 0.295922 0.811263
0.597807 0.375801 0.222334
0.599832 0.377827 0.302054
0.601807 0.379802 0.379802
0.603754 0.381749 0.456445
0.605682 0.383676 0.532316
0.607594 0.385589 0.607594
0.609494 0.387489 0.682391
0.611384 0.389379 0.756784
0.613265 0.391260 0.830829
0.617094 0.469785 0.241621
0.619119 0.471810 0.321341
0.621094 0.473785 0.399089
0.623041 0.475732 0.475732
0.624969 0.477659 0.551603
0.626881 0.479572 0.626881
0.628781 0.481472 0.701678
0.630671 0.483362 0.776071
0.632552 0.485243 0.850116
0.636187 0.562821 0.260714
0.638212 0.564846 0.340434
0.640187 0.566821 0.418182
0.642134 0.568769 0.494825
0.644062 0.570696 0.570696
0.645974 0.572608 0.645974
0.647874 0.574509 0.720771
0.649764 0.576398 0.795164
0.651645 0.578279 0.869209
0.655131 0.655131 0.279658
0.657156 0.657156 0.359378
0.659131 0.659131 0.437126
0.661078 0.661078 0.513769
0.663006 0.663006 0.589640
0.664918 0.664918 0.664918
0.666818 0.666818 0.739715
0.668708 0.668708 0.814108
0.670589 0.670589 0.888153
0.673953 0.746850 0.298480
0.675979 0.748876 0.378200
0.677954 0.750851 0.455948
0.679901 0.752798 0.532591
0.681828 0.754725 0.608462
0.683741 0.756638 0.683741
0.685641 0.758538 0.758538
0.687531 0.760428 0.832931
0.689412 0.762309 0.906975
0.692674 0.838074 0.317201
0.694700 0.840100 0.396921
0.696675 0.842075 0.474669
0.698622 0.844022 0.551312
0.700549 0.845949 0.627183
0.702462 0.847862 0.702462
0.704362 0.849762 0.777259
0.706252 0.851652 0.851652
0.708133 0.853533 0.925696
0.711308 0.928871 0.335835
0.713333 0.930896 0.415555
0.715308 0.932872 0.493303
0.717255 0.934819 0.569946
0.719183 0.936746 0.645817
0.721095 0.938658 0.721095
0.722995 0.940559 0.795892
0.724885 0.942448 0.870285
0.726766 0.944330 0.944330
0.636672 0.188302 0.188302
0.638697 0.190327 0.268022
0.640672 0.192302 0.345770
0.642620 0.194249 0.422413
0.644547 0.196177 0.498284
0.646459 0.198089 0.573562
0.648360 0.199989 0.648360
0.650249 0.201879 0.722752
0.652130 0.203760 0.796797
0.656734 0.286058 0.208364
0.658759 0.288084 0.288084
0.660734 0.290059 0.365832
0.662681 0.292006 0.442475
0.664609 0.293933 0.518346
0.666521 0.295846 0.593624
0.668421 0.297746 0.668421
0.670311 0.299636 0.742814
0.672192 0.301517 0.816859
0.676299 0.381397 0.227929
0.678324 0.383422 0.307649
0.680299 0.385397 0.385397
0.682246 0.387344 0.462040
0.684174 0.389272 0.537911
0.686086 0.391184 0.613189
0.687986 0.393084 0.687986
0.689876 0.394974 0.762379
0.691757 0.396855 0.836424
0.695586 0.475380 0.247216
0.697611 0.477405 0.326936
0.699587 0.479380 0.404684
0.701534 0.481327 0.481327
0.703461 0.483255 0.557198
0.705373 0.485167 0.632476
0.707274 0.487067 0.707274
0.709164 0.488957 0.781667
0.711045 0.490838 0.855711
0.714679 0.568416 0.266309
0.716704 0.570442 0.346029
0.718680 0.572417 0.423777
0.720627 0.574364 0.500420
0.722554 0.576291 0.576291
0.724466 0.578204 0.651569
0.726367 0.580104 0.726367
0.728256 0.581994 0.800760
0.730138 0.583875 0.874804
0.733623 0.660726 0.285253
0.735648 0.662751 0.364973
0.737623 0.664726 0.442721
0.739570 0.666673 0.519364
0.741498 0.668601 0.595235
0.743410 0.670513 0.670513
0.745310 0.672413 0.745310
0.747200 0.674303 0.819703
0.749081 0.676184 0.893748
0.752446 0.752446 0.304076
0.754471 0.754471 0.383796
0.756446 0.756446 0.461544
0.758393 0.758393 0.538187
0.760321 0.760321 0.614058
0.762233 0.762233 0.689336
0.764133 0.764133 0.764133
0.766023 0.766023 0.838526
0.767904 0.767904 0.912570
0.771167 0.843670 0.322797
0.773192 0.845695 0.402517
0.775167 0.847670 0.480265
0.777114 0.849617 0.556908
0.779042 0.851545 0.632779
0.780954 0.853457 0.708057
0.782854 0.855357 0.782854
0.784744 0.857247 0.857247
0.786625 0.859128 0.931291
0.789800 0.934466 0.341430
0.791825 0.936492 0.421150
0.793800 0.938467 0.498898
0.795747 0.940414 0.575541
0.797675 0.942341 0.651412
0.799587 0.944254 0.726690
0.801487 0.946154 0.801487
0.803377 0.948044 0.875880
0.805258 0.949925 0.949925
0.714740 0.193867 0.193867
0.716765 0.195892 0.273587
0.718741 0.197867 0.351335
0.720688 0.199814 0.427978
0.722615 0.201742 0.503849
0.724527 0.203654 0.579127
0.726428 0.205554 0.653925
0.728317 0.207444 0.728317
0.730199 0.209325 0.802362
0.734802 0.291623 0.213929
0.736827 0.293649 0.293649
0.738802 0.295624 0.371397
0.740749 0.297571 0.448040
0.742677 0.299498 0.523911
0.744589 0.301411 0.599189
0.746489 0.303311 0.673986
0.748379 0.305201 0.748379
0.750260 0.307082 0.822423
0.754367 0.386962 0.233494
0.756392 0.388987 0.313214
0.758367 0.390962 0.390962
0.760314 0.392909 0.467605
0.762242 0.394837 0.543476
0.764154 0.396749 0.618754
0.766054 0.398649 0.693551
0.767944 0.400539 0.767944
0.769825 0.402420 0.841989
0.773654 0.480945 0.252781
0.775679 0.482970 0.332501
0.777655 0.484945 0.410249
0.779602 0.486892 0.486892
0.781529 0.488820 0.562763
0.783441 0.490732 0.638041
0.785342 0.492632 0.712839
0.787232 0.494522 0.787232
0.789113 0.496403 0.861276
0.792747 0.573981 0.271874
0.794772 0.576007 0.351594
0.796748 0.577982 0.429342
0.798695 0.579929 0.505985
0.800622 0.581856 0.581856
0.802534 0.583769 0.657134
0.804435 0.585669 0.731932
0.806325 0.587559 0.806325
0.808206 0.589440 0.880369
0.811691 0.666291 0.290818
0.813716 0.668316 0.370538
0.815691 0.670291 0.448286
0.817638 0.672238 0.524929
0.819566 0.674166 0.600800
0.821478 0.676078 0.676078
0.823378 0.677978 0.750875
0.825268 0.679868 0.825268
0.827149 0.681749 0.899313
0.830514 0.758011 0.309641
0.832539 0.760036 0.389361
0.834514 0.762011 0.467109
0.836461 0.763958 0.543752
0.838389 0.765886 0.619623
0.840301 0.767798 0.694901
0.842201 0.769698 0.769698
0.844091 0.771588 0.844091
0.845972 0.773469 0.918135
0.849235 0.849235 0.328362
0.851260 0.851260 0.408082
0.853235 0.853235 0.485830
0.855182 0.855182 0.562473
0.857110 0.857110 0.638344
0.859022 0.859022 0.713622
0.860922 0.860922 0.788419
0.862812 0.862812 0.862812
0.864693 0.864693 0.936856
0.867868 0.940031 0.346995
0.869893 0.942057 0.426715
0.871868 0.944032 0.504463
0.873815 0.945979 0.581106
0.875743 0.947906 0.656977
0.877655 0.949819 0.732255
0.879555 0.951719 0.807052
0.881445 0.953609 0.881445
0.883326 0.955490 0.955490
0.792442 0.199406 0.199406
0.794468 0.201431 0.279126
0.796443 0.203406 0.356874
0.798390 0.205353 0.433517
0.800317 0.207281 0.509388
0.802230 0.209193 0.584666
0.804130 0.211093 0.659463
0.806020 0.212983 0.733856
0.807901 0.214864 0.807901
0.812504 0.297162 0.219467
0.814529 0.299188 0.299188
0.816504 0.301163 0.376936
0.818451 0.303110 0.453579
0.820379 0.305037 0.529450
0.822291 0.306950 0.604728
0.824191 0.308850 0.679525
0.826081 0.310740 0.753918
0.827962 0.312621 0.827962
0.832069 0.392501 0.239033
0.834095 0.394526 0.318753
0.836070 0.396501 0.396501
0.838017 0.398448 0.473144
0.839944 0.400375 0.549015
0.841857 0.402288 0.624293
0.843757 0.404188 0.699090
0.845647 0.406078 0.773483
0.847528 0.407959 0.847528
0.851357 0.486484 0.258320
0.853382 0.488509 0.338040
0.855357 0.490484 0.415788
0.857304 0.492431 0.492431
0.859231 0.494359 0.568302
0.861144 0.496271 0.643580
0.863044 0.498171 0.718378
0.864934 0.500061 0.792770
0.866815 0.501942 0.866815
0.870450 0.579520 0.277413
0.872475 0.581545 0.357133
0.874450 0.583521 0.434881
0.876397 0.585468 0.511524
0.878324 0.587395 0.587395
0.880237 0.589308 0.662673
0.882137 0.591208 0.737471
0.884027 0.593098 0.811863
0.885908 0.594979 0.885908
0.889393 0.671830 0.296357
0.891419 0.673855 0.376077
0.893394 0.675830 0.453825
0.895341 0.677777 0.530468
0.897268 0.679705 0.606339
0.899181 0.681617 0.681617
0.901081 0.683517 0.756414
0.902971 0.685407 0.830807
0.904852 0.687288 0.904852
0.908216 0.763550 0.315179
0.910241 0.765575 0.394899
0.912216 0.767550 0.472648
0.914163 0.769497 0.549291
0.916091 0.771424 0.625162
0.918003 0.773337 0.700440
0.919903 0.775237 0.775237
0.921793 0.777127 0.849630
0.923674 0.779008 0.923674
0.926937 0.854774 0.333900
0.928962 0.856799 0.413620
0.930937 0.858774 0.491369
0.932884 0.860721 0.568012
0.934812 0.862648 0.643883
0.936724 0.864561 0.719161
0.938624 0.866461 0.793958
0.940514 0.868351 0.868351
0.942395 0.870232 0.942395
0.945570 0.945570 0.352534
0.947596 0.947596 0.432254
0.949571 0.949571 0.510002
0.951518 0.951518 0.586645
0.953445 0.953445 0.662516
0.955358 0.955358 0.737794
0.957258 0.957258 0.812591
0.959148 0.959148 0.886984
0.961029 0.961029 0.961029
