skills/editops-orchestrator/assets/grade/luts/vintage_fade_v14.cube
TITLE "vintage_fade_v14"
LUT_3D_SIZE 9
DOMAIN_MIN 0.0 0.0 0.0
DOMAIN_MAX 1.0 1.0 1.0
0.129351 0.129351 0.129351
0.131168 0.131168 0.215162
0.132942 0.132942 0.298993
0.134695 0.134695 0.381751
0.136431 0.136431 0.463769
0.138156 0.138156 0.545219
0.139870 0.139870 0.626212
0.141577 0.141577 0.706820
0.143277 0.143277 0.787097
0.147348 0.231342 0.147348
0.149165 0.233159 0.233159
0.150940 0.234934 0.316990
0.152692 0.236686 0.399748
0.154428 0.238422 0.481766
0.156153 0.240147 0.563216
0.157868 0.241862 0.644209
0.159574 0.243568 0.724817
0.161274 0.245268 0.805094
0.164930 0.330980 0.164930
0.166747 0.332797 0.250741
0.168521 0.334572 0.334572
0.170274 0.336324 0.417330
0.172010 0.338060 0.499348
0.173735 0.339785 0.580798
0.175449 0.341500 0.661791
0.177156 0.343206 0.742399
0.178856 0.344906 0.822676
0.182287 0.429343 0.182287
0.184104 0.431160 0.268098
0.185878 0.432935 0.351929
0.187631 0.434687 0.434687
0.189367 0.436424 0.516704
0.191092 0.438148 0.598155
0.192806 0.439863 0.679148
0.194513 0.441570 0.759756
0.196213 0.443269 0.840033
0.199488 0.526826 0.199488
0.201305 0.528642 0.285299
0.203080 0.530417 0.369130
0.204832 0.532169 0.451889
0.206569 0.533906 0.533906
0.208293 0.535630 0.615357
0.210008 0.537345 0.696349
0.211715 0.539052 0.776957
0.213414 0.540752 0.857235
0.216571 0.623634 0.216571
0.218388 0.625451 0.302382
0.220163 0.627226 0.386213
0.221915 0.628978 0.468971
0.223651 0.630715 0.550989
0.225376 0.632439 0.632439
0.227091 0.634154 0.713432
0.228797 0.635861 0.794040
0.230497 0.637560 0.874317
0.233557 0.719899 0.233557
0.235374 0.721716 0.319368
0.237149 0.723490 0.403199
0.238901 0.725243 0.485958
0.240638 0.726979 0.567975
0.242362 0.728704 0.649426
0.244077 0.730418 0.730418
0.245784 0.732125 0.811027
0.247483 0.733825 0.891304
0.250463 0.815706 0.250463
0.252280 0.817523 0.336274
0.254055 0.819298 0.420105
0.255807 0.821050 0.502864
0.257544 0.822787 0.584881
0.259268 0.824511 0.666332
0.260983 0.826226 0.747324
0.262690 0.827932 0.827932
0.264389 0.829632 0.908210
0.267300 0.911120 0.267300
0.269117 0.912937 0.353111
0.270892 0.914712 0.436942
0.272644 0.916464 0.519700
0.274380 0.918201 0.601718
0.276105 0.919925 0.683168
0.277820 0.921640 0.764161
0.279526 0.923347 0.844769
0.281226 0.925046 0.925046
0.218695 0.134701 0.134701
0.220511 0.136517 0.220511
0.222286 0.138292 0.304343
0.224038 0.140044 0.387101
0.225775 0.141781 0.469118
0.227499 0.143505 0.550569
0.229214 0.145220 0.631562
0.230921 0.146927 0.712170
0.232621 0.148627 0.792447
0.236692 0.236692 0.152698
0.238508 0.238508 0.238508
0.240283 0.240283 0.322340
0.242036 0.242036 0.405098
0.243772 0.243772 0.487115
0.245497 0.245497 0.568566
0.247211 0.247211 0.649559
0.248918 0.248918 0.730167
0.250618 0.250618 0.810444
0.254274 0.336330 0.170280
0.256090 0.338147 0.256090
0.257865 0.339922 0.339922
0.259617 0.341674 0.422680
0.261354 0.343410 0.504697
0.263079 0.345135 0.586148
0.264793 0.346850 0.667141
0.266500 0.348556 0.747749
0.268200 0.350256 0.828026
0.271631 0.434693 0.187636
0.273447 0.436510 0.273447
0.275222 0.438285 0.357279
0.276974 0.440037 0.440037
0.278711 0.441774 0.522054
0.280435 0.443498 0.603505
0.282150 0.445213 0.684498
0.283857 0.446920 0.765106
0.285557 0.448619 0.845383
0.288832 0.532175 0.204838
0.290649 0.533992 0.290649
0.292424 0.535767 0.374480
0.294176 0.537519 0.457239
0.295912 0.539256 0.539256
0.297637 0.540980 0.620706
0.299352 0.542695 0.701699
0.301058 0.544402 0.782307
0.302758 0.546101 0.862584
0.305915 0.628984 0.221921
0.307731 0.630801 0.307731
0.309506 0.632576 0.391563
0.311259 0.634328 0.474321
0.312995 0.636065 0.556338
0.314720 0.637789 0.637789
0.316434 0.639504 0.718782
0.318141 0.641211 0.799390
0.319841 0.642910 0.879667
0.322901 0.725248 0.238907
0.324718 0.727065 0.324718
0.326493 0.728840 0.408549
0.328245 0.730592 0.491308
0.329982 0.732329 0.573325
0.331706 0.734053 0.654776
0.333421 0.735768 0.735768
0.335128 0.737475 0.816376
0.336827 0.739175 0.896654
0.339807 0.821056 0.255813
0.341624 0.822873 0.341624
0.343399 0.824648 0.425455
0.345151 0.826400 0.508214
0.346888 0.828136 0.590231
0.348612 0.829861 0.671682
0.350327 0.831576 0.752674
0.352034 0.833282 0.833282
0.353733 0.834982 0.913559
0.356644 0.916470 0.272650
0.358460 0.918287 0.358460
0.360235 0.920062 0.442292
0.361988 0.921814 0.525050
0.363724 0.923550 0.607067
0.365449 0.925275 0.688518
0.367163 0.926990 0.769511
0.368870 0.928696 0.850119
0.370570 0.930396 0.930396
0.305977 0.139927 0.139927
0.307794 0.141744 0.225738
0.309569 0.143519 0.309569
0.311321 0.145271 0.392328
0.313058 0.147007 0.474345
0.314782 0.148732 0.555795
0.316497 0.150447 0.636788
0.318204 0.152153 0.717396
0.319903 0.153853 0.797673
0.323974 0.241918 0.157924
0.325791 0.243735 0.243735
0.327566 0.245510 0.327566
0.329318 0.247262 0.410325
0.331055 0.248998 0.492342
0.332779 0.250723 0.573793
0.334494 0.252438 0.654785
0.336201 0.254144 0.735393
0.337900 0.255844 0.815670
0.341556 0.341556 0.175506
0.343373 0.343373 0.261317
0.345148 0.345148 0.345148
0.346900 0.346900 0.427907
0.348637 0.348637 0.509924
0.350361 0.350361 0.591374
0.352076 0.352076 0.672367
0.353783 0.353783 0.752975
0.355482 0.355482 0.833252
0.358913 0.439920 0.192863
0.360730 0.441736 0.278674
0.362505 0.443511 0.362505
0.364257 0.445263 0.445263
0.365994 0.447000 0.527281
0.367718 0.448724 0.608731
0.369433 0.450439 0.689724
0.371140 0.452146 0.770332
0.372839 0.453846 0.850609
0.376115 0.537402 0.210064
0.377931 0.539219 0.295875
0.379706 0.540993 0.379706
0.381459 0.542746 0.462465
0.383195 0.544482 0.544482
0.384920 0.546207 0.625933
0.386634 0.547921 0.706925
0.388341 0.549628 0.787534
0.390041 0.551328 0.867811
0.393197 0.634211 0.227147
0.395014 0.636027 0.312958
0.396789 0.637802 0.396789
0.398541 0.639555 0.479548
0.400278 0.641291 0.561565
0.402002 0.643016 0.643016
0.403717 0.644730 0.724008
0.405424 0.646437 0.804616
0.407123 0.648137 0.884893
0.410184 0.730475 0.244134
0.412001 0.732292 0.329944
0.413776 0.734067 0.413776
0.415528 0.735819 0.496534
0.417264 0.737555 0.578551
0.418989 0.739280 0.660002
0.420704 0.740995 0.740995
0.422410 0.742701 0.821603
0.424110 0.744401 0.901880
0.427090 0.826282 0.261040
0.428907 0.828099 0.346850
0.430682 0.829874 0.430682
0.432434 0.831626 0.513440
0.434170 0.833363 0.595457
0.435895 0.835087 0.676908
0.437610 0.836802 0.757901
0.439316 0.838509 0.838509
0.441016 0.840208 0.918786
0.443926 0.921696 0.277876
0.445743 0.923513 0.363687
0.447518 0.925288 0.447518
0.449270 0.927040 0.530277
0.451007 0.928777 0.612294
0.452731 0.930501 0.693745
0.454446 0.932216 0.774737
0.456153 0.933923 0.855345
0.457852 0.935622 0.935622
0.392143 0.145086 0.145086
0.393960 0.146903 0.230897
0.395735 0.148678 0.314728
0.397487 0.150430 0.397487
0.399224 0.152167 0.479504
0.400948 0.153891 0.560955
0.402663 0.155606 0.641948
0.404370 0.157313 0.722556
0.406069 0.159013 0.802833
0.410140 0.247078 0.163084
0.411957 0.248894 0.248894
0.413732 0.250669 0.332726
0.415484 0.252421 0.415484
0.417221 0.254158 0.497501
0.418945 0.255882 0.578952
0.420660 0.257597 0.659945
0.422367 0.259304 0.740553
0.424066 0.261004 0.820830
0.427722 0.346716 0.180665
0.429539 0.348533 0.266476
0.431314 0.350307 0.350307
0.433066 0.352060 0.433066
0.434803 0.353796 0.515083
0.436527 0.355521 0.596534
0.438242 0.357235 0.677527
0.439949 0.358942 0.758135
0.441648 0.360642 0.838412
0.445079 0.445079 0.198022
0.446896 0.446896 0.283833
0.448671 0.448671 0.367664
0.450423 0.450423 0.450423
0.452159 0.452159 0.532440
0.453884 0.453884 0.613891
0.455599 0.455599 0.694883
0.457305 0.457305 0.775492
0.459005 0.459005 0.855769
0.462281 0.542561 0.215224
0.464097 0.544378 0.301035
0.465872 0.546153 0.384866
0.467624 0.547905 0.467624
0.469361 0.549642 0.549642
0.471085 0.551366 0.631092
0.472800 0.553081 0.712085
0.474507 0.554788 0.792693
0.476207 0.556487 0.872970
0.479363 0.639370 0.232307
0.481180 0.641187 0.318117
0.482955 0.642962 0.401949
0.484707 0.644714 0.484707
0.486444 0.646451 0.566724
0.488168 0.648175 0.648175
0.489883 0.649890 0.729168
0.491590 0.651597 0.809776
0.493289 0.653296 0.890053
0.496350 0.735634 0.249293
0.498167 0.737451 0.335104
0.499941 0.739226 0.418935
0.501694 0.740978 0.501694
0.503430 0.742715 0.583711
0.505155 0.744439 0.665162
0.506869 0.746154 0.746154
0.508576 0.747861 0.826762
0.510276 0.749560 0.907039
0.513256 0.831442 0.266199
0.515072 0.833259 0.352010
0.516847 0.835034 0.435841
0.518600 0.836786 0.518600
0.520336 0.838522 0.600617
0.522061 0.840247 0.682068
0.523775 0.841962 0.763060
0.525482 0.843668 0.843668
0.527182 0.845368 0.923945
0.530092 0.926856 0.283036
0.531909 0.928673 0.368846
0.533684 0.930448 0.452678
0.535436 0.932200 0.535436
0.537173 0.933936 0.617453
0.538897 0.935661 0.698904
0.540612 0.937376 0.779897
0.542319 0.939082 0.860505
0.544018 0.940782 0.940782
0.477537 0.150200 0.150200
0.479354 0.152017 0.236011
0.481129 0.153791 0.319842
0.482881 0.155544 0.402600
0.484618 0.157280 0.484618
0.486342 0.159005 0.566068
0.488057 0.160719 0.647061
0.489764 0.162426 0.727669
0.491463 0.164126 0.807946
0.495534 0.252191 0.168197
0.497351 0.254008 0.254008
0.499126 0.255783 0.337839
0.500878 0.257535 0.420597
0.502615 0.259271 0.502615
0.504339 0.260996 0.584065
0.506054 0.262711 0.665058
0.507761 0.264417 0.745666
0.509460 0.266117 0.825943
0.513116 0.351829 0.185779
0.514933 0.353646 0.271590
0.516708 0.355421 0.355421
0.518460 0.357173 0.438179
0.520197 0.358909 0.520197
0.521921 0.360634 0.601647
0.523636 0.362349 0.682640
0.525343 0.364055 0.763248
0.527042 0.365755 0.843525
0.530473 0.450192 0.203136
0.532290 0.452009 0.288947
0.534065 0.453784 0.372778
0.535817 0.455536 0.455536
0.537554 0.457273 0.537554
0.539278 0.458997 0.619004
0.540993 0.460712 0.699997
0.542699 0.462419 0.780605
0.544399 0.464118 0.860882
0.547675 0.547675 0.220337
0.549491 0.549491 0.306148
0.551266 0.551266 0.389979
0.553018 0.553018 0.472738
0.554755 0.554755 0.554755
0.556479 0.556479 0.636206
0.558194 0.558194 0.717198
0.559901 0.559901 0.797806
0.561601 0.561601 0.878084
0.564757 0.644483 0.237420
0.566574 0.646300 0.323231
0.568349 0.648075 0.407062
0.570101 0.649827 0.489820
0.571838 0.651564 0.571838
0.573562 0.653288 0.653288
0.575277 0.655003 0.734281
0.576984 0.656710 0.814889
0.578683 0.658409 0.895166
0.581744 0.740748 0.254406
0.583561 0.742565 0.340217
0.585335 0.744339 0.424048
0.587088 0.746092 0.506807
0.588824 0.747828 0.588824
0.590549 0.749553 0.670275
0.592264 0.751267 0.751267
0.593970 0.752974 0.831876
0.595670 0.754674 0.912153
0.598650 0.836555 0.271312
0.600467 0.838372 0.357123
0.602241 0.840147 0.440954
0.603994 0.841899 0.523713
0.605730 0.843636 0.605730
0.607455 0.845360 0.687181
0.609169 0.847075 0.768173
0.610876 0.848782 0.848782
0.612576 0.850481 0.929059
0.615486 0.931969 0.288149
0.617303 0.933786 0.373960
0.619078 0.935561 0.457791
0.620830 0.937313 0.540549
0.622567 0.939050 0.622567
0.624291 0.940774 0.704017
0.626006 0.942489 0.785010
0.627713 0.944196 0.865618
0.629412 0.945895 0.945895
0.562341 0.155278 0.155278
0.564158 0.157095 0.241089
0.565933 0.158869 0.324920
0.567685 0.160622 0.407678
0.569422 0.162358 0.489696
0.571146 0.164083 0.571146
0.572861 0.165797 0.652139
0.574568 0.167504 0.732747
0.576267 0.169204 0.813024
0.580338 0.257269 0.173275
0.582155 0.259086 0.259086
0.583930 0.260861 0.342917
0.585682 0.262613 0.425675
0.587419 0.264349 0.507693
0.589143 0.266074 0.589143
0.590858 0.267789 0.670136
0.592565 0.269495 0.750744
0.594264 0.271195 0.831021
0.597920 0.356907 0.190857
0.599737 0.358724 0.276668
0.601512 0.360499 0.360499
0.603264 0.362251 0.443257
0.605001 0.363987 0.525275
0.606725 0.365712 0.606725
0.608440 0.367427 0.687718
0.610147 0.369133 0.768326
0.611846 0.370833 0.848603
0.615277 0.455270 0.208214
0.617094 0.457087 0.294025
0.618869 0.458862 0.377856
0.620621 0.460614 0.460614
0.622358 0.462351 0.542631
0.624082 0.464075 0.624082
0.625797 0.465790 0.705075
0.627504 0.467497 0.785683
0.629203 0.469196 0.865960
0.632479 0.552753 0.225415
0.634296 0.554569 0.311226
0.636070 0.556344 0.395057
0.637823 0.558096 0.477816
0.639559 0.559833 0.559833
0.641284 0.561557 0.641284
0.642998 0.563272 0.722276
0.644705 0.564979 0.802884
0.646405 0.566679 0.883162
0.649561 0.649561 0.242498
0.651378 0.651378 0.328309
0.653153 0.653153 0.412140
0.654905 0.654905 0.494898
0.656642 0.656642 0.576916
0.658366 0.658366 0.658366
0.660081 0.660081 0.739359
0.661788 0.661788 0.819967
0.663487 0.663487 0.900244
0.666548 0.745826 0.259484
0.668365 0.747643 0.345295
0.670140 0.749417 0.429126
0.671892 0.751170 0.511885
0.673628 0.752906 0.593902
0.675353 0.754631 0.675353
0.677068 0.756345 0.756345
0.678774 0.758052 0.836954
0.680474 0.759752 0.917231
0.683454 0.841633 0.276390
0.685271 0.843450 0.362201
0.687046 0.845225 0.446032
0.688798 0.846977 0.528791
0.690534 0.848714 0.610808
0.692259 0.850438 0.692259
0.693974 0.852153 0.773251
0.695680 0.853859 0.853859
0.697380 0.855559 0.934137
0.700290 0.937047 0.293227
0.702107 0.938864 0.379038
0.703882 0.940639 0.462869
0.705634 0.942391 0.545627
0.707371 0.944128 0.627645
0.709095 0.945852 0.709095
0.710810 0.947567 0.790088
0.712517 0.949274 0.870696
0.714216 0.950973 0.950973
0.646668 0.160327 0.160327
0.648485 0.162144 0.246138
0.650260 0.163919 0.329969
0.652012 0.165671 0.412728
0.653749 0.167408 0.494745
0.655473 0.169132 0.576196
0.657188 0.170847 0.657188
0.658895 0.172554 0.737796
0.660595 0.174253 0.818073
0.664666 0.262318 0.178324
0.666482 0.264135 0.264135
0.668257 0.265910 0.347966
0.670009 0.267662 0.430725
0.671746 0.269399 0.512742
0.673470 0.271123 0.594193
0.675185 0.272838 0.675185
0.676892 0.274545 0.755793
0.678592 0.276244 0.836071
0.682247 0.361956 0.195906
0.684064 0.363773 0.281717
0.685839 0.365548 0.365548
0.687591 0.367300 0.448307
0.689328 0.369037 0.530324
0.691052 0.370761 0.611775
0.692767 0.372476 0.692767
0.694474 0.374183 0.773375
0.696174 0.375883 0.853653
0.699604 0.460320 0.213263
0.701421 0.462137 0.299074
0.703196 0.463911 0.382905
0.704948 0.465664 0.465664
0.706685 0.467400 0.547681
0.708409 0.469125 0.629132
0.710124 0.470839 0.710124
0.711831 0.472546 0.790732
0.713530 0.474246 0.871009
0.716806 0.557802 0.230465
0.718623 0.559619 0.316275
0.720398 0.561394 0.400107
0.722150 0.563146 0.482865
0.723886 0.564882 0.564882
0.725611 0.566607 0.646333
0.727326 0.568322 0.727326
0.729032 0.570028 0.807934
0.730732 0.571728 0.888211
0.733889 0.654611 0.247547
0.735705 0.656428 0.333358
0.737480 0.658203 0.417189
0.739232 0.659955 0.499948
0.740969 0.661691 0.581965
0.742693 0.663416 0.663416
0.744408 0.665131 0.744408
0.746115 0.666837 0.825016
0.747815 0.668537 0.905294
0.750875 0.750875 0.264534
0.752692 0.752692 0.350345
0.754467 0.754467 0.434176
0.756219 0.756219 0.516934
0.757956 0.757956 0.598952
0.759680 0.759680 0.680402
0.761395 0.761395 0.761395
0.763102 0.763102 0.842003
0.764801 0.764801 0.922280
0.767781 0.846682 0.281440
0.769598 0.848499 0.367251
0.771373 0.850274 0.451082
0.773125 0.852026 0.533840
0.774861 0.853763 0.615858
0.776586 0.855487 0.697308
0.778301 0.857202 0.778301
0.780007 0.858909 0.858909
0.781707 0.860609 0.939186
0.784618 0.942097 0.298276
0.786434 0.943913 0.384087
0.788209 0.945688 0.467918
0.789961 0.947440 0.550677
0.791698 0.949177 0.632694
0.793423 0.950901 0.714145
0.795137 0.952616 0.795137
0.796844 0.954323 0.875745
0.798544 0.956023 0.956023
0.730595 0.165353 0.165353
0.732412 0.167169 0.251163
0.734187 0.168944 0.334995
0.735939 0.170697 0.417753
0.737676 0.172433 0.499770
0.739400 0.174158 0.581221
0.741115 0.175872 0.662214
0.742822 0.177579 0.742822
0.744521 0.179279 0.823099
0.748592 0.267344 0.183350
0.750409 0.269161 0.269161
0.752184 0.270935 0.352992
0.753936 0.272688 0.435750
0.755673 0.274424 0.517768
0.757397 0.276149 0.599218
0.759112 0.277863 0.680211
0.760819 0.279570 0.760819
0.762519 0.281270 0.841096
0.766174 0.366982 0.200932
0.767991 0.368799 0.286742
0.769766 0.370574 0.370574
0.771518 0.372326 0.453332
0.773255 0.374062 0.535349
0.774979 0.375787 0.616800
0.776694 0.377502 0.697793
0.778401 0.379208 0.778401
0.780100 0.380908 0.858678
0.783531 0.465345 0.218289
0.785348 0.467162 0.304099
0.787123 0.468937 0.387931
0.788875 0.470689 0.470689
0.790612 0.472426 0.552706
0.792336 0.474150 0.634157
0.794051 0.475865 0.715150
0.795758 0.477572 0.795758
0.797457 0.479271 0.876035
0.800733 0.562827 0.235490
0.802550 0.564644 0.321301
0.804325 0.566419 0.405132
0.806077 0.568171 0.487891
0.807813 0.569908 0.569908
0.809538 0.571632 0.651359
0.811253 0.573347 0.732351
0.812959 0.575054 0.812959
0.814659 0.576753 0.893236
0.817815 0.659636 0.252573
0.819632 0.661453 0.338384
0.821407 0.663228 0.422215
0.823159 0.664980 0.504973
0.824896 0.666717 0.586990
0.826620 0.668441 0.668441
0.828335 0.670156 0.749434
0.830042 0.671863 0.830042
0.831742 0.673562 0.910319
0.834802 0.755901 0.269559
0.836619 0.757717 0.355370
0.838394 0.759492 0.439201
0.840146 0.761244 0.521960
0.841882 0.762981 0.603977
0.843607 0.764705 0.685428
0.845322 0.766420 0.766420
0.847028 0.768127 0.847028
0.848728 0.769827 0.927306
0.851708 0.851708 0.286465
0.853525 0.853525 0.372276
0.855300 0.855300 0.456107
0.857052 0.857052 0.538866
0.858788 0.858788 0.620883
0.860513 0.860513 0.702334
0.862228 0.862228 0.783326
0.863934 0.863934 0.863934
0.865634 0.865634 0.944212
0.868544 0.947122 0.303302
0.870361 0.948939 0.389113
0.872136 0.950714 0.472944
0.873888 0.952466 0.555702
0.875625 0.954202 0.637720
0.877349 0.955927 0.719170
0.879064 0.957642 0.800163
0.880771 0.959348 0.880771
0.882471 0.961048 0.961048
0.814178 0.170357 0.170357
0.815995 0.172174 0.256168
0.817769 0.173949 0.339999
0.819522 0.175701 0.422758
0.821258 0.177438 0.504775
0.822983 0.179162 0.586226
0.824697 0.180877 0.667218
0.826404 0.182584 0.747827
0.828104 0.184283 0.828104
0.832175 0.272349 0.188355
0.833992 0.274165 0.274165
0.835767 0.275940 0.357997
0.837519 0.277692 0.440755
0.839255 0.279429 0.522772
0.840980 0.281153 0.604223
0.842695 0.282868 0.685216
0.844401 0.284575 0.765824
0.846101 0.286275 0.846101
0.849757 0.371987 0.205936
0.851574 0.373804 0.291747
0.853348 0.375578 0.375578
0.855101 0.377331 0.458337
0.856837 0.379067 0.540354
0.858562 0.380792 0.621805
0.860276 0.382506 0.702797
0.861983 0.384213 0.783406
0.863683 0.385913 0.863683
0.867114 0.470350 0.223293
0.868930 0.472167 0.309104
0.870705 0.473942 0.392935
0.872458 0.475694 0.475694
0.874194 0.477430 0.557711
0.875919 0.479155 0.639162
0.877633 0.480870 0.720154
0.879340 0.482576 0.800763
0.881040 0.484276 0.881040
0.884315 0.567832 0.240495
0.886132 0.569649 0.326306
0.887907 0.571424 0.410137
0.889659 0.573176 0.492895
0.891396 0.574913 0.574913
0.893120 0.576637 0.656363
0.894835 0.578352 0.737356
0.896542 0.580059 0.817964
0.898241 0.581758 0.898241
0.901398 0.664641 0.257577
0.903215 0.666458 0.343388
0.904990 0.668233 0.427220
0.906742 0.669985 0.509978
0.908478 0.671722 0.591995
0.910203 0.673446 0.673446
0.911918 0.675161 0.754439
0.913624 0.676867 0.835047
0.915324 0.678567 0.915324
0.918384 0.760905 0.274564
0.920201 0.762722 0.360375
0.921976 0.764497 0.444206
0.923728 0.766249 0.526965
0.925465 0.767986 0.608982
0.927189 0.769710 0.690433
0.928904 0.771425 0.771425
0.930611 0.773132 0.852033
0.932310 0.774831 0.932310
0.935290 0.856713 0.291470
0.937107 0.858530 0.377281
0.938882 0.860304 0.461112
0.940634 0.862057 0.543871
0.942371 0.863793 0.625888
0.944095 0.865518 0.707339
0.945810 0.867233 0.788331
0.947517 0.868939 0.868939
0.949216 0.870639 0.949216
0.952127 0.952127 0.308307
0.953944 0.953944 0.394117
0.955719 0.955719 0.477949
0.957471 0.957471 0.560707
0.959207 0.959207 0.642724
0.960932 0.960932 0.724175
0.962647 0.962647 0.805168
0.964353 0.964353 0.885776
0.966053 0.966053 0.966053
