skills/editops-orchestrator/assets/grade/luts/vintage_fade_v06.cube
TITLE "vintage_fade_v06"
LUT_3D_SIZE 9
DOMAIN_MIN 0.0 0.0 0.0
DOMAIN_MAX 1.0 1.0 1.0
0.062727 0.062727 0.062727
0.063903 0.063903 0.165732
0.065059 0.065059 0.266984
0.066205 0.066205 0.367391
0.067345 0.067345 0.467232
0.068480 0.068480 0.566646
0.069611 0.069611 0.665717
0.070739 0.070739 0.764502
0.071864 0.071864 0.863041
0.074376 0.176205 0.074376
0.075552 0.177381 0.177381
0.076708 0.178537 0.278633
0.077854 0.179683 0.379040
0.078994 0.180823 0.478881
0.080129 0.181958 0.578295
0.081260 0.183089 0.677366
0.082388 0.184217 0.776151
0.083513 0.185342 0.874690
0.085826 0.287752 0.085826
0.087002 0.288928 0.188831
0.088158 0.290084 0.290084
0.089305 0.291230 0.390491
0.090444 0.292370 0.490332
0.091579 0.293505 0.589746
0.092711 0.294636 0.688817
0.093838 0.295764 0.787601
0.094963 0.296889 0.886141
0.097182 0.398368 0.097182
0.098358 0.399544 0.200187
0.099513 0.400700 0.301439
0.100660 0.401846 0.401846
0.101800 0.402986 0.501687
0.102935 0.404121 0.601101
0.104066 0.405252 0.700172
0.105193 0.406380 0.798957
0.106318 0.407505 0.897496
0.108473 0.508360 0.108473
0.109649 0.509536 0.211478
0.110805 0.510692 0.312730
0.111951 0.511838 0.413137
0.113091 0.512978 0.512978
0.114226 0.514113 0.612392
0.115357 0.515244 0.711463
0.116485 0.516372 0.810248
0.117610 0.517497 0.908787
0.119715 0.617882 0.119715
0.120891 0.619057 0.222721
0.122047 0.620213 0.323973
0.123194 0.621360 0.424380
0.124334 0.622500 0.524221
0.125469 0.623635 0.623635
0.126600 0.624766 0.722706
0.127727 0.625893 0.821491
0.128852 0.627018 0.920030
0.130919 0.727026 0.130919
0.132095 0.728201 0.233925
0.133251 0.729357 0.335177
0.134398 0.730504 0.435584
0.135538 0.731644 0.535425
0.136673 0.732779 0.634839
0.137804 0.733910 0.733910
0.138931 0.735037 0.832695
0.140056 0.736162 0.931234
0.142091 0.835854 0.142091
0.143267 0.837030 0.245096
0.144423 0.838186 0.346349
0.145569 0.839333 0.446756
0.146709 0.840472 0.546597
0.147844 0.841607 0.646010
0.148975 0.842738 0.745081
0.150103 0.843866 0.843866
0.151228 0.844991 0.942406
0.153235 0.944413 0.153235
0.154411 0.945589 0.256240
0.155567 0.946745 0.357493
0.156713 0.947891 0.457900
0.157853 0.949031 0.557741
0.158988 0.950166 0.657154
0.160119 0.951297 0.756225
0.161247 0.952425 0.855010
0.162372 0.953550 0.953550
0.168019 0.066189 0.066189
0.169195 0.067365 0.169195
0.170351 0.068521 0.270447
0.171497 0.069668 0.370854
0.172637 0.070808 0.470695
0.173772 0.071943 0.570109
0.174903 0.073074 0.669180
0.176030 0.074201 0.767965
0.177155 0.075326 0.866504
0.179668 0.179668 0.077838
0.180844 0.180844 0.180844
0.181999 0.181999 0.282096
0.183146 0.183146 0.382503
0.184286 0.184286 0.482344
0.185421 0.185421 0.581758
0.186552 0.186552 0.680829
0.187679 0.187679 0.779613
0.188804 0.188804 0.878153
0.191118 0.291215 0.089289
0.192294 0.292391 0.192294
0.193450 0.293547 0.293547
0.194597 0.294693 0.393954
0.195736 0.295833 0.493795
0.196871 0.296968 0.593208
0.198002 0.298099 0.692279
0.199130 0.299227 0.791064
0.200255 0.300352 0.889604
0.202473 0.401831 0.100644
0.203649 0.403007 0.203649
0.204805 0.404163 0.304902
0.205952 0.405309 0.405309
0.207092 0.406449 0.505150
0.208227 0.407584 0.604563
0.209358 0.408715 0.703634
0.210485 0.409843 0.802419
0.211610 0.410968 0.900959
0.213765 0.511823 0.111935
0.214941 0.512999 0.214941
0.216096 0.514155 0.316193
0.217243 0.515301 0.416600
0.218383 0.516441 0.516441
0.219518 0.517576 0.615855
0.220649 0.518707 0.714926
0.221776 0.519835 0.813710
0.222901 0.520960 0.912250
0.225007 0.621344 0.123178
0.226183 0.622520 0.226183
0.227339 0.623676 0.327436
0.228486 0.624823 0.427843
0.229625 0.625962 0.527684
0.230760 0.627097 0.627097
0.231891 0.628228 0.726168
0.233019 0.629356 0.824953
0.234144 0.630481 0.923493
0.236211 0.730488 0.134382
0.237387 0.731664 0.237387
0.238543 0.732820 0.338640
0.239690 0.733967 0.439047
0.240829 0.735106 0.538888
0.241964 0.736241 0.638301
0.243095 0.737372 0.737372
0.244223 0.738500 0.836157
0.245348 0.739625 0.934697
0.247383 0.839317 0.145554
0.248559 0.840493 0.248559
0.249715 0.841649 0.349811
0.250861 0.842795 0.450219
0.252001 0.843935 0.550059
0.253136 0.845070 0.649473
0.254267 0.846201 0.748544
0.255395 0.847329 0.847329
0.256520 0.848454 0.945868
0.258527 0.947875 0.156698
0.259703 0.949051 0.259703
0.260859 0.950207 0.360955
0.262005 0.951354 0.461363
0.263145 0.952494 0.561203
0.264280 0.953629 0.660617
0.265411 0.954760 0.759688
0.266539 0.955887 0.858473
0.267664 0.957012 0.957012
0.271519 0.069593 0.069593
0.272695 0.070769 0.172598
0.273851 0.071925 0.273851
0.274997 0.073072 0.374258
0.276137 0.074211 0.474099
0.277272 0.075346 0.573512
0.278403 0.076477 0.672583
0.279531 0.077605 0.771368
0.280656 0.078730 0.869908
0.283168 0.183071 0.081242
0.284344 0.184247 0.184247
0.285500 0.185403 0.285500
0.286646 0.186550 0.385907
0.287786 0.187689 0.485748
0.288921 0.188824 0.585161
0.290052 0.189955 0.684232
0.291180 0.191083 0.783017
0.292305 0.192208 0.881557
0.294618 0.294618 0.092693
0.295794 0.295794 0.195698
0.296950 0.296950 0.296950
0.298097 0.298097 0.397358
0.299237 0.299237 0.497198
0.300372 0.300372 0.596612
0.301503 0.301503 0.695683
0.302630 0.302630 0.794468
0.303755 0.303755 0.893007
0.305974 0.405235 0.104048
0.307150 0.406411 0.207053
0.308306 0.407567 0.308306
0.309452 0.408713 0.408713
0.310592 0.409853 0.508554
0.311727 0.410988 0.607967
0.312858 0.412119 0.707038
0.313986 0.413247 0.805823
0.315111 0.414372 0.904363
0.317265 0.515227 0.115339
0.318441 0.516403 0.218344
0.319597 0.517559 0.319597
0.320743 0.518705 0.420004
0.321883 0.519845 0.519845
0.323018 0.520980 0.619258
0.324149 0.522111 0.718329
0.325277 0.523239 0.817114
0.326402 0.524364 0.915654
0.328508 0.624748 0.126582
0.329684 0.625924 0.229587
0.330839 0.627080 0.330839
0.331986 0.628226 0.431247
0.333126 0.629366 0.531088
0.334261 0.630501 0.630501
0.335392 0.631632 0.729572
0.336519 0.632760 0.828357
0.337644 0.633885 0.926897
0.339712 0.733892 0.137786
0.340888 0.735068 0.240791
0.342044 0.736224 0.342044
0.343190 0.737370 0.442451
0.344330 0.738510 0.542292
0.345465 0.739645 0.641705
0.346596 0.740776 0.740776
0.347723 0.741904 0.839561
0.348848 0.743029 0.938101
0.350883 0.842721 0.148958
0.352059 0.843897 0.251963
0.353215 0.845053 0.353215
0.354362 0.846199 0.453623
0.355501 0.847339 0.553463
0.356636 0.848474 0.652877
0.357767 0.849605 0.751948
0.358895 0.850733 0.850733
0.360020 0.851858 0.949272
0.362027 0.951279 0.160102
0.363203 0.952455 0.263107
0.364359 0.953611 0.364359
0.365505 0.954758 0.464766
0.366645 0.955897 0.564607
0.367780 0.957032 0.664021
0.368911 0.958163 0.763092
0.370039 0.959291 0.861877
0.371164 0.960416 0.960416
0.374155 0.072969 0.072969
0.375331 0.074145 0.175974
0.376487 0.075301 0.277226
0.377634 0.076447 0.377634
0.378773 0.077587 0.477474
0.379908 0.078722 0.576888
0.381039 0.079853 0.675959
0.382167 0.080981 0.774744
0.383292 0.082106 0.873283
0.385804 0.186447 0.084618
0.386980 0.187623 0.187623
0.388136 0.188779 0.288875
0.389282 0.189925 0.389282
0.390422 0.191065 0.489123
0.391557 0.192200 0.588537
0.392688 0.193331 0.687608
0.393816 0.194459 0.786393
0.394941 0.195584 0.884932
0.397255 0.297994 0.096068
0.398431 0.299170 0.199074
0.399587 0.300326 0.300326
0.400733 0.301472 0.400733
0.401873 0.302612 0.500574
0.403008 0.303747 0.599988
0.404139 0.304878 0.699059
0.405267 0.306006 0.797843
0.406392 0.307131 0.896383
0.408610 0.408610 0.107424
0.409786 0.409786 0.210429
0.410942 0.410942 0.311681
0.412088 0.412088 0.412088
0.413228 0.413228 0.511929
0.414363 0.414363 0.611343
0.415494 0.415494 0.710414
0.416622 0.416622 0.809199
0.417747 0.417747 0.907738
0.419901 0.518602 0.118715
0.421077 0.519778 0.221720
0.422233 0.520934 0.322972
0.423379 0.522080 0.423379
0.424519 0.523220 0.523220
0.425654 0.524355 0.622634
0.426785 0.525486 0.721705
0.427913 0.526614 0.820490
0.429038 0.527739 0.919029
0.431144 0.628124 0.129957
0.432320 0.629300 0.232963
0.433476 0.630455 0.334215
0.434622 0.631602 0.434622
0.435762 0.632742 0.534463
0.436897 0.633877 0.633877
0.438028 0.635008 0.732948
0.439156 0.636135 0.831733
0.440281 0.637260 0.930272
0.442348 0.737268 0.141162
0.443524 0.738444 0.244167
0.444680 0.739599 0.345419
0.445826 0.740746 0.445826
0.446966 0.741886 0.545667
0.448101 0.743021 0.645081
0.449232 0.744152 0.744152
0.450360 0.745279 0.842937
0.451485 0.746404 0.941476
0.453520 0.846096 0.152333
0.454696 0.847272 0.255338
0.455852 0.848428 0.356591
0.456998 0.849575 0.456998
0.458138 0.850714 0.556839
0.459273 0.851849 0.656252
0.460404 0.852980 0.755323
0.461532 0.854108 0.854108
0.462657 0.855233 0.952648
0.464664 0.954655 0.163477
0.465840 0.955831 0.266482
0.466996 0.956987 0.367735
0.468142 0.958133 0.468142
0.469282 0.959273 0.567983
0.470417 0.960408 0.667396
0.471548 0.961539 0.766467
0.472676 0.962667 0.865252
0.473801 0.963792 0.963792
0.476213 0.076325 0.076325
0.477388 0.077501 0.179330
0.478544 0.078657 0.280583
0.479691 0.079803 0.380990
0.480831 0.080943 0.480831
0.481966 0.082078 0.580244
0.483097 0.083209 0.679315
0.484224 0.084337 0.778100
0.485349 0.085462 0.876640
0.487861 0.189803 0.087974
0.489037 0.190979 0.190979
0.490193 0.192135 0.292231
0.491340 0.193281 0.392639
0.492480 0.194421 0.492480
0.493615 0.195556 0.591893
0.494746 0.196687 0.690964
0.495873 0.197815 0.789749
0.496998 0.198940 0.888289
0.499312 0.301350 0.099425
0.500488 0.302526 0.202430
0.501644 0.303682 0.303682
0.502790 0.304829 0.404090
0.503930 0.305968 0.503930
0.505065 0.307103 0.603344
0.506196 0.308234 0.702415
0.507324 0.309362 0.801200
0.508449 0.310487 0.899739
0.510667 0.411967 0.110780
0.511843 0.413142 0.213785
0.512999 0.414298 0.315037
0.514146 0.415445 0.415445
0.515285 0.416585 0.515285
0.516420 0.417720 0.614699
0.517551 0.418851 0.713770
0.518679 0.419978 0.812555
0.519804 0.421103 0.911094
0.521958 0.521958 0.122071
0.523134 0.523134 0.225076
0.524290 0.524290 0.326328
0.525437 0.525437 0.426736
0.526577 0.526577 0.526577
0.527712 0.527712 0.625990
0.528843 0.528843 0.725061
0.529970 0.529970 0.823846
0.531095 0.531095 0.922386
0.533201 0.631480 0.133314
0.534377 0.632656 0.236319
0.535533 0.633812 0.337571
0.536679 0.634958 0.437979
0.537819 0.636098 0.537819
0.538954 0.637233 0.637233
0.540085 0.638364 0.736304
0.541213 0.639492 0.835089
0.542338 0.640617 0.933628
0.544405 0.740624 0.144518
0.545581 0.741800 0.247523
0.546737 0.742956 0.348775
0.547884 0.744102 0.449183
0.549023 0.745242 0.549023
0.550158 0.746377 0.648437
0.551289 0.747508 0.747508
0.552417 0.748636 0.846293
0.553542 0.749761 0.944832
0.555577 0.849453 0.155690
0.556753 0.850629 0.258695
0.557909 0.851785 0.359947
0.559055 0.852931 0.460354
0.560195 0.854071 0.560195
0.561330 0.855206 0.659609
0.562461 0.856337 0.758680
0.563589 0.857465 0.857465
0.564714 0.858590 0.956004
0.566721 0.958011 0.166834
0.567897 0.959187 0.269839
0.569053 0.960343 0.371091
0.570199 0.961489 0.471498
0.571339 0.962629 0.571339
0.572474 0.963764 0.670753
0.573605 0.964895 0.769824
0.574733 0.966023 0.868609
0.575858 0.967148 0.967148
0.577833 0.079667 0.079667
0.579009 0.080843 0.182672
0.580165 0.081999 0.283925
0.581311 0.083145 0.384332
0.582451 0.084285 0.484173
0.583586 0.085420 0.583586
0.584717 0.086551 0.682657
0.585845 0.087679 0.781442
0.586970 0.088804 0.879982
0.589482 0.193145 0.091316
0.590658 0.194321 0.194321
0.591814 0.195477 0.295574
0.592960 0.196623 0.395981
0.594100 0.197763 0.495822
0.595235 0.198898 0.595235
0.596366 0.200029 0.694306
0.597494 0.201157 0.793091
0.598619 0.202282 0.891631
0.600933 0.304692 0.102767
0.602109 0.305868 0.205772
0.603265 0.307024 0.307024
0.604411 0.308171 0.407432
0.605551 0.309310 0.507272
0.606686 0.310445 0.606686
0.607817 0.311576 0.705757
0.608945 0.312704 0.804542
0.610070 0.313829 0.903081
0.612288 0.415309 0.114122
0.613464 0.416485 0.217127
0.614620 0.417640 0.318379
0.615766 0.418787 0.418787
0.616906 0.419927 0.518627
0.618041 0.421062 0.618041
0.619172 0.422193 0.717112
0.620300 0.423320 0.815897
0.621425 0.424445 0.914437
0.623579 0.525300 0.125413
0.624755 0.526476 0.228418
0.625911 0.527632 0.329671
0.627057 0.528779 0.430078
0.628197 0.529919 0.529919
0.629332 0.531054 0.629332
0.630463 0.532185 0.728403
0.631591 0.533312 0.827188
0.632716 0.534437 0.925728
0.634822 0.634822 0.136656
0.635998 0.635998 0.239661
0.637154 0.637154 0.340913
0.638300 0.638300 0.441321
0.639440 0.639440 0.541161
0.640575 0.640575 0.640575
0.641706 0.641706 0.739646
0.642834 0.642834 0.838431
0.643959 0.643959 0.936970
0.646026 0.743966 0.147860
0.647202 0.745142 0.250865
0.648358 0.746298 0.352117
0.649504 0.747444 0.452525
0.650644 0.748584 0.552365
0.651779 0.749719 0.651779
0.652910 0.750850 0.750850
0.654038 0.751978 0.849635
0.655163 0.753103 0.948174
0.657198 0.852795 0.159032
0.658374 0.853971 0.262037
0.659530 0.855127 0.363289
0.660676 0.856273 0.463696
0.661816 0.857413 0.563537
0.662951 0.858548 0.662951
0.664082 0.859679 0.762022
0.665210 0.860807 0.860807
0.666335 0.861932 0.959346
0.668342 0.961353 0.170176
0.669518 0.962529 0.273181
0.670674 0.963685 0.374433
0.671820 0.964831 0.474840
0.672960 0.965971 0.574681
0.674095 0.967106 0.674095
0.675226 0.968237 0.773166
0.676354 0.969365 0.871951
0.677479 0.970490 0.970490
0.679104 0.082998 0.082998
0.680280 0.084174 0.186003
0.681436 0.085330 0.287255
0.682582 0.086476 0.387662
0.683722 0.087616 0.487503
0.684857 0.088751 0.586917
0.685988 0.089882 0.685988
0.687116 0.091010 0.784773
0.688241 0.092135 0.883312
0.690753 0.196476 0.094647
0.691929 0.197652 0.197652
0.693085 0.198808 0.298904
0.694231 0.199954 0.399311
0.695371 0.201094 0.499152
0.696506 0.202229 0.598566
0.697637 0.203360 0.697637
0.698765 0.204488 0.796422
0.699890 0.205613 0.894961
0.702203 0.308023 0.106097
0.703379 0.309199 0.209102
0.704535 0.310355 0.310355
0.705682 0.311501 0.410762
0.706821 0.312641 0.510603
0.707956 0.313776 0.610016
0.709087 0.314907 0.709087
0.710215 0.316035 0.807872
0.711340 0.317160 0.906412
0.713559 0.418639 0.117453
0.714735 0.419815 0.220458
0.715890 0.420971 0.321710
0.717037 0.422117 0.422117
0.718177 0.423257 0.521958
0.719312 0.424392 0.621372
0.720443 0.425523 0.720443
0.721570 0.426651 0.819228
0.722695 0.427776 0.917767
0.724850 0.528631 0.128744
0.726026 0.529807 0.231749
0.727182 0.530963 0.333001
0.728328 0.532109 0.433408
0.729468 0.533249 0.533249
0.730603 0.534384 0.632663
0.731734 0.535515 0.731734
0.732862 0.536643 0.830519
0.733987 0.537768 0.929058
0.736092 0.638152 0.139986
0.737268 0.639328 0.242991
0.738424 0.640484 0.344244
0.739571 0.641631 0.444651
0.740711 0.642771 0.544492
0.741845 0.643906 0.643906
0.742977 0.645037 0.742977
0.744104 0.646164 0.841761
0.745229 0.647289 0.940301
0.747296 0.747296 0.151190
0.748472 0.748472 0.254196
0.749628 0.749628 0.355448
0.750775 0.750775 0.455855
0.751915 0.751915 0.555696
0.753050 0.753050 0.655110
0.754181 0.754181 0.754181
0.755308 0.755308 0.852966
0.756433 0.756433 0.951505
0.758468 0.856125 0.162362
0.759644 0.857301 0.265367
0.760800 0.858457 0.366620
0.761946 0.859604 0.467027
0.763086 0.860743 0.566868
0.764221 0.861878 0.666281
0.765352 0.863009 0.765352
0.766480 0.864137 0.864137
0.767605 0.865262 0.962677
0.769612 0.964684 0.173506
0.770788 0.965860 0.276511
0.771944 0.967016 0.377763
0.773090 0.968162 0.478171
0.774230 0.969302 0.578012
0.775365 0.970437 0.677425
0.776496 0.971568 0.776496
0.777624 0.972696 0.875281
0.778749 0.973821 0.973821
0.780082 0.086319 0.086319
0.781258 0.087495 0.189324
0.782414 0.088650 0.290576
0.783560 0.089797 0.390983
0.784700 0.090937 0.490824
0.785835 0.092072 0.590238
0.786966 0.093203 0.689309
0.788094 0.094330 0.788094
0.789219 0.095455 0.886633
0.791731 0.199797 0.097968
0.792907 0.200973 0.200973
0.794063 0.202129 0.302225
0.795209 0.203275 0.402632
0.796349 0.204415 0.502473
0.797484 0.205550 0.601887
0.798615 0.206681 0.700958
0.799743 0.207809 0.799743
0.800868 0.208934 0.898282
0.803181 0.311344 0.109418
0.804357 0.312520 0.212423
0.805513 0.313676 0.313676
0.806660 0.314822 0.414083
0.807799 0.315962 0.513924
0.808934 0.317097 0.613337
0.810066 0.318228 0.712408
0.811193 0.319356 0.811193
0.812318 0.320481 0.909733
0.814537 0.421960 0.120773
0.815713 0.423136 0.223779
0.816869 0.424292 0.325031
0.818015 0.425438 0.425438
0.819155 0.426578 0.525279
0.820290 0.427713 0.624693
0.821421 0.428844 0.723764
0.822548 0.429972 0.822548
0.823673 0.431097 0.921088
0.825828 0.531952 0.132064
0.827004 0.533128 0.235070
0.828160 0.534284 0.336322
0.829306 0.535430 0.436729
0.830446 0.536570 0.536570
0.831581 0.537705 0.635984
0.832712 0.538836 0.735055
0.833840 0.539964 0.833840
0.834965 0.541089 0.932379
0.837070 0.641473 0.143307
0.838246 0.642649 0.246312
0.839402 0.643805 0.347565
0.840549 0.644952 0.447972
0.841689 0.646091 0.547813
0.842824 0.647226 0.647226
0.843955 0.648357 0.746297
0.845082 0.649485 0.845082
0.846207 0.650610 0.943622
0.848274 0.750617 0.154511
0.849450 0.751793 0.257516
0.850606 0.752949 0.358769
0.851753 0.754096 0.459176
0.852893 0.755235 0.559017
0.854028 0.756370 0.658430
0.855159 0.757501 0.757501
0.856286 0.758629 0.856286
0.857411 0.759754 0.954826
0.859446 0.859446 0.165683
0.860622 0.860622 0.268688
0.861778 0.861778 0.369940
0.862924 0.862924 0.470348
0.864064 0.864064 0.570188
0.865199 0.865199 0.669602
0.866330 0.866330 0.768673
0.867458 0.867458 0.867458
0.868583 0.868583 0.965998
0.870590 0.968005 0.176827
0.871766 0.969181 0.279832
0.872922 0.970336 0.381084
0.874068 0.971483 0.481492
0.875208 0.972623 0.581332
0.876343 0.973758 0.680746
0.877474 0.974889 0.779817
0.878602 0.976016 0.878602
0.879727 0.977141 0.977141
0.880809 0.089631 0.089631
0.881985 0.090807 0.192636
0.883141 0.091963 0.293889
0.884287 0.093109 0.394296
0.885427 0.094249 0.494137
0.886562 0.095384 0.593550
0.887693 0.096515 0.692621
0.888821 0.097643 0.791406
0.889946 0.098768 0.889946
0.892458 0.203109 0.101280
0.893634 0.204285 0.204285
0.894790 0.205441 0.305538
0.895936 0.206588 0.405945
0.897076 0.207727 0.505786
0.898211 0.208862 0.605199
0.899342 0.209993 0.704270
0.900470 0.211121 0.803055
0.901595 0.212246 0.901595
0.903908 0.314656 0.112731
0.905084 0.315832 0.215736
0.906240 0.316988 0.316988
0.907387 0.318135 0.417396
0.908527 0.319274 0.517236
0.909662 0.320409 0.616650
0.910793 0.321540 0.715721
0.911920 0.322668 0.814506
0.913045 0.323793 0.913045
0.915264 0.425273 0.124086
0.916440 0.426449 0.227091
0.917596 0.427605 0.328343
0.918742 0.428751 0.428751
0.919882 0.429891 0.528592
0.921017 0.431026 0.628005
0.922148 0.432157 0.727076
0.923276 0.433284 0.825861
0.924401 0.434409 0.924401
0.926555 0.535265 0.135377
0.927731 0.536440 0.238382
0.928887 0.537596 0.339635
0.930033 0.538743 0.440042
0.931173 0.539883 0.539883
0.932308 0.541018 0.639296
0.933439 0.542149 0.738367
0.934567 0.543276 0.837152
0.935692 0.544401 0.935692
0.937798 0.644786 0.146620
0.938974 0.645962 0.249625
0.940129 0.647118 0.350877
0.941276 0.648264 0.451285
0.942416 0.649404 0.551125
0.943551 0.650539 0.650539
0.944682 0.651670 0.749610
0.945809 0.652798 0.848395
0.946934 0.653923 0.946934
0.949002 0.753930 0.157824
0.950178 0.755106 0.260829
0.951334 0.756262 0.362081
0.952480 0.757408 0.462489
0.953620 0.758548 0.562329
0.954755 0.759683 0.661743
0.955886 0.760814 0.760814
0.957013 0.761942 0.859599
0.958138 0.763067 0.958138
0.960173 0.862759 0.168996
0.961349 0.863935 0.272001
0.962505 0.865091 0.373253
0.963652 0.866237 0.473660
0.964791 0.867377 0.573501
0.965926 0.868512 0.672915
0.967057 0.869643 0.771986
0.968185 0.870771 0.870771
0.969310 0.871896 0.969310
0.971317 0.971317 0.180140
0.972493 0.972493 0.283145
0.973649 0.973649 0.384397
0.974795 0.974795 0.484804
0.975935 0.975935 0.584645
0.977070 0.977070 0.684059
0.978201 0.978201 0.783130
0.979329 0.979329 0.881915
0.980454 0.980454 0.980454
