skills/editops-orchestrator/assets/grade/luts/vintage_fade_v06.cube
TITLE "vintage_fade_v06"
LUT_3D_SIZE 5
DOMAIN_MIN 0.0 0.0 0.0
DOMAIN_MAX 1.0 1.0 1.0
0.062727 0.062727 0.062727
0.065059 0.065059 0.266984
0.067345 0.067345 0.467232
0.069611 0.069611 0.665717
0.071864 0.071864 0.863041
0.085826 0.287752 0.085826
0.088158 0.290084 0.290084
0.090444 0.292370 0.490332
0.092711 0.294636 0.688817
0.094963 0.296889 0.886141
0.108473 0.508360 0.108473
0.110805 0.510692 0.312730
0.113091 0.512978 0.512978
0.115357 0.515244 0.711463
0.117610 0.517497 0.908787
0.130919 0.727026 0.130919
0.133251 0.729357 0.335177
0.135538 0.731644 0.535425
0.137804 0.733910 0.733910
0.140056 0.736162 0.931234
0.153235 0.944413 0.153235
0.155567 0.946745 0.357493
0.157853 0.949031 0.557741
0.160119 0.951297 0.756225
0.162372 0.953550 0.953550
0.271519 0.069593 0.069593
0.273851 0.071925 0.273851
0.276137 0.074211 0.474099
0.278403 0.076477 0.672583
0.280656 0.078730 0.869908
0.294618 0.294618 0.092693
0.296950 0.296950 0.296950
0.299237 0.299237 0.497198
0.301503 0.301503 0.695683
0.303755 0.303755 0.893007
0.317265 0.515227 0.115339
0.319597 0.517559 0.319597
0.321883 0.519845 0.519845
0.324149 0.522111 0.718329
0.326402 0.524364 0.915654
0.339712 0.733892 0.137786
0.342044 0.736224 0.342044
0.344330 0.738510 0.542292
0.346596 0.740776 0.740776
0.348848 0.743029 0.938101
0.362027 0.951279 0.160102
0.364359 0.953611 0.364359
0.366645 0.955897 0.564607
0.368911 0.958163 0.763092
0.371164 0.960416 0.960416
0.476213 0.076325 0.076325
0.478544 0.078657 0.280583
0.480831 0.080943 0.480831
0.483097 0.083209 0.679315
0.485349 0.085462 0.876640
0.499312 0.301350 0.099425
0.501644 0.303682 0.303682
0.503930 0.305968 0.503930
0.506196 0.308234 0.702415
0.508449 0.310487 0.899739
0.521958 0.521958 0.122071
0.524290 0.524290 0.326328
0.526577 0.526577 0.526577
0.528843 0.528843 0.725061
0.531095 0.531095 0.922386
0.544405 0.740624 0.144518
0.546737 0.742956 0.348775
0.549023 0.745242 0.549023
0.551289 0.747508 0.747508
0.553542 0.749761 0.944832
0.566721 0.958011 0.166834
0.569053 0.960343 0.371091
0.571339 0.962629 0.571339
0.573605 0.964895 0.769824
0.575858 0.967148 0.967148
0.679104 0.082998 0.082998
0.681436 0.085330 0.287255
0.683722 0.087616 0.487503
0.685988 0.089882 0.685988
0.688241 0.092135 0.883312
0.702203 0.308023 0.106097
0.704535 0.310355 0.310355
0.706821 0.312641 0.510603
0.709087 0.314907 0.709087
0.711340 0.317160 0.906412
0.724850 0.528631 0.128744
0.727182 0.530963 0.333001
0.729468 0.533249 0.533249
0.731734 0.535515 0.731734
0.733987 0.537768 0.929058
0.747296 0.747296 0.151190
0.749628 0.749628 0.355448
0.751915 0.751915 0.555696
0.754181 0.754181 0.754181
0.756433 0.756433 0.951505
0.769612 0.964684 0.173506
0.771944 0.967016 0.377763
0.774230 0.969302 0.578012
0.776496 0.971568 0.776496
0.778749 0.973821 0.973821
0.880809 0.089631 0.089631
0.883141 0.091963 0.293889
0.885427 0.094249 0.494137
0.887693 0.096515 0.692621
0.889946 0.098768 0.889946
0.903908 0.314656 0.112731
0.906240 0.316988 0.316988
0.908527 0.319274 0.517236
0.910793 0.321540 0.715721
0.913045 0.323793 0.913045
0.926555 0.535265 0.135377
0.928887 0.537596 0.339635
0.931173 0.539883 0.539883
0.933439 0.542149 0.738367
0.935692 0.544401 0.935692
0.949002 0.753930 0.157824
0.951334 0.756262 0.362081
0.953620 0.758548 0.562329
0.955886 0.760814 0.760814
0.958138 0.763067 0.958138
0.971317 0.971317 0.180140
0.973649 0.973649 0.384397
0.975935 0.975935 0.584645
0.978201 0.978201 0.783130
0.980454 0.980454 0.980454
