skills/editops-orchestrator/assets/grade/luts/vintage_fade_v15.cube
TITLE "vintage_fade_v15"
LUT_3D_SIZE 9
DOMAIN_MIN 0.0 0.0 0.0
DOMAIN_MAX 1.0 1.0 1.0
0.137559 0.137559 0.137559
0.139447 0.139447 0.221316
0.141291 0.141291 0.303092
0.143110 0.143110 0.383782
0.144912 0.144912 0.463719
0.146701 0.146701 0.543079
0.148479 0.148479 0.621972
0.150249 0.150249 0.700473
0.152011 0.152011 0.778636
0.156263 0.238132 0.156263
0.158151 0.240021 0.240021
0.159995 0.241864 0.321797
0.161814 0.243683 0.402487
0.163616 0.245485 0.482423
0.165405 0.247274 0.561783
0.167184 0.249053 0.640676
0.168954 0.250823 0.719177
0.170716 0.252585 0.797340
0.174525 0.336327 0.174525
0.176413 0.338215 0.258282
0.178257 0.340059 0.340059
0.180076 0.341878 0.420748
0.181878 0.343680 0.500685
0.183667 0.345469 0.580045
0.185446 0.347247 0.658938
0.187215 0.349017 0.737439
0.188978 0.350779 0.815602
0.192544 0.433217 0.192544
0.194433 0.435105 0.276302
0.196276 0.436949 0.358078
0.198095 0.438768 0.438768
0.199897 0.440570 0.518704
0.201686 0.442359 0.598064
0.203465 0.444138 0.676957
0.205235 0.445907 0.755458
0.206997 0.447669 0.833622
0.210396 0.529203 0.210396
0.212284 0.531091 0.294153
0.214127 0.532934 0.375929
0.215946 0.534753 0.456619
0.217749 0.536555 0.536555
0.219538 0.538345 0.615915
0.221316 0.540123 0.694808
0.223086 0.541893 0.773309
0.224848 0.543655 0.851473
0.228118 0.624496 0.228118
0.230006 0.626384 0.311875
0.231850 0.628227 0.393651
0.233669 0.630046 0.474341
0.235471 0.631849 0.554278
0.237260 0.633638 0.633638
0.239039 0.635416 0.712531
0.240808 0.637186 0.791032
0.242570 0.638948 0.869195
0.245736 0.719228 0.245736
0.247624 0.721116 0.329493
0.249468 0.722960 0.411269
0.251287 0.724779 0.491959
0.253089 0.726581 0.571896
0.254878 0.728370 0.651256
0.256657 0.730149 0.730149
0.258426 0.731918 0.808650
0.260188 0.733681 0.886813
0.263267 0.813490 0.263267
0.265155 0.815378 0.347024
0.266998 0.817222 0.428800
0.268817 0.819041 0.509490
0.270619 0.820843 0.589426
0.272409 0.822632 0.668786
0.274187 0.824411 0.747679
0.275957 0.826180 0.826180
0.277719 0.827942 0.904344
0.280722 0.907346 0.280722
0.282610 0.909235 0.364479
0.284453 0.911078 0.446255
0.286273 0.912897 0.526945
0.288075 0.914699 0.606882
0.289864 0.916488 0.686241
0.291642 0.918267 0.765134
0.293412 0.920037 0.843635
0.295174 0.921799 0.921799
0.224988 0.143119 0.143119
0.226876 0.145007 0.226876
0.228720 0.146851 0.308652
0.230539 0.148670 0.389342
0.232341 0.150472 0.469279
0.234130 0.152261 0.548639
0.235909 0.154039 0.627532
0.237678 0.155809 0.706033
0.239440 0.157571 0.784196
0.243692 0.243692 0.161823
0.245581 0.245581 0.245581
0.247424 0.247424 0.327357
0.249243 0.249243 0.408047
0.251045 0.251045 0.487983
0.252834 0.252834 0.567343
0.254613 0.254613 0.646236
0.256383 0.256383 0.724737
0.258145 0.258145 0.802900
0.261954 0.341887 0.180085
0.263843 0.343775 0.263843
0.265686 0.345619 0.345619
0.267505 0.347438 0.426309
0.269307 0.349240 0.506245
0.271096 0.351029 0.585605
0.272875 0.352807 0.664498
0.274645 0.354577 0.742999
0.276407 0.356339 0.821162
0.279974 0.438777 0.198105
0.281862 0.440665 0.281862
0.283705 0.442509 0.363638
0.285525 0.444328 0.444328
0.287327 0.446130 0.524264
0.289116 0.447919 0.603624
0.290894 0.449698 0.682517
0.292664 0.451467 0.761018
0.294426 0.453229 0.839182
0.297825 0.534763 0.215956
0.299713 0.536651 0.299713
0.301557 0.538494 0.381489
0.303376 0.540313 0.462179
0.305178 0.542116 0.542116
0.306967 0.543905 0.621475
0.308745 0.545683 0.700368
0.310515 0.547453 0.778869
0.312277 0.549215 0.857033
0.315547 0.630056 0.233678
0.317435 0.631944 0.317435
0.319279 0.633787 0.399211
0.321098 0.635607 0.479901
0.322900 0.637409 0.559838
0.324689 0.639198 0.639198
0.326468 0.640976 0.718091
0.328237 0.642746 0.796592
0.330000 0.644508 0.874755
0.333165 0.724788 0.251296
0.335053 0.726676 0.335053
0.336897 0.728520 0.416829
0.338716 0.730339 0.497519
0.340518 0.732141 0.577456
0.342307 0.733930 0.656816
0.344086 0.735709 0.735709
0.345855 0.737478 0.814210
0.347618 0.739241 0.892373
0.350696 0.819050 0.268827
0.352584 0.820938 0.352584
0.354428 0.822782 0.434360
0.356247 0.824601 0.515050
0.358049 0.826403 0.594986
0.359838 0.828192 0.674346
0.361616 0.829971 0.753239
0.363386 0.831740 0.831740
0.365148 0.833502 0.909904
0.368151 0.912907 0.286282
0.370039 0.914795 0.370039
0.371883 0.916638 0.451815
0.373702 0.918457 0.532505
0.375504 0.920259 0.612442
0.377293 0.922049 0.691801
0.379071 0.923827 0.770694
0.380841 0.925597 0.849195
0.382603 0.927359 0.927359
0.310349 0.148547 0.148547
0.312237 0.150436 0.232305
0.314081 0.152279 0.314081
0.315900 0.154098 0.394771
0.317702 0.155900 0.474707
0.319491 0.157689 0.554067
0.321270 0.159468 0.632960
0.323039 0.161238 0.711461
0.324801 0.163000 0.789625
0.329053 0.249121 0.167252
0.330942 0.251009 0.251009
0.332785 0.252853 0.332785
0.334604 0.254672 0.413475
0.336406 0.256474 0.493412
0.338195 0.258263 0.572772
0.339974 0.260042 0.651664
0.341744 0.261811 0.730166
0.343506 0.263573 0.808329
0.347315 0.347315 0.185514
0.349204 0.349204 0.269271
0.351047 0.351047 0.351047
0.352866 0.352866 0.431737
0.354668 0.354668 0.511674
0.356457 0.356457 0.591033
0.358236 0.358236 0.669926
0.360006 0.360006 0.748427
0.361768 0.361768 0.826591
0.365335 0.444206 0.203533
0.367223 0.446094 0.287290
0.369066 0.447937 0.369066
0.370886 0.449756 0.449756
0.372688 0.451558 0.529693
0.374477 0.453348 0.609053
0.376255 0.455126 0.687946
0.378025 0.456896 0.766447
0.379787 0.458658 0.844610
0.383186 0.540191 0.221384
0.385074 0.542079 0.305142
0.386918 0.543923 0.386918
0.388737 0.545742 0.467608
0.390539 0.547544 0.547544
0.392328 0.549333 0.626904
0.394106 0.551112 0.705797
0.395876 0.552881 0.784298
0.397638 0.554644 0.862461
0.400908 0.635484 0.239107
0.402796 0.637372 0.322864
0.404640 0.639216 0.404640
0.406459 0.641035 0.485330
0.408261 0.642837 0.565266
0.410050 0.644626 0.644626
0.411829 0.646405 0.723519
0.413598 0.648175 0.802020
0.415361 0.649937 0.880184
0.418526 0.730217 0.256725
0.420414 0.732105 0.340482
0.422258 0.733948 0.422258
0.424077 0.735768 0.502948
0.425879 0.737570 0.582884
0.427668 0.739359 0.662244
0.429447 0.741137 0.741137
0.431217 0.742907 0.819638
0.432979 0.744669 0.897802
0.436057 0.824479 0.274255
0.437945 0.826367 0.358012
0.439789 0.828210 0.439789
0.441608 0.830029 0.520478
0.443410 0.831831 0.600415
0.445199 0.833621 0.679775
0.446977 0.835399 0.758668
0.448747 0.837169 0.837169
0.450509 0.838931 0.915332
0.453512 0.918335 0.291710
0.455400 0.920223 0.375468
0.457244 0.922067 0.457244
0.459063 0.923886 0.537934
0.460865 0.925688 0.617870
0.462654 0.927477 0.697230
0.464433 0.929256 0.776123
0.466202 0.931025 0.854624
0.467964 0.932787 0.932787
0.394576 0.153904 0.153904
0.396465 0.155792 0.237661
0.398308 0.157636 0.319437
0.400127 0.159455 0.400127
0.401929 0.161257 0.480064
0.403718 0.163046 0.559424
0.405497 0.164824 0.638317
0.407267 0.166594 0.716818
0.409029 0.168356 0.794981
0.413281 0.254477 0.172608
0.415169 0.256366 0.256366
0.417012 0.258209 0.338142
0.418832 0.260028 0.418832
0.420634 0.261830 0.498768
0.422423 0.263619 0.578128
0.424201 0.265398 0.657021
0.425971 0.267168 0.735522
0.427733 0.268930 0.813685
0.431543 0.352672 0.190870
0.433431 0.354560 0.274627
0.435274 0.356404 0.356404
0.437093 0.358223 0.437093
0.438896 0.360025 0.517030
0.440685 0.361814 0.596390
0.442463 0.363592 0.675283
0.444233 0.365362 0.753784
0.445995 0.367124 0.831947
0.449562 0.449562 0.208889
0.451450 0.451450 0.292647
0.453294 0.453294 0.374423
0.455113 0.455113 0.455113
0.456915 0.456915 0.535049
0.458704 0.458704 0.614409
0.460483 0.460483 0.693302
0.462252 0.462252 0.771803
0.464014 0.464014 0.849967
0.467413 0.545548 0.226741
0.469301 0.547436 0.310498
0.471145 0.549279 0.392274
0.472964 0.551098 0.472964
0.474766 0.552900 0.552900
0.476555 0.554690 0.632260
0.478334 0.556468 0.711153
0.480103 0.558238 0.789654
0.481865 0.560000 0.867818
0.485135 0.640841 0.244463
0.487024 0.642729 0.328220
0.488867 0.644572 0.409996
0.490686 0.646391 0.490686
0.492488 0.648194 0.570623
0.494277 0.649983 0.649983
0.496056 0.651761 0.728876
0.497826 0.653531 0.807377
0.499588 0.655293 0.885540
0.502753 0.735573 0.262081
0.504642 0.737461 0.345838
0.506485 0.739305 0.427614
0.508304 0.741124 0.508304
0.510106 0.742926 0.588241
0.511896 0.744715 0.667601
0.513674 0.746494 0.746494
0.515444 0.748263 0.824995
0.517206 0.750026 0.903158
0.520284 0.829835 0.279612
0.522172 0.831723 0.363369
0.524016 0.833567 0.445145
0.525835 0.835386 0.525835
0.527637 0.837188 0.605771
0.529426 0.838977 0.685131
0.531205 0.840756 0.764024
0.532974 0.842525 0.842525
0.534736 0.844287 0.920689
0.537739 0.923691 0.297067
0.539627 0.925580 0.380824
0.541471 0.927423 0.462600
0.543290 0.929242 0.543290
0.545092 0.931044 0.623227
0.546881 0.932833 0.702586
0.548660 0.934612 0.781479
0.550429 0.936382 0.859980
0.552192 0.938144 0.938144
0.478017 0.159210 0.159210
0.479905 0.161098 0.242968
0.481749 0.162942 0.324744
0.483568 0.164761 0.405434
0.485370 0.166563 0.485370
0.487159 0.168352 0.564730
0.488938 0.170131 0.643623
0.490707 0.171901 0.722124
0.492470 0.173663 0.800287
0.496722 0.259784 0.177915
0.498610 0.261672 0.261672
0.500453 0.263516 0.343448
0.502272 0.265335 0.424138
0.504074 0.267137 0.504074
0.505864 0.268926 0.583434
0.507642 0.270704 0.662327
0.509412 0.272474 0.740828
0.511174 0.274236 0.818992
0.514983 0.357978 0.196177
0.516872 0.359866 0.279934
0.518715 0.361710 0.361710
0.520534 0.363529 0.442400
0.522336 0.365331 0.522336
0.524125 0.367120 0.601696
0.525904 0.368899 0.680589
0.527674 0.370668 0.759090
0.529436 0.372431 0.837254
0.533003 0.454868 0.214196
0.534891 0.456757 0.297953
0.536735 0.458600 0.379729
0.538554 0.460419 0.460419
0.540356 0.462221 0.540356
0.542145 0.464010 0.619716
0.543923 0.465789 0.698609
0.545693 0.467559 0.777110
0.547455 0.469321 0.855273
0.550854 0.550854 0.232047
0.552742 0.552742 0.315804
0.554586 0.554586 0.397580
0.556405 0.556405 0.478270
0.558207 0.558207 0.558207
0.559996 0.559996 0.637567
0.561775 0.561775 0.716460
0.563544 0.563544 0.794961
0.565306 0.565306 0.873124
0.568576 0.646147 0.249769
0.570465 0.648035 0.333527
0.572308 0.649879 0.415303
0.574127 0.651698 0.495993
0.575929 0.653500 0.575929
0.577718 0.655289 0.655289
0.579497 0.657068 0.734182
0.581267 0.658837 0.812683
0.583029 0.660599 0.890847
0.586194 0.740880 0.267387
0.588083 0.742768 0.351145
0.589926 0.744611 0.432921
0.591745 0.746430 0.513611
0.593547 0.748232 0.593547
0.595336 0.750022 0.672907
0.597115 0.751800 0.751800
0.598885 0.753570 0.830301
0.600647 0.755332 0.908465
0.603725 0.835141 0.284918
0.605613 0.837030 0.368675
0.607457 0.838873 0.450451
0.609276 0.840692 0.531141
0.611078 0.842494 0.611078
0.612867 0.844283 0.690438
0.614645 0.846062 0.769331
0.616415 0.847832 0.847832
0.618177 0.849594 0.925995
0.621180 0.928998 0.302373
0.623068 0.930886 0.386130
0.624912 0.932730 0.467907
0.626731 0.934549 0.548596
0.628533 0.936351 0.628533
0.630322 0.938140 0.707893
0.632101 0.939918 0.786786
0.633870 0.941688 0.865287
0.635632 0.943450 0.943450
0.560856 0.164478 0.164478
0.562744 0.166367 0.248236
0.564588 0.168210 0.330012
0.566407 0.170029 0.410702
0.568209 0.171831 0.490638
0.569998 0.173620 0.569998
0.571777 0.175399 0.648891
0.573546 0.177169 0.727392
0.575309 0.178931 0.805556
0.579560 0.265052 0.183183
0.581449 0.266940 0.266940
0.583292 0.268784 0.348716
0.585111 0.270603 0.429406
0.586913 0.272405 0.509343
0.588702 0.274194 0.588702
0.590481 0.275972 0.667595
0.592251 0.277742 0.746096
0.594013 0.279504 0.824260
0.597822 0.363246 0.201445
0.599711 0.365135 0.285202
0.601554 0.366978 0.366978
0.603373 0.368797 0.447668
0.605175 0.370599 0.527605
0.606964 0.372388 0.606964
0.608743 0.374167 0.685857
0.610513 0.375937 0.764358
0.612275 0.377699 0.842522
0.615842 0.460137 0.219464
0.617730 0.462025 0.303221
0.619574 0.463868 0.384997
0.621393 0.465687 0.465687
0.623195 0.467489 0.545624
0.624984 0.469279 0.624984
0.626762 0.471057 0.703877
0.628532 0.472827 0.782378
0.630294 0.474589 0.860541
0.633693 0.556122 0.237315
0.635581 0.558010 0.321073
0.637425 0.559854 0.402849
0.639244 0.561673 0.483538
0.641046 0.563475 0.563475
0.642835 0.565264 0.642835
0.644613 0.567043 0.721728
0.646383 0.568812 0.800229
0.648145 0.570574 0.878392
0.651415 0.651415 0.255037
0.653303 0.653303 0.338795
0.655147 0.655147 0.420571
0.656966 0.656966 0.501261
0.658768 0.658768 0.581197
0.660557 0.660557 0.660557
0.662336 0.662336 0.739450
0.664105 0.664105 0.817951
0.665868 0.665868 0.896115
0.669033 0.746148 0.272656
0.670921 0.748036 0.356413
0.672765 0.749879 0.438189
0.674584 0.751699 0.518879
0.676386 0.753501 0.598815
0.678175 0.755290 0.678175
0.679954 0.757068 0.757068
0.681724 0.758838 0.835569
0.683486 0.760600 0.913733
0.686564 0.840410 0.290186
0.688452 0.842298 0.373943
0.690296 0.844141 0.455720
0.692115 0.845960 0.536409
0.693917 0.847762 0.616346
0.695706 0.849552 0.695706
0.697484 0.851330 0.774599
0.699254 0.853100 0.853100
0.701016 0.854862 0.931263
0.704019 0.934266 0.307641
0.705907 0.936154 0.391399
0.707751 0.937998 0.473175
0.709570 0.939817 0.553865
0.711372 0.941619 0.633801
0.713161 0.943408 0.713161
0.714940 0.945187 0.792054
0.716709 0.946956 0.870555
0.718471 0.948718 0.948718
0.643208 0.169716 0.169716
0.645096 0.171604 0.253473
0.646939 0.173447 0.335249
0.648758 0.175266 0.415939
0.650561 0.177068 0.495875
0.652350 0.178858 0.575235
0.654128 0.180636 0.654128
0.655898 0.182406 0.732629
0.657660 0.184168 0.810793
0.661912 0.270289 0.188420
0.663800 0.272177 0.272177
0.665644 0.274021 0.353953
0.667463 0.275840 0.434643
0.669265 0.277642 0.514580
0.671054 0.279431 0.593940
0.672833 0.281210 0.672833
0.674602 0.282979 0.751334
0.676364 0.284741 0.829497
0.680174 0.368483 0.206682
0.682062 0.370372 0.290439
0.683906 0.372215 0.372215
0.685725 0.374034 0.452905
0.687527 0.375836 0.532842
0.689316 0.377625 0.612202
0.691095 0.379404 0.691095
0.692864 0.381174 0.769596
0.694626 0.382936 0.847759
0.698193 0.465374 0.224701
0.700082 0.467262 0.308459
0.701925 0.469105 0.390235
0.703744 0.470924 0.470924
0.705546 0.472727 0.550861
0.707335 0.474516 0.630221
0.709114 0.476294 0.709114
0.710884 0.478064 0.787615
0.712646 0.479826 0.865778
0.716044 0.561359 0.242552
0.717933 0.563247 0.326310
0.719776 0.565091 0.408086
0.721595 0.566910 0.488776
0.723397 0.568712 0.568712
0.725186 0.570501 0.648072
0.726965 0.572280 0.726965
0.728735 0.574050 0.805466
0.730497 0.575812 0.883629
0.733767 0.656652 0.260275
0.735655 0.658541 0.344032
0.737499 0.660384 0.425808
0.739318 0.662203 0.506498
0.741120 0.664005 0.586434
0.742909 0.665794 0.665794
0.744687 0.667573 0.744687
0.746457 0.669343 0.823188
0.748219 0.671105 0.901352
0.751385 0.751385 0.277893
0.753273 0.753273 0.361650
0.755117 0.755117 0.443426
0.756936 0.756936 0.524116
0.758738 0.758738 0.604053
0.760527 0.760527 0.683412
0.762305 0.762305 0.762305
0.764075 0.764075 0.840806
0.765837 0.765837 0.918970
0.768915 0.845647 0.295423
0.770804 0.847535 0.379181
0.772647 0.849378 0.460957
0.774466 0.851198 0.541647
0.776268 0.853000 0.621583
0.778057 0.854789 0.700943
0.779836 0.856567 0.779836
0.781606 0.858337 0.858337
0.783368 0.860099 0.936500
0.786371 0.939503 0.312878
0.788259 0.941391 0.396636
0.790102 0.943235 0.478412
0.791921 0.945054 0.559102
0.793723 0.946856 0.639038
0.795513 0.948645 0.718398
0.797291 0.950424 0.797291
0.799061 0.952193 0.875792
0.800823 0.953956 0.953956
0.725150 0.174927 0.174927
0.727038 0.176815 0.258684
0.728882 0.178658 0.340460
0.730701 0.180478 0.421150
0.732503 0.182280 0.501087
0.734292 0.184069 0.580446
0.736071 0.185847 0.659339
0.737840 0.187617 0.737840
0.739602 0.189379 0.816004
0.743854 0.275500 0.193631
0.745743 0.277388 0.277388
0.747586 0.279232 0.359164
0.749405 0.281051 0.439854
0.751207 0.282853 0.519791
0.752996 0.284642 0.599151
0.754775 0.286421 0.678044
0.756545 0.288190 0.756545
0.758307 0.289953 0.834708
0.762116 0.373695 0.211893
0.764005 0.375583 0.295650
0.765848 0.377426 0.377426
0.767667 0.379245 0.458116
0.769469 0.381048 0.538053
0.771258 0.382837 0.617413
0.773037 0.384615 0.696306
0.774807 0.386385 0.774807
0.776569 0.388147 0.852970
0.780136 0.470585 0.229912
0.782024 0.472473 0.313670
0.783867 0.474317 0.395446
0.785687 0.476136 0.476136
0.787489 0.477938 0.556072
0.789278 0.479727 0.635432
0.791056 0.481505 0.714325
0.792826 0.483275 0.792826
0.794588 0.485037 0.870989
0.797987 0.566570 0.247763
0.799875 0.568459 0.331521
0.801719 0.570302 0.413297
0.803538 0.572121 0.493987
0.805340 0.573923 0.573923
0.807129 0.575712 0.653283
0.808907 0.577491 0.732176
0.810677 0.579261 0.810677
0.812439 0.581023 0.888841
0.815709 0.661863 0.265486
0.817597 0.663752 0.349243
0.819441 0.665595 0.431019
0.821260 0.667414 0.511709
0.823062 0.669216 0.591646
0.824851 0.671005 0.671005
0.826630 0.672784 0.749898
0.828399 0.674554 0.828399
0.830162 0.676316 0.906563
0.833327 0.756596 0.283104
0.835215 0.758484 0.366861
0.837059 0.760328 0.448637
0.838878 0.762147 0.529327
0.840680 0.763949 0.609264
0.842469 0.765738 0.688624
0.844248 0.767517 0.767517
0.846018 0.769286 0.846018
0.847780 0.771048 0.924181
0.850858 0.850858 0.300634
0.852746 0.852746 0.384392
0.854590 0.854590 0.466168
0.856409 0.856409 0.546858
0.858211 0.858211 0.626794
0.860000 0.860000 0.706154
0.861778 0.861778 0.785047
0.863548 0.863548 0.863548
0.865310 0.865310 0.941712
0.868313 0.944714 0.318090
0.870201 0.946602 0.401847
0.872045 0.948446 0.483623
0.873864 0.950265 0.564313
0.875666 0.952067 0.644249
0.877455 0.953856 0.723609
0.879234 0.955635 0.802502
0.881003 0.957405 0.881003
0.882765 0.959167 0.959167
0.806740 0.180115 0.180115
0.808628 0.182004 0.263873
0.810472 0.183847 0.345649
0.812291 0.185666 0.426339
0.814093 0.187468 0.506275
0.815882 0.189257 0.585635
0.817661 0.191036 0.664528
0.819430 0.192806 0.743029
0.821193 0.194568 0.821193
0.825444 0.280689 0.198820
0.827333 0.282577 0.282577
0.829176 0.284421 0.364353
0.830995 0.286240 0.445043
0.832797 0.288042 0.524980
0.834586 0.289831 0.604339
0.836365 0.291609 0.683232
0.838135 0.293379 0.761733
0.839897 0.295141 0.839897
0.843706 0.378883 0.217082
0.845595 0.380772 0.300839
0.847438 0.382615 0.382615
0.849257 0.384434 0.463305
0.851059 0.386236 0.543242
0.852848 0.388025 0.622601
0.854627 0.389804 0.701494
0.856397 0.391574 0.779995
0.858159 0.393336 0.858159
0.861726 0.475773 0.235101
0.863614 0.477662 0.318858
0.865458 0.479505 0.400634
0.867277 0.481324 0.481324
0.869079 0.483126 0.561261
0.870868 0.484915 0.640621
0.872646 0.486694 0.719514
0.874416 0.488464 0.798015
0.876178 0.490226 0.876178
0.879577 0.571759 0.252952
0.881465 0.573647 0.336709
0.883309 0.575491 0.418486
0.885128 0.577310 0.499175
0.886930 0.579112 0.579112
0.888719 0.580901 0.658472
0.890497 0.582680 0.737365
0.892267 0.584449 0.815866
0.894029 0.586211 0.894029
0.897299 0.667052 0.270674
0.899187 0.668940 0.354432
0.901031 0.670784 0.436208
0.902850 0.672603 0.516898
0.904652 0.674405 0.596834
0.906441 0.676194 0.676194
0.908220 0.677973 0.755087
0.909989 0.679742 0.833588
0.911752 0.681505 0.911752
0.914917 0.761785 0.288293
0.916805 0.763673 0.372050
0.918649 0.765516 0.453826
0.920468 0.767335 0.534516
0.922270 0.769138 0.614452
0.924059 0.770927 0.693812
0.925838 0.772705 0.772705
0.927608 0.774475 0.851206
0.929370 0.776237 0.929370
0.932448 0.856046 0.305823
0.934336 0.857935 0.389580
0.936180 0.859778 0.471357
0.937999 0.861597 0.552046
0.939801 0.863399 0.631983
0.941590 0.865189 0.711343
0.943368 0.866967 0.790236
0.945138 0.868737 0.868737
0.946900 0.870499 0.946900
0.949903 0.949903 0.323278
0.951791 0.951791 0.407036
0.953635 0.953635 0.488812
0.955454 0.955454 0.569502
0.957256 0.957256 0.649438
0.959045 0.959045 0.728798
0.960824 0.960824 0.807691
0.962593 0.962593 0.886192
0.964355 0.964355 0.964355
