skills/editops-orchestrator/assets/grade/luts/vintage_fade_v13.cube
TITLE "vintage_fade_v13"
LUT_3D_SIZE 17
DOMAIN_MIN 0.0 0.0 0.0
DOMAIN_MAX 1.0 1.0 1.0
0.121114 0.121114 0.121114
0.121993 0.121993 0.165426
0.122858 0.122858 0.209001
0.123713 0.123713 0.252122
0.124562 0.124562 0.294915
0.125406 0.125406 0.337449
0.126245 0.126245 0.379772
0.127081 0.127081 0.421915
0.127914 0.127914 0.463902
0.128745 0.128745 0.505752
0.129572 0.129572 0.547478
0.130398 0.130398 0.589092
0.131221 0.131221 0.630605
0.132043 0.132043 0.672024
0.132863 0.132863 0.713356
0.133681 0.133681 0.754607
0.134498 0.134498 0.795783
0.129822 0.173255 0.129822
0.130701 0.174134 0.174134
0.131565 0.174998 0.217709
0.132421 0.175854 0.260830
0.133270 0.176703 0.303623
0.134114 0.177546 0.346157
0.134953 0.178386 0.388480
0.135789 0.179222 0.430623
0.136622 0.180055 0.472610
0.137452 0.180885 0.514460
0.138280 0.181713 0.556185
0.139106 0.182538 0.597800
0.139929 0.183362 0.639312
0.140751 0.184184 0.680731
0.141571 0.185004 0.722064
0.142389 0.185822 0.763315
0.143206 0.186639 0.804491
0.138385 0.224528 0.138385
0.139264 0.225407 0.182697
0.140128 0.226272 0.226272
0.140984 0.227127 0.269393
0.141833 0.227976 0.312185
0.142676 0.228820 0.354720
0.143516 0.229660 0.397043
0.144352 0.230496 0.439186
0.145185 0.231328 0.481173
0.146015 0.232159 0.523022
0.146843 0.232986 0.564748
0.147669 0.233812 0.606363
0.148492 0.234636 0.647875
0.149314 0.235457 0.689294
0.150134 0.236277 0.730626
0.150952 0.237095 0.771878
0.151769 0.237912 0.813054
0.146859 0.275268 0.146859
0.147738 0.276147 0.191170
0.148602 0.277011 0.234746
0.149458 0.277867 0.277867
0.150306 0.278716 0.320659
0.151150 0.279560 0.363194
0.151990 0.280399 0.405517
0.152826 0.281235 0.447660
0.153659 0.282068 0.489647
0.154489 0.282898 0.531496
0.155317 0.283726 0.573222
0.156142 0.284552 0.614837
0.156966 0.285375 0.656349
0.157787 0.286197 0.697768
0.158607 0.287017 0.739100
0.159426 0.287835 0.780352
0.160243 0.288652 0.821528
0.155268 0.325621 0.155268
0.156147 0.326500 0.199580
0.157011 0.327364 0.243155
0.157867 0.328219 0.286276
0.158716 0.329068 0.329068
0.159559 0.329912 0.371603
0.160399 0.330752 0.413926
0.161235 0.331588 0.456069
0.162068 0.332421 0.498056
0.162898 0.333251 0.539905
0.163726 0.334079 0.581631
0.164551 0.334904 0.623246
0.165375 0.335728 0.664758
0.166197 0.336549 0.706177
0.167017 0.337369 0.747509
0.167835 0.338188 0.788761
0.168652 0.339005 0.829937
0.163626 0.375670 0.163626
0.164505 0.376549 0.207938
0.165370 0.377413 0.251513
0.166225 0.378269 0.294634
0.167074 0.379118 0.337427
0.167918 0.379962 0.379962
0.168757 0.380801 0.422284
0.169594 0.381637 0.464427
0.170426 0.382470 0.506415
0.171257 0.383300 0.548264
0.172084 0.384128 0.589990
0.172910 0.384954 0.631604
0.173733 0.385777 0.673117
0.174555 0.386599 0.714536
0.175375 0.387419 0.755868
0.176193 0.388237 0.797119
0.177010 0.389054 0.838295
0.171943 0.425470 0.171943
0.172822 0.426349 0.216255
0.173687 0.427214 0.259830
0.174542 0.428069 0.302951
0.175391 0.428918 0.345744
0.176235 0.429762 0.388278
0.177074 0.430601 0.430601
0.177910 0.431437 0.472744
0.178743 0.432270 0.514731
0.179574 0.433100 0.556581
0.180401 0.433928 0.598307
0.181227 0.434754 0.639921
0.182050 0.435577 0.681434
0.182872 0.436399 0.722853
0.183692 0.437219 0.764185
0.184510 0.438037 0.805436
0.185327 0.438854 0.846612
0.180225 0.475059 0.180225
0.181104 0.475938 0.224537
0.181968 0.476802 0.268112
0.182824 0.477658 0.311233
0.183672 0.478506 0.354025
0.184516 0.479350 0.396560
0.185356 0.480190 0.438883
0.186192 0.481026 0.481026
0.187025 0.481859 0.523013
0.187855 0.482689 0.564862
0.188683 0.483517 0.606588
0.189508 0.484342 0.648203
0.190332 0.485166 0.689715
0.191154 0.485987 0.731134
0.191973 0.486807 0.772466
0.192792 0.487626 0.813718
0.193609 0.488443 0.854894
0.188476 0.524464 0.188476
0.189355 0.525343 0.232787
0.190219 0.526207 0.276362
0.191074 0.527063 0.319484
0.191923 0.527911 0.362276
0.192767 0.528755 0.404811
0.193607 0.529595 0.447134
0.194443 0.530431 0.489277
0.195276 0.531264 0.531264
0.196106 0.532094 0.573113
0.196934 0.532922 0.614839
0.197759 0.533747 0.656454
0.198583 0.534571 0.697966
0.199404 0.535393 0.739385
0.200224 0.536212 0.780717
0.201043 0.537031 0.821969
0.201860 0.537848 0.863145
0.196699 0.573707 0.196699
0.197578 0.574586 0.241011
0.198443 0.575450 0.284586
0.199298 0.576305 0.327708
0.200147 0.577154 0.370500
0.200991 0.577998 0.413035
0.201831 0.578838 0.455357
0.202667 0.579674 0.497501
0.203500 0.580507 0.539488
0.204330 0.581337 0.581337
0.205157 0.582165 0.623063
0.205983 0.582990 0.664677
0.206807 0.583814 0.706190
0.207628 0.584635 0.747609
0.208448 0.585455 0.788941
0.209267 0.586274 0.830192
0.210083 0.587091 0.871369
0.204899 0.622804 0.204899
0.205778 0.623683 0.249211
0.206642 0.624548 0.292786
0.207498 0.625403 0.335907
0.208347 0.626252 0.378700
0.209191 0.627096 0.421234
0.210030 0.627936 0.463557
0.210866 0.628772 0.505700
0.211699 0.629605 0.547687
0.212529 0.630435 0.589537
0.213357 0.631263 0.631263
0.214183 0.632088 0.672877
0.215006 0.632912 0.714389
0.215828 0.633733 0.755808
0.216648 0.634553 0.797141
0.217466 0.635372 0.838392
0.218283 0.636188 0.879568
0.213077 0.671771 0.213077
0.213956 0.672650 0.257388
0.214820 0.673514 0.300964
0.215676 0.674370 0.344085
0.216524 0.675219 0.386877
0.217368 0.676063 0.429412
0.218208 0.676902 0.471735
0.219044 0.677738 0.513878
0.219877 0.678571 0.555865
0.220707 0.679401 0.597714
0.221535 0.680229 0.639440
0.222360 0.681055 0.681055
0.223184 0.681878 0.722567
0.224005 0.682700 0.763986
0.224825 0.683520 0.805318
0.225644 0.684338 0.846570
0.226461 0.685155 0.887746
0.221234 0.720618 0.221234
0.222113 0.721497 0.265546
0.222978 0.722361 0.309121
0.223833 0.723216 0.352242
0.224682 0.724065 0.395035
0.225526 0.724909 0.437570
0.226365 0.725749 0.479892
0.227201 0.726585 0.522035
0.228034 0.727418 0.564023
0.228865 0.728248 0.605872
0.229692 0.729076 0.647598
0.230518 0.729901 0.689212
0.231341 0.730725 0.730725
0.232163 0.731546 0.772144
0.232983 0.732366 0.813476
0.233801 0.733185 0.854727
0.234618 0.734002 0.895903
0.229373 0.769354 0.229373
0.230253 0.770233 0.273685
0.231117 0.771098 0.317260
0.231972 0.771953 0.360382
0.232821 0.772802 0.403174
0.233665 0.773646 0.445709
0.234505 0.774485 0.488032
0.235341 0.775321 0.530175
0.236174 0.776154 0.572162
0.237004 0.776984 0.614011
0.237832 0.777812 0.655737
0.238657 0.778638 0.697351
0.239481 0.779461 0.738864
0.240302 0.780283 0.780283
0.241122 0.781103 0.821615
0.241941 0.781921 0.862867
0.242757 0.782738 0.904043
0.237496 0.817988 0.237496
0.238375 0.818868 0.281808
0.239239 0.819732 0.325383
0.240095 0.820587 0.368504
0.240943 0.821436 0.411296
0.241787 0.822280 0.453831
0.242627 0.823120 0.496154
0.243463 0.823956 0.538297
0.244296 0.824789 0.580284
0.245126 0.825619 0.622133
0.245954 0.826447 0.663859
0.246779 0.827272 0.705474
0.247603 0.828096 0.746986
0.248425 0.828917 0.788405
0.249244 0.829737 0.829737
0.250063 0.830556 0.870989
0.250880 0.831372 0.912165
0.245602 0.866528 0.245602
0.246481 0.867407 0.289914
0.247345 0.868271 0.333489
0.248201 0.869127 0.376610
0.249050 0.869976 0.419403
0.249894 0.870820 0.461937
0.250733 0.871659 0.504260
0.251569 0.872495 0.546403
0.252402 0.873328 0.588390
0.253232 0.874158 0.630240
0.254060 0.874986 0.671966
0.254886 0.875812 0.713580
0.255709 0.876635 0.755093
0.256531 0.877457 0.796511
0.257351 0.878277 0.837844
0.258169 0.879095 0.879095
0.258986 0.879912 0.920271
0.253693 0.914979 0.253693
0.254573 0.915858 0.298005
0.255437 0.916722 0.341580
0.256292 0.917578 0.384702
0.257141 0.918427 0.427494
0.257985 0.919270 0.470029
0.258825 0.920110 0.512352
0.259661 0.920946 0.554495
0.260494 0.921779 0.596482
0.261324 0.922609 0.638331
0.262152 0.923437 0.680057
0.262977 0.924262 0.721671
0.263801 0.925086 0.763184
0.264622 0.925908 0.804603
0.265442 0.926727 0.845935
0.266261 0.927546 0.887187
0.267077 0.928363 0.928363
0.167135 0.123703 0.123703
0.168015 0.124582 0.168015
0.168879 0.125446 0.211590
0.169734 0.126302 0.254711
0.170583 0.127150 0.297503
0.171427 0.127994 0.340038
0.172267 0.128834 0.382361
0.173103 0.129670 0.424504
0.173936 0.130503 0.466491
0.174766 0.131333 0.508340
0.175594 0.132161 0.550066
0.176419 0.132986 0.591681
0.177243 0.133810 0.633193
0.178064 0.134632 0.674612
0.178884 0.135451 0.715944
0.179703 0.136270 0.757196
0.180519 0.137087 0.798372
0.175843 0.175843 0.132410
0.176722 0.176722 0.176722
0.177587 0.177587 0.220297
0.178442 0.178442 0.263419
0.179291 0.179291 0.306211
0.180135 0.180135 0.348746
0.180974 0.180974 0.391068
0.181810 0.181810 0.433212
0.182643 0.182643 0.475199
0.183474 0.183474 0.517048
0.184301 0.184301 0.558774
0.185127 0.185127 0.600388
0.185950 0.185950 0.641901
0.186772 0.186772 0.683320
0.187592 0.187592 0.724652
0.188410 0.188410 0.765903
0.189227 0.189227 0.807080
0.184406 0.227117 0.140973
0.185285 0.227996 0.185285
0.186150 0.228860 0.228860
0.187005 0.229716 0.271981
0.187854 0.230565 0.314774
0.188698 0.231408 0.357309
0.189537 0.232248 0.399631
0.190373 0.233084 0.441775
0.191206 0.233917 0.483762
0.192037 0.234747 0.525611
0.192864 0.235575 0.567337
0.193690 0.236400 0.608951
0.194513 0.237224 0.650464
0.195335 0.238046 0.691883
0.196155 0.238866 0.733215
0.196973 0.239684 0.774466
0.197790 0.240501 0.815642
0.192880 0.277856 0.149447
0.193759 0.278735 0.193759
0.194623 0.279600 0.237334
0.195479 0.280455 0.280455
0.196328 0.281304 0.323248
0.197172 0.282148 0.365782
0.198011 0.282988 0.408105
0.198847 0.283824 0.450248
0.199680 0.284657 0.492235
0.200510 0.285487 0.534085
0.201338 0.286314 0.575811
0.202164 0.287140 0.617425
0.202987 0.287964 0.658938
0.203809 0.288785 0.700357
0.204629 0.289605 0.741689
0.205447 0.290423 0.782940
0.206264 0.291240 0.824116
0.201289 0.328209 0.157856
0.202168 0.329088 0.202168
0.203033 0.329952 0.245743
0.203888 0.330808 0.288864
0.204737 0.331657 0.331657
0.205581 0.332501 0.374192
0.206420 0.333340 0.416514
0.207256 0.334176 0.458657
0.208089 0.335009 0.500645
0.208919 0.335839 0.542494
0.209747 0.336667 0.584220
0.210573 0.337493 0.625834
0.211396 0.338316 0.667347
0.212218 0.339138 0.708766
0.213038 0.339958 0.750098
0.213856 0.340776 0.791349
0.214673 0.341593 0.832525
0.209648 0.378258 0.166215
0.210527 0.379137 0.210527
0.211391 0.380002 0.254102
0.212246 0.380857 0.297223
0.213095 0.381706 0.340015
0.213939 0.382550 0.382550
0.214779 0.383390 0.424873
0.215615 0.384226 0.467016
0.216448 0.385059 0.509003
0.217278 0.385889 0.550852
0.218106 0.386717 0.592578
0.218931 0.387542 0.634193
0.219755 0.388366 0.675705
0.220576 0.389187 0.717124
0.221396 0.390007 0.758456
0.222215 0.390826 0.799708
0.223032 0.391642 0.840884
0.217964 0.428058 0.174532
0.218843 0.428938 0.218843
0.219708 0.429802 0.262419
0.220563 0.430657 0.305540
0.221412 0.431506 0.348332
0.222256 0.432350 0.390867
0.223096 0.433190 0.433190
0.223932 0.434026 0.475333
0.224765 0.434859 0.517320
0.225595 0.435689 0.559169
0.226423 0.436517 0.600895
0.227248 0.437342 0.642510
0.228072 0.438166 0.684022
0.228893 0.438987 0.725441
0.229713 0.439807 0.766773
0.230532 0.440626 0.808025
0.231348 0.441442 0.849201
0.226246 0.477647 0.182813
0.227125 0.478526 0.227125
0.227989 0.479391 0.270700
0.228845 0.480246 0.313821
0.229694 0.481095 0.356614
0.230538 0.481939 0.399148
0.231377 0.482778 0.441471
0.232213 0.483614 0.483614
0.233046 0.484447 0.525601
0.233876 0.485277 0.567451
0.234704 0.486105 0.609177
0.235530 0.486931 0.650791
0.236353 0.487754 0.692304
0.237175 0.488576 0.733723
0.237995 0.489396 0.775055
0.238813 0.490214 0.816306
0.239630 0.491031 0.857482
0.234497 0.527052 0.191064
0.235376 0.527931 0.235376
0.236240 0.528796 0.278951
0.237096 0.529651 0.322072
0.237945 0.530500 0.364865
0.238788 0.531344 0.407399
0.239628 0.532183 0.449722
0.240464 0.533019 0.491865
0.241297 0.533852 0.533852
0.242127 0.534682 0.575702
0.242955 0.535510 0.617428
0.243780 0.536336 0.659042
0.244604 0.537159 0.700555
0.245426 0.537981 0.741973
0.246246 0.538801 0.783306
0.247064 0.539619 0.824557
0.247881 0.540436 0.865733
0.242721 0.576295 0.199288
0.243600 0.577174 0.243600
0.244464 0.578039 0.287175
0.245320 0.578894 0.330296
0.246168 0.579743 0.373088
0.247012 0.580587 0.415623
0.247852 0.581426 0.457946
0.248688 0.582262 0.500089
0.249521 0.583095 0.542076
0.250351 0.583925 0.583925
0.251179 0.584753 0.625651
0.252004 0.585579 0.667266
0.252828 0.586402 0.708778
0.253649 0.587224 0.750197
0.254469 0.588044 0.791529
0.255288 0.588862 0.832781
0.256105 0.589679 0.873957
0.250920 0.625393 0.207487
0.251799 0.626272 0.251799
0.252664 0.627136 0.295374
0.253519 0.627992 0.338496
0.254368 0.628841 0.381288
0.255212 0.629684 0.423823
0.256051 0.630524 0.466146
0.256887 0.631360 0.508289
0.257720 0.632193 0.550276
0.258551 0.633023 0.592125
0.259378 0.633851 0.633851
0.260204 0.634677 0.675465
0.261027 0.635500 0.716978
0.261849 0.636322 0.758397
0.262669 0.637142 0.799729
0.263487 0.637960 0.840981
0.264304 0.638777 0.882157
0.259098 0.674359 0.215665
0.259977 0.675238 0.259977
0.260841 0.676103 0.303552
0.261697 0.676958 0.346673
0.262546 0.677807 0.389466
0.263389 0.678651 0.432000
0.264229 0.679491 0.474323
0.265065 0.680327 0.516466
0.265898 0.681160 0.558453
0.266728 0.681990 0.600303
0.267556 0.682817 0.642029
0.268382 0.683643 0.683643
0.269205 0.684467 0.725156
0.270027 0.685288 0.766574
0.270847 0.686108 0.807907
0.271665 0.686926 0.849158
0.272482 0.687743 0.890334
0.267255 0.723206 0.223823
0.268135 0.724085 0.268135
0.268999 0.724950 0.311710
0.269854 0.725805 0.354831
0.270703 0.726654 0.397623
0.271547 0.727498 0.440158
0.272387 0.728337 0.482481
0.273223 0.729173 0.524624
0.274056 0.730006 0.566611
0.274886 0.730836 0.608460
0.275714 0.731664 0.650186
0.276539 0.732490 0.691801
0.277363 0.733313 0.733313
0.278184 0.734135 0.774732
0.279004 0.734955 0.816064
0.279823 0.735773 0.857316
0.280639 0.736590 0.898492
0.275395 0.771942 0.231962
0.276274 0.772822 0.276274
0.277138 0.773686 0.319849
0.277994 0.774541 0.362970
0.278843 0.775390 0.405763
0.279686 0.776234 0.448297
0.280526 0.777074 0.490620
0.281362 0.777910 0.532763
0.282195 0.778743 0.574750
0.283025 0.779573 0.616599
0.283853 0.780401 0.658325
0.284678 0.781226 0.699940
0.285502 0.782050 0.741452
0.286324 0.782871 0.782871
0.287144 0.783691 0.824204
0.287962 0.784510 0.865455
0.288779 0.785326 0.906631
0.283517 0.820577 0.240084
0.284396 0.821456 0.284396
0.285260 0.822320 0.327971
0.286116 0.823176 0.371092
0.286965 0.824025 0.413885
0.287809 0.824869 0.456419
0.288648 0.825708 0.498742
0.289484 0.826544 0.540885
0.290317 0.827377 0.582872
0.291147 0.828207 0.624722
0.291975 0.829035 0.666448
0.292801 0.829861 0.708062
0.293624 0.830684 0.749575
0.294446 0.831506 0.790994
0.295266 0.832326 0.832326
0.296084 0.833144 0.873577
0.296901 0.833961 0.914753
0.291623 0.869116 0.248190
0.292502 0.869995 0.292502
0.293367 0.870860 0.336077
0.294222 0.871715 0.379199
0.295071 0.872564 0.421991
0.295915 0.873408 0.464526
0.296754 0.874248 0.506849
0.297590 0.875084 0.548992
0.298423 0.875917 0.590979
0.299254 0.876747 0.632828
0.300081 0.877575 0.674554
0.300907 0.878400 0.716168
0.301730 0.879224 0.757681
0.302552 0.880045 0.799100
0.303372 0.880865 0.840432
0.304190 0.881684 0.881684
0.305007 0.882500 0.922860
0.299715 0.917567 0.256282
0.300594 0.918446 0.300594
0.301458 0.919311 0.344169
0.302314 0.920166 0.387290
0.303163 0.921015 0.430083
0.304006 0.921859 0.472617
0.304846 0.922698 0.514940
0.305682 0.923534 0.557083
0.306515 0.924367 0.599070
0.307345 0.925198 0.640920
0.308173 0.926025 0.682646
0.308998 0.926851 0.724260
0.309822 0.927674 0.765772
0.310644 0.928496 0.807191
0.311464 0.929316 0.848524
0.312282 0.930134 0.889775
0.313099 0.930951 0.930951
0.212392 0.126248 0.126248
0.213271 0.127127 0.170560
0.214135 0.127992 0.214135
0.214990 0.128847 0.257256
0.215839 0.129696 0.300049
0.216683 0.130540 0.342583
0.217523 0.131379 0.384906
0.218359 0.132215 0.427049
0.219192 0.133048 0.469036
0.220022 0.133878 0.510886
0.220850 0.134706 0.552612
0.221675 0.135532 0.594226
0.222499 0.136355 0.635739
0.223320 0.137177 0.677157
0.224140 0.137997 0.718490
0.224959 0.138815 0.759741
0.225775 0.139632 0.800917
0.221099 0.178389 0.134956
0.221978 0.179268 0.179268
0.222843 0.180132 0.222843
0.223698 0.180988 0.265964
0.224547 0.181836 0.308756
0.225391 0.182680 0.351291
0.226230 0.183520 0.393614
0.227066 0.184356 0.435757
0.227899 0.185189 0.477744
0.228730 0.186019 0.519593
0.229557 0.186847 0.561319
0.230383 0.187672 0.602934
0.231206 0.188496 0.644446
0.232028 0.189317 0.685865
0.232848 0.190137 0.727197
0.233666 0.190956 0.768449
0.234483 0.191773 0.809625
0.229662 0.229662 0.143519
0.230541 0.230541 0.187831
0.231406 0.231406 0.231406
0.232261 0.232261 0.274527
0.233110 0.233110 0.317319
0.233954 0.233954 0.359854
0.234793 0.234793 0.402177
0.235629 0.235629 0.444320
0.236462 0.236462 0.486307
0.237293 0.237293 0.528156
0.238120 0.238120 0.569882
0.238946 0.238946 0.611497
0.239769 0.239769 0.653009
0.240591 0.240591 0.694428
0.241411 0.241411 0.735760
0.242229 0.242229 0.777012
0.243046 0.243046 0.818188
0.238136 0.280402 0.151992
0.239015 0.281281 0.196304
0.239879 0.282145 0.239879
0.240735 0.283001 0.283001
0.241584 0.283850 0.325793
0.242428 0.284693 0.368328
0.243267 0.285533 0.410651
0.244103 0.286369 0.452794
0.244936 0.287202 0.494781
0.245766 0.288032 0.536630
0.246594 0.288860 0.578356
0.247420 0.289685 0.619970
0.248243 0.290509 0.661483
0.249065 0.291331 0.702902
0.249885 0.292151 0.744234
0.250703 0.292969 0.785486
0.251520 0.293786 0.826662
0.246545 0.330754 0.160402
0.247424 0.331633 0.204714
0.248289 0.332498 0.248289
0.249144 0.333353 0.291410
0.249993 0.334202 0.334202
0.250837 0.335046 0.376737
0.251676 0.335886 0.419060
0.252512 0.336722 0.461203
0.253345 0.337555 0.503190
0.254175 0.338385 0.545039
0.255003 0.339213 0.586765
0.255829 0.340038 0.628380
0.256652 0.340862 0.669892
0.257474 0.341683 0.711311
0.258294 0.342503 0.752643
0.259112 0.343322 0.793895
0.259929 0.344138 0.835071
0.254904 0.380804 0.168760
0.255783 0.381683 0.213072
0.256647 0.382547 0.256647
0.257502 0.383403 0.299768
0.258351 0.384252 0.342561
0.259195 0.385095 0.385095
0.260035 0.385935 0.427418
0.260871 0.386771 0.469561
0.261704 0.387604 0.511548
0.262534 0.388434 0.553398
0.263362 0.389262 0.595124
0.264187 0.390087 0.636738
0.265011 0.390911 0.678251
0.265832 0.391733 0.719670
0.266652 0.392553 0.761002
0.267471 0.393371 0.802253
0.268288 0.394188 0.843429
0.263220 0.430604 0.177077
0.264099 0.431483 0.221389
0.264964 0.432347 0.264964
0.265819 0.433203 0.308085
0.266668 0.434052 0.350878
0.267512 0.434896 0.393412
0.268352 0.435735 0.435735
0.269188 0.436571 0.477878
0.270021 0.437404 0.519865
0.270851 0.438234 0.561715
0.271679 0.439062 0.603441
0.272504 0.439888 0.645055
0.273328 0.440711 0.686568
0.274149 0.441533 0.727986
0.274969 0.442353 0.769319
0.275788 0.443171 0.810570
0.276604 0.443988 0.851746
0.271502 0.480192 0.185359
0.272381 0.481072 0.229670
0.273245 0.481936 0.273245
0.274101 0.482791 0.316367
0.274950 0.483640 0.359159
0.275794 0.484484 0.401694
0.276633 0.485324 0.444017
0.277469 0.486160 0.486160
0.278302 0.486993 0.528147
0.279132 0.487823 0.569996
0.279960 0.488651 0.611722
0.280786 0.489476 0.653337
0.281609 0.490300 0.694849
0.282431 0.491121 0.736268
0.283251 0.491941 0.777600
0.284069 0.492760 0.818852
0.284886 0.493576 0.860028
0.279753 0.529598 0.193609
0.280632 0.530477 0.237921
0.281496 0.531341 0.281496
0.282352 0.532196 0.324618
0.283201 0.533045 0.367410
0.284044 0.533889 0.409945
0.284884 0.534729 0.452268
0.285720 0.535565 0.494411
0.286553 0.536398 0.536398
0.287383 0.537228 0.578247
0.288211 0.538056 0.619973
0.289037 0.538881 0.661587
0.289860 0.539705 0.703100
0.290682 0.540526 0.744519
0.291502 0.541346 0.785851
0.292320 0.542165 0.827103
0.293137 0.542982 0.868279
0.287977 0.578840 0.201833
0.288856 0.579719 0.246145
0.289720 0.580584 0.289720
0.290576 0.581439 0.332841
0.291425 0.582288 0.375634
0.292268 0.583132 0.418169
0.293108 0.583972 0.460491
0.293944 0.584808 0.502634
0.294777 0.585641 0.544622
0.295607 0.586471 0.586471
0.296435 0.587299 0.628197
0.297260 0.588124 0.669811
0.298084 0.588948 0.711324
0.298906 0.589769 0.752743
0.299725 0.590589 0.794075
0.300544 0.591408 0.835326
0.301361 0.592224 0.876502
0.296176 0.627938 0.210033
0.297055 0.628817 0.254345
0.297920 0.629682 0.297920
0.298775 0.630537 0.341041
0.299624 0.631386 0.383833
0.300468 0.632230 0.426368
0.301307 0.633069 0.468691
0.302144 0.633905 0.510834
0.302976 0.634738 0.552821
0.303807 0.635569 0.594670
0.304634 0.636396 0.636396
0.305460 0.637222 0.678011
0.306283 0.638045 0.719523
0.307105 0.638867 0.760942
0.307925 0.639687 0.802274
0.308743 0.640505 0.843526
0.309560 0.641322 0.884702
0.304354 0.676905 0.218210
0.305233 0.677784 0.262522
0.306097 0.678648 0.306097
0.306953 0.679504 0.349219
0.307802 0.680353 0.392011
0.308646 0.681196 0.434546
0.309485 0.682036 0.476869
0.310321 0.682872 0.519012
0.311154 0.683705 0.560999
0.311984 0.684535 0.602848
0.312812 0.685363 0.644574
0.313638 0.686188 0.686188
0.314461 0.687012 0.727701
0.315283 0.687834 0.769120
0.316103 0.688654 0.810452
0.316921 0.689472 0.851704
0.317738 0.690289 0.892880
0.312512 0.725751 0.226368
0.313391 0.726631 0.270680
0.314255 0.727495 0.314255
0.315110 0.728350 0.357376
0.315959 0.729199 0.400169
0.316803 0.730043 0.442703
0.317643 0.730883 0.485026
0.318479 0.731719 0.527169
0.319312 0.732552 0.569156
0.320142 0.733382 0.611006
0.320970 0.734210 0.652732
0.321795 0.735035 0.694346
0.322619 0.735859 0.735859
0.323440 0.736680 0.777278
0.324260 0.737500 0.818610
0.325079 0.738319 0.859861
0.325896 0.739135 0.901037
0.320651 0.774488 0.234507
0.321530 0.775367 0.278819
0.322394 0.776231 0.322394
0.323250 0.777087 0.365516
0.324099 0.777936 0.408308
0.324942 0.778780 0.450843
0.325782 0.779619 0.493165
0.326618 0.780455 0.535309
0.327451 0.781288 0.577296
0.328281 0.782118 0.619145
0.329109 0.782946 0.660871
0.329934 0.783772 0.702485
0.330758 0.784595 0.743998
0.331580 0.785417 0.785417
0.332400 0.786237 0.826749
0.333218 0.787055 0.868000
0.334035 0.787872 0.909177
0.328773 0.823122 0.242630
0.329652 0.824001 0.286941
0.330516 0.824866 0.330516
0.331372 0.825721 0.373638
0.332221 0.826570 0.416430
0.333065 0.827414 0.458965
0.333904 0.828254 0.501288
0.334740 0.829090 0.543431
0.335573 0.829923 0.585418
0.336403 0.830753 0.627267
0.337231 0.831580 0.668993
0.338057 0.832406 0.710608
0.338880 0.833230 0.752120
0.339702 0.834051 0.793539
0.340522 0.834871 0.834871
0.341340 0.835689 0.876123
0.342157 0.836506 0.917299
0.336879 0.871662 0.250736
0.337758 0.872541 0.295048
0.338623 0.873405 0.338623
0.339478 0.874261 0.381744
0.340327 0.875110 0.424536
0.341171 0.875953 0.467071
0.342011 0.876793 0.509394
0.342847 0.877629 0.551537
0.343679 0.878462 0.593524
0.344510 0.879292 0.635373
0.345337 0.880120 0.677099
0.346163 0.880945 0.718714
0.346986 0.881769 0.760226
0.347808 0.882591 0.801645
0.348628 0.883411 0.842977
0.349446 0.884229 0.884229
0.350263 0.885046 0.925405
0.344971 0.920113 0.258827
0.345850 0.920992 0.303139
0.346714 0.921856 0.346714
0.347570 0.922711 0.389836
0.348419 0.923560 0.432628
0.349262 0.924404 0.475163
0.350102 0.925244 0.517485
0.350938 0.926080 0.559629
0.351771 0.926913 0.601616
0.352601 0.927743 0.643465
0.353429 0.928571 0.685191
0.354254 0.929396 0.726805
0.355078 0.930220 0.768318
0.355900 0.931041 0.809737
0.356720 0.931861 0.851069
0.357538 0.932680 0.892320
0.358355 0.933497 0.933497
0.257176 0.128767 0.128767
0.258055 0.129646 0.173079
0.258920 0.130510 0.216654
0.259775 0.131366 0.259775
0.260624 0.132215 0.302568
0.261468 0.133059 0.345102
0.262307 0.133898 0.387425
0.263143 0.134734 0.429568
0.263976 0.135567 0.471555
0.264807 0.136397 0.513405
0.265634 0.137225 0.555131
0.266460 0.138051 0.596745
0.267283 0.138874 0.638258
0.268105 0.139696 0.679676
0.268925 0.140516 0.721009
0.269743 0.141334 0.762260
0.270560 0.142151 0.803436
0.265884 0.180908 0.137475
