skills/editops-orchestrator/assets/grade/luts/vintage_fade_v01.cube
TITLE "vintage_fade_v01"
LUT_3D_SIZE 9
DOMAIN_MIN 0.0 0.0 0.0
DOMAIN_MAX 1.0 1.0 1.0
0.020367 0.020367 0.020367
0.021080 0.021080 0.134688
0.021785 0.021785 0.247697
0.022486 0.022486 0.360142
0.023186 0.023186 0.472216
0.023883 0.023883 0.584013
0.024579 0.024579 0.695588
0.025274 0.025274 0.806980
0.025968 0.025968 0.918214
0.027432 0.141040 0.027432
0.028145 0.141753 0.141753
0.028850 0.142458 0.254763
0.029552 0.143160 0.367208
0.030251 0.143859 0.479281
0.030949 0.144556 0.591078
0.031645 0.145252 0.702654
0.032340 0.145947 0.814045
0.033034 0.146641 0.925279
0.034416 0.260329 0.034416
0.035130 0.261042 0.148737
0.035835 0.261747 0.261747
0.036536 0.262449 0.374192
0.037235 0.263148 0.486266
0.037933 0.263845 0.598063
0.038629 0.264541 0.709638
0.039324 0.265236 0.821030
0.040018 0.265930 0.932263
0.041366 0.379021 0.041366
0.042079 0.379735 0.155687
0.042784 0.380440 0.268696
0.043486 0.381141 0.381141
0.044185 0.381841 0.493215
0.044882 0.382538 0.605012
0.045579 0.383234 0.716588
0.046274 0.383929 0.827979
0.046968 0.384623 0.939213
0.048292 0.497323 0.048292
0.049006 0.498036 0.162613
0.049711 0.498741 0.275623
0.050412 0.499443 0.388068
0.051111 0.500142 0.500142
0.051809 0.500839 0.611939
0.052505 0.501535 0.723514
0.053200 0.502230 0.834906
0.053894 0.502924 0.946139
0.055202 0.615331 0.055202
0.055915 0.616045 0.169523
0.056620 0.616750 0.282532
0.057322 0.617451 0.394977
0.058021 0.618151 0.507051
0.058718 0.618848 0.618848
0.059415 0.619544 0.730424
0.060110 0.620239 0.841815
0.060804 0.620933 0.953049
0.062098 0.733107 0.062098
0.062811 0.733820 0.176419
0.063516 0.734525 0.289428
0.064217 0.735227 0.401873
0.064917 0.735926 0.513947
0.065614 0.736623 0.625744
0.066310 0.737319 0.737319
0.067005 0.738014 0.848711
0.067699 0.738708 0.959945
0.068982 0.850687 0.068982
0.069695 0.851401 0.183303
0.070400 0.852106 0.296312
0.071102 0.852807 0.408757
0.071801 0.853507 0.520831
0.072499 0.854204 0.632628
0.073195 0.854900 0.744204
0.073890 0.855595 0.855595
0.074584 0.856289 0.966829
0.075856 0.968102 0.075856
0.076570 0.968815 0.190177
0.077275 0.969520 0.303187
0.077976 0.970222 0.415632
0.078676 0.970921 0.527706
0.079373 0.971618 0.639503
0.080069 0.972315 0.751078
0.080764 0.973010 0.862470
0.081458 0.973704 0.973704
0.136075 0.022467 0.022467
0.136788 0.023180 0.136788
0.137493 0.023885 0.249797
0.138194 0.024587 0.362242
0.138894 0.025286 0.474316
0.139591 0.025983 0.586113
0.140287 0.026680 0.697689
0.140982 0.027375 0.809080
0.141676 0.028069 0.920314
0.143140 0.143140 0.029532
0.143853 0.143853 0.143853
0.144558 0.144558 0.256863
0.145260 0.145260 0.369308
0.145959 0.145959 0.481382
0.146657 0.146657 0.593179
0.147353 0.147353 0.704754
0.148048 0.148048 0.816146
0.148742 0.148742 0.927379
0.150124 0.262429 0.036517
0.150838 0.263142 0.150838
0.151543 0.263847 0.263847
0.152244 0.264549 0.376292
0.152943 0.265248 0.488366
0.153641 0.265946 0.600163
0.154337 0.266642 0.711739
0.155032 0.267337 0.823130
0.155726 0.268031 0.934364
0.157074 0.381122 0.043466
0.157787 0.381835 0.157787
0.158492 0.382540 0.270797
0.159194 0.383242 0.383242
0.159893 0.383941 0.495316
0.160590 0.384638 0.607112
0.161287 0.385334 0.718688
0.161982 0.386029 0.830079
0.162676 0.386723 0.941313
0.164000 0.499423 0.050393
0.164714 0.500136 0.164714
0.165419 0.500841 0.277723
0.166120 0.501543 0.390168
0.166819 0.502242 0.502242
0.167517 0.502940 0.614039
0.168213 0.503636 0.725615
0.168908 0.504331 0.837006
0.169602 0.505025 0.948240
0.170910 0.617432 0.057302
0.171623 0.618145 0.171623
0.172328 0.618850 0.284633
0.173030 0.619552 0.397078
0.173729 0.620251 0.509151
0.174426 0.620948 0.620948
0.175123 0.621644 0.732524
0.175818 0.622339 0.843915
0.176512 0.623033 0.955149
0.177806 0.735207 0.064198
0.178519 0.735920 0.178519
0.179224 0.736625 0.291528
0.179925 0.737327 0.403973
0.180625 0.738026 0.516047
0.181322 0.738724 0.627844
0.182018 0.739420 0.739420
0.182713 0.740115 0.850811
0.183407 0.740809 0.962045
0.184690 0.852788 0.071082
0.185403 0.853501 0.185403
0.186108 0.854206 0.298413
0.186810 0.854908 0.410858
0.187509 0.855607 0.522932
0.188207 0.856304 0.634728
0.188903 0.857001 0.746304
0.189598 0.857696 0.857696
0.190292 0.858390 0.968929
0.191564 0.970202 0.077957
0.192278 0.970915 0.192278
0.192983 0.971620 0.305287
0.193684 0.972322 0.417732
0.194384 0.973021 0.529806
0.195081 0.973719 0.641603
0.195777 0.974415 0.753179
0.196472 0.975110 0.864570
0.197166 0.975804 0.975804
0.250455 0.024543 0.024543
0.251169 0.025256 0.138864
0.251874 0.025961 0.251874
0.252575 0.026663 0.364319
0.253274 0.027362 0.476392
0.253972 0.028060 0.588189
0.254668 0.028756 0.699765
0.255363 0.029451 0.811156
0.256057 0.030145 0.922390
0.257521 0.145216 0.031608
0.258234 0.145929 0.145929
0.258939 0.146634 0.258939
0.259641 0.147336 0.371384
0.260340 0.148035 0.483458
0.261037 0.148733 0.595255
0.261733 0.149429 0.706830
0.262428 0.150124 0.818222
0.263122 0.150818 0.929456
0.264505 0.264505 0.038593
0.265218 0.265218 0.152914
0.265923 0.265923 0.265923
0.266625 0.266625 0.378368
0.267324 0.267324 0.490442
0.268022 0.268022 0.602239
0.268718 0.268718 0.713815
0.269413 0.269413 0.825206
0.270107 0.270107 0.936440
0.271455 0.383198 0.045542
0.272168 0.383911 0.159863
0.272873 0.384616 0.272873
0.273574 0.385318 0.385318
0.274274 0.386017 0.497392
0.274971 0.386715 0.609189
0.275667 0.387411 0.720764
0.276362 0.388106 0.832156
0.277056 0.388800 0.943389
0.278381 0.501499 0.052469
0.279094 0.502212 0.166790
0.279799 0.502917 0.279799
0.280501 0.503619 0.392244
0.281200 0.504318 0.504318
0.281898 0.505016 0.616115
0.282594 0.505712 0.727691
0.283289 0.506407 0.839082
0.283983 0.507101 0.950316
0.285290 0.619508 0.059378
0.286004 0.620221 0.173699
0.286709 0.620926 0.286709
0.287410 0.621628 0.399154
0.288110 0.622327 0.511228
0.288807 0.623024 0.623024
0.289503 0.623721 0.734600
0.290198 0.624416 0.845992
0.290892 0.625110 0.957225
0.292186 0.737283 0.066274
0.292899 0.737996 0.180595
0.293605 0.738701 0.293605
0.294306 0.739403 0.406049
0.295005 0.740102 0.518123
0.295703 0.740800 0.629920
0.296399 0.741496 0.741496
0.297094 0.742191 0.852887
0.297788 0.742885 0.964121
0.299071 0.854864 0.073158
0.299784 0.855577 0.187479
0.300489 0.856282 0.300489
0.301190 0.856984 0.412934
0.301890 0.857683 0.525008
0.302587 0.858381 0.636805
0.303283 0.859077 0.748380
0.303978 0.859772 0.859772
0.304672 0.860466 0.971005
0.305945 0.972278 0.080033
0.306658 0.972992 0.194354
0.307364 0.973697 0.307364
0.308065 0.974398 0.419808
0.308764 0.975097 0.531882
0.309462 0.975795 0.643679
0.310158 0.976491 0.755255
0.310853 0.977186 0.866646
0.311547 0.977880 0.977880
0.364264 0.026609 0.026609
0.364978 0.027322 0.140930
0.365683 0.028027 0.253939
0.366384 0.028729 0.366384
0.367084 0.029428 0.478458
0.367781 0.030125 0.590255
0.368477 0.030822 0.701831
0.369172 0.031517 0.813222
0.369866 0.032211 0.924456
0.371330 0.147282 0.033674
0.372043 0.147995 0.147995
0.372748 0.148700 0.261005
0.373450 0.149402 0.373450
0.374149 0.150101 0.485524
0.374846 0.150799 0.597321
0.375543 0.151495 0.708896
0.376238 0.152190 0.820288
0.376932 0.152884 0.931521
0.378314 0.266571 0.040659
0.379027 0.267284 0.154980
0.379733 0.267989 0.267989
0.380434 0.268691 0.380434
0.381133 0.269390 0.492508
0.381831 0.270087 0.604305
0.382527 0.270784 0.715880
0.383222 0.271479 0.827272
0.383916 0.272173 0.938506
0.385264 0.385264 0.047608
0.385977 0.385977 0.161929
0.386682 0.386682 0.274939
0.387384 0.387384 0.387384
0.388083 0.388083 0.499457
0.388780 0.388780 0.611254
0.389476 0.389476 0.722830
0.390171 0.390171 0.834221
0.390865 0.390865 0.945455
0.392190 0.503565 0.054535
0.392903 0.504278 0.168856
0.393609 0.504983 0.281865
0.394310 0.505685 0.394310
0.395009 0.506384 0.506384
0.395707 0.507082 0.618181
0.396403 0.507778 0.729756
0.397098 0.508473 0.841148
0.397792 0.509167 0.952382
0.399100 0.621574 0.061444
0.399813 0.622287 0.175765
0.400518 0.622992 0.288775
0.401220 0.623694 0.401220
0.401919 0.624393 0.513293
0.402616 0.625090 0.625090
0.403312 0.625786 0.736666
0.404007 0.626481 0.848057
0.404701 0.627175 0.959291
0.405995 0.739349 0.068340
0.406709 0.740062 0.182661
0.407414 0.740767 0.295670
0.408115 0.741469 0.408115
0.408814 0.742168 0.520189
0.409512 0.742866 0.631986
0.410208 0.743562 0.743562
0.410903 0.744257 0.854953
0.411597 0.744951 0.966187
0.412880 0.856930 0.075224
0.413593 0.857643 0.189545
0.414298 0.858348 0.302555
0.415000 0.859050 0.415000
0.415699 0.859749 0.527074
0.416396 0.860446 0.638870
0.417092 0.861142 0.750446
0.417787 0.861837 0.861837
0.418481 0.862531 0.973071
0.419754 0.974344 0.082099
0.420468 0.975057 0.196420
0.421173 0.975762 0.309429
0.421874 0.976464 0.421874
0.422573 0.977163 0.533948
0.423271 0.977861 0.645745
0.423967 0.978557 0.757321
0.424662 0.979252 0.868712
0.425356 0.979946 0.979946
0.477698 0.028668 0.028668
0.478411 0.029381 0.142989
0.479116 0.030086 0.255998
0.479818 0.030788 0.368443
0.480517 0.031487 0.480517
0.481215 0.032184 0.592314
0.481911 0.032881 0.703890
0.482606 0.033576 0.815281
0.483300 0.034270 0.926515
0.484764 0.149341 0.035733
0.485477 0.150054 0.150054
0.486182 0.150759 0.263064
0.486883 0.151461 0.375509
0.487583 0.152160 0.487583
0.488280 0.152858 0.599379
0.488976 0.153554 0.710955
0.489671 0.154249 0.822347
0.490365 0.154943 0.933580
0.491748 0.268630 0.042718
0.492461 0.269343 0.157039
0.493166 0.270048 0.270048
0.493868 0.270750 0.382493
0.494567 0.271449 0.494567
0.495265 0.272146 0.606364
0.495961 0.272843 0.717939
0.496656 0.273538 0.829331
0.497350 0.274232 0.940565
0.498697 0.387323 0.049667
0.499411 0.388036 0.163988
0.500116 0.388741 0.276998
0.500817 0.389443 0.389443
0.501516 0.390142 0.501516
0.502214 0.390839 0.613313
0.502910 0.391535 0.724889
0.503605 0.392230 0.836280
0.504299 0.392924 0.947514
0.505624 0.505624 0.056594
0.506337 0.506337 0.170915
0.507042 0.507042 0.283924
0.507744 0.507744 0.396369
0.508443 0.508443 0.508443
0.509141 0.509141 0.620240
0.509837 0.509837 0.731815
0.510532 0.510532 0.843207
0.511226 0.511226 0.954441
0.512533 0.623633 0.063503
0.513247 0.624346 0.177824
0.513952 0.625051 0.290834
0.514653 0.625753 0.403278
0.515352 0.626452 0.515352
0.516050 0.627149 0.627149
0.516746 0.627845 0.738725
0.517441 0.628540 0.850116
0.518135 0.629234 0.961350
0.519429 0.741408 0.070399
0.520142 0.742121 0.184720
0.520847 0.742826 0.297729
0.521549 0.743528 0.410174
0.522248 0.744227 0.522248
0.522946 0.744924 0.634045
0.523642 0.745621 0.745621
0.524337 0.746316 0.857012
0.525031 0.747010 0.968246
0.526313 0.858989 0.077283
0.527027 0.859702 0.191604
0.527732 0.860407 0.304614
0.528433 0.861109 0.417059
0.529133 0.861808 0.529133
0.529830 0.862505 0.640929
0.530526 0.863201 0.752505
0.531221 0.863896 0.863896
0.531915 0.864590 0.975130
0.533188 0.976403 0.084158
0.533901 0.977116 0.198479
0.534606 0.977821 0.311488
0.535308 0.978523 0.423933
0.536007 0.979222 0.536007
0.536705 0.979920 0.647804
0.537401 0.980616 0.759380
0.538096 0.981311 0.870771
0.538790 0.982005 0.982005
0.590851 0.030722 0.030722
0.591565 0.031435 0.145043
0.592270 0.032140 0.258052
0.592971 0.032842 0.370497
0.593670 0.033541 0.482571
0.594368 0.034238 0.594368
0.595064 0.034934 0.705944
0.595759 0.035629 0.817335
0.596453 0.036323 0.928569
0.597917 0.151395 0.037787
0.598630 0.152108 0.152108
0.599335 0.152813 0.265118
0.600037 0.153515 0.377563
0.600736 0.154214 0.489637
0.601433 0.154911 0.601433
0.602130 0.155608 0.713009
0.602824 0.156303 0.824400
0.603518 0.156997 0.935634
0.604901 0.270684 0.044771
0.605614 0.271397 0.159092
0.606319 0.272102 0.272102
0.607021 0.272804 0.384547
0.607720 0.273503 0.496621
0.608418 0.274200 0.608418
0.609114 0.274896 0.719993
0.609809 0.275591 0.831385
0.610503 0.276285 0.942619
0.611851 0.389377 0.051721
0.612564 0.390090 0.166042
0.613269 0.390795 0.279052
0.613970 0.391496 0.391496
0.614670 0.392196 0.503570
0.615367 0.392893 0.615367
0.616063 0.393589 0.726943
0.616758 0.394284 0.838334
0.617452 0.394978 0.949568
0.618777 0.507678 0.058647
0.619490 0.508391 0.172968
0.620195 0.509096 0.285978
0.620897 0.509798 0.398423
0.621596 0.510497 0.510497
0.622294 0.511194 0.622294
0.622990 0.511891 0.733869
0.623685 0.512586 0.845261
0.624379 0.513280 0.956495
0.625687 0.625687 0.065557
0.626400 0.626400 0.179878
0.627105 0.627105 0.292887
0.627806 0.627806 0.405332
0.628506 0.628506 0.517406
0.629203 0.629203 0.629203
0.629899 0.629899 0.740779
0.630594 0.630594 0.852170
0.631288 0.631288 0.963404
0.632582 0.743462 0.072453
0.633296 0.744175 0.186774
0.634001 0.744880 0.299783
0.634702 0.745582 0.412228
0.635401 0.746281 0.524302
0.636099 0.746978 0.636099
0.636795 0.747675 0.747675
0.637490 0.748369 0.859066
0.638184 0.749063 0.970300
0.639467 0.861043 0.079337
0.640180 0.861756 0.193658
0.640885 0.862461 0.306668
0.641586 0.863162 0.419112
0.642286 0.863862 0.531186
0.642983 0.864559 0.642983
0.643679 0.865255 0.754559
0.644374 0.865950 0.865950
0.645068 0.866644 0.977184
0.646341 0.978457 0.086212
0.647054 0.979170 0.200533
0.647760 0.979875 0.313542
0.648461 0.980577 0.425987
0.649160 0.981276 0.538061
0.649858 0.981974 0.649858
0.650554 0.982670 0.761433
0.651249 0.983365 0.872825
0.651943 0.984059 0.984059
0.703781 0.032771 0.032771
0.704494 0.033485 0.147092
0.705199 0.034190 0.260102
0.705901 0.034891 0.372547
0.706600 0.035591 0.484621
0.707297 0.036288 0.596418
0.707993 0.036984 0.707993
0.708688 0.037679 0.819385
0.709382 0.038373 0.930619
0.710846 0.153445 0.039837
0.711559 0.154158 0.154158
0.712264 0.154863 0.267168
0.712966 0.155565 0.379612
0.713665 0.156264 0.491686
0.714363 0.156961 0.603483
0.715059 0.157657 0.715059
0.715754 0.158352 0.826450
0.716448 0.159046 0.937684
0.717830 0.272734 0.046821
0.718544 0.273447 0.161142
0.719249 0.274152 0.274152
0.719950 0.274853 0.386597
0.720650 0.275553 0.498671
0.721347 0.276250 0.610468
0.722043 0.276946 0.722043
0.722738 0.277641 0.833435
0.723432 0.278335 0.944668
0.724780 0.391426 0.053771
0.725493 0.392140 0.168092
0.726198 0.392845 0.281101
0.726900 0.393546 0.393546
0.727599 0.394245 0.505620
0.728297 0.394943 0.617417
0.728993 0.395639 0.728993
0.729688 0.396334 0.840384
0.730382 0.397028 0.951618
0.731706 0.509728 0.060697
0.732420 0.510441 0.175018
0.733125 0.511146 0.288028
0.733826 0.511847 0.400473
0.734526 0.512547 0.512547
0.735223 0.513244 0.624344
0.735919 0.513940 0.735919
0.736614 0.514635 0.847311
0.737308 0.515329 0.958544
0.738616 0.627736 0.067607
0.739329 0.628450 0.181928
0.740034 0.629155 0.294937
0.740736 0.629856 0.407382
0.741435 0.630555 0.519456
0.742132 0.631253 0.631253
0.742829 0.631949 0.742829
0.743524 0.632644 0.854220
0.744218 0.633338 0.965454
0.745512 0.745512 0.074502
0.746225 0.746225 0.188823
0.746930 0.746930 0.301833
0.747631 0.747631 0.414278
0.748331 0.748331 0.526352
0.749028 0.749028 0.638149
0.749724 0.749724 0.749724
0.750419 0.750419 0.861116
0.751113 0.751113 0.972350
0.752396 0.863092 0.081387
0.753109 0.863806 0.195708
0.753814 0.864511 0.308717
0.754516 0.865212 0.421162
0.755215 0.865912 0.533236
0.755913 0.866609 0.645033
0.756609 0.867305 0.756609
0.757304 0.868000 0.868000
0.757998 0.868694 0.979234
0.759271 0.980507 0.088261
0.759984 0.981220 0.202582
0.760689 0.981925 0.315592
0.761390 0.982627 0.428037
0.762090 0.983326 0.540111
0.762787 0.984023 0.651908
0.763483 0.984720 0.763483
0.764178 0.985415 0.874875
0.764872 0.986109 0.986109
0.816524 0.034818 0.034818
0.817237 0.035531 0.149139
0.817942 0.036236 0.262149
0.818643 0.036938 0.374593
0.819343 0.037637 0.486667
0.820040 0.038335 0.598464
0.820736 0.039031 0.710040
0.821431 0.039726 0.821431
0.822125 0.040420 0.932665
0.823589 0.155491 0.041883
0.824302 0.156204 0.156204
0.825007 0.156909 0.269214
0.825709 0.157611 0.381659
0.826408 0.158310 0.493733
0.827106 0.159008 0.605530
0.827802 0.159704 0.717105
0.828497 0.160399 0.828497
0.829191 0.161093 0.939730
0.830573 0.274780 0.048868
0.831287 0.275493 0.163189
0.831992 0.276198 0.276198
0.832693 0.276900 0.388643
0.833392 0.277599 0.500717
0.834090 0.278297 0.612514
0.834786 0.278993 0.724090
0.835481 0.279688 0.835481
0.836175 0.280382 0.946715
0.837523 0.393473 0.055817
0.838236 0.394186 0.170138
0.838941 0.394891 0.283148
0.839643 0.395593 0.395593
0.840342 0.396292 0.507667
0.841039 0.396989 0.619463
0.841736 0.397686 0.731039
0.842431 0.398381 0.842431
0.843125 0.399075 0.953664
0.844449 0.511774 0.062744
0.845163 0.512487 0.177065
0.845868 0.513192 0.290074
0.846569 0.513894 0.402519
0.847268 0.514593 0.514593
0.847966 0.515291 0.626390
0.848662 0.515987 0.737966
0.849357 0.516682 0.849357
0.850051 0.517376 0.960591
0.851359 0.629783 0.069653
0.852072 0.630496 0.183974
0.852777 0.631201 0.296984
0.853479 0.631903 0.409429
0.854178 0.632602 0.521503
0.854875 0.633299 0.633299
0.855572 0.633996 0.744875
0.856267 0.634691 0.856267
0.856960 0.635385 0.967500
0.858254 0.747558 0.076549
0.858968 0.748271 0.190870
0.859673 0.748976 0.303879
0.860374 0.749678 0.416324
0.861074 0.750377 0.528398
0.861771 0.751075 0.640195
0.862467 0.751771 0.751771
0.863162 0.752466 0.863162
0.863856 0.753160 0.974396
0.865139 0.865139 0.083433
0.865852 0.865852 0.197754
0.866557 0.866557 0.310764
0.867259 0.867259 0.423209
0.867958 0.867958 0.535283
0.868655 0.868655 0.647080
0.869352 0.869352 0.758655
0.870047 0.870047 0.870047
0.870741 0.870741 0.981280
0.872013 0.982553 0.090308
0.872727 0.983266 0.204629
0.873432 0.983972 0.317638
0.874133 0.984673 0.430083
0.874833 0.985372 0.542157
0.875530 0.986070 0.653954
0.876226 0.986766 0.765530
0.876921 0.987461 0.876921
0.877615 0.988155 0.988155
0.929107 0.036861 0.036861
0.929820 0.037575 0.151182
0.930525 0.038280 0.264192
0.931227 0.038981 0.376637
0.931926 0.039681 0.488711
0.932623 0.040378 0.600508
0.933320 0.041074 0.712083
0.934015 0.041769 0.823475
0.934709 0.042463 0.934709
0.936172 0.157535 0.043927
0.936886 0.158248 0.158248
0.937591 0.158953 0.271257
0.938292 0.159655 0.383702
0.938991 0.160354 0.495776
0.939689 0.161051 0.607573
0.940385 0.161747 0.719149
0.941080 0.162442 0.830540
0.941774 0.163136 0.941774
0.943157 0.276824 0.050911
0.943870 0.277537 0.165232
0.944575 0.278242 0.278242
0.945277 0.278943 0.390687
0.945976 0.279643 0.502761
0.946673 0.280340 0.614558
0.947369 0.281036 0.726133
0.948064 0.281731 0.837525
0.948758 0.282425 0.948758
0.950106 0.395516 0.057861
0.950819 0.396230 0.172182
0.951524 0.396935 0.285191
0.952226 0.397636 0.397636
0.952925 0.398335 0.509710
0.953623 0.399033 0.621507
0.954319 0.399729 0.733083
0.955014 0.400424 0.844474
0.955708 0.401118 0.955708
0.957033 0.513818 0.064787
0.957746 0.514531 0.179108
0.958451 0.515236 0.292118
0.959153 0.515937 0.404563
0.959852 0.516637 0.516637
0.960549 0.517334 0.628434
0.961245 0.518030 0.740009
0.961940 0.518725 0.851401
0.962634 0.519419 0.962634
0.963942 0.631826 0.071697
0.964655 0.632540 0.186018
0.965360 0.633245 0.299027
0.966062 0.633946 0.411472
0.966761 0.634645 0.523546
0.967459 0.635343 0.635343
0.968155 0.636039 0.746919
0.968850 0.636734 0.858310
0.969544 0.637428 0.969544
0.970838 0.749602 0.078592
0.971551 0.750315 0.192913
0.972256 0.751020 0.305923
0.972958 0.751721 0.418368
0.973657 0.752421 0.530442
0.974354 0.753118 0.642239
0.975051 0.753814 0.753814
0.975746 0.754509 0.865206
0.976440 0.755203 0.976440
0.977722 0.867182 0.085477
0.978435 0.867896 0.199798
0.979140 0.868601 0.312807
0.979842 0.869302 0.425252
0.980541 0.870002 0.537326
0.981239 0.870699 0.649123
0.981935 0.871395 0.760699
0.982630 0.872090 0.872090
0.983324 0.872784 0.983324
0.984597 0.984597 0.092351
0.985310 0.985310 0.206672
0.986015 0.986015 0.319682
0.986717 0.986717 0.432127
0.987416 0.987416 0.544201
0.988113 0.988113 0.655998
0.988810 0.988810 0.767573
0.989505 0.989505 0.878965
0.990199 0.990199 0.990199
