skills/editops-orchestrator/assets/grade/luts/vintage_fade_v17.cube
TITLE "vintage_fade_v17"
LUT_3D_SIZE 17
DOMAIN_MIN 0.0 0.0 0.0
DOMAIN_MAX 1.0 1.0 1.0
0.153887 0.153887 0.153887
0.154909 0.154909 0.194103
0.155912 0.155912 0.233607
0.156904 0.156904 0.272652
0.157888 0.157888 0.311355
0.158864 0.158864 0.349789
0.159835 0.159835 0.387998
0.160800 0.160800 0.426017
0.161762 0.161762 0.463869
0.162720 0.162720 0.501575
0.163674 0.163674 0.539148
0.164626 0.164626 0.576601
0.165575 0.165575 0.613945
0.166521 0.166521 0.651188
0.167465 0.167465 0.688338
0.168406 0.168406 0.725401
0.169346 0.169346 0.762382
0.164007 0.203201 0.164007
0.165029 0.204223 0.204223
0.166033 0.205226 0.243727
0.167025 0.206218 0.282772
0.168008 0.207201 0.321476
0.168984 0.208178 0.359909
0.169955 0.209148 0.398118
0.170921 0.210114 0.436137
0.171882 0.211076 0.473990
0.172840 0.212034 0.511695
0.173795 0.212988 0.549268
0.174746 0.213940 0.586721
0.175695 0.214888 0.624065
0.176641 0.215835 0.661308
0.177585 0.216778 0.698458
0.178526 0.217720 0.735521
0.179466 0.218659 0.772502
0.173949 0.251644 0.173949
0.174970 0.252665 0.214164
0.175974 0.253669 0.253669
0.176966 0.254661 0.292713
0.177949 0.255644 0.331417
0.178926 0.256620 0.369850
0.179896 0.257591 0.408060
0.180862 0.258557 0.446079
0.181824 0.259518 0.483931
0.182782 0.260476 0.521636
0.183736 0.261431 0.559209
0.184688 0.262382 0.596662
0.185636 0.263331 0.634006
0.186582 0.264277 0.671249
0.187526 0.265221 0.708399
0.188468 0.266162 0.745462
0.189407 0.267102 0.782444
0.183774 0.299522 0.183774
0.184796 0.300543 0.223990
0.185800 0.301547 0.263494
0.186791 0.302539 0.302539
0.187775 0.303522 0.341242
0.188751 0.304498 0.379676
0.189722 0.305469 0.417885
0.190688 0.306435 0.455904
0.191649 0.307397 0.493756
0.192607 0.308354 0.531462
0.193562 0.309309 0.569035
0.194513 0.310260 0.606488
0.195462 0.311209 0.643832
0.196408 0.312155 0.681075
0.197352 0.313099 0.718225
0.198293 0.314041 0.755288
0.199233 0.314980 0.792269
0.193514 0.346982 0.193514
0.194536 0.348004 0.233729
0.195539 0.349007 0.273234
0.196531 0.349999 0.312279
0.197514 0.350982 0.350982
0.198491 0.351959 0.389416
0.199462 0.352929 0.427625
0.200427 0.353895 0.465644
0.201389 0.354857 0.503496
0.202347 0.355815 0.541201
0.203301 0.356769 0.578774
0.204253 0.357721 0.616228
0.205202 0.358669 0.653572
0.206148 0.359615 0.690815
0.207091 0.360559 0.727965
0.208033 0.361501 0.765027
0.208972 0.362440 0.802009
0.203186 0.394111 0.203186
0.204208 0.395132 0.243401
0.205211 0.396136 0.282906
0.206203 0.397128 0.321950
0.207186 0.398111 0.360654
0.208163 0.399087 0.399087
0.209133 0.400058 0.437297
0.210099 0.401024 0.475316
0.211061 0.401986 0.513168
0.212019 0.402943 0.550873
0.212973 0.403898 0.588446
0.213925 0.404849 0.625900
0.214873 0.405798 0.663243
0.215819 0.406744 0.700487
0.216763 0.407688 0.737636
0.217705 0.408630 0.774699
0.218644 0.409569 0.811681
0.212801 0.440965 0.212801
0.213823 0.441987 0.253017
0.214827 0.442990 0.292521
0.215818 0.443982 0.331566
0.216802 0.444965 0.370269
0.217778 0.445942 0.408703
0.218749 0.446912 0.446912
0.219715 0.447878 0.484931
0.220676 0.448840 0.522783
0.221634 0.449798 0.560489
0.222589 0.450752 0.598062
0.223540 0.451704 0.635515
0.224489 0.452652 0.672859
0.225435 0.453599 0.710102
0.226379 0.454542 0.747252
0.227320 0.455484 0.784315
0.228260 0.456423 0.821296
0.222369 0.487585 0.222369
0.223390 0.488607 0.262584
0.224394 0.489610 0.302089
0.225386 0.490602 0.341133
0.226369 0.491586 0.379837
0.227345 0.492562 0.418270
0.228316 0.493533 0.456480
0.229282 0.494498 0.494498
0.230244 0.495460 0.532351
0.231201 0.496418 0.570056
0.232156 0.497372 0.607629
0.233107 0.498324 0.645082
0.234056 0.499273 0.682426
0.235002 0.500219 0.719669
0.235946 0.501163 0.756819
0.236888 0.502104 0.793882
0.237827 0.503044 0.830864
0.231894 0.534002 0.231894
0.232916 0.535023 0.272110
0.233919 0.536027 0.311614
0.234911 0.537019 0.350659
0.235895 0.538002 0.389362
0.236871 0.538978 0.427796
0.237842 0.539949 0.466005
0.238808 0.540915 0.504024
0.239769 0.541876 0.541876
0.240727 0.542834 0.579582
0.241682 0.543789 0.617155
0.242633 0.544740 0.654608
0.243582 0.545689 0.691952
0.244528 0.546635 0.729195
0.245472 0.547579 0.766345
0.246413 0.548520 0.803408
0.247353 0.549460 0.840389
0.241383 0.580237 0.241383
0.242404 0.581259 0.281598
0.243408 0.582263 0.321103
0.244400 0.583254 0.360147
0.245383 0.584238 0.398851
0.246360 0.585214 0.437284
0.247330 0.586185 0.475494
0.248296 0.587151 0.513513
0.249258 0.588112 0.551365
0.250216 0.589070 0.589070
0.251170 0.590025 0.626643
0.252122 0.590976 0.664096
0.253070 0.591925 0.701440
0.254016 0.592871 0.738683
0.254960 0.593815 0.775833
0.255902 0.594756 0.812896
0.256841 0.595696 0.849878
0.250838 0.626311 0.250838
0.251860 0.627333 0.291053
0.252863 0.628336 0.330558
0.253855 0.629328 0.369602
0.254838 0.630311 0.408306
0.255815 0.631288 0.446740
0.256785 0.632259 0.484949
0.257751 0.633224 0.522968
0.258713 0.634186 0.560820
0.259671 0.635144 0.598525
0.260625 0.636098 0.636098
0.261577 0.637050 0.673552
0.262525 0.637999 0.710896
0.263472 0.638945 0.748139
0.264415 0.639888 0.785289
0.265357 0.640830 0.822351
0.266296 0.641769 0.859333
0.260263 0.672238 0.260263
0.261285 0.673260 0.300478
0.262288 0.674263 0.339983
0.263280 0.675255 0.379028
0.264264 0.676238 0.417731
0.265240 0.677215 0.456165
0.266211 0.678185 0.494374
0.267176 0.679151 0.532393
0.268138 0.680113 0.570245
0.269096 0.681071 0.607950
0.270050 0.682025 0.645523
0.271002 0.682977 0.682977
0.271951 0.683925 0.720321
0.272897 0.684872 0.757564
0.273840 0.685815 0.794714
0.274782 0.686757 0.831777
0.275722 0.687696 0.868758
0.269661 0.718031 0.269661
0.270682 0.719053 0.309876
0.271686 0.720056 0.349381
0.272678 0.721048 0.388425
0.273661 0.722031 0.427129
0.274637 0.723008 0.465562
0.275608 0.723978 0.503772
0.276574 0.724944 0.541791
0.277536 0.725906 0.579643
0.278493 0.726864 0.617348
0.279448 0.727818 0.654921
0.280399 0.728770 0.692374
0.281348 0.729718 0.729718
0.282294 0.730664 0.766961
0.283238 0.731608 0.804111
0.284180 0.732550 0.841174
0.285119 0.733489 0.878156
0.279033 0.763700 0.279033
0.280055 0.764722 0.319248
0.281058 0.765725 0.358753
0.282050 0.766717 0.397797
0.283033 0.767700 0.436501
0.284010 0.768677 0.474935
0.284980 0.769648 0.513144
0.285946 0.770613 0.551163
0.286908 0.771575 0.589015
0.287866 0.772533 0.626720
0.288820 0.773487 0.664293
0.289772 0.774439 0.701747
0.290720 0.775388 0.739091
0.291667 0.776334 0.776334
0.292610 0.777277 0.813483
0.293552 0.778219 0.850546
0.294491 0.779158 0.887528
0.288382 0.809255 0.288382
0.289403 0.810277 0.328597
0.290407 0.811280 0.368102
0.291399 0.812272 0.407146
0.292382 0.813255 0.445850
0.293358 0.814232 0.484283
0.294329 0.815202 0.522493
0.295295 0.816168 0.560512
0.296257 0.817130 0.598364
0.297214 0.818088 0.636069
0.298169 0.819042 0.673642
0.299120 0.819994 0.711095
0.300069 0.820942 0.748439
0.301015 0.821888 0.785682
0.301959 0.822832 0.822832
0.302901 0.823774 0.859895
0.303840 0.824713 0.896877
0.297709 0.854703 0.297709
0.298730 0.855725 0.337924
0.299734 0.856728 0.377429
0.300726 0.857720 0.416473
0.301709 0.858703 0.455177
0.302685 0.859680 0.493610
0.303656 0.860651 0.531820
0.304622 0.861616 0.569838
0.305584 0.862578 0.607691
0.306541 0.863536 0.645396
0.307496 0.864490 0.682969
0.308447 0.865442 0.720422
0.309396 0.866391 0.757766
0.310342 0.867337 0.795009
0.311286 0.868280 0.832159
0.312228 0.869222 0.869222
0.313167 0.870161 0.906204
0.307015 0.900052 0.307015
0.308037 0.901073 0.347230
0.309040 0.902077 0.386735
0.310032 0.903069 0.425780
0.311015 0.904052 0.464483
0.311992 0.905028 0.502917
0.312962 0.905999 0.541126
0.313928 0.906965 0.579145
0.314890 0.907926 0.616997
0.315848 0.908884 0.654702
0.316802 0.909839 0.692275
0.317754 0.910790 0.729729
0.318702 0.911739 0.767073
0.319649 0.912685 0.804316
0.320592 0.913629 0.841466
0.321534 0.914570 0.878528
0.322473 0.915510 0.915510
0.196089 0.156896 0.156896
0.197111 0.157917 0.197111
0.198114 0.158921 0.236616
0.199106 0.159913 0.275660
0.200090 0.160896 0.314364
0.201066 0.161872 0.352797
0.202037 0.162843 0.391007
0.203002 0.163809 0.429025
0.203964 0.164770 0.466878
0.204922 0.165728 0.504583
0.205876 0.166683 0.542156
0.206828 0.167634 0.579609
0.207777 0.168583 0.616953
0.208723 0.169529 0.654196
0.209667 0.170473 0.691346
0.210608 0.171414 0.728409
0.211548 0.172354 0.765390
0.206209 0.206209 0.167016
0.207231 0.207231 0.207231
0.208235 0.208235 0.246736
0.209226 0.209226 0.285780
0.210210 0.210210 0.324484
0.211186 0.211186 0.362917
0.212157 0.212157 0.401127
0.213123 0.213123 0.439145
0.214084 0.214084 0.476998
0.215042 0.215042 0.514703
0.215997 0.215997 0.552276
0.216948 0.216948 0.589729
0.217897 0.217897 0.627073
0.218843 0.218843 0.664316
0.219787 0.219787 0.701466
0.220728 0.220728 0.738529
0.221668 0.221668 0.775511
0.216151 0.254652 0.176957
0.217172 0.255674 0.217172
0.218176 0.256677 0.256677
0.219168 0.257669 0.295722
0.220151 0.258652 0.334425
0.221127 0.259629 0.372859
0.222098 0.260599 0.411068
0.223064 0.261565 0.449087
0.224026 0.262527 0.486939
0.224983 0.263485 0.524644
0.225938 0.264439 0.562217
0.226889 0.265391 0.599671
0.227838 0.266339 0.637015
0.228784 0.267285 0.674258
0.229728 0.268229 0.711408
0.230670 0.269171 0.748470
0.231609 0.270110 0.785452
0.225976 0.302530 0.186783
0.226998 0.303552 0.226998
0.228002 0.304555 0.266503
0.228993 0.305547 0.305547
0.229977 0.306530 0.344251
0.230953 0.307507 0.382684
0.231924 0.308477 0.420894
0.232890 0.309443 0.458912
0.233851 0.310405 0.496765
0.234809 0.311363 0.534470
0.235764 0.312317 0.572043
0.236715 0.313269 0.609496
0.237664 0.314217 0.646840
0.238610 0.315164 0.684083
0.239554 0.316107 0.721233
0.240495 0.317049 0.758296
0.241435 0.317988 0.795278
0.235716 0.349990 0.196522
0.236738 0.351012 0.236738
0.237741 0.352015 0.276242
0.238733 0.353007 0.315287
0.239716 0.353991 0.353991
0.240693 0.354967 0.392424
0.241663 0.355938 0.430634
0.242629 0.356903 0.468652
0.243591 0.357865 0.506505
0.244549 0.358823 0.544210
0.245503 0.359777 0.581783
0.246455 0.360729 0.619236
0.247403 0.361678 0.656580
0.248350 0.362624 0.693823
0.249293 0.363568 0.730973
0.250235 0.364509 0.768036
0.251174 0.365449 0.805017
0.245388 0.397119 0.206194
0.246409 0.398141 0.246409
0.247413 0.399144 0.285914
0.248405 0.400136 0.324959
0.249388 0.401119 0.363662
0.250365 0.402096 0.402096
0.251335 0.403066 0.440305
0.252301 0.404032 0.478324
0.253263 0.404994 0.516176
0.254221 0.405952 0.553881
0.255175 0.406906 0.591455
0.256127 0.407858 0.628908
0.257075 0.408806 0.666252
0.258021 0.409753 0.703495
0.258965 0.410696 0.740645
0.259907 0.411638 0.777708
0.260846 0.412577 0.814689
0.255003 0.443973 0.215810
0.256025 0.444995 0.256025
0.257029 0.445999 0.295530
0.258020 0.446990 0.334574
0.259004 0.447974 0.373278
0.259980 0.448950 0.411711
0.260951 0.449921 0.449921
0.261917 0.450887 0.487939
0.262878 0.451848 0.525792
0.263836 0.452806 0.563497
0.264791 0.453761 0.601070
0.265742 0.454712 0.638523
0.266691 0.455661 0.675867
0.267637 0.456607 0.713110
0.268581 0.457551 0.750260
0.269522 0.458492 0.787323
0.270462 0.459432 0.824305
0.264571 0.490594 0.225377
0.265592 0.491615 0.265592
0.266596 0.492619 0.305097
0.267588 0.493611 0.344141
0.268571 0.494594 0.382845
0.269547 0.495570 0.421279
0.270518 0.496541 0.459488
0.271484 0.497507 0.497507
0.272446 0.498468 0.535359
0.273403 0.499426 0.573064
0.274358 0.500381 0.610637
0.275309 0.501332 0.648091
0.276258 0.502281 0.685435
0.277204 0.503227 0.722678
0.278148 0.504171 0.759828
0.279090 0.505112 0.796890
0.280029 0.506052 0.833872
0.274096 0.537010 0.234903
0.275118 0.538032 0.275118
0.276121 0.539035 0.314623
0.277113 0.540027 0.353667
0.278097 0.541010 0.392371
0.279073 0.541987 0.430804
0.280044 0.542957 0.469014
0.281009 0.543923 0.507032
0.281971 0.544885 0.544885
0.282929 0.545843 0.582590
0.283883 0.546797 0.620163
0.284835 0.547749 0.657616
0.285784 0.548697 0.694960
0.286730 0.549643 0.732203
0.287674 0.550587 0.769353
0.288615 0.551529 0.806416
0.289555 0.552468 0.843398
0.283585 0.583246 0.244391
0.284606 0.584267 0.284606
0.285610 0.585271 0.324111
0.286602 0.586263 0.363156
0.287585 0.587246 0.401859
0.288561 0.588222 0.440293
0.289532 0.589193 0.478502
0.290498 0.590159 0.516521
0.291460 0.591120 0.554373
0.292417 0.592078 0.592078
0.293372 0.593033 0.629651
0.294323 0.593984 0.667105
0.295272 0.594933 0.704449
0.296218 0.595879 0.741692
0.297162 0.596823 0.778842
0.298104 0.597765 0.815904
0.299043 0.598704 0.852886
0.293040 0.629319 0.253846
0.294062 0.630341 0.294062
0.295065 0.631345 0.333566
0.296057 0.632337 0.372611
0.297040 0.633320 0.411314
0.298017 0.634296 0.449748
0.298987 0.635267 0.487957
0.299953 0.636233 0.525976
0.300915 0.637194 0.563828
0.301873 0.638152 0.601534
0.302827 0.639107 0.639107
0.303779 0.640058 0.676560
0.304727 0.641007 0.713904
0.305674 0.641953 0.751147
0.306617 0.642897 0.788297
0.307559 0.643838 0.825360
0.308498 0.644778 0.862341
0.302465 0.675246 0.263271
0.303487 0.676268 0.303487
0.304490 0.677272 0.342992
0.305482 0.678264 0.382036
0.306465 0.679247 0.420740
0.307442 0.680223 0.459173
0.308413 0.681194 0.497383
0.309378 0.682160 0.535401
0.310340 0.683121 0.573254
0.311298 0.684079 0.610959
0.312252 0.685034 0.648532
0.313204 0.685985 0.685985
0.314153 0.686934 0.723329
0.315099 0.687880 0.760572
0.316042 0.688824 0.797722
0.316984 0.689765 0.834785
0.317923 0.690705 0.871766
0.311863 0.721039 0.272669
0.312884 0.722061 0.312884
0.313888 0.723064 0.352389
0.314880 0.724056 0.391434
0.315863 0.725040 0.430137
0.316839 0.726016 0.468571
0.317810 0.726987 0.506780
0.318776 0.727952 0.544799
0.319738 0.728914 0.582651
0.320695 0.729872 0.620356
0.321650 0.730826 0.657929
0.322601 0.731778 0.695383
0.323550 0.732727 0.732727
0.324496 0.733673 0.769970
0.325440 0.734617 0.807120
0.326382 0.735558 0.844182
0.327321 0.736498 0.881164
0.321235 0.766708 0.282041
0.322257 0.767730 0.322257
0.323260 0.768734 0.361761
0.324252 0.769726 0.400806
0.325235 0.770709 0.439509
0.326212 0.771685 0.477943
0.327182 0.772656 0.516152
0.328148 0.773622 0.554171
0.329110 0.774583 0.592023
0.330068 0.775541 0.629729
0.331022 0.776496 0.667302
0.331974 0.777447 0.704755
0.332922 0.778396 0.742099
0.333869 0.779342 0.779342
0.334812 0.780286 0.816492
0.335754 0.781227 0.853555
0.336693 0.782167 0.890536
0.330584 0.812263 0.291390
0.331605 0.813285 0.331605
0.332609 0.814288 0.371110
0.333601 0.815280 0.410155
0.334584 0.816264 0.448858
0.335560 0.817240 0.487292
0.336531 0.818211 0.525501
0.337497 0.819176 0.563520
0.338459 0.820138 0.601372
0.339416 0.821096 0.639077
0.340371 0.822050 0.676650
0.341322 0.823002 0.714104
0.342271 0.823951 0.751448
0.343217 0.824897 0.788691
0.344161 0.825841 0.825841
0.345103 0.826782 0.862903
0.346042 0.827722 0.899885
0.339911 0.857711 0.300717
0.340932 0.858733 0.340932
0.341936 0.859737 0.380437
0.342928 0.860729 0.419481
0.343911 0.861712 0.458185
0.344887 0.862688 0.496618
0.345858 0.863659 0.534828
0.346824 0.864625 0.572847
0.347785 0.865586 0.610699
0.348743 0.866544 0.648404
0.349698 0.867499 0.685977
0.350649 0.868450 0.723431
0.351598 0.869399 0.760774
0.352544 0.870345 0.798018
0.353488 0.871289 0.835167
0.354429 0.872230 0.872230
0.355369 0.873170 0.909212
0.349217 0.903060 0.310023
0.350239 0.904082 0.350239
0.351242 0.905085 0.389743
0.352234 0.906077 0.428788
0.353217 0.907060 0.467492
0.354194 0.908037 0.505925
0.355164 0.909007 0.544134
0.356130 0.909973 0.582153
0.357092 0.910935 0.620006
0.358050 0.911893 0.657711
0.359004 0.912847 0.695284
0.359956 0.913799 0.732737
0.360904 0.914747 0.770081
0.361851 0.915693 0.807324
0.362794 0.916637 0.844474
0.363736 0.917579 0.881537
0.364675 0.918518 0.918518
0.237546 0.159851 0.159851
0.238567 0.160872 0.200066
0.239571 0.161876 0.239571
0.240563 0.162868 0.278615
0.241546 0.163851 0.317319
0.242522 0.164827 0.355752
0.243493 0.165798 0.393962
0.244459 0.166764 0.431980
0.245420 0.167726 0.469833
0.246378 0.168683 0.507538
0.247333 0.169638 0.545111
0.248284 0.170589 0.582564
0.249233 0.171538 0.619908
0.250179 0.172484 0.657151
0.251123 0.173428 0.694301
0.252064 0.174370 0.731364
0.253004 0.175309 0.768346
0.247666 0.209165 0.169971
0.248687 0.210186 0.210186
0.249691 0.211190 0.249691
0.250683 0.212182 0.288735
0.251666 0.213165 0.327439
0.252642 0.214141 0.365872
0.253613 0.215112 0.404082
0.254579 0.216078 0.442101
0.255541 0.217039 0.479953
0.256498 0.217997 0.517658
0.257453 0.218952 0.555231
0.258404 0.219903 0.592685
0.259353 0.220852 0.630028
0.260299 0.221798 0.667272
0.261243 0.222742 0.704421
0.262185 0.223683 0.741484
0.263124 0.224623 0.778466
0.257607 0.257607 0.179912
0.258629 0.258629 0.220128
0.259632 0.259632 0.259632
0.260624 0.260624 0.298677
0.261607 0.261607 0.337380
0.262584 0.262584 0.375814
0.263554 0.263554 0.414023
0.264520 0.264520 0.452042
0.265482 0.265482 0.489894
0.266440 0.266440 0.527600
0.267394 0.267394 0.565173
0.268346 0.268346 0.602626
0.269294 0.269294 0.639970
0.270241 0.270241 0.677213
0.271184 0.271184 0.714363
0.272126 0.272126 0.751426
0.273065 0.273065 0.788407
0.267433 0.305485 0.189738
0.268454 0.306507 0.229953
0.269458 0.307510 0.269458
0.270450 0.308502 0.308502
0.271433 0.309485 0.347206
0.272409 0.310462 0.385639
0.273380 0.311433 0.423849
0.274346 0.312398 0.461868
0.275307 0.313360 0.499720
0.276265 0.314318 0.537425
0.277220 0.315272 0.574998
0.278171 0.316224 0.612451
0.279120 0.317173 0.649795
0.280066 0.318119 0.687038
0.281010 0.319062 0.724188
0.281951 0.320004 0.761251
0.282891 0.320944 0.798233
0.277172 0.352945 0.199478
0.278194 0.353967 0.239693
0.279198 0.354971 0.279198
0.280190 0.355962 0.318242
0.281173 0.356946 0.356946
0.282149 0.357922 0.395379
0.283120 0.358893 0.433589
0.284086 0.359859 0.471607
0.285047 0.360820 0.509460
0.286005 0.361778 0.547165
0.286960 0.362733 0.584738
0.287911 0.363684 0.622191
0.288860 0.364633 0.659535
0.289806 0.365579 0.696778
0.290750 0.366523 0.733928
0.291691 0.367464 0.770991
0.292631 0.368404 0.807973
0.286844 0.400074 0.209149
0.287866 0.401096 0.249365
0.288869 0.402099 0.288869
0.289861 0.403091 0.327914
0.290845 0.404075 0.366617
0.291821 0.405051 0.405051
0.292792 0.406022 0.443260
0.293757 0.406987 0.481279
0.294719 0.407949 0.519132
0.295677 0.408907 0.556837
0.296631 0.409861 0.594410
0.297583 0.410813 0.631863
0.298532 0.411762 0.669207
0.299478 0.412708 0.706450
0.300421 0.413651 0.743600
0.301363 0.414593 0.780663
0.302303 0.415533 0.817644
0.296460 0.446928 0.218765
0.297481 0.447950 0.258980
0.298485 0.448954 0.298485
0.299477 0.449946 0.337529
0.300460 0.450929 0.376233
0.301436 0.451905 0.414666
0.302407 0.452876 0.452876
0.303373 0.453842 0.490895
0.304334 0.454803 0.528747
0.305292 0.455761 0.566452
0.306247 0.456716 0.604025
0.307198 0.457667 0.641478
0.308147 0.458616 0.678822
0.309093 0.459562 0.716065
0.310037 0.460506 0.753215
0.310978 0.461447 0.790278
0.311918 0.462387 0.827260
0.306027 0.493549 0.228332
0.307049 0.494570 0.268547
0.308052 0.495574 0.308052
0.309044 0.496566 0.347097
0.310027 0.497549 0.385800
0.311004 0.498525 0.424234
0.311974 0.499496 0.462443
0.312940 0.500462 0.500462
0.313902 0.501424 0.538314
0.314860 0.502381 0.576019
0.315814 0.503336 0.613593
0.316766 0.504287 0.651046
0.317714 0.505236 0.688390
0.318661 0.506182 0.725633
0.319604 0.507126 0.762783
0.320546 0.508068 0.799846
0.321485 0.509007 0.836827
0.315553 0.539965 0.237858
0.316574 0.540987 0.278073
0.317578 0.541990 0.317578
0.318570 0.542982 0.356622
0.319553 0.543965 0.395326
0.320529 0.544942 0.433759
0.321500 0.545912 0.471969
0.322466 0.546878 0.509988
0.323427 0.547840 0.547840
0.324385 0.548798 0.585545
0.325340 0.549752 0.623118
0.326291 0.550704 0.660571
0.327240 0.551652 0.697915
0.328186 0.552599 0.735158
0.329130 0.553542 0.772308
0.330071 0.554484 0.809371
0.331011 0.555423 0.846353
0.325041 0.586201 0.247346
0.326063 0.587222 0.287562
0.327066 0.588226 0.327066
0.328058 0.589218 0.366111
0.329041 0.590201 0.404814
0.330018 0.591178 0.443248
0.330988 0.592148 0.481457
0.331954 0.593114 0.519476
0.332916 0.594076 0.557328
0.333874 0.595034 0.595034
0.334828 0.595988 0.632607
0.335780 0.596940 0.670060
0.336728 0.597888 0.707404
0.337675 0.598834 0.744647
0.338618 0.599778 0.781797
0.339560 0.600720 0.818860
0.340499 0.601659 0.855841
0.334496 0.632275 0.256802
0.335518 0.633296 0.297017
0.336522 0.634300 0.336522
0.337513 0.635292 0.375566
0.338497 0.636275 0.414270
0.339473 0.637251 0.452703
0.340444 0.638222 0.490913
0.341410 0.639188 0.528931
0.342371 0.640149 0.566784
0.343329 0.641107 0.604489
0.344284 0.642062 0.642062
0.345235 0.643013 0.679515
0.346184 0.643962 0.716859
0.347130 0.644908 0.754102
0.348074 0.645852 0.791252
0.349015 0.646793 0.828315
0.349955 0.647733 0.865296
0.343921 0.678202 0.266227
0.344943 0.679223 0.306442
0.345947 0.680227 0.345947
0.346939 0.681219 0.384991
0.347922 0.682202 0.423695
0.348898 0.683178 0.462128
0.349869 0.684149 0.500338
0.350835 0.685115 0.538356
0.351796 0.686076 0.576209
0.352754 0.687034 0.613914
0.353709 0.687989 0.651487
0.354660 0.688940 0.688940
0.355609 0.689889 0.726284
0.356555 0.690835 0.763527
0.357499 0.691779 0.800677
0.358440 0.692720 0.837740
0.359380 0.693660 0.874722
0.353319 0.723994 0.275624
0.354341 0.725016 0.315840
0.355344 0.726020 0.355344
0.356336 0.727011 0.394389
0.357319 0.727995 0.433092
0.358296 0.728971 0.471526
0.359266 0.729942 0.509735
0.360232 0.730908 0.547754
0.361194 0.731869 0.585606
0.362152 0.732827 0.623312
0.363106 0.733782 0.660885
0.364058 0.734733 0.698338
0.365006 0.735682 0.735682
0.365953 0.736628 0.772925
0.366896 0.737572 0.810075
0.367838 0.738513 0.847138
0.368777 0.739453 0.884119
0.362691 0.769664 0.284996
0.363713 0.770685 0.325212
0.364717 0.771689 0.364717
0.365708 0.772681 0.403761
0.366692 0.773664 0.442465
0.367668 0.774640 0.480898
0.368639 0.775611 0.519108
0.369605 0.776577 0.557126
0.370566 0.777538 0.594979
0.371524 0.778496 0.632684
0.372479 0.779451 0.670257
0.373430 0.780402 0.707710
0.374379 0.781351 0.745054
0.375325 0.782297 0.782297
0.376269 0.783241 0.819447
0.377210 0.784182 0.856510
0.378150 0.785122 0.893491
0.372040 0.815218 0.294345
0.373062 0.816240 0.334561
0.374065 0.817244 0.374065
0.375057 0.818236 0.413110
0.376040 0.819219 0.451813
0.377017 0.820195 0.490247
0.377987 0.821166 0.528456
0.378953 0.822132 0.566475
0.379915 0.823093 0.604327
0.380873 0.824051 0.642033
0.381827 0.825006 0.679606
0.382779 0.825957 0.717059
0.383727 0.826906 0.754403
0.384674 0.827852 0.791646
0.385617 0.828796 0.828796
0.386559 0.829737 0.865859
0.387498 0.830677 0.902840
0.381367 0.860667 0.303672
0.382389 0.861688 0.343887
0.383392 0.862692 0.383392
0.384384 0.863684 0.422437
0.385367 0.864667 0.461140
0.386344 0.865643 0.499574
0.387314 0.866614 0.537783
0.388280 0.867580 0.575802
0.389242 0.868541 0.613654
0.390200 0.869499 0.651359
0.391154 0.870454 0.688932
0.392106 0.871405 0.726386
0.393054 0.872354 0.763730
0.394000 0.873300 0.800973
0.394944 0.874244 0.838123
0.395886 0.875185 0.875185
0.396825 0.876125 0.912167
0.390673 0.906015 0.312979
0.391695 0.907037 0.353194
0.392699 0.908040 0.392699
0.393690 0.909032 0.431743
0.394674 0.910015 0.470447
0.395650 0.910992 0.508880
0.396621 0.911963 0.547090
0.397587 0.912928 0.585108
0.398548 0.913890 0.622961
0.399506 0.914848 0.660666
0.400461 0.915802 0.698239
0.401412 0.916754 0.735692
0.402361 0.917703 0.773036
0.403307 0.918649 0.810279
0.404251 0.919592 0.847429
0.405192 0.920534 0.884492
0.406132 0.921473 0.921473
0.278519 0.162771 0.162771
0.279540 0.163793 0.202987
0.280544 0.164797 0.242491
0.281536 0.165789 0.281536
0.282519 0.166772 0.320240
0.283496 0.167748 0.358673
0.284466 0.168719 0.396883
0.285432 0.169685 0.434901
0.286394 0.170646 0.472754
0.287352 0.171604 0.510459
0.288306 0.172559 0.548032
0.289258 0.173510 0.585485
0.290206 0.174459 0.622829
0.291152 0.175405 0.660072
0.292096 0.176349 0.697222
0.293038 0.177290 0.734285
0.293977 0.178230 0.771266
0.288639 0.212085 0.172892
