skills/editops-orchestrator/assets/grade/luts/vintage_fade_v13.cube
TITLE "vintage_fade_v13"
LUT_3D_SIZE 9
DOMAIN_MIN 0.0 0.0 0.0
DOMAIN_MAX 1.0 1.0 1.0
0.121114 0.121114 0.121114
0.122858 0.122858 0.209001
0.124562 0.124562 0.294915
0.126245 0.126245 0.379772
0.127914 0.127914 0.463902
0.129572 0.129572 0.547478
0.131221 0.131221 0.630605
0.132863 0.132863 0.713356
0.134498 0.134498 0.795783
0.138385 0.224528 0.138385
0.140128 0.226272 0.226272
0.141833 0.227976 0.312185
0.143516 0.229660 0.397043
0.145185 0.231328 0.481173
0.146843 0.232986 0.564748
0.148492 0.234636 0.647875
0.150134 0.236277 0.730626
0.151769 0.237912 0.813054
0.155268 0.325621 0.155268
0.157011 0.327364 0.243155
0.158716 0.329068 0.329068
0.160399 0.330752 0.413926
0.162068 0.332421 0.498056
0.163726 0.334079 0.581631
0.165375 0.335728 0.664758
0.167017 0.337369 0.747509
0.168652 0.339005 0.829937
0.171943 0.425470 0.171943
0.173687 0.427214 0.259830
0.175391 0.428918 0.345744
0.177074 0.430601 0.430601
0.178743 0.432270 0.514731
0.180401 0.433928 0.598307
0.182050 0.435577 0.681434
0.183692 0.437219 0.764185
0.185327 0.438854 0.846612
0.188476 0.524464 0.188476
0.190219 0.526207 0.276362
0.191923 0.527911 0.362276
0.193607 0.529595 0.447134
0.195276 0.531264 0.531264
0.196934 0.532922 0.614839
0.198583 0.534571 0.697966
0.200224 0.536212 0.780717
0.201860 0.537848 0.863145
0.204899 0.622804 0.204899
0.206642 0.624548 0.292786
0.208347 0.626252 0.378700
0.210030 0.627936 0.463557
0.211699 0.629605 0.547687
0.213357 0.631263 0.631263
0.215006 0.632912 0.714389
0.216648 0.634553 0.797141
0.218283 0.636188 0.879568
0.221234 0.720618 0.221234
0.222978 0.722361 0.309121
0.224682 0.724065 0.395035
0.226365 0.725749 0.479892
0.228034 0.727418 0.564023
0.229692 0.729076 0.647598
0.231341 0.730725 0.730725
0.232983 0.732366 0.813476
0.234618 0.734002 0.895903
0.237496 0.817988 0.237496
0.239239 0.819732 0.325383
0.240943 0.821436 0.411296
0.242627 0.823120 0.496154
0.244296 0.824789 0.580284
0.245954 0.826447 0.663859
0.247603 0.828096 0.746986
0.249244 0.829737 0.829737
0.250880 0.831372 0.912165
0.253693 0.914979 0.253693
0.255437 0.916722 0.341580
0.257141 0.918427 0.427494
0.258825 0.920110 0.512352
0.260494 0.921779 0.596482
0.262152 0.923437 0.680057
0.263801 0.925086 0.763184
0.265442 0.926727 0.845935
0.267077 0.928363 0.928363
0.212392 0.126248 0.126248
0.214135 0.127992 0.214135
0.215839 0.129696 0.300049
0.217523 0.131379 0.384906
0.219192 0.133048 0.469036
0.220850 0.134706 0.552612
0.222499 0.136355 0.635739
0.224140 0.137997 0.718490
0.225775 0.139632 0.800917
0.229662 0.229662 0.143519
0.231406 0.231406 0.231406
0.233110 0.233110 0.317319
0.234793 0.234793 0.402177
0.236462 0.236462 0.486307
0.238120 0.238120 0.569882
0.239769 0.239769 0.653009
0.241411 0.241411 0.735760
0.243046 0.243046 0.818188
0.246545 0.330754 0.160402
0.248289 0.332498 0.248289
0.249993 0.334202 0.334202
0.251676 0.335886 0.419060
0.253345 0.337555 0.503190
0.255003 0.339213 0.586765
0.256652 0.340862 0.669892
0.258294 0.342503 0.752643
0.259929 0.344138 0.835071
0.263220 0.430604 0.177077
0.264964 0.432347 0.264964
0.266668 0.434052 0.350878
0.268352 0.435735 0.435735
0.270021 0.437404 0.519865
0.271679 0.439062 0.603441
0.273328 0.440711 0.686568
0.274969 0.442353 0.769319
0.276604 0.443988 0.851746
0.279753 0.529598 0.193609
0.281496 0.531341 0.281496
0.283201 0.533045 0.367410
0.284884 0.534729 0.452268
0.286553 0.536398 0.536398
0.288211 0.538056 0.619973
0.289860 0.539705 0.703100
0.291502 0.541346 0.785851
0.293137 0.542982 0.868279
0.296176 0.627938 0.210033
0.297920 0.629682 0.297920
0.299624 0.631386 0.383833
0.301307 0.633069 0.468691
0.302976 0.634738 0.552821
0.304634 0.636396 0.636396
0.306283 0.638045 0.719523
0.307925 0.639687 0.802274
0.309560 0.641322 0.884702
0.312512 0.725751 0.226368
0.314255 0.727495 0.314255
0.315959 0.729199 0.400169
0.317643 0.730883 0.485026
0.319312 0.732552 0.569156
0.320970 0.734210 0.652732
0.322619 0.735859 0.735859
0.324260 0.737500 0.818610
0.325896 0.739135 0.901037
0.328773 0.823122 0.242630
0.330516 0.824866 0.330516
0.332221 0.826570 0.416430
0.333904 0.828254 0.501288
0.335573 0.829923 0.585418
0.337231 0.831580 0.668993
0.338880 0.833230 0.752120
0.340522 0.834871 0.834871
0.342157 0.836506 0.917299
0.344971 0.920113 0.258827
0.346714 0.921856 0.346714
0.348419 0.923560 0.432628
0.350102 0.925244 0.517485
0.351771 0.926913 0.601616
0.353429 0.928571 0.685191
0.355078 0.930220 0.768318
0.356720 0.931861 0.851069
0.358355 0.933497 0.933497
0.301619 0.131267 0.131267
0.303363 0.133010 0.219154
0.305067 0.134714 0.305067
0.306751 0.136398 0.389925
0.308420 0.138067 0.474055
0.310078 0.139725 0.557630
0.311727 0.141374 0.640757
0.313368 0.143015 0.723508
0.315003 0.144651 0.805936
0.318890 0.234681 0.148537
0.320634 0.236424 0.236424
0.322338 0.238129 0.322338
0.324021 0.239812 0.407195
0.325690 0.241481 0.491326
0.327348 0.243139 0.574901
0.328997 0.244788 0.658028
0.330639 0.246430 0.740779
0.332274 0.248065 0.823207
0.335773 0.335773 0.165420
0.337517 0.337517 0.253307
0.339221 0.339221 0.339221
0.340904 0.340904 0.424078
0.342573 0.342573 0.508209
0.344231 0.344231 0.591784
0.345880 0.345880 0.674911
0.347522 0.347522 0.757662
0.349157 0.349157 0.840089
0.352448 0.435623 0.182096
0.354192 0.437366 0.269983
0.355896 0.439070 0.355896
0.357580 0.440754 0.440754
0.359249 0.442423 0.524884
0.360907 0.444081 0.608459
0.362556 0.445730 0.691586
0.364197 0.447371 0.774337
0.365832 0.449006 0.856765
0.368981 0.534616 0.198628
0.370724 0.536360 0.286515
0.372429 0.538064 0.372429
0.374112 0.539747 0.457286
0.375781 0.541416 0.541416
0.377439 0.543074 0.624992
0.379088 0.544723 0.708119
0.380730 0.546365 0.790870
0.382365 0.548000 0.873297
0.385404 0.632957 0.215051
0.387148 0.634700 0.302938
0.388852 0.636405 0.388852
0.390535 0.638088 0.473710
0.392204 0.639757 0.557840
0.393862 0.641415 0.641415
0.395511 0.643064 0.724542
0.397153 0.644706 0.807293
0.398788 0.646341 0.889721
0.401739 0.730770 0.231387
0.403483 0.732514 0.319274
0.405187 0.734218 0.405187
0.406871 0.735901 0.490045
0.408540 0.737570 0.574175
0.410198 0.739228 0.657750
0.411847 0.740877 0.740877
0.413488 0.742519 0.823628
0.415123 0.744154 0.906056
0.418001 0.828141 0.247648
0.419744 0.829884 0.335535
0.421449 0.831589 0.421449
0.423132 0.833272 0.506306
0.424801 0.834941 0.590436
0.426459 0.836599 0.674012
0.428108 0.838248 0.757139
0.429750 0.839890 0.839890
0.431385 0.841525 0.922317
0.434199 0.925131 0.263846
0.435942 0.926875 0.351733
0.437647 0.928579 0.437647
0.439330 0.930262 0.522504
0.440999 0.931931 0.606634
0.442657 0.933589 0.690210
0.444306 0.935238 0.773337
0.445948 0.936880 0.856088
0.447583 0.938515 0.938515
0.389750 0.136224 0.136224
0.391494 0.137967 0.224111
0.393198 0.139671 0.310024
0.394882 0.141355 0.394882
0.396551 0.143024 0.479012
0.398209 0.144682 0.562587
0.399858 0.146331 0.645714
0.401499 0.147972 0.728465
0.403134 0.149608 0.810893
0.407021 0.239638 0.153494
0.408765 0.241381 0.241381
0.410469 0.243086 0.327295
0.412152 0.244769 0.412152
0.413821 0.246438 0.496283
0.415479 0.248096 0.579858
0.417128 0.249745 0.662985
0.418770 0.251386 0.745736
0.420405 0.253022 0.828163
0.423904 0.340730 0.170377
0.425648 0.342473 0.258264
0.427352 0.344178 0.344178
0.429035 0.345861 0.429035
0.430704 0.347530 0.513165
0.432362 0.349188 0.596741
0.434011 0.350837 0.679868
0.435653 0.352479 0.762619
0.437288 0.354114 0.845046
0.440579 0.440579 0.187053
0.442323 0.442323 0.274939
0.444027 0.444027 0.360853
0.445711 0.445711 0.445711
0.447380 0.447380 0.529841
0.449038 0.449038 0.613416
0.450687 0.450687 0.696543
0.452328 0.452328 0.779294
0.453963 0.453963 0.861722
0.457112 0.539573 0.203585
0.458855 0.541317 0.291472
0.460560 0.543021 0.377386
0.462243 0.544704 0.462243
0.463912 0.546373 0.546373
0.465570 0.548031 0.629949
0.467219 0.549680 0.713075
0.468861 0.551322 0.795827
0.470496 0.552957 0.878254
0.473535 0.637914 0.220008
0.475279 0.639657 0.307895
0.476983 0.641362 0.393809
0.478666 0.643045 0.478666
0.480335 0.644714 0.562797
0.481993 0.646372 0.646372
0.483642 0.648021 0.729499
0.485284 0.649663 0.812250
0.486919 0.651298 0.894677
0.489871 0.735727 0.236344
0.491614 0.737470 0.324231
0.493318 0.739175 0.410144
0.495002 0.740858 0.495002
0.496671 0.742527 0.579132
0.498329 0.744185 0.662707
0.499978 0.745834 0.745834
0.501619 0.747476 0.828585
0.503254 0.749111 0.911013
0.506132 0.833098 0.252605
0.507875 0.834841 0.340492
0.509580 0.836546 0.426406
0.511263 0.838229 0.511263
0.512932 0.839898 0.595393
0.514590 0.841556 0.678969
0.516239 0.843205 0.762096
0.517881 0.844847 0.844847
0.519516 0.846482 0.927274
0.522330 0.930088 0.268803
0.524073 0.931832 0.356690
0.525778 0.933536 0.442603
0.527461 0.935219 0.527461
0.529130 0.936888 0.611591
0.530788 0.938546 0.695166
0.532437 0.940195 0.778293
0.534079 0.941837 0.861044
0.535714 0.943472 0.943472
0.477126 0.141138 0.141138
0.478870 0.142881 0.229025
0.480574 0.144586 0.314939
0.482257 0.146269 0.399796
0.483926 0.147938 0.483926
0.485584 0.149596 0.567502
0.487233 0.151245 0.650629
0.488875 0.152887 0.733380
0.490510 0.154522 0.815807
0.494397 0.244552 0.158409
0.496140 0.246296 0.246296
0.497845 0.248000 0.332209
0.499528 0.249683 0.417067
0.501197 0.251352 0.501197
0.502855 0.253010 0.584772
0.504504 0.254659 0.667899
0.506146 0.256301 0.750650
0.507781 0.257936 0.833078
0.511280 0.345644 0.175292
0.513023 0.347388 0.263179
0.514728 0.349092 0.349092
0.516411 0.350776 0.433950
0.518080 0.352445 0.518080
0.519738 0.354102 0.601655
0.521387 0.355752 0.684782
0.523028 0.357393 0.767533
0.524664 0.359028 0.849961
0.527955 0.445494 0.191967
0.529699 0.447237 0.279854
0.531403 0.448942 0.365768
0.533086 0.450625 0.450625
0.534755 0.452294 0.534755
0.536413 0.453952 0.618331
0.538062 0.455601 0.701457
0.539704 0.457243 0.784209
0.541339 0.458878 0.866636
0.544487 0.544487 0.208499
0.546231 0.546231 0.296386
0.547935 0.547935 0.382300
0.549619 0.549619 0.467157
0.551288 0.551288 0.551288
0.552946 0.552946 0.634863
0.554595 0.554595 0.717990
0.556236 0.556236 0.800741
0.557871 0.557871 0.883169
0.560911 0.642828 0.224923
0.562654 0.644572 0.312810
0.564359 0.646276 0.398723
0.566042 0.647959 0.483581
0.567711 0.649628 0.567711
0.569369 0.651286 0.651286
0.571018 0.652935 0.734413
0.572660 0.654577 0.817164
0.574295 0.656212 0.899592
0.577246 0.740641 0.241258
0.578990 0.742385 0.329145
0.580694 0.744089 0.415059
0.582377 0.745773 0.499916
0.584046 0.747442 0.584046
0.585704 0.749100 0.667622
0.587353 0.750749 0.750749
0.588995 0.752390 0.833500
0.590630 0.754025 0.915927
0.593508 0.838012 0.257519
0.595251 0.839756 0.345406
0.596955 0.841460 0.431320
0.598639 0.843143 0.516178
0.600308 0.844812 0.600308
0.601966 0.846470 0.683883
0.603615 0.848119 0.767010
0.605256 0.849761 0.849761
0.606892 0.851396 0.932189
0.609705 0.935002 0.273717
0.611449 0.936746 0.361604
0.613153 0.938450 0.447518
0.614837 0.940134 0.532375
0.616506 0.941803 0.616506
0.618164 0.943461 0.700081
0.619813 0.945110 0.783208
0.621454 0.946751 0.865959
0.623089 0.948386 0.948386
0.563925 0.146020 0.146020
0.565669 0.147763 0.233907
0.567373 0.149468 0.319821
0.569057 0.151151 0.404678
0.570726 0.152820 0.488808
0.572384 0.154478 0.572384
0.574033 0.156127 0.655511
0.575674 0.157769 0.738262
0.577309 0.159404 0.820689
0.581196 0.249434 0.163291
0.582940 0.251178 0.251178
0.584644 0.252882 0.337091
0.586327 0.254565 0.421949
0.587996 0.256234 0.506079
0.589654 0.257892 0.589654
0.591303 0.259541 0.672781
0.592945 0.261183 0.755532
0.594580 0.262818 0.837960
0.598079 0.350526 0.180174
0.599823 0.352270 0.268061
0.601527 0.353974 0.353974
0.603210 0.355658 0.438832
0.604879 0.357327 0.522962
0.606537 0.358985 0.606537
0.608186 0.360634 0.689664
0.609828 0.362275 0.772415
0.611463 0.363910 0.854843
0.614754 0.450376 0.196849
0.616498 0.452119 0.284736
0.618202 0.453824 0.370650
0.619886 0.455507 0.455507
0.621555 0.457176 0.539637
0.623213 0.458834 0.623213
0.624862 0.460483 0.706339
0.626503 0.462125 0.789091
0.628138 0.463760 0.871518
0.631287 0.549369 0.213381
0.633030 0.551113 0.301268
0.634735 0.552817 0.387182
0.636418 0.554501 0.472039
0.638087 0.556170 0.556170
0.639745 0.557828 0.639745
0.641394 0.559477 0.722872
0.643036 0.561118 0.805623
0.644671 0.562753 0.888051
0.647710 0.647710 0.229805
0.649454 0.649454 0.317692
0.651158 0.651158 0.403605
0.652841 0.652841 0.488463
0.654510 0.654510 0.572593
0.656168 0.656168 0.656168
0.657817 0.657817 0.739295
0.659459 0.659459 0.822046
0.661094 0.661094 0.904474
0.664045 0.745523 0.246140
0.665789 0.747267 0.334027
0.667493 0.748971 0.419941
0.669177 0.750655 0.504798
0.670846 0.752324 0.588928
0.672504 0.753982 0.672504
0.674153 0.755631 0.755631
0.675794 0.757272 0.838382
0.677429 0.758907 0.920809
0.680307 0.842894 0.262401
0.682050 0.844638 0.350288
0.683755 0.846342 0.436202
0.685438 0.848025 0.521060
0.687107 0.849694 0.605190
0.688765 0.851352 0.688765
0.690414 0.853001 0.771892
0.692056 0.854643 0.854643
0.693691 0.856278 0.937071
0.696505 0.939885 0.278599
0.698248 0.941628 0.366486
0.699953 0.943332 0.452400
0.701636 0.945016 0.537257
0.703305 0.946685 0.621388
0.704963 0.948343 0.704963
0.706612 0.949992 0.788090
0.708254 0.951633 0.870841
0.709889 0.953268 0.953268
0.650259 0.150876 0.150876
0.652003 0.152619 0.238763
0.653707 0.154324 0.324676
0.655390 0.156007 0.409534
0.657059 0.157676 0.493664
0.658717 0.159334 0.577239
0.660366 0.160983 0.660366
0.662008 0.162625 0.743117
0.663643 0.164260 0.825545
0.667530 0.254290 0.168146
0.669273 0.256033 0.256033
0.670978 0.257738 0.341947
0.672661 0.259421 0.426805
0.674330 0.261090 0.510935
0.675988 0.262748 0.594510
0.677637 0.264397 0.677637
0.679279 0.266039 0.760388
0.680914 0.267674 0.842816
0.684413 0.355382 0.185029
0.686156 0.357126 0.272916
0.687861 0.358830 0.358830
0.689544 0.360513 0.443688
0.691213 0.362182 0.527818
0.692871 0.363840 0.611393
0.694520 0.365489 0.694520
0.696162 0.367131 0.777271
0.697797 0.368766 0.859699
0.701088 0.455232 0.201705
0.702832 0.456975 0.289592
0.704536 0.458679 0.375505
0.706219 0.460363 0.460363
0.707888 0.462032 0.544493
0.709546 0.463690 0.628068
0.711195 0.465339 0.711195
0.712837 0.466980 0.793946
0.714472 0.468616 0.876374
0.717621 0.554225 0.218237
0.719364 0.555969 0.306124
0.721068 0.557673 0.392038
0.722752 0.559357 0.476895
0.724421 0.561025 0.561025
0.726079 0.562683 0.644601
0.727728 0.564332 0.727728
0.729369 0.565974 0.810479
0.731005 0.567609 0.892906
0.734044 0.652566 0.234661
0.735787 0.654309 0.322548
0.737492 0.656014 0.408461
0.739175 0.657697 0.493319
0.740844 0.659366 0.577449
0.742502 0.661024 0.661024
0.744151 0.662673 0.744151
0.745793 0.664315 0.826902
0.747428 0.665950 0.909330
0.750379 0.750379 0.250996
0.752123 0.752123 0.338883
0.753827 0.753827 0.424796
0.755510 0.755510 0.509654
0.757179 0.757179 0.593784
0.758837 0.758837 0.677359
0.760486 0.760486 0.760486
0.762128 0.762128 0.843237
0.763763 0.763763 0.925665
0.766641 0.847750 0.267257
0.768384 0.849494 0.355144
0.770088 0.851198 0.441058
0.771772 0.852881 0.525915
0.773441 0.854550 0.610046
0.775099 0.856208 0.693621
0.776748 0.857857 0.776748
0.778389 0.859499 0.859499
0.780025 0.861134 0.941926
0.782838 0.944740 0.283455
0.784582 0.946484 0.371342
0.786286 0.948188 0.457256
0.787970 0.949872 0.542113
0.789639 0.951541 0.626243
0.791297 0.953198 0.709819
0.792946 0.954848 0.792946
0.794587 0.956489 0.875697
0.796222 0.958124 0.958124
0.736202 0.155710 0.155710
0.737946 0.157453 0.243597
0.739650 0.159158 0.329510
0.741334 0.160841 0.414368
0.743003 0.162510 0.498498
0.744661 0.164168 0.582073
0.746310 0.165817 0.665200
0.747951 0.167458 0.747951
0.749586 0.169094 0.830379
0.753473 0.259124 0.172980
0.755217 0.260867 0.260867
0.756921 0.262572 0.346781
0.758604 0.264255 0.431638
0.760273 0.265924 0.515769
0.761931 0.267582 0.599344
0.763580 0.269231 0.682471
0.765222 0.270873 0.765222
0.766857 0.272508 0.847650
0.770356 0.360216 0.189863
0.772100 0.361960 0.277750
0.773804 0.363664 0.363664
0.775487 0.365347 0.448521
0.777156 0.367016 0.532652
0.778814 0.368674 0.616227
0.780463 0.370323 0.699354
0.782105 0.371965 0.782105
0.783740 0.373600 0.864532
0.787031 0.460066 0.206539
0.788775 0.461809 0.294426
0.790479 0.463513 0.380339
0.792163 0.465197 0.465197
0.793832 0.466866 0.549327
0.795490 0.468524 0.632902
0.797139 0.470173 0.716029
0.798780 0.471814 0.798780
0.800415 0.473450 0.881208
0.803564 0.559059 0.223071
0.805307 0.560803 0.310958
0.807012 0.562507 0.396872
0.808695 0.564190 0.481729
0.810364 0.565859 0.565859
0.812022 0.567517 0.649435
0.813671 0.569166 0.732562
0.815313 0.570808 0.815313
0.816948 0.572443 0.897740
0.819987 0.657400 0.239494
0.821731 0.659143 0.327381
0.823435 0.660848 0.413295
0.825118 0.662531 0.498153
0.826787 0.664200 0.582283
0.828445 0.665858 0.665858
0.830094 0.667507 0.748985
0.831736 0.669149 0.831736
0.833371 0.670784 0.914164
0.836323 0.755213 0.255830
0.838066 0.756957 0.343717
0.839770 0.758661 0.429630
0.841454 0.760344 0.514488
0.843123 0.762013 0.598618
0.844781 0.763671 0.682193
0.846430 0.765320 0.765320
0.848071 0.766962 0.848071
0.849707 0.768597 0.930499
0.852584 0.852584 0.272091
0.854327 0.854327 0.359978
0.856032 0.856032 0.445892
0.857715 0.857715 0.530749
0.859384 0.859384 0.614879
0.861042 0.861042 0.698455
0.862691 0.862691 0.781582
0.864333 0.864333 0.864333
0.865968 0.865968 0.946760
0.868782 0.949574 0.288289
0.870525 0.951318 0.376176
0.872230 0.953022 0.462090
0.873913 0.954705 0.546947
0.875582 0.956374 0.631077
0.877240 0.958032 0.714653
0.878889 0.959681 0.797780
0.880531 0.961323 0.880531
0.882166 0.962958 0.962958
0.821810 0.160525 0.160525
0.823553 0.162268 0.248412
0.825258 0.163972 0.334325
0.826941 0.165656 0.419183
0.828610 0.167325 0.503313
0.830268 0.168983 0.586888
0.831917 0.170632 0.670015
0.833559 0.172273 0.752766
0.835194 0.173909 0.835194
0.839081 0.263939 0.177795
0.840824 0.265682 0.265682
0.842528 0.267387 0.351596
0.844212 0.269070 0.436453
0.845881 0.270739 0.520584
0.847539 0.272397 0.604159
0.849188 0.274046 0.687286
0.850829 0.275688 0.770037
0.852464 0.277323 0.852464
0.855963 0.365031 0.194678
0.857707 0.366775 0.282565
0.859411 0.368479 0.368479
0.861095 0.370162 0.453336
0.862764 0.371831 0.537467
0.864422 0.373489 0.621042
0.866071 0.375138 0.704169
0.867712 0.376780 0.786920
0.869347 0.378415 0.869347
0.872639 0.464880 0.211354
0.874382 0.466624 0.299241
0.876087 0.468328 0.385154
0.877770 0.470012 0.470012
0.879439 0.471681 0.554142
0.881097 0.473339 0.637717
0.882746 0.474988 0.720844
0.884388 0.476629 0.803595
0.886023 0.478264 0.886023
0.889171 0.563874 0.227886
0.890915 0.565618 0.315773
0.892619 0.567322 0.401687
0.894302 0.569005 0.486544
0.895971 0.570674 0.570674
0.897629 0.572332 0.654250
0.899278 0.573981 0.737377
0.900920 0.575623 0.820128
0.902555 0.577258 0.902555
0.905595 0.662215 0.244309
0.907338 0.663958 0.332196
0.909042 0.665663 0.418110
0.910726 0.667346 0.502968
0.912395 0.669015 0.587098
0.914053 0.670673 0.670673
0.915702 0.672322 0.753800
0.917343 0.673964 0.836551
0.918979 0.675599 0.918979
0.921930 0.760028 0.260645
0.923673 0.761772 0.348532
0.925378 0.763476 0.434445
0.927061 0.765159 0.519303
0.928730 0.766828 0.603433
0.930388 0.768486 0.687008
0.932037 0.770135 0.770135
0.933679 0.771777 0.852886
0.935314 0.773412 0.935314
0.938191 0.857399 0.276906
0.939935 0.859142 0.364793
0.941639 0.860847 0.450707
0.943323 0.862530 0.535564
0.944991 0.864199 0.619694
0.946649 0.865857 0.703270
0.948298 0.867506 0.786397
0.949940 0.869148 0.869148
0.951575 0.870783 0.951575
0.954389 0.954389 0.293104
0.956133 0.956133 0.380991
0.957837 0.957837 0.466905
0.959520 0.959520 0.551762
0.961189 0.961189 0.635892
0.962847 0.962847 0.719468
0.964496 0.964496 0.802595
0.966138 0.966138 0.885346
0.967773 0.967773 0.967773
