skills/editops-orchestrator/assets/grade/luts/vintage_fade_v12.cube
TITLE "vintage_fade_v12"
LUT_3D_SIZE 17
DOMAIN_MIN 0.0 0.0 0.0
DOMAIN_MAX 1.0 1.0 1.0
0.112850 0.112850 0.112850
0.113691 0.113691 0.158212
0.114518 0.114518 0.202835
0.115337 0.115337 0.247009
0.116150 0.116150 0.290859
0.116958 0.116958 0.334456
0.117763 0.117763 0.377845
0.118564 0.118564 0.421059
0.119362 0.119362 0.464121
0.120158 0.120158 0.507048
0.120951 0.120951 0.549855
0.121743 0.121743 0.592553
0.122533 0.122533 0.635151
0.123321 0.123321 0.677659
0.124107 0.124107 0.720082
0.124892 0.124892 0.762426
0.125676 0.125676 0.804697
0.121180 0.165702 0.121180
0.122021 0.166543 0.166543
0.122849 0.167370 0.211166
0.123668 0.168189 0.255339
0.124480 0.169002 0.299189
0.125289 0.169810 0.342786
0.126093 0.170615 0.386176
0.126894 0.171416 0.429390
0.127693 0.172214 0.472451
0.128488 0.173010 0.515379
0.129282 0.173803 0.558185
0.130073 0.174595 0.600883
0.130863 0.175385 0.643482
0.131651 0.176173 0.685989
0.132438 0.176959 0.728412
0.133223 0.177744 0.770756
0.134006 0.178528 0.813027
0.129375 0.217692 0.129375
0.130216 0.218533 0.174737
0.131043 0.219360 0.219360
0.131862 0.220179 0.263534
0.132675 0.220992 0.307384
0.133483 0.221800 0.350981
0.134288 0.222605 0.394371
0.135089 0.223406 0.437584
0.135887 0.224204 0.480646
0.136683 0.225000 0.523573
0.137477 0.225793 0.566380
0.138268 0.226585 0.609078
0.139058 0.227375 0.651677
0.139846 0.228163 0.694184
0.140632 0.228949 0.736607
0.141417 0.229734 0.778951
0.142201 0.230518 0.821222
0.137487 0.269159 0.137487
0.138328 0.270000 0.182850
0.139155 0.270827 0.227472
0.139974 0.271646 0.271646
0.140787 0.272459 0.315496
0.141595 0.273267 0.359093
0.142400 0.274071 0.402483
0.143201 0.274872 0.445697
0.143999 0.275671 0.488758
0.144795 0.276467 0.531685
0.145589 0.277260 0.574492
0.146380 0.278052 0.617190
0.147170 0.278842 0.659789
0.147958 0.279630 0.702296
0.148744 0.280416 0.744719
0.149529 0.281201 0.787063
0.150313 0.281985 0.829334
0.145540 0.320248 0.145540
0.146381 0.321089 0.190902
0.147208 0.321917 0.235525
0.148027 0.322736 0.279698
0.148840 0.323548 0.323548
0.149648 0.324357 0.367146
0.150452 0.325161 0.410535
0.151254 0.325962 0.453749
0.152052 0.326761 0.496811
0.152848 0.327556 0.539738
0.153641 0.328350 0.582545
0.154433 0.329142 0.625243
0.155223 0.329931 0.667841
0.156011 0.330719 0.710349
0.156797 0.331506 0.752772
0.157582 0.332291 0.795116
0.158366 0.333074 0.837387
0.153546 0.371044 0.153546
0.154387 0.371885 0.198909
0.155214 0.372712 0.243531
0.156033 0.373531 0.287705
0.156846 0.374344 0.331555
0.157654 0.375152 0.375152
0.158459 0.375956 0.418542
0.159260 0.376757 0.461756
0.160058 0.377556 0.504817
0.160854 0.378352 0.547744
0.161648 0.379145 0.590551
0.162439 0.379937 0.633249
0.163229 0.380726 0.675848
0.164017 0.381514 0.718355
0.164803 0.382301 0.760778
0.165588 0.383086 0.803122
0.166372 0.383870 0.845393
0.161514 0.421597 0.161514
0.162355 0.422438 0.206877
0.163182 0.423265 0.251499
0.164001 0.424084 0.295673
0.164814 0.424897 0.339523
0.165623 0.425705 0.383120
0.166427 0.426510 0.426510
0.167228 0.427311 0.469724
0.168026 0.428109 0.512785
0.168822 0.428905 0.555712
0.169616 0.429699 0.598519
0.170407 0.430490 0.641217
0.171197 0.431280 0.683816
0.171985 0.432068 0.726323
0.172772 0.432854 0.768746
0.173557 0.433639 0.811090
0.174340 0.434423 0.853361
0.169450 0.471946 0.169450
0.170291 0.472787 0.214813
0.171118 0.473614 0.259435
0.171937 0.474433 0.303609
0.172750 0.475246 0.347459
0.173558 0.476054 0.391056
0.174363 0.476859 0.434446
0.175164 0.477660 0.477660
0.175962 0.478458 0.520721
0.176758 0.479254 0.563648
0.177552 0.480047 0.606455
0.178343 0.480839 0.649153
0.179133 0.481629 0.691752
0.179921 0.482417 0.734259
0.180707 0.483203 0.776682
0.181492 0.483988 0.819026
0.182276 0.484772 0.861297
0.177358 0.522117 0.177358
0.178199 0.522958 0.222721
0.179026 0.523785 0.267343
0.179845 0.524604 0.311517
0.180658 0.525417 0.355367
0.181466 0.526225 0.398964
0.182271 0.527030 0.442354
0.183072 0.527831 0.485568
0.183870 0.528629 0.528629
0.184666 0.529425 0.571556
0.185460 0.530219 0.614363
0.186251 0.531010 0.657061
0.187041 0.531800 0.699660
0.187829 0.532588 0.742167
0.188615 0.533374 0.784590
0.189400 0.534159 0.826934
0.190184 0.534943 0.869205
0.185241 0.572131 0.185241
0.186082 0.572972 0.230604
0.186909 0.573800 0.275226
0.187728 0.574619 0.319400
0.188541 0.575432 0.363250
0.189350 0.576240 0.406847
0.190154 0.577044 0.450237
0.190955 0.577845 0.493451
0.191753 0.578644 0.536512
0.192549 0.579439 0.579439
0.193343 0.580233 0.622246
0.194134 0.581025 0.664944
0.194924 0.581814 0.707543
0.195712 0.582602 0.750050
0.196499 0.583389 0.792473
0.197284 0.584174 0.834817
0.198067 0.584957 0.877088
0.193102 0.622006 0.193102
0.193943 0.622847 0.238465
0.194771 0.623674 0.283088
0.195589 0.624493 0.327261
0.196402 0.625306 0.371111
0.197211 0.626114 0.414708
0.198015 0.626918 0.458098
0.198816 0.627720 0.501312
0.199615 0.628518 0.544373
0.200410 0.629314 0.587301
0.201204 0.630107 0.630107
0.201995 0.630899 0.672805
0.202785 0.631689 0.715404
0.203573 0.632477 0.757911
0.204360 0.633263 0.800334
0.205145 0.634048 0.842678
0.205928 0.634832 0.884949
0.200943 0.671753 0.200943
0.201784 0.672594 0.246306
0.202612 0.673421 0.290929
0.203431 0.674240 0.335102
0.204244 0.675053 0.378952
0.205052 0.675862 0.422549
0.205856 0.676666 0.465939
0.206657 0.677467 0.509153
0.207456 0.678265 0.552215
0.208251 0.679061 0.595142
0.209045 0.679855 0.637948
0.209837 0.680646 0.680646
0.210626 0.681436 0.723245
0.211414 0.682224 0.765752
0.212201 0.683011 0.808175
0.212986 0.683796 0.850519
0.213769 0.684579 0.892790
0.208766 0.721385 0.208766
0.209607 0.722226 0.254129
0.210435 0.723053 0.298752
0.211254 0.723872 0.342925
0.212066 0.724685 0.386775
0.212875 0.725493 0.430372
0.213679 0.726298 0.473762
0.214480 0.727099 0.516976
0.215279 0.727897 0.560037
0.216074 0.728693 0.602965
0.216868 0.729487 0.645771
0.217660 0.730278 0.688469
0.218449 0.731068 0.731068
0.219237 0.731856 0.773575
0.220024 0.732642 0.815998
0.220809 0.733427 0.858342
0.221592 0.734211 0.900613
0.216573 0.770911 0.216573
0.217413 0.771751 0.261935
0.218241 0.772579 0.306558
0.219060 0.773398 0.350731
0.219873 0.774211 0.394581
0.220681 0.775019 0.438178
0.221485 0.775823 0.481568
0.222286 0.776624 0.524782
0.223085 0.777423 0.567844
0.223880 0.778218 0.610771
0.224674 0.779012 0.653577
0.225466 0.779804 0.696275
0.226255 0.780593 0.738874
0.227043 0.781381 0.781381
0.227830 0.782168 0.823804
0.228615 0.782953 0.866149
0.229399 0.783737 0.908419
0.224363 0.820338 0.224363
0.225204 0.821178 0.269726
0.226031 0.822006 0.314348
0.226850 0.822825 0.358522
0.227663 0.823638 0.402372
0.228471 0.824446 0.445969
0.229276 0.825250 0.489359
0.230077 0.826051 0.532573
0.230875 0.826850 0.575634
0.231671 0.827645 0.618561
0.232465 0.828439 0.661368
0.233256 0.829231 0.704066
0.234046 0.830020 0.746665
0.234834 0.830808 0.789172
0.235620 0.831595 0.831595
0.236405 0.832380 0.873939
0.237189 0.833164 0.916210
0.232139 0.869673 0.232139
0.232980 0.870514 0.277502
0.233808 0.871341 0.322124
0.234626 0.872160 0.366298
0.235439 0.872973 0.410148
0.236248 0.873781 0.453745
0.237052 0.874586 0.497135
0.237853 0.875387 0.540349
0.238651 0.876185 0.583410
0.239447 0.876981 0.626337
0.240241 0.877774 0.669144
0.241032 0.878566 0.711842
0.241822 0.879356 0.754441
0.242610 0.880144 0.796948
0.243397 0.880930 0.839371
0.244182 0.881715 0.881715
0.244965 0.882499 0.923986
0.239902 0.918923 0.239902
0.240743 0.919764 0.285265
0.241570 0.920591 0.329887
0.242389 0.921410 0.374061
0.243202 0.922223 0.417911
0.244010 0.923031 0.461508
0.244815 0.923835 0.504898
0.245616 0.924637 0.548112
0.246414 0.925435 0.591173
0.247210 0.926231 0.634100
0.248004 0.927024 0.676907
0.248795 0.927816 0.719605
0.249585 0.928606 0.762204
0.250373 0.929394 0.804711
0.251159 0.930180 0.847134
0.251944 0.930965 0.889478
0.252728 0.931749 0.931749
0.159848 0.115326 0.115326
0.160689 0.116167 0.160689
0.161516 0.116994 0.205311
0.162335 0.117813 0.249485
0.163148 0.118626 0.293335
0.163956 0.119435 0.336932
0.164760 0.120239 0.380322
0.165562 0.121040 0.423536
0.166360 0.121838 0.466597
0.167156 0.122634 0.509524
0.167949 0.123428 0.552331
0.168741 0.124219 0.595029
0.169531 0.125009 0.637628
0.170319 0.125797 0.680135
0.171105 0.126584 0.722558
0.171890 0.127369 0.764902
0.172674 0.128152 0.807173
0.168178 0.168178 0.123657
0.169019 0.169019 0.169019
0.169846 0.169846 0.213642
0.170665 0.170665 0.257815
0.171478 0.171478 0.301665
0.172287 0.172287 0.345263
0.173091 0.173091 0.388652
0.173892 0.173892 0.431866
0.174690 0.174690 0.474928
0.175486 0.175486 0.517855
0.176280 0.176280 0.560662
0.177071 0.177071 0.603360
0.177861 0.177861 0.645958
0.178649 0.178649 0.688466
0.179436 0.179436 0.730888
0.180221 0.180221 0.773233
0.181004 0.181004 0.815503
0.176373 0.220168 0.131851
0.177214 0.221009 0.177214
0.178041 0.221836 0.221836
0.178860 0.222655 0.266010
0.179673 0.223468 0.309860
0.180481 0.224277 0.353457
0.181286 0.225081 0.396847
0.182087 0.225882 0.440061
0.182885 0.226680 0.483122
0.183681 0.227476 0.526049
0.184474 0.228270 0.568856
0.185266 0.229061 0.611554
0.186056 0.229851 0.654153
0.186844 0.230639 0.696660
0.187630 0.231426 0.739083
0.188415 0.232211 0.781427
0.189199 0.232994 0.823698
0.184485 0.271635 0.139963
0.185326 0.272476 0.185326
0.186153 0.273303 0.229949
0.186972 0.274122 0.274122
0.187785 0.274935 0.317972
0.188593 0.275743 0.361569
0.189398 0.276548 0.404959
0.190199 0.277349 0.448173
0.190997 0.278147 0.491234
0.191793 0.278943 0.534162
0.192586 0.279737 0.576968
0.193378 0.280528 0.619666
0.194168 0.281318 0.662265
0.194956 0.282106 0.704772
0.195742 0.282892 0.747195
0.196527 0.283677 0.789539
0.197311 0.284461 0.831810
0.192538 0.322725 0.148016
0.193379 0.323566 0.193379
0.194206 0.324393 0.238001
0.195025 0.325212 0.282175
0.195838 0.326025 0.326025
0.196646 0.326833 0.369622
0.197450 0.327637 0.413012
0.198251 0.328439 0.456226
0.199050 0.329237 0.499287
0.199846 0.330033 0.542214
0.200639 0.330826 0.585021
0.201431 0.331618 0.627719
0.202220 0.332408 0.670318
0.203009 0.333196 0.712825
0.203795 0.333982 0.755248
0.204580 0.334767 0.797592
0.205364 0.335551 0.839863
0.200544 0.373520 0.156022
0.201385 0.374361 0.201385
0.202212 0.375188 0.246008
0.203031 0.376007 0.290181
0.203844 0.376820 0.334031
0.204652 0.377628 0.377628
0.205457 0.378433 0.421018
0.206258 0.379234 0.464232
0.207056 0.380032 0.507293
0.207852 0.380828 0.550221
0.208645 0.381621 0.593027
0.209437 0.382413 0.635725
0.210227 0.383203 0.678324
0.211015 0.383991 0.720831
0.211801 0.384777 0.763254
0.212586 0.385562 0.805598
0.213370 0.386346 0.847869
0.208512 0.424073 0.163991
0.209353 0.424914 0.209353
0.210180 0.425742 0.253976
0.210999 0.426561 0.298149
0.211812 0.427373 0.341999
0.212620 0.428182 0.385596
0.213425 0.428986 0.428986
0.214226 0.429787 0.472200
0.215024 0.430586 0.515262
0.215820 0.431381 0.558189
0.216614 0.432175 0.600995
0.217405 0.432966 0.643693
0.218195 0.433756 0.686292
0.218983 0.434544 0.728799
0.219769 0.435331 0.771222
0.220554 0.436116 0.813567
0.221338 0.436899 0.855837
0.216448 0.474422 0.171926
0.217289 0.475263 0.217289
0.218116 0.476090 0.261912
0.218935 0.476909 0.306085
0.219748 0.477722 0.349935
0.220556 0.478530 0.393532
0.221361 0.479335 0.436922
0.222162 0.480136 0.480136
0.222960 0.480934 0.523198
0.223756 0.481730 0.566125
0.224550 0.482524 0.608931
0.225341 0.483315 0.651629
0.226131 0.484105 0.694228
0.226919 0.484893 0.736735
0.227705 0.485679 0.779158
0.228490 0.486464 0.821502
0.229274 0.487248 0.863773
0.224356 0.524593 0.179834
0.225197 0.525434 0.225197
0.226024 0.526262 0.269820
0.226843 0.527080 0.313993
0.227656 0.527893 0.357843
0.228464 0.528702 0.401440
0.229269 0.529506 0.444830
0.230070 0.530307 0.488044
0.230868 0.531105 0.531105
0.231664 0.531901 0.574033
0.232457 0.532695 0.616839
0.233249 0.533486 0.659537
0.234039 0.534276 0.702136
0.234827 0.535064 0.744643
0.235613 0.535851 0.787066
0.236398 0.536636 0.829410
0.237182 0.537419 0.871681
0.232239 0.574608 0.187718
0.233080 0.575449 0.233080
0.233907 0.576276 0.277703
0.234726 0.577095 0.321876
0.235539 0.577908 0.365726
0.236347 0.578716 0.409323
0.237152 0.579520 0.452713
0.237953 0.580322 0.495927
0.238751 0.581120 0.538989
0.239547 0.581916 0.581916
0.240341 0.582709 0.624722
0.241132 0.583501 0.667420
0.241922 0.584291 0.710019
0.242710 0.585079 0.752526
0.243496 0.585865 0.794949
0.244281 0.586650 0.837294
0.245065 0.587434 0.879564
0.240100 0.624482 0.195579
0.240941 0.625323 0.240941
0.241768 0.626150 0.285564
0.242587 0.626969 0.329737
0.243400 0.627782 0.373587
0.244209 0.628590 0.417184
0.245013 0.629395 0.460574
0.245814 0.630196 0.503788
0.246612 0.630994 0.546850
0.247408 0.631790 0.589777
0.248202 0.632584 0.632584
0.248993 0.633375 0.675282
0.249783 0.634165 0.717880
0.250571 0.634953 0.760388
0.251358 0.635739 0.802810
0.252143 0.636524 0.845155
0.252926 0.637308 0.887425
0.247941 0.674230 0.203420
0.248782 0.675071 0.248782
0.249610 0.675898 0.293405
0.250428 0.676717 0.337579
0.251241 0.677530 0.381428
0.252050 0.678338 0.425026
0.252854 0.679142 0.468415
0.253655 0.679943 0.511629
0.254453 0.680742 0.554691
0.255249 0.681538 0.597618
0.256043 0.682331 0.640425
0.256834 0.683123 0.683123
0.257624 0.683912 0.725721
0.258412 0.684700 0.768229
0.259199 0.685487 0.810652
0.259984 0.686272 0.852996
0.260767 0.687056 0.895267
0.255764 0.723861 0.211243
0.256605 0.724702 0.256605
0.257432 0.725530 0.301228
0.258251 0.726349 0.345401
0.259064 0.727161 0.389251
0.259873 0.727970 0.432849
0.260677 0.728774 0.476238
0.261478 0.729575 0.519452
0.262276 0.730374 0.562514
0.263072 0.731169 0.605441
0.263866 0.731963 0.648248
0.264657 0.732755 0.690946
0.265447 0.733544 0.733544
0.266235 0.734332 0.776052
0.267022 0.735119 0.818474
0.267807 0.735904 0.860819
0.268590 0.736687 0.903089
0.263570 0.773387 0.219049
0.264411 0.774228 0.264411
0.265239 0.775055 0.309034
0.266058 0.775874 0.353208
0.266870 0.776687 0.397058
0.267679 0.777495 0.440655
0.268483 0.778300 0.484044
0.269284 0.779101 0.527258
0.270083 0.779899 0.570320
0.270878 0.780695 0.613247
0.271672 0.781488 0.656054
0.272463 0.782280 0.698752
0.273253 0.783070 0.741350
0.274041 0.783858 0.783858
0.274828 0.784644 0.826281
0.275613 0.785429 0.868625
0.276396 0.786213 0.910896
0.271361 0.822814 0.226839
0.272202 0.823655 0.272202
0.273029 0.824482 0.316825
0.273848 0.825301 0.360998
0.274661 0.826114 0.404848
0.275469 0.826922 0.448445
0.276274 0.827727 0.491835
0.277075 0.828528 0.535049
0.277873 0.829326 0.578111
0.278669 0.830122 0.621038
0.279463 0.830915 0.663844
0.280254 0.831707 0.706542
0.281044 0.832497 0.749141
0.281832 0.833285 0.791648
0.282618 0.834071 0.834071
0.283403 0.834856 0.876415
0.284187 0.835640 0.918686
0.279137 0.872149 0.234616
0.279978 0.872990 0.279978
0.280805 0.873817 0.324601
0.281624 0.874636 0.368774
0.282437 0.875449 0.412624
0.283245 0.876258 0.456221
0.284050 0.877062 0.499611
0.284851 0.877863 0.542825
0.285649 0.878661 0.585887
0.286445 0.879457 0.628814
0.287239 0.880251 0.671621
0.288030 0.881042 0.714319
0.288820 0.881832 0.756917
0.289608 0.882620 0.799425
0.290395 0.883407 0.841847
0.291180 0.884192 0.884192
0.291963 0.884975 0.926462
0.286900 0.921399 0.242378
0.287741 0.922240 0.287741
0.288568 0.923067 0.332363
0.289387 0.923886 0.376537
0.290200 0.924699 0.420387
0.291008 0.925507 0.463984
0.291813 0.926312 0.507374
0.292614 0.927113 0.550588
0.293412 0.927911 0.593649
0.294208 0.928707 0.636576
0.295001 0.929501 0.679383
0.295793 0.930292 0.722081
0.296583 0.931082 0.764680
0.297371 0.931870 0.807187
0.298157 0.932656 0.849610
0.298942 0.933441 0.891954
0.299726 0.934225 0.934225
0.206079 0.117762 0.117762
0.206920 0.118603 0.163125
0.207747 0.119430 0.207747
0.208566 0.120249 0.251921
0.209379 0.121062 0.295771
0.210187 0.121870 0.339368
0.210992 0.122675 0.382758
0.211793 0.123476 0.425972
0.212591 0.124274 0.469033
0.213387 0.125070 0.511960
0.214181 0.125864 0.554767
0.214972 0.126655 0.597465
0.215762 0.127445 0.640064
0.216550 0.128233 0.682571
0.217336 0.129019 0.724994
0.218121 0.129805 0.767338
0.218905 0.130588 0.809609
0.214410 0.170614 0.126093
0.215251 0.171455 0.171455
0.216078 0.172282 0.216078
0.216897 0.173101 0.260251
0.217710 0.173914 0.304101
0.218518 0.174722 0.347698
0.219322 0.175527 0.391088
0.220123 0.176328 0.434302
0.220922 0.177126 0.477364
0.221718 0.177922 0.520291
0.222511 0.178716 0.563098
0.223303 0.179507 0.605795
0.224092 0.180297 0.648394
0.224880 0.181085 0.690901
0.225667 0.181871 0.733324
0.226452 0.182657 0.775669
0.227236 0.183440 0.817939
0.222604 0.222604 0.134287
0.223445 0.223445 0.179650
0.224272 0.224272 0.224272
0.225091 0.225091 0.268446
0.225904 0.225904 0.312296
0.226712 0.226712 0.355893
0.227517 0.227517 0.399283
0.228318 0.228318 0.442497
0.229116 0.229116 0.485558
0.229912 0.229912 0.528485
0.230706 0.230706 0.571292
0.231497 0.231497 0.613990
0.232287 0.232287 0.656589
0.233075 0.233075 0.699096
0.233862 0.233862 0.741519
0.234647 0.234647 0.783863
0.235430 0.235430 0.826134
0.230716 0.274071 0.142399
0.231557 0.274912 0.187762
0.232384 0.275739 0.232384
0.233203 0.276558 0.276558
0.234016 0.277371 0.320408
0.234825 0.278179 0.364005
0.235629 0.278984 0.407395
0.236430 0.279785 0.450609
0.237228 0.280583 0.493670
0.238024 0.281379 0.536597
0.238818 0.282172 0.579404
0.239609 0.282964 0.622102
0.240399 0.283754 0.664701
0.241187 0.284542 0.707208
0.241974 0.285328 0.749631
0.242759 0.286113 0.791975
0.243542 0.286897 0.834246
0.238769 0.325161 0.150452
0.239610 0.326002 0.195815
0.240437 0.326829 0.240437
0.241256 0.327648 0.284611
0.242069 0.328461 0.328461
0.242877 0.329269 0.372058
0.243682 0.330073 0.415448
0.244483 0.330874 0.458662
0.245281 0.331673 0.501723
0.246077 0.332469 0.544650
0.246871 0.333262 0.587457
0.247662 0.334054 0.630155
0.248452 0.334843 0.672754
0.249240 0.335632 0.715261
0.250026 0.336418 0.757684
0.250811 0.337203 0.800028
0.251595 0.337987 0.842299
0.246775 0.375956 0.158458
0.247616 0.376797 0.203821
0.248443 0.377624 0.248443
0.249262 0.378443 0.292617
0.250075 0.379256 0.336467
0.250884 0.380064 0.380064
0.251688 0.380868 0.423454
0.252489 0.381670 0.466668
0.253287 0.382468 0.509729
0.254083 0.383264 0.552656
0.254877 0.384057 0.595463
0.255668 0.384849 0.638161
0.256458 0.385639 0.680760
0.257246 0.386427 0.723267
0.258033 0.387213 0.765690
0.258818 0.387998 0.808034
0.259601 0.388782 0.850305
0.254743 0.426509 0.166426
0.255584 0.427350 0.211789
0.256412 0.428178 0.256412
0.257231 0.428996 0.300585
0.258043 0.429809 0.344435
0.258852 0.430618 0.388032
0.259656 0.431422 0.431422
0.260457 0.432223 0.474636
0.261256 0.433021 0.517698
0.262051 0.433817 0.560625
0.262845 0.434611 0.603431
0.263637 0.435402 0.646129
0.264426 0.436192 0.688728
0.265214 0.436980 0.731235
0.266001 0.437767 0.773658
0.266786 0.438552 0.816002
0.267569 0.439335 0.858273
0.262679 0.476858 0.174362
0.263520 0.477699 0.219725
0.264348 0.478526 0.264348
0.265166 0.479345 0.308521
0.265979 0.480158 0.352371
0.266788 0.480966 0.395968
0.267592 0.481771 0.439358
0.268393 0.482572 0.482572
0.269191 0.483370 0.525633
0.269987 0.484166 0.568561
0.270781 0.484960 0.611367
0.271572 0.485751 0.654065
0.272362 0.486541 0.696664
0.273150 0.487329 0.739171
0.273937 0.488115 0.781594
0.274722 0.488900 0.823938
0.275505 0.489684 0.866209
0.270587 0.527029 0.182270
0.271428 0.527870 0.227633
0.272255 0.528697 0.272255
0.273074 0.529516 0.316429
0.273887 0.530329 0.360279
0.274696 0.531138 0.403876
0.275500 0.531942 0.447266
0.276301 0.532743 0.490480
0.277099 0.533541 0.533541
0.277895 0.534337 0.576468
0.278689 0.535131 0.619275
0.279480 0.535922 0.661973
0.280270 0.536712 0.704572
0.281058 0.537500 0.747079
0.281845 0.538287 0.789502
0.282630 0.539072 0.831846
0.283413 0.539855 0.874117
0.278470 0.577044 0.190153
0.279311 0.577885 0.235516
0.280139 0.578712 0.280139
0.280958 0.579531 0.324312
0.281770 0.580344 0.368162
0.282579 0.581152 0.411759
0.283383 0.581956 0.455149
0.284184 0.582758 0.498363
0.284983 0.583556 0.541425
0.285778 0.584352 0.584352
0.286572 0.585145 0.627158
0.287364 0.585937 0.669856
0.288153 0.586727 0.712455
0.288941 0.587515 0.754962
0.289728 0.588301 0.797385
0.290513 0.589086 0.839729
0.291296 0.589870 0.882000
0.286332 0.626918 0.198015
0.287173 0.627759 0.243377
0.288000 0.628586 0.288000
0.288819 0.629405 0.332173
0.289632 0.630218 0.376023
0.290440 0.631026 0.419620
0.291244 0.631831 0.463010
0.292045 0.632632 0.506224
0.292844 0.633430 0.549286
0.293640 0.634226 0.592213
0.294433 0.635020 0.635020
0.295225 0.635811 0.677717
0.296014 0.636601 0.720316
0.296802 0.637389 0.762823
0.297589 0.638175 0.805246
0.298374 0.638960 0.847591
0.299158 0.639744 0.889861
0.294173 0.676665 0.205856
0.295014 0.677506 0.251218
0.295841 0.678334 0.295841
0.296660 0.679153 0.340014
0.297473 0.679966 0.383864
0.298281 0.680774 0.427462
0.299085 0.681578 0.470851
0.299887 0.682379 0.514065
0.300685 0.683178 0.557127
0.301481 0.683973 0.600054
0.302274 0.684767 0.642861
0.303066 0.685559 0.685559
0.303856 0.686348 0.728157
0.304644 0.687136 0.770665
0.305430 0.687923 0.813087
0.306215 0.688708 0.855432
0.306999 0.689492 0.897702
0.301996 0.726297 0.213679
0.302837 0.727138 0.259041
0.303664 0.727966 0.303664
0.304483 0.728784 0.347837
0.305296 0.729597 0.391687
0.306104 0.730406 0.435284
0.306908 0.731210 0.478674
0.307709 0.732011 0.521888
0.308508 0.732809 0.564950
0.309304 0.733605 0.607877
0.310097 0.734399 0.650684
0.310889 0.735190 0.693382
0.311678 0.735980 0.735980
0.312466 0.736768 0.778487
0.313253 0.737555 0.820910
0.314038 0.738340 0.863255
0.314822 0.739123 0.905525
0.309802 0.775823 0.221485
0.310643 0.776664 0.266847
0.311470 0.777491 0.311470
0.312289 0.778310 0.355643
0.313102 0.779123 0.399493
0.313910 0.779931 0.443091
0.314714 0.780735 0.486480
0.315516 0.781537 0.529694
0.316314 0.782335 0.572756
0.317110 0.783131 0.615683
0.317903 0.783924 0.658490
0.318695 0.784716 0.701188
0.319485 0.785506 0.743786
0.320273 0.786294 0.786294
0.321059 0.787080 0.828716
0.321844 0.787865 0.871061
0.322628 0.788649 0.913332
0.317592 0.825250 0.229275
0.318433 0.826091 0.274638
0.319261 0.826918 0.319261
0.320079 0.827737 0.363434
0.320892 0.828550 0.407284
0.321701 0.829358 0.450881
0.322505 0.830162 0.494271
0.323306 0.830964 0.537485
0.324104 0.831762 0.580546
0.324900 0.832558 0.623474
0.325694 0.833351 0.666280
0.326485 0.834143 0.708978
0.327275 0.834933 0.751577
0.328063 0.835721 0.794084
0.328850 0.836507 0.836507
0.329635 0.837292 0.878851
0.330418 0.838076 0.921122
0.325369 0.874585 0.237052
0.326209 0.875426 0.282414
0.327037 0.876253 0.327037
0.327856 0.877072 0.371210
0.328669 0.877885 0.415060
0.329477 0.878693 0.458657
0.330281 0.879498 0.502047
0.331082 0.880299 0.545261
0.331881 0.881097 0.588323
0.332676 0.881893 0.631250
0.333470 0.882687 0.674056
0.334262 0.883478 0.716754
0.335051 0.884268 0.759353
0.335839 0.885056 0.801860
0.336626 0.885843 0.844283
0.337411 0.886628 0.886628
0.338195 0.887411 0.928898
0.333131 0.923835 0.244814
0.333972 0.924676 0.290177
0.334799 0.925503 0.334799
0.335618 0.926322 0.378973
0.336431 0.927135 0.422823
0.337239 0.927943 0.466420
0.338044 0.928748 0.509810
0.338845 0.929549 0.553024
0.339643 0.930347 0.596085
0.340439 0.931143 0.639012
0.341233 0.931937 0.681819
0.342024 0.932728 0.724517
0.342814 0.933518 0.767116
0.343602 0.934306 0.809623
0.344389 0.935092 0.852046
0.345174 0.935877 0.894390
0.345957 0.936661 0.936661
0.251845 0.120174 0.120174
0.252686 0.121015 0.165536
0.253513 0.121842 0.210159
0.254332 0.122661 0.254332
0.255145 0.123474 0.298182
0.255953 0.124282 0.341779
0.256758 0.125086 0.385169
0.257559 0.125887 0.428383
0.258357 0.126686 0.471445
0.259153 0.127482 0.514372
0.259947 0.128275 0.557178
0.260738 0.129067 0.599876
0.261528 0.129856 0.642475
0.262316 0.130644 0.684982
0.263102 0.131431 0.727405
0.263887 0.132216 0.769750
0.264671 0.133000 0.812020
0.260176 0.173026 0.128504
