skills/editops-orchestrator/assets/grade/luts/vintage_fade_v01.cube
TITLE "vintage_fade_v01"
LUT_3D_SIZE 5
DOMAIN_MIN 0.0 0.0 0.0
DOMAIN_MAX 1.0 1.0 1.0
0.020367 0.020367 0.020367
0.021785 0.021785 0.247697
0.023186 0.023186 0.472216
0.024579 0.024579 0.695588
0.025968 0.025968 0.918214
0.034416 0.260329 0.034416
0.035835 0.261747 0.261747
0.037235 0.263148 0.486266
0.038629 0.264541 0.709638
0.040018 0.265930 0.932263
0.048292 0.497323 0.048292
0.049711 0.498741 0.275623
0.051111 0.500142 0.500142
0.052505 0.501535 0.723514
0.053894 0.502924 0.946139
0.062098 0.733107 0.062098
0.063516 0.734525 0.289428
0.064917 0.735926 0.513947
0.066310 0.737319 0.737319
0.067699 0.738708 0.959945
0.075856 0.968102 0.075856
0.077275 0.969520 0.303187
0.078676 0.970921 0.527706
0.080069 0.972315 0.751078
0.081458 0.973704 0.973704
0.250455 0.024543 0.024543
0.251874 0.025961 0.251874
0.253274 0.027362 0.476392
0.254668 0.028756 0.699765
0.256057 0.030145 0.922390
0.264505 0.264505 0.038593
0.265923 0.265923 0.265923
0.267324 0.267324 0.490442
0.268718 0.268718 0.713815
0.270107 0.270107 0.936440
0.278381 0.501499 0.052469
0.279799 0.502917 0.279799
0.281200 0.504318 0.504318
0.282594 0.505712 0.727691
0.283983 0.507101 0.950316
0.292186 0.737283 0.066274
0.293605 0.738701 0.293605
0.295005 0.740102 0.518123
0.296399 0.741496 0.741496
0.297788 0.742885 0.964121
0.305945 0.972278 0.080033
0.307364 0.973697 0.307364
0.308764 0.975097 0.531882
0.310158 0.976491 0.755255
0.311547 0.977880 0.977880
0.477698 0.028668 0.028668
0.479116 0.030086 0.255998
0.480517 0.031487 0.480517
0.481911 0.032881 0.703890
0.483300 0.034270 0.926515
0.491748 0.268630 0.042718
0.493166 0.270048 0.270048
0.494567 0.271449 0.494567
0.495961 0.272843 0.717939
0.497350 0.274232 0.940565
0.505624 0.505624 0.056594
0.507042 0.507042 0.283924
0.508443 0.508443 0.508443
0.509837 0.509837 0.731815
0.511226 0.511226 0.954441
0.519429 0.741408 0.070399
0.520847 0.742826 0.297729
0.522248 0.744227 0.522248
0.523642 0.745621 0.745621
0.525031 0.747010 0.968246
0.533188 0.976403 0.084158
0.534606 0.977821 0.311488
0.536007 0.979222 0.536007
0.537401 0.980616 0.759380
0.538790 0.982005 0.982005
0.703781 0.032771 0.032771
0.705199 0.034190 0.260102
0.706600 0.035591 0.484621
0.707993 0.036984 0.707993
0.709382 0.038373 0.930619
0.717830 0.272734 0.046821
0.719249 0.274152 0.274152
0.720650 0.275553 0.498671
0.722043 0.276946 0.722043
0.723432 0.278335 0.944668
0.731706 0.509728 0.060697
0.733125 0.511146 0.288028
0.734526 0.512547 0.512547
0.735919 0.513940 0.735919
0.737308 0.515329 0.958544
0.745512 0.745512 0.074502
0.746930 0.746930 0.301833
0.748331 0.748331 0.526352
0.749724 0.749724 0.749724
0.751113 0.751113 0.972350
0.759271 0.980507 0.088261
0.760689 0.981925 0.315592
0.762090 0.983326 0.540111
0.763483 0.984720 0.763483
0.764872 0.986109 0.986109
0.929107 0.036861 0.036861
0.930525 0.038280 0.264192
0.931926 0.039681 0.488711
0.933320 0.041074 0.712083
0.934709 0.042463 0.934709
0.943157 0.276824 0.050911
0.944575 0.278242 0.278242
0.945976 0.279643 0.502761
0.947369 0.281036 0.726133
0.948758 0.282425 0.948758
0.957033 0.513818 0.064787
0.958451 0.515236 0.292118
0.959852 0.516637 0.516637
0.961245 0.518030 0.740009
0.962634 0.519419 0.962634
0.970838 0.749602 0.078592
0.972256 0.751020 0.305923
0.973657 0.752421 0.530442
0.975051 0.753814 0.753814
0.976440 0.755203 0.976440
0.984597 0.984597 0.092351
0.986015 0.986015 0.319682
0.987416 0.987416 0.544201
0.988810 0.988810 0.767573
0.990199 0.990199 0.990199
