skills/editops-orchestrator/assets/grade/luts/vintage_fade_v09.cube
TITLE "vintage_fade_v09"
LUT_3D_SIZE 17
DOMAIN_MIN 0.0 0.0 0.0
DOMAIN_MAX 1.0 1.0 1.0
0.087898 0.087898 0.087898
0.088619 0.088619 0.136471
0.089329 0.089329 0.184305
0.090033 0.090033 0.231714
0.090732 0.090732 0.278822
0.091427 0.091427 0.325696
0.092120 0.092120 0.372380
0.092811 0.092811 0.418904
0.093499 0.093499 0.465289
0.094186 0.094186 0.511551
0.094871 0.094871 0.557705
0.095554 0.095554 0.603759
0.096236 0.096236 0.649724
0.096917 0.096917 0.695607
0.097597 0.097597 0.741413
0.098276 0.098276 0.787148
0.098954 0.098954 0.832816
0.095039 0.142890 0.095039
0.095760 0.143611 0.143611
0.096470 0.144321 0.191446
0.097173 0.145025 0.238855
0.097873 0.145724 0.285962
0.098568 0.146420 0.332837
0.099261 0.147112 0.379521
0.099951 0.147803 0.426045
0.100640 0.148491 0.472429
0.101326 0.149178 0.518692
0.102011 0.149863 0.564845
0.102695 0.150546 0.610900
0.103377 0.151228 0.656865
0.104058 0.151909 0.702747
0.104738 0.152589 0.748553
0.105417 0.153268 0.794288
0.106094 0.153946 0.839957
0.102071 0.197048 0.102071
0.102792 0.197769 0.150644
0.103502 0.198478 0.198478
0.104206 0.199182 0.245887
0.104905 0.199881 0.292995
0.105601 0.200577 0.339869
0.106293 0.201270 0.386553
0.106984 0.201960 0.433077
0.107672 0.202649 0.479462
0.108359 0.203335 0.525724
0.109044 0.204020 0.571878
0.109727 0.204704 0.617933
0.110409 0.205386 0.663897
0.111090 0.206067 0.709780
0.111770 0.206747 0.755586
0.112449 0.207425 0.801321
0.113127 0.208103 0.846989
0.109041 0.250723 0.109041
0.109762 0.251443 0.157613
0.110472 0.252153 0.205448
0.111175 0.252857 0.252857
0.111875 0.253556 0.299965
0.112570 0.254252 0.346839
0.113263 0.254945 0.393523
0.113954 0.255635 0.440047
0.114642 0.256323 0.486431
0.115329 0.257010 0.532694
0.116013 0.257695 0.578847
0.116697 0.258379 0.624902
0.117379 0.259061 0.670867
0.118060 0.259742 0.716750
0.118740 0.260421 0.762555
0.119419 0.261100 0.808290
0.120096 0.261778 0.853959
0.115966 0.304056 0.115966
0.116687 0.304777 0.164539
0.117397 0.305487 0.212374
0.118101 0.306191 0.259782
0.118800 0.306890 0.306890
0.119496 0.307586 0.353764
0.120188 0.308278 0.400448
0.120879 0.308969 0.446972
0.121567 0.309657 0.493357
0.122254 0.310344 0.539619
0.122939 0.311029 0.585773
0.123622 0.311712 0.631828
0.124305 0.312395 0.677793
0.124986 0.313075 0.723675
0.125665 0.313755 0.769481
0.126344 0.314434 0.815216
0.127022 0.315112 0.860884
0.122858 0.357126 0.122858
0.123578 0.357847 0.171430
0.124288 0.358557 0.219265
0.124992 0.359261 0.266674
0.125691 0.359960 0.313781
0.126387 0.360655 0.360655
0.127080 0.361348 0.407339
0.127770 0.362039 0.453863
0.128458 0.362727 0.500248
0.129145 0.363414 0.546511
0.129830 0.364099 0.592664
0.130514 0.364782 0.638719
0.131196 0.365464 0.684684
0.131877 0.366145 0.730566
0.132556 0.366825 0.776372
0.133235 0.367504 0.822107
0.133913 0.368182 0.867776
0.129721 0.409981 0.129721
0.130442 0.410701 0.178293
0.131152 0.411411 0.226128
0.131855 0.412115 0.273537
0.132554 0.412814 0.320644
0.133250 0.413510 0.367519
0.133943 0.414203 0.414203
0.134633 0.414893 0.460726
0.135322 0.415581 0.507111
0.136008 0.416268 0.553374
0.136693 0.416953 0.599527
0.137377 0.417637 0.645582
0.138059 0.418319 0.691547
0.138740 0.419000 0.737429
0.139420 0.419679 0.783235
0.140098 0.420358 0.828970
0.140776 0.421036 0.874639
0.136560 0.462653 0.136560
0.137281 0.463374 0.185133
0.137991 0.464084 0.232967
0.138695 0.464788 0.280376
0.139394 0.465487 0.327484
0.140089 0.466183 0.374358
0.140782 0.466875 0.421042
0.141473 0.467566 0.467566
0.142161 0.468254 0.513951
0.142848 0.468941 0.560213
0.143533 0.469626 0.606367
0.144216 0.470309 0.652422
0.144898 0.470991 0.698386
0.145579 0.471672 0.744269
0.146259 0.472352 0.790075
0.146938 0.473031 0.835810
0.147616 0.473709 0.881478
0.143379 0.515169 0.143379
0.144100 0.515890 0.191952
0.144810 0.516600 0.239787
0.145514 0.517303 0.287195
0.146213 0.518002 0.334303
0.146909 0.518698 0.381177
0.147601 0.519391 0.427861
0.148292 0.520081 0.474385
0.148980 0.520770 0.520770
0.149667 0.521456 0.567032
0.150352 0.522141 0.613186
0.151035 0.522825 0.659241
0.151718 0.523507 0.705206
0.152399 0.524188 0.751088
0.153078 0.524868 0.796894
0.153757 0.525547 0.842629
0.154435 0.526224 0.888297
0.150181 0.567546 0.150181
0.150902 0.568267 0.198753
0.151611 0.568977 0.246588
0.152315 0.569681 0.293997
0.153014 0.570380 0.341104
0.153710 0.571075 0.387978
0.154403 0.571768 0.434663
0.155093 0.572459 0.481186
0.155782 0.573147 0.527571
0.156468 0.573834 0.573834
0.157153 0.574519 0.619987
0.157837 0.575202 0.666042
0.158519 0.575884 0.712007
0.159200 0.576565 0.757889
0.159880 0.577245 0.803695
0.160558 0.577924 0.849430
0.161236 0.578602 0.895099
0.156966 0.619800 0.156966
0.157687 0.620521 0.205538
0.158397 0.621231 0.253373
0.159100 0.621934 0.300782
0.159799 0.622633 0.347889
0.160495 0.623329 0.394764
0.161188 0.624022 0.441448
0.161878 0.624712 0.487971
0.162567 0.625401 0.534356
0.163253 0.626087 0.580619
0.163938 0.626772 0.626772
0.164622 0.627456 0.672827
0.165304 0.628138 0.718792
0.165985 0.628819 0.764674
0.166665 0.629499 0.810480
0.167343 0.630177 0.856215
0.168021 0.630855 0.901884
0.163736 0.671942 0.163736
0.164457 0.672663 0.212309
0.165167 0.673373 0.260144
0.165871 0.674076 0.307552
0.166570 0.674775 0.354660
0.167266 0.675471 0.401534
0.167958 0.676164 0.448218
0.168649 0.676854 0.494742
0.169337 0.677543 0.541127
0.170024 0.678229 0.587389
0.170709 0.678914 0.633543
0.171392 0.679598 0.679598
0.172075 0.680280 0.725563
0.172756 0.680961 0.771445
0.173435 0.681641 0.817251
0.174114 0.682319 0.862986
0.174792 0.682997 0.908654
0.170494 0.723982 0.170494
0.171215 0.724703 0.219066
0.171925 0.725413 0.266901
0.172628 0.726116 0.314310
0.173327 0.726815 0.361417
0.174023 0.727511 0.408292
0.174716 0.728204 0.454976
0.175406 0.728894 0.501499
0.176095 0.729583 0.547884
0.176781 0.730269 0.594147
0.177466 0.730954 0.640300
0.178150 0.731638 0.686355
0.178832 0.732320 0.732320
0.179513 0.733001 0.778202
0.180193 0.733681 0.824008
0.180872 0.734360 0.869743
0.181549 0.735037 0.915412
0.177239 0.775929 0.177239
0.177960 0.776649 0.225811
0.178670 0.777359 0.273646
0.179374 0.778063 0.321055
0.180073 0.778762 0.368163
0.180768 0.779458 0.415037
0.181461 0.780151 0.461721
0.182152 0.780841 0.508245
0.182840 0.781529 0.554630
0.183527 0.782216 0.600892
0.184212 0.782901 0.647046
0.184895 0.783585 0.693100
0.185577 0.784267 0.739065
0.186258 0.784948 0.784948
0.186938 0.785627 0.830754
0.187617 0.786306 0.876489
0.188295 0.786984 0.922157
0.183973 0.827789 0.183973
0.184694 0.828510 0.232545
0.185404 0.829220 0.280380
0.186108 0.829923 0.327789
0.186807 0.830622 0.374897
0.187502 0.831318 0.421771
0.188195 0.832011 0.468455
0.188886 0.832701 0.514979
0.189574 0.833390 0.561364
0.190261 0.834076 0.607626
0.190946 0.834761 0.653780
0.191629 0.835445 0.699834
0.192311 0.836127 0.745799
0.192992 0.836808 0.791682
0.193672 0.837488 0.837488
0.194351 0.838166 0.883223
0.195029 0.838844 0.928891
0.190697 0.879569 0.190697
0.191418 0.880290 0.239269
0.192128 0.880999 0.287104
0.192831 0.881703 0.334513
0.193530 0.882402 0.381620
0.194226 0.883098 0.428495
0.194919 0.883791 0.475179
0.195609 0.884481 0.521702
0.196298 0.885170 0.568087
0.196984 0.885856 0.614350
0.197669 0.886541 0.660503
0.198353 0.887225 0.706558
0.199035 0.887907 0.752523
0.199716 0.888588 0.798405
0.200396 0.889267 0.844211
0.201074 0.889946 0.889946
0.201752 0.890624 0.935615
0.197411 0.931273 0.197411
0.198132 0.931994 0.245983
0.198842 0.932704 0.293818
0.199545 0.933408 0.341227
0.200244 0.934107 0.388334
0.200940 0.934802 0.435209
0.201633 0.935495 0.481893
0.202323 0.936186 0.528416
0.203012 0.936874 0.574801
0.203698 0.937561 0.621064
0.204383 0.938246 0.667217
0.205067 0.938929 0.713272
0.205749 0.939611 0.759237
0.206430 0.940292 0.805119
0.207110 0.940972 0.850925
0.207788 0.941651 0.896660
0.208466 0.942329 0.942329
0.137872 0.090021 0.090021
0.138593 0.090742 0.138593
0.139303 0.091452 0.186428
0.140007 0.092155 0.233837
0.140706 0.092854 0.280944
0.141401 0.093550 0.327819
0.142094 0.094243 0.374503
0.142785 0.094933 0.421026
0.143473 0.095622 0.467411
0.144160 0.096308 0.513674
0.144845 0.096993 0.559827
0.145528 0.097677 0.605882
0.146210 0.098359 0.651847
0.146891 0.099040 0.697729
0.147571 0.099720 0.743535
0.148250 0.100399 0.789270
0.148928 0.101076 0.834939
0.145013 0.145013 0.097162
0.145734 0.145734 0.145734
0.146444 0.146444 0.193569
0.147147 0.147147 0.240978
0.147847 0.147847 0.288085
0.148542 0.148542 0.334959
0.149235 0.149235 0.381644
0.149926 0.149926 0.428167
0.150614 0.150614 0.474552
0.151300 0.151300 0.520815
0.151985 0.151985 0.566968
0.152669 0.152669 0.613023
0.153351 0.153351 0.658988
0.154032 0.154032 0.704870
0.154712 0.154712 0.750676
0.155391 0.155391 0.796411
0.156068 0.156068 0.842080
0.152045 0.199170 0.104194
0.152766 0.199891 0.152766
0.153476 0.200601 0.200601
0.154180 0.201305 0.248010
0.154879 0.202004 0.295117
0.155575 0.202699 0.341992
0.156267 0.203392 0.388676
0.156958 0.204083 0.435200
0.157646 0.204771 0.481584
0.158333 0.205458 0.527847
0.159018 0.206143 0.574000
0.159701 0.206826 0.620055
0.160383 0.207508 0.666020
0.161064 0.208189 0.711902
0.161744 0.208869 0.757708
0.162423 0.209548 0.803443
0.163101 0.210226 0.849112
0.159015 0.252845 0.111164
0.159736 0.253566 0.159736
0.160446 0.254276 0.207571
0.161149 0.254980 0.254980
0.161849 0.255679 0.302087
0.162544 0.256374 0.348961
0.163237 0.257067 0.395646
0.163928 0.257758 0.442169
0.164616 0.258446 0.488554
0.165303 0.259133 0.534817
0.165987 0.259818 0.580970
0.166671 0.260501 0.627025
0.167353 0.261183 0.672990
0.168034 0.261864 0.718872
0.168714 0.262544 0.764678
0.169393 0.263223 0.810413
0.170070 0.263901 0.856082
0.165940 0.306179 0.118089
0.166661 0.306900 0.166661
0.167371 0.307610 0.214496
0.168075 0.308313 0.261905
0.168774 0.309013 0.309013
0.169470 0.309708 0.355887
0.170162 0.310401 0.402571
0.170853 0.311092 0.449095
0.171541 0.311780 0.495479
0.172228 0.312467 0.541742
0.172913 0.313152 0.587895
0.173596 0.313835 0.633950
0.174279 0.314517 0.679915
0.174960 0.315198 0.725798
0.175639 0.315878 0.771604
0.176318 0.316557 0.817338
0.176996 0.317234 0.863007
0.172832 0.359249 0.124980
0.173552 0.359970 0.173552
0.174262 0.360680 0.221387
0.174966 0.361383 0.268796
0.175665 0.362082 0.315904
0.176361 0.362778 0.362778
0.177054 0.363471 0.409462
0.177744 0.364161 0.455986
0.178432 0.364850 0.502371
0.179119 0.365536 0.548633
0.179804 0.366221 0.594787
0.180488 0.366905 0.640841
0.181170 0.367587 0.686806
0.181851 0.368268 0.732689
0.182530 0.368948 0.778495
0.183209 0.369626 0.824230
0.183887 0.370304 0.869898
0.179695 0.412103 0.131843
0.180416 0.412824 0.180416
0.181126 0.413534 0.228251
0.181829 0.414238 0.275659
0.182528 0.414937 0.322767
0.183224 0.415632 0.369641
0.183917 0.416325 0.416325
0.184607 0.417016 0.462849
0.185296 0.417704 0.509234
0.185982 0.418391 0.555496
0.186667 0.419076 0.601650
0.187351 0.419759 0.647705
0.188033 0.420441 0.693670
0.188714 0.421122 0.739552
0.189394 0.421802 0.785358
0.190072 0.422481 0.831093
0.190750 0.423159 0.876761
0.186534 0.464776 0.138683
0.187255 0.465497 0.187255
0.187965 0.466207 0.235090
0.188669 0.466910 0.282499
0.189368 0.467610 0.329606
0.190064 0.468305 0.376481
0.190756 0.468998 0.423165
0.191447 0.469688 0.469688
0.192135 0.470377 0.516073
0.192822 0.471063 0.562336
0.193507 0.471748 0.608489
0.194190 0.472432 0.654544
0.194872 0.473114 0.700509
0.195553 0.473795 0.746391
0.196233 0.474475 0.792197
0.196912 0.475154 0.837932
0.197590 0.475831 0.883601
0.193353 0.517292 0.145502
0.194074 0.518012 0.194074
0.194784 0.518722 0.241909
0.195488 0.519426 0.289318
0.196187 0.520125 0.336426
0.196883 0.520821 0.383300
0.197576 0.521514 0.429984
0.198266 0.522204 0.476508
0.198954 0.522892 0.522892
0.199641 0.523579 0.569155
0.200326 0.524264 0.615309
0.201009 0.524948 0.661363
0.201692 0.525630 0.707328
0.202373 0.526311 0.753211
0.203052 0.526990 0.799017
0.203731 0.527669 0.844751
0.204409 0.528347 0.890420
0.200155 0.569669 0.152303
0.200876 0.570390 0.200876
0.201585 0.571100 0.248710
0.202289 0.571803 0.296119
0.202988 0.572502 0.343227
0.203684 0.573198 0.390101
0.204377 0.573891 0.436785
0.205067 0.574581 0.483309
0.205756 0.575270 0.529694
0.206442 0.575956 0.575956
0.207127 0.576641 0.622110
0.207811 0.577325 0.668165
0.208493 0.578007 0.714129
0.209174 0.578688 0.760012
0.209854 0.579368 0.805818
0.210532 0.580046 0.851553
0.211210 0.580724 0.897221
0.206940 0.621922 0.159088
0.207661 0.622643 0.207661
0.208371 0.623353 0.255496
0.209074 0.624057 0.302904
0.209773 0.624756 0.350012
0.210469 0.625452 0.396886
0.211162 0.626144 0.443570
0.211852 0.626835 0.490094
0.212541 0.627523 0.536479
0.213227 0.628210 0.582741
0.213912 0.628895 0.628895
0.214596 0.629578 0.674950
0.215278 0.630261 0.720915
0.215959 0.630941 0.766797
0.216639 0.631621 0.812603
0.217317 0.632300 0.858338
0.217995 0.632978 0.904006
0.213710 0.674064 0.165859
0.214431 0.674785 0.214431
0.215141 0.675495 0.262266
0.215845 0.676199 0.309675
0.216544 0.676898 0.356783
0.217240 0.677594 0.403657
0.217932 0.678286 0.450341
0.218623 0.678977 0.496865
0.219311 0.679665 0.543249
0.219998 0.680352 0.589512
0.220683 0.681037 0.635665
0.221366 0.681720 0.681720
0.222049 0.682402 0.727685
0.222730 0.683083 0.773568
0.223409 0.683763 0.819374
0.224088 0.684442 0.865108
0.224766 0.685120 0.910777
0.220468 0.726105 0.172617
0.221189 0.726825 0.221189
0.221899 0.727535 0.269024
0.222602 0.728239 0.316433
0.223301 0.728938 0.363540
0.223997 0.729634 0.410414
0.224690 0.730327 0.457098
0.225380 0.731017 0.503622
0.226069 0.731705 0.550007
0.226755 0.732392 0.596269
0.227440 0.733077 0.642423
0.228124 0.733761 0.688478
0.228806 0.734443 0.734443
0.229487 0.735124 0.780325
0.230167 0.735803 0.826131
0.230846 0.736482 0.871866
0.231523 0.737160 0.917534
0.227213 0.778051 0.179362
0.227934 0.778772 0.227934
0.228644 0.779482 0.275769
0.229348 0.780186 0.323178
0.230047 0.780885 0.370285
0.230742 0.781580 0.417160
0.231435 0.782273 0.463844
0.232126 0.782964 0.510367
0.232814 0.783652 0.556752
0.233501 0.784339 0.603015
0.234186 0.785024 0.649168
0.234869 0.785707 0.695223
0.235551 0.786389 0.741188
0.236232 0.787070 0.787070
0.236912 0.787750 0.832876
0.237591 0.788429 0.878611
0.238269 0.789107 0.924280
0.233947 0.829911 0.186096
0.234668 0.830632 0.234668
0.235378 0.831342 0.282503
0.236082 0.832046 0.329912
0.236781 0.832745 0.377019
0.237476 0.833441 0.423894
0.238169 0.834133 0.470578
0.238860 0.834824 0.517101
0.239548 0.835512 0.563486
0.240235 0.836199 0.609749
0.240920 0.836884 0.655902
0.241603 0.837567 0.701957
0.242285 0.838250 0.747922
0.242966 0.838931 0.793804
0.243646 0.839610 0.839610
0.244325 0.840289 0.885345
0.245003 0.840967 0.931014
0.240671 0.881691 0.192820
0.241392 0.882412 0.241392
0.242102 0.883122 0.289227
0.242805 0.883826 0.336635
0.243504 0.884525 0.383743
0.244200 0.885220 0.430617
0.244893 0.885913 0.477301
0.245583 0.886604 0.523825
0.246272 0.887292 0.570210
0.246958 0.887979 0.616472
0.247643 0.888664 0.662626
0.248327 0.889347 0.708681
0.249009 0.890029 0.754646
0.249690 0.890710 0.800528
0.250370 0.891390 0.846334
0.251048 0.892069 0.892069
0.251726 0.892747 0.937737
0.247385 0.933396 0.199533
0.248106 0.934117 0.248106
0.248816 0.934827 0.295940
0.249519 0.935530 0.343349
0.250218 0.936229 0.390457
0.250914 0.936925 0.437331
0.251607 0.937618 0.484015
0.252297 0.938308 0.530539
0.252986 0.938997 0.576924
0.253672 0.939683 0.623186
0.254357 0.940368 0.669340
0.255041 0.941052 0.715395
0.255723 0.941734 0.761360
0.256404 0.942415 0.807242
0.257084 0.943095 0.853048
0.257762 0.943774 0.898783
0.258440 0.944451 0.944451
0.187088 0.092111 0.092111
0.187809 0.092832 0.140684
0.188518 0.093542 0.188518
0.189222 0.094246 0.235927
0.189921 0.094945 0.283035
0.190617 0.095641 0.329909
0.191310 0.096333 0.376593
0.192000 0.097024 0.423117
0.192689 0.097712 0.469502
0.193375 0.098399 0.515764
0.194060 0.099084 0.561918
0.194744 0.099767 0.607973
0.195426 0.100449 0.653937
0.196107 0.101130 0.699820
0.196787 0.101810 0.745626
0.197465 0.102489 0.791361
0.198143 0.103167 0.837029
0.194228 0.147103 0.099252
0.194949 0.147824 0.147824
0.195659 0.148534 0.195659
0.196363 0.149238 0.243068
0.197062 0.149937 0.290176
0.197758 0.150633 0.337050
0.198450 0.151325 0.383734
0.199141 0.152016 0.430258
0.199829 0.152704 0.476642
0.200516 0.153391 0.522905
0.201201 0.154076 0.569058
0.201884 0.154759 0.615113
0.202567 0.155442 0.661078
0.203247 0.156122 0.706961
0.203927 0.156802 0.752767
0.204606 0.157481 0.798501
0.205284 0.158159 0.844170
0.201261 0.201261 0.106284
0.201982 0.201982 0.154857
0.202692 0.202692 0.202692
0.203395 0.203395 0.250100
0.204094 0.204094 0.297208
0.204790 0.204790 0.344082
0.205483 0.205483 0.390766
0.206173 0.206173 0.437290
0.206862 0.206862 0.483675
0.207548 0.207548 0.529937
0.208233 0.208233 0.576091
0.208917 0.208917 0.622146
0.209599 0.209599 0.668111
0.210280 0.210280 0.713993
0.210960 0.210960 0.759799
0.211638 0.211638 0.805534
0.212316 0.212316 0.851202
0.208230 0.254936 0.113254
0.208951 0.255657 0.161826
0.209661 0.256366 0.209661
0.210365 0.257070 0.257070
0.211064 0.257769 0.304178
0.211760 0.258465 0.351052
0.212452 0.259158 0.397736
0.213143 0.259848 0.444260
0.213831 0.260537 0.490644
0.214518 0.261223 0.536907
0.215203 0.261908 0.583061
0.215886 0.262592 0.629115
0.216569 0.263274 0.675080
0.217249 0.263955 0.720963
0.217929 0.264635 0.766769
0.218608 0.265313 0.812504
0.219286 0.265991 0.858172
0.215156 0.308270 0.120180
0.215877 0.308990 0.168752
0.216587 0.309700 0.216587
0.217290 0.310404 0.263995
0.217989 0.311103 0.311103
0.218685 0.311799 0.357977
0.219378 0.312492 0.404661
0.220068 0.313182 0.451185
0.220757 0.313870 0.497570
0.221443 0.314557 0.543832
0.222128 0.315242 0.589986
0.222812 0.315925 0.636041
0.223494 0.316608 0.682006
0.224175 0.317289 0.727888
0.224855 0.317968 0.773694
0.225533 0.318647 0.819429
0.226211 0.319325 0.865097
0.222047 0.361339 0.127071
0.222768 0.362060 0.175643
0.223478 0.362770 0.223478
0.224181 0.363474 0.270887
0.224880 0.364173 0.317994
0.225576 0.364868 0.364868
0.226269 0.365561 0.411553
0.226959 0.366252 0.458076
0.227648 0.366940 0.504461
0.228334 0.367627 0.550724
0.229019 0.368312 0.596877
0.229703 0.368995 0.642932
0.230385 0.369677 0.688897
0.231066 0.370358 0.734779
0.231746 0.371038 0.780585
0.232425 0.371717 0.826320
0.233102 0.372395 0.871989
0.228910 0.414194 0.133934
0.229631 0.414915 0.182506
0.230341 0.415624 0.230341
0.231045 0.416328 0.277750
0.231744 0.417027 0.324857
0.232439 0.417723 0.371732
0.233132 0.418416 0.418416
0.233823 0.419106 0.464939
0.234511 0.419795 0.511324
0.235198 0.420481 0.557587
0.235883 0.421166 0.603740
0.236566 0.421850 0.649795
0.237248 0.422532 0.695760
0.237929 0.423213 0.741642
0.238609 0.423893 0.787448
0.239288 0.424571 0.833183
0.239966 0.425249 0.878852
0.235750 0.466866 0.140773
0.236471 0.467587 0.189346
0.237181 0.468297 0.237181
0.237884 0.469001 0.284589
0.238583 0.469700 0.331697
0.239279 0.470396 0.378571
0.239972 0.471088 0.425255
0.240662 0.471779 0.471779
0.241351 0.472467 0.518164
0.242037 0.473154 0.564426
0.242722 0.473839 0.610580
0.243406 0.474522 0.656635
0.244088 0.475205 0.702600
0.244769 0.475885 0.748482
0.245449 0.476565 0.794288
0.246127 0.477244 0.840023
0.246805 0.477922 0.885691
0.242569 0.519382 0.147593
0.243290 0.520103 0.196165
0.244000 0.520813 0.244000
0.244703 0.521516 0.291409
0.245402 0.522216 0.338516
0.246098 0.522911 0.385390
0.246791 0.523604 0.432074
0.247481 0.524295 0.478598
0.248170 0.524983 0.524983
0.248856 0.525669 0.571246
0.249541 0.526354 0.617399
0.250225 0.527038 0.663454
0.250907 0.527720 0.709419
0.251588 0.528401 0.755301
0.252268 0.529081 0.801107
0.252946 0.529760 0.846842
0.253624 0.530437 0.892511
0.249370 0.571759 0.154394
0.250091 0.572480 0.202966
0.250801 0.573190 0.250801
0.251504 0.573894 0.298210
0.252204 0.574593 0.345317
0.252899 0.575288 0.392192
0.253592 0.575981 0.438876
0.254283 0.576672 0.485399
0.254971 0.577360 0.531784
0.255658 0.578047 0.578047
0.256342 0.578732 0.624200
0.257026 0.579415 0.670255
0.257708 0.580097 0.716220
0.258389 0.580778 0.762102
0.259069 0.581458 0.807908
0.259748 0.582137 0.853643
0.260425 0.582815 0.899312
0.256155 0.624013 0.161179
0.256876 0.624734 0.209751
0.257586 0.625444 0.257586
0.258290 0.626147 0.304995
0.258989 0.626846 0.352102
0.259684 0.627542 0.398977
0.260377 0.628235 0.445661
0.261068 0.628925 0.492184
0.261756 0.629614 0.538569
0.262443 0.630300 0.584832
0.263128 0.630985 0.630985
0.263811 0.631669 0.677040
0.264493 0.632351 0.723005
0.265174 0.633032 0.768887
0.265854 0.633712 0.814693
0.266533 0.634390 0.860428
0.267211 0.635068 0.906097
0.262926 0.676155 0.167950
0.263647 0.676876 0.216522
0.264357 0.677586 0.264357
0.265060 0.678289 0.311765
0.265759 0.678988 0.358873
0.266455 0.679684 0.405747
0.267148 0.680377 0.452431
0.267838 0.681067 0.498955
0.268527 0.681756 0.545340
0.269213 0.682442 0.591602
0.269898 0.683127 0.637756
0.270582 0.683811 0.683811
0.271264 0.684493 0.729776
0.271945 0.685174 0.775658
0.272625 0.685854 0.821464
0.273303 0.686532 0.867199
0.273981 0.687210 0.912867
0.269683 0.728195 0.174707
0.270404 0.728916 0.223279
0.271114 0.729626 0.271114
0.271818 0.730329 0.318523
0.272517 0.731029 0.365630
0.273212 0.731724 0.412505
0.273905 0.732417 0.459189
0.274596 0.733107 0.505712
0.275284 0.733796 0.552097
0.275971 0.734482 0.598360
0.276656 0.735167 0.644513
0.277339 0.735851 0.690568
0.278021 0.736533 0.736533
0.278702 0.737214 0.782415
0.279382 0.737894 0.828221
0.280061 0.738573 0.873956
0.280739 0.739250 0.919625
0.276429 0.780142 0.181452
0.277149 0.780863 0.230025
0.277859 0.781572 0.277859
0.278563 0.782276 0.325268
0.279262 0.782975 0.372376
0.279958 0.783671 0.419250
0.280651 0.784364 0.465934
0.281341 0.785054 0.512458
0.282029 0.785743 0.558843
0.282716 0.786429 0.605105
0.283401 0.787114 0.651259
0.284085 0.787798 0.697313
0.284767 0.788480 0.743278
0.285448 0.789161 0.789161
0.286127 0.789841 0.834967
0.286806 0.790519 0.880702
0.287484 0.791197 0.926370
0.283163 0.832002 0.188186
0.283884 0.832723 0.236759
0.284593 0.833433 0.284593
0.285297 0.834136 0.332002
0.285996 0.834835 0.379110
0.286692 0.835531 0.425984
0.287385 0.836224 0.472668
0.288075 0.836914 0.519192
0.288764 0.837603 0.565577
0.289450 0.838289 0.611839
0.290135 0.838974 0.657993
0.290819 0.839658 0.704048
0.291501 0.840340 0.750012
0.292182 0.841021 0.795895
0.292861 0.841701 0.841701
0.293540 0.842380 0.887436
0.294218 0.843057 0.933104
0.289886 0.883782 0.194910
0.290607 0.884503 0.243482
0.291317 0.885213 0.291317
0.292021 0.885916 0.338726
0.292720 0.886615 0.385833
0.293415 0.887311 0.432708
0.294108 0.888004 0.479392
0.294799 0.888694 0.525915
0.295487 0.889383 0.572300
0.296174 0.890069 0.618563
0.296859 0.890754 0.664716
0.297542 0.891438 0.710771
0.298224 0.892120 0.756736
0.298905 0.892801 0.802618
0.299585 0.893481 0.848424
0.300264 0.894159 0.894159
0.300942 0.894837 0.939828
0.296600 0.935486 0.201624
0.297321 0.936207 0.250196
0.298031 0.936917 0.298031
0.298735 0.937621 0.345440
0.299434 0.938320 0.392547
0.300129 0.939016 0.439422
0.300822 0.939708 0.486106
0.301513 0.940399 0.532629
0.302201 0.941087 0.579014
0.302888 0.941774 0.625277
0.303573 0.942459 0.671430
0.304256 0.943142 0.717485
0.304938 0.943824 0.763450
0.305619 0.944505 0.809332
0.306299 0.945185 0.855138
0.306978 0.945864 0.900873
0.307656 0.946542 0.946542
0.235865 0.094183 0.094183
0.236586 0.094904 0.142755
0.237296 0.095614 0.190590
0.237999 0.096318 0.237999
0.238698 0.097017 0.285107
0.239394 0.097712 0.331981
0.240087 0.098405 0.378665
0.240777 0.099096 0.425189
0.241466 0.099784 0.471574
0.242152 0.100471 0.517836
0.242837 0.101156 0.563990
0.243521 0.101839 0.610044
0.244203 0.102521 0.656009
0.244884 0.103202 0.701892
0.245564 0.103882 0.747698
0.246242 0.104561 0.793433
0.246920 0.105239 0.839101
0.243005 0.149175 0.101324
