skills/editops-orchestrator/assets/grade/luts/vintage_fade_v20.cube
TITLE "vintage_fade_v20"
LUT_3D_SIZE 9
DOMAIN_MIN 0.0 0.0 0.0
DOMAIN_MAX 1.0 1.0 1.0
0.178151 0.178151 0.178151
0.180368 0.180368 0.251995
0.182526 0.182526 0.323907
0.184651 0.184651 0.394704
0.186752 0.186752 0.464713
0.188835 0.188835 0.534115
0.190904 0.190904 0.603022
0.192959 0.192959 0.671513
0.195004 0.195004 0.739645
0.200106 0.271733 0.200106
0.202322 0.273950 0.273950
0.204481 0.276108 0.345862
0.206606 0.278233 0.416658
0.208707 0.280334 0.486668
0.210790 0.282417 0.556069
0.212858 0.284485 0.624977
0.214914 0.286541 0.693468
0.216959 0.288586 0.761599
0.221487 0.362868 0.221487
0.223703 0.365084 0.295330
0.225861 0.367242 0.367242
0.227986 0.369367 0.438039
0.230088 0.371468 0.508048
0.232171 0.373551 0.577450
0.234239 0.375620 0.646357
0.236294 0.377675 0.714848
0.238339 0.379720 0.782980
0.242536 0.452588 0.242536
0.244752 0.454804 0.316379
0.246910 0.456963 0.388291
0.249035 0.459088 0.459088
0.251136 0.461189 0.529097
0.253219 0.463272 0.598499
0.255288 0.465340 0.667406
0.257343 0.467396 0.735897
0.259388 0.469441 0.804029
0.263350 0.541311 0.263350
0.265567 0.543527 0.337194
0.267725 0.545686 0.409106
0.269850 0.547811 0.479902
0.271951 0.549912 0.549912
0.274034 0.551995 0.619314
0.276102 0.554063 0.688221
0.278158 0.556119 0.756712
0.280203 0.558164 0.824843
0.283984 0.629264 0.283984
0.286201 0.631480 0.357828
0.288359 0.633639 0.429740
0.290484 0.635763 0.500537
0.292585 0.637865 0.570546
0.294668 0.639948 0.639948
0.296737 0.642016 0.708855
0.298792 0.644072 0.777346
0.300837 0.646117 0.845478
0.304472 0.716590 0.304472
0.306688 0.718806 0.378315
0.308846 0.720965 0.450227
0.310971 0.723090 0.521024
0.313073 0.725191 0.591033
0.315156 0.727274 0.660435
0.317224 0.729342 0.729342
0.319279 0.731398 0.797833
0.321324 0.733443 0.865965
0.324835 0.803389 0.324835
0.327051 0.805605 0.398678
0.329210 0.807763 0.470591
0.331335 0.809888 0.541387
0.333436 0.811990 0.611397
0.335519 0.814073 0.680798
0.337587 0.816141 0.749706
0.339643 0.818197 0.818197
0.341688 0.820241 0.886328
0.345091 0.889732 0.345091
0.347308 0.891948 0.418935
0.349466 0.894107 0.490847
0.351591 0.896231 0.561644
0.353692 0.898333 0.631653
0.355775 0.900416 0.701055
0.357844 0.902484 0.769962
0.359899 0.904540 0.838453
0.361944 0.906585 0.906585
0.256305 0.184678 0.184678
0.258521 0.186894 0.258521
0.260679 0.189052 0.330433
0.262804 0.191177 0.401230
0.264906 0.193279 0.471239
0.266989 0.195362 0.540641
0.269057 0.197430 0.609548
0.271113 0.199485 0.678039
0.273157 0.201530 0.746171
0.278259 0.278259 0.206632
0.280476 0.280476 0.280476
0.282634 0.282634 0.352388
0.284759 0.284759 0.423185
0.286860 0.286860 0.493194
0.288943 0.288943 0.562596
0.291012 0.291012 0.631503
0.293067 0.293067 0.699994
0.295112 0.295112 0.768126
0.299640 0.369394 0.228013
0.301856 0.371610 0.301856
0.304015 0.373769 0.373769
0.306140 0.375893 0.444565
0.308241 0.377995 0.514574
0.310324 0.380078 0.583976
0.312392 0.382146 0.652884
0.314448 0.384202 0.721374
0.316493 0.386247 0.789506
0.320689 0.459114 0.249062
0.322905 0.461331 0.322905
0.325064 0.463489 0.394817
0.327188 0.465614 0.465614
0.329290 0.467715 0.535623
0.331373 0.469798 0.605025
0.333441 0.471866 0.673932
0.335497 0.473922 0.742423
0.337542 0.475967 0.810555
0.341504 0.547837 0.269877
0.343720 0.550054 0.343720
0.345878 0.552212 0.415632
0.348003 0.554337 0.486429
0.350105 0.556438 0.556438
0.352188 0.558521 0.625840
0.354256 0.560589 0.694747
0.356311 0.562645 0.763238
0.358356 0.564690 0.831370
0.362138 0.635790 0.290511
0.364354 0.638006 0.364354
0.366513 0.640165 0.436266
0.368637 0.642290 0.507063
0.370739 0.644391 0.577072
0.372822 0.646474 0.646474
0.374890 0.648542 0.715381
0.376946 0.650598 0.783872
0.378991 0.652643 0.852004
0.382625 0.723116 0.310998
0.384841 0.725333 0.384841
0.387000 0.727491 0.456753
0.389125 0.729616 0.527550
0.391226 0.731717 0.597559
0.393309 0.733800 0.666961
0.395377 0.735868 0.735868
0.397433 0.737924 0.804359
0.399478 0.739969 0.872491
0.402988 0.809915 0.331361
0.405205 0.812131 0.405205
0.407363 0.814290 0.477117
0.409488 0.816415 0.547913
0.411589 0.818516 0.617923
0.413672 0.820599 0.687324
0.415740 0.822667 0.756232
0.417796 0.824723 0.824723
0.419841 0.826768 0.892854
0.423245 0.896258 0.351618
0.425461 0.898474 0.425461
0.427620 0.900633 0.497373
0.429744 0.902758 0.568170
0.431846 0.904859 0.638179
0.433929 0.906942 0.707581
0.435997 0.909010 0.776488
0.438053 0.911066 0.844979
0.440098 0.913111 0.913111
0.332414 0.191033 0.191033
0.334630 0.193250 0.264877
0.336789 0.195408 0.336789
0.338914 0.197533 0.407585
0.341015 0.199634 0.477595
0.343098 0.201717 0.546997
0.345166 0.203785 0.615904
0.347222 0.205841 0.684395
0.349267 0.207886 0.752526
0.354369 0.284615 0.212988
0.356585 0.286831 0.286831
0.358744 0.288990 0.358744
0.360868 0.291115 0.429540
0.362970 0.293216 0.499549
0.365053 0.295299 0.568951
0.367121 0.297367 0.637859
0.369177 0.299423 0.706350
0.371222 0.301468 0.774481
0.375749 0.375749 0.234368
0.377966 0.377966 0.308212
0.380124 0.380124 0.380124
0.382249 0.382249 0.450921
0.384350 0.384350 0.520930
0.386433 0.386433 0.590332
0.388501 0.388501 0.659239
0.390557 0.390557 0.727730
0.392602 0.392602 0.795862
0.396798 0.465470 0.255417
0.399015 0.467686 0.329261
0.401173 0.469845 0.401173
0.403298 0.471969 0.471969
0.405399 0.474071 0.541979
0.407482 0.476154 0.611381
0.409550 0.478222 0.680288
0.411606 0.480278 0.748779
0.413651 0.482323 0.816910
0.417613 0.554193 0.276232
0.419829 0.556409 0.350076
0.421988 0.558568 0.421988
0.424113 0.560692 0.492784
0.426214 0.562794 0.562794
0.428297 0.564877 0.632195
0.430365 0.566945 0.701103
0.432421 0.569001 0.769594
0.434466 0.571046 0.837725
0.438247 0.642146 0.296866
0.440463 0.644362 0.370710
0.442622 0.646520 0.442622
0.444747 0.648645 0.513418
0.446848 0.650747 0.583428
0.448931 0.652830 0.652830
0.450999 0.654898 0.721737
0.453055 0.656953 0.790228
0.455100 0.658998 0.858359
0.458734 0.729472 0.317353
0.460951 0.731688 0.391197
0.463109 0.733847 0.463109
0.465234 0.735972 0.533906
0.467335 0.738073 0.603915
0.469418 0.740156 0.673317
0.471486 0.742224 0.742224
0.473542 0.744280 0.810715
0.475587 0.746325 0.878847
0.479098 0.816271 0.337717
0.481314 0.818487 0.411560
0.483472 0.820645 0.483472
0.485597 0.822770 0.554269
0.487699 0.824871 0.624278
0.489782 0.826954 0.693680
0.491850 0.829023 0.762587
0.493905 0.831078 0.831078
0.495950 0.833123 0.899210
0.499354 0.902614 0.357973
0.501571 0.904830 0.431817
0.503729 0.906988 0.503729
0.505854 0.909113 0.574525
0.507955 0.911215 0.644535
0.510038 0.913298 0.713937
0.512106 0.915366 0.782844
0.514162 0.917421 0.851335
0.516207 0.919466 0.919466
0.407343 0.197290 0.197290
0.409559 0.199507 0.271134
0.411717 0.201665 0.343046
0.413842 0.203790 0.413842
0.415944 0.205891 0.483852
0.418027 0.207974 0.553253
0.420095 0.210042 0.622161
0.422151 0.212098 0.690652
0.424195 0.214143 0.758783
0.429297 0.290872 0.219245
0.431514 0.293088 0.293088
0.433672 0.295247 0.365001
0.435797 0.297372 0.435797
0.437898 0.299473 0.505806
0.439981 0.301556 0.575208
0.442050 0.303624 0.644116
0.444105 0.305680 0.712606
0.446150 0.307725 0.780738
0.450678 0.382006 0.240625
0.452894 0.384223 0.314469
0.455053 0.386381 0.386381
0.457178 0.388506 0.457178
0.459279 0.390607 0.527187
0.461362 0.392690 0.596589
0.463430 0.394758 0.665496
0.465486 0.396814 0.733987
0.467531 0.398859 0.802119
0.471727 0.471727 0.261674
0.473943 0.473943 0.335518
0.476102 0.476102 0.407430
0.478226 0.478226 0.478226
0.480328 0.480328 0.548236
0.482411 0.482411 0.617638
0.484479 0.484479 0.686545
0.486535 0.486535 0.755036
0.488580 0.488580 0.823167
0.492542 0.560450 0.282489
0.494758 0.562666 0.356333
0.496916 0.564824 0.428245
0.499041 0.566949 0.499041
0.501143 0.569051 0.569051
0.503226 0.571134 0.638452
0.505294 0.573202 0.707360
0.507349 0.575258 0.775851
0.509394 0.577302 0.843982
0.513176 0.648403 0.303123
0.515392 0.650619 0.376967
0.517550 0.652777 0.448879
0.519675 0.654902 0.519675
0.521777 0.657003 0.589685
0.523860 0.659087 0.659087
0.525928 0.661155 0.727994
0.527984 0.663210 0.796485
0.530028 0.665255 0.864616
0.533663 0.735729 0.323610
0.535879 0.737945 0.397454
0.538038 0.740104 0.469366
0.540163 0.742229 0.540163
0.542264 0.744330 0.610172
0.544347 0.746413 0.679574
0.546415 0.748481 0.748481
0.548471 0.750537 0.816972
0.550516 0.752582 0.885104
0.554026 0.822527 0.343974
0.556243 0.824744 0.417817
0.558401 0.826902 0.489729
0.560526 0.829027 0.560526
0.562627 0.831128 0.630535
0.564710 0.833211 0.699937
0.566778 0.835280 0.768844
0.568834 0.837335 0.837335
0.570879 0.839380 0.905467
0.574283 0.908871 0.364230
0.576499 0.911087 0.438074
0.578657 0.913245 0.509986
0.580782 0.915370 0.580782
0.582884 0.917472 0.650792
0.584967 0.919555 0.720194
0.587035 0.921623 0.789101
0.589091 0.923678 0.857592
0.591135 0.925723 0.925723
0.481438 0.203478 0.203478
0.483655 0.205694 0.277321
0.485813 0.207852 0.349233
0.487938 0.209977 0.420030
0.490039 0.212079 0.490039
0.492122 0.214162 0.559441
0.494190 0.216230 0.628348
0.496246 0.218285 0.696839
0.498291 0.220330 0.764971
0.503393 0.297059 0.225432
0.505609 0.299276 0.299276
0.507768 0.301434 0.371188
0.509893 0.303559 0.441984
0.511994 0.305660 0.511994
0.514077 0.307743 0.581396
0.516145 0.309812 0.650303
0.518201 0.311867 0.718794
0.520246 0.313912 0.786925
0.524773 0.388194 0.246813
0.526990 0.390410 0.320656
0.529148 0.392568 0.392568
0.531273 0.394693 0.463365
0.533374 0.396795 0.533374
0.535457 0.398878 0.602776
0.537526 0.400946 0.671683
0.539581 0.403002 0.740174
0.541626 0.405046 0.808306
0.545822 0.477914 0.267862
0.548039 0.480131 0.341705
0.550197 0.482289 0.413617
0.552322 0.484414 0.484414
0.554423 0.486515 0.554423
0.556506 0.488598 0.623825
0.558574 0.490666 0.692732
0.560630 0.492722 0.761223
0.562675 0.494767 0.829355
0.566637 0.566637 0.288677
0.568853 0.568853 0.362520
0.571012 0.571012 0.434432
0.573137 0.573137 0.505229
0.575238 0.575238 0.575238
0.577321 0.577321 0.644640
0.579389 0.579389 0.713547
0.581445 0.581445 0.782038
0.583490 0.583490 0.850170
0.587271 0.654590 0.309311
0.589488 0.656806 0.383154
0.591646 0.658965 0.455066
0.593771 0.661090 0.525863
0.595872 0.663191 0.595872
0.597955 0.665274 0.665274
0.600023 0.667342 0.734181
0.602079 0.669398 0.802672
0.604124 0.671443 0.870804
0.607758 0.741916 0.329798
0.609975 0.744133 0.403641
0.612133 0.746291 0.475553
0.614258 0.748416 0.546350
0.616359 0.750517 0.616359
0.618442 0.752600 0.685761
0.620511 0.754668 0.754668
0.622566 0.756724 0.823159
0.624611 0.758769 0.891291
0.628122 0.828715 0.350161
0.630338 0.830931 0.424005
0.632497 0.833090 0.495917
0.634621 0.835215 0.566713
0.636723 0.837316 0.636723
0.638806 0.839399 0.706124
0.640874 0.841467 0.775032
0.642930 0.843523 0.843523
0.644975 0.845568 0.911654
0.648378 0.915058 0.370418
0.650595 0.917274 0.444261
0.652753 0.919433 0.516173
0.654878 0.921558 0.586970
0.656979 0.923659 0.656979
0.659062 0.925742 0.726381
0.661130 0.927810 0.795288
0.663186 0.929866 0.863779
0.665231 0.931911 0.931911
0.554891 0.209611 0.209611
0.557107 0.211828 0.283455
0.559265 0.213986 0.355367
0.561390 0.216111 0.426163
0.563492 0.218212 0.496173
0.565575 0.220295 0.565575
0.567643 0.222363 0.634482
0.569698 0.224419 0.702973
0.571743 0.226464 0.771104
0.576845 0.303193 0.231566
0.579062 0.305409 0.305409
0.581220 0.307568 0.377322
0.583345 0.309693 0.448118
0.585446 0.311794 0.518128
0.587529 0.313877 0.587529
0.589597 0.315945 0.656437
0.591653 0.318001 0.724928
0.593698 0.320046 0.793059
0.598226 0.394327 0.252947
0.600442 0.396544 0.326790
0.602601 0.398702 0.398702
0.604726 0.400827 0.469499
0.606827 0.402928 0.539508
0.608910 0.405011 0.608910
0.610978 0.407080 0.677817
0.613034 0.409135 0.746308
0.615079 0.411180 0.814440
0.619275 0.484048 0.273995
0.621491 0.486264 0.347839
0.623649 0.488423 0.419751
0.625774 0.490548 0.490548
0.627876 0.492649 0.560557
0.629959 0.494732 0.629959
0.632027 0.496800 0.698866
0.634083 0.498856 0.767357
0.636127 0.500901 0.835489
0.640090 0.572771 0.294810
0.642306 0.574987 0.368654
0.644464 0.577146 0.440566
0.646589 0.579270 0.511362
0.648690 0.581372 0.581372
0.650773 0.583455 0.650773
0.652842 0.585523 0.719681
0.654897 0.587579 0.788172
0.656942 0.589624 0.856303
0.660724 0.660724 0.315444
0.662940 0.662940 0.389288
0.665098 0.665098 0.461200
0.667223 0.667223 0.531996
0.669325 0.669325 0.602006
0.671408 0.671408 0.671408
0.673476 0.673476 0.740315
0.675532 0.675532 0.808806
0.677576 0.677576 0.876937
0.681211 0.748050 0.335931
0.683427 0.750266 0.409775
0.685586 0.752425 0.481687
0.687710 0.754550 0.552484
0.689812 0.756651 0.622493
0.691895 0.758734 0.691895
0.693963 0.760802 0.760802
0.696019 0.762858 0.829293
0.698064 0.764903 0.897425
0.701574 0.834849 0.356295
0.703791 0.837065 0.430138
0.705949 0.839223 0.502050
0.708074 0.841348 0.572847
0.710175 0.843449 0.642856
0.712258 0.845533 0.712258
0.714326 0.847601 0.781165
0.716382 0.849656 0.849656
0.718427 0.851701 0.917788
0.721831 0.921192 0.376551
0.724047 0.923408 0.450395
0.726205 0.925566 0.522307
0.728330 0.927691 0.593103
0.730432 0.929793 0.663113
0.732515 0.931876 0.732515
0.734583 0.933944 0.801422
0.736639 0.936000 0.869913
0.738683 0.938044 0.938044
0.627820 0.215701 0.215701
0.630036 0.217918 0.289545
0.632195 0.220076 0.361457
0.634319 0.222201 0.432253
0.636421 0.224302 0.502263
0.638504 0.226385 0.571665
0.640572 0.228453 0.640572
0.642628 0.230509 0.709063
0.644673 0.232554 0.777194
0.649774 0.309283 0.237656
0.651991 0.311499 0.311499
0.654149 0.313658 0.383412
0.656274 0.315783 0.454208
0.658375 0.317884 0.524218
0.660458 0.319967 0.593619
0.662527 0.322035 0.662527
0.664582 0.324091 0.731018
0.666627 0.326136 0.799149
0.671155 0.400417 0.259037
0.673371 0.402634 0.332880
0.675530 0.404792 0.404792
0.677655 0.406917 0.475589
0.679756 0.409018 0.545598
0.681839 0.411101 0.615000
0.683907 0.413170 0.683907
0.685963 0.415225 0.752398
0.688008 0.417270 0.820530
0.692204 0.490138 0.280085
0.694420 0.492354 0.353929
0.696579 0.494513 0.425841
0.698703 0.496638 0.496638
0.700805 0.498739 0.566647
0.702888 0.500822 0.636049
0.704956 0.502890 0.704956
0.707012 0.504946 0.773447
0.709057 0.506991 0.841579
0.713019 0.578861 0.300900
0.715235 0.581077 0.374744
0.717393 0.583236 0.446656
0.719518 0.585360 0.517452
0.721620 0.587462 0.587462
0.723703 0.589545 0.656863
0.725771 0.591613 0.725771
0.727826 0.593669 0.794262
0.729871 0.595714 0.862393
0.733653 0.666814 0.321534
0.735869 0.669030 0.395378
0.738028 0.671188 0.467290
0.740152 0.673313 0.538086
0.742254 0.675415 0.608096
0.744337 0.677498 0.677498
0.746405 0.679566 0.746405
0.748461 0.681622 0.814896
0.750506 0.683666 0.883027
0.754140 0.754140 0.342021
0.756356 0.756356 0.415865
0.758515 0.758515 0.487777
0.760640 0.760640 0.558574
0.762741 0.762741 0.628583
0.764824 0.764824 0.697985
0.766892 0.766892 0.766892
0.768948 0.768948 0.835383
0.770993 0.770993 0.903515
0.774503 0.840939 0.362385
0.776720 0.843155 0.436228
0.778878 0.845313 0.508140
0.781003 0.847438 0.578937
0.783104 0.849539 0.648946
0.785187 0.851623 0.718348
0.787255 0.853691 0.787255
0.789311 0.855746 0.855746
0.791356 0.857791 0.923878
0.794760 0.927282 0.382641
0.796976 0.929498 0.456485
0.799135 0.931656 0.528397
0.801259 0.933781 0.599193
0.803361 0.935883 0.669203
0.805444 0.937966 0.738605
0.807512 0.940034 0.807512
0.809568 0.942090 0.876003
0.811613 0.944134 0.944134
0.700308 0.221755 0.221755
0.702525 0.223971 0.295598
0.704683 0.226129 0.367510
0.706808 0.228254 0.438307
0.708909 0.230355 0.508316
0.710992 0.232438 0.577718
0.713060 0.234507 0.646625
0.715116 0.236562 0.715116
0.717161 0.238607 0.783248
0.722263 0.315336 0.243709
0.724479 0.317553 0.317553
0.726638 0.319711 0.389465
0.728763 0.321836 0.460261
0.730864 0.323937 0.530271
0.732947 0.326020 0.599672
0.735015 0.328088 0.668580
0.737071 0.330144 0.737071
0.739116 0.332189 0.805202
0.743643 0.406471 0.265090
0.745860 0.408687 0.338933
0.748018 0.410845 0.410845
0.750143 0.412970 0.481642
0.752244 0.415072 0.551651
0.754327 0.417155 0.621053
0.756396 0.419223 0.689960
0.758451 0.421278 0.758451
0.760496 0.423323 0.826583
0.764692 0.496191 0.286139
0.766909 0.498407 0.359982
0.769067 0.500566 0.431894
0.771192 0.502691 0.502691
0.773293 0.504792 0.572700
0.775376 0.506875 0.642102
0.777444 0.508943 0.711009
0.779500 0.510999 0.779500
0.781545 0.513044 0.847632
0.785507 0.584914 0.306953
0.787723 0.587130 0.380797
0.789882 0.589289 0.452709
0.792007 0.591414 0.523506
0.794108 0.593515 0.593515
0.796191 0.595598 0.662917
0.798259 0.597666 0.731824
0.800315 0.599722 0.800315
0.802360 0.601767 0.868447
0.806141 0.672867 0.327588
0.808358 0.675083 0.401431
0.810516 0.677242 0.473343
0.812641 0.679367 0.544140
0.814742 0.681468 0.614149
0.816825 0.683551 0.683551
0.818893 0.685619 0.752458
0.820949 0.687675 0.820949
0.822994 0.689720 0.889081
0.826628 0.760193 0.348075
0.828845 0.762410 0.421918
0.831003 0.764568 0.493830
0.833128 0.766693 0.564627
0.835229 0.768794 0.634636
0.837312 0.770877 0.704038
0.839381 0.772945 0.772945
0.841436 0.775001 0.841436
0.843481 0.777046 0.909568
0.846992 0.846992 0.368438
0.849208 0.849208 0.442281
0.851367 0.851367 0.514194
0.853491 0.853491 0.584990
0.855593 0.855593 0.655000
0.857676 0.857676 0.724401
0.859744 0.859744 0.793309
0.861800 0.861800 0.861800
0.863845 0.863845 0.929931
0.867248 0.933335 0.388695
0.869465 0.935551 0.462538
0.871623 0.937710 0.534450
0.873748 0.939835 0.605247
0.875849 0.941936 0.675256
0.877932 0.944019 0.744658
0.880000 0.946087 0.813565
0.882056 0.948143 0.882056
0.884101 0.950188 0.950188
0.772416 0.227776 0.227776
0.774633 0.229992 0.301619
0.776791 0.232151 0.373532
0.778916 0.234276 0.444328
0.781017 0.236377 0.514337
0.783100 0.238460 0.583739
0.785168 0.240528 0.652647
0.787224 0.242584 0.721137
0.789269 0.244629 0.789269
0.794371 0.321358 0.249731
0.796587 0.323574 0.323574
0.798746 0.325732 0.395486
0.800871 0.327857 0.466283
0.802972 0.329959 0.536292
0.805055 0.332042 0.605694
0.807123 0.334110 0.674601
0.809179 0.336166 0.743092
0.811224 0.338210 0.811224
0.815752 0.412492 0.271111
0.817968 0.414708 0.344955
0.820126 0.416867 0.416867
0.822251 0.418992 0.487663
0.824352 0.421093 0.557673
0.826436 0.423176 0.627074
0.828504 0.425244 0.695982
0.830559 0.427300 0.764473
0.832604 0.429345 0.832604
0.836800 0.502213 0.292160
0.839017 0.504429 0.366003
0.841175 0.506587 0.437916
0.843300 0.508712 0.508712
0.845401 0.510813 0.578722
0.847484 0.512896 0.648123
0.849553 0.514965 0.717031
0.851608 0.517020 0.785522
0.853653 0.519065 0.853653
0.857615 0.590935 0.312975
0.859832 0.593152 0.386818
0.861990 0.595310 0.458730
0.864115 0.597435 0.529527
0.866216 0.599536 0.599536
0.868299 0.601619 0.668938
0.870367 0.603688 0.737845
0.872423 0.605743 0.806336
0.874468 0.607788 0.874468
0.878249 0.678888 0.333609
0.880466 0.681105 0.407452
0.882624 0.683263 0.479365
0.884749 0.685388 0.550161
0.886850 0.687489 0.620171
0.888933 0.689572 0.689572
0.891001 0.691640 0.758480
0.893057 0.693696 0.826971
0.895102 0.695741 0.895102
0.898737 0.766215 0.354096
0.900953 0.768431 0.427940
0.903111 0.770589 0.499852
0.905236 0.772714 0.570648
0.907337 0.774816 0.640658
0.909420 0.776899 0.710059
0.911489 0.778967 0.778967
0.913544 0.781022 0.847458
0.915589 0.783067 0.915589
0.919100 0.853013 0.374459
0.921316 0.855230 0.448303
0.923475 0.857388 0.520215
0.925599 0.859513 0.591012
0.927701 0.861614 0.661021
0.929784 0.863697 0.730423
0.931852 0.865765 0.799330
0.933908 0.867821 0.867821
0.935953 0.869866 0.935953
0.939356 0.939356 0.394716
0.941573 0.941573 0.468559
0.943731 0.943731 0.540472
0.945856 0.945856 0.611268
0.947957 0.947957 0.681278
0.950040 0.950040 0.750679
0.952109 0.952109 0.819587
0.954164 0.954164 0.888078
0.956209 0.956209 0.956209
