skills/editops-orchestrator/assets/grade/luts/vintage_fade_v09.cube
TITLE "vintage_fade_v09"
LUT_3D_SIZE 9
DOMAIN_MIN 0.0 0.0 0.0
DOMAIN_MAX 1.0 1.0 1.0
0.087898 0.087898 0.087898
0.089329 0.089329 0.184305
0.090732 0.090732 0.278822
0.092120 0.092120 0.372380
0.093499 0.093499 0.465289
0.094871 0.094871 0.557705
0.096236 0.096236 0.649724
0.097597 0.097597 0.741413
0.098954 0.098954 0.832816
0.102071 0.197048 0.102071
0.103502 0.198478 0.198478
0.104905 0.199881 0.292995
0.106293 0.201270 0.386553
0.107672 0.202649 0.479462
0.109044 0.204020 0.571878
0.110409 0.205386 0.663897
0.111770 0.206747 0.755586
0.113127 0.208103 0.846989
0.115966 0.304056 0.115966
0.117397 0.305487 0.212374
0.118800 0.306890 0.306890
0.120188 0.308278 0.400448
0.121567 0.309657 0.493357
0.122939 0.311029 0.585773
0.124305 0.312395 0.677793
0.125665 0.313755 0.769481
0.127022 0.315112 0.860884
0.129721 0.409981 0.129721
0.131152 0.411411 0.226128
0.132554 0.412814 0.320644
0.133943 0.414203 0.414203
0.135322 0.415581 0.507111
0.136693 0.416953 0.599527
0.138059 0.418319 0.691547
0.139420 0.419679 0.783235
0.140776 0.421036 0.874639
0.143379 0.515169 0.143379
0.144810 0.516600 0.239787
0.146213 0.518002 0.334303
0.147601 0.519391 0.427861
0.148980 0.520770 0.520770
0.150352 0.522141 0.613186
0.151718 0.523507 0.705206
0.153078 0.524868 0.796894
0.154435 0.526224 0.888297
0.156966 0.619800 0.156966
0.158397 0.621231 0.253373
0.159799 0.622633 0.347889
0.161188 0.624022 0.441448
0.162567 0.625401 0.534356
0.163938 0.626772 0.626772
0.165304 0.628138 0.718792
0.166665 0.629499 0.810480
0.168021 0.630855 0.901884
0.170494 0.723982 0.170494
0.171925 0.725413 0.266901
0.173327 0.726815 0.361417
0.174716 0.728204 0.454976
0.176095 0.729583 0.547884
0.177466 0.730954 0.640300
0.178832 0.732320 0.732320
0.180193 0.733681 0.824008
0.181549 0.735037 0.915412
0.183973 0.827789 0.183973
0.185404 0.829220 0.280380
0.186807 0.830622 0.374897
0.188195 0.832011 0.468455
0.189574 0.833390 0.561364
0.190946 0.834761 0.653780
0.192311 0.836127 0.745799
0.193672 0.837488 0.837488
0.195029 0.838844 0.928891
0.197411 0.931273 0.197411
0.198842 0.932704 0.293818
0.200244 0.934107 0.388334
0.201633 0.935495 0.481893
0.203012 0.936874 0.574801
0.204383 0.938246 0.667217
0.205749 0.939611 0.759237
0.207110 0.940972 0.850925
0.208466 0.942329 0.942329
0.187088 0.092111 0.092111
0.188518 0.093542 0.188518
0.189921 0.094945 0.283035
0.191310 0.096333 0.376593
0.192689 0.097712 0.469502
0.194060 0.099084 0.561918
0.195426 0.100449 0.653937
0.196787 0.101810 0.745626
0.198143 0.103167 0.837029
0.201261 0.201261 0.106284
0.202692 0.202692 0.202692
0.204094 0.204094 0.297208
0.205483 0.205483 0.390766
0.206862 0.206862 0.483675
0.208233 0.208233 0.576091
0.209599 0.209599 0.668111
0.210960 0.210960 0.759799
0.212316 0.212316 0.851202
0.215156 0.308270 0.120180
0.216587 0.309700 0.216587
0.217989 0.311103 0.311103
0.219378 0.312492 0.404661
0.220757 0.313870 0.497570
0.222128 0.315242 0.589986
0.223494 0.316608 0.682006
0.224855 0.317968 0.773694
0.226211 0.319325 0.865097
0.228910 0.414194 0.133934
0.230341 0.415624 0.230341
0.231744 0.417027 0.324857
0.233132 0.418416 0.418416
0.234511 0.419795 0.511324
0.235883 0.421166 0.603740
0.237248 0.422532 0.695760
0.238609 0.423893 0.787448
0.239966 0.425249 0.878852
0.242569 0.519382 0.147593
0.244000 0.520813 0.244000
0.245402 0.522216 0.338516
0.246791 0.523604 0.432074
0.248170 0.524983 0.524983
0.249541 0.526354 0.617399
0.250907 0.527720 0.709419
0.252268 0.529081 0.801107
0.253624 0.530437 0.892511
0.256155 0.624013 0.161179
0.257586 0.625444 0.257586
0.258989 0.626846 0.352102
0.260377 0.628235 0.445661
0.261756 0.629614 0.538569
0.263128 0.630985 0.630985
0.264493 0.632351 0.723005
0.265854 0.633712 0.814693
0.267211 0.635068 0.906097
0.269683 0.728195 0.174707
0.271114 0.729626 0.271114
0.272517 0.731029 0.365630
0.273905 0.732417 0.459189
0.275284 0.733796 0.552097
0.276656 0.735167 0.644513
0.278021 0.736533 0.736533
0.279382 0.737894 0.828221
0.280739 0.739250 0.919625
0.283163 0.832002 0.188186
0.284593 0.833433 0.284593
0.285996 0.834835 0.379110
0.287385 0.836224 0.472668
0.288764 0.837603 0.565577
0.290135 0.838974 0.657993
0.291501 0.840340 0.750012
0.292861 0.841701 0.841701
0.294218 0.843057 0.933104
0.296600 0.935486 0.201624
0.298031 0.936917 0.298031
0.299434 0.938320 0.392547
0.300822 0.939708 0.486106
0.302201 0.941087 0.579014
0.303573 0.942459 0.671430
0.304938 0.943824 0.763450
0.306299 0.945185 0.855138
0.307656 0.946542 0.946542
0.284332 0.096242 0.096242
0.285763 0.097673 0.192649
0.287165 0.099075 0.287165
0.288554 0.100464 0.380724
0.289933 0.101843 0.473632
0.291304 0.103214 0.566048
0.292670 0.104580 0.658068
0.294031 0.105941 0.749756
0.295387 0.107297 0.841160
0.298505 0.205391 0.110415
0.299936 0.206822 0.206822
0.301338 0.208225 0.301338
0.302727 0.209613 0.394897
0.304106 0.210992 0.487805
0.305477 0.212364 0.580221
0.306843 0.213729 0.672241
0.308204 0.215090 0.763929
0.309560 0.216447 0.855333
0.312400 0.312400 0.124310
0.313831 0.313831 0.220717
0.315233 0.315233 0.315233
0.316622 0.316622 0.408792
0.318001 0.318001 0.501700
0.319372 0.319372 0.594116
0.320738 0.320738 0.686136
0.322099 0.322099 0.777824
0.323455 0.323455 0.869228
0.326154 0.418324 0.138064
0.327585 0.419755 0.234471
0.328988 0.421158 0.328988
0.330376 0.422546 0.422546
0.331755 0.423925 0.515455
0.333127 0.425297 0.607871
0.334492 0.426662 0.699890
0.335853 0.428023 0.791579
0.337210 0.429380 0.882982
0.339813 0.523512 0.151723
0.341244 0.524943 0.248130
0.342646 0.526346 0.342646
0.344035 0.527734 0.436205
0.345414 0.529113 0.529113
0.346785 0.530485 0.621529
0.348151 0.531851 0.713549
0.349512 0.533211 0.805237
0.350868 0.534568 0.896641
0.353399 0.628143 0.165309
0.354830 0.629574 0.261716
0.356233 0.630977 0.356233
0.357621 0.632365 0.449791
0.359000 0.633744 0.542700
0.360372 0.635116 0.635116
0.361737 0.636481 0.727135
0.363098 0.637842 0.818824
0.364455 0.639199 0.910227
0.366927 0.732325 0.178837
0.368358 0.733756 0.275245
0.369761 0.735159 0.369761
0.371149 0.736547 0.463319
0.372528 0.737926 0.556228
0.373900 0.739298 0.648644
0.375265 0.740664 0.740664
0.376626 0.742024 0.832352
0.377983 0.743381 0.923755
0.380407 0.836132 0.192317
0.381838 0.837563 0.288724
0.383240 0.838966 0.383240
0.384629 0.840354 0.476799
0.386008 0.841733 0.569707
0.387379 0.843105 0.662123
0.388745 0.844470 0.754143
0.390106 0.845831 0.845831
0.391462 0.847188 0.937235
0.393844 0.939617 0.205754
0.395275 0.941048 0.302161
0.396678 0.942450 0.396678
0.398066 0.943839 0.490236
0.399445 0.945218 0.583145
0.400817 0.946589 0.675561
0.402182 0.947955 0.767580
0.403543 0.949316 0.859269
0.404900 0.950672 0.950672
0.380590 0.100330 0.100330
0.382021 0.101761 0.196738
0.383424 0.103164 0.291254
0.384812 0.104552 0.384812
0.386191 0.105931 0.477721
0.387563 0.107303 0.570137
0.388928 0.108669 0.662157
0.390289 0.110029 0.753845
0.391646 0.111386 0.845248
0.394763 0.209480 0.114503
0.396194 0.210911 0.210911
0.397597 0.212313 0.305427
0.398985 0.213702 0.398985
0.400364 0.215081 0.491894
0.401736 0.216452 0.584310
0.403101 0.217818 0.676330
0.404462 0.219179 0.768018
0.405819 0.220535 0.859421
0.408658 0.316489 0.128399
0.410089 0.317919 0.224806
0.411492 0.319322 0.319322
0.412880 0.320711 0.412880
0.414259 0.322089 0.505789
0.415631 0.323461 0.598205
0.416997 0.324827 0.690225
0.418357 0.326187 0.781913
0.419714 0.327544 0.873317
0.422413 0.422413 0.142153
0.423844 0.423844 0.238560
0.425246 0.425246 0.333076
0.426635 0.426635 0.426635
0.428014 0.428014 0.519543
0.429385 0.429385 0.611959
0.430751 0.430751 0.703979
0.432112 0.432112 0.795667
0.433468 0.433468 0.887071
0.436071 0.527601 0.155812
0.437502 0.529032 0.252219
0.438905 0.530435 0.346735
0.440293 0.531823 0.440293
0.441672 0.533202 0.533202
0.443044 0.534573 0.625618
0.444410 0.535939 0.717638
0.445770 0.537300 0.809326
0.447127 0.538656 0.900730
0.449658 0.632232 0.169398
0.451089 0.633663 0.265805
0.452491 0.635065 0.360321
0.453880 0.636454 0.453880
0.455259 0.637833 0.546788
0.456630 0.639204 0.639204
0.457996 0.640570 0.731224
0.459357 0.641931 0.822912
0.460713 0.643287 0.914316
0.463186 0.736414 0.182926
0.464617 0.737845 0.279333
0.466019 0.739248 0.373849
0.467408 0.740636 0.467408
0.468787 0.742015 0.560316
0.470158 0.743386 0.652732
0.471524 0.744752 0.744752
0.472885 0.746113 0.836440
0.474241 0.747469 0.927844
0.476665 0.840221 0.196405
0.478096 0.841652 0.292812
0.479499 0.843054 0.387329
0.480887 0.844443 0.480887
0.482266 0.845822 0.573796
0.483638 0.847193 0.666212
0.485003 0.848559 0.758232
0.486364 0.849920 0.849920
0.487721 0.851276 0.941323
0.490103 0.943705 0.209843
0.491534 0.945136 0.306250
0.492936 0.946539 0.400766
0.494325 0.947927 0.494325
0.495704 0.949306 0.587233
0.497075 0.950678 0.679649
0.498441 0.952044 0.771669
0.499802 0.953404 0.863357
0.501158 0.954761 0.954761
0.476180 0.104391 0.104391
0.477611 0.105821 0.200798
0.479014 0.107224 0.295314
0.480402 0.108613 0.388872
0.481781 0.109991 0.481781
0.483152 0.111363 0.574197
0.484518 0.112729 0.666217
0.485879 0.114089 0.757905
0.487235 0.115446 0.849309
0.490353 0.213540 0.118564
0.491784 0.214971 0.214971
0.493187 0.216373 0.309487
0.494575 0.217762 0.403046
0.495954 0.219141 0.495954
0.497326 0.220512 0.588370
0.498691 0.221878 0.680390
0.500052 0.223239 0.772078
0.501409 0.224595 0.863482
0.504248 0.320549 0.132459
0.505679 0.321980 0.228866
0.507082 0.323382 0.323382
0.508470 0.324771 0.416941
0.509849 0.326150 0.509849
0.511221 0.327521 0.602265
0.512586 0.328887 0.694285
0.513947 0.330248 0.785973
0.515304 0.331604 0.877377
0.518003 0.426473 0.146213
0.519433 0.427904 0.242620
0.520836 0.429306 0.337137
0.522225 0.430695 0.430695
0.523603 0.432074 0.523603
0.524975 0.433445 0.616019
0.526341 0.434811 0.708039
0.527701 0.436172 0.799727
0.529058 0.437528 0.891131
0.531661 0.531661 0.159872
0.533092 0.533092 0.256279
0.534495 0.534495 0.350795
0.535883 0.535883 0.444354
0.537262 0.537262 0.537262
0.538634 0.538634 0.629678
0.539999 0.539999 0.721698
0.541360 0.541360 0.813386
0.542717 0.542717 0.904790
0.545248 0.636292 0.173458
0.546678 0.637723 0.269865
0.548081 0.639126 0.364382
0.549470 0.640514 0.457940
0.550848 0.641893 0.550848
0.552220 0.643265 0.643265
0.553586 0.644630 0.735284
0.554946 0.645991 0.826973
0.556303 0.647347 0.918376
0.558776 0.740474 0.186986
0.560206 0.741905 0.283393
0.561609 0.743308 0.377910
0.562998 0.744696 0.471468
0.564377 0.746075 0.564377
0.565748 0.747447 0.656793
0.567114 0.748812 0.748812
0.568475 0.750173 0.840501
0.569831 0.751530 0.931904
0.572255 0.844281 0.200466
0.573686 0.845712 0.296873
0.575089 0.847115 0.391389
0.576477 0.848503 0.484947
0.577856 0.849882 0.577856
0.579227 0.851254 0.670272
0.580593 0.852619 0.762292
0.581954 0.853980 0.853980
0.583310 0.855337 0.945384
0.585693 0.947766 0.213903
0.587123 0.949196 0.310310
0.588526 0.950599 0.404827
0.589915 0.951988 0.498385
0.591293 0.953366 0.591293
0.592665 0.954738 0.683709
0.594031 0.956104 0.775729
0.595391 0.957464 0.867417
0.596748 0.958821 0.958821
0.571263 0.108429 0.108429
0.572694 0.109860 0.204836
0.574097 0.111263 0.299353
0.575485 0.112651 0.392911
0.576864 0.114030 0.485820
0.578236 0.115402 0.578236
0.579601 0.116767 0.670255
0.580962 0.118128 0.761944
0.582319 0.119485 0.853347
0.585436 0.217579 0.122602
0.586867 0.219009 0.219009
0.588270 0.220412 0.313526
0.589658 0.221801 0.407084
0.591037 0.223180 0.499993
0.592409 0.224551 0.592409
0.593774 0.225917 0.684428
0.595135 0.227277 0.776117
0.596492 0.228634 0.867520
0.599331 0.324587 0.136497
0.600762 0.326018 0.232905
0.602165 0.327421 0.327421
0.603553 0.328809 0.420979
0.604932 0.330188 0.513888
0.606304 0.331560 0.606304
0.607669 0.332926 0.698324
0.609030 0.334286 0.790012
0.610387 0.335643 0.881415
0.613086 0.430512 0.150252
0.614516 0.431942 0.246659
0.615919 0.433345 0.341175
0.617308 0.434734 0.434734
0.618687 0.436112 0.527642
0.620058 0.437484 0.620058
0.621424 0.438850 0.712078
0.622785 0.440210 0.803766
0.624141 0.441567 0.895170
0.626744 0.535700 0.163910
0.628175 0.537131 0.260318
0.629578 0.538533 0.354834
0.630966 0.539922 0.448392
0.632345 0.541301 0.541301
0.633717 0.542672 0.633717
0.635083 0.544038 0.725737
0.636443 0.545399 0.817425
0.637800 0.546755 0.908828
0.640331 0.640331 0.177497
0.641762 0.641762 0.273904
0.643164 0.643164 0.368420
0.644553 0.644553 0.461979
0.645932 0.645932 0.554887
0.647303 0.647303 0.647303
0.648669 0.648669 0.739323
0.650030 0.650030 0.831011
0.651386 0.651386 0.922415
0.653859 0.744513 0.191025
0.655290 0.745944 0.287432
0.656692 0.747346 0.381948
0.658081 0.748735 0.475507
0.659460 0.750114 0.568415
0.660831 0.751485 0.660831
0.662197 0.752851 0.752851
0.663558 0.754212 0.844539
0.664914 0.755568 0.935943
0.667338 0.848320 0.204504
0.668769 0.849751 0.300911
0.670172 0.851153 0.395428
0.671560 0.852542 0.488986
0.672939 0.853921 0.581895
0.674311 0.855292 0.674311
0.675676 0.856658 0.766330
0.677037 0.858019 0.858019
0.678394 0.859375 0.949422
0.680776 0.951804 0.217942
0.682206 0.953235 0.314349
0.683609 0.954638 0.408865
0.684998 0.956026 0.502424
0.686377 0.957405 0.595332
0.687748 0.958777 0.687748
0.689114 0.960142 0.779768
0.690475 0.961503 0.871456
0.691831 0.962860 0.962860
0.665939 0.112451 0.112451
0.667369 0.113881 0.208858
0.668772 0.115284 0.303374
0.670161 0.116673 0.396933
0.671540 0.118051 0.489841
0.672911 0.119423 0.582257
0.674277 0.120789 0.674277
0.675637 0.122149 0.765965
0.676994 0.123506 0.857369
0.680112 0.221600 0.126624
0.681543 0.223031 0.223031
0.682945 0.224434 0.317547
0.684334 0.225822 0.411106
0.685713 0.227201 0.504014
0.687084 0.228572 0.596430
0.688450 0.229938 0.688450
0.689811 0.231299 0.780138
0.691167 0.232655 0.871542
0.694007 0.328609 0.140519
0.695438 0.330040 0.236926
0.696840 0.331442 0.331442
0.698229 0.332831 0.425001
0.699608 0.334210 0.517909
0.700979 0.335581 0.610325
0.702345 0.336947 0.702345
0.703706 0.338308 0.794033
0.705062 0.339664 0.885437
0.707761 0.434533 0.154273
0.709192 0.435964 0.250680
0.710595 0.437366 0.345197
0.711983 0.438755 0.438755
0.713362 0.440134 0.531663
0.714734 0.441505 0.624079
0.716099 0.442871 0.716099
0.717460 0.444232 0.807788
0.718816 0.445588 0.899191
0.721420 0.539721 0.167932
0.722851 0.541152 0.264339
0.724253 0.542555 0.358855
0.725642 0.543943 0.452414
0.727021 0.545322 0.545322
0.728392 0.546694 0.637738
0.729758 0.548059 0.729758
0.731119 0.549420 0.821446
0.732475 0.550777 0.912850
0.735006 0.644352 0.181518
0.736437 0.645783 0.277925
0.737840 0.647186 0.372442
0.739228 0.648574 0.466000
0.740607 0.649953 0.558908
0.741979 0.651325 0.651325
0.743344 0.652690 0.743344
0.744705 0.654051 0.835033
0.746062 0.655407 0.926436
0.748534 0.748534 0.195046
0.749965 0.749965 0.291453
0.751368 0.751368 0.385970
0.752756 0.752756 0.479528
0.754135 0.754135 0.572437
0.755507 0.755507 0.664853
0.756872 0.756872 0.756872
0.758233 0.758233 0.848561
0.759590 0.759590 0.939964
0.762014 0.852341 0.208526
0.763444 0.853772 0.304933
0.764847 0.855175 0.399449
0.766236 0.856563 0.493007
0.767614 0.857942 0.585916
0.768986 0.859314 0.678332
0.770352 0.860679 0.770352
0.771712 0.862040 0.862040
0.773069 0.863397 0.953444
0.775451 0.955826 0.221963
0.776882 0.957256 0.318370
0.778285 0.958659 0.412887
0.779673 0.960048 0.506445
0.781052 0.961427 0.599353
0.782424 0.962798 0.691769
0.783789 0.964164 0.783789
0.785150 0.965524 0.875477
0.786506 0.966881 0.966881
0.760273 0.116457 0.116457
0.761704 0.117888 0.212865
0.763107 0.119291 0.307381
0.764495 0.120679 0.400939
0.765874 0.122058 0.493848
0.767245 0.123430 0.586264
0.768611 0.124796 0.678284
0.769972 0.126156 0.769972
0.771328 0.127513 0.861375
0.774446 0.225607 0.130631
0.775877 0.227038 0.227038
0.777280 0.228440 0.321554
0.778668 0.229829 0.415112
0.780047 0.231208 0.508021
0.781419 0.232579 0.600437
0.782784 0.233945 0.692457
0.784145 0.235306 0.784145
0.785502 0.236662 0.875548
0.788341 0.332616 0.144526
0.789772 0.334046 0.240933
0.791175 0.335449 0.335449
0.792563 0.336838 0.429008
0.793942 0.338216 0.521916
0.795314 0.339588 0.614332
0.796679 0.340954 0.706352
0.798040 0.342314 0.798040
0.799397 0.343671 0.889444
0.802096 0.438540 0.158280
0.803526 0.439971 0.254687
0.804929 0.441373 0.349203
0.806318 0.442762 0.442762
0.807696 0.444141 0.535670
0.809068 0.445512 0.628086
0.810434 0.446878 0.720106
0.811794 0.448239 0.811794
0.813151 0.449595 0.903198
0.815754 0.543728 0.171939
0.817185 0.545159 0.268346
0.818588 0.546562 0.362862
0.819976 0.547950 0.456421
0.821355 0.549329 0.549329
0.822727 0.550701 0.641745
0.824092 0.552066 0.733765
0.825453 0.553427 0.825453
0.826810 0.554784 0.916857
0.829341 0.648359 0.185525
0.830771 0.649790 0.281932
0.832174 0.651192 0.376448
0.833563 0.652581 0.470007
0.834941 0.653960 0.562915
0.836313 0.655331 0.655331
0.837679 0.656697 0.747351
0.839039 0.658058 0.839039
0.840396 0.659414 0.930443
0.842869 0.752541 0.199053
0.844299 0.753972 0.295460
0.845702 0.755375 0.389977
0.847091 0.756763 0.483535
0.848470 0.758142 0.576443
0.849841 0.759514 0.668859
0.851207 0.760879 0.760879
0.852568 0.762240 0.852568
0.853924 0.763597 0.943971
0.856348 0.856348 0.212532
0.857779 0.857779 0.308940
0.859182 0.859182 0.403456
0.860570 0.860570 0.497014
0.861949 0.861949 0.589923
0.863320 0.863320 0.682339
0.864686 0.864686 0.774359
0.866047 0.866047 0.866047
0.867403 0.867403 0.957450
0.869786 0.959833 0.225970
0.871216 0.961263 0.322377
0.872619 0.962666 0.416893
0.874008 0.964055 0.510452
0.875386 0.965433 0.603360
0.876758 0.966805 0.695776
0.878124 0.968171 0.787796
0.879484 0.969531 0.879484
0.880841 0.970888 0.970888
0.854314 0.120452 0.120452
0.855745 0.121883 0.216859
0.857148 0.123285 0.311375
0.858536 0.124674 0.404934
0.859915 0.126053 0.497842
0.861287 0.127424 0.590258
0.862653 0.128790 0.682278
0.864013 0.130151 0.773966
0.865370 0.131507 0.865370
0.868488 0.229601 0.134625
0.869918 0.231032 0.231032
0.871321 0.232435 0.325548
0.872710 0.233823 0.419107
0.874088 0.235202 0.512015
0.875460 0.236574 0.604431
0.876826 0.237939 0.696451
0.878186 0.239300 0.788139
0.879543 0.240657 0.879543
0.882383 0.336610 0.148520
0.883813 0.338041 0.244927
0.885216 0.339444 0.339444
0.886605 0.340832 0.433002
0.887984 0.342211 0.525910
0.889355 0.343582 0.618326
0.890721 0.344948 0.710346
0.892082 0.346309 0.802035
0.893438 0.347665 0.893438
0.896137 0.442534 0.162274
0.897568 0.443965 0.258681
0.898970 0.445368 0.353198
0.900359 0.446756 0.446756
0.901738 0.448135 0.539665
0.903109 0.449507 0.632081
0.904475 0.450872 0.724101
0.905836 0.452233 0.815789
0.907192 0.453590 0.907192
0.909796 0.547723 0.175933
0.911226 0.549153 0.272340
0.912629 0.550556 0.366857
0.914018 0.551945 0.460415
0.915397 0.553323 0.553323
0.916768 0.554695 0.645739
0.918134 0.556061 0.737759
0.919495 0.557421 0.829448
0.920851 0.558778 0.920851
0.923382 0.652353 0.189519
0.924813 0.653784 0.285927
0.926216 0.655187 0.380443
0.927604 0.656575 0.474001
0.928983 0.657954 0.566910
0.930354 0.659326 0.659326
0.931720 0.660691 0.751346
0.933081 0.662052 0.843034
0.934437 0.663409 0.934437
0.936910 0.756536 0.203048
0.938341 0.757966 0.299455
0.939744 0.759369 0.393971
0.941132 0.760758 0.487529
0.942511 0.762136 0.580438
0.943883 0.763508 0.672854
0.945248 0.764874 0.764874
0.946609 0.766234 0.856562
0.947965 0.767591 0.947965
0.950389 0.860342 0.216527
0.951820 0.861773 0.312934
0.953223 0.863176 0.407450
0.954611 0.864564 0.501009
0.955990 0.865943 0.593917
0.957362 0.867315 0.686333
0.958728 0.868681 0.778353
0.960088 0.870041 0.870041
0.961445 0.871398 0.961445
0.963827 0.963827 0.229964
0.965258 0.965258 0.326371
0.966660 0.966660 0.420888
0.968049 0.968049 0.514446
0.969428 0.969428 0.607355
0.970799 0.970799 0.699771
0.972165 0.972165 0.791790
0.973526 0.973526 0.883479
0.974882 0.974882 0.974882
