skills/editops-orchestrator/assets/grade/luts/vintage_fade_v06.cube
TITLE "vintage_fade_v06"
LUT_3D_SIZE 17
DOMAIN_MIN 0.0 0.0 0.0
DOMAIN_MAX 1.0 1.0 1.0
0.062727 0.062727 0.062727
0.063319 0.063319 0.114585
0.063903 0.063903 0.165732
0.064482 0.064482 0.216492
0.065059 0.065059 0.266984
0.065633 0.065633 0.317271
0.066205 0.066205 0.367391
0.066776 0.066776 0.417372
0.067345 0.067345 0.467232
0.067913 0.067913 0.516986
0.068480 0.068480 0.566646
0.069046 0.069046 0.616220
0.069611 0.069611 0.665717
0.070175 0.070175 0.715142
0.070739 0.070739 0.764502
0.071301 0.071301 0.813800
0.071864 0.071864 0.863041
0.068591 0.119858 0.068591
0.069183 0.120450 0.120450
0.069767 0.121034 0.171597
0.070347 0.121613 0.222357
0.070923 0.122190 0.272849
0.071497 0.122764 0.323136
0.072070 0.123336 0.373256
0.072640 0.123907 0.423237
0.073210 0.124476 0.473097
0.073778 0.125044 0.522851
0.074344 0.125611 0.572511
0.074910 0.126177 0.622085
0.075476 0.126742 0.671582
0.076040 0.127306 0.721007
0.076603 0.127870 0.770366
0.077166 0.128432 0.819665
0.077728 0.128995 0.868906
0.074376 0.176205 0.074376
0.074968 0.176797 0.126234
0.075552 0.177381 0.177381
0.076131 0.177960 0.228141
0.076708 0.178537 0.278633
0.077282 0.179111 0.328920
0.077854 0.179683 0.379040
0.078425 0.180254 0.429021
0.078994 0.180823 0.478881
0.079562 0.181391 0.528635
0.080129 0.181958 0.578295
0.080695 0.182524 0.627869
0.081260 0.183089 0.677366
0.081824 0.183653 0.726791
0.082388 0.184217 0.776151
0.082950 0.184780 0.825449
0.083513 0.185342 0.874690
0.080116 0.232126 0.080116
0.080708 0.232718 0.131975
0.081292 0.233302 0.183121
0.081872 0.233881 0.233881
0.082448 0.234458 0.284374
0.083022 0.235032 0.334660
0.083594 0.235604 0.384781
0.084165 0.236175 0.434762
0.084734 0.236744 0.484622
0.085302 0.237312 0.534376
0.085869 0.237879 0.584035
0.086435 0.238445 0.633610
0.087000 0.239010 0.683106
0.087565 0.239574 0.732532
0.088128 0.240138 0.781891
0.088691 0.240701 0.831190
0.089253 0.241263 0.880431
0.085826 0.287752 0.085826
0.086418 0.288344 0.137685
0.087002 0.288928 0.188831
0.087582 0.289507 0.239592
0.088158 0.290084 0.290084
0.088732 0.290658 0.340371
0.089305 0.291230 0.390491
0.089875 0.291801 0.440472
0.090444 0.292370 0.490332
0.091013 0.292938 0.540086
0.091579 0.293505 0.589746
0.092145 0.294071 0.639320
0.092711 0.294636 0.688817
0.093275 0.295200 0.738242
0.093838 0.295764 0.787601
0.094401 0.296327 0.836900
0.094963 0.296889 0.886141
0.091513 0.343152 0.091513
0.092105 0.343744 0.143372
0.092689 0.344328 0.194518
0.093269 0.344907 0.245279
0.093845 0.345484 0.295771
0.094419 0.346058 0.346058
0.094992 0.346630 0.396178
0.095562 0.347200 0.446159
0.096131 0.347770 0.496019
0.096699 0.348338 0.545773
0.097266 0.348905 0.595433
0.097832 0.349471 0.645007
0.098397 0.350036 0.694504
0.098962 0.350600 0.743929
0.099525 0.351164 0.793288
0.100088 0.351726 0.842587
0.100650 0.352289 0.891828
0.097182 0.398368 0.097182
0.097774 0.398960 0.149040
0.098358 0.399544 0.200187
0.098937 0.400124 0.250947
0.099513 0.400700 0.301439
0.100088 0.401274 0.351726
0.100660 0.401846 0.401846
0.101230 0.402417 0.451827
0.101800 0.402986 0.501687
0.102368 0.403554 0.551441
0.102935 0.404121 0.601101
0.103501 0.404687 0.650675
0.104066 0.405252 0.700172
0.104630 0.405816 0.749597
0.105193 0.406380 0.798957
0.105756 0.406943 0.848255
0.106318 0.407505 0.897496
0.102834 0.453430 0.102834
0.103426 0.454023 0.154692
0.104010 0.454606 0.205839
0.104589 0.455186 0.256599
0.105166 0.455762 0.307091
0.105740 0.456337 0.357378
0.106312 0.456909 0.407499
0.106883 0.457479 0.457479
0.107452 0.458049 0.507339
0.108020 0.458617 0.557093
0.108587 0.459184 0.606753
0.109153 0.459750 0.656327
0.109718 0.460315 0.705824
0.110282 0.460879 0.755249
0.110846 0.461442 0.804609
0.111409 0.462005 0.853907
0.111971 0.462567 0.903148
0.108473 0.508360 0.108473
0.109065 0.508952 0.160331
0.109649 0.509536 0.211478
0.110228 0.510116 0.262238
0.110805 0.510692 0.312730
0.111379 0.511266 0.363017
0.111951 0.511838 0.413137
0.112522 0.512409 0.463118
0.113091 0.512978 0.512978
0.113659 0.513546 0.562732
0.114226 0.514113 0.612392
0.114792 0.514679 0.661966
0.115357 0.515244 0.711463
0.115921 0.515808 0.760888
0.116485 0.516372 0.810248
0.117047 0.516935 0.859546
0.117610 0.517497 0.908787
0.114099 0.563173 0.114099
0.114691 0.563765 0.165958
0.115275 0.564349 0.217104
0.115855 0.564928 0.267865
0.116431 0.565505 0.318357
0.117005 0.566079 0.368644
0.117578 0.566651 0.418764
0.118148 0.567222 0.468745
0.118717 0.567791 0.518605
0.119286 0.568359 0.568359
0.119852 0.568926 0.618019
0.120418 0.569492 0.667593
0.120984 0.570057 0.717090
0.121548 0.570621 0.766515
0.122111 0.571185 0.815874
0.122674 0.571748 0.865173
0.123236 0.572310 0.914414
0.119715 0.617882 0.119715
0.120307 0.618474 0.171574
0.120891 0.619057 0.222721
0.121471 0.619637 0.273481
0.122047 0.620213 0.323973
0.122621 0.620788 0.374260
0.123194 0.621360 0.424380
0.123764 0.621930 0.474361
0.124334 0.622500 0.524221
0.124902 0.623068 0.573975
0.125469 0.623635 0.623635
0.126034 0.624201 0.673209
0.126600 0.624766 0.722706
0.127164 0.625330 0.772131
0.127727 0.625893 0.821491
0.128290 0.626456 0.870789
0.128852 0.627018 0.920030
0.125322 0.672496 0.125322
0.125914 0.673088 0.177180
0.126498 0.673672 0.228327
0.127077 0.674252 0.279087
0.127654 0.674828 0.329579
0.128228 0.675402 0.379866
0.128800 0.675975 0.429987
0.129371 0.676545 0.479967
0.129940 0.677114 0.529827
0.130508 0.677682 0.579581
0.131075 0.678249 0.629241
0.131641 0.678815 0.678815
0.132206 0.679380 0.728312
0.132770 0.679945 0.777737
0.133334 0.680508 0.827097
0.133897 0.681071 0.876395
0.134459 0.681633 0.925636
0.130919 0.727026 0.130919
0.131512 0.727618 0.182778
0.132095 0.728201 0.233925
0.132675 0.728781 0.284685
0.133251 0.729357 0.335177
0.133826 0.729932 0.385464
0.134398 0.730504 0.435584
0.134968 0.731074 0.485565
0.135538 0.731644 0.535425
0.136106 0.732212 0.585179
0.136673 0.732779 0.634839
0.137239 0.733345 0.684413
0.137804 0.733910 0.733910
0.138368 0.734474 0.783335
0.138931 0.735037 0.832695
0.139494 0.735600 0.881993
0.140056 0.736162 0.931234
0.136509 0.781476 0.136509
0.137101 0.782068 0.188367
0.137685 0.782652 0.239514
0.138265 0.783232 0.290274
0.138841 0.783808 0.340766
0.139415 0.784382 0.391053
0.139987 0.784954 0.441174
0.140558 0.785525 0.491154
0.141127 0.786094 0.541015
0.141695 0.786662 0.590769
0.142262 0.787229 0.640428
0.142828 0.787795 0.690003
0.143393 0.788360 0.739499
0.143957 0.788925 0.788925
0.144521 0.789488 0.838284
0.145084 0.790051 0.887582
0.145646 0.790613 0.936824
0.142091 0.835854 0.142091
0.142683 0.836446 0.193950
0.143267 0.837030 0.245096
0.143847 0.837610 0.295856
0.144423 0.838186 0.346349
0.144997 0.838760 0.396635
0.145569 0.839333 0.446756
0.146140 0.839903 0.496737
0.146709 0.840472 0.546597
0.147277 0.841040 0.596351
0.147844 0.841607 0.646010
0.148410 0.842173 0.695585
0.148975 0.842738 0.745081
0.149540 0.843303 0.794507
0.150103 0.843866 0.843866
0.150666 0.844429 0.893165
0.151228 0.844991 0.942406
0.147666 0.890165 0.147666
0.148258 0.890757 0.199525
0.148842 0.891341 0.250671
0.149422 0.891921 0.301432
0.149998 0.892497 0.351924
0.150572 0.893071 0.402211
0.151145 0.893643 0.452331
0.151715 0.894214 0.502312
0.152284 0.894783 0.552172
0.152852 0.895351 0.601926
0.153419 0.895918 0.651586
0.153985 0.896484 0.701160
0.154550 0.897049 0.750657
0.155115 0.897613 0.800082
0.155678 0.898177 0.849441
0.156241 0.898740 0.898740
0.156803 0.899302 0.947981
0.153235 0.944413 0.153235
0.153827 0.945005 0.205093
0.154411 0.945589 0.256240
0.154991 0.946168 0.307000
0.155567 0.946745 0.357493
0.156141 0.947319 0.407779
0.156713 0.947891 0.457900
0.157284 0.948462 0.507881
0.157853 0.949031 0.557741
0.158421 0.949599 0.607495
0.158988 0.950166 0.657154
0.159554 0.950732 0.706729
0.160119 0.951297 0.756225
0.160683 0.951861 0.805651
0.161247 0.952425 0.855010
0.161810 0.952987 0.904308
0.162372 0.953550 0.953550
0.115736 0.064470 0.064470
0.116328 0.065062 0.116328
0.116912 0.065646 0.167475
0.117492 0.066226 0.218235
0.118068 0.066802 0.268727
0.118642 0.067376 0.319014
0.119215 0.067948 0.369135
0.119785 0.068519 0.419115
0.120354 0.069088 0.468976
0.120922 0.069656 0.518730
0.121489 0.070223 0.568389
0.122055 0.070789 0.617964
0.122620 0.071354 0.667460
0.123185 0.071918 0.716886
0.123748 0.072482 0.766245
0.124311 0.073045 0.815543
0.124873 0.073607 0.864785
0.121601 0.121601 0.070335
0.122193 0.122193 0.122193
0.122777 0.122777 0.173340
0.123357 0.123357 0.224100
0.123933 0.123933 0.274592
0.124507 0.124507 0.324879
0.125079 0.125079 0.375000
0.125650 0.125650 0.424980
0.126219 0.126219 0.474840
0.126787 0.126787 0.524594
0.127354 0.127354 0.574254
0.127920 0.127920 0.623828
0.128485 0.128485 0.673325
0.129049 0.129049 0.722750
0.129613 0.129613 0.772110
0.130176 0.130176 0.821408
0.130738 0.130738 0.870649
0.127385 0.177948 0.076119
0.127977 0.178540 0.127977
0.128561 0.179124 0.179124
0.129141 0.179704 0.229884
0.129717 0.180280 0.280376
0.130291 0.180854 0.330663
0.130864 0.181426 0.380784
0.131434 0.181997 0.430764
0.132003 0.182566 0.480624
0.132571 0.183134 0.530379
0.133138 0.183701 0.580038
0.133704 0.184267 0.629612
0.134269 0.184832 0.679109
0.134834 0.185397 0.728535
0.135397 0.185960 0.777894
0.135960 0.186523 0.827192
0.136522 0.187085 0.876434
0.133126 0.233869 0.081860
0.133718 0.234461 0.133718
0.134302 0.235045 0.184865
0.134881 0.235625 0.235625
0.135458 0.236201 0.286117
0.136032 0.236775 0.336404
0.136604 0.237348 0.386524
0.137175 0.237918 0.436505
0.137744 0.238487 0.486365
0.138312 0.239055 0.536119
0.138879 0.239622 0.585779
0.139445 0.240188 0.635353
0.140010 0.240753 0.684850
0.140574 0.241318 0.734275
0.141138 0.241881 0.783635
0.141701 0.242444 0.832933
0.142263 0.243006 0.882174
0.138836 0.289495 0.087570
0.139428 0.290087 0.139428
0.140012 0.290671 0.190575
0.140591 0.291251 0.241335
0.141168 0.291827 0.291827
0.141742 0.292401 0.342114
0.142314 0.292973 0.392235
0.142885 0.293544 0.442215
0.143454 0.294113 0.492075
0.144022 0.294681 0.541829
0.144589 0.295248 0.591489
0.145155 0.295814 0.641063
0.145720 0.296379 0.690560
0.146284 0.296944 0.739985
0.146848 0.297507 0.789345
0.147411 0.298070 0.838643
0.147973 0.298632 0.887884
0.144523 0.344895 0.093257
0.145115 0.345487 0.145115
0.145699 0.346071 0.196262
0.146278 0.346650 0.247022
0.146855 0.347227 0.297514
0.147429 0.347801 0.347801
0.148001 0.348373 0.397922
0.148572 0.348944 0.447902
0.149141 0.349513 0.497762
0.149709 0.350081 0.547516
0.150276 0.350648 0.597176
0.150842 0.351214 0.646750
0.151407 0.351779 0.696247
0.151971 0.352343 0.745672
0.152535 0.352907 0.795032
0.153098 0.353470 0.844330
0.153660 0.354032 0.893571
0.150191 0.400111 0.098925
0.150783 0.400703 0.150783
0.151367 0.401287 0.201930
0.151947 0.401867 0.252690
0.152523 0.402443 0.303182
0.153097 0.403017 0.353469
0.153669 0.403590 0.403590
0.154240 0.404160 0.453570
0.154809 0.404730 0.503430
0.155377 0.405298 0.553184
0.155944 0.405865 0.602844
0.156510 0.406430 0.652418
0.157075 0.406996 0.701915
0.157640 0.407560 0.751340
0.158203 0.408123 0.800700
0.158766 0.408686 0.849998
0.159328 0.409248 0.899239
0.155844 0.455174 0.104577
0.156436 0.455766 0.156436
0.157020 0.456350 0.207582
0.157599 0.456929 0.258343
0.158175 0.457506 0.308835
0.158750 0.458080 0.359122
0.159322 0.458652 0.409242
0.159892 0.459223 0.459223
0.160462 0.459792 0.509083
0.161030 0.460360 0.558837
0.161597 0.460927 0.608496
0.162163 0.461493 0.658071
0.162728 0.462058 0.707567
0.163292 0.462622 0.756993
0.163855 0.463186 0.806352
0.164418 0.463749 0.855651
0.164980 0.464311 0.904892
0.161482 0.510103 0.110216
0.162074 0.510695 0.162074
0.162658 0.511279 0.213221
0.163238 0.511859 0.263981
0.163814 0.512435 0.314473
0.164388 0.513009 0.364760
0.164961 0.513582 0.414881
0.165531 0.514152 0.464861
0.166100 0.514721 0.514721
0.166668 0.515289 0.564476
0.167235 0.515856 0.614135
0.167801 0.516422 0.663709
0.168366 0.516987 0.713206
0.168931 0.517552 0.762632
0.169494 0.518115 0.811991
0.170057 0.518678 0.861289
0.170619 0.519240 0.910530
0.167109 0.564916 0.115843
0.167701 0.565508 0.167701
0.168285 0.566092 0.218848
0.168864 0.566672 0.269608
0.169441 0.567248 0.320100
0.170015 0.567822 0.370387
0.170587 0.568394 0.420508
0.171158 0.568965 0.470488
0.171727 0.569534 0.520348
0.172295 0.570102 0.570102
0.172862 0.570669 0.619762
0.173428 0.571235 0.669336
0.173993 0.571800 0.718833
0.174557 0.572365 0.768258
0.175121 0.572928 0.817618
0.175684 0.573491 0.866916
0.176246 0.574053 0.916157
0.172725 0.619625 0.121459
0.173317 0.620217 0.173317
0.173901 0.620801 0.224464
0.174481 0.621380 0.275224
0.175057 0.621957 0.325716
0.175631 0.622531 0.376003
0.176203 0.623103 0.426124
0.176774 0.623674 0.476104
0.177343 0.624243 0.525964
0.177911 0.624811 0.575718
0.178478 0.625378 0.625378
0.179044 0.625944 0.674952
0.179609 0.626509 0.724449
0.180173 0.627073 0.773874
0.180737 0.627637 0.823234
0.181300 0.628200 0.872532
0.181862 0.628762 0.921773
0.178331 0.674240 0.127065
0.178924 0.674832 0.178924
0.179507 0.675416 0.230070
0.180087 0.675995 0.280830
0.180663 0.676572 0.331323
0.181238 0.677146 0.381609
0.181810 0.677718 0.431730
0.182380 0.678288 0.481711
0.182950 0.678858 0.531571
0.183518 0.679426 0.581325
0.184085 0.679993 0.630984
0.184651 0.680559 0.680559
0.185216 0.681124 0.730055
0.185780 0.681688 0.779481
0.186343 0.682252 0.828840
0.186906 0.682814 0.878139
0.187468 0.683377 0.927380
0.183929 0.728769 0.132663
0.184521 0.729361 0.184521
0.185105 0.729945 0.235668
0.185685 0.730524 0.286428
0.186261 0.731101 0.336920
0.186835 0.731675 0.387207
0.187407 0.732247 0.437328
0.187978 0.732818 0.487308
0.188547 0.733387 0.537168
0.189115 0.733955 0.586922
0.189682 0.734522 0.636582
0.190248 0.735088 0.686156
0.190813 0.735653 0.735653
0.191378 0.736217 0.785078
0.191941 0.736781 0.834438
0.192504 0.737344 0.883736
0.193066 0.737906 0.932977
0.189519 0.783220 0.138252
0.190111 0.783812 0.190111
0.190695 0.784396 0.241257
0.191274 0.784975 0.292018
0.191851 0.785551 0.342510
0.192425 0.786126 0.392797
0.192997 0.786698 0.442917
0.193568 0.787268 0.492898
0.194137 0.787838 0.542758
0.194705 0.788406 0.592512
0.195272 0.788973 0.642172
0.195838 0.789539 0.691746
0.196403 0.790104 0.741243
0.196967 0.790668 0.790668
0.197531 0.791231 0.840027
0.198093 0.791794 0.889326
0.198656 0.792356 0.938567
0.195101 0.837598 0.143835
0.195693 0.838190 0.195693
0.196277 0.838774 0.246840
0.196856 0.839353 0.297600
0.197433 0.839930 0.348092
0.198007 0.840504 0.398379
0.198579 0.841076 0.448499
0.199150 0.841647 0.498480
0.199719 0.842216 0.548340
0.200287 0.842784 0.598094
0.200854 0.843351 0.647754
0.201420 0.843917 0.697328
0.201985 0.844482 0.746825
0.202549 0.845046 0.796250
0.203113 0.845610 0.845610
0.203676 0.846172 0.894908
0.204238 0.846735 0.944149
0.200676 0.891908 0.149410
0.201268 0.892500 0.201268
0.201852 0.893084 0.252415
0.202431 0.893664 0.303175
0.203008 0.894240 0.353667
0.203582 0.894814 0.403954
0.204154 0.895387 0.454075
0.204725 0.895957 0.504055
0.205294 0.896526 0.553915
0.205862 0.897094 0.603669
0.206429 0.897661 0.653329
0.206995 0.898227 0.702903
0.207560 0.898792 0.752400
0.208124 0.899357 0.801825
0.208688 0.899920 0.851185
0.209251 0.900483 0.900483
0.209813 0.901045 0.949724
0.206245 0.946156 0.154978
0.206837 0.946748 0.206837
0.207421 0.947332 0.257984
0.208000 0.947912 0.308744
0.208577 0.948488 0.359236
0.209151 0.949062 0.409523
0.209723 0.949634 0.459643
0.210294 0.950205 0.509624
0.210863 0.950774 0.559484
0.211431 0.951342 0.609238
0.211998 0.951909 0.658898
0.212564 0.952475 0.708472
0.213129 0.953040 0.757969
0.213693 0.953604 0.807394
0.214257 0.954168 0.856754
0.214819 0.954731 0.906052
0.215382 0.955293 0.955293
0.168019 0.066189 0.066189
0.168611 0.066782 0.118048
0.169195 0.067365 0.169195
0.169774 0.067945 0.219955
0.170351 0.068521 0.270447
0.170925 0.069096 0.320734
0.171497 0.069668 0.370854
0.172067 0.070238 0.420835
0.172637 0.070808 0.470695
0.173205 0.071376 0.520449
0.173772 0.071943 0.570109
0.174338 0.072508 0.619683
0.174903 0.073074 0.669180
0.175467 0.073638 0.718605
0.176030 0.074201 0.767965
0.176593 0.074764 0.817263
0.177155 0.075326 0.866504
0.173883 0.123320 0.072054
0.174475 0.123913 0.123913
0.175059 0.124496 0.175059
0.175639 0.125076 0.225819
0.176215 0.125652 0.276312
0.176789 0.126227 0.326598
0.177362 0.126799 0.376719
0.177932 0.127369 0.426700
0.178501 0.127939 0.476560
0.179069 0.128507 0.526314
0.179636 0.129074 0.575973
0.180202 0.129639 0.625548
0.180767 0.130205 0.675044
0.181332 0.130769 0.724470
0.181895 0.131332 0.773829
0.182458 0.131895 0.823128
0.183020 0.132457 0.872369
0.179668 0.179668 0.077838
0.180260 0.180260 0.129697
0.180844 0.180844 0.180844
0.181423 0.181423 0.231604
0.181999 0.181999 0.282096
0.182574 0.182574 0.332383
0.183146 0.183146 0.382503
0.183716 0.183716 0.432484
0.184286 0.184286 0.482344
0.184854 0.184854 0.532098
0.185421 0.185421 0.581758
0.185987 0.185987 0.631332
0.186552 0.186552 0.680829
0.187116 0.187116 0.730254
0.187679 0.187679 0.779613
0.188242 0.188242 0.828912
0.188804 0.188804 0.878153
0.185408 0.235589 0.083579
0.186000 0.236181 0.135437
0.186584 0.236765 0.186584
0.187164 0.237344 0.237344
0.187740 0.237921 0.287836
0.188314 0.238495 0.338123
0.188886 0.239067 0.388244
0.189457 0.239638 0.438224
0.190026 0.240207 0.488084
0.190594 0.240775 0.537838
0.191161 0.241342 0.587498
0.191727 0.241908 0.637072
0.192292 0.242473 0.686569
0.192856 0.243037 0.735994
0.193420 0.243601 0.785354
0.193983 0.244163 0.834652
0.194545 0.244726 0.883893
0.191118 0.291215 0.089289
0.191710 0.291807 0.141147
0.192294 0.292391 0.192294
0.192874 0.292970 0.243054
0.193450 0.293547 0.293547
0.194024 0.294121 0.343833
0.194597 0.294693 0.393954
0.195167 0.295263 0.443935
0.195736 0.295833 0.493795
0.196304 0.296401 0.543549
0.196871 0.296968 0.593208
0.197437 0.297534 0.642783
0.198002 0.298099 0.692279
0.198567 0.298663 0.741705
0.199130 0.299227 0.791064
0.199693 0.299789 0.840363
0.200255 0.300352 0.889604
0.196805 0.346614 0.094976
0.197397 0.347206 0.146834
0.197981 0.347790 0.197981
0.198561 0.348370 0.248741
0.199137 0.348946 0.299234
0.199711 0.349520 0.349520
0.200284 0.350093 0.399641
0.200854 0.350663 0.449622
0.201423 0.351232 0.499482
0.201991 0.351801 0.549236
0.202558 0.352367 0.598895
0.203124 0.352933 0.648470
0.203689 0.353499 0.697966
0.204254 0.354063 0.747392
0.204817 0.354626 0.796751
0.205380 0.355189 0.846050
0.205942 0.355751 0.895291
0.202473 0.401831 0.100644
0.203065 0.402423 0.152503
0.203649 0.403007 0.203649
0.204229 0.403586 0.254410
0.204805 0.404163 0.304902
0.205379 0.404737 0.355189
0.205952 0.405309 0.405309
0.206522 0.405880 0.455290
0.207092 0.406449 0.505150
0.207660 0.407017 0.554904
0.208227 0.407584 0.604563
0.208792 0.408150 0.654138
0.209358 0.408715 0.703634
0.209922 0.409279 0.753060
0.210485 0.409843 0.802419
0.211048 0.410406 0.851718
0.211610 0.410968 0.900959
0.208126 0.456893 0.106297
0.208718 0.457485 0.158155
0.209302 0.458069 0.209302
0.209881 0.458649 0.260062
0.210458 0.459225 0.310554
0.211032 0.459799 0.360841
0.211604 0.460372 0.410961
0.212175 0.460942 0.460942
0.212744 0.461511 0.510802
0.213312 0.462079 0.560556
0.213879 0.462646 0.610216
0.214445 0.463212 0.659790
0.215010 0.463777 0.709287
0.215574 0.464342 0.758712
0.216138 0.464905 0.808072
0.216701 0.465468 0.857370
0.217263 0.466030 0.906611
0.213765 0.511823 0.111935
0.214357 0.512415 0.163794
0.214941 0.512999 0.214941
0.215520 0.513578 0.265701
0.216096 0.514155 0.316193
0.216671 0.514729 0.366480
0.217243 0.515301 0.416600
0.217813 0.515872 0.466581
0.218383 0.516441 0.516441
0.218951 0.517009 0.566195
0.219518 0.517576 0.615855
0.220084 0.518142 0.665429
0.220649 0.518707 0.714926
0.221213 0.519271 0.764351
0.221776 0.519835 0.813710
0.222339 0.520398 0.863009
0.222901 0.520960 0.912250
0.219391 0.566636 0.117562
0.219983 0.567228 0.169420
0.220567 0.567812 0.220567
0.221147 0.568391 0.271327
0.221723 0.568968 0.321820
0.222297 0.569542 0.372106
0.222870 0.570114 0.422227
0.223440 0.570684 0.472208
0.224009 0.571254 0.522068
0.224577 0.571822 0.571822
0.225144 0.572389 0.621481
0.225710 0.572955 0.671056
0.226275 0.573520 0.720552
0.226840 0.574084 0.769978
0.227403 0.574648 0.819337
0.227966 0.575210 0.868636
0.228528 0.575772 0.917877
0.225007 0.621344 0.123178
0.225599 0.621936 0.175037
0.226183 0.622520 0.226183
0.226763 0.623100 0.276943
0.227339 0.623676 0.327436
0.227913 0.624250 0.377723
0.228486 0.624823 0.427843
0.229056 0.625393 0.477824
0.229625 0.625962 0.527684
0.230193 0.626530 0.577438
0.230760 0.627097 0.627097
0.231326 0.627663 0.676672
0.231891 0.628228 0.726168
0.232456 0.628793 0.775594
0.233019 0.629356 0.824953
0.233582 0.629919 0.874252
0.234144 0.630481 0.923493
0.230614 0.675959 0.128785
0.231206 0.676551 0.180643
0.231790 0.677135 0.231790
0.232369 0.677715 0.282550
0.232946 0.678291 0.333042
0.233520 0.678865 0.383329
0.234092 0.679437 0.433449
0.234663 0.680008 0.483430
0.235232 0.680577 0.533290
0.235800 0.681145 0.583044
0.236367 0.681712 0.632704
0.236933 0.682278 0.682278
0.237498 0.682843 0.731775
0.238062 0.683407 0.781200
0.238626 0.683971 0.830560
0.239188 0.684534 0.879858
0.239751 0.685096 0.929099
0.236211 0.730488 0.134382
0.236803 0.731080 0.186241
0.237387 0.731664 0.237387
0.237967 0.732244 0.288147
0.238543 0.732820 0.338640
0.239117 0.733394 0.388927
0.239690 0.733967 0.439047
0.240260 0.734537 0.489028
0.240829 0.735106 0.538888
0.241397 0.735674 0.588642
0.241964 0.736241 0.638301
0.242530 0.736807 0.687876
0.243095 0.737372 0.737372
0.243660 0.737937 0.786798
0.244223 0.738500 0.836157
0.244786 0.739063 0.885456
0.245348 0.739625 0.934697
0.241801 0.784939 0.139972
0.242393 0.785531 0.191830
0.242977 0.786115 0.242977
0.243556 0.786694 0.293737
0.244133 0.787271 0.344229
0.244707 0.787845 0.394516
0.245279 0.788417 0.444637
0.245850 0.788988 0.494617
0.246419 0.789557 0.544477
0.246987 0.790125 0.594231
0.247554 0.790692 0.643891
0.248120 0.791258 0.693465
0.248685 0.791823 0.742962
0.249249 0.792387 0.792387
0.249813 0.792951 0.841747
0.250376 0.793514 0.891045
0.250938 0.794076 0.940286
0.247383 0.839317 0.145554
0.247975 0.839909 0.197412
0.248559 0.840493 0.248559
0.249139 0.841073 0.299319
0.249715 0.841649 0.349811
0.250289 0.842223 0.400098
0.250861 0.842795 0.450219
0.251432 0.843366 0.500199
0.252001 0.843935 0.550059
0.252569 0.844503 0.599813
0.253136 0.845070 0.649473
0.253702 0.845636 0.699047
0.254267 0.846201 0.748544
0.254831 0.846765 0.797969
0.255395 0.847329 0.847329
0.255958 0.847892 0.896627
0.256520 0.848454 0.945868
0.252958 0.893628 0.151129
0.253550 0.894220 0.202987
0.254134 0.894804 0.254134
0.254714 0.895383 0.304894
0.255290 0.895960 0.355387
0.255864 0.896534 0.405673
0.256437 0.897106 0.455794
0.257007 0.897677 0.505775
0.257576 0.898246 0.555635
0.258144 0.898814 0.605389
0.258711 0.899381 0.655048
0.259277 0.899947 0.704623
0.259842 0.900512 0.754119
0.260407 0.901076 0.803545
0.260970 0.901640 0.852904
0.261533 0.902203 0.902203
0.262095 0.902765 0.951444
0.258527 0.947875 0.156698
0.259119 0.948468 0.208556
0.259703 0.949051 0.259703
0.260282 0.949631 0.310463
0.260859 0.950207 0.360955
0.261433 0.950782 0.411242
0.262005 0.951354 0.461363
0.262576 0.951924 0.511343
0.263145 0.952494 0.561203
0.263713 0.953062 0.610957
0.264280 0.953629 0.660617
0.264846 0.954195 0.710191
0.265411 0.954760 0.759688
0.265975 0.955324 0.809113
0.266539 0.955887 0.858473
0.267102 0.956450 0.907771
0.267664 0.957012 0.957012
0.219906 0.067896 0.067896
0.220498 0.068488 0.119754
0.221082 0.069072 0.170901
0.221661 0.069651 0.221661
0.222238 0.070228 0.272153
0.222812 0.070802 0.322440
0.223384 0.071374 0.372561
0.223955 0.071945 0.422541
0.224524 0.072514 0.472401
0.225092 0.073082 0.522155
0.225659 0.073649 0.571815
0.226225 0.074215 0.621389
0.226790 0.074780 0.670886
0.227354 0.075344 0.720311
0.227918 0.075908 0.769671
0.228480 0.076471 0.818969
0.229043 0.077033 0.868210
0.225770 0.125027 0.073761
