skills/editops-orchestrator/assets/grade/luts/vintage_fade_v20.cube
TITLE "vintage_fade_v20"
LUT_3D_SIZE 17
DOMAIN_MIN 0.0 0.0 0.0
DOMAIN_MAX 1.0 1.0 1.0
0.178151 0.178151 0.178151
0.179270 0.179270 0.215413
0.180368 0.180368 0.251995
0.181452 0.181452 0.288122
0.182526 0.182526 0.323907
0.183592 0.183592 0.359419
0.184651 0.184651 0.394704
0.185704 0.185704 0.429793
0.186752 0.186752 0.464713
0.187796 0.187796 0.499482
0.188835 0.188835 0.534115
0.189871 0.189871 0.568625
0.190904 0.190904 0.603022
0.191933 0.191933 0.637316
0.192959 0.192959 0.671513
0.193983 0.193983 0.705621
0.195004 0.195004 0.739645
0.189230 0.225373 0.189230
0.190348 0.226492 0.226492
0.191446 0.227590 0.263073
0.192531 0.228674 0.299200
0.193605 0.229748 0.334985
0.194670 0.230814 0.370498
0.195730 0.231873 0.405782
0.196783 0.232926 0.440872
0.197831 0.233974 0.475791
0.198874 0.235018 0.510560
0.199914 0.236057 0.545193
0.200950 0.237093 0.579703
0.201982 0.238125 0.614100
0.203011 0.239155 0.648394
0.204038 0.240181 0.682591
0.205061 0.241205 0.716699
0.206083 0.242226 0.750723
0.200106 0.271733 0.200106
0.201225 0.272852 0.237368
0.202322 0.273950 0.273950
0.203407 0.275034 0.310076
0.204481 0.276108 0.345862
0.205547 0.277174 0.381374
0.206606 0.278233 0.416658
0.207659 0.279286 0.451748
0.208707 0.280334 0.486668
0.209751 0.281378 0.521436
0.210790 0.282417 0.556069
0.211826 0.283453 0.590579
0.212858 0.284485 0.624977
0.213888 0.285515 0.659270
0.214914 0.286541 0.693468
0.215938 0.287565 0.727575
0.216959 0.288586 0.761599
0.210847 0.317517 0.210847
0.211966 0.318635 0.248109
0.213064 0.319733 0.284691
0.214148 0.320818 0.320818
0.215222 0.321892 0.356603
0.216288 0.322957 0.392115
0.217347 0.324016 0.427399
0.218400 0.325070 0.462489
0.219448 0.326118 0.497409
0.220492 0.327161 0.532177
0.221531 0.328201 0.566810
0.222567 0.329237 0.601320
0.223599 0.330269 0.635718
0.224629 0.331298 0.670011
0.225655 0.332325 0.704209
0.226679 0.333348 0.738316
0.227700 0.334370 0.772340
0.221487 0.362868 0.221487
0.222605 0.363986 0.258748
0.223703 0.365084 0.295330
0.224787 0.366168 0.331457
0.225861 0.367242 0.367242
0.226927 0.368308 0.402754
0.227986 0.369367 0.438039
0.229039 0.370420 0.473129
0.230088 0.371468 0.508048
0.231131 0.372512 0.542817
0.232171 0.373551 0.577450
0.233206 0.374587 0.611960
0.234239 0.375620 0.646357
0.235268 0.376649 0.680651
0.236294 0.377675 0.714848
0.237318 0.378699 0.748956
0.238339 0.379720 0.782980
0.232045 0.407872 0.232045
0.233163 0.408990 0.269307
0.234261 0.410088 0.305888
0.235346 0.411173 0.342015
0.236420 0.412247 0.377801
0.237486 0.413313 0.413313
0.238545 0.414372 0.448597
0.239598 0.415425 0.483687
0.240646 0.416473 0.518606
0.241689 0.417516 0.553375
0.242729 0.418556 0.588008
0.243765 0.419592 0.622518
0.244797 0.420624 0.656916
0.245826 0.421653 0.691209
0.246853 0.422680 0.725406
0.247876 0.423703 0.759514
0.248898 0.424725 0.793538
0.242536 0.452588 0.242536
0.243654 0.453706 0.279797
0.244752 0.454804 0.316379
0.245836 0.455889 0.352506
0.246910 0.456963 0.388291
0.247976 0.458029 0.423803
0.249035 0.459088 0.459088
0.250088 0.460141 0.494177
0.251136 0.461189 0.529097
0.252180 0.462232 0.563866
0.253219 0.463272 0.598499
0.254255 0.464308 0.633009
0.255288 0.465340 0.667406
0.256317 0.466369 0.701700
0.257343 0.467396 0.735897
0.258367 0.468420 0.770005
0.259388 0.469441 0.804029
0.252968 0.497057 0.252968
0.254087 0.498176 0.290230
0.255185 0.499274 0.326812
0.256269 0.500358 0.362939
0.257343 0.501432 0.398724
0.258409 0.502498 0.434236
0.259468 0.503557 0.469520
0.260521 0.504610 0.504610
0.261569 0.505658 0.539530
0.262613 0.506702 0.574298
0.263652 0.507741 0.608931
0.264688 0.508777 0.643441
0.265720 0.509809 0.677839
0.266750 0.510839 0.712132
0.267776 0.511865 0.746330
0.268800 0.512889 0.780437
0.269821 0.513910 0.814461
0.263350 0.541311 0.263350
0.264469 0.542429 0.300612
0.265567 0.543527 0.337194
0.266651 0.544612 0.373321
0.267725 0.545686 0.409106
0.268791 0.546752 0.444618
0.269850 0.547811 0.479902
0.270903 0.548864 0.514992
0.271951 0.549912 0.549912
0.272995 0.550955 0.584681
0.274034 0.551995 0.619314
0.275070 0.553031 0.653824
0.276102 0.554063 0.688221
0.277132 0.555092 0.722514
0.278158 0.556119 0.756712
0.279182 0.557143 0.790820
0.280203 0.558164 0.824843
0.273688 0.585373 0.273688
0.274806 0.586492 0.310949
0.275904 0.587590 0.347531
0.276988 0.588674 0.383658
0.278062 0.589748 0.419443
0.279128 0.590814 0.454955
0.280187 0.591873 0.490240
0.281240 0.592926 0.525329
0.282288 0.593974 0.560249
0.283332 0.595018 0.595018
0.284371 0.596057 0.629651
0.285407 0.597093 0.664161
0.286440 0.598125 0.698558
0.287469 0.599155 0.732852
0.288495 0.600181 0.767049
0.289519 0.601205 0.801157
0.290540 0.602226 0.835181
0.283984 0.629264 0.283984
0.285103 0.630382 0.321246
0.286201 0.631480 0.357828
0.287285 0.632564 0.393955
0.288359 0.633639 0.429740
0.289425 0.634704 0.465252
0.290484 0.635763 0.500537
0.291537 0.636817 0.535626
0.292585 0.637865 0.570546
0.293629 0.638908 0.605315
0.294668 0.639948 0.639948
0.295704 0.640984 0.674458
0.296737 0.642016 0.708855
0.297766 0.643045 0.743149
0.298792 0.644072 0.777346
0.299816 0.645095 0.811454
0.300837 0.646117 0.845478
0.294245 0.672998 0.294245
0.295363 0.674117 0.331507
0.296461 0.675215 0.368088
0.297545 0.676299 0.404215
0.298620 0.677373 0.440000
0.299685 0.678439 0.475512
0.300744 0.679498 0.510797
0.301798 0.680551 0.545887
0.302846 0.681599 0.580806
0.303889 0.682643 0.615575
0.304929 0.683682 0.650208
0.305965 0.684718 0.684718
0.306997 0.685750 0.719115
0.308026 0.686780 0.753409
0.309053 0.687806 0.787606
0.310076 0.688830 0.821714
0.311098 0.689851 0.855738
0.304472 0.716590 0.304472
0.305590 0.717708 0.341733
0.306688 0.718806 0.378315
0.307772 0.719891 0.414442
0.308846 0.720965 0.450227
0.309912 0.722031 0.485739
0.310971 0.723090 0.521024
0.312024 0.724143 0.556114
0.313073 0.725191 0.591033
0.314116 0.726235 0.625802
0.315156 0.727274 0.660435
0.316191 0.728310 0.694945
0.317224 0.729342 0.729342
0.318253 0.730372 0.763636
0.319279 0.731398 0.797833
0.320303 0.732422 0.831941
0.321324 0.733443 0.865965
0.314668 0.760050 0.314668
0.315786 0.761169 0.351929
0.316884 0.762267 0.388511
0.317968 0.763351 0.424638
0.319042 0.764425 0.460423
0.320108 0.765491 0.495935
0.321167 0.766550 0.531220
0.322220 0.767603 0.566309
0.323268 0.768651 0.601229
0.324312 0.769695 0.635998
0.325352 0.770734 0.670631
0.326387 0.771770 0.705141
0.327420 0.772802 0.739538
0.328449 0.773832 0.773832
0.329475 0.774858 0.808029
0.330499 0.775882 0.842137
0.331520 0.776903 0.876161
0.324835 0.803389 0.324835
0.325953 0.804507 0.362097
0.327051 0.805605 0.398678
0.328136 0.806689 0.434805
0.329210 0.807763 0.470591
0.330276 0.808829 0.506103
0.331335 0.809888 0.541387
0.332388 0.810942 0.576477
0.333436 0.811990 0.611397
0.334479 0.813033 0.646165
0.335519 0.814073 0.680798
0.336555 0.815108 0.715308
0.337587 0.816141 0.749706
0.338616 0.817170 0.783999
0.339643 0.818197 0.818197
0.340667 0.819220 0.852304
0.341688 0.820241 0.886328
0.334976 0.846613 0.334976
0.336094 0.847732 0.372237
0.337192 0.848830 0.408819
0.338276 0.849914 0.444946
0.339350 0.850988 0.480731
0.340416 0.852054 0.516243
0.341475 0.853113 0.551528
0.342529 0.854166 0.586618
0.343577 0.855214 0.621537
0.344620 0.856258 0.656306
0.345660 0.857297 0.690939
0.346695 0.858333 0.725449
0.347728 0.859366 0.759846
0.348757 0.860395 0.794140
0.349784 0.861421 0.828337
0.350807 0.862445 0.862445
0.351828 0.863466 0.896469
0.345091 0.889732 0.345091
0.346210 0.890850 0.382353
0.347308 0.891948 0.418935
0.348392 0.893033 0.455062
0.349466 0.894107 0.490847
0.350532 0.895172 0.526359
0.351591 0.896231 0.561644
0.352644 0.897285 0.596733
0.353692 0.898333 0.631653
0.354736 0.899376 0.666422
0.355775 0.900416 0.701055
0.356811 0.901452 0.735565
0.357844 0.902484 0.769962
0.358873 0.903513 0.804256
0.359899 0.904540 0.838453
0.360923 0.905563 0.872561
0.361944 0.906585 0.906585
0.217588 0.181445 0.181445
0.218706 0.182563 0.218706
0.219804 0.183661 0.255288
0.220889 0.184745 0.291415
0.221963 0.185819 0.327200
0.223029 0.186885 0.362712
0.224088 0.187944 0.397997
0.225141 0.188997 0.433086
0.226189 0.190045 0.468006
0.227232 0.191089 0.502775
0.228272 0.192129 0.537408
0.229308 0.193164 0.571918
0.230340 0.194197 0.606315
0.231369 0.195226 0.640609
0.232396 0.196252 0.674806
0.233420 0.197276 0.708914
0.234441 0.198297 0.742938
0.228666 0.228666 0.192523
0.229785 0.229785 0.229785
0.230883 0.230883 0.266366
0.231967 0.231967 0.302493
0.233041 0.233041 0.338279
0.234107 0.234107 0.373791
0.235166 0.235166 0.409075
0.236219 0.236219 0.444165
0.237267 0.237267 0.479085
0.238311 0.238311 0.513853
0.239350 0.239350 0.548486
0.240386 0.240386 0.582996
0.241419 0.241419 0.617394
0.242448 0.242448 0.651687
0.243474 0.243474 0.685885
0.244498 0.244498 0.719992
0.245519 0.245519 0.754016
0.239543 0.275026 0.203399
0.240661 0.276145 0.240661
0.241759 0.277243 0.277243
0.242843 0.278327 0.313370
0.243917 0.279401 0.349155
0.244983 0.280467 0.384667
0.246042 0.281526 0.419951
0.247096 0.282579 0.455041
0.248144 0.283627 0.489961
0.249187 0.284671 0.524730
0.250227 0.285710 0.559363
0.251262 0.286746 0.593873
0.252295 0.287779 0.628270
0.253324 0.288808 0.662563
0.254351 0.289834 0.696761
0.255374 0.290858 0.730869
0.256395 0.291879 0.764892
0.250284 0.320810 0.214140
0.251402 0.321928 0.251402
0.252500 0.323026 0.287984
0.253584 0.324111 0.324111
0.254658 0.325185 0.359896
0.255724 0.326251 0.395408
0.256783 0.327310 0.430692
0.257837 0.328363 0.465782
0.258885 0.329411 0.500702
0.259928 0.330454 0.535471
0.260968 0.331494 0.570104
0.262003 0.332530 0.604614
0.263036 0.333562 0.639011
0.264065 0.334591 0.673305
0.265092 0.335618 0.707502
0.266115 0.336642 0.741610
0.267136 0.337663 0.775633
0.260923 0.366161 0.224780
0.262042 0.367279 0.262042
0.263140 0.368377 0.298623
0.264224 0.369461 0.334750
0.265298 0.370535 0.370535
0.266364 0.371601 0.406047
0.267423 0.372660 0.441332
0.268476 0.373714 0.476422
0.269524 0.374762 0.511341
0.270568 0.375805 0.546110
0.271607 0.376845 0.580743
0.272643 0.377880 0.615253
0.273675 0.378913 0.649650
0.274705 0.379942 0.683944
0.275731 0.380969 0.718141
0.276755 0.381992 0.752249
0.277776 0.383013 0.786273
0.271481 0.411165 0.235338
0.272600 0.412283 0.272600
0.273698 0.413381 0.309182
0.274782 0.414466 0.345308
0.275856 0.415540 0.381094
0.276922 0.416606 0.416606
0.277981 0.417665 0.451890
0.279034 0.418718 0.486980
0.280082 0.419766 0.521900
0.281126 0.420810 0.556668
0.282165 0.421849 0.591301
0.283201 0.422885 0.625811
0.284234 0.423917 0.660209
0.285263 0.424947 0.694502
0.286289 0.425973 0.728700
0.287313 0.426997 0.762807
0.288334 0.428018 0.796831
0.281972 0.455881 0.245829
0.283090 0.457000 0.283090
0.284188 0.458098 0.319672
0.285273 0.459182 0.355799
0.286347 0.460256 0.391584
0.287413 0.461322 0.427096
0.288472 0.462381 0.462381
0.289525 0.463434 0.497471
0.290573 0.464482 0.532390
0.291617 0.465526 0.567159
0.292656 0.466565 0.601792
0.293692 0.467601 0.636302
0.294724 0.468633 0.670699
0.295753 0.469663 0.704993
0.296780 0.470689 0.739190
0.297804 0.471713 0.773298
0.298825 0.472734 0.807322
0.292405 0.500350 0.256261
0.293523 0.501469 0.293523
0.294621 0.502567 0.330105
0.295705 0.503651 0.366232
0.296780 0.504725 0.402017
0.297845 0.505791 0.437529
0.298904 0.506850 0.472814
0.299958 0.507903 0.507903
0.301006 0.508951 0.542823
0.302049 0.509995 0.577592
0.303089 0.511034 0.612225
0.304124 0.512070 0.646735
0.305157 0.513103 0.681132
0.306186 0.514132 0.715426
0.307213 0.515158 0.749623
0.308236 0.516182 0.783731
0.309258 0.517203 0.817755
0.302787 0.544604 0.266644
0.303905 0.545723 0.303905
0.305003 0.546820 0.340487
0.306088 0.547905 0.376614
0.307162 0.548979 0.412399
0.308227 0.550045 0.447911
0.309287 0.551104 0.483196
0.310340 0.552157 0.518285
0.311388 0.553205 0.553205
0.312431 0.554249 0.587974
0.313471 0.555288 0.622607
0.314507 0.556324 0.657117
0.315539 0.557356 0.691514
0.316568 0.558386 0.725808
0.317595 0.559412 0.760005
0.318618 0.560436 0.794113
0.319640 0.561457 0.828137
0.313124 0.588667 0.276981
0.314243 0.589785 0.314243
0.315340 0.590883 0.350824
0.316425 0.591967 0.386951
0.317499 0.593041 0.422736
0.318565 0.594107 0.458248
0.319624 0.595166 0.493533
0.320677 0.596219 0.528623
0.321725 0.597267 0.563542
0.322769 0.598311 0.598311
0.323808 0.599350 0.632944
0.324844 0.600386 0.667454
0.325876 0.601419 0.701851
0.326906 0.602448 0.736145
0.327932 0.603474 0.770342
0.328956 0.604498 0.804450
0.329977 0.605519 0.838474
0.323421 0.632557 0.287278
0.324539 0.633675 0.324539
0.325637 0.634773 0.361121
0.326722 0.635858 0.397248
0.327796 0.636932 0.433033
0.328862 0.637998 0.468545
0.329921 0.639057 0.503830
0.330974 0.640110 0.538920
0.332022 0.641158 0.573839
0.333065 0.642201 0.608608
0.334105 0.643241 0.643241
0.335141 0.644277 0.677751
0.336173 0.645309 0.712148
0.337202 0.646338 0.746442
0.338229 0.647365 0.780639
0.339253 0.648389 0.814747
0.340274 0.649410 0.848771
0.333681 0.676291 0.297538
0.334800 0.677410 0.334800
0.335898 0.678508 0.371381
0.336982 0.679592 0.407508
0.338056 0.680666 0.443294
0.339122 0.681732 0.478806
0.340181 0.682791 0.514090
0.341234 0.683844 0.549180
0.342282 0.684892 0.584100
0.343326 0.685936 0.618868
0.344365 0.686975 0.653501
0.345401 0.688011 0.688011
0.346433 0.689044 0.722409
0.347463 0.690073 0.756702
0.348489 0.691099 0.790900
0.349513 0.692123 0.825007
0.350534 0.693144 0.859031
0.343908 0.719883 0.307765
0.345027 0.721002 0.345027
0.346125 0.722100 0.381608
0.347209 0.723184 0.417735
0.348283 0.724258 0.453520
0.349349 0.725324 0.489032
0.350408 0.726383 0.524317
0.351461 0.727436 0.559407
0.352509 0.728484 0.594326
0.353553 0.729528 0.629095
0.354592 0.730567 0.663728
0.355628 0.731603 0.698238
0.356660 0.732635 0.732635
0.357690 0.733665 0.766929
0.358716 0.734691 0.801126
0.359740 0.735715 0.835234
0.360761 0.736736 0.869258
0.354104 0.763344 0.317961
0.355223 0.764462 0.355223
0.356321 0.765560 0.391804
0.357405 0.766644 0.427931
0.358479 0.767718 0.463716
0.359545 0.768784 0.499228
0.360604 0.769843 0.534513
0.361657 0.770896 0.569603
0.362705 0.771944 0.604522
0.363749 0.772988 0.639291
0.364788 0.774027 0.673924
0.365824 0.775063 0.708434
0.366856 0.776096 0.742831
0.367886 0.777125 0.777125
0.368912 0.778151 0.811322
0.369936 0.779175 0.845430
0.370957 0.780196 0.879454
0.364272 0.806682 0.328128
0.365390 0.807800 0.365390
0.366488 0.808898 0.401972
0.367572 0.809983 0.438098
0.368646 0.811057 0.473884
0.369712 0.812122 0.509396
0.370771 0.813182 0.544680
0.371824 0.814235 0.579770
0.372872 0.815283 0.614690
0.373916 0.816326 0.649458
0.374955 0.817366 0.684091
0.375991 0.818402 0.718601
0.377024 0.819434 0.752999
0.378053 0.820463 0.787292
0.379079 0.821490 0.821490
0.380103 0.822513 0.855597
0.381124 0.823535 0.889621
0.374412 0.849907 0.338269
0.375531 0.851025 0.375531
0.376629 0.852123 0.412112
0.377713 0.853207 0.448239
0.378787 0.854281 0.484024
0.379853 0.855347 0.519536
0.380912 0.856406 0.554821
0.381965 0.857459 0.589911
0.383013 0.858508 0.624830
0.384057 0.859551 0.659599
0.385096 0.860591 0.694232
0.386132 0.861626 0.728742
0.387164 0.862659 0.763139
0.388194 0.863688 0.797433
0.389220 0.864714 0.831630
0.390244 0.865738 0.865738
0.391265 0.866759 0.899762
0.384528 0.893025 0.348385
0.385646 0.894143 0.385646
0.386744 0.895241 0.422228
0.387829 0.896326 0.458355
0.388903 0.897400 0.494140
0.389969 0.898466 0.529652
0.391028 0.899525 0.564937
0.392081 0.900578 0.600027
0.393129 0.901626 0.634946
0.394172 0.902669 0.669715
0.395212 0.903709 0.704348
0.396248 0.904745 0.738858
0.397280 0.905777 0.773255
0.398309 0.906806 0.807549
0.399336 0.907833 0.841746
0.400360 0.908857 0.875854
0.401381 0.909878 0.909878
0.256305 0.184678 0.184678
0.257423 0.185796 0.221939
0.258521 0.186894 0.258521
0.259605 0.187978 0.294648
0.260679 0.189052 0.330433
0.261745 0.190118 0.365945
0.262804 0.191177 0.401230
0.263858 0.192230 0.436320
0.264906 0.193279 0.471239
0.265949 0.194322 0.506008
0.266989 0.195362 0.540641
0.268024 0.196397 0.575151
0.269057 0.197430 0.609548
0.270086 0.198459 0.643842
0.271113 0.199485 0.678039
0.272136 0.200509 0.712147
0.273157 0.201530 0.746171
0.267383 0.231900 0.195756
0.268502 0.233018 0.233018
0.269600 0.234116 0.269600
0.270684 0.235200 0.305726
0.271758 0.236274 0.341512
0.272824 0.237340 0.377024
0.273883 0.238399 0.412308
0.274936 0.239452 0.447398
0.275984 0.240500 0.482318
0.277028 0.241544 0.517086
0.278067 0.242583 0.551719
0.279103 0.243619 0.586229
0.280135 0.244652 0.620627
0.281165 0.245681 0.654920
0.282191 0.246707 0.689118
0.283215 0.247731 0.723225
0.284236 0.248752 0.757249
0.278259 0.278259 0.206632
0.279378 0.279378 0.243894
0.280476 0.280476 0.280476
0.281560 0.281560 0.316603
0.282634 0.282634 0.352388
0.283700 0.283700 0.387900
0.284759 0.284759 0.423185
0.285812 0.285812 0.458274
0.286860 0.286860 0.493194
0.287904 0.287904 0.527963
0.288943 0.288943 0.562596
0.289979 0.289979 0.597106
0.291012 0.291012 0.631503
0.292041 0.292041 0.665797
0.293067 0.293067 0.699994
0.294091 0.294091 0.734102
0.295112 0.295112 0.768126
0.289001 0.324043 0.217373
0.290119 0.325161 0.254635
0.291217 0.326259 0.291217
0.292301 0.327344 0.327344
0.293375 0.328418 0.363129
0.294441 0.329484 0.398641
0.295500 0.330543 0.433926
0.296553 0.331596 0.469015
0.297601 0.332644 0.503935
0.298645 0.333688 0.538704
0.299684 0.334727 0.573337
0.300720 0.335763 0.607847
0.301753 0.336795 0.642244
0.302782 0.337825 0.676538
0.303808 0.338851 0.710735
0.304832 0.339875 0.744843
0.305853 0.340896 0.778867
0.299640 0.369394 0.228013
0.300758 0.370512 0.265275
0.301856 0.371610 0.301856
0.302941 0.372694 0.337983
0.304015 0.373769 0.373769
0.305081 0.374834 0.409281
0.306140 0.375893 0.444565
0.307193 0.376947 0.479655
0.308241 0.377995 0.514574
0.309284 0.379038 0.549343
0.310324 0.380078 0.583976
0.311360 0.381114 0.618486
0.312392 0.382146 0.652884
0.313421 0.383175 0.687177
0.314448 0.384202 0.721374
0.315472 0.385225 0.755482
0.316493 0.386247 0.789506
0.310198 0.414398 0.238571
0.311317 0.415517 0.275833
0.312415 0.416615 0.312415
0.313499 0.417699 0.348541
0.314573 0.418773 0.384327
0.315639 0.419839 0.419839
0.316698 0.420898 0.455123
0.317751 0.421951 0.490213
0.318799 0.422999 0.525133
0.319843 0.424043 0.559901
0.320882 0.425082 0.594534
0.321918 0.426118 0.629044
0.322950 0.427150 0.663442
0.323980 0.428180 0.697735
0.325006 0.429206 0.731933
0.326030 0.430230 0.766040
0.327051 0.431251 0.800064
0.320689 0.459114 0.249062
0.321807 0.460233 0.286324
0.322905 0.461331 0.322905
0.323990 0.462415 0.359032
0.325064 0.463489 0.394817
0.326129 0.464555 0.430329
0.327188 0.465614 0.465614
0.328242 0.466667 0.500704
0.329290 0.467715 0.535623
0.330333 0.468759 0.570392
0.331373 0.469798 0.605025
0.332409 0.470834 0.639535
0.333441 0.471866 0.673932
0.334470 0.472896 0.708226
0.335497 0.473922 0.742423
0.336520 0.474946 0.776531
0.337542 0.475967 0.810555
0.331122 0.503584 0.259494
0.332240 0.504702 0.296756
0.333338 0.505800 0.333338
0.334422 0.506884 0.369465
0.335496 0.507958 0.405250
0.336562 0.509024 0.440762
0.337621 0.510083 0.476047
0.338674 0.511136 0.511136
0.339722 0.512184 0.546056
0.340766 0.513228 0.580825
0.341805 0.514267 0.615458
0.342841 0.515303 0.649968
0.343874 0.516336 0.684365
0.344903 0.517365 0.718659
0.345929 0.518391 0.752856
0.346953 0.519415 0.786964
0.347974 0.520436 0.820988
0.341504 0.547837 0.269877
0.342622 0.548956 0.307138
0.343720 0.550054 0.343720
0.344804 0.551138 0.379847
0.345878 0.552212 0.415632
0.346944 0.553278 0.451144
0.348003 0.554337 0.486429
0.349056 0.555390 0.521518
0.350105 0.556438 0.556438
0.351148 0.557482 0.591207
0.352188 0.558521 0.625840
0.353223 0.559557 0.660350
0.354256 0.560589 0.694747
0.355285 0.561619 0.729041
0.356311 0.562645 0.763238
0.357335 0.563669 0.797346
0.358356 0.564690 0.831370
0.351841 0.591900 0.280214
0.352959 0.593018 0.317476
0.354057 0.594116 0.354057
0.355142 0.595200 0.390184
0.356216 0.596274 0.425969
0.357281 0.597340 0.461481
0.358341 0.598399 0.496766
0.359394 0.599452 0.531856
0.360442 0.600500 0.566775
0.361485 0.601544 0.601544
0.362525 0.602584 0.636177
0.363561 0.603619 0.670687
0.364593 0.604652 0.705084
0.365622 0.605681 0.739378
0.366649 0.606707 0.773575
0.367672 0.607731 0.807683
0.368694 0.608752 0.841707
0.362138 0.635790 0.290511
0.363256 0.636908 0.327772
0.364354 0.638006 0.364354
0.365438 0.639091 0.400481
0.366513 0.640165 0.436266
0.367578 0.641231 0.471778
0.368637 0.642290 0.507063
0.369691 0.643343 0.542153
0.370739 0.644391 0.577072
0.371782 0.645435 0.611841
0.372822 0.646474 0.646474
0.373858 0.647510 0.680984
0.374890 0.648542 0.715381
0.375919 0.649571 0.749675
0.376946 0.650598 0.783872
0.377969 0.651622 0.817980
0.378991 0.652643 0.852004
0.372398 0.679525 0.300771
0.373517 0.680643 0.338033
0.374614 0.681741 0.374614
0.375699 0.682825 0.410741
0.376773 0.683899 0.446527
0.377839 0.684965 0.482039
0.378898 0.686024 0.517323
0.379951 0.687077 0.552413
0.380999 0.688125 0.587333
0.382043 0.689169 0.622101
0.383082 0.690208 0.656734
0.384118 0.691244 0.691244
0.385150 0.692277 0.725642
0.386180 0.693306 0.759935
0.387206 0.694332 0.794133
0.388230 0.695356 0.828240
0.389251 0.696377 0.862264
0.382625 0.723116 0.310998
0.383743 0.724235 0.348260
0.384841 0.725333 0.384841
0.385926 0.726417 0.420968
0.387000 0.727491 0.456753
0.388066 0.728557 0.492265
0.389125 0.729616 0.527550
0.390178 0.730669 0.562640
0.391226 0.731717 0.597559
0.392269 0.732761 0.632328
0.393309 0.733800 0.666961
0.394345 0.734836 0.701471
0.395377 0.735868 0.735868
0.396406 0.736898 0.770162
0.397433 0.737924 0.804359
0.398456 0.738948 0.838467
0.399478 0.739969 0.872491
0.392821 0.766577 0.321194
0.393939 0.767695 0.358456
0.395037 0.768793 0.395037
0.396122 0.769877 0.431164
0.397196 0.770951 0.466949
0.398262 0.772017 0.502461
0.399321 0.773076 0.537746
0.400374 0.774129 0.572836
0.401422 0.775178 0.607755
0.402465 0.776221 0.642524
0.403505 0.777261 0.677157
0.404541 0.778296 0.711667
0.405573 0.779329 0.746064
0.406602 0.780358 0.780358
0.407629 0.781384 0.814555
0.408652 0.782408 0.848663
0.409674 0.783429 0.882687
0.402988 0.809915 0.331361
0.404107 0.811033 0.368623
0.405205 0.812131 0.405205
0.406289 0.813216 0.441332
0.407363 0.814290 0.477117
0.408429 0.815356 0.512629
0.409488 0.816415 0.547913
0.410541 0.817468 0.583003
0.411589 0.818516 0.617923
0.412633 0.819559 0.652691
0.413672 0.820599 0.687324
0.414708 0.821635 0.721834
0.415740 0.822667 0.756232
0.416770 0.823696 0.790525
0.417796 0.824723 0.824723
0.418820 0.825746 0.858831
0.419841 0.826768 0.892854
0.413129 0.853140 0.341502
0.414247 0.854258 0.378764
0.415345 0.855356 0.415345
0.416430 0.856440 0.451472
0.417504 0.857514 0.487258
0.418570 0.858580 0.522770
0.419629 0.859639 0.558054
0.420682 0.860693 0.593144
0.421730 0.861741 0.628063
0.422773 0.862784 0.662832
0.423813 0.863824 0.697465
0.424849 0.864859 0.731975
0.425881 0.865892 0.766373
0.426910 0.866921 0.800666
0.427937 0.867948 0.834863
0.428961 0.868971 0.868971
0.429982 0.869992 0.902995
0.423245 0.896258 0.351618
0.424363 0.897376 0.388879
0.425461 0.898474 0.425461
0.426545 0.899559 0.461588
0.427620 0.900633 0.497373
0.428685 0.901699 0.532885
0.429744 0.902758 0.568170
0.430798 0.903811 0.603260
0.431846 0.904859 0.638179
0.432889 0.905903 0.672948
0.433929 0.906942 0.707581
0.434965 0.907978 0.742091
0.435997 0.909010 0.776488
0.437026 0.910040 0.810782
0.438053 0.911066 0.844979
0.439076 0.912090 0.879087
0.440098 0.913111 0.913111
0.294540 0.187871 0.187871
0.295659 0.188989 0.225132
0.296757 0.190087 0.261714
0.297841 0.191171 0.297841
0.298915 0.192245 0.333626
0.299981 0.193311 0.369138
0.301040 0.194370 0.404423
0.302093 0.195423 0.439512
0.303141 0.196471 0.474432
0.304185 0.197515 0.509201
0.305224 0.198554 0.543834
0.306260 0.199590 0.578344
0.307292 0.200623 0.612741
0.308322 0.201652 0.647035
0.309348 0.202678 0.681232
0.310372 0.203702 0.715340
0.311393 0.204723 0.749364
0.305619 0.235092 0.198949
