skills/editops-orchestrator/assets/grade/luts/vintage_fade_v03.cube
TITLE "vintage_fade_v03"
LUT_3D_SIZE 9
DOMAIN_MIN 0.0 0.0 0.0
DOMAIN_MAX 1.0 1.0 1.0
0.037364 0.037364 0.037364
0.038268 0.038268 0.147118
0.039159 0.039159 0.255346
0.040045 0.040045 0.362882
0.040927 0.040927 0.469960
0.041806 0.041806 0.576694
0.042683 0.042683 0.683153
0.043558 0.043558 0.789382
0.044431 0.044431 0.895416
0.046318 0.155169 0.046318
0.047222 0.156073 0.156073
0.048114 0.156964 0.264301
0.048999 0.157850 0.371837
0.049881 0.158732 0.478914
0.050760 0.159611 0.585648
0.051637 0.160488 0.692107
0.052512 0.161362 0.798337
0.053385 0.162236 0.904370
0.055148 0.271335 0.055148
0.056052 0.272239 0.164903
0.056944 0.273131 0.273131
0.057829 0.274016 0.380667
0.058711 0.274898 0.487744
0.059590 0.275777 0.594478
0.060467 0.276654 0.700937
0.061342 0.277529 0.807167
0.062215 0.278402 0.913200
0.063922 0.386759 0.063922
0.064826 0.387663 0.173676
0.065717 0.388555 0.281904
0.066603 0.389440 0.389440
0.067485 0.390322 0.496518
0.068364 0.391201 0.603252
0.069241 0.392078 0.709711
0.070116 0.392953 0.815941
0.070989 0.393826 0.921974
0.072658 0.501691 0.072658
0.073562 0.502595 0.182412
0.074453 0.503486 0.290640
0.075339 0.504372 0.398176
0.076221 0.505254 0.505254
0.077100 0.506133 0.611988
0.077977 0.507010 0.718447
0.078852 0.507885 0.824677
0.079725 0.508758 0.930710
0.081366 0.616254 0.081366
0.082270 0.617158 0.191120
0.083161 0.618049 0.299349
0.084047 0.618935 0.406885
0.084929 0.619817 0.513962
0.085808 0.620696 0.620696
0.086685 0.621573 0.727155
0.087560 0.622448 0.833385
0.088433 0.623321 0.939418
0.090052 0.730522 0.090052
0.090956 0.731426 0.199806
0.091847 0.732317 0.308034
0.092733 0.733203 0.415570
0.093615 0.734085 0.522648
0.094494 0.734964 0.629382
0.095371 0.735841 0.735841
0.096246 0.736716 0.842071
0.097119 0.737589 0.948104
0.098719 0.844544 0.098719
0.099623 0.845448 0.208473
0.100514 0.846339 0.316701
0.101400 0.847225 0.424237
0.102282 0.848107 0.531315
0.103161 0.848986 0.638049
0.104038 0.849863 0.744508
0.104913 0.850738 0.850738
0.105786 0.851611 0.956771
0.107370 0.958355 0.107370
0.108274 0.959259 0.217124
0.109165 0.960150 0.325352
0.110051 0.961036 0.432888
0.110933 0.961918 0.539966
0.111812 0.962797 0.646700
0.112689 0.963674 0.753159
0.113564 0.964549 0.859389
0.114437 0.965422 0.965422
0.148876 0.040026 0.040026
0.149780 0.040929 0.149780
0.150671 0.041821 0.258008
0.151557 0.042707 0.365544
0.152439 0.043589 0.472622
0.153318 0.044468 0.579355
0.154195 0.045344 0.685814
0.155070 0.046219 0.792044
0.155943 0.047093 0.898078
0.157830 0.157830 0.048980
0.158734 0.158734 0.158734
0.159626 0.159626 0.266962
0.160511 0.160511 0.374499
0.161393 0.161393 0.481576
0.162273 0.162273 0.588310
0.163149 0.163149 0.694769
0.164024 0.164024 0.800999
0.164898 0.164898 0.907032
0.166660 0.273997 0.057810
0.167564 0.274901 0.167564
0.168456 0.275792 0.275792
0.169342 0.276678 0.383329
0.170223 0.277560 0.490406
0.171103 0.278439 0.597140
0.171979 0.279316 0.703599
0.172854 0.280191 0.809829
0.173728 0.281064 0.915862
0.175434 0.389421 0.066584
0.176338 0.390325 0.176338
0.177229 0.391216 0.284566
0.178115 0.392102 0.392102
0.178997 0.392984 0.499180
0.179876 0.393863 0.605914
0.180753 0.394740 0.712373
0.181628 0.395615 0.818602
0.182501 0.396488 0.924636
0.184170 0.504353 0.075320
0.185074 0.505257 0.185074
0.185966 0.506148 0.293302
0.186851 0.507034 0.400838
0.187733 0.507916 0.507916
0.188612 0.508795 0.614650
0.189489 0.509672 0.721109
0.190364 0.510547 0.827339
0.191237 0.511420 0.933372
0.192878 0.618916 0.084028
0.193782 0.619820 0.193782
0.194674 0.620711 0.302010
0.195559 0.621597 0.409546
0.196441 0.622479 0.516624
0.197320 0.623358 0.623358
0.198197 0.624235 0.729817
0.199072 0.625110 0.836047
0.199945 0.625983 0.942080
0.201564 0.733184 0.092714
0.202468 0.734088 0.202468
0.203359 0.734979 0.310696
0.204245 0.735865 0.418232
0.205127 0.736747 0.525310
0.206006 0.737626 0.632044
0.206883 0.738503 0.738503
0.207758 0.739377 0.844732
0.208631 0.740251 0.950766
0.210231 0.847206 0.101381
0.211135 0.848109 0.211135
0.212026 0.849001 0.319363
0.212912 0.849887 0.426899
0.213794 0.850769 0.533977
0.214673 0.851648 0.640711
0.215550 0.852524 0.747170
0.216425 0.853399 0.853399
0.217298 0.854273 0.959433
0.218882 0.961017 0.110032
0.219786 0.961921 0.219786
0.220677 0.962812 0.328014
0.221563 0.963698 0.435550
0.222445 0.964580 0.542628
0.223324 0.965459 0.649362
0.224201 0.966336 0.755821
0.225076 0.967210 0.862050
0.225949 0.968084 0.968084
0.258837 0.042650 0.042650
0.259741 0.043554 0.152405
0.260633 0.044446 0.260633
0.261518 0.045331 0.368169
0.262400 0.046213 0.475246
0.263279 0.047092 0.581980
0.264156 0.047969 0.688439
0.265031 0.048844 0.794669
0.265905 0.049717 0.900703
0.267792 0.160455 0.051605
0.268696 0.161359 0.161359
0.269587 0.162251 0.269587
0.270473 0.163136 0.377123
0.271355 0.164018 0.484201
0.272234 0.164897 0.590935
0.273111 0.165774 0.697394
0.273986 0.166649 0.803624
0.274859 0.167522 0.909657
0.276622 0.276622 0.060435
0.277526 0.277526 0.170189
0.278417 0.278417 0.278417
0.279303 0.279303 0.385953
0.280185 0.280185 0.493031
0.281064 0.281064 0.599765
0.281941 0.281941 0.706224
0.282816 0.282816 0.812454
0.283689 0.283689 0.918487
0.285396 0.392046 0.069208
0.286299 0.392950 0.178963
0.287191 0.393841 0.287191
0.288077 0.394727 0.394727
0.288958 0.395609 0.501804
0.289838 0.396488 0.608538
0.290714 0.397365 0.714997
0.291589 0.398240 0.821227
0.292463 0.399113 0.927261
0.294132 0.506978 0.077945
0.295036 0.507882 0.187699
0.295927 0.508773 0.295927
0.296813 0.509659 0.403463
0.297695 0.510541 0.510541
0.298574 0.511420 0.617275
0.299451 0.512297 0.723734
0.300326 0.513172 0.829963
0.301199 0.514045 0.935997
0.302840 0.621541 0.086653
0.303744 0.622445 0.196407
0.304635 0.623336 0.304635
0.305521 0.624222 0.412171
0.306403 0.625104 0.519249
0.307282 0.625983 0.625983
0.308159 0.626860 0.732442
0.309034 0.627734 0.838671
0.309907 0.628608 0.944705
0.311525 0.735808 0.095338
0.312429 0.736712 0.205093
0.313321 0.737604 0.313321
0.314207 0.738490 0.420857
0.315088 0.739371 0.527934
0.315968 0.740251 0.634668
0.316844 0.741127 0.741127
0.317719 0.742002 0.847357
0.318593 0.742876 0.953391
0.320192 0.849830 0.104005
0.321096 0.850734 0.213760
0.321988 0.851626 0.321988
0.322874 0.852511 0.429524
0.323755 0.853393 0.536601
0.324635 0.854272 0.643335
0.325511 0.855149 0.749794
0.326386 0.856024 0.856024
0.327260 0.856898 0.962058
0.328843 0.963641 0.112656
0.329747 0.964545 0.222411
0.330639 0.965437 0.330639
0.331525 0.966323 0.438175
0.332406 0.967204 0.545252
0.333286 0.968084 0.651986
0.334162 0.968960 0.758445
0.335037 0.969835 0.864675
0.335911 0.970709 0.970709
0.368096 0.045258 0.045258
0.369000 0.046162 0.155013
0.369891 0.047054 0.263241
0.370777 0.047939 0.370777
0.371659 0.048821 0.477854
0.372538 0.049700 0.584588
0.373415 0.050577 0.691047
0.374290 0.051452 0.797277
0.375163 0.052326 0.903311
0.377050 0.163063 0.054213
0.377954 0.163967 0.163967
0.378846 0.164859 0.272195
0.379731 0.165744 0.379731
0.380613 0.166626 0.486809
0.381492 0.167505 0.593543
0.382369 0.168382 0.700002
0.383244 0.169257 0.806232
0.384117 0.170130 0.912265
0.385880 0.279230 0.063043
0.386784 0.280134 0.172797
0.387676 0.281025 0.281025
0.388561 0.281911 0.388561
0.389443 0.282793 0.495639
0.390322 0.283672 0.602373
0.391199 0.284549 0.708832
0.392074 0.285424 0.815062
0.392947 0.286297 0.921095
0.394654 0.394654 0.071816
0.395558 0.395558 0.181571
0.396449 0.396449 0.289799
0.397335 0.397335 0.397335
0.398217 0.398217 0.504413
0.399096 0.399096 0.611146
0.399973 0.399973 0.717605
0.400848 0.400848 0.823835
0.401721 0.401721 0.929869
0.403390 0.509586 0.080553
0.404294 0.510490 0.190307
0.405185 0.511381 0.298535
0.406071 0.512267 0.406071
0.406953 0.513149 0.513149
0.407832 0.514028 0.619883
0.408709 0.514905 0.726342
0.409584 0.515780 0.832571
0.410457 0.516653 0.938605
0.412098 0.624149 0.089261
0.413002 0.625053 0.199015
0.413894 0.625944 0.307243
0.414779 0.626830 0.414779
0.415661 0.627712 0.521857
0.416540 0.628591 0.628591
0.417417 0.629468 0.735050
0.418292 0.630342 0.841280
0.419165 0.631216 0.947313
0.420784 0.738416 0.097946
0.421688 0.739320 0.207701
0.422579 0.740212 0.315929
0.423465 0.741098 0.423465
0.424347 0.741979 0.530542
0.425226 0.742859 0.637276
0.426103 0.743735 0.743735
0.426978 0.744610 0.849965
0.427851 0.745484 0.955999
0.429451 0.852438 0.106613
0.430355 0.853342 0.216368
0.431246 0.854234 0.324596
0.432132 0.855119 0.432132
0.433014 0.856001 0.539209
0.433893 0.856880 0.645943
0.434770 0.857757 0.752402
0.435645 0.858632 0.858632
0.436518 0.859506 0.964666
0.438102 0.966249 0.115264
0.439006 0.967153 0.225019
0.439897 0.968045 0.333247
0.440783 0.968931 0.440783
0.441665 0.969812 0.547860
0.442544 0.970692 0.654594
0.443421 0.971568 0.761053
0.444296 0.972443 0.867283
0.445169 0.973317 0.973317
0.476888 0.047855 0.047855
0.477792 0.048759 0.157610
0.478684 0.049651 0.265838
0.479569 0.050536 0.373374
0.480451 0.051418 0.480451
0.481330 0.052297 0.587185
0.482207 0.053174 0.693644
0.483082 0.054049 0.799874
0.483955 0.054922 0.905907
0.485843 0.165660 0.056810
0.486747 0.166564 0.166564
0.487638 0.167456 0.274792
0.488524 0.168341 0.382328
0.489406 0.169223 0.489406
0.490285 0.170102 0.596140
0.491162 0.170979 0.702599
0.492037 0.171854 0.808829
0.492910 0.172727 0.914862
0.494673 0.281827 0.065640
0.495577 0.282731 0.175394
0.496468 0.283622 0.283622
0.497354 0.284508 0.391158
0.498236 0.285390 0.498236
0.499115 0.286269 0.604970
0.499992 0.287146 0.711429
0.500867 0.288021 0.817659
0.501740 0.288894 0.923692
0.503446 0.397251 0.074413
0.504350 0.398155 0.184168
0.505242 0.399046 0.292396
0.506128 0.399932 0.399932
0.507009 0.400814 0.507009
0.507889 0.401693 0.613743
0.508765 0.402570 0.720202
0.509640 0.403445 0.826432
0.510514 0.404318 0.932466
0.512183 0.512183 0.083150
0.513087 0.513087 0.192904
0.513978 0.513978 0.301132
0.514864 0.514864 0.408668
0.515746 0.515746 0.515746
0.516625 0.516625 0.622479
0.517502 0.517502 0.728938
0.518376 0.518376 0.835168
0.519250 0.519250 0.941202
0.520891 0.626746 0.091858
0.521795 0.627650 0.201612
0.522686 0.628541 0.309840
0.523572 0.629427 0.417376
0.524454 0.630309 0.524454
0.525333 0.631188 0.631188
0.526210 0.632064 0.737647
0.527085 0.632939 0.843876
0.527958 0.633813 0.949910
0.529576 0.741013 0.100543
0.530480 0.741917 0.210298
0.531372 0.742809 0.318526
0.532257 0.743694 0.426062
0.533139 0.744576 0.533139
0.534018 0.745455 0.639873
0.534895 0.746332 0.746332
0.535770 0.747207 0.852562
0.536644 0.748081 0.958596
0.538243 0.855035 0.109210
0.539147 0.855939 0.218965
0.540039 0.856831 0.327193
0.540924 0.857716 0.434729
0.541806 0.858598 0.541806
0.542685 0.859477 0.648540
0.543562 0.860354 0.754999
0.544437 0.861229 0.861229
0.545311 0.862102 0.967263
0.546894 0.968846 0.117861
0.547798 0.969750 0.227616
0.548690 0.970642 0.335844
0.549575 0.971527 0.443380
0.550457 0.972409 0.550457
0.551336 0.973288 0.657191
0.552213 0.974165 0.763650
0.553088 0.975040 0.869880
0.553962 0.975914 0.975914
0.585332 0.050444 0.050444
0.586236 0.051348 0.160198
0.587127 0.052239 0.268426
0.588013 0.053125 0.375962
0.588895 0.054007 0.483040
0.589774 0.054886 0.589774
0.590651 0.055763 0.696233
0.591526 0.056638 0.802463
0.592399 0.057511 0.908496
0.594286 0.168249 0.059398
0.595190 0.169153 0.169153
0.596082 0.170044 0.277381
0.596967 0.170930 0.384917
0.597849 0.171812 0.491994
0.598728 0.172691 0.598728
0.599605 0.173568 0.705187
0.600480 0.174443 0.811417
0.601353 0.175316 0.917451
0.603116 0.284415 0.068228
0.604020 0.285319 0.177983
0.604912 0.286211 0.286211
0.605797 0.287097 0.393747
0.606679 0.287978 0.500824
0.607558 0.288858 0.607558
0.608435 0.289734 0.714017
0.609310 0.290609 0.820247
0.610183 0.291483 0.926281
0.611890 0.399839 0.077002
0.612794 0.400743 0.186756
0.613685 0.401635 0.294984
0.614571 0.402520 0.402520
0.615453 0.403402 0.509598
0.616332 0.404281 0.616332
0.617209 0.405158 0.722791
0.618084 0.406033 0.829021
0.618957 0.406907 0.935054
0.620626 0.514771 0.085738
0.621530 0.515675 0.195492
0.622421 0.516567 0.303721
0.623307 0.517452 0.411257
0.624189 0.518334 0.518334
0.625068 0.519213 0.625068
0.625945 0.520090 0.731527
0.626820 0.520965 0.837757
0.627693 0.521838 0.943790
0.629334 0.629334 0.094446
0.630238 0.630238 0.204201
0.631129 0.631129 0.312429
0.632015 0.632015 0.419965
0.632897 0.632897 0.527042
0.633776 0.633776 0.633776
0.634653 0.634653 0.740235
0.635528 0.635528 0.846465
0.636401 0.636401 0.952498
0.638020 0.743602 0.103132
0.638924 0.744506 0.212886
0.639815 0.745397 0.321114
0.640701 0.746283 0.428650
0.641583 0.747165 0.535728
0.642462 0.748044 0.642462
0.643339 0.748921 0.748921
0.644214 0.749796 0.855151
0.645087 0.750669 0.961184
0.646687 0.857624 0.111799
0.647591 0.858528 0.221553
0.648482 0.859419 0.329781
0.649368 0.860305 0.437317
0.650250 0.861187 0.544395
0.651129 0.862066 0.651129
0.652006 0.862943 0.757588
0.652881 0.863818 0.863818
0.653754 0.864691 0.969851
0.655338 0.971435 0.120450
0.656242 0.972339 0.230204
0.657133 0.973230 0.338432
0.658019 0.974116 0.445968
0.658901 0.974998 0.553046
0.659780 0.975877 0.659780
0.660657 0.976754 0.766239
0.661532 0.977629 0.872469
0.662405 0.978502 0.978502
0.693496 0.053026 0.053026
0.694400 0.053930 0.162780
0.695291 0.054821 0.271008
0.696177 0.055707 0.378544
0.697059 0.056589 0.485622
0.697938 0.057468 0.592356
0.698815 0.058345 0.698815
0.699690 0.059220 0.805044
0.700563 0.060093 0.911078
0.702450 0.170831 0.061980
0.703354 0.171735 0.171735
0.704246 0.172626 0.279963
0.705131 0.173512 0.387499
0.706013 0.174394 0.494576
0.706892 0.175273 0.601310
0.707769 0.176150 0.707769
0.708644 0.177024 0.813999
0.709517 0.177898 0.920032
0.711280 0.286997 0.070810
0.712184 0.287901 0.180565
0.713076 0.288793 0.288793
0.713961 0.289678 0.396329
0.714843 0.290560 0.503406
0.715722 0.291439 0.610140
0.716599 0.292316 0.716599
0.717474 0.293191 0.822829
0.718347 0.294065 0.928862
0.720054 0.402421 0.079584
0.720958 0.403325 0.189338
0.721849 0.404217 0.297566
0.722735 0.405102 0.405102
0.723617 0.405984 0.512180
0.724496 0.406863 0.618914
0.725373 0.407740 0.725373
0.726248 0.408615 0.831603
0.727121 0.409488 0.937636
0.728790 0.517353 0.088320
0.729694 0.518257 0.198074
0.730585 0.519148 0.306302
0.731471 0.520034 0.413839
0.732353 0.520916 0.520916
0.733232 0.521795 0.627650
0.734109 0.522672 0.734109
0.734984 0.523547 0.840339
0.735857 0.524420 0.946372
0.737498 0.631916 0.097028
0.738402 0.632820 0.206782
0.739294 0.633711 0.315011
0.740179 0.634597 0.422547
0.741061 0.635479 0.529624
0.741940 0.636358 0.636358
0.742817 0.637235 0.742817
0.743692 0.638110 0.849047
0.744565 0.638983 0.955080
0.746184 0.746184 0.105714
0.747088 0.747088 0.215468
0.747979 0.747979 0.323696
0.748865 0.748865 0.431232
0.749747 0.749747 0.538310
0.750626 0.750626 0.645044
0.751503 0.751503 0.751503
0.752378 0.752378 0.857733
0.753251 0.753251 0.963766
0.754851 0.860206 0.114381
0.755755 0.861110 0.224135
0.756646 0.862001 0.332363
0.757532 0.862887 0.439899
0.758414 0.863769 0.546977
0.759293 0.864648 0.653711
0.760170 0.865525 0.760170
0.761045 0.866400 0.866400
0.761918 0.867273 0.972433
0.763502 0.974017 0.123032
0.764406 0.974921 0.232786
0.765297 0.975812 0.341014
0.766183 0.976698 0.448550
0.767065 0.977580 0.555628
0.767944 0.978459 0.662362
0.768821 0.979336 0.768821
0.769696 0.980211 0.875051
0.770569 0.981084 0.981084
0.801427 0.055602 0.055602
0.802331 0.056506 0.165356
0.803222 0.057397 0.273584
0.804108 0.058283 0.381121
0.804990 0.059165 0.488198
0.805869 0.060044 0.594932
0.806746 0.060921 0.701391
0.807621 0.061796 0.807621
0.808494 0.062669 0.913654
0.810382 0.173407 0.064557
0.811285 0.174311 0.174311
0.812177 0.175202 0.282539
0.813063 0.176088 0.390075
0.813945 0.176970 0.497153
0.814824 0.177849 0.603887
0.815700 0.178726 0.710346
0.816575 0.179601 0.816575
0.817449 0.180474 0.922609
0.819212 0.289574 0.073387
0.820116 0.290478 0.183141
0.821007 0.291369 0.291369
0.821893 0.292255 0.398905
0.822775 0.293137 0.505983
0.823654 0.294016 0.612717
0.824530 0.294893 0.719176
0.825405 0.295768 0.825405
0.826279 0.296641 0.931439
0.827985 0.404998 0.082160
0.828889 0.405902 0.191915
0.829780 0.406793 0.300143
0.830666 0.407679 0.407679
0.831548 0.408561 0.514756
0.832427 0.409440 0.621490
0.833304 0.410317 0.727949
0.834179 0.411191 0.834179
0.835052 0.412065 0.940212
0.836721 0.519929 0.090896
0.837625 0.520833 0.200651
0.838517 0.521725 0.308879
0.839402 0.522610 0.416415
0.840284 0.523492 0.523492
0.841163 0.524372 0.630226
0.842040 0.525248 0.736685
0.842915 0.526123 0.842915
0.843788 0.526997 0.948949
0.845429 0.634492 0.099605
0.846333 0.635396 0.209359
0.847225 0.636288 0.317587
0.848110 0.637173 0.425123
0.848992 0.638055 0.532201
0.849871 0.638934 0.638934
0.850748 0.639811 0.745393
0.851623 0.640686 0.851623
0.852497 0.641560 0.957657
0.854115 0.748760 0.108290
0.855019 0.749664 0.218045
0.855910 0.750556 0.326273
0.856796 0.751441 0.433809
0.857678 0.752323 0.540886
0.858557 0.753202 0.647620
0.859434 0.754079 0.754079
0.860309 0.754954 0.860309
0.861182 0.755827 0.966342
0.862782 0.862782 0.116957
0.863686 0.863686 0.226712
0.864577 0.864577 0.334940
0.865463 0.865463 0.442476
0.866345 0.866345 0.549553
0.867224 0.867224 0.656287
0.868101 0.868101 0.762746
0.868976 0.868976 0.868976
0.869849 0.869849 0.975009
0.871433 0.976593 0.125608
0.872337 0.977497 0.235363
0.873228 0.978389 0.343591
0.874114 0.979274 0.451127
0.874996 0.980156 0.558204
0.875875 0.981035 0.664938
0.876752 0.981912 0.771397
0.877627 0.982787 0.877627
0.878500 0.983660 0.983660
0.909159 0.058174 0.058174
0.910063 0.059078 0.167928
0.910954 0.059969 0.276156
0.911840 0.060855 0.383692
0.912722 0.061737 0.490770
0.913601 0.062616 0.597504
0.914478 0.063493 0.703963
0.915353 0.064368 0.810192
0.916226 0.065241 0.916226
0.918113 0.175979 0.067128
0.919017 0.176883 0.176883
0.919909 0.177774 0.285111
0.920794 0.178660 0.392647
0.921676 0.179542 0.499724
0.922555 0.180421 0.606458
0.923432 0.181297 0.712917
0.924307 0.182172 0.819147
0.925180 0.183046 0.925180
0.926943 0.292145 0.075958
0.927847 0.293049 0.185713
0.928739 0.293941 0.293941
0.929624 0.294826 0.401477
0.930506 0.295708 0.508554
0.931385 0.296587 0.615288
0.932262 0.297464 0.721747
0.933137 0.298339 0.827977
0.934010 0.299212 0.934010
0.935717 0.407569 0.084732
0.936621 0.408473 0.194486
0.937512 0.409365 0.302714
0.938398 0.410250 0.410250
0.939280 0.411132 0.517328
0.940159 0.412011 0.624062
0.941036 0.412888 0.730521
0.941911 0.413763 0.836751
0.942784 0.414636 0.942784
0.944453 0.522501 0.093468
0.945357 0.523405 0.203222
0.946248 0.524296 0.311450
0.947134 0.525182 0.418986
0.948016 0.526064 0.526064
0.948895 0.526943 0.632798
0.949772 0.527820 0.739257
0.950647 0.528695 0.845487
0.951520 0.529568 0.951520
0.953161 0.637064 0.102176
0.954065 0.637968 0.211930
0.954956 0.638859 0.320159
0.955842 0.639745 0.427695
0.956724 0.640627 0.534772
0.957603 0.641506 0.641506
0.958480 0.642383 0.747965
0.959355 0.643258 0.854195
0.960228 0.644131 0.960228
0.961847 0.751332 0.110862
0.962751 0.752236 0.220616
0.963642 0.753127 0.328844
0.964528 0.754013 0.436380
0.965410 0.754895 0.543458
0.966289 0.755774 0.650192
0.967166 0.756651 0.756651
0.968041 0.757526 0.862881
0.968914 0.758399 0.968914
0.970514 0.865354 0.119529
0.971418 0.866258 0.229283
0.972309 0.867149 0.337511
0.973195 0.868035 0.445047
0.974077 0.868917 0.552125
0.974956 0.869796 0.658859
0.975833 0.870673 0.765318
0.976708 0.871548 0.871548
0.977581 0.872421 0.977581
0.979165 0.979165 0.128180
0.980069 0.980069 0.237934
0.980960 0.980960 0.346162
0.981846 0.981846 0.453698
0.982728 0.982728 0.560776
0.983607 0.983607 0.667510
0.984484 0.984484 0.773969
0.985359 0.985359 0.880199
0.986232 0.986232 0.986232
