skills/editops-orchestrator/assets/grade/luts/vintage_fade_v13.cube
TITLE "vintage_fade_v13"
LUT_3D_SIZE 5
DOMAIN_MIN 0.0 0.0 0.0
DOMAIN_MAX 1.0 1.0 1.0
0.121114 0.121114 0.121114
0.124562 0.124562 0.294915
0.127914 0.127914 0.463902
0.131221 0.131221 0.630605
0.134498 0.134498 0.795783
0.155268 0.325621 0.155268
0.158716 0.329068 0.329068
0.162068 0.332421 0.498056
0.165375 0.335728 0.664758
0.168652 0.339005 0.829937
0.188476 0.524464 0.188476
0.191923 0.527911 0.362276
0.195276 0.531264 0.531264
0.198583 0.534571 0.697966
0.201860 0.537848 0.863145
0.221234 0.720618 0.221234
0.224682 0.724065 0.395035
0.228034 0.727418 0.564023
0.231341 0.730725 0.730725
0.234618 0.734002 0.895903
0.253693 0.914979 0.253693
0.257141 0.918427 0.427494
0.260494 0.921779 0.596482
0.263801 0.925086 0.763184
0.267077 0.928363 0.928363
0.301619 0.131267 0.131267
0.305067 0.134714 0.305067
0.308420 0.138067 0.474055
0.311727 0.141374 0.640757
0.315003 0.144651 0.805936
0.335773 0.335773 0.165420
0.339221 0.339221 0.339221
0.342573 0.342573 0.508209
0.345880 0.345880 0.674911
0.349157 0.349157 0.840089
0.368981 0.534616 0.198628
0.372429 0.538064 0.372429
0.375781 0.541416 0.541416
0.379088 0.544723 0.708119
0.382365 0.548000 0.873297
0.401739 0.730770 0.231387
0.405187 0.734218 0.405187
0.408540 0.737570 0.574175
0.411847 0.740877 0.740877
0.415123 0.744154 0.906056
0.434199 0.925131 0.263846
0.437647 0.928579 0.437647
0.440999 0.931931 0.606634
0.444306 0.935238 0.773337
0.447583 0.938515 0.938515
0.477126 0.141138 0.141138
0.480574 0.144586 0.314939
0.483926 0.147938 0.483926
0.487233 0.151245 0.650629
0.490510 0.154522 0.815807
0.511280 0.345644 0.175292
0.514728 0.349092 0.349092
0.518080 0.352445 0.518080
0.521387 0.355752 0.684782
0.524664 0.359028 0.849961
0.544487 0.544487 0.208499
0.547935 0.547935 0.382300
0.551288 0.551288 0.551288
0.554595 0.554595 0.717990
0.557871 0.557871 0.883169
0.577246 0.740641 0.241258
0.580694 0.744089 0.415059
0.584046 0.747442 0.584046
0.587353 0.750749 0.750749
0.590630 0.754025 0.915927
0.609705 0.935002 0.273717
0.613153 0.938450 0.447518
0.616506 0.941803 0.616506
0.619813 0.945110 0.783208
0.623089 0.948386 0.948386
0.650259 0.150876 0.150876
0.653707 0.154324 0.324676
0.657059 0.157676 0.493664
0.660366 0.160983 0.660366
0.663643 0.164260 0.825545
0.684413 0.355382 0.185029
0.687861 0.358830 0.358830
0.691213 0.362182 0.527818
0.694520 0.365489 0.694520
0.697797 0.368766 0.859699
0.717621 0.554225 0.218237
0.721068 0.557673 0.392038
0.724421 0.561025 0.561025
0.727728 0.564332 0.727728
0.731005 0.567609 0.892906
0.750379 0.750379 0.250996
0.753827 0.753827 0.424796
0.757179 0.757179 0.593784
0.760486 0.760486 0.760486
0.763763 0.763763 0.925665
0.782838 0.944740 0.283455
0.786286 0.948188 0.457256
0.789639 0.951541 0.626243
0.792946 0.954848 0.792946
0.796222 0.958124 0.958124
0.821810 0.160525 0.160525
0.825258 0.163972 0.334325
0.828610 0.167325 0.503313
0.831917 0.170632 0.670015
0.835194 0.173909 0.835194
0.855963 0.365031 0.194678
0.859411 0.368479 0.368479
0.862764 0.371831 0.537467
0.866071 0.375138 0.704169
0.869347 0.378415 0.869347
0.889171 0.563874 0.227886
0.892619 0.567322 0.401687
0.895971 0.570674 0.570674
0.899278 0.573981 0.737377
0.902555 0.577258 0.902555
0.921930 0.760028 0.260645
0.925378 0.763476 0.434445
0.928730 0.766828 0.603433
0.932037 0.770135 0.770135
0.935314 0.773412 0.935314
0.954389 0.954389 0.293104
0.957837 0.957837 0.466905
0.961189 0.961189 0.635892
0.964496 0.964496 0.802595
0.967773 0.967773 0.967773
