skills/editops-orchestrator/assets/grade/luts/vintage_fade_v08.cube
TITLE "vintage_fade_v08"
LUT_3D_SIZE 9
DOMAIN_MIN 0.0 0.0 0.0
DOMAIN_MAX 1.0 1.0 1.0
0.079531 0.079531 0.079531
0.080879 0.080879 0.178119
0.082201 0.082201 0.274854
0.083511 0.083511 0.370664
0.084812 0.084812 0.465850
0.086107 0.086107 0.560563
0.087397 0.087397 0.654896
0.088682 0.088682 0.748912
0.089963 0.089963 0.842655
0.092882 0.190122 0.092882
0.094229 0.191470 0.191470
0.095552 0.192792 0.288204
0.096862 0.194102 0.384015
0.098163 0.195403 0.479201
0.099458 0.196698 0.573914
0.100747 0.197988 0.668247
0.102033 0.199273 0.762263
0.103314 0.200554 0.856006
0.105982 0.298634 0.105982
0.107329 0.299982 0.204569
0.108652 0.301304 0.301304
0.109962 0.302614 0.397115
0.111263 0.303915 0.492300
0.112558 0.305210 0.587014
0.113847 0.306500 0.681347
0.115132 0.307785 0.775363
0.116414 0.309067 0.869106
0.118956 0.406109 0.118956
0.120304 0.407457 0.217544
0.121626 0.408780 0.314279
0.122936 0.410089 0.410089
0.124237 0.411391 0.505275
0.125532 0.412685 0.599988
0.126822 0.413975 0.694321
0.128107 0.415260 0.788337
0.129389 0.416542 0.882080
0.131846 0.512884 0.131846
0.133194 0.514232 0.230434
0.134516 0.515554 0.327169
0.135826 0.516864 0.422979
0.137127 0.518165 0.518165
0.138422 0.519460 0.612878
0.139712 0.520749 0.707212
0.140997 0.522035 0.801227
0.142279 0.523316 0.894970
0.144672 0.619128 0.144672
0.146020 0.620476 0.243260
0.147342 0.621798 0.339995
0.148652 0.623108 0.435805
0.149954 0.624409 0.530991
0.151248 0.625704 0.625704
0.152538 0.626994 0.720038
0.153823 0.628279 0.814053
0.155105 0.629561 0.907796
0.157447 0.724947 0.157447
0.158795 0.726294 0.256035
0.160117 0.727617 0.352770
0.161427 0.728927 0.448580
0.162728 0.730228 0.543766
0.164023 0.731523 0.638479
0.165313 0.732812 0.732812
0.166598 0.734097 0.826828
0.167879 0.735379 0.920571
0.170178 0.830409 0.170178
0.171526 0.831756 0.268766
0.172849 0.833079 0.365501
0.174158 0.834389 0.461312
0.175460 0.835690 0.556497
0.176755 0.836985 0.651211
0.178044 0.838274 0.745544
0.179329 0.839560 0.839560
0.180611 0.840841 0.933303
0.182873 0.935565 0.182873
0.184221 0.936913 0.281461
0.185543 0.938235 0.378196
0.186853 0.939545 0.474006
0.188154 0.940846 0.569192
0.189449 0.942141 0.663905
0.190739 0.943430 0.758238
0.192024 0.944716 0.852254
0.193306 0.945997 0.945997
0.180740 0.083500 0.083500
0.182087 0.084847 0.182087
0.183410 0.086170 0.278822
0.184720 0.087480 0.374633
0.186021 0.088781 0.469818
0.187316 0.090076 0.564532
0.188605 0.091365 0.658865
0.189891 0.092651 0.752881
0.191172 0.093932 0.846624
0.194090 0.194090 0.096850
0.195438 0.195438 0.195438
0.196761 0.196761 0.292173
0.198070 0.198070 0.387984
0.199372 0.199372 0.483169
0.200667 0.200667 0.577882
0.201956 0.201956 0.672216
0.203241 0.203241 0.766231
0.204523 0.204523 0.859974
0.207190 0.302603 0.109950
0.208538 0.303950 0.208538
0.209861 0.305273 0.305273
0.211170 0.306583 0.401083
0.212472 0.307884 0.496269
0.213766 0.309179 0.590982
0.215056 0.310468 0.685315
0.216341 0.311754 0.779331
0.217623 0.313035 0.873074
0.220165 0.410078 0.122925
0.221513 0.411426 0.221513
0.222835 0.412748 0.318248
0.224145 0.414058 0.414058
0.225446 0.415359 0.509244
0.226741 0.416654 0.603957
0.228031 0.417944 0.698290
0.229316 0.419229 0.792306
0.230597 0.420510 0.886049
0.233055 0.516852 0.135815
0.234403 0.518200 0.234403
0.235725 0.519523 0.331138
0.237035 0.520832 0.426948
0.238336 0.522134 0.522134
0.239631 0.523429 0.616847
0.240921 0.524718 0.711180
0.242206 0.526003 0.805196
0.243487 0.527285 0.898939
0.245881 0.623097 0.148641
0.247229 0.624445 0.247229
0.248551 0.625767 0.343964
0.249861 0.627077 0.439774
0.251162 0.628378 0.534960
0.252457 0.629673 0.629673
0.253747 0.630963 0.724006
0.255032 0.632248 0.818022
0.256314 0.633529 0.911765
0.258656 0.728915 0.161415
0.260003 0.730263 0.260003
0.261326 0.731585 0.356738
0.262636 0.732895 0.452549
0.263937 0.734196 0.547734
0.265232 0.735491 0.642448
0.266521 0.736781 0.736781
0.267807 0.738066 0.830797
0.269088 0.739348 0.924540
0.271387 0.834377 0.174147
0.272735 0.835725 0.272735
0.274057 0.837047 0.369470
0.275367 0.838357 0.465280
0.276669 0.839659 0.560466
0.277963 0.840953 0.655179
0.279253 0.842243 0.749512
0.280538 0.843528 0.843528
0.281820 0.844810 0.937271
0.284082 0.939533 0.186842
0.285430 0.940881 0.285430
0.286752 0.942204 0.382165
0.288062 0.943513 0.477975
0.289363 0.944815 0.573161
0.290658 0.946109 0.667874
0.291948 0.947399 0.762207
0.293233 0.948684 0.856223
0.294514 0.949966 0.949966
0.280046 0.087394 0.087394
0.281394 0.088741 0.185982
0.282716 0.090064 0.282716
0.284026 0.091374 0.378527
0.285327 0.092675 0.473712
0.286622 0.093970 0.568426
0.287912 0.095259 0.662759
0.289197 0.096545 0.756775
0.290479 0.097826 0.850518
0.293397 0.197985 0.100744
0.294745 0.199332 0.199332
0.296067 0.200655 0.296067
0.297377 0.201965 0.391878
0.298678 0.203266 0.487063
0.299973 0.204561 0.581776
0.301263 0.205850 0.676110
0.302548 0.207135 0.770125
0.303829 0.208417 0.863868
0.306497 0.306497 0.113844
0.307845 0.307845 0.212432
0.309167 0.309167 0.309167
0.310477 0.310477 0.404977
0.311778 0.311778 0.500163
0.313073 0.313073 0.594876
0.314362 0.314362 0.689210
0.315648 0.315648 0.783225
0.316929 0.316929 0.876968
0.319471 0.413972 0.126819
0.320819 0.415320 0.225407
0.322142 0.416642 0.322142
0.323451 0.417952 0.417952
0.324753 0.419253 0.513138
0.326047 0.420548 0.607851
0.327337 0.421838 0.702184
0.328622 0.423123 0.796200
0.329904 0.424405 0.889943
0.332361 0.520746 0.139709
0.333709 0.522094 0.238297
0.335032 0.523417 0.335032
0.336341 0.524726 0.430842
0.337643 0.526028 0.526028
0.338937 0.527323 0.620741
0.340227 0.528612 0.715074
0.341512 0.529897 0.809090
0.342794 0.531179 0.902833
0.345187 0.626991 0.152535
0.346535 0.628339 0.251123
0.347858 0.629661 0.347858
0.349167 0.630971 0.443668
0.350469 0.632272 0.538854
0.351764 0.633567 0.633567
0.353053 0.634857 0.727900
0.354338 0.636142 0.821916
0.355620 0.637423 0.915659
0.357962 0.732809 0.165310
0.359310 0.734157 0.263897
0.360632 0.735479 0.360632
0.361942 0.736789 0.456443
0.363243 0.738090 0.551628
0.364538 0.739385 0.646342
0.365828 0.740675 0.740675
0.367113 0.741960 0.834691
0.368395 0.743242 0.928434
0.370694 0.838271 0.178041
0.372041 0.839619 0.276629
0.373364 0.840941 0.373364
0.374674 0.842251 0.469174
0.375975 0.843553 0.564360
0.377270 0.844847 0.659073
0.378559 0.846137 0.753406
0.379845 0.847422 0.847422
0.381126 0.848704 0.941165
0.383388 0.943427 0.190736
0.384736 0.944775 0.289324
0.386059 0.946098 0.386059
0.387368 0.947407 0.481869
0.388670 0.948709 0.577055
0.389964 0.950004 0.671768
0.391254 0.951293 0.766101
0.392539 0.952578 0.860117
0.393821 0.953860 0.953860
0.378404 0.091250 0.091250
0.379751 0.092598 0.189838
0.381074 0.093921 0.286573
0.382384 0.095230 0.382384
0.383685 0.096532 0.477569
0.384980 0.097827 0.572282
0.386269 0.099116 0.666616
0.387555 0.100401 0.760632
0.388836 0.101683 0.854375
0.391754 0.201841 0.104601
0.393102 0.203189 0.203189
0.394425 0.204512 0.299924
0.395734 0.205821 0.395734
0.397036 0.207123 0.490920
0.398330 0.208417 0.585633
0.399620 0.209707 0.679967
0.400905 0.210992 0.773982
0.402187 0.212274 0.867725
0.404854 0.310354 0.117701
0.406202 0.311701 0.216289
0.407524 0.313024 0.313024
0.408834 0.314334 0.408834
0.410135 0.315635 0.504020
0.411430 0.316930 0.598733
0.412720 0.318219 0.693066
0.414005 0.319505 0.787082
0.415287 0.320786 0.880825
0.417829 0.417829 0.130676
0.419177 0.419177 0.229264
0.420499 0.420499 0.325998
0.421809 0.421809 0.421809
0.423110 0.423110 0.516995
0.424405 0.424405 0.611708
0.425695 0.425695 0.706041
0.426980 0.426980 0.800057
0.428261 0.428261 0.893800
0.430719 0.524603 0.143566
0.432067 0.525951 0.242154
0.433389 0.527274 0.338888
0.434699 0.528583 0.434699
0.436000 0.529885 0.529885
0.437295 0.531179 0.624598
0.438585 0.532469 0.718931
0.439870 0.533754 0.812947
0.441151 0.535036 0.906690
0.443545 0.630848 0.156392
0.444893 0.632196 0.254980
0.446215 0.633518 0.351715
0.447525 0.634828 0.447525
0.448826 0.636129 0.542711
0.450121 0.637424 0.637424
0.451411 0.638713 0.731757
0.452696 0.639999 0.825773
0.453977 0.641280 0.919516
0.456320 0.736666 0.169166
0.457667 0.738014 0.267754
0.458990 0.739336 0.364489
0.460300 0.740646 0.460300
0.461601 0.741947 0.555485
0.462896 0.743242 0.650198
0.464185 0.744532 0.744532
0.465471 0.745817 0.838547
0.466752 0.747099 0.932290
0.469051 0.842128 0.181898
0.470399 0.843476 0.280486
0.471721 0.844798 0.377221
0.473031 0.846108 0.473031
0.474332 0.847409 0.568217
0.475627 0.848704 0.662930
0.476917 0.849994 0.757263
0.478202 0.851279 0.851279
0.479484 0.852561 0.945022
0.481746 0.947284 0.194593
0.483094 0.948632 0.293181
0.484416 0.949954 0.389915
0.485726 0.951264 0.485726
0.487027 0.952566 0.580912
0.488322 0.953860 0.675625
0.489612 0.955150 0.769958
0.490897 0.956435 0.863974
0.492178 0.957717 0.957717
0.476120 0.095082 0.095082
0.477468 0.096430 0.193670
0.478790 0.097752 0.290405
0.480100 0.099062 0.386215
0.481401 0.100363 0.481401
0.482696 0.101658 0.576114
0.483985 0.102948 0.670447
0.485271 0.104233 0.764463
0.486552 0.105515 0.858206
0.489471 0.205673 0.108433
0.490818 0.207021 0.207021
0.492141 0.208343 0.303756
0.493451 0.209653 0.399566
0.494752 0.210954 0.494752
0.496047 0.212249 0.589465
0.497336 0.213539 0.683798
0.498621 0.214824 0.777814
0.499903 0.216106 0.871557
0.502570 0.314185 0.121533
0.503918 0.315533 0.220121
0.505241 0.316855 0.316855
0.506550 0.318165 0.412666
0.507852 0.319467 0.507852
0.509146 0.320761 0.602565
0.510436 0.322051 0.696898
0.511721 0.323336 0.790914
0.513003 0.324618 0.884657
0.515545 0.421661 0.134507
0.516893 0.423008 0.233095
0.518215 0.424331 0.329830
0.519525 0.425641 0.425641
0.520826 0.426942 0.520826
0.522121 0.428237 0.615539
0.523411 0.429526 0.709873
0.524696 0.430811 0.803888
0.525977 0.432093 0.897631
0.528435 0.528435 0.147397
0.529783 0.529783 0.245985
0.531105 0.531105 0.342720
0.532415 0.532415 0.438531
0.533716 0.533716 0.533716
0.535011 0.535011 0.628429
0.536301 0.536301 0.722763
0.537586 0.537586 0.816778
0.538867 0.538867 0.910522
0.541261 0.634679 0.160223
0.542609 0.636027 0.258811
0.543931 0.637350 0.355546
0.545241 0.638659 0.451357
0.546542 0.639961 0.546542
0.547837 0.641256 0.641256
0.549127 0.642545 0.735589
0.550412 0.643830 0.829605
0.551694 0.645112 0.923348
0.554036 0.740498 0.172998
0.555383 0.741845 0.271586
0.556706 0.743168 0.368321
0.558016 0.744478 0.464131
0.559317 0.745779 0.559317
0.560612 0.747074 0.654030
0.561901 0.748363 0.748363
0.563187 0.749649 0.842379
0.564468 0.750930 0.936122
0.566767 0.845960 0.185730
0.568115 0.847308 0.284318
0.569437 0.848630 0.381052
0.570747 0.849940 0.476863
0.572049 0.851241 0.572049
0.573343 0.852536 0.666762
0.574633 0.853825 0.761095
0.575918 0.855111 0.855111
0.577200 0.856392 0.948854
0.579462 0.951116 0.198424
0.580810 0.952464 0.297012
0.582132 0.953786 0.393747
0.583442 0.955096 0.489558
0.584743 0.956397 0.584743
0.586038 0.957692 0.679456
0.587328 0.958982 0.773790
0.588613 0.960267 0.867805
0.589894 0.961548 0.961548
0.573351 0.098895 0.098895
0.574699 0.100243 0.197483
0.576021 0.101565 0.294218
0.577331 0.102875 0.390028
0.578632 0.104176 0.485214
0.579927 0.105471 0.579927
0.581216 0.106760 0.674260
0.582502 0.108046 0.768276
0.583783 0.109327 0.862019
0.586702 0.209486 0.112246
0.588049 0.210833 0.210833
0.589372 0.212156 0.307568
0.590682 0.213466 0.403379
0.591983 0.214767 0.498564
0.593278 0.216062 0.593278
0.594567 0.217351 0.687611
0.595852 0.218637 0.781627
0.597134 0.219918 0.875370
0.599801 0.317998 0.125345
0.601149 0.319346 0.223933
0.602472 0.320668 0.320668
0.603781 0.321978 0.416479
0.605083 0.323279 0.511664
0.606377 0.324574 0.606377
0.607667 0.325864 0.700711
0.608952 0.327149 0.794726
0.610234 0.328430 0.888470
0.612776 0.425473 0.138320
0.614124 0.426821 0.236908
0.615446 0.428143 0.333643
0.616756 0.429453 0.429453
0.618057 0.430754 0.524639
0.619352 0.432049 0.619352
0.620642 0.433339 0.713685
0.621927 0.434624 0.807701
0.623208 0.435906 0.901444
0.625666 0.532248 0.151210
0.627014 0.533595 0.249798
0.628336 0.534918 0.346533
0.629646 0.536228 0.442343
0.630947 0.537529 0.537529
0.632242 0.538824 0.632242
0.633532 0.540113 0.726575
0.634817 0.541399 0.820591
0.636099 0.542680 0.914334
0.638492 0.638492 0.164036
0.639840 0.639840 0.262624
0.641162 0.641162 0.359359
0.642472 0.642472 0.455169
0.643773 0.643773 0.550355
0.645068 0.645068 0.645068
0.646358 0.646358 0.739401
0.647643 0.647643 0.833417
0.648925 0.648925 0.927160
0.651267 0.744310 0.176811
0.652614 0.745658 0.275399
0.653937 0.746981 0.372133
0.655247 0.748290 0.467944
0.656548 0.749592 0.563130
0.657843 0.750886 0.657843
0.659132 0.752176 0.752176
0.660418 0.753461 0.846192
0.661699 0.754743 0.939935
0.663998 0.849772 0.189542
0.665346 0.851120 0.288130
0.666669 0.852443 0.384865
0.667978 0.853752 0.480676
0.669280 0.855054 0.575861
0.670574 0.856349 0.670574
0.671864 0.857638 0.764908
0.673149 0.858923 0.858923
0.674431 0.860205 0.952666
0.676693 0.954929 0.202237
0.678041 0.956276 0.300825
0.679363 0.957599 0.397560
0.680673 0.958909 0.493370
0.681974 0.960210 0.588556
0.683269 0.961505 0.683269
0.684559 0.962794 0.777602
0.685844 0.964080 0.871618
0.687125 0.965361 0.965361
0.670192 0.102692 0.102692
0.671540 0.104040 0.201280
0.672862 0.105362 0.298015
0.674172 0.106672 0.393825
0.675473 0.107973 0.489011
0.676768 0.109268 0.583724
0.678058 0.110558 0.678058
0.679343 0.111843 0.772073
0.680624 0.113125 0.865816
0.683543 0.213283 0.116043
0.684890 0.214631 0.214631
0.686213 0.215953 0.311366
0.687523 0.217263 0.407176
0.688824 0.218564 0.502362
0.690119 0.219859 0.597075
0.691408 0.221149 0.691408
0.692694 0.222434 0.785424
0.693975 0.223716 0.879167
0.696642 0.321795 0.129143
0.697990 0.323143 0.227731
0.699313 0.324466 0.324466
0.700622 0.325775 0.420276
0.701924 0.327077 0.515462
0.703218 0.328371 0.610175
0.704508 0.329661 0.704508
0.705793 0.330946 0.798524
0.707075 0.332228 0.892267
0.709617 0.429271 0.142117
0.710965 0.430618 0.240705
0.712287 0.431941 0.337440
0.713597 0.433251 0.433251
0.714898 0.434552 0.528436
0.716193 0.435847 0.623149
0.717483 0.437136 0.717483
0.718768 0.438422 0.811498
0.720050 0.439703 0.905242
0.722507 0.536045 0.155007
0.723855 0.537393 0.253595
0.725177 0.538715 0.350330
0.726487 0.540025 0.446141
0.727788 0.541326 0.541326
0.729083 0.542621 0.636039
0.730373 0.543911 0.730373
0.731658 0.545196 0.824389
0.732940 0.546478 0.918132
0.735333 0.642289 0.167833
0.736681 0.643637 0.266421
0.738003 0.644960 0.363156
0.739313 0.646269 0.458967
0.740614 0.647571 0.554152
0.741909 0.648866 0.648866
0.743199 0.650155 0.743199
0.744484 0.651440 0.837215
0.745766 0.652722 0.930958
0.748108 0.748108 0.180608
0.749456 0.749456 0.279196
0.750778 0.750778 0.375931
0.752088 0.752088 0.471741
0.753389 0.753389 0.566927
0.754684 0.754684 0.661640
0.755973 0.755973 0.755973
0.757259 0.757259 0.849989
0.758540 0.758540 0.943732
0.760839 0.853570 0.193340
0.762187 0.854918 0.291928
0.763510 0.856240 0.388662
0.764819 0.857550 0.484473
0.766121 0.858851 0.579659
0.767415 0.860146 0.674372
0.768705 0.861436 0.768705
0.769990 0.862721 0.862721
0.771272 0.864002 0.956464
0.773534 0.958726 0.206034
0.774882 0.960074 0.304622
0.776204 0.961396 0.401357
0.777514 0.962706 0.497168
0.778815 0.964007 0.592353
0.780110 0.965302 0.687066
0.781400 0.966592 0.781400
0.782685 0.967877 0.875415
0.783967 0.969158 0.969158
0.766707 0.106477 0.106477
0.768055 0.107825 0.205065
0.769377 0.109147 0.301800
0.770687 0.110457 0.397610
0.771988 0.111758 0.492796
0.773283 0.113053 0.587509
0.774573 0.114342 0.681842
0.775858 0.115628 0.775858
0.777139 0.116909 0.869601
0.780058 0.217068 0.119828
0.781405 0.218415 0.218415
0.782728 0.219738 0.315150
0.784038 0.221048 0.410961
0.785339 0.222349 0.506146
0.786634 0.223644 0.600860
0.787923 0.224933 0.695193
0.789209 0.226219 0.789209
0.790490 0.227500 0.882952
0.793157 0.325580 0.132927
0.794505 0.326928 0.231515
0.795828 0.328250 0.328250
0.797138 0.329560 0.424061
0.798439 0.330861 0.519246
0.799734 0.332156 0.613959
0.801023 0.333446 0.708293
0.802308 0.334731 0.802308
0.803590 0.336012 0.896051
0.806132 0.433055 0.145902
0.807480 0.434403 0.244490
0.808802 0.435725 0.341225
0.810112 0.437035 0.437035
0.811413 0.438336 0.532221
0.812708 0.439631 0.626934
0.813998 0.440921 0.721267
0.815283 0.442206 0.815283
0.816565 0.443488 0.909026
0.819022 0.539830 0.158792
0.820370 0.541177 0.257380
0.821692 0.542500 0.354115
0.823002 0.543810 0.449925
0.824303 0.545111 0.545111
0.825598 0.546406 0.639824
0.826888 0.547695 0.734157
0.828173 0.548981 0.828173
0.829455 0.550262 0.921916
0.831848 0.646074 0.171618
0.833196 0.647422 0.270206
0.834518 0.648744 0.366941
0.835828 0.650054 0.462751
0.837129 0.651355 0.557937
0.838424 0.652650 0.652650
0.839714 0.653940 0.746983
0.840999 0.655225 0.840999
0.842281 0.656507 0.934742
0.844623 0.751892 0.184393
0.845971 0.753240 0.282981
0.847293 0.754563 0.379715
0.848603 0.755872 0.475526
0.849904 0.757174 0.570712
0.851199 0.758468 0.665425
0.852489 0.759758 0.759758
0.853774 0.761043 0.853774
0.855055 0.762325 0.947517
0.857354 0.857354 0.197124
0.858702 0.858702 0.295712
0.860025 0.860025 0.392447
0.861334 0.861334 0.488257
0.862636 0.862636 0.583443
0.863931 0.863931 0.678156
0.865220 0.865220 0.772490
0.866505 0.866505 0.866505
0.867787 0.867787 0.960248
0.870049 0.962511 0.209819
0.871397 0.963858 0.308407
0.872719 0.965181 0.405142
0.874029 0.966491 0.500952
0.875330 0.967792 0.596138
0.876625 0.969087 0.690851
0.877915 0.970376 0.785184
0.879200 0.971662 0.879200
0.880482 0.972943 0.972943
0.862942 0.110250 0.110250
0.864290 0.111598 0.208838
0.865612 0.112921 0.305573
0.866922 0.114230 0.401384
0.868223 0.115532 0.496569
0.869518 0.116826 0.591282
0.870808 0.118116 0.685616
0.872093 0.119401 0.779631
0.873374 0.120683 0.873374
0.876293 0.220841 0.123601
0.877641 0.222189 0.222189
0.878963 0.223512 0.318924
0.880273 0.224821 0.414734
0.881574 0.226123 0.509920
0.882869 0.227417 0.604633
0.884158 0.228707 0.698966
0.885444 0.229992 0.792982
0.886725 0.231274 0.886725
0.889393 0.329353 0.136701
0.890740 0.330701 0.235289
0.892063 0.332024 0.332024
0.893373 0.333334 0.427834
0.894674 0.334635 0.523020
0.895969 0.335930 0.617733
0.897258 0.337219 0.712066
0.898544 0.338504 0.806082
0.899825 0.339786 0.899825
0.902367 0.436829 0.149676
0.903715 0.438177 0.248264
0.905037 0.439499 0.344998
0.906347 0.440809 0.440809
0.907649 0.442110 0.535994
0.908943 0.443405 0.630708
0.910233 0.444694 0.725041
0.911518 0.445980 0.819057
0.912800 0.447261 0.912800
0.915257 0.543603 0.162566
0.916605 0.544951 0.261154
0.917927 0.546273 0.357888
0.919237 0.547583 0.453699
0.920539 0.548885 0.548885
0.921833 0.550179 0.643598
0.923123 0.551469 0.737931
0.924408 0.552754 0.831947
0.925690 0.554036 0.925690
0.928083 0.649848 0.175392
0.929431 0.651195 0.273980
0.930754 0.652518 0.370714
0.932063 0.653828 0.466525
0.933365 0.655129 0.561711
0.934659 0.656424 0.656424
0.935949 0.657713 0.750757
0.937234 0.658999 0.844773
0.938516 0.660280 0.938516
0.940858 0.755666 0.188166
0.942206 0.757014 0.286754
0.943528 0.758336 0.383489
0.944838 0.759646 0.479299
0.946139 0.760947 0.574485
0.947434 0.762242 0.669198
0.948724 0.763532 0.763532
0.950009 0.764817 0.857547
0.951290 0.766098 0.951290
0.953590 0.861128 0.200898
0.954937 0.862476 0.299486
0.956260 0.863798 0.396221
0.957570 0.865108 0.492031
0.958871 0.866409 0.587217
0.960166 0.867704 0.681930
0.961455 0.868994 0.776263
0.962740 0.870279 0.870279
0.964022 0.871561 0.964022
0.966284 0.966284 0.213593
0.967632 0.967632 0.312181
0.968954 0.968954 0.408915
0.970264 0.970264 0.504726
0.971565 0.971565 0.599911
0.972860 0.972860 0.694625
0.974150 0.974150 0.788958
0.975435 0.975435 0.882974
0.976717 0.976717 0.976717
