skills/editops-orchestrator/assets/grade/luts/vintage_fade_v12.cube
TITLE "vintage_fade_v12"
LUT_3D_SIZE 5
DOMAIN_MIN 0.0 0.0 0.0
DOMAIN_MAX 1.0 1.0 1.0
0.112850 0.112850 0.112850
0.116150 0.116150 0.290859
0.119362 0.119362 0.464121
0.122533 0.122533 0.635151
0.125676 0.125676 0.804697
0.145540 0.320248 0.145540
0.148840 0.323548 0.323548
0.152052 0.326761 0.496811
0.155223 0.329931 0.667841
0.158366 0.333074 0.837387
0.177358 0.522117 0.177358
0.180658 0.525417 0.355367
0.183870 0.528629 0.528629
0.187041 0.531800 0.699660
0.190184 0.534943 0.869205
0.208766 0.721385 0.208766
0.212066 0.724685 0.386775
0.215279 0.727897 0.560037
0.218449 0.731068 0.731068
0.221592 0.734211 0.900613
0.239902 0.918923 0.239902
0.243202 0.922223 0.417911
0.246414 0.925435 0.591173
0.249585 0.928606 0.762204
0.252728 0.931749 0.931749
0.297276 0.122567 0.122567
0.300576 0.125867 0.300576
0.303788 0.129079 0.473838
0.306959 0.132250 0.644869
0.310102 0.135393 0.814414
0.329966 0.329966 0.155257
0.333266 0.333266 0.333266
0.336478 0.336478 0.506528
0.339649 0.339649 0.677559
0.342792 0.342792 0.847104
0.361784 0.531834 0.187075
0.365084 0.535134 0.365084
0.368296 0.538346 0.538346
0.371467 0.541517 0.709377
0.374610 0.544660 0.878922
0.393192 0.731102 0.218484
0.396492 0.734403 0.396492
0.399705 0.737615 0.569755
0.402875 0.740785 0.740785
0.406018 0.743928 0.910331
0.424328 0.928640 0.249619
0.427628 0.931940 0.427628
0.430840 0.935152 0.600890
0.434011 0.938323 0.771921
0.437154 0.941466 0.941466
0.476785 0.132026 0.132026
0.480085 0.135326 0.310034
0.483297 0.138538 0.483297
0.486467 0.141708 0.654327
0.489611 0.144852 0.823872
0.509474 0.339424 0.164715
0.512774 0.342724 0.342724
0.515987 0.345936 0.515987
0.519157 0.349107 0.687017
0.522300 0.352250 0.856562
0.541293 0.541293 0.196534
0.544593 0.544593 0.374542
0.547805 0.547805 0.547805
0.550975 0.550975 0.718835
0.554119 0.554119 0.888380
0.572701 0.740561 0.227942
0.576001 0.743861 0.405951
0.579213 0.747073 0.579213
0.582384 0.750244 0.750244
0.585527 0.753387 0.919789
0.603837 0.938098 0.259078
0.607137 0.941398 0.437086
0.610349 0.944611 0.610349
0.613519 0.947781 0.781379
0.616663 0.950924 0.950924
0.653981 0.141362 0.141362
0.657281 0.144662 0.319371
0.660493 0.147874 0.492633
0.663664 0.151045 0.663664
0.666807 0.154188 0.833209
0.686671 0.348760 0.174052
0.689971 0.352061 0.352061
0.693183 0.355273 0.525323
0.696353 0.358443 0.696353
0.699497 0.361587 0.865899
0.718489 0.550629 0.205870
0.721789 0.553929 0.383879
0.725001 0.557141 0.557141
0.728172 0.560312 0.728172
0.731315 0.563455 0.897717
0.749897 0.749897 0.237278
0.753197 0.753197 0.415287
0.756409 0.756409 0.588550
0.759580 0.759580 0.759580
0.762723 0.762723 0.929125
0.781033 0.947435 0.268414
0.784333 0.950735 0.446423
0.787545 0.953947 0.619685
0.790716 0.957118 0.790716
0.793859 0.960261 0.960261
0.829638 0.150617 0.150617
0.832938 0.153917 0.328626
0.836150 0.157130 0.501888
0.839321 0.160300 0.672919
0.842464 0.163443 0.842464
0.862328 0.358016 0.183307
0.865628 0.361316 0.361316
0.868840 0.364528 0.534578
0.872011 0.367699 0.705609
0.875154 0.370842 0.875154
0.894146 0.559884 0.215125
0.897446 0.563184 0.393134
0.900658 0.566397 0.566397
0.903829 0.569567 0.737427
0.906972 0.572710 0.906972
0.925555 0.759153 0.246534
0.928855 0.762453 0.424543
0.932067 0.765665 0.597805
0.935237 0.768835 0.768835
0.938381 0.771979 0.938381
0.956690 0.956690 0.277669
0.959990 0.959990 0.455678
0.963202 0.963202 0.628941
0.966373 0.966373 0.799971
0.969516 0.969516 0.969516
