skills/editops-orchestrator/assets/grade/luts/vintage_fade_v12.cube
TITLE "vintage_fade_v12"
LUT_3D_SIZE 9
DOMAIN_MIN 0.0 0.0 0.0
DOMAIN_MAX 1.0 1.0 1.0
0.112850 0.112850 0.112850
0.114518 0.114518 0.202835
0.116150 0.116150 0.290859
0.117763 0.117763 0.377845
0.119362 0.119362 0.464121
0.120951 0.120951 0.549855
0.122533 0.122533 0.635151
0.124107 0.124107 0.720082
0.125676 0.125676 0.804697
0.129375 0.217692 0.129375
0.131043 0.219360 0.219360
0.132675 0.220992 0.307384
0.134288 0.222605 0.394371
0.135887 0.224204 0.480646
0.137477 0.225793 0.566380
0.139058 0.227375 0.651677
0.140632 0.228949 0.736607
0.142201 0.230518 0.821222
0.145540 0.320248 0.145540
0.147208 0.321917 0.235525
0.148840 0.323548 0.323548
0.150452 0.325161 0.410535
0.152052 0.326761 0.496811
0.153641 0.328350 0.582545
0.155223 0.329931 0.667841
0.156797 0.331506 0.752772
0.158366 0.333074 0.837387
0.161514 0.421597 0.161514
0.163182 0.423265 0.251499
0.164814 0.424897 0.339523
0.166427 0.426510 0.426510
0.168026 0.428109 0.512785
0.169616 0.429699 0.598519
0.171197 0.431280 0.683816
0.172772 0.432854 0.768746
0.174340 0.434423 0.853361
0.177358 0.522117 0.177358
0.179026 0.523785 0.267343
0.180658 0.525417 0.355367
0.182271 0.527030 0.442354
0.183870 0.528629 0.528629
0.185460 0.530219 0.614363
0.187041 0.531800 0.699660
0.188615 0.533374 0.784590
0.190184 0.534943 0.869205
0.193102 0.622006 0.193102
0.194771 0.623674 0.283088
0.196402 0.625306 0.371111
0.198015 0.626918 0.458098
0.199615 0.628518 0.544373
0.201204 0.630107 0.630107
0.202785 0.631689 0.715404
0.204360 0.633263 0.800334
0.205928 0.634832 0.884949
0.208766 0.721385 0.208766
0.210435 0.723053 0.298752
0.212066 0.724685 0.386775
0.213679 0.726298 0.473762
0.215279 0.727897 0.560037
0.216868 0.729487 0.645771
0.218449 0.731068 0.731068
0.220024 0.732642 0.815998
0.221592 0.734211 0.900613
0.224363 0.820338 0.224363
0.226031 0.822006 0.314348
0.227663 0.823638 0.402372
0.229276 0.825250 0.489359
0.230875 0.826850 0.575634
0.232465 0.828439 0.661368
0.234046 0.830020 0.746665
0.235620 0.831595 0.831595
0.237189 0.833164 0.916210
0.239902 0.918923 0.239902
0.241570 0.920591 0.329887
0.243202 0.922223 0.417911
0.244815 0.923835 0.504898
0.246414 0.925435 0.591173
0.248004 0.927024 0.676907
0.249585 0.928606 0.762204
0.251159 0.930180 0.847134
0.252728 0.931749 0.931749
0.206079 0.117762 0.117762
0.207747 0.119430 0.207747
0.209379 0.121062 0.295771
0.210992 0.122675 0.382758
0.212591 0.124274 0.469033
0.214181 0.125864 0.554767
0.215762 0.127445 0.640064
0.217336 0.129019 0.724994
0.218905 0.130588 0.809609
0.222604 0.222604 0.134287
0.224272 0.224272 0.224272
0.225904 0.225904 0.312296
0.227517 0.227517 0.399283
0.229116 0.229116 0.485558
0.230706 0.230706 0.571292
0.232287 0.232287 0.656589
0.233862 0.233862 0.741519
0.235430 0.235430 0.826134
0.238769 0.325161 0.150452
0.240437 0.326829 0.240437
0.242069 0.328461 0.328461
0.243682 0.330073 0.415448
0.245281 0.331673 0.501723
0.246871 0.333262 0.587457
0.248452 0.334843 0.672754
0.250026 0.336418 0.757684
0.251595 0.337987 0.842299
0.254743 0.426509 0.166426
0.256412 0.428178 0.256412
0.258043 0.429809 0.344435
0.259656 0.431422 0.431422
0.261256 0.433021 0.517698
0.262845 0.434611 0.603431
0.264426 0.436192 0.688728
0.266001 0.437767 0.773658
0.267569 0.439335 0.858273
0.270587 0.527029 0.182270
0.272255 0.528697 0.272255
0.273887 0.530329 0.360279
0.275500 0.531942 0.447266
0.277099 0.533541 0.533541
0.278689 0.535131 0.619275
0.280270 0.536712 0.704572
0.281845 0.538287 0.789502
0.283413 0.539855 0.874117
0.286332 0.626918 0.198015
0.288000 0.628586 0.288000
0.289632 0.630218 0.376023
0.291244 0.631831 0.463010
0.292844 0.633430 0.549286
0.294433 0.635020 0.635020
0.296014 0.636601 0.720316
0.297589 0.638175 0.805246
0.299158 0.639744 0.889861
0.301996 0.726297 0.213679
0.303664 0.727966 0.303664
0.305296 0.729597 0.391687
0.306908 0.731210 0.478674
0.308508 0.732809 0.564950
0.310097 0.734399 0.650684
0.311678 0.735980 0.735980
0.313253 0.737555 0.820910
0.314822 0.739123 0.905525
0.317592 0.825250 0.229275
0.319261 0.826918 0.319261
0.320892 0.828550 0.407284
0.322505 0.830162 0.494271
0.324104 0.831762 0.580546
0.325694 0.833351 0.666280
0.327275 0.834933 0.751577
0.328850 0.836507 0.836507
0.330418 0.838076 0.921122
0.333131 0.923835 0.244814
0.334799 0.925503 0.334799
0.336431 0.927135 0.422823
0.338044 0.928748 0.509810
0.339643 0.930347 0.596085
0.341233 0.931937 0.681819
0.342814 0.933518 0.767116
0.344389 0.935092 0.852046
0.345957 0.936661 0.936661
0.297276 0.122567 0.122567
0.298944 0.124236 0.212552
0.300576 0.125867 0.300576
0.302189 0.127480 0.387563
0.303788 0.129079 0.473838
0.305377 0.130669 0.559572
0.306959 0.132250 0.644869
0.308533 0.133825 0.729799
0.310102 0.135393 0.814414
0.313801 0.227409 0.139092
0.315469 0.229078 0.229078
0.317101 0.230709 0.317101
0.318714 0.232322 0.404088
0.320313 0.233921 0.490363
0.321903 0.235511 0.576097
0.323484 0.237092 0.661394
0.325058 0.238667 0.746324
0.326627 0.240235 0.830939
0.329966 0.329966 0.155257
0.331634 0.331634 0.245242
0.333266 0.333266 0.333266
0.334878 0.334878 0.420253
0.336478 0.336478 0.506528
0.338067 0.338067 0.592262
0.339649 0.339649 0.677559
0.341223 0.341223 0.762489
0.342792 0.342792 0.847104
0.345940 0.431314 0.171232
0.347608 0.432983 0.261217
0.349240 0.434615 0.349240
0.350853 0.436227 0.436227
0.352452 0.437827 0.522503
0.354042 0.439416 0.608237
0.355623 0.440997 0.693533
0.357198 0.442572 0.778463
0.358766 0.444140 0.863078
0.361784 0.531834 0.187075
0.363452 0.533503 0.277061
0.365084 0.535134 0.365084
0.366697 0.536747 0.452071
0.368296 0.538346 0.538346
0.369886 0.539936 0.624080
0.371467 0.541517 0.709377
0.373041 0.543092 0.794307
0.374610 0.544660 0.878922
0.377528 0.631723 0.202820
0.379197 0.633391 0.292805
0.380828 0.635023 0.380828
0.382441 0.636636 0.467815
0.384041 0.638235 0.554091
0.385630 0.639825 0.639825
0.387211 0.641406 0.725121
0.388786 0.642980 0.810051
0.390354 0.644549 0.894666
0.393192 0.731102 0.218484
0.394861 0.732771 0.308469
0.396492 0.734403 0.396492
0.398105 0.736015 0.483479
0.399705 0.737615 0.569755
0.401294 0.739204 0.655489
0.402875 0.740785 0.740785
0.404450 0.742360 0.825715
0.406018 0.743928 0.910331
0.408789 0.830055 0.234081
0.410457 0.831723 0.324066
0.412089 0.833355 0.412089
0.413702 0.834968 0.499076
0.415301 0.836567 0.585352
0.416891 0.838156 0.671085
0.418472 0.839738 0.756382
0.420046 0.841312 0.841312
0.421615 0.842881 0.925927
0.424328 0.928640 0.249619
0.425996 0.930308 0.339605
0.427628 0.931940 0.427628
0.429241 0.933553 0.514615
0.430840 0.935152 0.600890
0.432430 0.936742 0.686624
0.434011 0.938323 0.771921
0.435585 0.939897 0.856851
0.437154 0.941466 0.941466
0.387399 0.127316 0.127316
0.389067 0.128984 0.217301
0.390699 0.130616 0.305325
0.392311 0.132229 0.392311
0.393911 0.133828 0.478587
0.395500 0.135417 0.564321
0.397082 0.136999 0.649617
0.398656 0.138573 0.734548
0.400225 0.140142 0.819163
0.403924 0.232158 0.143841
0.405592 0.233826 0.233826
0.407224 0.235458 0.321850
0.408836 0.237071 0.408836
0.410436 0.238670 0.495112
0.412025 0.240259 0.580846
0.413607 0.241841 0.666142
0.415181 0.243415 0.751073
0.416750 0.244984 0.835688
0.420089 0.334714 0.160006
0.421757 0.336383 0.249991
0.423389 0.338014 0.338014
0.425001 0.339627 0.425001
0.426601 0.341226 0.511277
0.428190 0.342816 0.597011
0.429771 0.344397 0.682307
0.431346 0.345972 0.767237
0.432915 0.347540 0.851852
0.436063 0.436063 0.175980
0.437731 0.437731 0.265965
0.439363 0.439363 0.353989
0.440976 0.440976 0.440976
0.442575 0.442575 0.527251
0.444165 0.444165 0.612985
0.445746 0.445746 0.698282
0.447320 0.447320 0.783212
0.448889 0.448889 0.867827
0.451907 0.536583 0.191824
0.453575 0.538251 0.281809
0.455207 0.539883 0.369833
0.456820 0.541496 0.456820
0.458419 0.543095 0.543095
0.460008 0.544684 0.628829
0.461590 0.546266 0.714125
0.463164 0.547840 0.799056
0.464733 0.549409 0.883671
0.467651 0.636472 0.207568
0.469319 0.638140 0.297553
0.470951 0.639772 0.385577
0.472564 0.641384 0.472564
0.474163 0.642984 0.558839
0.475753 0.644573 0.644573
0.477334 0.646155 0.729870
0.478908 0.647729 0.814800
0.480477 0.649298 0.899415
0.483315 0.735851 0.223232
0.484983 0.737519 0.313217
0.486615 0.739151 0.401241
0.488228 0.740764 0.488228
0.489827 0.742363 0.574503
0.491417 0.743953 0.660237
0.492998 0.745534 0.745534
0.494573 0.747108 0.830464
0.496141 0.748677 0.915079
0.498912 0.834803 0.238829
0.500580 0.836472 0.328814
0.502212 0.838104 0.416838
0.503825 0.839716 0.503825
0.505424 0.841316 0.590100
0.507013 0.842905 0.675834
0.508595 0.844486 0.761131
0.510169 0.846061 0.846061
0.511738 0.847629 0.930676
0.514451 0.933389 0.254368
0.516119 0.935057 0.344353
0.517751 0.936689 0.432377
0.519363 0.938301 0.519363
0.520963 0.939901 0.605639
0.522552 0.941490 0.691373
0.524134 0.943072 0.776669
0.525708 0.944646 0.861600
0.527277 0.946215 0.946215
0.476785 0.132026 0.132026
0.478453 0.133694 0.222011
0.480085 0.135326 0.310034
0.481697 0.136938 0.397021
0.483297 0.138538 0.483297
0.484886 0.140127 0.569031
0.486467 0.141708 0.654327
0.488042 0.143283 0.739257
0.489611 0.144852 0.823872
0.493310 0.236868 0.148551
0.494978 0.238536 0.238536
0.496610 0.240168 0.326559
0.498222 0.241780 0.413546
0.499822 0.243380 0.499822
0.501411 0.244969 0.585556
0.502992 0.246550 0.670852
0.504567 0.248125 0.755782
0.506136 0.249694 0.840397
0.509474 0.339424 0.164715
0.511143 0.341092 0.254701
0.512774 0.342724 0.342724
0.514387 0.344337 0.429711
0.515987 0.345936 0.515987
0.517576 0.347526 0.601720
0.519157 0.349107 0.687017
0.520732 0.350681 0.771947
0.522300 0.352250 0.856562
0.525449 0.440773 0.180690
0.527117 0.442441 0.270675
0.528749 0.444073 0.358699
0.530362 0.445685 0.445685
0.531961 0.447285 0.531961
0.533550 0.448874 0.617695
0.535132 0.450456 0.702991
0.536706 0.452030 0.787922
0.538275 0.453599 0.872537
0.541293 0.541293 0.196534
0.542961 0.542961 0.286519
0.544593 0.544593 0.374542
0.546205 0.546205 0.461529
0.547805 0.547805 0.547805
0.549394 0.549394 0.633539
0.550975 0.550975 0.718835
0.552550 0.552550 0.803765
0.554119 0.554119 0.888380
0.557037 0.641181 0.212278
0.558705 0.642850 0.302263
0.560337 0.644481 0.390287
0.561950 0.646094 0.477274
0.563549 0.647694 0.563549
0.565139 0.649283 0.649283
0.566720 0.650864 0.734580
0.568294 0.652439 0.819510
0.569863 0.654007 0.904125
0.572701 0.740561 0.227942
0.574369 0.742229 0.317927
0.576001 0.743861 0.405951
0.577614 0.745473 0.492938
0.579213 0.747073 0.579213
0.580803 0.748662 0.664947
0.582384 0.750244 0.750244
0.583958 0.751818 0.835174
0.585527 0.753387 0.919789
0.588298 0.839513 0.243539
0.589966 0.841181 0.333524
0.591598 0.842813 0.421547
0.593210 0.844426 0.508534
0.594810 0.846025 0.594810
0.596399 0.847615 0.680544
0.597981 0.849196 0.765840
0.599555 0.850771 0.850771
0.601124 0.852339 0.935386
0.603837 0.938098 0.259078
0.605505 0.939767 0.349063
0.607137 0.941398 0.437086
0.608749 0.943011 0.524073
0.610349 0.944611 0.610349
0.611938 0.946200 0.696083
0.613519 0.947781 0.781379
0.615094 0.949356 0.866309
0.616663 0.950924 0.950924
0.565609 0.136706 0.136706
0.567277 0.138374 0.226691
0.568909 0.140006 0.314714
0.570522 0.141618 0.401701
0.572121 0.143218 0.487977
0.573711 0.144807 0.573711
0.575292 0.146389 0.659007
0.576866 0.147963 0.743937
0.578435 0.149532 0.828552
0.582134 0.241548 0.153231
0.583802 0.243216 0.243216
0.585434 0.244848 0.331239
0.587047 0.246460 0.418226
0.588646 0.248060 0.504502
0.590236 0.249649 0.590236
0.591817 0.251231 0.675532
0.593392 0.252805 0.760463
0.594960 0.254374 0.845078
0.598299 0.344104 0.169396
0.599967 0.345772 0.259381
0.601599 0.347404 0.347404
0.603212 0.349017 0.434391
0.604811 0.350616 0.520667
0.606401 0.352206 0.606401
0.607982 0.353787 0.691697
0.609556 0.355362 0.776627
0.611125 0.356930 0.861242
0.614273 0.445453 0.185370
0.615942 0.447121 0.275355
0.617573 0.448753 0.363379
0.619186 0.450366 0.450366
0.620786 0.451965 0.536641
0.622375 0.453554 0.622375
0.623956 0.455136 0.707672
0.625531 0.456710 0.792602
0.627099 0.458279 0.877217
0.630117 0.545973 0.201214
0.631785 0.547641 0.291199
0.633417 0.549273 0.379223
0.635030 0.550885 0.466209
0.636629 0.552485 0.552485
0.638219 0.554074 0.638219
0.639800 0.555656 0.723515
0.641375 0.557230 0.808446
0.642943 0.558799 0.893061
0.645862 0.645862 0.216958
0.647530 0.647530 0.306943
0.649162 0.649162 0.394967
0.650774 0.650774 0.481954
0.652374 0.652374 0.568229
0.653963 0.653963 0.653963
0.655544 0.655544 0.739260
0.657119 0.657119 0.824190
0.658688 0.658688 0.908805
0.661526 0.745241 0.232622
0.663194 0.746909 0.322607
0.664826 0.748541 0.410631
0.666438 0.750154 0.497618
0.668038 0.751753 0.583893
0.669627 0.753342 0.669627
0.671208 0.754924 0.754924
0.672783 0.756498 0.839854
0.674352 0.758067 0.924469
0.677122 0.844193 0.248219
0.678791 0.845862 0.338204
0.680422 0.847493 0.426228
0.682035 0.849106 0.513214
0.683634 0.850705 0.599490
0.685224 0.852295 0.685224
0.686805 0.853876 0.770520
0.688380 0.855451 0.855451
0.689948 0.857019 0.940066
0.692661 0.942779 0.263758
0.694329 0.944447 0.353743
0.695961 0.946079 0.441767
0.697574 0.947691 0.528753
0.699173 0.949291 0.615029
0.700763 0.950880 0.700763
0.702344 0.952461 0.786059
0.703919 0.954036 0.870990
0.705487 0.955605 0.955605
0.653981 0.141362 0.141362
0.655649 0.143030 0.231347
0.657281 0.144662 0.319371
0.658893 0.146275 0.406358
0.660493 0.147874 0.492633
0.662082 0.149464 0.578367
0.663664 0.151045 0.663664
0.665238 0.152619 0.748594
0.666807 0.154188 0.833209
0.670506 0.246204 0.157887
0.672174 0.247872 0.247872
0.673806 0.249504 0.335896
0.675418 0.251117 0.422883
0.677018 0.252716 0.509158
0.678607 0.254306 0.594892
0.680189 0.255887 0.680189
0.681763 0.257461 0.765119
0.683332 0.259030 0.849734
0.686671 0.348760 0.174052
0.688339 0.350429 0.264037
0.689971 0.352061 0.352061
0.691583 0.353673 0.439047
0.693183 0.355273 0.525323
0.694772 0.356862 0.611057
0.696353 0.358443 0.696353
0.697928 0.360018 0.781284
0.699497 0.361587 0.865899
0.702645 0.450109 0.190026
0.704313 0.451777 0.280011
0.705945 0.453409 0.368035
0.707558 0.455022 0.455022
0.709157 0.456621 0.541297
0.710747 0.458211 0.627031
0.712328 0.459792 0.712328
0.713902 0.461366 0.797258
0.715471 0.462935 0.881873
0.718489 0.550629 0.205870
0.720157 0.552297 0.295855
0.721789 0.553929 0.383879
0.723402 0.555542 0.470866
0.725001 0.557141 0.557141
0.726590 0.558731 0.642875
0.728172 0.560312 0.728172
0.729746 0.561886 0.813102
0.731315 0.563455 0.897717
0.734233 0.650518 0.221614
0.735901 0.652186 0.311600
0.737533 0.653818 0.399623
0.739146 0.655431 0.486610
0.740745 0.657030 0.572886
0.742335 0.658619 0.658619
0.743916 0.660201 0.743916
0.745490 0.661775 0.828846
0.747059 0.663344 0.913461
0.749897 0.749897 0.237278
0.751565 0.751565 0.327264
0.753197 0.753197 0.415287
0.754810 0.754810 0.502274
0.756409 0.756409 0.588550
0.757999 0.757999 0.674283
0.759580 0.759580 0.759580
0.761155 0.761155 0.844510
0.762723 0.762723 0.929125
0.765494 0.848850 0.252875
0.767162 0.850518 0.342860
0.768794 0.852150 0.430884
0.770407 0.853762 0.517871
0.772006 0.855362 0.604146
0.773595 0.856951 0.689880
0.775177 0.858532 0.775177
0.776751 0.860107 0.860107
0.778320 0.861676 0.944722
0.781033 0.947435 0.268414
0.782701 0.949103 0.358399
0.784333 0.950735 0.446423
0.785945 0.952348 0.533410
0.787545 0.953947 0.619685
0.789134 0.955536 0.705419
0.790716 0.957118 0.790716
0.792290 0.958692 0.875646
0.793859 0.960261 0.960261
0.741973 0.145998 0.145998
0.743641 0.147666 0.235983
0.745273 0.149298 0.324007
0.746885 0.150911 0.410994
0.748485 0.152510 0.497269
0.750074 0.154100 0.583003
0.751656 0.155681 0.668300
0.753230 0.157256 0.753230
0.754799 0.158824 0.837845
0.758498 0.250840 0.162523
0.760166 0.252509 0.252509
0.761798 0.254140 0.340532
0.763410 0.255753 0.427519
0.765010 0.257352 0.513794
0.766599 0.258942 0.599528
0.768181 0.260523 0.684825
0.769755 0.262098 0.769755
0.771324 0.263666 0.854370
0.774663 0.353397 0.178688
0.776331 0.355065 0.268673
0.777963 0.356697 0.356697
0.779575 0.358309 0.443684
0.781175 0.359909 0.529959
0.782764 0.361498 0.615693
0.784345 0.363080 0.700990
0.785920 0.364654 0.785920
0.787489 0.366223 0.870535
0.790637 0.454745 0.194663
0.792305 0.456414 0.284648
0.793937 0.458046 0.372671
0.795550 0.459658 0.459658
0.797149 0.461258 0.545934
0.798739 0.462847 0.631668
0.800320 0.464428 0.716964
0.801894 0.466003 0.801894
0.803463 0.467571 0.886509
0.806481 0.555265 0.210506
0.808149 0.556934 0.300492
0.809781 0.558565 0.388515
0.811393 0.560178 0.475502
0.812993 0.561777 0.561777
0.814582 0.563367 0.647511
0.816164 0.564948 0.732808
0.817738 0.566523 0.817738
0.819307 0.568091 0.902353
0.822225 0.655154 0.226251
0.823893 0.656822 0.316236
0.825525 0.658454 0.404259
0.827138 0.660067 0.491246
0.828737 0.661666 0.577522
0.830327 0.663256 0.663256
0.831908 0.664837 0.748552
0.833482 0.666411 0.833482
0.835051 0.667980 0.918097
0.837889 0.754533 0.241915
0.839557 0.756202 0.331900
0.841189 0.757834 0.419923
0.842802 0.759446 0.506910
0.844401 0.761046 0.593186
0.845991 0.762635 0.678920
0.847572 0.764216 0.764216
0.849146 0.765791 0.849146
0.850715 0.767359 0.933762
0.853486 0.853486 0.257512
0.855154 0.855154 0.347497
0.856786 0.856786 0.435520
0.858399 0.858399 0.522507
0.859998 0.859998 0.608783
0.861587 0.861587 0.694516
0.863169 0.863169 0.779813
0.864743 0.864743 0.864743
0.866312 0.866312 0.949358
0.869025 0.952071 0.273050
0.870693 0.953739 0.363036
0.872325 0.955371 0.451059
0.873937 0.956984 0.538046
0.875537 0.958583 0.624321
0.877126 0.960173 0.710055
0.878708 0.961754 0.795352
0.880282 0.963328 0.880282
0.881851 0.964897 0.964897
0.829638 0.150617 0.150617
0.831306 0.152286 0.240603
0.832938 0.153917 0.328626
0.834551 0.155530 0.415613
0.836150 0.157130 0.501888
0.837740 0.158719 0.587622
0.839321 0.160300 0.672919
0.840895 0.161875 0.757849
0.842464 0.163443 0.842464
0.846163 0.255459 0.167142
0.847831 0.257128 0.257128
0.849463 0.258759 0.345151
0.851076 0.260372 0.432138
0.852675 0.261972 0.518414
0.854265 0.263561 0.604147
0.855846 0.265142 0.689444
0.857421 0.266717 0.774374
0.858989 0.268285 0.858989
0.862328 0.358016 0.183307
0.863996 0.359684 0.273292
0.865628 0.361316 0.361316
0.867241 0.362929 0.448303
0.868840 0.364528 0.534578
0.870430 0.366117 0.620312
0.872011 0.367699 0.705609
0.873585 0.369273 0.790539
0.875154 0.370842 0.875154
0.878302 0.459365 0.199282
0.879971 0.461033 0.289267
0.881602 0.462665 0.377290
0.883215 0.464277 0.464277
0.884815 0.465877 0.550553
0.886404 0.467466 0.636287
0.887985 0.469047 0.721583
0.889560 0.470622 0.806513
0.891128 0.472191 0.891128
0.894146 0.559884 0.215125
0.895814 0.561553 0.305111
0.897446 0.563184 0.393134
0.899059 0.564797 0.480121
0.900658 0.566397 0.566397
0.902248 0.567986 0.652130
0.903829 0.569567 0.737427
0.905404 0.571142 0.822357
0.906972 0.572710 0.906972
0.909891 0.659773 0.230870
0.911559 0.661441 0.320855
0.913191 0.663073 0.408878
0.914803 0.664686 0.495865
0.916403 0.666285 0.582141
0.917992 0.667875 0.667875
0.919573 0.669456 0.753171
0.921148 0.671031 0.838102
0.922717 0.672599 0.922717
0.925555 0.759153 0.246534
0.927223 0.760821 0.336519
0.928855 0.762453 0.424543
0.930467 0.764065 0.511529
0.932067 0.765665 0.597805
0.933656 0.767254 0.683539
0.935237 0.768835 0.768835
0.936812 0.770410 0.853766
0.938381 0.771979 0.938381
0.941151 0.858105 0.262131
0.942820 0.859773 0.352116
0.944451 0.861405 0.440139
0.946064 0.863018 0.527126
0.947663 0.864617 0.613402
0.949253 0.866207 0.699136
0.950834 0.867788 0.784432
0.952409 0.869362 0.869362
0.953977 0.870931 0.953977
0.956690 0.956690 0.277669
0.958358 0.958358 0.367655
0.959990 0.959990 0.455678
0.961603 0.961603 0.542665
0.963202 0.963202 0.628941
0.964792 0.964792 0.714674
0.966373 0.966373 0.799971
0.967948 0.967948 0.884901
0.969516 0.969516 0.969516
