skills/editops-orchestrator/assets/grade/luts/vintage_fade_v11.cube
TITLE "vintage_fade_v11"
LUT_3D_SIZE 17
DOMAIN_MIN 0.0 0.0 0.0
DOMAIN_MAX 1.0 1.0 1.0
0.104559 0.104559 0.104559
0.105361 0.105361 0.150982
0.106150 0.106150 0.196664
0.106931 0.106931 0.241903
0.107707 0.107707 0.286824
0.108479 0.108479 0.331499
0.109247 0.109247 0.375971
0.110012 0.110012 0.420272
0.110775 0.110775 0.464425
0.111535 0.111535 0.508446
0.112294 0.112294 0.552351
0.113050 0.113050 0.596150
0.113805 0.113805 0.639853
0.114559 0.114559 0.683467
0.115311 0.115311 0.726999
0.116061 0.116061 0.770454
0.116811 0.116811 0.813839
0.112502 0.158123 0.112502
0.113304 0.158925 0.158925
0.114093 0.159714 0.204607
0.114875 0.160496 0.249846
0.115651 0.161272 0.294768
0.116422 0.162043 0.339442
0.117191 0.162812 0.383915
0.117956 0.163577 0.428216
0.118718 0.164340 0.472368
0.119479 0.165100 0.516390
0.120237 0.165858 0.560295
0.120994 0.166615 0.604094
0.121749 0.167370 0.647796
0.122502 0.168123 0.691410
0.123254 0.168875 0.734942
0.124005 0.169626 0.778398
0.124754 0.170375 0.821782
0.120319 0.210833 0.120319
0.121121 0.211635 0.166742
0.121910 0.212424 0.212424
0.122691 0.213205 0.257663
0.123467 0.213981 0.302585
0.124239 0.214753 0.347259
0.125007 0.215521 0.391731
0.125772 0.216286 0.436032
0.126535 0.217049 0.480185
0.127296 0.217810 0.524207
0.128054 0.218568 0.568111
0.128811 0.219325 0.611911
0.129565 0.220080 0.655613
0.130319 0.220833 0.699227
0.131071 0.221585 0.742759
0.131821 0.222335 0.786215
0.132571 0.223085 0.829599
0.128060 0.263031 0.128060
0.128862 0.263833 0.174483
0.129651 0.264622 0.220165
0.130432 0.265404 0.265404
0.131208 0.266180 0.310325
0.131980 0.266951 0.355000
0.132748 0.267720 0.399472
0.133513 0.268485 0.443773
0.134276 0.269248 0.487926
0.135036 0.270008 0.531948
0.135795 0.270766 0.575852
0.136551 0.271523 0.619651
0.137306 0.272278 0.663354
0.138060 0.273031 0.706968
0.138812 0.273783 0.750500
0.139562 0.274534 0.793956
0.140312 0.275283 0.837340
0.135746 0.314864 0.135746
0.136548 0.315666 0.182169
0.137337 0.316455 0.227851
0.138119 0.317236 0.273090
0.138895 0.318012 0.318012
0.139667 0.318784 0.362687
0.140435 0.319552 0.407159
0.141200 0.320317 0.451460
0.141963 0.321080 0.495612
0.142723 0.321840 0.539634
0.143482 0.322599 0.583539
0.144238 0.323355 0.627338
0.144993 0.324110 0.671041
0.145746 0.324864 0.714655
0.146498 0.325616 0.758187
0.147249 0.326366 0.801642
0.147998 0.327116 0.845027
0.143391 0.366411 0.143391
0.144193 0.367213 0.189814
0.144982 0.368002 0.235496
0.145763 0.368783 0.280735
0.146539 0.369559 0.325656
0.147311 0.370331 0.370331
0.148079 0.371099 0.414803
0.148844 0.371864 0.459104
0.149607 0.372627 0.503257
0.150367 0.373388 0.547279
0.151126 0.374146 0.591183
0.151882 0.374902 0.634982
0.152637 0.375657 0.678685
0.153391 0.376411 0.722299
0.154143 0.377163 0.765831
0.154893 0.377913 0.809287
0.155643 0.378663 0.852671
0.151000 0.417725 0.151000
0.151802 0.418526 0.197424
0.152591 0.419316 0.243105
0.153373 0.420097 0.288344
0.154149 0.420873 0.333266
0.154921 0.421645 0.377941
0.155689 0.422413 0.422413
0.156454 0.423178 0.466714
0.157217 0.423941 0.510866
0.157977 0.424701 0.554888
0.158736 0.425460 0.598793
0.159492 0.426216 0.642592
0.160247 0.426971 0.686295
0.161000 0.427724 0.729909
0.161752 0.428476 0.773441
0.162503 0.429227 0.816896
0.163252 0.429977 0.860281
0.158581 0.468841 0.158581
0.159383 0.469643 0.205004
0.160172 0.470432 0.250686
0.160953 0.471213 0.295925
0.161729 0.471989 0.340847
0.162501 0.472761 0.385521
0.163269 0.473529 0.429993
0.164034 0.474294 0.474294
0.164797 0.475057 0.518447
0.165558 0.475817 0.562469
0.166316 0.476576 0.606373
0.167073 0.477332 0.650173
0.167827 0.478087 0.693875
0.168581 0.478841 0.737489
0.169333 0.479593 0.781021
0.170083 0.480343 0.824477
0.170833 0.481093 0.867861
0.166136 0.519786 0.166136
0.166938 0.520588 0.212559
0.167727 0.521377 0.258241
0.168508 0.522158 0.303480
0.169284 0.522934 0.348402
0.170056 0.523706 0.393076
0.170824 0.524474 0.437548
0.171589 0.525239 0.481849
0.172352 0.526002 0.526002
0.173113 0.526762 0.570024
0.173871 0.527521 0.613929
0.174628 0.528277 0.657728
0.175383 0.529032 0.701430
0.176136 0.529786 0.745044
0.176888 0.530538 0.788576
0.177638 0.531288 0.832032
0.178388 0.532038 0.875416
0.173669 0.570580 0.173669
0.174470 0.571382 0.220092
0.175260 0.572171 0.265774
0.176041 0.572952 0.311013
0.176817 0.573728 0.355934
0.177589 0.574500 0.400609
0.178357 0.575268 0.445081
0.179122 0.576033 0.489382
0.179885 0.576796 0.533535
0.180645 0.577556 0.577556
0.181404 0.578315 0.621461
0.182160 0.579071 0.665260
0.182915 0.579826 0.708963
0.183669 0.580580 0.752577
0.184420 0.581332 0.796109
0.185171 0.582082 0.839564
0.185921 0.582832 0.882949
0.181181 0.621239 0.181181
0.181983 0.622041 0.227604
0.182772 0.622830 0.273286
0.183554 0.623611 0.318525
0.184330 0.624387 0.363447
0.185101 0.625159 0.408121
0.185870 0.625927 0.452594
0.186635 0.626692 0.496895
0.187397 0.627455 0.541047
0.188158 0.628215 0.585069
0.188916 0.628974 0.628974
0.189673 0.629730 0.672773
0.190428 0.630485 0.716476
0.191181 0.631239 0.760089
0.191933 0.631991 0.803621
0.192684 0.632741 0.847077
0.193433 0.633491 0.890461
0.188676 0.671776 0.188676
0.189478 0.672578 0.235099
0.190267 0.673367 0.280781
0.191048 0.674148 0.326020
0.191824 0.674924 0.370941
0.192596 0.675696 0.415616
0.193364 0.676464 0.460088
0.194129 0.677229 0.504389
0.194892 0.677992 0.548542
0.195652 0.678752 0.592563
0.196411 0.679511 0.636468
0.197167 0.680267 0.680267
0.197922 0.681022 0.723970
0.198676 0.681776 0.767584
0.199428 0.682528 0.811116
0.200178 0.683278 0.854572
0.200928 0.684028 0.897956
0.196154 0.722201 0.196154
0.196956 0.723003 0.242577
0.197745 0.723792 0.288259
0.198526 0.724574 0.333498
0.199302 0.725350 0.378419
0.200074 0.726122 0.423094
0.200842 0.726890 0.467566
0.201607 0.727655 0.511867
0.202370 0.728418 0.556020
0.203130 0.729178 0.600042
0.203889 0.729937 0.643946
0.204645 0.730693 0.687745
0.205400 0.731448 0.731448
0.206154 0.732201 0.775062
0.206906 0.732953 0.818594
0.207656 0.733704 0.862050
0.208406 0.734453 0.905434
0.203617 0.772525 0.203617
0.204419 0.773327 0.250040
0.205208 0.774116 0.295722
0.205989 0.774897 0.340961
0.206765 0.775673 0.385882
0.207537 0.776445 0.430557
0.208305 0.777213 0.475029
0.209070 0.777978 0.519330
0.209833 0.778741 0.563483
0.210593 0.779502 0.607504
0.211352 0.780260 0.651409
0.212108 0.781017 0.695208
0.212863 0.781771 0.738911
0.213617 0.782525 0.782525
0.214369 0.783277 0.826057
0.215119 0.784027 0.869512
0.215869 0.784777 0.912897
0.211065 0.822754 0.211065
0.211867 0.823556 0.257488
0.212656 0.824345 0.303170
0.213438 0.825126 0.348409
0.214214 0.825902 0.393331
0.214986 0.826674 0.438006
0.215754 0.827442 0.482478
0.216519 0.828207 0.526779
0.217282 0.828970 0.570931
0.218042 0.829730 0.614953
0.218801 0.830489 0.658858
0.219557 0.831245 0.702657
0.220312 0.832000 0.746360
0.221065 0.832754 0.789974
0.221817 0.833506 0.833506
0.222568 0.834256 0.876961
0.223317 0.835006 0.920346
0.218501 0.872894 0.218501
0.219303 0.873696 0.264924
0.220092 0.874485 0.310606
0.220874 0.875267 0.355845
0.221650 0.876043 0.400767
0.222421 0.876815 0.445441
0.223190 0.877583 0.489914
0.223955 0.878348 0.534215
0.224717 0.879111 0.578367
0.225478 0.879871 0.622389
0.226236 0.880630 0.666294
0.226993 0.881386 0.710093
0.227748 0.882141 0.753796
0.228501 0.882894 0.797409
0.229253 0.883646 0.840941
0.230004 0.884397 0.884397
0.230753 0.885146 0.927781
0.225925 0.922953 0.225925
0.226727 0.923755 0.272348
0.227516 0.924544 0.318030
0.228297 0.925325 0.363269
0.229073 0.926101 0.408190
0.229845 0.926873 0.452865
0.230613 0.927641 0.497337
0.231378 0.928406 0.541638
0.232141 0.929169 0.585791
0.232901 0.929930 0.629813
0.233660 0.930688 0.673717
0.234416 0.931445 0.717516
0.235171 0.932199 0.761219
0.235925 0.932953 0.804833
0.236677 0.933705 0.848365
0.237427 0.934455 0.891821
0.238177 0.935205 0.935205
0.152541 0.106920 0.106920
0.153343 0.107722 0.153343
0.154132 0.108511 0.199025
0.154914 0.109292 0.244264
0.155690 0.110068 0.289186
0.156461 0.110840 0.333860
0.157229 0.111608 0.378332
0.157995 0.112374 0.422633
0.158757 0.113136 0.466786
0.159518 0.113897 0.510808
0.160276 0.114655 0.554713
0.161033 0.115412 0.598512
0.161788 0.116167 0.642214
0.162541 0.116920 0.685828
0.163293 0.117672 0.729360
0.164044 0.118423 0.772816
0.164793 0.119172 0.816200
0.160485 0.160485 0.114863
0.161287 0.161287 0.161287
0.162076 0.162076 0.206968
0.162857 0.162857 0.252207
0.163633 0.163633 0.297129
0.164405 0.164405 0.341804
0.165173 0.165173 0.386276
0.165938 0.165938 0.430577
0.166701 0.166701 0.474729
0.167461 0.167461 0.518751
0.168220 0.168220 0.562656
0.168976 0.168976 0.606455
0.169731 0.169731 0.650158
0.170485 0.170485 0.693772
0.171237 0.171237 0.737304
0.171987 0.171987 0.780759
0.172737 0.172737 0.824144
0.168301 0.213194 0.122680
0.169103 0.213996 0.169103
0.169892 0.214785 0.214785
0.170674 0.215567 0.260024
0.171450 0.216343 0.304946
0.172221 0.217114 0.349620
0.172990 0.217883 0.394093
0.173755 0.218648 0.438394
0.174518 0.219410 0.482546
0.175278 0.220171 0.526568
0.176036 0.220929 0.570473
0.176793 0.221686 0.614272
0.177548 0.222441 0.657975
0.178301 0.223194 0.701588
0.179053 0.223946 0.745120
0.179804 0.224697 0.788576
0.180553 0.225446 0.831960
0.176042 0.265393 0.130421
0.176844 0.266195 0.176844
0.177633 0.266984 0.222526
0.178415 0.267765 0.267765
0.179191 0.268541 0.312687
0.179962 0.269313 0.357361
0.180731 0.270081 0.401833
0.181496 0.270846 0.446134
0.182259 0.271609 0.490287
0.183019 0.272369 0.534309
0.183777 0.273128 0.578214
0.184534 0.273884 0.622013
0.185289 0.274639 0.665715
0.186042 0.275393 0.709329
0.186794 0.276145 0.752861
0.187545 0.276895 0.796317
0.188294 0.277645 0.839701
0.183729 0.317225 0.138108
0.184531 0.318027 0.184531
0.185320 0.318816 0.230213
0.186101 0.319597 0.275452
0.186877 0.320373 0.320373
0.187649 0.321145 0.365048
0.188417 0.321913 0.409520
0.189182 0.322679 0.453821
0.189945 0.323441 0.497974
0.190706 0.324202 0.541995
0.191464 0.324960 0.585900
0.192221 0.325717 0.629699
0.192975 0.326472 0.673402
0.193729 0.327225 0.717016
0.194481 0.327977 0.760548
0.195231 0.328728 0.804004
0.195981 0.329477 0.847388
0.191373 0.368772 0.145752
0.192175 0.369574 0.192175
0.192964 0.370363 0.237857
0.193746 0.371145 0.283096
0.194522 0.371921 0.328018
0.195293 0.372692 0.372692
0.196062 0.373460 0.417164
0.196827 0.374226 0.461465
0.197589 0.374988 0.505618
0.198350 0.375749 0.549640
0.199108 0.376507 0.593545
0.199865 0.377264 0.637344
0.200620 0.378019 0.681046
0.201373 0.378772 0.724660
0.202125 0.379524 0.768192
0.202876 0.380275 0.811648
0.203625 0.381024 0.855032
0.198983 0.420086 0.153362
0.199785 0.420888 0.199785
0.200574 0.421677 0.245467
0.201355 0.422458 0.290706
0.202131 0.423234 0.335627
0.202903 0.424006 0.380302
0.203671 0.424774 0.424774
0.204436 0.425539 0.469075
0.205199 0.426302 0.513228
0.205960 0.427062 0.557250
0.206718 0.427821 0.601154
0.207475 0.428577 0.644953
0.208230 0.429332 0.688656
0.208983 0.430086 0.732270
0.209735 0.430838 0.775802
0.210485 0.431588 0.819258
0.211235 0.432338 0.862642
0.206563 0.471202 0.160942
0.207365 0.472004 0.207365
0.208154 0.472793 0.253047
0.208936 0.473574 0.298286
0.209712 0.474350 0.343208
0.210483 0.475122 0.387882
0.211252 0.475890 0.432355
0.212017 0.476656 0.476656
0.212780 0.477418 0.520808
0.213540 0.478179 0.564830
0.214298 0.478937 0.608735
0.215055 0.479694 0.652534
0.215810 0.480449 0.696236
0.216563 0.481202 0.739850
0.217315 0.481954 0.783382
0.218066 0.482705 0.826838
0.218815 0.483454 0.870222
0.214118 0.522147 0.168497
0.214920 0.522949 0.214920
0.215709 0.523738 0.260602
0.216491 0.524519 0.305841
0.217267 0.525295 0.350763
0.218038 0.526067 0.395437
0.218807 0.526835 0.439910
0.219572 0.527600 0.484211
0.220335 0.528363 0.528363
0.221095 0.529124 0.572385
0.221853 0.529882 0.616290
0.222610 0.530639 0.660089
0.223365 0.531393 0.703792
0.224118 0.532147 0.747405
0.224870 0.532899 0.790937
0.225621 0.533649 0.834393
0.226370 0.534399 0.877777
0.221651 0.572941 0.176030
0.222453 0.573743 0.222453
0.223242 0.574532 0.268135
0.224023 0.575313 0.313374
0.224799 0.576089 0.358295
0.225571 0.576861 0.402970
0.226339 0.577629 0.447442
0.227105 0.578394 0.491743
0.227867 0.579157 0.535896
0.228628 0.579918 0.579918
0.229386 0.580676 0.623822
0.230143 0.581433 0.667622
0.230898 0.582188 0.711324
0.231651 0.582941 0.754938
0.232403 0.583693 0.798470
0.233154 0.584443 0.841926
0.233903 0.585193 0.885310
0.229164 0.623600 0.183542
0.229966 0.624402 0.229966
0.230755 0.625191 0.275647
0.231536 0.625972 0.320886
0.232312 0.626748 0.365808
0.233084 0.627520 0.410483
0.233852 0.628288 0.454955
0.234617 0.629054 0.499256
0.235380 0.629816 0.543408
0.236140 0.630577 0.587430
0.236899 0.631335 0.631335
0.237655 0.632092 0.675134
0.238410 0.632847 0.718837
0.239164 0.633600 0.762451
0.239916 0.634352 0.805983
0.240666 0.635103 0.849438
0.241416 0.635852 0.892823
0.236658 0.674137 0.191037
0.237460 0.674939 0.237460
0.238249 0.675728 0.283142
0.239031 0.676509 0.328381
0.239807 0.677285 0.373303
0.240578 0.678057 0.417977
0.241346 0.678825 0.462449
0.242112 0.679591 0.506750
0.242874 0.680353 0.550903
0.243635 0.681114 0.594925
0.244393 0.681872 0.638830
0.245150 0.682629 0.682629
0.245905 0.683384 0.726331
0.246658 0.684137 0.769945
0.247410 0.684889 0.813477
0.248161 0.685640 0.856933
0.248910 0.686389 0.900317
0.244136 0.724563 0.198515
0.244938 0.725365 0.244938
0.245727 0.726154 0.290620
0.246509 0.726935 0.335859
0.247285 0.727711 0.380781
0.248056 0.728483 0.425455
0.248825 0.729251 0.469927
0.249590 0.730016 0.514228
0.250352 0.730779 0.558381
0.251113 0.731539 0.602403
0.251871 0.732298 0.646308
0.252628 0.733054 0.690107
0.253383 0.733809 0.733809
0.254136 0.734563 0.777423
0.254888 0.735315 0.820955
0.255639 0.736065 0.864411
0.256388 0.736815 0.907795
0.251599 0.774886 0.205978
0.252401 0.775688 0.252401
0.253190 0.776477 0.298083
0.253972 0.777259 0.343322
0.254747 0.778035 0.388244
0.255519 0.778806 0.432918
0.256287 0.779575 0.477390
0.257053 0.780340 0.521691
0.257815 0.781102 0.565844
0.258576 0.781863 0.609866
0.259334 0.782621 0.653770
0.260091 0.783378 0.697570
0.260846 0.784133 0.741272
0.261599 0.784886 0.784886
0.262351 0.785638 0.828418
0.263102 0.786389 0.871874
0.263851 0.787138 0.915258
0.259048 0.825115 0.213427
0.259850 0.825917 0.259850
0.260639 0.826706 0.305532
0.261420 0.827487 0.350771
0.262196 0.828263 0.395692
0.262968 0.829035 0.440367
0.263736 0.829803 0.484839
0.264501 0.830569 0.529140
0.265264 0.831331 0.573293
0.266025 0.832092 0.617314
0.266783 0.832850 0.661219
0.267540 0.833607 0.705018
0.268294 0.834362 0.748721
0.269048 0.835115 0.792335
0.269800 0.835867 0.835867
0.270550 0.836618 0.879323
0.271300 0.837367 0.922707
0.266484 0.875256 0.220862
0.267286 0.876058 0.267286
0.268075 0.876847 0.312967
0.268856 0.877628 0.358206
0.269632 0.878404 0.403128
0.270404 0.879176 0.447803
0.271172 0.879944 0.492275
0.271937 0.880709 0.536576
0.272700 0.881472 0.580728
0.273460 0.882232 0.624750
0.274219 0.882991 0.668655
0.274975 0.883747 0.712454
0.275730 0.884502 0.756157
0.276484 0.885256 0.799771
0.277236 0.886008 0.843303
0.277986 0.886758 0.886758
0.278736 0.887508 0.930143
0.273907 0.925314 0.228286
0.274709 0.926116 0.274709
0.275498 0.926905 0.320391
0.276280 0.927687 0.365630
0.277056 0.928463 0.410552
0.277827 0.929234 0.455226
0.278596 0.930002 0.499698
0.279361 0.930768 0.543999
0.280123 0.931530 0.588152
0.280884 0.932291 0.632174
0.281642 0.933049 0.676079
0.282399 0.933806 0.719878
0.283154 0.934561 0.763580
0.283907 0.935314 0.807194
0.284659 0.936066 0.850726
0.285410 0.936817 0.894182
0.286159 0.937566 0.937566
0.199758 0.109244 0.109244
0.200559 0.110045 0.155667
0.201349 0.110835 0.201349
0.202130 0.111616 0.246587
0.202906 0.112392 0.291509
0.203678 0.113164 0.336184
0.204446 0.113932 0.380656
0.205211 0.114697 0.424957
0.205974 0.115460 0.469109
0.206734 0.116220 0.513131
0.207493 0.116979 0.557036
0.208249 0.117735 0.600835
0.209004 0.118490 0.644538
0.209758 0.119244 0.688152
0.210509 0.119995 0.731684
0.211260 0.120746 0.775139
0.212010 0.121496 0.818524
0.207701 0.162808 0.117187
0.208503 0.163610 0.163610
0.209292 0.164399 0.209292
0.210074 0.165181 0.254531
0.210850 0.165957 0.299453
0.211621 0.166728 0.344127
0.212389 0.167497 0.388599
0.213155 0.168262 0.432900
0.213917 0.169024 0.477053
0.214678 0.169785 0.521075
0.215436 0.170543 0.564980
0.216193 0.171300 0.608779
0.216948 0.172055 0.652481
0.217701 0.172808 0.696095
0.218453 0.173560 0.739627
0.219204 0.174311 0.783083
0.219953 0.175060 0.826467
0.215518 0.215518 0.125004
0.216320 0.216320 0.171427
0.217109 0.217109 0.217109
0.217890 0.217890 0.262348
0.218666 0.218666 0.307269
0.219438 0.219438 0.351944
0.220206 0.220206 0.396416
0.220971 0.220971 0.440717
0.221734 0.221734 0.484870
0.222494 0.222494 0.528892
0.223253 0.223253 0.572796
0.224009 0.224009 0.616595
0.224764 0.224764 0.660298
0.225518 0.225518 0.703912
0.226270 0.226270 0.747444
0.227020 0.227020 0.790900
0.227770 0.227770 0.834284
0.223259 0.267716 0.132745
0.224061 0.268518 0.179168
0.224850 0.269307 0.224850
0.225631 0.270089 0.270089
0.226407 0.270865 0.315010
0.227179 0.271636 0.359685
0.227947 0.272405 0.404157
0.228712 0.273170 0.448458
0.229475 0.273932 0.492611
0.230235 0.274693 0.536632
0.230994 0.275451 0.580537
0.231750 0.276208 0.624336
0.232505 0.276963 0.668039
0.233259 0.277716 0.711653
0.234011 0.278468 0.755185
0.234761 0.279219 0.798640
0.235511 0.279968 0.842025
0.230945 0.319549 0.140431
0.231747 0.320350 0.186854
0.232536 0.321140 0.232536
0.233318 0.321921 0.277775
0.234094 0.322697 0.322697
0.234865 0.323469 0.367371
0.235634 0.324237 0.411844
0.236399 0.325002 0.456145
0.237162 0.325765 0.500297
0.237922 0.326525 0.544319
0.238680 0.327284 0.588224
0.239437 0.328040 0.632023
0.240192 0.328795 0.675726
0.240945 0.329549 0.719340
0.241697 0.330300 0.762872
0.242448 0.331051 0.806327
0.243197 0.331801 0.849711
0.238590 0.371096 0.148076
0.239392 0.371898 0.194499
0.240181 0.372687 0.240181
0.240962 0.373468 0.285420
0.241738 0.374244 0.330341
0.242510 0.375016 0.375016
0.243278 0.375784 0.419488
0.244043 0.376549 0.463789
0.244806 0.377312 0.507942
0.245566 0.378072 0.551963
0.246325 0.378831 0.595868
0.247081 0.379587 0.639667
0.247836 0.380342 0.683370
0.248590 0.381096 0.726984
0.249342 0.381848 0.770516
0.250092 0.382598 0.813971
0.250842 0.383348 0.857356
0.246199 0.422409 0.155685
0.247001 0.423211 0.202108
0.247790 0.424000 0.247790
0.248572 0.424782 0.293029
0.249348 0.425558 0.337951
0.250119 0.426330 0.382626
0.250888 0.427098 0.427098
0.251653 0.427863 0.471399
0.252416 0.428626 0.515551
0.253176 0.429386 0.559573
0.253934 0.430144 0.603478
0.254691 0.430901 0.647277
0.255446 0.431656 0.690980
0.256199 0.432409 0.734594
0.256951 0.433161 0.778126
0.257702 0.433912 0.821581
0.258451 0.434661 0.864965
0.253780 0.473526 0.163266
0.254582 0.474327 0.209689
0.255371 0.475117 0.255371
0.256152 0.475898 0.300610
0.256928 0.476674 0.345531
0.257700 0.477446 0.390206
0.258468 0.478214 0.434678
0.259233 0.478979 0.478979
0.259996 0.479742 0.523132
0.260756 0.480502 0.567154
0.261515 0.481261 0.611058
0.262271 0.482017 0.654857
0.263026 0.482772 0.698560
0.263780 0.483525 0.742174
0.264532 0.484277 0.785706
0.265282 0.485028 0.829162
0.266032 0.485778 0.872546
0.261335 0.524470 0.170821
0.262137 0.525272 0.217244
0.262926 0.526061 0.262926
0.263707 0.526843 0.308165
0.264483 0.527619 0.353086
0.265255 0.528391 0.397761
0.266023 0.529159 0.442233
0.266788 0.529924 0.486534
0.267551 0.530687 0.530687
0.268312 0.531447 0.574709
0.269070 0.532206 0.618613
0.269826 0.532962 0.662412
0.270581 0.533717 0.706115
0.271335 0.534470 0.749729
0.272087 0.535222 0.793261
0.272837 0.535973 0.836717
0.273587 0.536722 0.880101
0.268867 0.575264 0.178353
0.269669 0.576066 0.224776
0.270458 0.576856 0.270458
0.271240 0.577637 0.315697
0.272016 0.578413 0.360619
0.272788 0.579185 0.405294
0.273556 0.579953 0.449766
0.274321 0.580718 0.494067
0.275084 0.581481 0.538219
0.275844 0.582241 0.582241
0.276603 0.583000 0.626146
0.277359 0.583756 0.669945
0.278114 0.584511 0.713648
0.278867 0.585264 0.757262
0.279619 0.586016 0.800794
0.280370 0.586767 0.844249
0.281119 0.587517 0.887634
0.276380 0.625924 0.185866
0.277182 0.626725 0.232289
0.277971 0.627515 0.277971
0.278753 0.628296 0.323210
0.279529 0.629072 0.368132
0.280300 0.629844 0.412806
0.281068 0.630612 0.457278
0.281834 0.631377 0.501579
0.282596 0.632140 0.545732
0.283357 0.632900 0.589754
0.284115 0.633659 0.633659
0.284872 0.634415 0.677458
0.285627 0.635170 0.721160
0.286380 0.635924 0.764774
0.287132 0.636676 0.808306
0.287883 0.637426 0.851762
0.288632 0.638176 0.895146
0.283875 0.676461 0.193361
0.284677 0.677263 0.239784
0.285466 0.678052 0.285466
0.286247 0.678833 0.330705
0.287023 0.679609 0.375626
0.287795 0.680381 0.420301
0.288563 0.681149 0.464773
0.289328 0.681914 0.509074
0.290091 0.682677 0.553227
0.290851 0.683437 0.597248
0.291610 0.684196 0.641153
0.292366 0.684952 0.684952
0.293121 0.685707 0.728655
0.293875 0.686461 0.772269
0.294627 0.687213 0.815801
0.295377 0.687963 0.859256
0.296127 0.688713 0.902641
0.291353 0.726886 0.200839
0.292155 0.727688 0.247262
0.292944 0.728477 0.292944
0.293725 0.729259 0.338183
0.294501 0.730035 0.383104
0.295273 0.730806 0.427779
0.296041 0.731575 0.472251
0.296806 0.732340 0.516552
0.297569 0.733103 0.560705
0.298329 0.733863 0.604726
0.299088 0.734621 0.648631
0.299844 0.735378 0.692430
0.300599 0.736133 0.736133
0.301353 0.736886 0.779747
0.302105 0.737638 0.823279
0.302855 0.738389 0.866734
0.303605 0.739138 0.910119
0.298815 0.777210 0.208301
0.299617 0.778012 0.254725
0.300407 0.778801 0.300407
0.301188 0.779582 0.345645
0.301964 0.780358 0.390567
0.302736 0.781130 0.435242
0.303504 0.781898 0.479714
0.304269 0.782663 0.524015
0.305032 0.783426 0.568167
0.305792 0.784186 0.612189
0.306551 0.784945 0.656094
0.307307 0.785701 0.699893
0.308062 0.786456 0.743596
0.308815 0.787210 0.787210
0.309567 0.787962 0.830742
0.310318 0.788712 0.874197
0.311068 0.789462 0.917582
0.306264 0.827439 0.215750
0.307066 0.828240 0.262173
0.307855 0.829030 0.307855
0.308637 0.829811 0.353094
0.309413 0.830587 0.398016
0.310184 0.831359 0.442690
0.310953 0.832127 0.487163
0.311718 0.832892 0.531464
0.312481 0.833655 0.575616
0.313241 0.834415 0.619638
0.313999 0.835174 0.663543
0.314756 0.835930 0.707342
0.315511 0.836685 0.751045
0.316264 0.837439 0.794659
0.317016 0.838191 0.838191
0.317767 0.838941 0.881646
0.318516 0.839691 0.925030
0.313700 0.877579 0.223186
0.314502 0.878381 0.269609
0.315291 0.879170 0.315291
0.316073 0.879952 0.360530
0.316849 0.880728 0.405452
0.317620 0.881499 0.450126
0.318388 0.882268 0.494598
0.319154 0.883033 0.538899
0.319916 0.883796 0.583052
0.320677 0.884556 0.627074
0.321435 0.885314 0.670979
0.322192 0.886071 0.714778
0.322947 0.886826 0.758480
0.323700 0.887579 0.802094
0.324452 0.888331 0.845626
0.325203 0.889082 0.889082
0.325952 0.889831 0.932466
0.321124 0.927638 0.230610
0.321926 0.928440 0.277033
0.322715 0.929229 0.322715
0.323496 0.930010 0.367954
0.324272 0.930786 0.412875
0.325044 0.931558 0.457550
0.325812 0.932326 0.502022
0.326577 0.933091 0.546323
0.327340 0.933854 0.590476
0.328100 0.934614 0.634497
0.328859 0.935373 0.678402
0.329615 0.936129 0.722201
0.330370 0.936884 0.765904
0.331124 0.937638 0.809518
0.331876 0.938390 0.853050
0.332626 0.939140 0.896505
0.333376 0.939890 0.939890
0.246516 0.111545 0.111545
0.247318 0.112346 0.157968
0.248107 0.113136 0.203650
0.248889 0.113917 0.248889
0.249665 0.114693 0.293810
0.250436 0.115465 0.338485
0.251204 0.116233 0.382957
0.251970 0.116998 0.427258
0.252732 0.117761 0.471411
0.253493 0.118521 0.515432
0.254251 0.119280 0.559337
0.255008 0.120036 0.603136
0.255763 0.120791 0.646839
0.256516 0.121545 0.690453
0.257268 0.122297 0.733985
0.258019 0.123047 0.777440
0.258768 0.123797 0.820825
0.254460 0.165109 0.119488
