skills/editops-orchestrator/assets/grade/luts/vintage_fade_v11.cube
TITLE "vintage_fade_v11"
LUT_3D_SIZE 5
DOMAIN_MIN 0.0 0.0 0.0
DOMAIN_MAX 1.0 1.0 1.0
0.104559 0.104559 0.104559
0.107707 0.107707 0.286824
0.110775 0.110775 0.464425
0.113805 0.113805 0.639853
0.116811 0.116811 0.813839
0.135746 0.314864 0.135746
0.138895 0.318012 0.318012
0.141963 0.321080 0.495612
0.144993 0.324110 0.671041
0.147998 0.327116 0.845027
0.166136 0.519786 0.166136
0.169284 0.522934 0.348402
0.172352 0.526002 0.526002
0.175383 0.529032 0.701430
0.178388 0.532038 0.875416
0.196154 0.722201 0.196154
0.199302 0.725350 0.378419
0.202370 0.728418 0.556020
0.205400 0.731448 0.731448
0.208406 0.734453 0.905434
0.225925 0.922953 0.225925
0.229073 0.926101 0.408190
0.232141 0.929169 0.585791
0.235171 0.932199 0.761219
0.238177 0.935205 0.935205
0.292947 0.113830 0.113830
0.296095 0.116978 0.296095
0.299163 0.120046 0.473695
0.302193 0.123076 0.649124
0.305199 0.126082 0.823110
0.324135 0.324135 0.145017
0.327283 0.327283 0.327283
0.330351 0.330351 0.504883
0.333381 0.333381 0.680312
0.336387 0.336387 0.854297
0.354524 0.529056 0.175407
0.357672 0.532205 0.357672
0.360740 0.535273 0.535273
0.363771 0.538303 0.710701
0.366776 0.541308 0.884687
0.384542 0.731472 0.205425
0.387690 0.734621 0.387690
0.390758 0.737689 0.565291
0.393788 0.740719 0.740719
0.396794 0.743724 0.914705
0.414313 0.932224 0.235196
0.417461 0.935372 0.417461
0.420529 0.938440 0.595062
0.423559 0.941470 0.770490
0.426565 0.944476 0.944476
0.476513 0.122863 0.122863
0.479661 0.126012 0.305129
0.482729 0.129079 0.482729
0.485759 0.132110 0.658157
0.488765 0.135115 0.832143
0.507701 0.333168 0.154051
0.510849 0.336317 0.336317
0.513917 0.339384 0.513917
0.516947 0.342415 0.689345
0.519953 0.345420 0.863331
0.538090 0.538090 0.184440
0.541238 0.541238 0.366706
0.544306 0.544306 0.544306
0.547337 0.547337 0.719735
0.550342 0.550342 0.893720
0.568108 0.740506 0.214458
0.571256 0.743654 0.396724
0.574324 0.746722 0.574324
0.577354 0.749752 0.749752
0.580360 0.752758 0.923738
0.597879 0.941257 0.244229
0.601027 0.944406 0.426495
0.604095 0.947474 0.604095
0.607125 0.950504 0.779523
0.610131 0.953509 0.953509
0.657834 0.131786 0.131786
0.660982 0.134935 0.314052
0.664050 0.138002 0.491652
0.667080 0.141033 0.667080
0.670086 0.144038 0.841066
0.689022 0.342091 0.162974
0.692170 0.345240 0.345240
0.695238 0.348307 0.522840
0.698268 0.351338 0.698268
0.701274 0.354343 0.872254
0.719411 0.547013 0.193363
0.722560 0.550162 0.375629
0.725627 0.553229 0.553229
0.728658 0.556260 0.728658
0.731663 0.559265 0.902644
0.749429 0.749429 0.223381
0.752577 0.752577 0.405647
0.755645 0.755645 0.583247
0.758676 0.758676 0.758676
0.761681 0.761681 0.932661
0.779200 0.950180 0.253152
0.782348 0.953329 0.435418
0.785416 0.956397 0.613018
0.788447 0.959427 0.788447
0.791452 0.962432 0.962432
0.837664 0.140636 0.140636
0.840812 0.143784 0.322902
0.843880 0.146852 0.500502
0.846911 0.149882 0.675930
0.849916 0.152888 0.849916
0.868852 0.350941 0.171824
0.872000 0.354089 0.354089
0.875068 0.357157 0.531690
0.878098 0.360187 0.707118
0.881104 0.363193 0.881104
0.899241 0.555863 0.202213
0.902390 0.559011 0.384479
0.905458 0.562079 0.562079
0.908488 0.565109 0.737507
0.911493 0.568115 0.911493
0.929259 0.758279 0.232231
0.932407 0.761427 0.414497
0.935475 0.764495 0.592097
0.938506 0.767525 0.767525
0.941511 0.770531 0.941511
0.959030 0.959030 0.262002
0.962178 0.962178 0.444268
0.965246 0.965246 0.621868
0.968277 0.968277 0.797296
0.971282 0.971282 0.971282
