skills/editops-orchestrator/assets/grade/luts/warm_skin_v10.cube
TITLE "warm_skin_v10"
LUT_3D_SIZE 9
DOMAIN_MIN 0.0 0.0 0.0
DOMAIN_MAX 1.0 1.0 1.0
0.033057 0.000000 0.000000
0.032937 0.000000 0.094897
0.032768 0.000000 0.227247
0.032603 0.000000 0.357587
0.032439 0.000000 0.486732
0.032276 0.000000 0.615022
0.032113 0.000000 0.742647
0.031952 0.000000 0.869727
0.031791 0.000000 0.996346
0.031405 0.129649 0.000000
0.031284 0.129529 0.093244
0.031116 0.129360 0.225594
0.030950 0.129195 0.355935
0.030786 0.129031 0.485080
0.030623 0.128868 0.613370
0.030461 0.128705 0.740994
0.030299 0.128544 0.868074
0.030139 0.128383 0.994693
0.029747 0.259818 0.000000
0.029627 0.259697 0.091587
0.029458 0.259529 0.223937
0.029293 0.259363 0.354277
0.029129 0.259199 0.483422
0.028966 0.259036 0.611712
0.028803 0.258874 0.739337
0.028642 0.258712 0.866417
0.028481 0.258551 0.993036
0.028111 0.388313 0.000000
0.027990 0.388192 0.089950
0.027822 0.388024 0.222301
0.027657 0.387859 0.352641
0.027493 0.387694 0.481786
0.027329 0.387531 0.610076
0.027167 0.387369 0.737700
0.027006 0.387208 0.864780
0.026845 0.387047 0.991400
0.026489 0.515742 0.000000
0.026368 0.515621 0.088328
0.026200 0.515453 0.220678
0.026034 0.515288 0.351018
0.025870 0.515123 0.480163
0.025707 0.514960 0.608453
0.025545 0.514798 0.736078
0.025383 0.514637 0.863158
0.025222 0.514476 0.989777
0.024876 0.642387 0.000000
0.024755 0.642266 0.086715
0.024587 0.642098 0.219065
0.024421 0.641932 0.349406
0.024257 0.641768 0.478551
0.024094 0.641605 0.606841
0.023932 0.641443 0.734465
0.023771 0.641281 0.861545
0.023610 0.641120 0.988165
0.023271 0.768411 0.000000
0.023151 0.768290 0.085111
0.022982 0.768122 0.217461
0.022817 0.767956 0.347801
0.022653 0.767792 0.476946
0.022490 0.767629 0.605236
0.022327 0.767467 0.732861
0.022166 0.767305 0.859941
0.022005 0.767144 0.986560
0.021673 0.893921 0.000000
0.021552 0.893801 0.083512
0.021384 0.893632 0.215862
0.021219 0.893467 0.346203
0.021054 0.893303 0.475348
0.020891 0.893140 0.603638
0.020729 0.892977 0.731262
0.020568 0.892816 0.858342
0.020407 0.892655 0.984962
0.020259 1.000000 0.000000
0.020138 1.000000 0.082098
0.019970 1.000000 0.214448
0.019804 1.000000 0.344789
0.019640 1.000000 0.473934
0.019477 1.000000 0.602224
0.019315 1.000000 0.729848
0.019154 1.000000 0.856928
0.018993 1.000000 0.983548
0.166834 0.000000 0.000000
0.166713 0.000000 0.094395
0.166545 0.000000 0.226745
0.166380 0.000000 0.357085
0.166215 0.000000 0.486230
0.166052 0.000000 0.614520
0.165890 0.000000 0.742145
0.165729 0.000000 0.869225
0.165568 0.000000 0.995844
0.165182 0.129147 0.000000
0.165061 0.129027 0.092742
0.164893 0.128858 0.225092
0.164727 0.128693 0.355433
0.164563 0.128529 0.484578
0.164400 0.128366 0.612868
0.164238 0.128203 0.740492
0.164076 0.128042 0.867572
0.163915 0.127881 0.994192
0.163524 0.259316 0.000000
0.163403 0.259195 0.091085
0.163235 0.259027 0.223435
0.163070 0.258861 0.353775
0.162906 0.258697 0.482920
0.162742 0.258534 0.611210
0.162580 0.258372 0.738835
0.162419 0.258210 0.865915
0.162258 0.258049 0.992534
0.161888 0.387811 0.000000
0.161767 0.387691 0.089449
0.161599 0.387522 0.221799
0.161433 0.387357 0.352139
0.161269 0.387193 0.481284
0.161106 0.387029 0.609574
0.160944 0.386867 0.737199
0.160783 0.386706 0.864279
0.160622 0.386545 0.990898
0.160265 0.515240 0.000000
0.160145 0.515120 0.087826
0.159976 0.514951 0.220176
0.159811 0.514786 0.350517
0.159647 0.514622 0.479661
0.159484 0.514458 0.607951
0.159321 0.514296 0.735576
0.159160 0.514135 0.862656
0.158999 0.513974 0.989275
0.158653 0.641885 0.000000
0.158532 0.641764 0.086213
0.158364 0.641596 0.218563
0.158198 0.641430 0.348904
0.158034 0.641266 0.478049
0.157871 0.641103 0.606339
0.157709 0.640941 0.733963
0.157547 0.640779 0.861043
0.157386 0.640618 0.987663
0.157048 0.767909 0.000000
0.156927 0.767788 0.084609
0.156759 0.767620 0.216959
0.156594 0.767454 0.347299
0.156429 0.767290 0.476444
0.156266 0.767127 0.604734
0.156104 0.766965 0.732359
0.155943 0.766803 0.859439
0.155782 0.766642 0.986058
0.155450 0.893420 0.000000
0.155329 0.893299 0.083010
0.155161 0.893131 0.215361
0.154995 0.892965 0.345701
0.154831 0.892801 0.474846
0.154668 0.892638 0.603136
0.154506 0.892476 0.730760
0.154344 0.892314 0.857840
0.154184 0.892153 0.984460
0.154036 1.000000 0.000000
0.153915 1.000000 0.081596
0.153747 1.000000 0.213947
0.153581 1.000000 0.344287
0.153417 1.000000 0.473432
0.153254 1.000000 0.601722
0.153092 1.000000 0.729346
0.152930 1.000000 0.856426
0.152769 1.000000 0.983046
0.297608 0.000000 0.000000
0.297487 0.000000 0.093904
0.297319 0.000000 0.226254
0.297153 0.000000 0.356595
0.296989 0.000000 0.485740
0.296826 0.000000 0.614030
0.296664 0.000000 0.741654
0.296502 0.000000 0.868734
0.296341 0.000000 0.995353
0.295955 0.128657 0.000000
0.295835 0.128536 0.092252
0.295666 0.128368 0.224602
0.295501 0.128202 0.354942
0.295337 0.128038 0.484087
0.295174 0.127875 0.612377
0.295011 0.127713 0.740002
0.294850 0.127551 0.867082
0.294689 0.127390 0.993701
0.294298 0.258825 0.000000
0.294177 0.258704 0.090594
0.294009 0.258536 0.222944
0.293843 0.258371 0.353285
0.293679 0.258207 0.482430
0.293516 0.258043 0.610720
0.293354 0.257881 0.738344
0.293192 0.257720 0.865424
0.293031 0.257559 0.992044
0.292662 0.387321 0.000000
0.292541 0.387200 0.088958
0.292373 0.387032 0.221308
0.292207 0.386866 0.351649
0.292043 0.386702 0.480793
0.291880 0.386539 0.609083
0.291718 0.386377 0.736708
0.291556 0.386215 0.863788
0.291395 0.386054 0.990407
0.291039 0.514750 0.000000
0.290918 0.514629 0.087335
0.290750 0.514461 0.219685
0.290585 0.514295 0.350026
0.290420 0.514131 0.479171
0.290257 0.513968 0.607461
0.290095 0.513806 0.735085
0.289934 0.513644 0.862165
0.289773 0.513483 0.988785
0.289426 0.641394 0.000000
0.289306 0.641273 0.085723
0.289138 0.641105 0.218073
0.288972 0.640939 0.348413
0.288808 0.640775 0.477558
0.288645 0.640612 0.605848
0.288483 0.640450 0.733473
0.288321 0.640289 0.860553
0.288160 0.640128 0.987172
0.287822 0.767418 0.000000
0.287701 0.767297 0.084118
0.287533 0.767129 0.216468
0.287367 0.766963 0.346809
0.287203 0.766799 0.475953
0.287040 0.766636 0.604243
0.286878 0.766474 0.731868
0.286716 0.766313 0.858948
0.286555 0.766152 0.985567
0.286224 0.892929 0.000000
0.286103 0.892808 0.082520
0.285935 0.892640 0.214870
0.285769 0.892474 0.345210
0.285605 0.892310 0.474355
0.285442 0.892147 0.602645
0.285280 0.891985 0.730270
0.285118 0.891823 0.857350
0.284957 0.891663 0.983969
0.284810 1.000000 0.000000
0.284689 1.000000 0.081106
0.284521 1.000000 0.213456
0.284355 1.000000 0.343796
0.284191 1.000000 0.472941
0.284028 1.000000 0.601231
0.283866 1.000000 0.728856
0.283704 1.000000 0.855936
0.283543 1.000000 0.982555
0.426921 0.000000 0.000000
0.426800 0.000000 0.093419
0.426632 0.000000 0.225769
0.426466 0.000000 0.356110
0.426302 0.000000 0.485254
0.426139 0.000000 0.613544
0.425977 0.000000 0.741169
0.425816 0.000000 0.868249
0.425655 0.000000 0.994868
0.425269 0.128172 0.000000
0.425148 0.128051 0.091767
0.424980 0.127883 0.224117
0.424814 0.127717 0.354457
0.424650 0.127553 0.483602
0.424487 0.127390 0.611892
0.424325 0.127228 0.739517
0.424163 0.127066 0.866597
0.424002 0.126905 0.993216
0.423611 0.258340 0.000000
0.423490 0.258219 0.090109
0.423322 0.258051 0.222459
0.423156 0.257886 0.352800
0.422992 0.257721 0.481944
0.422829 0.257558 0.610234
0.422667 0.257396 0.737859
0.422506 0.257235 0.864939
0.422345 0.257074 0.991558
0.421975 0.386836 0.000000
0.421854 0.386715 0.088473
0.421686 0.386547 0.220823
0.421520 0.386381 0.351163
0.421356 0.386217 0.480308
0.421193 0.386054 0.608598
0.421031 0.385892 0.736223
0.420869 0.385730 0.863303
0.420708 0.385569 0.989922
0.420352 0.514265 0.000000
0.420232 0.514144 0.086850
0.420063 0.513976 0.219200
0.419898 0.513810 0.349541
0.419734 0.513646 0.478686
0.419570 0.513483 0.606976
0.419408 0.513321 0.734600
0.419247 0.513159 0.861680
0.419086 0.512998 0.988300
0.418740 0.640909 0.000000
0.418619 0.640788 0.085238
0.418451 0.640620 0.217588
0.418285 0.640454 0.347928
0.418121 0.640290 0.477073
0.417958 0.640127 0.605363
0.417796 0.639965 0.732988
0.417634 0.639803 0.860068
0.417473 0.639643 0.986687
0.417135 0.766933 0.000000
0.417014 0.766812 0.083633
0.416846 0.766644 0.215983
0.416680 0.766478 0.346324
0.416516 0.766314 0.475468
0.416353 0.766151 0.603758
0.416191 0.765989 0.731383
0.416029 0.765827 0.858463
0.415869 0.765666 0.985082
0.415537 0.892444 0.000000
0.415416 0.892323 0.082035
0.415248 0.892155 0.214385
0.415082 0.891989 0.344725
0.414918 0.891825 0.473870
0.414755 0.891662 0.602160
0.414593 0.891500 0.729785
0.414431 0.891338 0.856865
0.414270 0.891177 0.983484
0.414123 1.000000 0.000000
0.414002 1.000000 0.080621
0.413834 1.000000 0.212971
0.413668 1.000000 0.343311
0.413504 1.000000 0.472456
0.413341 1.000000 0.600746
0.413179 1.000000 0.728371
0.413017 1.000000 0.855451
0.412856 1.000000 0.982070
0.555254 0.000000 0.000000
0.555133 0.000000 0.092938
0.554965 0.000000 0.225288
0.554799 0.000000 0.355628
0.554635 0.000000 0.484773
0.554472 0.000000 0.613063
0.554310 0.000000 0.740688
0.554148 0.000000 0.867768
0.553988 0.000000 0.994387
0.553601 0.127690 0.000000
0.553481 0.127570 0.091285
0.553313 0.127401 0.223635
0.553147 0.127236 0.353976
0.552983 0.127072 0.483121
0.552820 0.126908 0.611411
0.552657 0.126746 0.739035
0.552496 0.126585 0.866115
0.552335 0.126424 0.992734
0.551944 0.257859 0.000000
0.551823 0.257738 0.089628
0.551655 0.257570 0.221978
0.551489 0.257404 0.352318
0.551325 0.257240 0.481463
0.551162 0.257077 0.609753
0.551000 0.256915 0.737378
0.550838 0.256753 0.864458
0.550678 0.256592 0.991077
0.550308 0.386354 0.000000
0.550187 0.386233 0.087991
0.550019 0.386065 0.220342
0.549853 0.385899 0.350682
0.549689 0.385735 0.479827
0.549526 0.385572 0.608117
0.549364 0.385410 0.735741
0.549202 0.385249 0.862821
0.549041 0.385088 0.989441
0.548685 0.513783 0.000000
0.548564 0.513662 0.086369
0.548396 0.513494 0.218719
0.548231 0.513328 0.349059
0.548066 0.513164 0.478204
0.547903 0.513001 0.606494
0.547741 0.512839 0.734119
0.547580 0.512678 0.861199
0.547419 0.512517 0.987818
0.547073 0.640428 0.000000
0.546952 0.640307 0.084756
0.546784 0.640139 0.217106
0.546618 0.639973 0.347447
0.546454 0.639809 0.476592
0.546291 0.639646 0.604882
0.546129 0.639484 0.732506
0.545967 0.639322 0.859586
0.545806 0.639161 0.986206
0.545468 0.766451 0.000000
0.545347 0.766331 0.083151
0.545179 0.766162 0.215502
0.545013 0.765997 0.345842
0.544849 0.765833 0.474987
0.544686 0.765670 0.603277
0.544524 0.765507 0.730901
0.544362 0.765346 0.857981
0.544201 0.765185 0.984601
0.543870 0.891962 0.000000
0.543749 0.891842 0.081553
0.543581 0.891673 0.213903
0.543415 0.891508 0.344244
0.543251 0.891344 0.473389
0.543088 0.891181 0.601679
0.542926 0.891018 0.729303
0.542764 0.890857 0.856383
0.542603 0.890696 0.983003
0.542456 1.000000 0.000000
0.542335 1.000000 0.080139
0.542167 1.000000 0.212489
0.542001 1.000000 0.342830
0.541837 1.000000 0.471975
0.541674 1.000000 0.600265
0.541512 1.000000 0.727889
0.541350 1.000000 0.854969
0.541189 1.000000 0.981589
0.682848 0.000000 0.000000
0.682728 0.000000 0.092459
0.682559 0.000000 0.224809
0.682394 0.000000 0.355149
0.682230 0.000000 0.484294
0.682067 0.000000 0.612584
0.681904 0.000000 0.740209
0.681743 0.000000 0.867289
0.681582 0.000000 0.993908
0.681196 0.127212 0.000000
0.681075 0.127091 0.090806
0.680907 0.126923 0.223156
0.680741 0.126757 0.353497
0.680577 0.126593 0.482642
0.680414 0.126430 0.610932
0.680252 0.126268 0.738556
0.680090 0.126106 0.865636
0.679929 0.125945 0.992256
0.679538 0.257380 0.000000
0.679418 0.257259 0.089149
0.679249 0.257091 0.221499
0.679084 0.256925 0.351840
0.678920 0.256761 0.480984
0.678757 0.256598 0.609274
0.678594 0.256436 0.736899
0.678433 0.256275 0.863979
0.678272 0.256114 0.990598
0.677902 0.385875 0.000000
0.677781 0.385755 0.087513
0.677613 0.385586 0.219863
0.677448 0.385421 0.350203
0.677283 0.385257 0.479348
0.677120 0.385094 0.607638
0.676958 0.384931 0.735263
0.676797 0.384770 0.862343
0.676636 0.384609 0.988962
0.676280 0.513304 0.000000
0.676159 0.513184 0.085890
0.675991 0.513015 0.218240
0.675825 0.512850 0.348581
0.675661 0.512686 0.477726
0.675498 0.512523 0.606016
0.675336 0.512360 0.733640
0.675174 0.512199 0.860720
0.675013 0.512038 0.987339
0.674667 0.639949 0.000000
0.674546 0.639828 0.084277
0.674378 0.639660 0.216628
0.674212 0.639494 0.346968
0.674048 0.639330 0.476113
0.673885 0.639167 0.604403
0.673723 0.639005 0.732027
0.673561 0.638843 0.859108
0.673401 0.638682 0.985727
0.673062 0.765973 0.000000
0.672941 0.765852 0.082673
0.672773 0.765684 0.215023
0.672608 0.765518 0.345363
0.672443 0.765354 0.474508
0.672280 0.765191 0.602798
0.672118 0.765029 0.730423
0.671957 0.764867 0.857503
0.671796 0.764706 0.984122
0.671464 0.891484 0.000000
0.671343 0.891363 0.081075
0.671175 0.891195 0.213425
0.671009 0.891029 0.343765
0.670845 0.890865 0.472910
0.670682 0.890702 0.601200
0.670520 0.890540 0.728825
0.670359 0.890378 0.855905
0.670198 0.890217 0.982524
0.670050 1.000000 0.000000
0.669929 1.000000 0.079661
0.669761 1.000000 0.212011
0.669595 1.000000 0.342351
0.669431 1.000000 0.471496
0.669268 1.000000 0.599786
0.669106 1.000000 0.727411
0.668944 1.000000 0.854491
0.668784 1.000000 0.981110
0.809850 0.000000 0.000000
0.809730 0.000000 0.091982
0.809561 0.000000 0.224333
0.809396 0.000000 0.354673
0.809232 0.000000 0.483818
0.809068 0.000000 0.612108
0.808906 0.000000 0.739732
0.808745 0.000000 0.866812
0.808584 0.000000 0.993432
0.808198 0.126735 0.000000
0.808077 0.126614 0.090330
0.807909 0.126446 0.222680
0.807743 0.126281 0.353021
0.807579 0.126116 0.482165
0.807416 0.125953 0.610455
0.807254 0.125791 0.738080
0.807092 0.125630 0.865160
0.806931 0.125469 0.991779
0.806540 0.256904 0.000000
0.806420 0.256783 0.088672
0.806251 0.256615 0.221023
0.806086 0.256449 0.351363
0.805922 0.256285 0.480508
0.805759 0.256122 0.608798
0.805596 0.255960 0.736422
0.805435 0.255798 0.863502
0.805274 0.255637 0.990122
0.804904 0.385399 0.000000
0.804783 0.385278 0.087036
0.804615 0.385110 0.219386
0.804450 0.384944 0.349727
0.804285 0.384780 0.478872
0.804122 0.384617 0.607162
0.803960 0.384455 0.734786
0.803799 0.384293 0.861866
0.803638 0.384133 0.988486
0.803282 0.512828 0.000000
0.803161 0.512707 0.085414
0.802993 0.512539 0.217764
0.802827 0.512373 0.348104
0.802663 0.512209 0.477249
0.802500 0.512046 0.605539
0.802338 0.511884 0.733164
0.802176 0.511722 0.860244
0.802015 0.511562 0.986863
0.801669 0.639472 0.000000
0.801548 0.639352 0.083801
0.801380 0.639183 0.216151
0.801214 0.639018 0.346492
0.801050 0.638854 0.475636
0.800887 0.638691 0.603926
0.800725 0.638528 0.731551
0.800563 0.638367 0.858631
0.800402 0.638206 0.985250
0.800064 0.765496 0.000000
0.799943 0.765376 0.082196
0.799775 0.765207 0.214546
0.799610 0.765042 0.344887
0.799445 0.764878 0.474032
0.799282 0.764715 0.602322
0.799120 0.764552 0.729946
0.798959 0.764391 0.857026
0.798798 0.764230 0.983646
0.798466 0.891007 0.000000
0.798345 0.890886 0.080598
0.798177 0.890718 0.212948
0.798011 0.890553 0.343289
0.797847 0.890388 0.472434
0.797684 0.890225 0.600724
0.797522 0.890063 0.728348
0.797361 0.889902 0.855428
0.797200 0.889741 0.982048
0.797052 1.000000 0.000000
0.796931 1.000000 0.079184
0.796763 1.000000 0.211534
0.796597 1.000000 0.341875
0.796433 1.000000 0.471020
0.796270 1.000000 0.599310
0.796108 1.000000 0.726934
0.795946 1.000000 0.854014
0.795786 1.000000 0.980633
0.936358 0.000000 0.000000
0.936237 0.000000 0.091508
0.936069 0.000000 0.223858
0.935903 0.000000 0.354198
0.935739 0.000000 0.483343
0.935576 0.000000 0.611633
0.935414 0.000000 0.739258
0.935252 0.000000 0.866338
0.935091 0.000000 0.992957
0.934705 0.126261 0.000000
0.934585 0.126140 0.089855
0.934416 0.125972 0.222205
0.934251 0.125806 0.352546
0.934087 0.125642 0.481691
0.933924 0.125479 0.609981
0.933761 0.125317 0.737605
0.933600 0.125155 0.864685
0.933439 0.124994 0.991305
0.933048 0.256429 0.000000
0.932927 0.256308 0.088198
0.932759 0.256140 0.220548
0.932593 0.255974 0.350888
0.932429 0.255810 0.480033
0.932266 0.255647 0.608323
0.932104 0.255485 0.735948
0.931942 0.255323 0.863028
0.931782 0.255163 0.989647
0.931412 0.384924 0.000000
0.931291 0.384804 0.086562
0.931123 0.384635 0.218912
0.930957 0.384470 0.349252
0.930793 0.384306 0.478397
0.930630 0.384143 0.606687
0.930468 0.383980 0.734312
0.930306 0.383819 0.861392
0.930145 0.383658 0.988011
0.929789 0.512353 0.000000
0.929668 0.512233 0.084939
0.929500 0.512064 0.217289
0.929335 0.511899 0.347630
0.929170 0.511735 0.476774
0.929007 0.511572 0.605064
0.928845 0.511409 0.732689
0.928684 0.511248 0.859769
0.928523 0.511087 0.986388
0.928177 0.638998 0.000000
0.928056 0.638877 0.083326
0.927888 0.638709 0.215677
0.927722 0.638543 0.346017
0.927558 0.638379 0.475162
0.927395 0.638216 0.603452
0.927233 0.638054 0.731076
0.927071 0.637892 0.858156
0.926910 0.637731 0.984776
0.926572 0.765022 0.000000
0.926451 0.764901 0.081722
0.926283 0.764733 0.214072
0.926117 0.764567 0.344412
0.925953 0.764403 0.473557
0.925790 0.764240 0.601847
0.925628 0.764078 0.729472
0.925466 0.763916 0.856552
0.925305 0.763755 0.983171
0.924974 0.890533 0.000000
0.924853 0.890412 0.080124
0.924685 0.890244 0.212474
0.924519 0.890078 0.342814
0.924355 0.889914 0.471959
0.924192 0.889751 0.600249
0.924030 0.889589 0.727874
0.923868 0.889427 0.854954
0.923707 0.889266 0.981573
0.923560 1.000000 0.000000
0.923439 1.000000 0.078709
0.923271 1.000000 0.211060
0.923105 1.000000 0.341400
0.922941 1.000000 0.470545
0.922778 1.000000 0.598835
0.922616 1.000000 0.726459
0.922454 1.000000 0.853540
0.922293 1.000000 0.980159
1.000000 0.000000 0.000000
1.000000 0.000000 0.091216
1.000000 0.000000 0.223566
1.000000 0.000000 0.353907
1.000000 0.000000 0.483052
1.000000 0.000000 0.611342
1.000000 0.000000 0.738966
1.000000 0.000000 0.866046
1.000000 0.000000 0.992666
1.000000 0.125969 0.000000
1.000000 0.125848 0.089564
1.000000 0.125680 0.221914
1.000000 0.125514 0.352254
1.000000 0.125350 0.481399
1.000000 0.125187 0.609689
1.000000 0.125025 0.737314
1.000000 0.124863 0.864394
1.000000 0.124703 0.991013
1.000000 0.256137 0.000000
1.000000 0.256017 0.087906
1.000000 0.255848 0.220256
1.000000 0.255683 0.350597
1.000000 0.255519 0.479742
1.000000 0.255356 0.608032
1.000000 0.255193 0.735656
1.000000 0.255032 0.862736
1.000000 0.254871 0.989356
1.000000 0.384633 0.000000
1.000000 0.384512 0.086270
1.000000 0.384344 0.218620
1.000000 0.384178 0.348961
1.000000 0.384014 0.478105
1.000000 0.383851 0.606395
1.000000 0.383689 0.734020
1.000000 0.383527 0.861100
1.000000 0.383366 0.987719
1.000000 0.512062 0.000000
1.000000 0.511941 0.084647
1.000000 0.511773 0.216998
1.000000 0.511607 0.347338
1.000000 0.511443 0.476483
1.000000 0.511280 0.604773
1.000000 0.511118 0.732397
1.000000 0.510956 0.859477
1.000000 0.510795 0.986097
1.000000 0.638706 0.000000
1.000000 0.638585 0.083035
1.000000 0.638417 0.215385
1.000000 0.638252 0.345725
1.000000 0.638087 0.474870
1.000000 0.637924 0.603160
1.000000 0.637762 0.730785
1.000000 0.637601 0.857865
1.000000 0.637440 0.984484
1.000000 0.764730 0.000000
1.000000 0.764609 0.081430
1.000000 0.764441 0.213780
1.000000 0.764275 0.344121
1.000000 0.764111 0.473266
1.000000 0.763948 0.601556
1.000000 0.763786 0.729180
1.000000 0.763625 0.856260
1.000000 0.763464 0.982879
1.000000 0.890241 0.000000
1.000000 0.890120 0.079832
1.000000 0.889952 0.212182
1.000000 0.889786 0.342523
1.000000 0.889622 0.471667
1.000000 0.889459 0.599957
1.000000 0.889297 0.727582
1.000000 0.889136 0.854662
1.000000 0.888975 0.981281
1.000000 1.000000 0.000000
1.000000 1.000000 0.078418
1.000000 1.000000 0.210768
1.000000 1.000000 0.341108
1.000000 1.000000 0.470253
1.000000 1.000000 0.598543
1.000000 1.000000 0.726168
1.000000 1.000000 0.853248
1.000000 1.000000 0.979867
