skills/editops-orchestrator/assets/grade/luts/warm_skin_v07.cube
TITLE "warm_skin_v07"
LUT_3D_SIZE 5
DOMAIN_MIN 0.0 0.0 0.0
DOMAIN_MAX 1.0 1.0 1.0
0.026828 0.000000 0.000000
0.026741 0.000000 0.229750
0.026645 0.000000 0.484477
0.026549 0.000000 0.736433
0.026455 0.000000 0.986654
0.025861 0.257236 0.000000
0.025774 0.257149 0.228783
0.025678 0.257053 0.483510
0.025582 0.256958 0.735466
0.025488 0.256863 0.985687
0.024908 0.510707 0.000000
0.024821 0.510620 0.227830
0.024725 0.510524 0.482557
0.024630 0.510429 0.734514
0.024535 0.510334 0.984734
0.023965 0.761590 0.000000
0.023878 0.761503 0.226887
0.023782 0.761407 0.481614
0.023687 0.761311 0.733571
0.023592 0.761217 0.983792
0.023064 1.000000 0.000000
0.022977 1.000000 0.225985
0.022881 1.000000 0.480713
0.022785 1.000000 0.732669
0.022691 1.000000 0.982890
0.286219 0.000000 0.000000
0.286132 0.000000 0.229460
0.286036 0.000000 0.484188
0.285941 0.000000 0.736144
0.285846 0.000000 0.986365
0.285252 0.256947 0.000000
0.285165 0.256860 0.228494
0.285069 0.256764 0.483221
0.284974 0.256669 0.735177
0.284879 0.256574 0.985398
0.284300 0.510418 0.000000
0.284213 0.510331 0.227541
0.284116 0.510235 0.482268
0.284021 0.510140 0.734225
0.283926 0.510045 0.984445
0.283357 0.761301 0.000000
0.283270 0.761214 0.226598
0.283173 0.761118 0.481325
0.283078 0.761022 0.733282
0.282983 0.760928 0.983502
0.282455 1.000000 0.000000
0.282368 1.000000 0.225696
0.282272 1.000000 0.480424
0.282177 1.000000 0.732380
0.282082 1.000000 0.982601
0.539992 0.000000 0.000000
0.539905 0.000000 0.229178
0.539808 0.000000 0.483905
0.539713 0.000000 0.735862
0.539619 0.000000 0.986082
0.539025 0.256664 0.000000
0.538938 0.256578 0.228211
0.538842 0.256481 0.482938
0.538746 0.256386 0.734895
0.538652 0.256291 0.985115
0.538072 0.510135 0.000000
0.537985 0.510049 0.227258
0.537889 0.509952 0.481985
0.537794 0.509857 0.733942
0.537699 0.509762 0.984163
0.537129 0.761018 0.000000
0.537042 0.760931 0.226315
0.536946 0.760835 0.481042
0.536851 0.760740 0.732999
0.536756 0.760645 0.983220
0.536227 1.000000 0.000000
0.536141 1.000000 0.225413
0.536044 1.000000 0.480141
0.535949 1.000000 0.732097
0.535854 1.000000 0.982318
0.791321 0.000000 0.000000
0.791234 0.000000 0.228898
0.791138 0.000000 0.483625
0.791043 0.000000 0.735581
0.790948 0.000000 0.985802
0.790354 0.256384 0.000000
0.790267 0.256298 0.227931
0.790171 0.256201 0.482658
0.790076 0.256106 0.734615
0.789981 0.256011 0.984835
0.789402 0.509855 0.000000
0.789315 0.509768 0.226978
0.789218 0.509672 0.481705
0.789123 0.509577 0.733662
0.789028 0.509482 0.983883
0.788459 0.760738 0.000000
0.788372 0.760651 0.226035
0.788275 0.760555 0.480762
0.788180 0.760459 0.732719
0.788086 0.760365 0.982940
0.787557 1.000000 0.000000
0.787470 1.000000 0.225133
0.787374 1.000000 0.479861
0.787279 1.000000 0.731817
0.787184 1.000000 0.982038
1.000000 0.000000 0.000000
1.000000 0.000000 0.228660
1.000000 0.000000 0.483388
1.000000 0.000000 0.735344
1.000000 0.000000 0.985565
1.000000 0.256147 0.000000
1.000000 0.256060 0.227694
1.000000 0.255964 0.482421
1.000000 0.255869 0.734377
1.000000 0.255774 0.984598
1.000000 0.509618 0.000000
1.000000 0.509531 0.226741
1.000000 0.509435 0.481468
1.000000 0.509340 0.733425
1.000000 0.509245 0.983645
1.000000 0.760501 0.000000
1.000000 0.760414 0.225798
1.000000 0.760318 0.480525
1.000000 0.760222 0.732482
1.000000 0.760128 0.982702
1.000000 1.000000 0.000000
1.000000 1.000000 0.224896
1.000000 1.000000 0.479624
1.000000 1.000000 0.731580
1.000000 1.000000 0.981801
