skills/editops-orchestrator/assets/grade/luts/warm_skin_v14.cube
TITLE "warm_skin_v14"
LUT_3D_SIZE 17
DOMAIN_MIN 0.0 0.0 0.0
DOMAIN_MAX 1.0 1.0 1.0
0.041897 0.000000 0.000000
0.041857 0.000000 0.016193
0.041685 0.000000 0.086991
0.041518 0.000000 0.155751
0.041353 0.000000 0.223537
0.041190 0.000000 0.290672
0.041028 0.000000 0.357318
0.040867 0.000000 0.423573
0.040707 0.000000 0.489502
0.040547 0.000000 0.555152
0.040388 0.000000 0.620557
0.040230 0.000000 0.685747
0.040072 0.000000 0.750741
0.039915 0.000000 0.815559
0.039758 0.000000 0.880214
0.039601 0.000000 0.944721
0.039444 0.000000 1.000000
0.040337 0.063117 0.000000
0.040297 0.063077 0.014633
0.040125 0.062905 0.085431
0.039958 0.062738 0.154191
0.039793 0.062573 0.221977
0.039630 0.062410 0.289111
0.039468 0.062248 0.355758
0.039307 0.062087 0.422012
0.039147 0.061927 0.487942
0.038987 0.061767 0.553591
0.038828 0.061608 0.618997
0.038670 0.061450 0.684187
0.038512 0.061292 0.749181
0.038355 0.061135 0.813999
0.038197 0.060978 0.878654
0.038041 0.060821 0.943161
0.037884 0.060664 1.000000
0.038671 0.130834 0.000000
0.038631 0.130793 0.012967
0.038459 0.130621 0.083765
0.038292 0.130454 0.152525
0.038127 0.130290 0.220311
0.037964 0.130127 0.287446
0.037802 0.129965 0.354092
0.037641 0.129804 0.420347
0.037481 0.129643 0.486276
0.037321 0.129484 0.551926
0.037162 0.129325 0.617331
0.037004 0.129167 0.682521
0.036846 0.129009 0.747515
0.036689 0.128851 0.812333
0.036532 0.128694 0.876989
0.036375 0.128537 0.941495
0.036218 0.128381 1.000000
0.037033 0.197412 0.000000
0.036993 0.197372 0.011329
0.036821 0.197200 0.082127
0.036654 0.197032 0.150887
0.036489 0.196868 0.218673
0.036326 0.196705 0.285808
0.036164 0.196543 0.352454
0.036003 0.196382 0.418709
0.035843 0.196222 0.484638
0.035684 0.196062 0.550288
0.035525 0.195903 0.615694
0.035366 0.195745 0.680883
0.035208 0.195587 0.745877
0.035051 0.195429 0.810695
0.034894 0.195272 0.875351
0.034737 0.195115 0.939857
0.034581 0.194959 1.000000
0.035413 0.263277 0.000000
0.035373 0.263237 0.009709
0.035201 0.263065 0.080507
0.035034 0.262898 0.149267
0.034869 0.262733 0.217053
0.034706 0.262570 0.284187
0.034544 0.262408 0.350834
0.034383 0.262247 0.417088
0.034223 0.262087 0.483017
0.034063 0.261927 0.548667
0.033904 0.261768 0.614073
0.033746 0.261610 0.679263
0.033588 0.261452 0.744257
0.033431 0.261295 0.809075
0.033273 0.261138 0.873730
0.033117 0.260981 0.938237
0.032960 0.260824 1.000000
0.033805 0.328622 0.000000
0.033765 0.328582 0.008101
0.033593 0.328410 0.078899
0.033426 0.328243 0.147660
0.033261 0.328079 0.215445
0.033098 0.327915 0.282580
0.032936 0.327753 0.349226
0.032775 0.327592 0.415481
0.032615 0.327432 0.481410
0.032456 0.327273 0.547060
0.032297 0.327114 0.612466
0.032138 0.326955 0.677655
0.031980 0.326798 0.742650
0.031823 0.326640 0.807467
0.031666 0.326483 0.872123
0.031509 0.326326 0.936629
0.031353 0.326170 1.000000
0.032208 0.393559 0.000000
0.032168 0.393519 0.006504
0.031996 0.393347 0.077302
0.031829 0.393180 0.146062
0.031664 0.393015 0.213848
0.031501 0.392852 0.280982
0.031339 0.392690 0.347629
0.031178 0.392529 0.413883
0.031018 0.392369 0.479813
0.030858 0.392209 0.545462
0.030699 0.392050 0.610868
0.030541 0.391892 0.676058
0.030383 0.391734 0.741052
0.030226 0.391576 0.805870
0.030068 0.391419 0.870525
0.029912 0.391263 0.935032
0.029755 0.391106 0.999400
0.030619 0.458158 0.000000
0.030579 0.458118 0.004915
0.030407 0.457946 0.075713
0.030239 0.457779 0.144473
0.030075 0.457614 0.212258
0.029912 0.457451 0.279393
0.029750 0.457289 0.346039
0.029589 0.457128 0.412294
0.029429 0.456968 0.478223
0.029269 0.456809 0.543873
0.029110 0.456650 0.609279
0.028952 0.456491 0.674468
0.028794 0.456333 0.739463
0.028636 0.456176 0.804280
0.028479 0.456019 0.868936
0.028323 0.455862 0.933443
0.028166 0.455706 0.997811
0.029037 0.522471 0.000000
0.028996 0.522431 0.003332
0.028824 0.522259 0.074130
0.028657 0.522092 0.142891
0.028493 0.521927 0.210676
0.028330 0.521764 0.277811
0.028168 0.521602 0.344457
0.028007 0.521441 0.410712
0.027846 0.521281 0.476641
0.027687 0.521122 0.542291
0.027528 0.520963 0.607697
0.027370 0.520804 0.672886
0.027212 0.520647 0.737881
0.027054 0.520489 0.802698
0.026897 0.520332 0.867354
0.026740 0.520175 0.931860
0.026584 0.520019 0.996228
0.027461 0.586536 0.000000
0.027420 0.586496 0.001756
0.027248 0.586324 0.072554
0.027081 0.586156 0.141315
0.026917 0.585992 0.209100
0.026754 0.585829 0.276235
0.026592 0.585667 0.342881
0.026431 0.585506 0.409136
0.026270 0.585346 0.475065
0.026111 0.585186 0.540715
0.025952 0.585027 0.606121
0.025794 0.584869 0.671310
0.025636 0.584711 0.736305
0.025478 0.584553 0.801122
0.025321 0.584396 0.865778
0.025164 0.584240 0.930284
0.025008 0.584083 0.994652
0.025890 0.650380 0.000000
0.025850 0.650340 0.000186
0.025678 0.650168 0.070984
0.025511 0.650001 0.139744
0.025346 0.649836 0.207530
0.025183 0.649673 0.274665
0.025021 0.649511 0.341311
0.024860 0.649350 0.407566
0.024700 0.649190 0.473495
0.024540 0.649030 0.539145
0.024381 0.648872 0.604550
0.024223 0.648713 0.669740
0.024065 0.648555 0.734734
0.023908 0.648398 0.799552
0.023751 0.648241 0.864207
0.023594 0.648084 0.928714
0.023437 0.647927 0.993082
0.024324 0.714027 0.000000
0.024284 0.713987 0.000000
0.024112 0.713815 0.069418
0.023945 0.713648 0.138178
0.023780 0.713484 0.205964
0.023617 0.713320 0.273099
0.023455 0.713158 0.339745
0.023294 0.712998 0.406000
0.023134 0.712837 0.471929
0.022975 0.712678 0.537579
0.022816 0.712519 0.602985
0.022657 0.712361 0.668174
0.022499 0.712203 0.733168
0.022342 0.712045 0.797986
0.022185 0.711888 0.862642
0.022028 0.711731 0.927148
0.021872 0.711575 0.991516
0.022763 0.777496 0.000000
0.022723 0.777456 0.000000
0.022551 0.777284 0.067857
0.022384 0.777117 0.136617
0.022219 0.776953 0.204403
0.022056 0.776790 0.271537
0.021894 0.776628 0.338184
0.021733 0.776467 0.404438
0.021573 0.776306 0.470367
0.021413 0.776147 0.536017
0.021254 0.775988 0.601423
0.021096 0.775830 0.666613
0.020938 0.775672 0.731607
0.020780 0.775514 0.796425
0.020623 0.775357 0.861080
0.020467 0.775200 0.925587
0.020310 0.775044 0.989955
0.021205 0.840803 0.000000
0.021165 0.840763 0.000000
0.020993 0.840591 0.066299
0.020826 0.840424 0.135060
0.020662 0.840259 0.202845
0.020498 0.840096 0.269980
0.020337 0.839934 0.336626
0.020176 0.839773 0.402881
0.020015 0.839613 0.468810
0.019856 0.839453 0.534460
0.019697 0.839294 0.599866
0.019539 0.839136 0.665055
0.019381 0.838978 0.730050
0.019223 0.838820 0.794867
0.019066 0.838663 0.859523
0.018909 0.838507 0.924029
0.018753 0.838350 0.988397
0.019652 0.903959 0.000000
0.019612 0.903919 0.000000
0.019440 0.903747 0.064746
0.019273 0.903580 0.133506
0.019108 0.903415 0.201292
0.018945 0.903252 0.268426
0.018783 0.903090 0.335072
0.018622 0.902929 0.401327
0.018462 0.902769 0.467256
0.018302 0.902610 0.532906
0.018143 0.902451 0.598312
0.017985 0.902292 0.663502
0.017827 0.902134 0.728496
0.017669 0.901977 0.793314
0.017512 0.901820 0.857969
0.017356 0.901663 0.922476
0.017199 0.901507 0.986844
0.018101 0.966977 0.000000
0.018061 0.966937 0.000000
0.017889 0.966765 0.063195
0.017722 0.966598 0.131956
0.017558 0.966433 0.199741
0.017395 0.966270 0.266876
0.017233 0.966108 0.333522
0.017072 0.965947 0.399777
0.016911 0.965787 0.465706
0.016752 0.965627 0.531356
0.016593 0.965468 0.596762
0.016435 0.965310 0.661951
0.016277 0.965152 0.726946
0.016119 0.964995 0.791763
0.015962 0.964837 0.856419
0.015805 0.964681 0.920925
0.015649 0.964524 0.985293
0.017053 1.000000 0.000000
0.017013 1.000000 0.000000
0.016841 1.000000 0.062147
0.016674 1.000000 0.130907
0.016509 1.000000 0.198693
0.016346 1.000000 0.265828
0.016184 1.000000 0.332474
0.016023 1.000000 0.398729
0.015863 1.000000 0.464658
0.015704 1.000000 0.530308
0.015545 1.000000 0.595714
0.015386 1.000000 0.660903
0.015228 1.000000 0.725897
0.015071 1.000000 0.790715
0.014914 1.000000 0.855371
0.014757 1.000000 0.919877
0.014601 1.000000 0.984245
0.111374 0.000000 0.000000
0.111334 0.000000 0.015693
0.111162 0.000000 0.086491
0.110995 0.000000 0.155252
0.110830 0.000000 0.223037
0.110667 0.000000 0.290172
0.110505 0.000000 0.356818
0.110344 0.000000 0.423073
0.110184 0.000000 0.489002
0.110024 0.000000 0.554652
0.109865 0.000000 0.620058
0.109707 0.000000 0.685247
0.109549 0.000000 0.750242
0.109392 0.000000 0.815059
0.109235 0.000000 0.879715
0.109078 0.000000 0.944221
0.108921 0.000000 1.000000
0.109814 0.062618 0.000000
0.109774 0.062577 0.014133
0.109602 0.062405 0.084931
0.109435 0.062238 0.153692
0.109270 0.062074 0.221477
0.109107 0.061911 0.288612
0.108945 0.061749 0.355258
0.108784 0.061588 0.421513
0.108624 0.061427 0.487442
0.108464 0.061268 0.553092
0.108305 0.061109 0.618498
0.108147 0.060951 0.683687
0.107989 0.060793 0.748682
0.107832 0.060635 0.813499
0.107674 0.060478 0.878155
0.107518 0.060321 0.942661
0.107361 0.060165 1.000000
0.108148 0.130334 0.000000
0.108108 0.130294 0.012468
0.107936 0.130122 0.083266
0.107769 0.129955 0.152026
0.107604 0.129790 0.219811
0.107441 0.129627 0.286946
0.107279 0.129465 0.353592
0.107118 0.129304 0.419847
0.106958 0.129144 0.485776
0.106798 0.128985 0.551426
0.106639 0.128826 0.616832
0.106481 0.128667 0.682021
0.106323 0.128509 0.747016
0.106166 0.128352 0.811833
0.106009 0.128195 0.876489
0.105852 0.128038 0.940995
0.105695 0.127882 1.000000
0.106510 0.196912 0.000000
0.106470 0.196872 0.010830
0.106298 0.196700 0.081628
0.106131 0.196533 0.150388
0.105966 0.196368 0.218173
0.105803 0.196205 0.285308
0.105641 0.196043 0.351954
0.105480 0.195882 0.418209
0.105320 0.195722 0.484138
0.105161 0.195563 0.549788
0.105002 0.195404 0.615194
0.104843 0.195245 0.680383
0.104685 0.195087 0.745378
0.104528 0.194930 0.810196
0.104371 0.194773 0.874851
0.104214 0.194616 0.939358
0.104058 0.194460 1.000000
0.104890 0.262777 0.000000
0.104850 0.262737 0.009209
0.104678 0.262565 0.080007
0.104511 0.262398 0.148768
0.104346 0.262234 0.216553
0.104183 0.262071 0.283688
0.104021 0.261909 0.350334
0.103860 0.261748 0.416589
0.103700 0.261587 0.482518
0.103540 0.261428 0.548168
0.103381 0.261269 0.613574
0.103223 0.261111 0.678763
0.103065 0.260953 0.743758
0.102908 0.260795 0.808575
0.102750 0.260638 0.873231
0.102594 0.260481 0.937737
0.102437 0.260325 1.000000
0.103282 0.328123 0.000000
0.103242 0.328083 0.007602
0.103070 0.327911 0.078400
0.102903 0.327744 0.147160
0.102738 0.327579 0.214946
0.102575 0.327416 0.282080
0.102413 0.327254 0.348727
0.102252 0.327093 0.414981
0.102092 0.326933 0.480911
0.101933 0.326773 0.546560
0.101774 0.326614 0.611966
0.101615 0.326456 0.677156
0.101457 0.326298 0.742150
0.101300 0.326141 0.806968
0.101143 0.325984 0.871623
0.100986 0.325827 0.936130
0.100830 0.325670 1.000000
0.101685 0.393059 0.000000
0.101645 0.393019 0.006004
0.101473 0.392847 0.076802
0.101306 0.392680 0.145563
0.101141 0.392515 0.213348
0.100978 0.392352 0.280483
0.100816 0.392190 0.347129
0.100655 0.392029 0.413384
0.100495 0.391869 0.479313
0.100335 0.391710 0.544963
0.100176 0.391551 0.610369
0.100018 0.391392 0.675558
0.099860 0.391235 0.740553
0.099703 0.391077 0.805370
0.099545 0.390920 0.870026
0.099389 0.390763 0.934532
0.099232 0.390607 0.998900
0.100096 0.457659 0.000000
0.100056 0.457619 0.004415
0.099884 0.457447 0.075213
0.099716 0.457280 0.143973
0.099552 0.457115 0.211759
0.099389 0.456952 0.278894
0.099227 0.456790 0.345540
0.099066 0.456629 0.411795
0.098906 0.456469 0.477724
0.098746 0.456309 0.543374
0.098587 0.456150 0.608780
0.098429 0.455992 0.673969
0.098271 0.455834 0.738963
0.098113 0.455677 0.803781
0.097956 0.455519 0.868437
0.097800 0.455363 0.932943
0.097643 0.455206 0.997311
0.098514 0.521972 0.000000
0.098473 0.521932 0.002833
0.098301 0.521760 0.073631
0.098134 0.521593 0.142391
0.097970 0.521428 0.210177
0.097807 0.521265 0.277312
0.097645 0.521103 0.343958
0.097484 0.520942 0.410213
0.097323 0.520782 0.476142
0.097164 0.520622 0.541792
0.097005 0.520463 0.607198
0.096847 0.520305 0.672387
0.096689 0.520147 0.737381
0.096531 0.519990 0.802199
0.096374 0.519833 0.866855
0.096217 0.519676 0.931361
0.096061 0.519519 0.995729
0.096938 0.586036 0.000000
0.096897 0.585996 0.001257
0.096725 0.585824 0.072055
0.096558 0.585657 0.140815
0.096394 0.585492 0.208601
0.096231 0.585329 0.275736
0.096069 0.585167 0.342382
0.095908 0.585006 0.408637
0.095747 0.584846 0.474566
0.095588 0.584687 0.540216
0.095429 0.584528 0.605622
0.095271 0.584369 0.670811
0.095113 0.584211 0.735805
0.094955 0.584054 0.800623
0.094798 0.583897 0.865279
0.094641 0.583740 0.929785
0.094485 0.583584 0.994153
0.095367 0.649881 0.000000
0.095327 0.649840 0.000000
0.095155 0.649668 0.070484
0.094988 0.649501 0.139245
0.094823 0.649337 0.207030
0.094660 0.649174 0.274165
0.094498 0.649012 0.340811
0.094337 0.648851 0.407066
0.094177 0.648691 0.472995
0.094017 0.648531 0.538645
0.093858 0.648372 0.604051
0.093700 0.648214 0.669240
0.093542 0.648056 0.734235
0.093385 0.647898 0.799052
0.093228 0.647741 0.863708
0.093071 0.647584 0.928214
0.092914 0.647428 0.992582
0.093801 0.713528 0.000000
0.093761 0.713488 0.000000
0.093589 0.713316 0.068919
0.093422 0.713149 0.137679
0.093257 0.712984 0.205465
0.093094 0.712821 0.272599
0.092932 0.712659 0.339245
0.092771 0.712498 0.405500
0.092611 0.712338 0.471429
0.092452 0.712178 0.537079
0.092293 0.712019 0.602485
0.092134 0.711861 0.667674
0.091976 0.711703 0.732669
0.091819 0.711546 0.797487
0.091662 0.711389 0.862142
0.091505 0.711232 0.926649
0.091349 0.711075 0.991017
0.092240 0.776997 0.000000
0.092200 0.776957 0.000000
0.092028 0.776785 0.067357
0.091861 0.776618 0.136118
0.091696 0.776453 0.203903
0.091533 0.776290 0.271038
0.091371 0.776128 0.337684
0.091210 0.775967 0.403939
0.091050 0.775807 0.469868
0.090890 0.775647 0.535518
0.090731 0.775489 0.600924
0.090573 0.775330 0.666113
0.090415 0.775172 0.731108
0.090257 0.775015 0.795925
0.090100 0.774858 0.860581
0.089944 0.774701 0.925087
0.089787 0.774545 0.989455
0.090682 0.840303 0.000000
0.090642 0.840263 0.000000
0.090470 0.840091 0.065800
0.090303 0.839924 0.134560
0.090139 0.839759 0.202346
0.089975 0.839596 0.269481
0.089814 0.839434 0.336127
0.089653 0.839273 0.402382
0.089492 0.839113 0.468311
0.089333 0.838954 0.533961
0.089174 0.838795 0.599367
0.089016 0.838636 0.664556
0.088858 0.838478 0.729550
0.088700 0.838321 0.794368
0.088543 0.838164 0.859024
0.088386 0.838007 0.923530
0.088230 0.837851 0.987898
0.089129 0.903460 0.000000
0.089089 0.903420 0.000000
0.088917 0.903248 0.064246
0.088750 0.903081 0.133007
0.088585 0.902916 0.200792
0.088422 0.902753 0.267927
0.088260 0.902591 0.334573
0.088099 0.902430 0.400828
0.087939 0.902270 0.466757
0.087779 0.902110 0.532407
0.087620 0.901951 0.597813
0.087462 0.901793 0.663002
0.087304 0.901635 0.727997
0.087146 0.901477 0.792814
0.086989 0.901320 0.857470
0.086833 0.901164 0.921976
0.086676 0.901007 0.986344
0.087578 0.966477 0.000000
0.087538 0.966437 0.000000
0.087366 0.966265 0.062696
0.087199 0.966098 0.131456
0.087035 0.965934 0.199242
0.086872 0.965770 0.266377
0.086710 0.965609 0.333023
0.086549 0.965448 0.399278
0.086388 0.965287 0.465207
0.086229 0.965128 0.530857
0.086070 0.964969 0.596263
0.085912 0.964811 0.661452
0.085754 0.964653 0.726446
0.085596 0.964495 0.791264
0.085439 0.964338 0.855920
0.085282 0.964181 0.920426
0.085126 0.964025 0.984794
0.086530 1.000000 0.000000
0.086490 1.000000 0.000000
0.086318 1.000000 0.061648
0.086151 1.000000 0.130408
0.085986 1.000000 0.198194
0.085823 1.000000 0.265328
0.085661 1.000000 0.331974
0.085500 1.000000 0.398229
0.085340 1.000000 0.464158
0.085181 1.000000 0.529808
0.085022 1.000000 0.595214
0.084863 1.000000 0.660403
0.084705 1.000000 0.725398
0.084548 1.000000 0.790216
0.084391 1.000000 0.854871
0.084234 1.000000 0.919378
0.084078 1.000000 0.983746
0.179407 0.000000 0.000000
0.179367 0.000000 0.015204
0.179195 0.000000 0.086002
0.179028 0.000000 0.154763
0.178864 0.000000 0.222548
0.178700 0.000000 0.289683
0.178539 0.000000 0.356329
0.178378 0.000000 0.422584
0.178217 0.000000 0.488513
0.178058 0.000000 0.554163
0.177899 0.000000 0.619569
0.177741 0.000000 0.684758
0.177583 0.000000 0.749753
0.177425 0.000000 0.814570
0.177268 0.000000 0.879226
0.177111 0.000000 0.943732
0.176955 0.000000 1.000000
0.177847 0.062128 0.000000
0.177807 0.062088 0.013644
0.177635 0.061916 0.084442
0.177468 0.061749 0.153203
0.177303 0.061585 0.220988
0.177140 0.061422 0.288123
0.176978 0.061260 0.354769
0.176817 0.061099 0.421024
0.176657 0.060938 0.486953
0.176498 0.060779 0.552603
0.176339 0.060620 0.618009
0.176180 0.060462 0.683198
0.176023 0.060304 0.748193
0.175865 0.060146 0.813010
0.175708 0.059989 0.877666
0.175551 0.059832 0.942172
0.175395 0.059676 1.000000
0.176181 0.129845 0.000000
0.176141 0.129805 0.011978
0.175969 0.129633 0.082776
0.175802 0.129466 0.151537
0.175638 0.129301 0.219322
0.175475 0.129138 0.286457
0.175313 0.128976 0.353103
0.175152 0.128815 0.419358
0.174991 0.128655 0.485287
0.174832 0.128495 0.550937
0.174673 0.128337 0.616343
0.174515 0.128178 0.681532
0.174357 0.128020 0.746527
0.174199 0.127863 0.811344
0.174042 0.127706 0.876000
0.173885 0.127549 0.940506
0.173729 0.127393 1.000000
0.174544 0.196423 0.000000
0.174504 0.196383 0.010341
0.174332 0.196211 0.081139
0.174164 0.196044 0.149899
0.174000 0.195879 0.217684
0.173837 0.195716 0.284819
0.173675 0.195554 0.351465
0.173514 0.195393 0.417720
0.173354 0.195233 0.483649
0.173194 0.195074 0.549299
0.173035 0.194915 0.614705
0.172877 0.194756 0.679894
0.172719 0.194598 0.744889
0.172561 0.194441 0.809706
0.172404 0.194284 0.874362
0.172248 0.194127 0.938869
0.172091 0.193971 1.000000
0.172923 0.262288 0.000000
0.172883 0.262248 0.008720
0.172711 0.262076 0.079518
0.172544 0.261909 0.148279
0.172379 0.261745 0.216064
0.172216 0.261581 0.283199
0.172054 0.261420 0.349845
0.171893 0.261259 0.416100
0.171733 0.261098 0.482029
0.171574 0.260939 0.547679
0.171415 0.260780 0.613085
0.171256 0.260622 0.678274
0.171099 0.260464 0.743269
0.170941 0.260306 0.808086
0.170784 0.260149 0.872742
0.170627 0.259992 0.937248
0.170471 0.259836 1.000000
0.171316 0.327634 0.000000
0.171276 0.327594 0.007113
0.171104 0.327422 0.077911
0.170937 0.327255 0.146671
0.170772 0.327090 0.214457
0.170609 0.326927 0.281591
0.170447 0.326765 0.348238
0.170286 0.326604 0.414492
0.170126 0.326444 0.480421
0.169966 0.326284 0.546071
0.169807 0.326125 0.611477
0.169649 0.325967 0.676667
0.169491 0.325809 0.741661
0.169334 0.325652 0.806479
0.169176 0.325495 0.871134
0.169020 0.325338 0.935641
0.168863 0.325181 1.000000
0.169718 0.392570 0.000000
0.169678 0.392530 0.005515
0.169506 0.392358 0.076313
0.169339 0.392191 0.145074
0.169174 0.392026 0.212859
0.169011 0.391863 0.279994
0.168849 0.391701 0.346640
0.168688 0.391540 0.412895
0.168528 0.391380 0.478824
0.168369 0.391221 0.544474
0.168210 0.391062 0.609880
0.168051 0.390903 0.675069
0.167894 0.390745 0.740064
0.167736 0.390588 0.804881
0.167579 0.390431 0.869537
0.167422 0.390274 0.934043
0.167266 0.390118 0.998411
0.168129 0.457170 0.000000
0.168089 0.457130 0.003926
0.167917 0.456958 0.074724
0.167750 0.456791 0.143484
0.167585 0.456626 0.211270
0.167422 0.456463 0.278405
0.167260 0.456301 0.345051
0.167099 0.456140 0.411306
0.166939 0.455980 0.477235
0.166780 0.455820 0.542885
0.166621 0.455661 0.608291
0.166462 0.455503 0.673480
0.166304 0.455345 0.738474
0.166147 0.455187 0.803292
0.165990 0.455030 0.867948
0.165833 0.454874 0.932454
0.165677 0.454717 0.996822
0.166547 0.521483 0.000000
0.166507 0.521443 0.002344
0.166335 0.521271 0.073142
0.166168 0.521104 0.141902
0.166003 0.520939 0.209688
0.165840 0.520776 0.276823
0.165678 0.520614 0.343469
0.165517 0.520453 0.409724
0.165357 0.520293 0.475653
0.165197 0.520133 0.541303
0.165039 0.519974 0.606709
0.164880 0.519816 0.671898
0.164722 0.519658 0.736892
0.164565 0.519501 0.801710
0.164408 0.519343 0.866366
0.164251 0.519187 0.930872
0.164095 0.519030 0.995240
0.164971 0.585547 0.000000
0.164931 0.585507 0.000768
0.164759 0.585335 0.071566
0.164592 0.585168 0.140326
0.164427 0.585003 0.208112
0.164264 0.584840 0.275247
0.164102 0.584678 0.341893
0.163941 0.584517 0.408148
0.163781 0.584357 0.474077
0.163621 0.584198 0.539727
0.163463 0.584039 0.605133
0.163304 0.583880 0.670322
0.163146 0.583722 0.735316
0.162989 0.583565 0.800134
0.162832 0.583408 0.864790
0.162675 0.583251 0.929296
0.162519 0.583095 0.993664
0.163400 0.649392 0.000000
0.163360 0.649351 0.000000
0.163188 0.649179 0.069995
0.163021 0.649012 0.138756
0.162857 0.648848 0.206541
0.162693 0.648685 0.273676
0.162532 0.648523 0.340322
0.162371 0.648362 0.406577
0.162210 0.648201 0.472506
0.162051 0.648042 0.538156
0.161892 0.647883 0.603562
0.161734 0.647725 0.668751
0.161576 0.647567 0.733746
0.161418 0.647409 0.798563
0.161261 0.647252 0.863219
0.161104 0.647095 0.927725
0.160948 0.646939 0.992093
0.161835 0.713039 0.000000
0.161795 0.712999 0.000000
0.161623 0.712827 0.068430
0.161456 0.712660 0.137190
0.161291 0.712495 0.204975
0.161128 0.712332 0.272110
0.160966 0.712170 0.338756
0.160805 0.712009 0.405011
0.160645 0.711849 0.470940
0.160485 0.711689 0.536590
0.160326 0.711530 0.601996
0.160168 0.711372 0.667185
0.160010 0.711214 0.732180
0.159852 0.711057 0.796998
0.159695 0.710900 0.861653
0.159539 0.710743 0.926160
0.159382 0.710586 0.990528
0.160273 0.776508 0.000000
0.160233 0.776468 0.000000
0.160061 0.776296 0.066868
0.159894 0.776129 0.135629
0.159729 0.775964 0.203414
0.159566 0.775801 0.270549
0.159404 0.775639 0.337195
0.159243 0.775478 0.403450
0.159083 0.775318 0.469379
0.158924 0.775158 0.535029
0.158765 0.775000 0.600435
0.158606 0.774841 0.665624
0.158448 0.774683 0.730619
0.158291 0.774526 0.795436
0.158134 0.774369 0.860092
0.157977 0.774212 0.924598
0.157821 0.774055 0.988966
0.158716 0.839814 0.000000
0.158676 0.839774 0.000000
0.158504 0.839602 0.065311
0.158337 0.839435 0.134071
0.158172 0.839270 0.201857
0.158009 0.839107 0.268992
0.157847 0.838945 0.335638
0.157686 0.838784 0.401893
0.157526 0.838624 0.467822
0.157366 0.838465 0.533472
0.157207 0.838306 0.598877
0.157049 0.838147 0.664067
0.156891 0.837989 0.729061
0.156734 0.837832 0.793879
0.156577 0.837675 0.858534
0.156420 0.837518 0.923041
0.156263 0.837362 0.987409
0.157162 0.902971 0.000000
0.157122 0.902931 0.000000
0.156950 0.902759 0.063757
0.156783 0.902591 0.132518
0.156618 0.902427 0.200303
0.156455 0.902264 0.267438
0.156293 0.902102 0.334084
0.156132 0.901941 0.400339
0.155972 0.901781 0.466268
0.155813 0.901621 0.531918
0.155654 0.901462 0.597324
0.155495 0.901304 0.662513
0.155337 0.901146 0.727507
0.155180 0.900988 0.792325
0.155023 0.900831 0.856981
0.154866 0.900675 0.921487
0.154710 0.900518 0.985855
0.155612 0.965988 0.000000
0.155572 0.965948 0.000000
0.155400 0.965776 0.062207
0.155233 0.965609 0.130967
0.155068 0.965444 0.198753
0.154905 0.965281 0.265888
0.154743 0.965119 0.332534
0.154582 0.964958 0.398789
0.154422 0.964798 0.464718
0.154262 0.964639 0.530368
0.154104 0.964480 0.595774
0.153945 0.964321 0.660963
0.153787 0.964164 0.725957
0.153630 0.964006 0.790775
0.153473 0.963849 0.855431
0.153316 0.963692 0.919937
0.153159 0.963536 0.984305
0.154564 1.000000 0.000000
0.154524 1.000000 0.000000
0.154352 1.000000 0.061159
0.154184 1.000000 0.129919
0.154020 1.000000 0.197704
0.153857 1.000000 0.264839
0.153695 1.000000 0.331485
0.153534 1.000000 0.397740
0.153374 1.000000 0.463669
0.153214 1.000000 0.529319
0.153055 1.000000 0.594725
0.152897 1.000000 0.659914
0.152739 1.000000 0.724909
0.152581 1.000000 0.789727
0.152424 1.000000 0.854382
0.152268 1.000000 0.918889
0.152111 1.000000 0.983257
0.246617 0.000000 0.000000
0.246577 0.000000 0.014721
0.246405 0.000000 0.085519
0.246238 0.000000 0.154280
0.246073 0.000000 0.222065
0.245910 0.000000 0.289200
0.245748 0.000000 0.355846
0.245587 0.000000 0.422101
0.245427 0.000000 0.488030
0.245268 0.000000 0.553680
0.245109 0.000000 0.619086
0.244950 0.000000 0.684275
0.244792 0.000000 0.749270
0.244635 0.000000 0.814087
0.244478 0.000000 0.878743
0.244321 0.000000 0.943249
0.244165 0.000000 1.000000
0.245057 0.061645 0.000000
