skills/editops-orchestrator/assets/grade/luts/warm_skin_v10.cube
TITLE "warm_skin_v10"
LUT_3D_SIZE 5
DOMAIN_MIN 0.0 0.0 0.0
DOMAIN_MAX 1.0 1.0 1.0
0.033057 0.000000 0.000000
0.032768 0.000000 0.227247
0.032439 0.000000 0.486732
0.032113 0.000000 0.742647
0.031791 0.000000 0.996346
0.029747 0.259818 0.000000
0.029458 0.259529 0.223937
0.029129 0.259199 0.483422
0.028803 0.258874 0.739337
0.028481 0.258551 0.993036
0.026489 0.515742 0.000000
0.026200 0.515453 0.220678
0.025870 0.515123 0.480163
0.025545 0.514798 0.736078
0.025222 0.514476 0.989777
0.023271 0.768411 0.000000
0.022982 0.768122 0.217461
0.022653 0.767792 0.476946
0.022327 0.767467 0.732861
0.022005 0.767144 0.986560
0.020259 1.000000 0.000000
0.019970 1.000000 0.214448
0.019640 1.000000 0.473934
0.019315 1.000000 0.729848
0.018993 1.000000 0.983548
0.297608 0.000000 0.000000
0.297319 0.000000 0.226254
0.296989 0.000000 0.485740
0.296664 0.000000 0.741654
0.296341 0.000000 0.995353
0.294298 0.258825 0.000000
0.294009 0.258536 0.222944
0.293679 0.258207 0.482430
0.293354 0.257881 0.738344
0.293031 0.257559 0.992044
0.291039 0.514750 0.000000
0.290750 0.514461 0.219685
0.290420 0.514131 0.479171
0.290095 0.513806 0.735085
0.289773 0.513483 0.988785
0.287822 0.767418 0.000000
0.287533 0.767129 0.216468
0.287203 0.766799 0.475953
0.286878 0.766474 0.731868
0.286555 0.766152 0.985567
0.284810 1.000000 0.000000
0.284521 1.000000 0.213456
0.284191 1.000000 0.472941
0.283866 1.000000 0.728856
0.283543 1.000000 0.982555
0.555254 0.000000 0.000000
0.554965 0.000000 0.225288
0.554635 0.000000 0.484773
0.554310 0.000000 0.740688
0.553988 0.000000 0.994387
0.551944 0.257859 0.000000
0.551655 0.257570 0.221978
0.551325 0.257240 0.481463
0.551000 0.256915 0.737378
0.550678 0.256592 0.991077
0.548685 0.513783 0.000000
0.548396 0.513494 0.218719
0.548066 0.513164 0.478204
0.547741 0.512839 0.734119
0.547419 0.512517 0.987818
0.545468 0.766451 0.000000
0.545179 0.766162 0.215502
0.544849 0.765833 0.474987
0.544524 0.765507 0.730901
0.544201 0.765185 0.984601
0.542456 1.000000 0.000000
0.542167 1.000000 0.212489
0.541837 1.000000 0.471975
0.541512 1.000000 0.727889
0.541189 1.000000 0.981589
0.809850 0.000000 0.000000
0.809561 0.000000 0.224333
0.809232 0.000000 0.483818
0.808906 0.000000 0.739732
0.808584 0.000000 0.993432
0.806540 0.256904 0.000000
0.806251 0.256615 0.221023
0.805922 0.256285 0.480508
0.805596 0.255960 0.736422
0.805274 0.255637 0.990122
0.803282 0.512828 0.000000
0.802993 0.512539 0.217764
0.802663 0.512209 0.477249
0.802338 0.511884 0.733164
0.802015 0.511562 0.986863
0.800064 0.765496 0.000000
0.799775 0.765207 0.214546
0.799445 0.764878 0.474032
0.799120 0.764552 0.729946
0.798798 0.764230 0.983646
0.797052 1.000000 0.000000
0.796763 1.000000 0.211534
0.796433 1.000000 0.471020
0.796108 1.000000 0.726934
0.795786 1.000000 0.980633
1.000000 0.000000 0.000000
1.000000 0.000000 0.223566
1.000000 0.000000 0.483052
1.000000 0.000000 0.738966
1.000000 0.000000 0.992666
1.000000 0.256137 0.000000
1.000000 0.255848 0.220256
1.000000 0.255519 0.479742
1.000000 0.255193 0.735656
1.000000 0.254871 0.989356
1.000000 0.512062 0.000000
1.000000 0.511773 0.216998
1.000000 0.511443 0.476483
1.000000 0.511118 0.732397
1.000000 0.510795 0.986097
1.000000 0.764730 0.000000
1.000000 0.764441 0.213780
1.000000 0.764111 0.473266
1.000000 0.763786 0.729180
1.000000 0.763464 0.982879
1.000000 1.000000 0.000000
1.000000 1.000000 0.210768
1.000000 1.000000 0.470253
1.000000 1.000000 0.726168
1.000000 1.000000 0.979867
