skills/editops-orchestrator/assets/grade/luts/warm_skin_v04.cube
TITLE "warm_skin_v04"
LUT_3D_SIZE 9
DOMAIN_MIN 0.0 0.0 0.0
DOMAIN_MAX 1.0 1.0 1.0
0.020941 0.000033 0.000033
0.020997 0.000090 0.105581
0.021065 0.000157 0.232022
0.021132 0.000224 0.357382
0.021199 0.000291 0.482073
0.021266 0.000358 0.606278
0.021332 0.000424 0.730101
0.021398 0.000490 0.853609
0.021464 0.000556 0.976850
0.021616 0.127862 0.000708
0.021673 0.127919 0.106256
0.021740 0.127986 0.232697
0.021807 0.128053 0.358057
0.021874 0.128120 0.482748
0.021941 0.128187 0.606953
0.022007 0.128253 0.730776
0.022073 0.128319 0.854284
0.022139 0.128385 0.977525
0.022286 0.254667 0.001378
0.022342 0.254724 0.106926
0.022410 0.254792 0.233366
0.022477 0.254859 0.358726
0.022544 0.254926 0.483418
0.022610 0.254992 0.607623
0.022677 0.255059 0.731446
0.022743 0.255125 0.854954
0.022809 0.255191 0.978194
0.022950 0.380492 0.002042
0.023007 0.380548 0.107590
0.023074 0.380616 0.234031
0.023142 0.380683 0.359391
0.023208 0.380750 0.484082
0.023275 0.380817 0.608287
0.023341 0.380883 0.732110
0.023407 0.380949 0.855618
0.023473 0.381015 0.978859
0.023611 0.505685 0.002703
0.023668 0.505741 0.108251
0.023736 0.505809 0.234692
0.023803 0.505876 0.360052
0.023869 0.505943 0.484743
0.023936 0.506009 0.608948
0.024002 0.506076 0.732771
0.024069 0.506142 0.856280
0.024135 0.506208 0.979520
0.024270 0.630411 0.003362
0.024326 0.630467 0.108910
0.024394 0.630535 0.235351
0.024461 0.630602 0.360711
0.024528 0.630669 0.485402
0.024595 0.630736 0.609607
0.024661 0.630802 0.733430
0.024727 0.630868 0.856938
0.024793 0.630934 0.980179
0.024927 0.754767 0.004019
0.024983 0.754823 0.109567
0.025051 0.754891 0.236007
0.025118 0.754958 0.361367
0.025185 0.755025 0.486059
0.025251 0.755091 0.610264
0.025318 0.755158 0.734087
0.025384 0.755224 0.857595
0.025450 0.755290 0.980835
0.025582 0.878815 0.004674
0.025638 0.878872 0.110222
0.025706 0.878939 0.236662
0.025773 0.879007 0.362022
0.025840 0.879073 0.486714
0.025907 0.879140 0.610919
0.025973 0.879206 0.734742
0.026039 0.879272 0.858250
0.026105 0.879338 0.981490
0.026211 0.997934 0.005303
0.026267 0.997991 0.110851
0.026335 0.998059 0.237291
0.026402 0.998126 0.362651
0.026469 0.998193 0.487343
0.026536 0.998259 0.611548
0.026602 0.998326 0.735371
0.026668 0.998392 0.858879
0.026734 0.998458 0.982120
0.148996 0.000235 0.000235
0.149053 0.000291 0.105783
0.149120 0.000359 0.232223
0.149188 0.000426 0.357583
0.149254 0.000493 0.482275
0.149321 0.000560 0.606480
0.149387 0.000626 0.730303
0.149453 0.000692 0.853811
0.149519 0.000758 0.977051
0.149671 0.128064 0.000910
0.149728 0.128120 0.106458
0.149795 0.128188 0.232898
0.149863 0.128255 0.358258
0.149929 0.128322 0.482950
0.149996 0.128389 0.607155
0.150062 0.128455 0.730978
0.150128 0.128521 0.854486
0.150194 0.128587 0.977726
0.150341 0.254869 0.001579
0.150397 0.254926 0.107127
0.150465 0.254994 0.233568
0.150532 0.255061 0.358928
0.150599 0.255127 0.483619
0.150666 0.255194 0.607825
0.150732 0.255260 0.731648
0.150798 0.255326 0.855156
0.150864 0.255392 0.978396
0.151005 0.380694 0.002244
0.151062 0.380750 0.107792
0.151130 0.380818 0.234232
0.151197 0.380885 0.359592
0.151264 0.380952 0.484284
0.151330 0.381018 0.608489
0.151396 0.381085 0.732312
0.151463 0.381151 0.855820
0.151529 0.381217 0.979061
0.151666 0.505887 0.002905
0.151723 0.505943 0.108453
0.151791 0.506011 0.234894
0.151858 0.506078 0.360254
0.151925 0.506145 0.484945
0.151991 0.506211 0.609150
0.152058 0.506278 0.732973
0.152124 0.506344 0.856481
0.152190 0.506410 0.979722
0.152325 0.630613 0.003564
0.152382 0.630669 0.109112
0.152449 0.630737 0.235552
0.152517 0.630804 0.360912
0.152583 0.630871 0.485604
0.152650 0.630937 0.609809
0.152716 0.631004 0.733632
0.152782 0.631070 0.857140
0.152848 0.631136 0.980380
0.152982 0.754968 0.004220
0.153038 0.755025 0.109768
0.153106 0.755093 0.236209
0.153173 0.755160 0.361569
0.153240 0.755227 0.486260
0.153307 0.755293 0.610466
0.153373 0.755359 0.734289
0.153439 0.755426 0.857797
0.153505 0.755492 0.981037
0.153637 0.879017 0.004876
0.153694 0.879073 0.110423
0.153761 0.879141 0.236864
0.153828 0.879208 0.362224
0.153895 0.879275 0.486915
0.153962 0.879342 0.611121
0.154028 0.879408 0.734944
0.154094 0.879474 0.858452
0.154160 0.879540 0.981692
0.154266 0.998136 0.005505
0.154323 0.998193 0.111053
0.154390 0.998261 0.237493
0.154457 0.998328 0.362853
0.154524 0.998394 0.487545
0.154591 0.998461 0.611750
0.154657 0.998527 0.735573
0.154723 0.998593 0.859081
0.154789 0.998659 0.982321
0.275122 0.000434 0.000434
0.275178 0.000490 0.105981
0.275246 0.000558 0.232422
0.275313 0.000625 0.357782
0.275380 0.000692 0.482473
0.275446 0.000758 0.606679
0.275513 0.000825 0.730502
0.275579 0.000891 0.854010
0.275645 0.000957 0.977250
0.275797 0.128263 0.001109
0.275853 0.128319 0.106656
0.275921 0.128387 0.233097
0.275988 0.128454 0.358457
0.276055 0.128521 0.483148
0.276121 0.128587 0.607354
0.276188 0.128654 0.731177
0.276254 0.128720 0.854685
0.276320 0.128786 0.977925
0.276466 0.255068 0.001778
0.276523 0.255125 0.107326
0.276591 0.255192 0.233767
0.276658 0.255259 0.359127
0.276725 0.255326 0.483818
0.276791 0.255393 0.608023
0.276857 0.255459 0.731846
0.276924 0.255525 0.855354
0.276990 0.255591 0.978595
0.277131 0.380892 0.002443
0.277187 0.380949 0.107991
0.277255 0.381017 0.234431
0.277322 0.381084 0.359791
0.277389 0.381150 0.484483
0.277456 0.381217 0.608688
0.277522 0.381283 0.732511
0.277588 0.381350 0.856019
0.277654 0.381416 0.979259
0.277792 0.506085 0.003104
0.277849 0.506142 0.108652
0.277916 0.506210 0.235092
0.277983 0.506277 0.360452
0.278050 0.506343 0.485144
0.278117 0.506410 0.609349
0.278183 0.506476 0.733172
0.278249 0.506542 0.856680
0.278315 0.506609 0.979920
0.278451 0.630811 0.003763
0.278507 0.630868 0.109310
0.278575 0.630936 0.235751
0.278642 0.631003 0.361111
0.278709 0.631070 0.485802
0.278775 0.631136 0.610008
0.278842 0.631202 0.733831
0.278908 0.631269 0.857339
0.278974 0.631335 0.980579
0.279107 0.755167 0.004419
0.279164 0.755224 0.109967
0.279232 0.755291 0.236408
0.279299 0.755358 0.361768
0.279366 0.755425 0.486459
0.279432 0.755492 0.610664
0.279498 0.755558 0.734487
0.279565 0.755624 0.857995
0.279631 0.755690 0.981236
0.279762 0.879216 0.005074
0.279819 0.879272 0.110622
0.279887 0.879340 0.237063
0.279954 0.879407 0.362423
0.280021 0.879474 0.487114
0.280087 0.879540 0.611319
0.280154 0.879607 0.735142
0.280220 0.879673 0.858651
0.280286 0.879739 0.981891
0.280392 0.998335 0.005703
0.280448 0.998392 0.111251
0.280516 0.998459 0.237692
0.280583 0.998526 0.363052
0.280650 0.998593 0.487743
0.280716 0.998660 0.611948
0.280783 0.998726 0.735771
0.280849 0.998792 0.859280
0.280915 0.998858 0.982520
0.400355 0.000631 0.000631
0.400412 0.000687 0.106179
0.400479 0.000755 0.232619
0.400546 0.000822 0.357979
0.400613 0.000889 0.482671
0.400680 0.000956 0.606876
0.400746 0.001022 0.730699
0.400812 0.001088 0.854207
0.400878 0.001154 0.977447
0.401030 0.128460 0.001306
0.401087 0.128516 0.106854
0.401154 0.128584 0.233294
0.401221 0.128651 0.358654
0.401288 0.128718 0.483346
0.401355 0.128785 0.607551
0.401421 0.128851 0.731374
0.401487 0.128917 0.854882
0.401553 0.128983 0.978123
0.401700 0.255265 0.001976
0.401756 0.255322 0.107523
0.401824 0.255390 0.233964
0.401891 0.255457 0.359324
0.401958 0.255524 0.484015
0.402024 0.255590 0.608221
0.402091 0.255656 0.732044
0.402157 0.255723 0.855552
0.402223 0.255789 0.978792
0.402364 0.381090 0.002640
0.402421 0.381146 0.108188
0.402488 0.381214 0.234629
0.402556 0.381281 0.359989
0.402622 0.381348 0.484680
0.402689 0.381414 0.608885
0.402755 0.381481 0.732708
0.402821 0.381547 0.856216
0.402887 0.381613 0.979457
0.403025 0.506283 0.003301
0.403082 0.506339 0.108849
0.403150 0.506407 0.235290
0.403217 0.506474 0.360650
0.403284 0.506541 0.485341
0.403350 0.506607 0.609546
0.403416 0.506674 0.733369
0.403483 0.506740 0.856877
0.403549 0.506806 0.980118
0.403684 0.631009 0.003960
0.403741 0.631065 0.109508
0.403808 0.631133 0.235948
0.403875 0.631200 0.361308
0.403942 0.631267 0.486000
0.404009 0.631333 0.610205
0.404075 0.631400 0.734028
0.404141 0.631466 0.857536
0.404207 0.631532 0.980776
0.404341 0.755364 0.004617
0.404397 0.755421 0.110164
0.404465 0.755489 0.236605
0.404532 0.755556 0.361965
0.404599 0.755623 0.486656
0.404665 0.755689 0.610862
0.404732 0.755755 0.734685
0.404798 0.755822 0.858193
0.404864 0.755888 0.981433
0.404996 0.879413 0.005272
0.405052 0.879469 0.110820
0.405120 0.879537 0.237260
0.405187 0.879604 0.362620
0.405254 0.879671 0.487312
0.405321 0.879738 0.611517
0.405387 0.879804 0.735340
0.405453 0.879870 0.858848
0.405519 0.879936 0.982088
0.405625 0.998532 0.005901
0.405681 0.998589 0.111449
0.405749 0.998657 0.237889
0.405816 0.998724 0.363249
0.405883 0.998791 0.487941
0.405950 0.998857 0.612146
0.406016 0.998923 0.735969
0.406082 0.998990 0.859477
0.406148 0.999056 0.982717
0.524995 0.000827 0.000827
0.525052 0.000884 0.106375
0.525119 0.000951 0.232816
0.525186 0.001019 0.358176
0.525253 0.001085 0.482867
0.525320 0.001152 0.607072
0.525386 0.001218 0.730895
0.525452 0.001284 0.854403
0.525518 0.001350 0.977644
0.525670 0.128656 0.001502
0.525727 0.128713 0.107050
0.525794 0.128781 0.233491
0.525862 0.128848 0.358851
0.525928 0.128915 0.483542
0.525995 0.128981 0.607747
0.526061 0.129047 0.731570
0.526127 0.129114 0.855078
0.526193 0.129180 0.978319
0.526340 0.255462 0.002172
0.526396 0.255518 0.107720
0.526464 0.255586 0.234160
0.526531 0.255653 0.359520
0.526598 0.255720 0.484212
0.526664 0.255786 0.608417
0.526731 0.255853 0.732240
0.526797 0.255919 0.855748
0.526863 0.255985 0.978989
0.527004 0.381286 0.002836
0.527061 0.381343 0.108384
0.527128 0.381410 0.234825
0.527196 0.381477 0.360185
0.527262 0.381544 0.484876
0.527329 0.381611 0.609081
0.527395 0.381677 0.732904
0.527461 0.381743 0.856413
0.527527 0.381809 0.979653
0.527665 0.506479 0.003498
0.527722 0.506536 0.109045
0.527790 0.506603 0.235486
0.527857 0.506670 0.360846
0.527924 0.506737 0.485537
0.527990 0.506804 0.609743
0.528056 0.506870 0.733566
0.528123 0.506936 0.857074
0.528189 0.507002 0.980314
0.528324 0.631205 0.004156
0.528381 0.631262 0.109704
0.528448 0.631329 0.236145
0.528515 0.631397 0.361505
0.528582 0.631463 0.486196
0.528649 0.631530 0.610401
0.528715 0.631596 0.734224
0.528781 0.631662 0.857732
0.528847 0.631728 0.980973
0.528981 0.755561 0.004813
0.529037 0.755617 0.110361
0.529105 0.755685 0.236801
0.529172 0.755752 0.362161
0.529239 0.755819 0.486853
0.529306 0.755886 0.611058
0.529372 0.755952 0.734881
0.529438 0.756018 0.858389
0.529504 0.756084 0.981630
0.529636 0.879609 0.005468
0.529692 0.879666 0.111016
0.529760 0.879734 0.237457
0.529827 0.879801 0.362817
0.529894 0.879868 0.487508
0.529961 0.879934 0.611713
0.530027 0.880000 0.735536
0.530093 0.880067 0.859044
0.530159 0.880133 0.982285
0.530265 0.998729 0.006097
0.530321 0.998785 0.111645
0.530389 0.998853 0.238086
0.530456 0.998920 0.363446
0.530523 0.998987 0.488137
0.530590 0.999053 0.612342
0.530656 0.999120 0.736165
0.530722 0.999186 0.859673
0.530788 0.999252 0.982914
0.649190 0.001023 0.001023
0.649246 0.001079 0.106571
0.649314 0.001147 0.233011
0.649381 0.001214 0.358371
0.649448 0.001281 0.483063
0.649515 0.001348 0.607268
0.649581 0.001414 0.731091
0.649647 0.001480 0.854599
0.649713 0.001546 0.977840
0.649865 0.128852 0.001698
0.649921 0.128909 0.107246
0.649989 0.128976 0.233686
0.650056 0.129043 0.359046
0.650123 0.129110 0.483738
0.650190 0.129177 0.607943
0.650256 0.129243 0.731766
0.650322 0.129309 0.855274
0.650388 0.129375 0.978515
0.650534 0.255657 0.002368
0.650591 0.255714 0.107915
0.650659 0.255782 0.234356
0.650726 0.255849 0.359716
0.650793 0.255916 0.484408
0.650859 0.255982 0.608613
0.650926 0.256048 0.732436
0.650992 0.256115 0.855944
0.651058 0.256181 0.979184
0.651199 0.381482 0.003032
0.651255 0.381538 0.108580
0.651323 0.381606 0.235021
0.651390 0.381673 0.360381
0.651457 0.381740 0.485072
0.651524 0.381806 0.609277
0.651590 0.381873 0.733100
0.651656 0.381939 0.856608
0.651722 0.382005 0.979849
0.651860 0.506675 0.003693
0.651917 0.506731 0.109241
0.651984 0.506799 0.235682
0.652052 0.506866 0.361042
0.652118 0.506933 0.485733
0.652185 0.506999 0.609938
0.652251 0.507066 0.733761
0.652317 0.507132 0.857269
0.652383 0.507198 0.980510
0.652519 0.631401 0.004352
0.652575 0.631457 0.109900
0.652643 0.631525 0.236340
0.652710 0.631592 0.361700
0.652777 0.631659 0.486392
0.652844 0.631726 0.610597
0.652910 0.631792 0.734420
0.652976 0.631858 0.857928
0.653042 0.631924 0.981169
0.653175 0.755756 0.005009
0.653232 0.755813 0.110557
0.653300 0.755881 0.236997
0.653367 0.755948 0.362357
0.653434 0.756015 0.487049
0.653500 0.756081 0.611254
0.653567 0.756148 0.735077
0.653633 0.756214 0.858585
0.653699 0.756280 0.981825
0.653831 0.879805 0.005664
0.653887 0.879862 0.111212
0.653955 0.879929 0.237652
0.654022 0.879996 0.363012
0.654089 0.880063 0.487704
0.654155 0.880130 0.611909
0.654222 0.880196 0.735732
0.654288 0.880262 0.859240
0.654354 0.880328 0.982480
0.654460 0.998924 0.006293
0.654516 0.998981 0.111841
0.654584 0.999049 0.238281
0.654651 0.999116 0.363641
0.654718 0.999183 0.488333
0.654784 0.999249 0.612538
0.654851 0.999315 0.736361
0.654917 0.999382 0.859869
0.654983 0.999448 0.983109
0.773028 0.001218 0.001218
0.773084 0.001275 0.106766
0.773152 0.001342 0.233207
0.773219 0.001409 0.358567
0.773286 0.001476 0.483258
0.773353 0.001543 0.607463
0.773419 0.001609 0.731286
0.773485 0.001675 0.854794
0.773551 0.001741 0.978035
0.773703 0.129047 0.001893
0.773760 0.129104 0.107441
0.773827 0.129171 0.233882
0.773894 0.129239 0.359242
0.773961 0.129305 0.483933
0.774028 0.129372 0.608138
0.774094 0.129438 0.731961
0.774160 0.129504 0.855469
0.774226 0.129570 0.978710
0.774373 0.255853 0.002563
0.774429 0.255909 0.108111
0.774497 0.255977 0.234551
0.774564 0.256044 0.359911
0.774631 0.256111 0.484603
0.774697 0.256177 0.608808
0.774764 0.256244 0.732631
0.774830 0.256310 0.856139
0.774896 0.256376 0.979379
0.775037 0.381677 0.003227
0.775094 0.381733 0.108775
0.775161 0.381801 0.235216
0.775229 0.381868 0.360576
0.775295 0.381935 0.485267
0.775362 0.382002 0.609472
0.775428 0.382068 0.733295
0.775494 0.382134 0.856803
0.775560 0.382200 0.980044
0.775698 0.506870 0.003888
0.775755 0.506926 0.109436
0.775823 0.506994 0.235877
0.775890 0.507061 0.361237
0.775956 0.507128 0.485928
0.776023 0.507195 0.610133
0.776089 0.507261 0.733956
0.776155 0.507327 0.857465
0.776221 0.507393 0.980705
0.776357 0.631596 0.004547
0.776413 0.631652 0.110095
0.776481 0.631720 0.236536
0.776548 0.631787 0.361896
0.776615 0.631854 0.486587
0.776682 0.631921 0.610792
0.776748 0.631987 0.734615
0.776814 0.632053 0.858123
0.776880 0.632119 0.981364
0.777014 0.755952 0.005204
0.777070 0.756008 0.110752
0.777138 0.756076 0.237192
0.777205 0.756143 0.362552
0.777272 0.756210 0.487244
0.777338 0.756276 0.611449
0.777405 0.756343 0.735272
0.777471 0.756409 0.858780
0.777537 0.756475 0.982020
0.777669 0.880000 0.005859
0.777725 0.880057 0.111407
0.777793 0.880124 0.237847
0.777860 0.880192 0.363207
0.777927 0.880258 0.487899
0.777993 0.880325 0.612104
0.778060 0.880391 0.735927
0.778126 0.880457 0.859435
0.778192 0.880523 0.982675
0.778298 0.999120 0.006488
0.778354 0.999176 0.112036
0.778422 0.999244 0.238476
0.778489 0.999311 0.363836
0.778556 0.999378 0.488528
0.778623 0.999444 0.612733
0.778689 0.999511 0.736556
0.778755 0.999577 0.860064
0.778821 0.999643 0.983305
0.896569 0.001413 0.001413
0.896625 0.001469 0.106961
0.896693 0.001537 0.233401
0.896760 0.001604 0.358761
0.896827 0.001671 0.483453
0.896893 0.001737 0.607658
0.896960 0.001804 0.731481
0.897026 0.001870 0.854989
0.897092 0.001936 0.978229
0.897244 0.129242 0.002088
0.897300 0.129298 0.107636
0.897368 0.129366 0.234076
0.897435 0.129433 0.359436
0.897502 0.129500 0.484128
0.897569 0.129567 0.608333
0.897635 0.129633 0.732156
0.897701 0.129699 0.855664
0.897767 0.129765 0.978904
0.897913 0.256047 0.002757
0.897970 0.256104 0.108305
0.898038 0.256171 0.234746
0.898105 0.256239 0.360106
0.898172 0.256305 0.484797
0.898238 0.256372 0.609002
0.898305 0.256438 0.732825
0.898371 0.256504 0.856334
0.898437 0.256570 0.979574
0.898578 0.381871 0.003422
0.898634 0.381928 0.108970
0.898702 0.381996 0.235410
0.898769 0.382063 0.360770
0.898836 0.382130 0.485462
0.898903 0.382196 0.609667
0.898969 0.382263 0.733490
0.899035 0.382329 0.856998
0.899101 0.382395 0.980239
0.899239 0.507064 0.004083
0.899296 0.507121 0.109631
0.899363 0.507189 0.236072
0.899430 0.507256 0.361432
0.899497 0.507323 0.486123
0.899564 0.507389 0.610328
0.899630 0.507456 0.734151
0.899696 0.507522 0.857659
0.899762 0.507588 0.980900
0.899898 0.631791 0.004742
0.899954 0.631847 0.110290
0.900022 0.631915 0.236730
0.900089 0.631982 0.362090
0.900156 0.632049 0.486782
0.900222 0.632115 0.610987
0.900289 0.632182 0.734810
0.900355 0.632248 0.858318
0.900421 0.632314 0.981558
0.900554 0.756146 0.005398
0.900611 0.756203 0.110946
0.900679 0.756271 0.237387
0.900746 0.756338 0.362747
0.900813 0.756404 0.487438
0.900879 0.756471 0.611643
0.900946 0.756537 0.735466
0.901012 0.756604 0.858975
0.901078 0.756670 0.982215
0.901210 0.880195 0.006054
0.901266 0.880251 0.111601
0.901334 0.880319 0.238042
0.901401 0.880386 0.363402
0.901468 0.880453 0.488093
0.901534 0.880520 0.612299
0.901601 0.880586 0.736122
0.901667 0.880652 0.859630
0.901733 0.880718 0.982870
0.901839 0.999314 0.006683
0.901895 0.999371 0.112230
0.901963 0.999438 0.238671
0.902030 0.999506 0.364031
0.902097 0.999572 0.488722
0.902163 0.999639 0.612928
0.902230 0.999705 0.736751
0.902296 0.999771 0.860259
0.902362 0.999837 0.983499
0.994198 0.001567 0.001567
0.994255 0.001623 0.107114
0.994322 0.001691 0.233555
0.994390 0.001758 0.358915
0.994456 0.001825 0.483606
0.994523 0.001891 0.607812
0.994589 0.001958 0.731635
0.994655 0.002024 0.855143
0.994721 0.002090 0.978383
0.994873 0.129396 0.002242
0.994930 0.129452 0.107789
0.994997 0.129520 0.234230
0.995065 0.129587 0.359590
0.995131 0.129654 0.484281
0.995198 0.129720 0.608487
0.995264 0.129787 0.732310
0.995330 0.129853 0.855818
0.995396 0.129919 0.979058
0.995543 0.256201 0.002911
0.995599 0.256258 0.108459
0.995667 0.256325 0.234900
0.995734 0.256392 0.360260
0.995801 0.256459 0.484951
0.995868 0.256526 0.609156
0.995934 0.256592 0.732979
0.996000 0.256658 0.856487
0.996066 0.256724 0.979728
0.996207 0.382025 0.003576
0.996264 0.382082 0.109124
0.996332 0.382150 0.235564
0.996399 0.382217 0.360924
0.996466 0.382284 0.485616
0.996532 0.382350 0.609821
0.996598 0.382416 0.733644
0.996665 0.382483 0.857152
0.996731 0.382549 0.980392
0.996868 0.507218 0.004237
0.996925 0.507275 0.109785
0.996993 0.507343 0.236225
0.997060 0.507410 0.361585
0.997127 0.507476 0.486277
0.997193 0.507543 0.610482
0.997260 0.507609 0.734305
0.997326 0.507676 0.857813
0.997392 0.507742 0.981053
0.997527 0.631944 0.004896
0.997584 0.632001 0.110443
0.997651 0.632069 0.236884
0.997719 0.632136 0.362244
0.997785 0.632203 0.486935
0.997852 0.632269 0.611141
0.997918 0.632336 0.734964
0.997984 0.632402 0.858472
0.998050 0.632468 0.981712
0.998184 0.756300 0.005552
0.998240 0.756357 0.111100
0.998308 0.756424 0.237541
0.998375 0.756492 0.362901
0.998442 0.756558 0.487592
0.998509 0.756625 0.611797
0.998575 0.756691 0.735620
0.998641 0.756757 0.859128
0.998707 0.756823 0.982369
0.998839 0.880349 0.006207
0.998895 0.880405 0.111755
0.998963 0.880473 0.238196
0.999030 0.880540 0.363556
0.999097 0.880607 0.488247
0.999164 0.880673 0.612452
0.999230 0.880740 0.736275
0.999296 0.880806 0.859784
0.999362 0.880872 0.983024
0.999468 0.999468 0.006836
0.999525 0.999525 0.112384
0.999592 0.999592 0.238825
0.999659 0.999659 0.364185
0.999726 0.999726 0.488876
0.999793 0.999793 0.613081
0.999859 0.999859 0.736904
0.999925 0.999925 0.860413
0.999991 0.999991 0.983653
