skills/editops-orchestrator/assets/grade/luts/warm_skin_v10.cube
TITLE "warm_skin_v10"
LUT_3D_SIZE 17
DOMAIN_MIN 0.0 0.0 0.0
DOMAIN_MAX 1.0 1.0 1.0
0.033057 0.000000 0.000000
0.033023 0.000000 0.027065
0.032937 0.000000 0.094897
0.032852 0.000000 0.161418
0.032768 0.000000 0.227247
0.032685 0.000000 0.292599
0.032603 0.000000 0.357587
0.032521 0.000000 0.422283
0.032439 0.000000 0.486732
0.032357 0.000000 0.550970
0.032276 0.000000 0.615022
0.032194 0.000000 0.678909
0.032113 0.000000 0.742647
0.032033 0.000000 0.806249
0.031952 0.000000 0.869727
0.031871 0.000000 0.933090
0.031791 0.000000 0.996346
0.032248 0.063421 0.000000
0.032214 0.063387 0.026256
0.032127 0.063301 0.094087
0.032043 0.063216 0.160609
0.031959 0.063132 0.226438
0.031876 0.063049 0.291789
0.031794 0.062967 0.356778
0.031711 0.062885 0.421473
0.031629 0.062803 0.485923
0.031548 0.062721 0.550161
0.031466 0.062640 0.614213
0.031385 0.062558 0.678100
0.031304 0.062477 0.741837
0.031223 0.062397 0.805440
0.031143 0.062316 0.868917
0.031062 0.062235 0.932280
0.030982 0.062155 0.995537
0.031405 0.129649 0.000000
0.031370 0.129615 0.025412
0.031284 0.129529 0.093244
0.031200 0.129444 0.159766
0.031116 0.129360 0.225594
0.031033 0.129277 0.290946
0.030950 0.129195 0.355935
0.030868 0.129112 0.420630
0.030786 0.129031 0.485080
0.030705 0.128949 0.549317
0.030623 0.128868 0.613370
0.030542 0.128786 0.677256
0.030461 0.128705 0.740994
0.030380 0.128625 0.804596
0.030299 0.128544 0.868074
0.030219 0.128463 0.931437
0.030139 0.128383 0.994693
0.030573 0.195008 0.000000
0.030538 0.194974 0.024580
0.030452 0.194888 0.092412
0.030367 0.194803 0.158934
0.030284 0.194719 0.224762
0.030201 0.194636 0.290114
0.030118 0.194554 0.355102
0.030036 0.194471 0.419798
0.029954 0.194390 0.484247
0.029872 0.194308 0.548485
0.029791 0.194226 0.612537
0.029710 0.194145 0.676424
0.029629 0.194064 0.740162
0.029548 0.193983 0.803764
0.029467 0.193903 0.867242
0.029387 0.193822 0.930605
0.029306 0.193742 0.993861
0.029747 0.259818 0.000000
0.029713 0.259783 0.023755
0.029627 0.259697 0.091587
0.029542 0.259612 0.158108
0.029458 0.259529 0.223937
0.029375 0.259446 0.289289
0.029293 0.259363 0.354277
0.029211 0.259281 0.418973
0.029129 0.259199 0.483422
0.029047 0.259117 0.547660
0.028966 0.259036 0.611712
0.028884 0.258955 0.675599
0.028803 0.258874 0.739337
0.028723 0.258793 0.802939
0.028642 0.258712 0.866417
0.028561 0.258632 0.929780
0.028481 0.258551 0.993036
0.028927 0.324224 0.000000
0.028893 0.324190 0.022935
0.028807 0.324104 0.090767
0.028722 0.324019 0.157288
0.028638 0.323935 0.223117
0.028555 0.323852 0.288468
0.028473 0.323770 0.353457
0.028390 0.323688 0.418152
0.028309 0.323606 0.482602
0.028227 0.323524 0.546840
0.028146 0.323443 0.610892
0.028064 0.323361 0.674779
0.027983 0.323280 0.738517
0.027903 0.323200 0.802119
0.027822 0.323119 0.865597
0.027741 0.323038 0.928960
0.027661 0.322958 0.992216
0.028111 0.388313 0.000000
0.028077 0.388279 0.022119
0.027990 0.388192 0.089950
0.027906 0.388108 0.156472
0.027822 0.388024 0.222301
0.027739 0.387941 0.287652
0.027657 0.387859 0.352641
0.027574 0.387776 0.417336
0.027493 0.387694 0.481786
0.027411 0.387613 0.546024
0.027329 0.387531 0.610076
0.027248 0.387450 0.673963
0.027167 0.387369 0.737700
0.027086 0.387288 0.801303
0.027006 0.387208 0.864780
0.026925 0.387127 0.928143
0.026845 0.387047 0.991400
0.027299 0.452139 0.000000
0.027264 0.452105 0.021306
0.027178 0.452019 0.089138
0.027093 0.451934 0.155660
0.027010 0.451850 0.221488
0.026927 0.451767 0.286840
0.026844 0.451685 0.351828
0.026762 0.451603 0.416524
0.026680 0.451521 0.480973
0.026598 0.451439 0.545211
0.026517 0.451358 0.609263
0.026436 0.451276 0.673150
0.026355 0.451195 0.736888
0.026274 0.451115 0.800490
0.026193 0.451034 0.863968
0.026113 0.450953 0.927331
0.026032 0.450873 0.990587
0.026489 0.515742 0.000000
0.026454 0.515708 0.020496
0.026368 0.515621 0.088328
0.026283 0.515537 0.154850
0.026200 0.515453 0.220678
0.026117 0.515370 0.286030
0.026034 0.515288 0.351018
0.025952 0.515205 0.415714
0.025870 0.515123 0.480163
0.025788 0.515042 0.544401
0.025707 0.514960 0.608453
0.025626 0.514879 0.672340
0.025545 0.514798 0.736078
0.025464 0.514717 0.799680
0.025383 0.514637 0.863158
0.025303 0.514556 0.926521
0.025222 0.514476 0.989777
0.025681 0.579150 0.000000
0.025647 0.579116 0.019689
0.025560 0.579030 0.087520
0.025476 0.578945 0.154042
0.025392 0.578861 0.219871
0.025309 0.578778 0.285222
0.025227 0.578696 0.350211
0.025144 0.578614 0.414906
0.025063 0.578532 0.479356
0.024981 0.578450 0.543594
0.024899 0.578369 0.607646
0.024818 0.578287 0.671533
0.024737 0.578206 0.735270
0.024656 0.578126 0.798873
0.024576 0.578045 0.862350
0.024495 0.577964 0.925713
0.024415 0.577884 0.988970
0.024876 0.642387 0.000000
0.024841 0.642352 0.018883
0.024755 0.642266 0.086715
0.024671 0.642181 0.153237
0.024587 0.642098 0.219065
0.024504 0.642015 0.284417
0.024421 0.641932 0.349406
0.024339 0.641850 0.414101
0.024257 0.641768 0.478551
0.024176 0.641686 0.542789
0.024094 0.641605 0.606841
0.024013 0.641524 0.670727
0.023932 0.641443 0.734465
0.023851 0.641362 0.798067
0.023771 0.641281 0.861545
0.023690 0.641201 0.924908
0.023610 0.641120 0.988165
0.024073 0.705468 0.000000
0.024038 0.705434 0.018080
0.023952 0.705348 0.085912
0.023867 0.705263 0.152434
0.023784 0.705179 0.218262
0.023701 0.705096 0.283614
0.023618 0.705014 0.348603
0.023536 0.704932 0.413298
0.023454 0.704850 0.477747
0.023372 0.704768 0.541985
0.023291 0.704687 0.606037
0.023210 0.704605 0.669924
0.023129 0.704524 0.733662
0.023048 0.704444 0.797264
0.022967 0.704363 0.860742
0.022887 0.704282 0.924105
0.022806 0.704202 0.987361
0.023271 0.768411 0.000000
0.023237 0.768376 0.017279
0.023151 0.768290 0.085111
0.023066 0.768205 0.151632
0.022982 0.768122 0.217461
0.022899 0.768038 0.282812
0.022817 0.767956 0.347801
0.022734 0.767874 0.412496
0.022653 0.767792 0.476946
0.022571 0.767710 0.541184
0.022490 0.767629 0.605236
0.022408 0.767548 0.669123
0.022327 0.767467 0.732861
0.022246 0.767386 0.796463
0.022166 0.767305 0.859941
0.022085 0.767224 0.923304
0.022005 0.767144 0.986560
0.022471 0.831225 0.000000
0.022437 0.831190 0.016479
0.022351 0.831104 0.084311
0.022266 0.831019 0.150833
0.022183 0.830936 0.216661
0.022099 0.830853 0.282013
0.022017 0.830770 0.347001
0.021935 0.830688 0.411697
0.021853 0.830606 0.476146
0.021771 0.830524 0.540384
0.021690 0.830443 0.604436
0.021608 0.830362 0.668323
0.021527 0.830281 0.732061
0.021447 0.830200 0.795663
0.021366 0.830119 0.859141
0.021285 0.830039 0.922504
0.021205 0.829958 0.985760
0.021673 0.893921 0.000000
0.021639 0.893887 0.015681
0.021552 0.893801 0.083512
0.021468 0.893716 0.150034
0.021384 0.893632 0.215862
0.021301 0.893549 0.281214
0.021219 0.893467 0.346203
0.021136 0.893385 0.410898
0.021054 0.893303 0.475348
0.020973 0.893221 0.539586
0.020891 0.893140 0.603638
0.020810 0.893058 0.667525
0.020729 0.892977 0.731262
0.020648 0.892897 0.794865
0.020568 0.892816 0.858342
0.020487 0.892735 0.921705
0.020407 0.892655 0.984962
0.020876 0.956509 0.000000
0.020842 0.956474 0.014884
0.020755 0.956388 0.082715
0.020671 0.956304 0.149237
0.020587 0.956220 0.215065
0.020504 0.956137 0.280417
0.020422 0.956054 0.345406
0.020339 0.955972 0.410101
0.020257 0.955890 0.474551
0.020176 0.955809 0.538789
0.020094 0.955727 0.602841
0.020013 0.955646 0.666728
0.019932 0.955565 0.730465
0.019851 0.955484 0.794068
0.019771 0.955404 0.857545
0.019690 0.955323 0.920908
0.019610 0.955243 0.984165
0.020259 1.000000 0.000000
0.020225 1.000000 0.014267
0.020138 1.000000 0.082098
0.020054 1.000000 0.148620
0.019970 1.000000 0.214448
0.019887 1.000000 0.279800
0.019804 1.000000 0.344789
0.019722 1.000000 0.409484
0.019640 1.000000 0.473934
0.019559 1.000000 0.538172
0.019477 1.000000 0.602224
0.019396 1.000000 0.666110
0.019315 1.000000 0.729848
0.019234 1.000000 0.793450
0.019154 1.000000 0.856928
0.019073 1.000000 0.920291
0.018993 1.000000 0.983548
0.100550 0.000000 0.000000
0.100516 0.000000 0.026812
0.100430 0.000000 0.094643
0.100345 0.000000 0.161165
0.100261 0.000000 0.226993
0.100178 0.000000 0.292345
0.100096 0.000000 0.357334
0.100014 0.000000 0.422029
0.099932 0.000000 0.486479
0.099850 0.000000 0.550717
0.099769 0.000000 0.614769
0.099687 0.000000 0.678656
0.099606 0.000000 0.742393
0.099526 0.000000 0.805996
0.099445 0.000000 0.869473
0.099364 0.000000 0.932836
0.099284 0.000000 0.996093
0.099741 0.063168 0.000000
0.099707 0.063134 0.026002
0.099620 0.063047 0.093834
0.099536 0.062963 0.160356
0.099452 0.062879 0.226184
0.099369 0.062796 0.291536
0.099287 0.062714 0.356525
0.099204 0.062631 0.421220
0.099123 0.062550 0.485670
0.099041 0.062468 0.549908
0.098959 0.062386 0.613960
0.098878 0.062305 0.677846
0.098797 0.062224 0.741584
0.098716 0.062143 0.805186
0.098636 0.062063 0.868664
0.098555 0.061982 0.932027
0.098475 0.061902 0.995284
0.098898 0.129396 0.000000
0.098863 0.129362 0.025159
0.098777 0.129275 0.092991
0.098693 0.129191 0.159513
0.098609 0.129107 0.225341
0.098526 0.129024 0.290693
0.098443 0.128942 0.355682
0.098361 0.128859 0.420377
0.098279 0.128777 0.484826
0.098198 0.128696 0.549064
0.098116 0.128614 0.613116
0.098035 0.128533 0.677003
0.097954 0.128452 0.740741
0.097873 0.128371 0.804343
0.097792 0.128291 0.867821
0.097712 0.128210 0.931184
0.097632 0.128130 0.994440
0.098066 0.194755 0.000000
0.098031 0.194721 0.024327
0.097945 0.194634 0.092159
0.097860 0.194550 0.158681
0.097777 0.194466 0.224509
0.097694 0.194383 0.289861
0.097611 0.194300 0.354849
0.097529 0.194218 0.419545
0.097447 0.194136 0.483994
0.097365 0.194055 0.548232
0.097284 0.193973 0.612284
0.097203 0.193892 0.676171
0.097122 0.193811 0.739909
0.097041 0.193730 0.803511
0.096960 0.193650 0.866989
0.096880 0.193569 0.930352
0.096799 0.193489 0.993608
0.097240 0.259565 0.000000
0.097206 0.259530 0.023502
0.097120 0.259444 0.091333
0.097035 0.259359 0.157855
0.096951 0.259276 0.223684
0.096868 0.259193 0.289035
0.096786 0.259110 0.354024
0.096704 0.259028 0.418719
0.096622 0.258946 0.483169
0.096540 0.258864 0.547407
0.096459 0.258783 0.611459
0.096377 0.258702 0.675346
0.096296 0.258621 0.739083
0.096216 0.258540 0.802686
0.096135 0.258459 0.866163
0.096054 0.258379 0.929526
0.095974 0.258298 0.992783
0.096420 0.323971 0.000000
0.096386 0.323937 0.022682
0.096300 0.323850 0.090513
0.096215 0.323766 0.157035
0.096131 0.323682 0.222863
0.096048 0.323599 0.288215
0.095966 0.323517 0.353204
0.095884 0.323434 0.417899
0.095802 0.323352 0.482349
0.095720 0.323271 0.546587
0.095639 0.323189 0.610639
0.095557 0.323108 0.674526
0.095476 0.323027 0.738263
0.095396 0.322946 0.801866
0.095315 0.322866 0.865343
0.095234 0.322785 0.928706
0.095154 0.322705 0.991963
0.095604 0.388060 0.000000
0.095570 0.388025 0.021865
0.095484 0.387939 0.089697
0.095399 0.387855 0.156219
0.095315 0.387771 0.222047
0.095232 0.387688 0.287399
0.095150 0.387605 0.352388
0.095067 0.387523 0.417083
0.094986 0.387441 0.481533
0.094904 0.387360 0.545771
0.094822 0.387278 0.609823
0.094741 0.387197 0.673709
0.094660 0.387116 0.737447
0.094579 0.387035 0.801049
0.094499 0.386954 0.864527
0.094418 0.386874 0.927890
0.094338 0.386794 0.991147
0.094792 0.451886 0.000000
0.094757 0.451852 0.021053
0.094671 0.451765 0.088885
0.094586 0.451681 0.155406
0.094503 0.451597 0.221235
0.094420 0.451514 0.286586
0.094337 0.451432 0.351575
0.094255 0.451349 0.416270
0.094173 0.451267 0.480720
0.094091 0.451186 0.544958
0.094010 0.451104 0.609010
0.093929 0.451023 0.672897
0.093848 0.450942 0.736635
0.093767 0.450861 0.800237
0.093686 0.450781 0.863715
0.093606 0.450700 0.927078
0.093525 0.450620 0.990334
0.093982 0.515489 0.000000
0.093947 0.515454 0.020243
0.093861 0.515368 0.088075
0.093776 0.515284 0.154596
0.093693 0.515200 0.220425
0.093610 0.515117 0.285777
0.093527 0.515034 0.350765
0.093445 0.514952 0.415461
0.093363 0.514870 0.479910
0.093281 0.514789 0.544148
0.093200 0.514707 0.608200
0.093119 0.514626 0.672087
0.093038 0.514545 0.735825
0.092957 0.514464 0.799427
0.092876 0.514383 0.862905
0.092796 0.514303 0.926268
0.092715 0.514223 0.989524
0.093174 0.578897 0.000000
0.093140 0.578863 0.019435
0.093054 0.578776 0.087267
0.092969 0.578692 0.153789
0.092885 0.578608 0.219617
0.092802 0.578525 0.284969
0.092720 0.578443 0.349958
0.092637 0.578360 0.414653
0.092556 0.578278 0.479103
0.092474 0.578197 0.543341
0.092392 0.578115 0.607393
0.092311 0.578034 0.671279
0.092230 0.577953 0.735017
0.092149 0.577872 0.798619
0.092069 0.577792 0.862097
0.091988 0.577711 0.925460
0.091908 0.577631 0.988717
0.092369 0.642133 0.000000
0.092334 0.642099 0.018630
0.092248 0.642013 0.086462
0.092164 0.641928 0.152984
0.092080 0.641844 0.218812
0.091997 0.641761 0.284164
0.091914 0.641679 0.349153
0.091832 0.641597 0.413848
0.091750 0.641515 0.478297
0.091669 0.641433 0.542535
0.091587 0.641352 0.606587
0.091506 0.641270 0.670474
0.091425 0.641189 0.734212
0.091344 0.641109 0.797814
0.091264 0.641028 0.861292
0.091183 0.640947 0.924655
0.091103 0.640867 0.987911
0.091566 0.705215 0.000000
0.091531 0.705181 0.017827
0.091445 0.705094 0.085659
0.091360 0.705010 0.152181
0.091277 0.704926 0.218009
0.091194 0.704843 0.283361
0.091111 0.704761 0.348349
0.091029 0.704678 0.413045
0.090947 0.704597 0.477494
0.090865 0.704515 0.541732
0.090784 0.704433 0.605784
0.090703 0.704352 0.669671
0.090622 0.704271 0.733409
0.090541 0.704190 0.797011
0.090460 0.704110 0.860489
0.090380 0.704029 0.923852
0.090299 0.703949 0.987108
0.090764 0.768157 0.000000
0.090730 0.768123 0.017026
0.090644 0.768037 0.084857
0.090559 0.767952 0.151379
0.090475 0.767868 0.217207
0.090392 0.767785 0.282559
0.090310 0.767703 0.347548
0.090227 0.767620 0.412243
0.090146 0.767539 0.476693
0.090064 0.767457 0.540931
0.089983 0.767376 0.604983
0.089901 0.767294 0.668870
0.089820 0.767213 0.732607
0.089740 0.767132 0.796209
0.089659 0.767052 0.859687
0.089578 0.766971 0.923050
0.089498 0.766891 0.986307
0.089964 0.830972 0.000000
0.089930 0.830937 0.016226
0.089844 0.830851 0.084057
0.089759 0.830766 0.150579
0.089676 0.830683 0.216408
0.089592 0.830600 0.281759
0.089510 0.830517 0.346748
0.089428 0.830435 0.411443
0.089346 0.830353 0.475893
0.089264 0.830271 0.540131
0.089183 0.830190 0.604183
0.089102 0.830109 0.668070
0.089021 0.830028 0.731807
0.088940 0.829947 0.795410
0.088859 0.829866 0.858887
0.088778 0.829786 0.922250
0.088698 0.829705 0.985507
0.089166 0.893668 0.000000
0.089132 0.893634 0.015427
0.089045 0.893547 0.083259
0.088961 0.893463 0.149781
0.088877 0.893379 0.215609
0.088794 0.893296 0.280961
0.088712 0.893214 0.345950
0.088629 0.893131 0.410645
0.088547 0.893049 0.475095
0.088466 0.892968 0.539332
0.088384 0.892886 0.603385
0.088303 0.892805 0.667271
0.088222 0.892724 0.731009
0.088141 0.892643 0.794611
0.088061 0.892563 0.858089
0.087980 0.892482 0.921452
0.087900 0.892402 0.984708
0.088369 0.956256 0.000000
0.088335 0.956221 0.014630
0.088248 0.956135 0.082462
0.088164 0.956051 0.148984
0.088080 0.955967 0.214812
0.087997 0.955884 0.280164
0.087915 0.955801 0.345153
0.087832 0.955719 0.409848
0.087750 0.955637 0.474298
0.087669 0.955555 0.538535
0.087587 0.955474 0.602588
0.087506 0.955393 0.666474
0.087425 0.955312 0.730212
0.087344 0.955231 0.793814
0.087264 0.955150 0.857292
0.087183 0.955070 0.920655
0.087103 0.954989 0.983912
0.087752 1.000000 0.000000
0.087718 1.000000 0.014013
0.087631 1.000000 0.081845
0.087547 1.000000 0.148367
0.087463 1.000000 0.214195
0.087380 1.000000 0.279547
0.087297 1.000000 0.344536
0.087215 1.000000 0.409231
0.087133 1.000000 0.473681
0.087052 1.000000 0.537918
0.086970 1.000000 0.601970
0.086889 1.000000 0.665857
0.086808 1.000000 0.729595
0.086727 1.000000 0.793197
0.086647 1.000000 0.856675
0.086566 1.000000 0.920038
0.086486 1.000000 0.983294
0.166834 0.000000 0.000000
0.166800 0.000000 0.026563
0.166713 0.000000 0.094395
0.166629 0.000000 0.160917
0.166545 0.000000 0.226745
0.166462 0.000000 0.292097
0.166380 0.000000 0.357085
0.166297 0.000000 0.421781
0.166215 0.000000 0.486230
0.166134 0.000000 0.550468
0.166052 0.000000 0.614520
0.165971 0.000000 0.678407
0.165890 0.000000 0.742145
0.165809 0.000000 0.805747
0.165729 0.000000 0.869225
0.165648 0.000000 0.932588
0.165568 0.000000 0.995844
0.166025 0.062920 0.000000
0.165990 0.062885 0.025754
0.165904 0.062799 0.093586
0.165820 0.062714 0.160107
0.165736 0.062631 0.225936
0.165653 0.062548 0.291287
0.165570 0.062465 0.356276
0.165488 0.062383 0.420972
0.165406 0.062301 0.485421
0.165325 0.062219 0.549659
0.165243 0.062138 0.613711
0.165162 0.062057 0.677598
0.165081 0.061976 0.741336
0.165000 0.061895 0.804938
0.164920 0.061814 0.868416
0.164839 0.061734 0.931779
0.164759 0.061653 0.995035
0.165182 0.129147 0.000000
0.165147 0.129113 0.024910
0.165061 0.129027 0.092742
0.164976 0.128942 0.159264
0.164893 0.128858 0.225092
0.164810 0.128775 0.290444
0.164727 0.128693 0.355433
0.164645 0.128611 0.420128
0.164563 0.128529 0.484578
0.164481 0.128447 0.548816
0.164400 0.128366 0.612868
0.164319 0.128284 0.676754
0.164238 0.128203 0.740492
0.164157 0.128123 0.804094
0.164076 0.128042 0.867572
0.163996 0.127961 0.930935
0.163915 0.127881 0.994192
0.164349 0.194506 0.000000
0.164315 0.194472 0.024078
0.164229 0.194386 0.091910
0.164144 0.194301 0.158432
0.164061 0.194217 0.224260
0.163977 0.194134 0.289612
0.163895 0.194052 0.354601
0.163813 0.193970 0.419296
0.163731 0.193888 0.483745
0.163649 0.193806 0.547983
0.163568 0.193725 0.612035
0.163487 0.193643 0.675922
0.163406 0.193562 0.739660
0.163325 0.193482 0.803262
0.163244 0.193401 0.866740
0.163163 0.193320 0.930103
0.163083 0.193240 0.993359
0.163524 0.259316 0.000000
0.163490 0.259281 0.023253
0.163403 0.259195 0.091085
0.163319 0.259111 0.157607
0.163235 0.259027 0.223435
0.163152 0.258944 0.288787
0.163070 0.258861 0.353775
0.162987 0.258779 0.418471
0.162906 0.258697 0.482920
0.162824 0.258615 0.547158
0.162742 0.258534 0.611210
0.162661 0.258453 0.675097
0.162580 0.258372 0.738835
0.162499 0.258291 0.802437
0.162419 0.258210 0.865915
0.162338 0.258130 0.929278
0.162258 0.258049 0.992534
0.162704 0.323723 0.000000
0.162670 0.323688 0.022433
0.162583 0.323602 0.090265
0.162499 0.323517 0.156786
0.162415 0.323434 0.222615
0.162332 0.323351 0.287967
0.162250 0.323268 0.352955
0.162167 0.323186 0.417651
0.162085 0.323104 0.482100
0.162004 0.323022 0.546338
0.161922 0.322941 0.610390
0.161841 0.322860 0.674277
0.161760 0.322779 0.738015
0.161679 0.322698 0.801617
0.161599 0.322617 0.865095
0.161518 0.322537 0.928458
0.161438 0.322456 0.991714
0.161888 0.387811 0.000000
0.161854 0.387777 0.021617
0.161767 0.387691 0.089449
0.161683 0.387606 0.155970
0.161599 0.387522 0.221799
0.161516 0.387439 0.287151
0.161433 0.387357 0.352139
0.161351 0.387274 0.416835
0.161269 0.387193 0.481284
0.161188 0.387111 0.545522
0.161106 0.387029 0.609574
0.161025 0.386948 0.673461
0.160944 0.386867 0.737199
0.160863 0.386786 0.800801
0.160783 0.386706 0.864279
0.160702 0.386625 0.927642
0.160622 0.386545 0.990898
0.161075 0.451638 0.000000
0.161041 0.451603 0.020804
0.160955 0.451517 0.088636
0.160870 0.451432 0.155158
0.160786 0.451349 0.220986
0.160703 0.451265 0.286338
0.160621 0.451183 0.351326
0.160538 0.451101 0.416022
0.160457 0.451019 0.480471
0.160375 0.450937 0.544709
0.160294 0.450856 0.608761
0.160212 0.450775 0.672648
0.160131 0.450694 0.736386
0.160051 0.450613 0.799988
0.159970 0.450532 0.863466
0.159889 0.450451 0.926829
0.159809 0.450371 0.990085
0.160265 0.515240 0.000000
0.160231 0.515206 0.019994
0.160145 0.515120 0.087826
0.160060 0.515035 0.154348
0.159976 0.514951 0.220176
0.159893 0.514868 0.285528
0.159811 0.514786 0.350517
0.159729 0.514703 0.415212
0.159647 0.514622 0.479661
0.159565 0.514540 0.543899
0.159484 0.514458 0.607951
0.159402 0.514377 0.671838
0.159321 0.514296 0.735576
0.159241 0.514215 0.799178
0.159160 0.514135 0.862656
0.159079 0.514054 0.926019
0.158999 0.513974 0.989275
0.159458 0.578649 0.000000
0.159423 0.578614 0.019187
0.159337 0.578528 0.087019
0.159253 0.578443 0.153540
0.159169 0.578360 0.219369
0.159086 0.578277 0.284720
0.159003 0.578194 0.349709
0.158921 0.578112 0.414405
0.158839 0.578030 0.478854
0.158758 0.577948 0.543092
0.158676 0.577867 0.607144
0.158595 0.577786 0.671031
0.158514 0.577705 0.734769
0.158433 0.577624 0.798371
0.158353 0.577543 0.861849
0.158272 0.577463 0.925212
0.158192 0.577382 0.988468
0.158653 0.641885 0.000000
0.158618 0.641850 0.018382
0.158532 0.641764 0.086213
0.158448 0.641679 0.152735
0.158364 0.641596 0.218563
0.158281 0.641513 0.283915
0.158198 0.641430 0.348904
0.158116 0.641348 0.413599
0.158034 0.641266 0.478049
0.157952 0.641184 0.542287
0.157871 0.641103 0.606339
0.157790 0.641022 0.670226
0.157709 0.640941 0.733963
0.157628 0.640860 0.797566
0.157547 0.640779 0.861043
0.157467 0.640699 0.924406
0.157386 0.640618 0.987663
0.157850 0.704967 0.000000
0.157815 0.704932 0.017578
0.157729 0.704846 0.085410
0.157644 0.704761 0.151932
0.157561 0.704678 0.217760
0.157478 0.704595 0.283112
0.157395 0.704512 0.348101
0.157313 0.704430 0.412796
0.157231 0.704348 0.477246
0.157149 0.704266 0.541483
0.157068 0.704185 0.605536
0.156987 0.704104 0.669422
0.156906 0.704023 0.733160
0.156825 0.703942 0.796762
0.156744 0.703861 0.860240
0.156664 0.703781 0.923603
0.156583 0.703700 0.986859
0.157048 0.767909 0.000000
0.157014 0.767874 0.016777
0.156927 0.767788 0.084609
0.156843 0.767703 0.151130
0.156759 0.767620 0.216959
0.156676 0.767537 0.282311
0.156594 0.767454 0.347299
0.156511 0.767372 0.411995
0.156429 0.767290 0.476444
0.156348 0.767208 0.540682
0.156266 0.767127 0.604734
0.156185 0.767046 0.668621
0.156104 0.766965 0.732359
0.156023 0.766884 0.795961
0.155943 0.766803 0.859439
0.155862 0.766723 0.922802
0.155782 0.766642 0.986058
0.156248 0.830723 0.000000
0.156214 0.830688 0.015977
0.156128 0.830602 0.083809
0.156043 0.830518 0.150331
0.155959 0.830434 0.216159
0.155876 0.830351 0.281511
0.155794 0.830268 0.346499
0.155711 0.830186 0.411195
0.155630 0.830104 0.475644
0.155548 0.830023 0.539882
0.155466 0.829941 0.603934
0.155385 0.829860 0.667821
0.155304 0.829779 0.731559
0.155223 0.829698 0.795161
0.155143 0.829617 0.858639
0.155062 0.829537 0.922002
0.154982 0.829456 0.985258
0.155450 0.893420 0.000000
0.155415 0.893385 0.015179
0.155329 0.893299 0.083010
0.155245 0.893214 0.149532
0.155161 0.893131 0.215361
0.155078 0.893048 0.280712
0.154995 0.892965 0.345701
0.154913 0.892883 0.410396
0.154831 0.892801 0.474846
0.154750 0.892719 0.539084
0.154668 0.892638 0.603136
0.154587 0.892557 0.667023
0.154506 0.892476 0.730760
0.154425 0.892395 0.794363
0.154344 0.892314 0.857840
0.154264 0.892234 0.921203
0.154184 0.892153 0.984460
0.154653 0.956007 0.000000
0.154618 0.955973 0.014382
0.154532 0.955886 0.082213
0.154448 0.955802 0.148735
0.154364 0.955718 0.214564
0.154281 0.955635 0.279915
0.154198 0.955553 0.344904
0.154116 0.955470 0.409599
0.154034 0.955388 0.474049
0.153953 0.955307 0.538287
0.153871 0.955225 0.602339
0.153790 0.955144 0.666226
0.153709 0.955063 0.729963
0.153628 0.954982 0.793566
0.153547 0.954902 0.857044
0.153467 0.954821 0.920407
0.153387 0.954741 0.983663
0.154036 1.000000 0.000000
0.154001 1.000000 0.013765
0.153915 1.000000 0.081596
0.153831 1.000000 0.148118
0.153747 1.000000 0.213947
0.153664 1.000000 0.279298
0.153581 1.000000 0.344287
0.153499 1.000000 0.408982
0.153417 1.000000 0.473432
0.153335 1.000000 0.537670
0.153254 1.000000 0.601722
0.153173 1.000000 0.665609
0.153092 1.000000 0.729346
0.153011 1.000000 0.792949
0.152930 1.000000 0.856426
0.152850 1.000000 0.919789
0.152769 1.000000 0.983046
0.232452 0.000000 0.000000
0.232418 0.000000 0.026317
0.232332 0.000000 0.094149
0.232247 0.000000 0.160670
0.232163 0.000000 0.226499
0.232080 0.000000 0.291850
0.231998 0.000000 0.356839
0.231916 0.000000 0.421535
0.231834 0.000000 0.485984
0.231752 0.000000 0.550222
0.231671 0.000000 0.614274
0.231589 0.000000 0.678161
0.231508 0.000000 0.741899
0.231428 0.000000 0.805501
0.231347 0.000000 0.868979
0.231266 0.000000 0.932342
0.231186 0.000000 0.995598
0.231643 0.062673 0.000000
