skills/editops-orchestrator/assets/grade/luts/warm_skin_v04.cube
TITLE "warm_skin_v04"
LUT_3D_SIZE 17
DOMAIN_MIN 0.0 0.0 0.0
DOMAIN_MAX 1.0 1.0 1.0
0.020941 0.000033 0.000033
0.020963 0.000055 0.041562
0.020997 0.000090 0.105581
0.021031 0.000123 0.168983
0.021065 0.000157 0.232022
0.021099 0.000191 0.294802
0.021132 0.000224 0.357382
0.021166 0.000258 0.419797
0.021199 0.000291 0.482073
0.021232 0.000325 0.544229
0.021266 0.000358 0.606278
0.021299 0.000391 0.668233
0.021332 0.000424 0.730101
0.021365 0.000457 0.791891
0.021398 0.000490 0.853609
0.021431 0.000523 0.915260
0.021464 0.000556 0.976850
0.021278 0.063800 0.000370
0.021300 0.063822 0.041898
0.021334 0.063857 0.105918
0.021368 0.063891 0.169319
0.021402 0.063924 0.232358
0.021436 0.063958 0.295139
0.021469 0.063992 0.357718
0.021503 0.064025 0.420133
0.021536 0.064058 0.482410
0.021569 0.064092 0.544565
0.021602 0.064125 0.606615
0.021636 0.064158 0.668569
0.021669 0.064191 0.730438
0.021702 0.064224 0.792228
0.021735 0.064257 0.853946
0.021768 0.064290 0.915597
0.021801 0.064323 0.977186
0.021616 0.127862 0.000708
0.021638 0.127884 0.042237
0.021673 0.127919 0.106256
0.021707 0.127953 0.169658
0.021740 0.127986 0.232697
0.021774 0.128020 0.295477
0.021807 0.128053 0.358057
0.021841 0.128087 0.420472
0.021874 0.128120 0.482748
0.021908 0.128154 0.544904
0.021941 0.128187 0.606953
0.021974 0.128220 0.668908
0.022007 0.128253 0.730776
0.022040 0.128286 0.792566
0.022073 0.128319 0.854284
0.022106 0.128352 0.915936
0.022139 0.128385 0.977525
0.021952 0.191425 0.001044
0.021974 0.191447 0.042572
0.022008 0.191481 0.106592
0.022042 0.191515 0.169993
0.022076 0.191549 0.233032
0.022110 0.191583 0.295813
0.022143 0.191616 0.358392
0.022177 0.191650 0.420807
0.022210 0.191683 0.483084
0.022243 0.191716 0.545239
0.022276 0.191750 0.607289
0.022310 0.191783 0.669243
0.022343 0.191816 0.731112
0.022376 0.191849 0.792902
0.022409 0.191882 0.854620
0.022442 0.191915 0.916271
0.022475 0.191948 0.977860
0.022286 0.254667 0.001378
0.022308 0.254690 0.042906
0.022342 0.254724 0.106926
0.022376 0.254758 0.170327
0.022410 0.254792 0.233366
0.022444 0.254825 0.296147
0.022477 0.254859 0.358726
0.022511 0.254892 0.421141
0.022544 0.254926 0.483418
0.022577 0.254959 0.545573
0.022610 0.254992 0.607623
0.022644 0.255025 0.669577
0.022677 0.255059 0.731446
0.022710 0.255092 0.793236
0.022743 0.255125 0.854954
0.022776 0.255158 0.916605
0.022809 0.255191 0.978194
0.022618 0.317673 0.001710
0.022641 0.317696 0.043239
0.022675 0.317730 0.107258
0.022709 0.317764 0.170660
0.022743 0.317798 0.233699
0.022776 0.317831 0.296479
0.022810 0.317865 0.359059
0.022843 0.317898 0.421474
0.022877 0.317932 0.483750
0.022910 0.317965 0.545906
0.022943 0.317998 0.607956
0.022976 0.318031 0.669910
0.023009 0.318065 0.731779
0.023043 0.318098 0.793569
0.023076 0.318131 0.855287
0.023109 0.318164 0.916938
0.023142 0.318197 0.978527
0.022950 0.380492 0.002042
0.022972 0.380514 0.043571
0.023007 0.380548 0.107590
0.023041 0.380582 0.170992
0.023074 0.380616 0.234031
0.023108 0.380650 0.296811
0.023142 0.380683 0.359391
0.023175 0.380717 0.421806
0.023208 0.380750 0.484082
0.023242 0.380783 0.546238
0.023275 0.380817 0.608287
0.023308 0.380850 0.670242
0.023341 0.380883 0.732110
0.023374 0.380916 0.793900
0.023407 0.380949 0.855618
0.023440 0.380982 0.917270
0.023473 0.381015 0.978859
0.023281 0.443155 0.002373
0.023303 0.443177 0.043902
0.023338 0.443211 0.107921
0.023372 0.443245 0.171323
0.023405 0.443279 0.234362
0.023439 0.443313 0.297142
0.023472 0.443346 0.359722
0.023506 0.443379 0.422137
0.023539 0.443413 0.484413
0.023573 0.443446 0.546569
0.023606 0.443479 0.608618
0.023639 0.443513 0.670573
0.023672 0.443546 0.732441
0.023705 0.443579 0.794231
0.023738 0.443612 0.855949
0.023771 0.443645 0.917601
0.023804 0.443678 0.979190
0.023611 0.505685 0.002703
0.023634 0.505707 0.044232
0.023668 0.505741 0.108251
0.023702 0.505775 0.171653
0.023736 0.505809 0.234692
0.023769 0.505843 0.297472
0.023803 0.505876 0.360052
0.023836 0.505910 0.422467
0.023869 0.505943 0.484743
0.023903 0.505976 0.546899
0.023936 0.506009 0.608948
0.023969 0.506043 0.670903
0.024002 0.506076 0.732771
0.024035 0.506109 0.794562
0.024069 0.506142 0.856280
0.024102 0.506175 0.917931
0.024135 0.506208 0.979520
0.023941 0.568099 0.003033
0.023963 0.568121 0.044561
0.023997 0.568156 0.108581
0.024031 0.568190 0.171983
0.024065 0.568223 0.235021
0.024099 0.568257 0.297802
0.024132 0.568291 0.360381
0.024166 0.568324 0.422797
0.024199 0.568357 0.485073
0.024232 0.568391 0.547229
0.024266 0.568424 0.609278
0.024299 0.568457 0.671232
0.024332 0.568490 0.733101
0.024365 0.568523 0.794891
0.024398 0.568556 0.856609
0.024431 0.568589 0.918260
0.024464 0.568622 0.979850
0.024270 0.630411 0.003362
0.024292 0.630433 0.044891
0.024326 0.630467 0.108910
0.024360 0.630501 0.172312
0.024394 0.630535 0.235351
0.024428 0.630569 0.298131
0.024461 0.630602 0.360711
0.024495 0.630636 0.423126
0.024528 0.630669 0.485402
0.024561 0.630702 0.547558
0.024595 0.630736 0.609607
0.024628 0.630769 0.671562
0.024661 0.630802 0.733430
0.024694 0.630835 0.795220
0.024727 0.630868 0.856938
0.024760 0.630901 0.918589
0.024793 0.630934 0.980179
0.024599 0.692631 0.003691
0.024621 0.692653 0.045219
0.024655 0.692687 0.109238
0.024689 0.692721 0.172640
0.024723 0.692755 0.235679
0.024756 0.692788 0.298460
0.024790 0.692822 0.361039
0.024823 0.692855 0.423454
0.024857 0.692889 0.485730
0.024890 0.692922 0.547886
0.024923 0.692955 0.609936
0.024956 0.692988 0.671890
0.024990 0.693022 0.733759
0.025023 0.693055 0.795549
0.025056 0.693088 0.857267
0.025089 0.693121 0.918918
0.025122 0.693154 0.980507
0.024927 0.754767 0.004019
0.024949 0.754789 0.045547
0.024983 0.754823 0.109567
0.025017 0.754857 0.172968
0.025051 0.754891 0.236007
0.025085 0.754924 0.298788
0.025118 0.754958 0.361367
0.025152 0.754991 0.423782
0.025185 0.755025 0.486059
0.025218 0.755058 0.548214
0.025251 0.755091 0.610264
0.025285 0.755125 0.672218
0.025318 0.755158 0.734087
0.025351 0.755191 0.795877
0.025384 0.755224 0.857595
0.025417 0.755257 0.919246
0.025450 0.755290 0.980835
0.025254 0.816826 0.004346
0.025277 0.816848 0.045875
0.025311 0.816883 0.109894
0.025345 0.816917 0.173296
0.025379 0.816950 0.236335
0.025412 0.816984 0.299115
0.025446 0.817018 0.361695
0.025479 0.817051 0.424110
0.025513 0.817084 0.486386
0.025546 0.817118 0.548542
0.025579 0.817151 0.610592
0.025612 0.817184 0.672546
0.025645 0.817217 0.734415
0.025679 0.817250 0.796205
0.025712 0.817283 0.857923
0.025745 0.817316 0.919574
0.025778 0.817349 0.981163
0.025582 0.878815 0.004674
0.025604 0.878837 0.046202
0.025638 0.878872 0.110222
0.025672 0.878906 0.173623
0.025706 0.878939 0.236662
0.025740 0.878973 0.299443
0.025773 0.879007 0.362022
0.025807 0.879040 0.424438
0.025840 0.879073 0.486714
0.025873 0.879107 0.548869
0.025907 0.879140 0.610919
0.025940 0.879173 0.672873
0.025973 0.879206 0.734742
0.026006 0.879239 0.796532
0.026039 0.879272 0.858250
0.026072 0.879305 0.919901
0.026105 0.879338 0.981490
0.025909 0.940739 0.005001
0.025931 0.940761 0.046529
0.025965 0.940795 0.110549
0.025999 0.940829 0.173950
0.026033 0.940863 0.236989
0.026067 0.940897 0.299770
0.026100 0.940930 0.362349
0.026134 0.940964 0.424765
0.026167 0.940997 0.487041
0.026200 0.941030 0.549196
0.026234 0.941063 0.611246
0.026267 0.941097 0.673200
0.026300 0.941130 0.735069
0.026333 0.941163 0.796859
0.026366 0.941196 0.858577
0.026399 0.941229 0.920228
0.026432 0.941262 0.981817
0.026211 0.997934 0.005303
0.026233 0.997957 0.046831
0.026267 0.997991 0.110851
0.026301 0.998025 0.174252
0.026335 0.998059 0.237291
0.026369 0.998092 0.300072
0.026402 0.998126 0.362651
0.026436 0.998159 0.425067
0.026469 0.998193 0.487343
0.026502 0.998226 0.549498
0.026536 0.998259 0.611548
0.026569 0.998292 0.673502
0.026602 0.998326 0.735371
0.026635 0.998359 0.797161
0.026668 0.998392 0.858879
0.026701 0.998425 0.920530
0.026734 0.998458 0.982120
0.085374 0.000135 0.000135
0.085396 0.000157 0.041663
0.085430 0.000191 0.105682
0.085464 0.000225 0.169084
0.085498 0.000259 0.232123
0.085532 0.000292 0.294904
0.085565 0.000326 0.357483
0.085599 0.000359 0.419898
0.085632 0.000393 0.482174
0.085665 0.000426 0.544330
0.085699 0.000459 0.606380
0.085732 0.000492 0.668334
0.085765 0.000526 0.730203
0.085798 0.000559 0.791993
0.085831 0.000592 0.853711
0.085864 0.000625 0.915362
0.085897 0.000658 0.976951
0.085711 0.063902 0.000471
0.085733 0.063924 0.042000
0.085767 0.063958 0.106019
0.085801 0.063992 0.169421
0.085835 0.064026 0.232460
0.085869 0.064060 0.295240
0.085902 0.064093 0.357820
0.085935 0.064127 0.420235
0.085969 0.064160 0.482511
0.086002 0.064193 0.544667
0.086035 0.064226 0.606716
0.086069 0.064260 0.668671
0.086102 0.064293 0.730539
0.086135 0.064326 0.792329
0.086168 0.064359 0.854047
0.086201 0.064392 0.915699
0.086234 0.064425 0.977288
0.086049 0.127964 0.000810
0.086071 0.127986 0.042338
0.086105 0.128020 0.106357
0.086139 0.128054 0.169759
0.086173 0.128088 0.232798
0.086207 0.128121 0.295579
0.086240 0.128155 0.358158
0.086274 0.128188 0.420573
0.086307 0.128222 0.482849
0.086340 0.128255 0.545005
0.086374 0.128288 0.607055
0.086407 0.128322 0.669009
0.086440 0.128355 0.730878
0.086473 0.128388 0.792668
0.086506 0.128421 0.854386
0.086539 0.128454 0.916037
0.086572 0.128487 0.977626
0.086385 0.191526 0.001145
0.086407 0.191549 0.042674
0.086441 0.191583 0.106693
0.086475 0.191617 0.170095
0.086509 0.191651 0.233134
0.086543 0.191684 0.295914
0.086576 0.191718 0.358494
0.086609 0.191751 0.420909
0.086643 0.191785 0.483185
0.086676 0.191818 0.545341
0.086709 0.191851 0.607390
0.086743 0.191884 0.669345
0.086776 0.191918 0.731213
0.086809 0.191951 0.793003
0.086842 0.191984 0.854721
0.086875 0.192017 0.916373
0.086908 0.192050 0.977962
0.086719 0.254769 0.001479
0.086741 0.254791 0.043008
0.086775 0.254826 0.107027
0.086809 0.254859 0.170429
0.086843 0.254893 0.233468
0.086876 0.254927 0.296248
0.086910 0.254960 0.358828
0.086943 0.254994 0.421243
0.086977 0.255027 0.483519
0.087010 0.255061 0.545675
0.087043 0.255094 0.607724
0.087077 0.255127 0.669679
0.087110 0.255160 0.731547
0.087143 0.255193 0.793337
0.087176 0.255226 0.855055
0.087209 0.255259 0.916707
0.087242 0.255292 0.978296
0.087051 0.317775 0.001812
0.087074 0.317797 0.043340
0.087108 0.317832 0.107360
0.087142 0.317865 0.170762
0.087176 0.317899 0.233800
0.087209 0.317933 0.296581
0.087243 0.317966 0.359160
0.087276 0.318000 0.421576
0.087310 0.318033 0.483852
0.087343 0.318066 0.546008
0.087376 0.318100 0.608057
0.087409 0.318133 0.670011
0.087442 0.318166 0.731880
0.087475 0.318199 0.793670
0.087509 0.318232 0.855388
0.087542 0.318265 0.917039
0.087575 0.318298 0.978629
0.087383 0.380593 0.002144
0.087405 0.380616 0.043672
0.087440 0.380650 0.107692
0.087474 0.380684 0.171093
0.087507 0.380718 0.234132
0.087541 0.380751 0.296913
0.087574 0.380785 0.359492
0.087608 0.380818 0.421907
0.087641 0.380852 0.484184
0.087675 0.380885 0.546339
0.087708 0.380918 0.608389
0.087741 0.380951 0.670343
0.087774 0.380984 0.732212
0.087807 0.381017 0.794002
0.087840 0.381051 0.855720
0.087873 0.381084 0.917371
0.087906 0.381117 0.978960
0.087714 0.443256 0.002475
0.087736 0.443278 0.044003
0.087771 0.443313 0.108023
0.087804 0.443347 0.171424
0.087838 0.443380 0.234463
0.087872 0.443414 0.297244
0.087905 0.443448 0.359823
0.087939 0.443481 0.422238
0.087972 0.443514 0.484515
0.088005 0.443548 0.546670
0.088039 0.443581 0.608720
0.088072 0.443614 0.670674
0.088105 0.443647 0.732543
0.088138 0.443680 0.794333
0.088171 0.443713 0.856051
0.088204 0.443746 0.917702
0.088237 0.443779 0.979291
0.088044 0.505786 0.002805
0.088066 0.505809 0.044333
0.088101 0.505843 0.108353
0.088135 0.505877 0.171754
0.088168 0.505911 0.234793
0.088202 0.505944 0.297574
0.088236 0.505978 0.360153
0.088269 0.506011 0.422569
0.088302 0.506044 0.484845
0.088336 0.506078 0.547000
0.088369 0.506111 0.609050
0.088402 0.506144 0.671004
0.088435 0.506177 0.732873
0.088468 0.506210 0.794663
0.088501 0.506244 0.856381
0.088534 0.506277 0.918032
0.088567 0.506310 0.979621
0.088374 0.568201 0.003134
0.088396 0.568223 0.044663
0.088430 0.568257 0.108682
0.088464 0.568291 0.172084
0.088498 0.568325 0.235123
0.088532 0.568359 0.297903
0.088565 0.568392 0.360483
0.088599 0.568426 0.422898
0.088632 0.568459 0.485174
0.088665 0.568492 0.547330
0.088699 0.568525 0.609380
0.088732 0.568559 0.671334
0.088765 0.568592 0.733203
0.088798 0.568625 0.794993
0.088831 0.568658 0.856711
0.088864 0.568691 0.918362
0.088897 0.568724 0.979951
0.088703 0.630512 0.003464
0.088725 0.630535 0.044992
0.088759 0.630569 0.109011
0.088793 0.630603 0.172413
0.088827 0.630637 0.235452
0.088861 0.630670 0.298233
0.088894 0.630704 0.360812
0.088928 0.630737 0.423227
0.088961 0.630771 0.485503
0.088994 0.630804 0.547659
0.089028 0.630837 0.609709
0.089061 0.630870 0.671663
0.089094 0.630904 0.733532
0.089127 0.630937 0.795322
0.089160 0.630970 0.857040
0.089193 0.631003 0.918691
0.089226 0.631036 0.980280
0.089031 0.692732 0.003792
0.089054 0.692754 0.045321
0.089088 0.692789 0.109340
0.089122 0.692823 0.172742
0.089156 0.692856 0.235781
0.089189 0.692890 0.298561
0.089223 0.692923 0.361141
0.089256 0.692957 0.423556
0.089290 0.692990 0.485832
0.089323 0.693024 0.547988
0.089356 0.693057 0.610037
0.089389 0.693090 0.671992
0.089423 0.693123 0.733860
0.089456 0.693156 0.795650
0.089489 0.693189 0.857368
0.089522 0.693222 0.919020
0.089555 0.693255 0.980609
0.089360 0.754868 0.004120
0.089382 0.754890 0.045649
0.089416 0.754925 0.109668
0.089450 0.754959 0.173070
0.089484 0.754992 0.236109
0.089517 0.755026 0.298889
0.089551 0.755060 0.361469
0.089584 0.755093 0.423884
0.089618 0.755126 0.486160
0.089651 0.755160 0.548316
0.089684 0.755193 0.610365
0.089718 0.755226 0.672320
0.089751 0.755259 0.734188
0.089784 0.755292 0.795978
0.089817 0.755325 0.857696
0.089850 0.755358 0.919348
0.089883 0.755391 0.980937
0.089687 0.816928 0.004448
0.089710 0.816950 0.045977
0.089744 0.816984 0.109996
0.089778 0.817018 0.173398
0.089812 0.817052 0.236437
0.089845 0.817086 0.299217
0.089879 0.817119 0.361797
0.089912 0.817152 0.424212
0.089946 0.817186 0.486488
0.089979 0.817219 0.548644
0.090012 0.817252 0.610693
0.090045 0.817286 0.672648
0.090078 0.817319 0.734516
0.090112 0.817352 0.796306
0.090145 0.817385 0.858024
0.090178 0.817418 0.919675
0.090211 0.817451 0.981265
0.090015 0.878917 0.004775
0.090037 0.878939 0.046304
0.090071 0.878973 0.110323
0.090105 0.879007 0.173725
0.090139 0.879041 0.236764
0.090173 0.879075 0.299544
0.090206 0.879108 0.362124
0.090240 0.879141 0.424539
0.090273 0.879175 0.486815
0.090306 0.879208 0.548971
0.090339 0.879241 0.611020
0.090373 0.879275 0.672975
0.090406 0.879308 0.734843
0.090439 0.879341 0.796634
0.090472 0.879374 0.858352
0.090505 0.879407 0.920003
0.090538 0.879440 0.981592
0.090342 0.940840 0.005102
0.090364 0.940862 0.046631
0.090398 0.940897 0.110650
0.090432 0.940931 0.174052
0.090466 0.940964 0.237091
0.090500 0.940998 0.299871
0.090533 0.941032 0.362451
0.090567 0.941065 0.424866
0.090600 0.941098 0.487142
0.090633 0.941132 0.549298
0.090666 0.941165 0.611347
0.090700 0.941198 0.673302
0.090733 0.941231 0.735170
0.090766 0.941264 0.796961
0.090799 0.941297 0.858679
0.090832 0.941330 0.920330
0.090865 0.941363 0.981919
0.090644 0.998036 0.005404
0.090666 0.998058 0.046933
0.090700 0.998093 0.110952
0.090734 0.998126 0.174354
0.090768 0.998160 0.237393
0.090802 0.998194 0.300173
0.090835 0.998227 0.362753
0.090869 0.998261 0.425168
0.090902 0.998294 0.487444
0.090935 0.998327 0.549600
0.090969 0.998361 0.611649
0.091002 0.998394 0.673604
0.091035 0.998427 0.735472
0.091068 0.998460 0.797263
0.091101 0.998493 0.858981
0.091134 0.998526 0.920632
0.091167 0.998559 0.982221
0.148996 0.000235 0.000235
0.149018 0.000257 0.041763
0.149053 0.000291 0.105783
0.149087 0.000325 0.169184
0.149120 0.000359 0.232223
0.149154 0.000393 0.295004
0.149188 0.000426 0.357583
0.149221 0.000460 0.419998
0.149254 0.000493 0.482275
0.149288 0.000526 0.544430
0.149321 0.000560 0.606480
0.149354 0.000593 0.668434
0.149387 0.000626 0.730303
0.149420 0.000659 0.792093
0.149453 0.000692 0.853811
0.149486 0.000725 0.915462
0.149519 0.000758 0.977051
0.149333 0.064002 0.000572
0.149355 0.064024 0.042100
0.149389 0.064058 0.106119
0.149423 0.064092 0.169521
0.149457 0.064126 0.232560
0.149491 0.064160 0.295341
0.149524 0.064193 0.357920
0.149558 0.064227 0.420335
0.149591 0.064260 0.482611
0.149624 0.064293 0.544767
0.149658 0.064327 0.606817
0.149691 0.064360 0.668771
0.149724 0.064393 0.730640
0.149757 0.064426 0.792430
0.149790 0.064459 0.854148
0.149823 0.064492 0.915799
0.149856 0.064525 0.977388
0.149671 0.128064 0.000910
0.149693 0.128086 0.042438
0.149728 0.128120 0.106458
0.149762 0.128154 0.169859
0.149795 0.128188 0.232898
0.149829 0.128222 0.295679
0.149863 0.128255 0.358258
0.149896 0.128289 0.420674
0.149929 0.128322 0.482950
0.149963 0.128355 0.545105
0.149996 0.128389 0.607155
0.150029 0.128422 0.669109
0.150062 0.128455 0.730978
0.150095 0.128488 0.792768
0.150128 0.128521 0.854486
0.150161 0.128554 0.916137
0.150194 0.128587 0.977726
0.150007 0.191627 0.001246
0.150029 0.191649 0.042774
0.150063 0.191683 0.106793
0.150097 0.191717 0.170195
0.150131 0.191751 0.233234
0.150165 0.191785 0.296014
0.150198 0.191818 0.358594
0.150232 0.191852 0.421009
0.150265 0.191885 0.483285
0.150298 0.191918 0.545441
0.150332 0.191951 0.607491
0.150365 0.191985 0.669445
0.150398 0.192018 0.731314
0.150431 0.192051 0.793104
0.150464 0.192084 0.854822
0.150497 0.192117 0.916473
0.150530 0.192150 0.978062
0.150341 0.254869 0.001579
0.150363 0.254891 0.043108
0.150397 0.254926 0.107127
0.150431 0.254960 0.170529
0.150465 0.254994 0.233568
0.150499 0.255027 0.296348
0.150532 0.255061 0.358928
0.150566 0.255094 0.421343
0.150599 0.255127 0.483619
0.150632 0.255161 0.545775
0.150666 0.255194 0.607825
0.150699 0.255227 0.669779
0.150732 0.255260 0.731648
0.150765 0.255293 0.793438
0.150798 0.255326 0.855156
0.150831 0.255359 0.916807
0.150864 0.255392 0.978396
0.150674 0.317875 0.001912
0.150696 0.317897 0.043441
0.150730 0.317932 0.107460
0.150764 0.317966 0.170862
0.150798 0.317999 0.233901
0.150831 0.318033 0.296681
0.150865 0.318067 0.359261
0.150898 0.318100 0.421676
0.150932 0.318133 0.483952
0.150965 0.318167 0.546108
0.150998 0.318200 0.608157
0.151032 0.318233 0.670112
0.151065 0.318266 0.731980
0.151098 0.318299 0.793770
0.151131 0.318332 0.855488
0.151164 0.318365 0.917140
0.151197 0.318398 0.978729
0.151005 0.380694 0.002244
0.151028 0.380716 0.043772
0.151062 0.380750 0.107792
0.151096 0.380784 0.171194
0.151130 0.380818 0.234232
0.151163 0.380851 0.297013
0.151197 0.380885 0.359592
0.151230 0.380918 0.422008
0.151264 0.380952 0.484284
0.151297 0.380985 0.546440
0.151330 0.381018 0.608489
0.151363 0.381051 0.670443
0.151396 0.381085 0.732312
0.151430 0.381118 0.794102
0.151463 0.381151 0.855820
0.151496 0.381184 0.917471
0.151529 0.381217 0.979061
0.151336 0.443356 0.002575
0.151359 0.443379 0.044103
0.151393 0.443413 0.108123
0.151427 0.443447 0.171524
0.151461 0.443481 0.234563
0.151494 0.443514 0.297344
0.151528 0.443548 0.359923
0.151561 0.443581 0.422339
0.151594 0.443615 0.484615
0.151628 0.443648 0.546770
0.151661 0.443681 0.608820
0.151694 0.443714 0.670774
0.151727 0.443747 0.732643
0.151760 0.443781 0.794433
0.151793 0.443814 0.856151
0.151827 0.443847 0.917802
0.151859 0.443880 0.979392
0.151666 0.505887 0.002905
0.151689 0.505909 0.044434
0.151723 0.505943 0.108453
0.151757 0.505977 0.171855
0.151791 0.506011 0.234894
0.151824 0.506044 0.297674
0.151858 0.506078 0.360254
0.151891 0.506111 0.422669
0.151925 0.506145 0.484945
0.151958 0.506178 0.547101
0.151991 0.506211 0.609150
0.152024 0.506244 0.671105
0.152058 0.506278 0.732973
0.152091 0.506311 0.794763
0.152124 0.506344 0.856481
0.152157 0.506377 0.918133
0.152190 0.506410 0.979722
0.151996 0.568301 0.003235
0.152018 0.568323 0.044763
0.152053 0.568357 0.108783
0.152087 0.568391 0.172184
0.152120 0.568425 0.235223
0.152154 0.568459 0.298004
0.152188 0.568492 0.360583
0.152221 0.568526 0.422998
0.152254 0.568559 0.485275
0.152288 0.568592 0.547430
0.152321 0.568626 0.609480
0.152354 0.568659 0.671434
0.152387 0.568692 0.733303
0.152420 0.568725 0.795093
0.152453 0.568758 0.856811
0.152486 0.568791 0.918462
0.152519 0.568824 0.980051
0.152325 0.630613 0.003564
0.152347 0.630635 0.045092
0.152382 0.630669 0.109112
0.152416 0.630703 0.172513
0.152449 0.630737 0.235552
0.152483 0.630771 0.298333
0.152517 0.630804 0.360912
0.152550 0.630838 0.423327
0.152583 0.630871 0.485604
0.152617 0.630904 0.547759
0.152650 0.630937 0.609809
0.152683 0.630971 0.671763
0.152716 0.631004 0.733632
0.152749 0.631037 0.795422
0.152782 0.631070 0.857140
0.152815 0.631103 0.918791
0.152848 0.631136 0.980380
0.152654 0.692832 0.003892
0.152676 0.692855 0.045421
0.152710 0.692889 0.109440
0.152744 0.692923 0.172842
0.152778 0.692957 0.235881
0.152812 0.692990 0.298661
0.152845 0.693024 0.361241
0.152879 0.693057 0.423656
0.152912 0.693091 0.485932
0.152945 0.693124 0.548088
0.152978 0.693157 0.610137
0.153012 0.693190 0.672092
0.153045 0.693223 0.733960
0.153078 0.693256 0.795751
0.153111 0.693290 0.857469
0.153144 0.693323 0.919120
0.153177 0.693356 0.980709
0.152982 0.754968 0.004220
0.153004 0.754991 0.045749
0.153038 0.755025 0.109768
0.153072 0.755059 0.173170
0.153106 0.755093 0.236209
0.153140 0.755126 0.298989
0.153173 0.755160 0.361569
0.153207 0.755193 0.423984
0.153240 0.755227 0.486260
0.153273 0.755260 0.548416
0.153307 0.755293 0.610466
0.153340 0.755326 0.672420
0.153373 0.755359 0.734289
0.153406 0.755393 0.796079
0.153439 0.755426 0.857797
0.153472 0.755459 0.919448
0.153505 0.755492 0.981037
0.153310 0.817028 0.004548
0.153332 0.817050 0.046077
0.153366 0.817084 0.110096
0.153400 0.817118 0.173498
0.153434 0.817152 0.236537
0.153468 0.817186 0.299317
0.153501 0.817219 0.361897
0.153534 0.817253 0.424312
0.153568 0.817286 0.486588
0.153601 0.817319 0.548744
0.153634 0.817353 0.610793
0.153668 0.817386 0.672748
0.153701 0.817419 0.734616
0.153734 0.817452 0.796406
0.153767 0.817485 0.858124
0.153800 0.817518 0.919776
0.153833 0.817551 0.981365
0.153637 0.879017 0.004876
0.153659 0.879039 0.046404
0.153694 0.879073 0.110423
0.153727 0.879107 0.173825
0.153761 0.879141 0.236864
0.153795 0.879175 0.299645
0.153828 0.879208 0.362224
0.153862 0.879242 0.424639
0.153895 0.879275 0.486915
0.153928 0.879308 0.549071
0.153962 0.879342 0.611121
0.153995 0.879375 0.673075
0.154028 0.879408 0.734944
0.154061 0.879441 0.796734
0.154094 0.879474 0.858452
0.154127 0.879507 0.920103
0.154160 0.879540 0.981692
0.153964 0.940940 0.005203
0.153986 0.940963 0.046731
0.154021 0.940997 0.110750
0.154054 0.941031 0.174152
0.154088 0.941065 0.237191
0.154122 0.941098 0.299972
0.154155 0.941132 0.362551
0.154189 0.941165 0.424966
0.154222 0.941199 0.487242
0.154255 0.941232 0.549398
0.154289 0.941265 0.611448
0.154322 0.941298 0.673402
0.154355 0.941332 0.735271
0.154388 0.941365 0.797061
0.154421 0.941398 0.858779
0.154454 0.941431 0.920430
0.154487 0.941464 0.982019
0.154266 0.998136 0.005505
0.154288 0.998158 0.047033
0.154323 0.998193 0.111053
0.154357 0.998227 0.174454
0.154390 0.998261 0.237493
0.154424 0.998294 0.300274
0.154457 0.998328 0.362853
0.154491 0.998361 0.425268
0.154524 0.998394 0.487545
0.154558 0.998428 0.549700
0.154591 0.998461 0.611750
0.154624 0.998494 0.673704
0.154657 0.998527 0.735573
0.154690 0.998560 0.797363
0.154723 0.998593 0.859081
0.154756 0.998626 0.920732
0.154789 0.998659 0.982321
0.212201 0.000334 0.000334
0.212223 0.000357 0.041863
0.212258 0.000391 0.105882
0.212292 0.000425 0.169284
0.212326 0.000459 0.232323
0.212359 0.000492 0.295103
0.212393 0.000526 0.357683
0.212426 0.000559 0.420098
0.212459 0.000593 0.482374
0.212493 0.000626 0.544530
0.212526 0.000659 0.606579
0.212559 0.000692 0.668534
0.212592 0.000725 0.730402
0.212625 0.000759 0.792193
0.212658 0.000792 0.853911
0.212691 0.000825 0.915562
0.212724 0.000858 0.977151
0.212538 0.064101 0.000671
