skills/editops-orchestrator/assets/grade/luts/warm_skin_v12.cube
TITLE "warm_skin_v12"
LUT_3D_SIZE 9
DOMAIN_MIN 0.0 0.0 0.0
DOMAIN_MAX 1.0 1.0 1.0
0.037401 0.000000 0.000000
0.037232 0.000000 0.091026
0.036982 0.000000 0.225446
0.036737 0.000000 0.357494
0.036495 0.000000 0.488151
0.036255 0.000000 0.617820
0.036015 0.000000 0.746721
0.035778 0.000000 0.874997
0.035541 0.000000 1.000000
0.034964 0.130242 0.000000
0.034795 0.130073 0.088589
0.034545 0.129824 0.223009
0.034300 0.129579 0.355057
0.034058 0.129337 0.485714
0.033818 0.129096 0.615383
0.033579 0.128857 0.744284
0.033341 0.128619 0.872560
0.033104 0.128382 1.000000
0.032511 0.261545 0.000000
0.032342 0.261376 0.086136
0.032093 0.261126 0.220556
0.031848 0.260882 0.352604
0.031605 0.260639 0.483261
0.031365 0.260399 0.612930
0.031126 0.260160 0.741832
0.030888 0.259922 0.870107
0.030651 0.259685 0.997854
0.030094 0.390933 0.000000
0.029925 0.390764 0.083719
0.029675 0.390515 0.218139
0.029431 0.390270 0.350187
0.029188 0.390027 0.480844
0.028948 0.389787 0.610513
0.028709 0.389548 0.739414
0.028471 0.389310 0.867690
0.028234 0.389073 0.995436
0.027700 0.519105 0.000000
0.027530 0.518935 0.081325
0.027281 0.518686 0.215745
0.027036 0.518441 0.347793
0.026794 0.518199 0.478450
0.026553 0.517958 0.608118
0.026314 0.517719 0.737020
0.026076 0.517481 0.865295
0.025839 0.517244 0.993042
0.025322 0.646383 0.000000
0.025153 0.646214 0.078947
0.024903 0.645964 0.213367
0.024658 0.645719 0.345415
0.024416 0.645477 0.476072
0.024176 0.645236 0.605741
0.023937 0.644997 0.734642
0.023699 0.644759 0.862918
0.023462 0.644523 0.990664
0.022957 0.772955 0.000000
0.022788 0.772786 0.076583
0.022539 0.772536 0.211003
0.022294 0.772292 0.343051
0.022052 0.772049 0.473708
0.021811 0.771809 0.603376
0.021572 0.771570 0.732278
0.021334 0.771332 0.860553
0.021097 0.771095 0.988300
0.020604 0.898944 0.000000
0.020435 0.898775 0.074229
0.020185 0.898526 0.208649
0.019940 0.898281 0.340697
0.019698 0.898038 0.471354
0.019458 0.897798 0.601023
0.019218 0.897559 0.729924
0.018981 0.897321 0.858200
0.018744 0.897084 0.985946
0.018580 1.000000 0.000000
0.018411 1.000000 0.072205
0.018161 1.000000 0.206625
0.017916 1.000000 0.338673
0.017674 1.000000 0.469330
0.017434 1.000000 0.598999
0.017194 1.000000 0.727900
0.016957 1.000000 0.856176
0.016720 1.000000 0.983922
0.173052 0.000000 0.000000
0.172883 0.000000 0.090283
0.172634 0.000000 0.224702
0.172389 0.000000 0.356751
0.172146 0.000000 0.487408
0.171906 0.000000 0.617076
0.171667 0.000000 0.745978
0.171429 0.000000 0.874253
0.171192 0.000000 1.000000
0.170615 0.129499 0.000000
0.170446 0.129330 0.087846
0.170197 0.129080 0.222266
0.169952 0.128835 0.354314
0.169710 0.128593 0.484971
0.169469 0.128353 0.614639
0.169230 0.128114 0.743541
0.168992 0.127876 0.871816
0.168755 0.127639 0.999563
0.168162 0.260801 0.000000
0.167993 0.260632 0.085393
0.167744 0.260383 0.219813
0.167499 0.260138 0.351861
0.167257 0.259896 0.482518
0.167016 0.259655 0.612186
0.166777 0.259416 0.741088
0.166539 0.259178 0.869363
0.166302 0.258941 0.997110
0.165745 0.390190 0.000000
0.165576 0.390020 0.082976
0.165327 0.389771 0.217396
0.165082 0.389526 0.349444
0.164840 0.389284 0.480101
0.164599 0.389043 0.609769
0.164360 0.388804 0.738671
0.164122 0.388566 0.866946
0.163885 0.388329 0.994693
0.163351 0.518361 0.000000
0.163182 0.518192 0.080581
0.162932 0.517943 0.215001
0.162688 0.517698 0.347049
0.162445 0.517455 0.477706
0.162205 0.517215 0.607375
0.161966 0.516976 0.736277
0.161728 0.516738 0.864552
0.161491 0.516501 0.992299
0.160973 0.645639 0.000000
0.160804 0.645470 0.078204
0.160555 0.645221 0.212624
0.160310 0.644976 0.344672
0.160068 0.644733 0.475329
0.159827 0.644493 0.604997
0.159588 0.644254 0.733899
0.159350 0.644016 0.862174
0.159113 0.643779 0.989921
0.158609 0.772211 0.000000
0.158440 0.772042 0.075839
0.158190 0.771793 0.210259
0.157945 0.771548 0.342307
0.157703 0.771306 0.472964
0.157463 0.771065 0.602633
0.157223 0.770826 0.731534
0.156986 0.770588 0.859810
0.156749 0.770351 0.987556
0.156255 0.898201 0.000000
0.156086 0.898031 0.073486
0.155837 0.897782 0.207905
0.155592 0.897537 0.339953
0.155349 0.897295 0.470611
0.155109 0.897054 0.600279
0.154870 0.896815 0.729181
0.154632 0.896577 0.857456
0.154395 0.896340 0.985203
0.154231 1.000000 0.000000
0.154062 1.000000 0.071462
0.153813 1.000000 0.205881
0.153568 1.000000 0.337929
0.153325 1.000000 0.468587
0.153085 1.000000 0.598255
0.152846 1.000000 0.727157
0.152608 1.000000 0.855432
0.152371 1.000000 0.983179
0.305363 0.000000 0.000000
0.305193 0.000000 0.089557
0.304944 0.000000 0.223977
0.304699 0.000000 0.356025
0.304457 0.000000 0.486682
0.304216 0.000000 0.616351
0.303977 0.000000 0.745253
0.303739 0.000000 0.873528
0.303502 0.000000 1.000000
0.302926 0.128774 0.000000
0.302757 0.128604 0.087120
0.302507 0.128355 0.221540
0.302262 0.128110 0.353588
0.302020 0.127868 0.484246
0.301779 0.127627 0.613914
0.301540 0.127388 0.742816
0.301303 0.127150 0.871091
0.301066 0.126913 0.998838
0.300473 0.260076 0.000000
0.300304 0.259907 0.084668
0.300054 0.259658 0.219087
0.299809 0.259413 0.351136
0.299567 0.259171 0.481793
0.299327 0.258930 0.611461
0.299088 0.258691 0.740363
0.298850 0.258453 0.868638
0.298613 0.258216 0.996385
0.298056 0.389464 0.000000
0.297887 0.389295 0.082250
0.297637 0.389046 0.216670
0.297392 0.388801 0.348718
0.297150 0.388559 0.479376
0.296910 0.388318 0.609044
0.296670 0.388079 0.737946
0.296433 0.387841 0.866221
0.296196 0.387604 0.993968
0.295661 0.517636 0.000000
0.295492 0.517467 0.079856
0.295243 0.517217 0.214276
0.294998 0.516972 0.346324
0.294756 0.516730 0.476981
0.294515 0.516490 0.606650
0.294276 0.516251 0.735551
0.294038 0.516013 0.863827
0.293801 0.515776 0.991573
0.293284 0.644914 0.000000
0.293115 0.644745 0.077478
0.292865 0.644495 0.211898
0.292620 0.644251 0.343946
0.292378 0.644008 0.474603
0.292137 0.643768 0.604272
0.291898 0.643529 0.733174
0.291660 0.643291 0.861449
0.291424 0.643054 0.989196
0.290919 0.771486 0.000000
0.290750 0.771317 0.075114
0.290501 0.771068 0.209534
0.290256 0.770823 0.341582
0.290013 0.770580 0.472239
0.289773 0.770340 0.601907
0.289534 0.770101 0.730809
0.289296 0.769863 0.859085
0.289059 0.769626 0.986831
0.288566 0.897475 0.000000
0.288396 0.897306 0.072760
0.288147 0.897057 0.207180
0.287902 0.896812 0.339228
0.287660 0.896570 0.469885
0.287419 0.896329 0.599554
0.287180 0.896090 0.728455
0.286942 0.895852 0.856731
0.286705 0.895615 0.984478
0.286542 1.000000 0.000000
0.286372 1.000000 0.070736
0.286123 1.000000 0.205156
0.285878 1.000000 0.337204
0.285636 1.000000 0.467861
0.285395 1.000000 0.597530
0.285156 1.000000 0.726431
0.284918 1.000000 0.854707
0.284681 1.000000 0.982454
0.436024 0.000000 0.000000
0.435855 0.000000 0.088841
0.435606 0.000000 0.223261
0.435361 0.000000 0.355309
0.435119 0.000000 0.485966
0.434878 0.000000 0.615635
0.434639 0.000000 0.744536
0.434401 0.000000 0.872812
0.434164 0.000000 1.000000
0.433587 0.128057 0.000000
0.433418 0.127888 0.086404
0.433169 0.127639 0.220824
0.432924 0.127394 0.352872
0.432682 0.127152 0.483529
0.432441 0.126911 0.613198
0.432202 0.126672 0.742099
0.431964 0.126434 0.870375
0.431727 0.126197 0.998122
0.431135 0.259360 0.000000
0.430965 0.259191 0.083951
0.430716 0.258942 0.218371
0.430471 0.258697 0.350419
0.430229 0.258454 0.481076
0.429988 0.258214 0.610745
0.429749 0.257975 0.739647
0.429511 0.257737 0.867922
0.429274 0.257500 0.995669
0.428717 0.388748 0.000000
0.428548 0.388579 0.081534
0.428299 0.388330 0.215954
0.428054 0.388085 0.348002
0.427812 0.387842 0.478659
0.427571 0.387602 0.608328
0.427332 0.387363 0.737229
0.427094 0.387125 0.865505
0.426857 0.386888 0.993252
0.426323 0.516920 0.000000
0.426154 0.516751 0.079140
0.425905 0.516501 0.213560
0.425660 0.516256 0.345608
0.425417 0.516014 0.476265
0.425177 0.515773 0.605934
0.424938 0.515534 0.734835
0.424700 0.515296 0.863111
0.424463 0.515060 0.990857
0.423945 0.644198 0.000000
0.423776 0.644029 0.076762
0.423527 0.643779 0.211182
0.423282 0.643534 0.343230
0.423040 0.643292 0.473887
0.422799 0.643052 0.603556
0.422560 0.642812 0.732457
0.422322 0.642575 0.860733
0.422085 0.642338 0.988479
0.421581 0.770770 0.000000
0.421412 0.770601 0.074398
0.421162 0.770352 0.208818
0.420917 0.770107 0.340866
0.420675 0.769864 0.471523
0.420435 0.769624 0.601191
0.420196 0.769385 0.730093
0.419958 0.769147 0.858368
0.419721 0.768910 0.986115
0.419227 0.896759 0.000000
0.419058 0.896590 0.072044
0.418809 0.896341 0.206464
0.418564 0.896096 0.338512
0.418321 0.895853 0.469169
0.418081 0.895613 0.598838
0.417842 0.895374 0.727739
0.417604 0.895136 0.856015
0.417367 0.894899 0.983761
0.417203 1.000000 0.000000
0.417034 1.000000 0.070020
0.416785 1.000000 0.204440
0.416540 1.000000 0.336488
0.416297 1.000000 0.467145
0.416057 1.000000 0.596814
0.415818 1.000000 0.725715
0.415580 1.000000 0.853991
0.415343 1.000000 0.981737
0.565576 0.000000 0.000000
0.565407 0.000000 0.088131
0.565157 0.000000 0.222551
0.564913 0.000000 0.354599
0.564670 0.000000 0.485256
0.564430 0.000000 0.614925
0.564191 0.000000 0.743826
0.563953 0.000000 0.872102
0.563716 0.000000 0.999848
0.563139 0.127347 0.000000
0.562970 0.127178 0.085694
0.562721 0.126929 0.220114
0.562476 0.126684 0.352162
0.562233 0.126442 0.482819
0.561993 0.126201 0.612488
0.561754 0.125962 0.741389
0.561516 0.125724 0.869665
0.561279 0.125487 0.997411
0.560686 0.258650 0.000000
0.560517 0.258481 0.083241
0.560268 0.258231 0.217661
0.560023 0.257987 0.349709
0.559780 0.257744 0.480366
0.559540 0.257504 0.610035
0.559301 0.257265 0.738936
0.559063 0.257027 0.867212
0.558826 0.256790 0.994959
0.558269 0.388038 0.000000
0.558100 0.387869 0.080824
0.557851 0.387620 0.215244
0.557606 0.387375 0.347292
0.557363 0.387132 0.477949
0.557123 0.386892 0.607618
0.556884 0.386653 0.736519
0.556646 0.386415 0.864795
0.556409 0.386178 0.992541
0.555875 0.516210 0.000000
0.555705 0.516040 0.078430
0.555456 0.515791 0.212850
0.555211 0.515546 0.344898
0.554969 0.515304 0.475555
0.554728 0.515063 0.605223
0.554489 0.514824 0.734125
0.554251 0.514586 0.862400
0.554015 0.514349 0.990147
0.553497 0.643488 0.000000
0.553328 0.643319 0.076052
0.553078 0.643069 0.210472
0.552834 0.642824 0.342520
0.552591 0.642582 0.473177
0.552351 0.642341 0.602846
0.552112 0.642102 0.731747
0.551874 0.641864 0.860023
0.551637 0.641628 0.987769
0.551133 0.770060 0.000000
0.550963 0.769891 0.073688
0.550714 0.769641 0.208108
0.550469 0.769397 0.340156
0.550227 0.769154 0.470813
0.549986 0.768914 0.600481
0.549747 0.768675 0.729383
0.549509 0.768437 0.857658
0.549272 0.768200 0.985405
0.548779 0.896049 0.000000
0.548610 0.895880 0.071334
0.548360 0.895631 0.205754
0.548115 0.895386 0.337802
0.547873 0.895143 0.468459
0.547633 0.894903 0.598128
0.547394 0.894664 0.727029
0.547156 0.894426 0.855305
0.546919 0.894189 0.983051
0.546755 1.000000 0.000000
0.546586 1.000000 0.069310
0.546336 1.000000 0.203730
0.546091 1.000000 0.335778
0.545849 1.000000 0.466435
0.545609 1.000000 0.596104
0.545370 1.000000 0.725005
0.545132 1.000000 0.853281
0.544895 1.000000 0.981027
0.694290 0.000000 0.000000
0.694121 0.000000 0.087426
0.693872 0.000000 0.221845
0.693627 0.000000 0.353894
0.693385 0.000000 0.484551
0.693144 0.000000 0.614219
0.692905 0.000000 0.743121
0.692667 0.000000 0.871396
0.692430 0.000000 0.999143
0.691853 0.126642 0.000000
0.691684 0.126473 0.084989
0.691435 0.126223 0.219409
0.691190 0.125978 0.351457
0.690948 0.125736 0.482114
0.690707 0.125496 0.611782
0.690468 0.125257 0.740684
0.690230 0.125019 0.868959
0.689993 0.124782 0.996706
0.689401 0.257944 0.000000
0.689231 0.257775 0.082536
0.688982 0.257526 0.216956
0.688737 0.257281 0.349004
0.688495 0.257039 0.479661
0.688254 0.256798 0.609329
0.688015 0.256559 0.738231
0.687777 0.256321 0.866506
0.687540 0.256084 0.994253
0.686983 0.387333 0.000000
0.686814 0.387163 0.080119
0.686565 0.386914 0.214539
0.686320 0.386669 0.346587
0.686078 0.386427 0.477244
0.685837 0.386186 0.606912
0.685598 0.385947 0.735814
0.685360 0.385709 0.864089
0.685123 0.385472 0.991836
0.684589 0.515504 0.000000
0.684420 0.515335 0.077724
0.684171 0.515086 0.212144
0.683926 0.514841 0.344192
0.683683 0.514598 0.474849
0.683443 0.514358 0.604518
0.683204 0.514119 0.733420
0.682966 0.513881 0.861695
0.682729 0.513644 0.989442
0.682211 0.642782 0.000000
0.682042 0.642613 0.075347
0.681793 0.642364 0.209767
0.681548 0.642119 0.341815
0.681306 0.641876 0.472472
0.681065 0.641636 0.602140
0.680826 0.641397 0.731042
0.680588 0.641159 0.859317
0.680351 0.640922 0.987064
0.679847 0.769354 0.000000
0.679678 0.769185 0.072982
0.679428 0.768936 0.207402
0.679183 0.768691 0.339450
0.678941 0.768449 0.470107
0.678701 0.768208 0.599776
0.678462 0.767969 0.728677
0.678224 0.767731 0.856953
0.677987 0.767494 0.984699
0.677493 0.895344 0.000000
0.677324 0.895174 0.070629
0.677075 0.894925 0.205048
0.676830 0.894680 0.337096
0.676588 0.894438 0.467754
0.676347 0.894197 0.597422
0.676108 0.893958 0.726324
0.675870 0.893720 0.854599
0.675633 0.893483 0.982346
0.675469 1.000000 0.000000
0.675300 1.000000 0.068605
0.675051 1.000000 0.203024
0.674806 1.000000 0.335072
0.674564 1.000000 0.465730
0.674323 1.000000 0.595398
0.674084 1.000000 0.724300
0.673846 1.000000 0.852575
0.673609 1.000000 0.980322
0.822333 0.000000 0.000000
0.822164 0.000000 0.086724
0.821914 0.000000 0.221144
0.821669 0.000000 0.353192
0.821427 0.000000 0.483849
0.821186 0.000000 0.613517
0.820947 0.000000 0.742419
0.820709 0.000000 0.870694
0.820473 0.000000 0.998441
0.819896 0.125940 0.000000
0.819727 0.125771 0.084287
0.819477 0.125522 0.218707
0.819232 0.125277 0.350755
0.818990 0.125034 0.481412
0.818750 0.124794 0.611080
0.818510 0.124555 0.739982
0.818273 0.124317 0.868257
0.818036 0.124080 0.996004
0.817443 0.257243 0.000000
0.817274 0.257073 0.081834
0.817024 0.256824 0.216254
0.816780 0.256579 0.348302
0.816537 0.256337 0.478959
0.816297 0.256096 0.608628
0.816058 0.255857 0.737529
0.815820 0.255619 0.865805
0.815583 0.255382 0.993551
0.815026 0.386631 0.000000
0.814857 0.386462 0.079417
0.814607 0.386212 0.213837
0.814362 0.385967 0.345885
0.814120 0.385725 0.476542
0.813880 0.385485 0.606210
0.813641 0.385245 0.735112
0.813403 0.385008 0.863388
0.813166 0.384771 0.991134
0.812631 0.514802 0.000000
0.812462 0.514633 0.077023
0.812213 0.514384 0.211442
0.811968 0.514139 0.343490
0.811726 0.513897 0.474148
0.811485 0.513656 0.603816
0.811246 0.513417 0.732718
0.811008 0.513179 0.860993
0.810771 0.512942 0.988740
0.810254 0.642080 0.000000
0.810085 0.641911 0.074645
0.809835 0.641662 0.209065
0.809590 0.641417 0.341113
0.809348 0.641175 0.471770
0.809108 0.640934 0.601438
0.808868 0.640695 0.730340
0.808631 0.640457 0.858615
0.808394 0.640220 0.986362
0.807889 0.768653 0.000000
0.807720 0.768483 0.072280
0.807471 0.768234 0.206700
0.807226 0.767989 0.338748
0.806984 0.767747 0.469405
0.806743 0.767506 0.599074
0.806504 0.767267 0.727976
0.806266 0.767029 0.856251
0.806029 0.766792 0.983998
0.805536 0.894642 0.000000
0.805366 0.894473 0.069927
0.805117 0.894223 0.204347
0.804872 0.893978 0.336395
0.804630 0.893736 0.467052
0.804389 0.893495 0.596720
0.804150 0.893256 0.725622
0.803912 0.893018 0.853897
0.803675 0.892782 0.981644
0.803512 1.000000 0.000000
0.803342 1.000000 0.067903
0.803093 1.000000 0.202323
0.802848 1.000000 0.334371
0.802606 1.000000 0.465028
0.802365 1.000000 0.594696
0.802126 1.000000 0.723598
0.801888 1.000000 0.851873
0.801651 1.000000 0.979620
0.949814 0.000000 0.000000
0.949645 0.000000 0.086025
0.949396 0.000000 0.220445
0.949151 0.000000 0.352493
0.948908 0.000000 0.483150
0.948668 0.000000 0.612819
0.948429 0.000000 0.741720
0.948191 0.000000 0.869996
0.947954 0.000000 0.997742
0.947377 0.125241 0.000000
0.947208 0.125072 0.083588
0.946959 0.124823 0.218008
0.946714 0.124578 0.350056
0.946472 0.124336 0.480713
0.946231 0.124095 0.610382
0.945992 0.123856 0.739283
0.945754 0.123618 0.867559
0.945517 0.123381 0.995305
0.944924 0.256544 0.000000
0.944755 0.256375 0.081135
0.944506 0.256125 0.215555
0.944261 0.255880 0.347603
0.944019 0.255638 0.478260
0.943778 0.255398 0.607929
0.943539 0.255159 0.736830
0.943301 0.254921 0.865106
0.943064 0.254684 0.992853
0.942507 0.385932 0.000000
0.942338 0.385763 0.078718
0.942089 0.385514 0.213138
0.941844 0.385269 0.345186
0.941602 0.385026 0.475843
0.941361 0.384786 0.605512
0.941122 0.384547 0.734413
0.940884 0.384309 0.862689
0.940647 0.384072 0.990435
0.940113 0.514104 0.000000
0.939944 0.513934 0.076324
0.939694 0.513685 0.210744
0.939450 0.513440 0.342792
0.939207 0.513198 0.473449
0.938967 0.512957 0.603117
0.938728 0.512718 0.732019
0.938490 0.512480 0.860294
0.938253 0.512243 0.988041
0.937735 0.641382 0.000000
0.937566 0.641212 0.073946
0.937317 0.640963 0.208366
0.937072 0.640718 0.340414
0.936830 0.640476 0.471071
0.936589 0.640235 0.600740
0.936350 0.639996 0.729641
0.936112 0.639758 0.857917
0.935875 0.639521 0.985663
0.935371 0.767954 0.000000
0.935202 0.767785 0.071582
0.934952 0.767535 0.206001
0.934707 0.767290 0.338050
0.934465 0.767048 0.468707
0.934225 0.766808 0.598375
0.933985 0.766569 0.727277
0.933748 0.766331 0.855552
0.933511 0.766094 0.983299
0.933017 0.893943 0.000000
0.932848 0.893774 0.069228
0.932599 0.893524 0.203648
0.932354 0.893280 0.335696
0.932111 0.893037 0.466353
0.931871 0.892797 0.596022
0.931632 0.892558 0.724923
0.931394 0.892320 0.853199
0.931157 0.892083 0.980945
0.930993 1.000000 0.000000
0.930824 1.000000 0.067204
0.930575 1.000000 0.201624
0.930330 1.000000 0.333672
0.930087 1.000000 0.464329
0.929847 1.000000 0.593998
0.929608 1.000000 0.722899
0.929370 1.000000 0.851175
0.929133 1.000000 0.978921
1.000000 0.000000 0.000000
1.000000 0.000000 0.085636
1.000000 0.000000 0.220056
1.000000 0.000000 0.352104
1.000000 0.000000 0.482761
1.000000 0.000000 0.612430
1.000000 0.000000 0.741332
1.000000 0.000000 0.869607
1.000000 0.000000 0.997354
1.000000 0.124853 0.000000
1.000000 0.124683 0.083199
1.000000 0.124434 0.217619
1.000000 0.124189 0.349667
1.000000 0.123947 0.480325
1.000000 0.123706 0.609993
1.000000 0.123467 0.738895
1.000000 0.123229 0.867170
1.000000 0.122992 0.994917
1.000000 0.256155 0.000000
1.000000 0.255986 0.080747
1.000000 0.255737 0.215166
1.000000 0.255492 0.347215
1.000000 0.255250 0.477872
1.000000 0.255009 0.607540
1.000000 0.254770 0.736442
1.000000 0.254532 0.864717
1.000000 0.254295 0.992464
1.000000 0.385543 0.000000
1.000000 0.385374 0.078329
1.000000 0.385125 0.212749
1.000000 0.384880 0.344797
1.000000 0.384638 0.475455
1.000000 0.384397 0.605123
1.000000 0.384158 0.734025
1.000000 0.383920 0.862300
1.000000 0.383683 0.990047
1.000000 0.513715 0.000000
1.000000 0.513546 0.075935
1.000000 0.513296 0.210355
1.000000 0.513052 0.342403
1.000000 0.512809 0.473060
1.000000 0.512569 0.602729
1.000000 0.512330 0.731630
1.000000 0.512092 0.859906
1.000000 0.511855 0.987652
1.000000 0.640993 0.000000
1.000000 0.640824 0.073557
1.000000 0.640574 0.207977
1.000000 0.640330 0.340025
1.000000 0.640087 0.470682
1.000000 0.639847 0.600351
1.000000 0.639608 0.729253
1.000000 0.639370 0.857528
1.000000 0.639133 0.985275
1.000000 0.767565 0.000000
1.000000 0.767396 0.071193
1.000000 0.767147 0.205613
1.000000 0.766902 0.337661
1.000000 0.766659 0.468318
1.000000 0.766419 0.597986
1.000000 0.766180 0.726888
1.000000 0.765942 0.855164
1.000000 0.765705 0.982910
1.000000 0.893554 0.000000
1.000000 0.893385 0.068839
1.000000 0.893136 0.203259
1.000000 0.892891 0.335307
1.000000 0.892649 0.465964
1.000000 0.892408 0.595633
1.000000 0.892169 0.724534
1.000000 0.891931 0.852810
1.000000 0.891694 0.980557
1.000000 1.000000 0.000000
1.000000 1.000000 0.066815
1.000000 1.000000 0.201235
1.000000 1.000000 0.333283
1.000000 1.000000 0.463940
1.000000 1.000000 0.593609
1.000000 1.000000 0.722510
1.000000 1.000000 0.850786
1.000000 1.000000 0.978533
