skills/editops-orchestrator/assets/grade/luts/warm_skin_v14.cube
TITLE "warm_skin_v14"
LUT_3D_SIZE 9
DOMAIN_MIN 0.0 0.0 0.0
DOMAIN_MAX 1.0 1.0 1.0
0.041897 0.000000 0.000000
0.041685 0.000000 0.086991
0.041353 0.000000 0.223537
0.041028 0.000000 0.357318
0.040707 0.000000 0.489502
0.040388 0.000000 0.620557
0.040072 0.000000 0.750741
0.039758 0.000000 0.880214
0.039444 0.000000 1.000000
0.038671 0.130834 0.000000
0.038459 0.130621 0.083765
0.038127 0.130290 0.220311
0.037802 0.129965 0.354092
0.037481 0.129643 0.486276
0.037162 0.129325 0.617331
0.036846 0.129009 0.747515
0.036532 0.128694 0.876989
0.036218 0.128381 1.000000
0.035413 0.263277 0.000000
0.035201 0.263065 0.080507
0.034869 0.262733 0.217053
0.034544 0.262408 0.350834
0.034223 0.262087 0.483017
0.033904 0.261768 0.614073
0.033588 0.261452 0.744257
0.033273 0.261138 0.873730
0.032960 0.260824 1.000000
0.032208 0.393559 0.000000
0.031996 0.393347 0.077302
0.031664 0.393015 0.213848
0.031339 0.392690 0.347629
0.031018 0.392369 0.479813
0.030699 0.392050 0.610868
0.030383 0.391734 0.741052
0.030068 0.391419 0.870525
0.029755 0.391106 0.999400
0.029037 0.522471 0.000000
0.028824 0.522259 0.074130
0.028493 0.521927 0.210676
0.028168 0.521602 0.344457
0.027846 0.521281 0.476641
0.027528 0.520963 0.607697
0.027212 0.520647 0.737881
0.026897 0.520332 0.867354
0.026584 0.520019 0.996228
0.025890 0.650380 0.000000
0.025678 0.650168 0.070984
0.025346 0.649836 0.207530
0.025021 0.649511 0.341311
0.024700 0.649190 0.473495
0.024381 0.648872 0.604550
0.024065 0.648555 0.734734
0.023751 0.648241 0.864207
0.023437 0.647927 0.993082
0.022763 0.777496 0.000000
0.022551 0.777284 0.067857
0.022219 0.776953 0.204403
0.021894 0.776628 0.338184
0.021573 0.776306 0.470367
0.021254 0.775988 0.601423
0.020938 0.775672 0.731607
0.020623 0.775357 0.861080
0.020310 0.775044 0.989955
0.019652 0.903959 0.000000
0.019440 0.903747 0.064746
0.019108 0.903415 0.201292
0.018783 0.903090 0.335072
0.018462 0.902769 0.467256
0.018143 0.902451 0.598312
0.017827 0.902134 0.728496
0.017512 0.901820 0.857969
0.017199 0.901507 0.986844
0.017053 1.000000 0.000000
0.016841 1.000000 0.062147
0.016509 1.000000 0.198693
0.016184 1.000000 0.332474
0.015863 1.000000 0.464658
0.015545 1.000000 0.595714
0.015228 1.000000 0.725897
0.014914 1.000000 0.855371
0.014601 1.000000 0.984245
0.179407 0.000000 0.000000
0.179195 0.000000 0.086002
0.178864 0.000000 0.222548
0.178539 0.000000 0.356329
0.178217 0.000000 0.488513
0.177899 0.000000 0.619569
0.177583 0.000000 0.749753
0.177268 0.000000 0.879226
0.176955 0.000000 1.000000
0.176181 0.129845 0.000000
0.175969 0.129633 0.082776
0.175638 0.129301 0.219322
0.175313 0.128976 0.353103
0.174991 0.128655 0.485287
0.174673 0.128337 0.616343
0.174357 0.128020 0.746527
0.174042 0.127706 0.876000
0.173729 0.127393 1.000000
0.172923 0.262288 0.000000
0.172711 0.262076 0.079518
0.172379 0.261745 0.216064
0.172054 0.261420 0.349845
0.171733 0.261098 0.482029
0.171415 0.260780 0.613085
0.171099 0.260464 0.743269
0.170784 0.260149 0.872742
0.170471 0.259836 1.000000
0.169718 0.392570 0.000000
0.169506 0.392358 0.076313
0.169174 0.392026 0.212859
0.168849 0.391701 0.346640
0.168528 0.391380 0.478824
0.168210 0.391062 0.609880
0.167894 0.390745 0.740064
0.167579 0.390431 0.869537
0.167266 0.390118 0.998411
0.166547 0.521483 0.000000
0.166335 0.521271 0.073142
0.166003 0.520939 0.209688
0.165678 0.520614 0.343469
0.165357 0.520293 0.475653
0.165039 0.519974 0.606709
0.164722 0.519658 0.736892
0.164408 0.519343 0.866366
0.164095 0.519030 0.995240
0.163400 0.649392 0.000000
0.163188 0.649179 0.069995
0.162857 0.648848 0.206541
0.162532 0.648523 0.340322
0.162210 0.648201 0.472506
0.161892 0.647883 0.603562
0.161576 0.647567 0.733746
0.161261 0.647252 0.863219
0.160948 0.646939 0.992093
0.160273 0.776508 0.000000
0.160061 0.776296 0.066868
0.159729 0.775964 0.203414
0.159404 0.775639 0.337195
0.159083 0.775318 0.469379
0.158765 0.775000 0.600435
0.158448 0.774683 0.730619
0.158134 0.774369 0.860092
0.157821 0.774055 0.988966
0.157162 0.902971 0.000000
0.156950 0.902759 0.063757
0.156618 0.902427 0.200303
0.156293 0.902102 0.334084
0.155972 0.901781 0.466268
0.155654 0.901462 0.597324
0.155337 0.901146 0.727507
0.155023 0.900831 0.856981
0.154710 0.900518 0.985855
0.154564 1.000000 0.000000
0.154352 1.000000 0.061159
0.154020 1.000000 0.197704
0.153695 1.000000 0.331485
0.153374 1.000000 0.463669
0.153055 1.000000 0.594725
0.152739 1.000000 0.724909
0.152424 1.000000 0.854382
0.152111 1.000000 0.983257
0.313248 0.000000 0.000000
0.313036 0.000000 0.085040
0.312704 0.000000 0.221586
0.312379 0.000000 0.355367
0.312058 0.000000 0.487551
0.311739 0.000000 0.618607
0.311423 0.000000 0.748791
0.311108 0.000000 0.878264
0.310795 0.000000 1.000000
0.310022 0.128883 0.000000
0.309810 0.128671 0.081814
0.309478 0.128339 0.218360
0.309153 0.128014 0.352141
0.308832 0.127693 0.484325
0.308513 0.127374 0.615381
0.308197 0.127058 0.745565
0.307882 0.126744 0.875038
0.307569 0.126430 1.000000
0.306764 0.261326 0.000000
0.306551 0.261114 0.078556
0.306220 0.260782 0.215102
0.305895 0.260457 0.348883
0.305574 0.260136 0.481067
0.305255 0.259818 0.612123
0.304939 0.259502 0.742306
0.304624 0.259187 0.871780
0.304311 0.258874 1.000000
0.303559 0.391608 0.000000
0.303346 0.391396 0.075351
0.303015 0.391064 0.211897
0.302690 0.390739 0.345678
0.302369 0.390418 0.477862
0.302050 0.390100 0.608918
0.301734 0.389783 0.739101
0.301419 0.389469 0.868575
0.301106 0.389156 0.997449
0.300387 0.520521 0.000000
0.300175 0.520309 0.072180
0.299843 0.519977 0.208726
0.299518 0.519652 0.342507
0.299197 0.519331 0.474691
0.298879 0.519012 0.605746
0.298562 0.518696 0.735930
0.298248 0.518381 0.865403
0.297935 0.518068 0.994278
0.297241 0.648429 0.000000
0.297029 0.648217 0.069033
0.296697 0.647886 0.205579
0.296372 0.647561 0.339360
0.296051 0.647239 0.471544
0.295732 0.646921 0.602600
0.295416 0.646605 0.732784
0.295101 0.646290 0.862257
0.294788 0.645977 0.991131
0.294114 0.775546 0.000000
0.293901 0.775334 0.065906
0.293570 0.775002 0.202452
0.293245 0.774677 0.336233
0.292923 0.774356 0.468417
0.292605 0.774037 0.599473
0.292289 0.773721 0.729656
0.291974 0.773407 0.859130
0.291661 0.773093 0.988004
0.291003 0.902009 0.000000
0.290790 0.901796 0.062795
0.290459 0.901465 0.199341
0.290134 0.901140 0.333122
0.289812 0.900818 0.465306
0.289494 0.900500 0.596362
0.289178 0.900184 0.726545
0.288863 0.899869 0.856019
0.288550 0.899556 0.984893
0.288404 1.000000 0.000000
0.288192 1.000000 0.060197
0.287860 1.000000 0.196742
0.287535 1.000000 0.330523
0.287214 1.000000 0.462707
0.286895 1.000000 0.593763
0.286579 1.000000 0.723947
0.286265 1.000000 0.853420
0.285951 1.000000 0.982294
0.445252 0.000000 0.000000
0.445039 0.000000 0.084091
0.444708 0.000000 0.220637
0.444383 0.000000 0.354418
0.444061 0.000000 0.486602
0.443743 0.000000 0.617658
0.443427 0.000000 0.747842
0.443112 0.000000 0.877315
0.442799 0.000000 1.000000
0.442026 0.127934 0.000000
0.441813 0.127722 0.080865
0.441482 0.127390 0.217411
0.441157 0.127065 0.351192
0.440835 0.126744 0.483376
0.440517 0.126426 0.614432
0.440201 0.126109 0.744616
0.439886 0.125795 0.874089
0.439573 0.125482 1.000000
0.438767 0.260377 0.000000
0.438555 0.260165 0.077607
0.438224 0.259834 0.214153
0.437898 0.259509 0.347934
0.437577 0.259187 0.480118
0.437259 0.258869 0.611174
0.436943 0.258553 0.741358
0.436628 0.258238 0.870831
0.436315 0.257925 0.999705
0.435562 0.390659 0.000000
0.435350 0.390447 0.074402
0.435019 0.390115 0.210948
0.434694 0.389790 0.344729
0.434372 0.389469 0.476913
0.434054 0.389151 0.607969
0.433738 0.388834 0.738153
0.433423 0.388520 0.867626
0.433110 0.388207 0.996500
0.432391 0.519572 0.000000
0.432179 0.519360 0.071231
0.431847 0.519028 0.207777
0.431522 0.518703 0.341558
0.431201 0.518382 0.473742
0.430883 0.518063 0.604798
0.430566 0.517747 0.734981
0.430252 0.517432 0.864455
0.429939 0.517119 0.993329
0.429244 0.647481 0.000000
0.429032 0.647268 0.068084
0.428701 0.646937 0.204630
0.428376 0.646612 0.338411
0.428054 0.646290 0.470595
0.427736 0.645972 0.601651
0.427420 0.645656 0.731835
0.427105 0.645341 0.861308
0.426792 0.645028 0.990182
0.426117 0.774597 0.000000
0.425905 0.774385 0.064957
0.425574 0.774053 0.201503
0.425248 0.773728 0.335284
0.424927 0.773407 0.467468
0.424609 0.773089 0.598524
0.424293 0.772772 0.728708
0.423978 0.772458 0.858181
0.423665 0.772144 0.987055
0.423006 0.901060 0.000000
0.422794 0.900848 0.061846
0.422462 0.900516 0.198392
0.422137 0.900191 0.332173
0.421816 0.899870 0.464357
0.421498 0.899551 0.595413
0.421182 0.899235 0.725596
0.420867 0.898920 0.855070
0.420554 0.898607 0.983944
0.420408 1.000000 0.000000
0.420196 1.000000 0.059248
0.419864 1.000000 0.195793
0.419539 1.000000 0.329574
0.419218 1.000000 0.461758
0.418899 1.000000 0.592814
0.418583 1.000000 0.722998
0.418268 1.000000 0.852471
0.417955 1.000000 0.981346
0.576015 0.000000 0.000000
0.575803 0.000000 0.083151
0.575472 0.000000 0.219697
0.575146 0.000000 0.353478
0.574825 0.000000 0.485662
0.574507 0.000000 0.616718
0.574191 0.000000 0.746902
0.573876 0.000000 0.876375
0.573563 0.000000 1.000000
0.572789 0.126994 0.000000
0.572577 0.126782 0.079925
0.572246 0.126450 0.216471
0.571921 0.126125 0.350252
0.571599 0.125804 0.482436
0.571281 0.125486 0.613492
0.570965 0.125169 0.743676
0.570650 0.124855 0.873149
0.570337 0.124542 1.000000
0.569531 0.259437 0.000000
0.569319 0.259225 0.076667
0.568987 0.258894 0.213213
0.568662 0.258569 0.346994
0.568341 0.258247 0.479178
0.568023 0.257929 0.610234
0.567706 0.257613 0.740418
0.567392 0.257298 0.869891
0.567079 0.256985 0.998765
0.566326 0.389719 0.000000
0.566114 0.389507 0.073462
0.565782 0.389175 0.210008
0.565457 0.388850 0.343789
0.565136 0.388529 0.475973
0.564818 0.388211 0.607029
0.564501 0.387895 0.737213
0.564187 0.387580 0.866686
0.563874 0.387267 0.995560
0.563155 0.518632 0.000000
0.562943 0.518420 0.070291
0.562611 0.518088 0.206837
0.562286 0.517763 0.340618
0.561965 0.517442 0.472802
0.561646 0.517123 0.603858
0.561330 0.516807 0.734041
0.561016 0.516492 0.863515
0.560702 0.516179 0.992389
0.560008 0.646541 0.000000
0.559796 0.646328 0.067144
0.559464 0.645997 0.203690
0.559139 0.645672 0.337471
0.558818 0.645350 0.469655
0.558500 0.645032 0.600711
0.558184 0.644716 0.730895
0.557869 0.644401 0.860368
0.557556 0.644088 0.989242
0.556881 0.773657 0.000000
0.556669 0.773445 0.064017
0.556337 0.773113 0.200563
0.556012 0.772788 0.334344
0.555691 0.772467 0.466528
0.555373 0.772149 0.597584
0.555056 0.771832 0.727768
0.554742 0.771518 0.857241
0.554429 0.771205 0.986115
0.553770 0.900120 0.000000
0.553558 0.899908 0.060906
0.553226 0.899576 0.197452
0.552901 0.899251 0.331233
0.552580 0.898930 0.463417
0.552262 0.898611 0.594473
0.551945 0.898295 0.724657
0.551631 0.897980 0.854130
0.551318 0.897667 0.983004
0.551172 1.000000 0.000000
0.550960 1.000000 0.058308
0.550628 1.000000 0.194853
0.550303 1.000000 0.328634
0.549982 1.000000 0.460818
0.549663 1.000000 0.591874
0.549347 1.000000 0.722058
0.549032 1.000000 0.851531
0.548719 1.000000 0.980406
0.705843 0.000000 0.000000
0.705631 0.000000 0.082218
0.705299 0.000000 0.218764
0.704974 0.000000 0.352545
0.704653 0.000000 0.484729
0.704334 0.000000 0.615785
0.704018 0.000000 0.745968
0.703703 0.000000 0.875442
0.703390 0.000000 1.000000
0.702617 0.126061 0.000000
0.702405 0.125849 0.078992
0.702073 0.125517 0.215538
0.701748 0.125192 0.349319
0.701427 0.124871 0.481503
0.701108 0.124552 0.612559
0.700792 0.124236 0.742742
0.700477 0.123921 0.872216
0.700164 0.123608 1.000000
0.699359 0.258504 0.000000
0.699147 0.258292 0.075734
0.698815 0.257960 0.212280
0.698490 0.257635 0.346061
0.698169 0.257314 0.478245
0.697850 0.256996 0.609301
0.697534 0.256679 0.739484
0.697219 0.256365 0.868958
0.696906 0.256052 0.997832
0.696154 0.388786 0.000000
0.695942 0.388574 0.072529
0.695610 0.388242 0.209075
0.695285 0.387917 0.342856
0.694964 0.387596 0.475040
0.694645 0.387278 0.606096
0.694329 0.386961 0.736279
0.694014 0.386647 0.865753
0.693701 0.386334 0.994627
0.692982 0.517699 0.000000
0.692770 0.517487 0.069358
0.692438 0.517155 0.205904
0.692113 0.516830 0.339685
0.691792 0.516509 0.471868
0.691474 0.516190 0.602924
0.691158 0.515874 0.733108
0.690843 0.515559 0.862581
0.690530 0.515246 0.991456
0.689836 0.645607 0.000000
0.689624 0.645395 0.066211
0.689292 0.645063 0.202757
0.688967 0.644738 0.336538
0.688646 0.644417 0.468722
0.688327 0.644099 0.599778
0.688011 0.643782 0.729961
0.687696 0.643468 0.859435
0.687383 0.643155 0.988309
0.686709 0.772724 0.000000
0.686497 0.772512 0.063084
0.686165 0.772180 0.199630
0.685840 0.771855 0.333411
0.685519 0.771534 0.465595
0.685200 0.771215 0.596651
0.684884 0.770899 0.726834
0.684569 0.770584 0.856308
0.684256 0.770271 0.985182
0.683598 0.899186 0.000000
0.683385 0.898974 0.059973
0.683054 0.898643 0.196519
0.682729 0.898317 0.330300
0.682407 0.897996 0.462484
0.682089 0.897678 0.593540
0.681773 0.897362 0.723723
0.681458 0.897047 0.853197
0.681145 0.896734 0.982071
0.680999 1.000000 0.000000
0.680787 1.000000 0.057374
0.680455 1.000000 0.193920
0.680130 1.000000 0.327701
0.679809 1.000000 0.459885
0.679490 1.000000 0.590941
0.679174 1.000000 0.721125
0.678860 1.000000 0.850598
0.678546 1.000000 0.979472
0.834918 0.000000 0.000000
0.834706 0.000000 0.081290
0.834374 0.000000 0.217836
0.834049 0.000000 0.351617
0.833728 0.000000 0.483801
0.833410 0.000000 0.614857
0.833093 0.000000 0.745041
0.832779 0.000000 0.874514
0.832466 0.000000 1.000000
0.831692 0.125133 0.000000
0.831480 0.124921 0.078064
0.831148 0.124589 0.214610
0.830823 0.124264 0.348391
0.830502 0.123943 0.480575
0.830184 0.123624 0.611631
0.829867 0.123308 0.741815
0.829553 0.122994 0.871288
0.829240 0.122680 1.000000
0.828434 0.257576 0.000000
0.828222 0.257364 0.074806
0.827890 0.257032 0.211352
0.827565 0.256707 0.345133
0.827244 0.256386 0.477317
0.826925 0.256068 0.608373
0.826609 0.255752 0.738556
0.826295 0.255437 0.868030
0.825981 0.255124 0.996904
0.825229 0.387858 0.000000
0.825017 0.387646 0.071601
0.824685 0.387314 0.208147
0.824360 0.386989 0.341928
0.824039 0.386668 0.474112
0.823720 0.386350 0.605168
0.823404 0.386033 0.735351
0.823090 0.385719 0.864825
0.822776 0.385406 0.993699
0.822058 0.516771 0.000000
0.821846 0.516559 0.068430
0.821514 0.516227 0.204976
0.821189 0.515902 0.338757
0.820868 0.515581 0.470941
0.820549 0.515262 0.601996
0.820233 0.514946 0.732180
0.819918 0.514631 0.861653
0.819605 0.514318 0.990528
0.818911 0.644679 0.000000
0.818699 0.644467 0.065283
0.818367 0.644136 0.201829
0.818042 0.643811 0.335610
0.817721 0.643489 0.467794
0.817403 0.643171 0.598850
0.817086 0.642855 0.729034
0.816772 0.642540 0.858507
0.816459 0.642227 0.987381
0.815784 0.771796 0.000000
0.815572 0.771584 0.062156
0.815240 0.771252 0.198702
0.814915 0.770927 0.332483
0.814594 0.770606 0.464667
0.814275 0.770287 0.595723
0.813959 0.769971 0.725906
0.813645 0.769657 0.855380
0.813331 0.769343 0.984254
0.812673 0.898259 0.000000
0.812461 0.898046 0.059045
0.812129 0.897715 0.195591
0.811804 0.897390 0.329372
0.811483 0.897068 0.461556
0.811164 0.896750 0.592612
0.810848 0.896434 0.722795
0.810534 0.896119 0.852269
0.810220 0.895806 0.981143
0.810074 1.000000 0.000000
0.809862 1.000000 0.056447
0.809530 1.000000 0.192992
0.809205 1.000000 0.326773
0.808884 1.000000 0.458957
0.808566 1.000000 0.590013
0.808250 1.000000 0.720197
0.807935 1.000000 0.849670
0.807622 1.000000 0.978544
0.963366 0.000000 0.000000
0.963153 0.000000 0.080367
0.962822 0.000000 0.216913
0.962497 0.000000 0.350694
0.962175 0.000000 0.482878
0.961857 0.000000 0.613934
0.961541 0.000000 0.744117
0.961226 0.000000 0.873591
0.960913 0.000000 1.000000
0.960140 0.124210 0.000000
0.959928 0.123998 0.077141
0.959596 0.123666 0.213687
0.959271 0.123341 0.347468
0.958950 0.123020 0.479652
0.958631 0.122701 0.610708
0.958315 0.122385 0.740891
0.958000 0.122070 0.870365
0.957687 0.121757 0.999239
0.956881 0.256653 0.000000
0.956669 0.256441 0.073883
0.956338 0.256109 0.210429
0.956013 0.255784 0.344210
0.955691 0.255463 0.476394
0.955373 0.255145 0.607449
0.955057 0.254828 0.737633
0.954742 0.254514 0.867106
0.954429 0.254200 0.995981
0.953676 0.386935 0.000000
0.953464 0.386723 0.070678
0.953133 0.386391 0.207224
0.952808 0.386066 0.341005
0.952486 0.385745 0.473189
0.952168 0.385426 0.604244
0.951852 0.385110 0.734428
0.951537 0.384795 0.863901
0.951224 0.384482 0.992776
0.950505 0.515847 0.000000
0.950293 0.515635 0.067507
0.949961 0.515304 0.204052
0.949636 0.514979 0.337833
0.949315 0.514657 0.470017
0.948997 0.514339 0.601073
0.948680 0.514023 0.731257
0.948366 0.513708 0.860730
0.948053 0.513395 0.989605
0.947359 0.643756 0.000000
0.947146 0.643544 0.064360
0.946815 0.643212 0.200906
0.946490 0.642887 0.334687
0.946168 0.642566 0.466871
0.945850 0.642248 0.597926
0.945534 0.641931 0.728110
0.945219 0.641617 0.857584
0.944906 0.641304 0.986458
0.944231 0.770873 0.000000
0.944019 0.770660 0.061233
0.943688 0.770329 0.197779
0.943363 0.770004 0.331560
0.943041 0.769682 0.463744
0.942723 0.769364 0.594799
0.942407 0.769048 0.724983
0.942092 0.768733 0.854456
0.941779 0.768420 0.983331
0.941120 0.897335 0.000000
0.940908 0.897123 0.058122
0.940577 0.896791 0.194668
0.940251 0.896466 0.328449
0.939930 0.896145 0.460633
0.939612 0.895827 0.591688
0.939296 0.895510 0.721872
0.938981 0.895196 0.851345
0.938668 0.894883 0.980220
0.938522 1.000000 0.000000
0.938310 1.000000 0.055523
0.937978 1.000000 0.192069
0.937653 1.000000 0.325850
0.937332 1.000000 0.458034
0.937013 1.000000 0.589090
0.936697 1.000000 0.719273
0.936382 1.000000 0.848747
0.936069 1.000000 0.977621
1.000000 0.000000 0.000000
1.000000 0.000000 0.079907
1.000000 0.000000 0.216453
1.000000 0.000000 0.350234
1.000000 0.000000 0.482418
1.000000 0.000000 0.613474
1.000000 0.000000 0.743657
1.000000 0.000000 0.873131
1.000000 0.000000 1.000000
1.000000 0.123750 0.000000
1.000000 0.123538 0.076681
1.000000 0.123206 0.213227
1.000000 0.122881 0.347008
1.000000 0.122560 0.479192
1.000000 0.122241 0.610248
1.000000 0.121925 0.740431
1.000000 0.121610 0.869905
1.000000 0.121297 0.998779
1.000000 0.256193 0.000000
1.000000 0.255981 0.073423
1.000000 0.255649 0.209969
1.000000 0.255324 0.343750
1.000000 0.255003 0.475934
1.000000 0.254685 0.606989
1.000000 0.254368 0.737173
1.000000 0.254054 0.866646
1.000000 0.253741 0.995521
1.000000 0.386475 0.000000
1.000000 0.386263 0.070218
1.000000 0.385931 0.206764
1.000000 0.385606 0.340545
1.000000 0.385285 0.472729
1.000000 0.384966 0.603784
1.000000 0.384650 0.733968
1.000000 0.384336 0.863441
1.000000 0.384022 0.992316
1.000000 0.515387 0.000000
1.000000 0.515175 0.067047
1.000000 0.514844 0.203592
1.000000 0.514519 0.337373
1.000000 0.514197 0.469557
1.000000 0.513879 0.600613
1.000000 0.513563 0.730797
1.000000 0.513248 0.860270
1.000000 0.512935 0.989145
1.000000 0.643296 0.000000
1.000000 0.643084 0.063900
1.000000 0.642752 0.200446
1.000000 0.642427 0.334227
1.000000 0.642106 0.466411
1.000000 0.641788 0.597467
1.000000 0.641471 0.727650
1.000000 0.641157 0.857124
1.000000 0.640844 0.985998
1.000000 0.770413 0.000000
1.000000 0.770201 0.060773
1.000000 0.769869 0.197319
1.000000 0.769544 0.331100
1.000000 0.769223 0.463284
1.000000 0.768904 0.594339
1.000000 0.768588 0.724523
1.000000 0.768273 0.853996
1.000000 0.767960 0.982871
1.000000 0.896875 0.000000
1.000000 0.896663 0.057662
1.000000 0.896331 0.194208
1.000000 0.896006 0.327989
1.000000 0.895685 0.460173
1.000000 0.895367 0.591228
1.000000 0.895050 0.721412
1.000000 0.894736 0.850885
1.000000 0.894423 0.979760
1.000000 1.000000 0.000000
1.000000 1.000000 0.055063
1.000000 1.000000 0.191609
1.000000 1.000000 0.325390
1.000000 1.000000 0.457574
1.000000 1.000000 0.588630
1.000000 1.000000 0.718813
1.000000 1.000000 0.848287
1.000000 1.000000 0.977161
