skills/editops-orchestrator/assets/grade/luts/warm_skin_v19.cube
TITLE "warm_skin_v19"
LUT_3D_SIZE 5
DOMAIN_MIN 0.0 0.0 0.0
DOMAIN_MAX 1.0 1.0 1.0
0.053808 0.000000 0.000000
0.052970 0.000000 0.218272
0.051919 0.000000 0.492571
0.050893 0.000000 0.760546
0.049881 0.000000 1.000000
0.043272 0.267625 0.000000
0.042434 0.266786 0.207737
0.041384 0.265736 0.482035
0.040357 0.264710 0.750011
0.039346 0.263698 1.000000
0.032932 0.530903 0.000000
0.032094 0.530064 0.197396
0.031043 0.529014 0.471695
0.030017 0.527988 0.739670
0.029005 0.526976 1.000000
0.022801 0.788833 0.000000
0.021963 0.787995 0.187266
0.020912 0.786945 0.461564
0.019886 0.785918 0.729540
0.018874 0.784907 0.993714
0.013907 1.000000 0.000000
0.013069 1.000000 0.178372
0.012018 1.000000 0.452670
0.010992 1.000000 0.720646
0.009980 1.000000 0.984821
0.333532 0.000000 0.000000
0.332694 0.000000 0.215094
0.331643 0.000000 0.489392
0.330617 0.000000 0.757368
0.329605 0.000000 1.000000
0.322997 0.264447 0.000000
0.322159 0.263608 0.204559
0.321108 0.262558 0.478857
0.320082 0.261532 0.746833
0.319070 0.260520 1.000000
0.312656 0.527725 0.000000
0.311818 0.526886 0.194218
0.310767 0.525836 0.468516
0.309741 0.524810 0.736492
0.308729 0.523798 1.000000
0.302525 0.785655 0.000000
0.301687 0.784817 0.184087
0.300637 0.783766 0.458386
0.299610 0.782740 0.726362
0.298599 0.781728 0.990536
0.293632 1.000000 0.000000
0.292793 1.000000 0.175193
0.291743 1.000000 0.449492
0.290716 1.000000 0.717468
0.289705 1.000000 0.981642
0.602626 0.000000 0.000000
0.601787 0.000000 0.212037
0.600737 0.000000 0.486335
0.599711 0.000000 0.754311
0.598699 0.000000 1.000000
0.592090 0.261389 0.000000
0.591252 0.260551 0.201501
0.590201 0.259500 0.475800
0.589175 0.258474 0.743775
0.588163 0.257462 1.000000
0.581750 0.524667 0.000000
0.580911 0.523829 0.191161
0.579861 0.522778 0.465459
0.578834 0.521752 0.733435
0.577823 0.520740 0.997610
0.571619 0.782598 0.000000
0.570781 0.781760 0.181030
0.569730 0.780709 0.455328
0.568704 0.779683 0.723304
0.567692 0.778671 0.987479
0.562725 1.000000 0.000000
0.561887 1.000000 0.172136
0.560836 1.000000 0.446434
0.559810 1.000000 0.714410
0.558798 1.000000 0.978585
0.866827 0.000000 0.000000
0.865989 0.000000 0.209035
0.864938 0.000000 0.483333
0.863912 0.000000 0.751309
0.862900 0.000000 1.000000
0.856291 0.258387 0.000000
0.855453 0.257549 0.198499
0.854403 0.256499 0.472798
0.853376 0.255472 0.740774
0.852365 0.254461 1.000000
0.845951 0.521665 0.000000
0.845112 0.520827 0.188159
0.844062 0.519777 0.462457
0.843036 0.518750 0.730433
0.842024 0.517739 0.994608
0.835820 0.779596 0.000000
0.834982 0.778758 0.178028
0.833931 0.777707 0.452327
0.832905 0.776681 0.720302
0.831893 0.775669 0.984477
0.826926 1.000000 0.000000
0.826088 1.000000 0.169134
0.825037 1.000000 0.443433
0.824011 1.000000 0.711408
0.822999 1.000000 0.975583
1.000000 0.000000 0.000000
1.000000 0.000000 0.207023
1.000000 0.000000 0.481321
1.000000 0.000000 0.749297
1.000000 0.000000 1.000000
1.000000 0.256375 0.000000
1.000000 0.255537 0.196487
1.000000 0.254486 0.470786
1.000000 0.253460 0.738761
1.000000 0.252448 1.000000
1.000000 0.519653 0.000000
1.000000 0.518815 0.186147
1.000000 0.517765 0.460445
1.000000 0.516738 0.728421
1.000000 0.515726 0.992596
1.000000 0.777584 0.000000
1.000000 0.776746 0.176016
1.000000 0.775695 0.450314
1.000000 0.774669 0.718290
1.000000 0.773657 0.982465
1.000000 1.000000 0.000000
1.000000 1.000000 0.167122
1.000000 1.000000 0.441420
1.000000 1.000000 0.709396
1.000000 1.000000 0.973571
