skills/editops-orchestrator/assets/grade/luts/warm_skin_v08.cube
TITLE "warm_skin_v08"
LUT_3D_SIZE 5
DOMAIN_MIN 0.0 0.0 0.0
DOMAIN_MAX 1.0 1.0 1.0
0.028866 0.000000 0.000000
0.028711 0.000000 0.228941
0.028537 0.000000 0.485245
0.028366 0.000000 0.738518
0.028195 0.000000 0.989897
0.027122 0.258095 0.000000
0.026967 0.257940 0.227197
0.026793 0.257766 0.483501
0.026621 0.257595 0.736773
0.026451 0.257424 0.988153
0.025404 0.512384 0.000000
0.025248 0.512229 0.225479
0.025075 0.512055 0.481783
0.024903 0.511883 0.735055
0.024732 0.511713 0.986435
0.023704 0.763864 0.000000
0.023549 0.763709 0.223779
0.023375 0.763535 0.480083
0.023203 0.763363 0.733356
0.023033 0.763193 0.984735
0.022091 1.000000 0.000000
0.021936 1.000000 0.222166
0.021762 1.000000 0.478470
0.021590 1.000000 0.731742
0.021420 1.000000 0.983122
0.289983 0.000000 0.000000
0.289828 0.000000 0.228419
0.289654 0.000000 0.484723
0.289482 0.000000 0.737996
0.289312 0.000000 0.989375
0.288239 0.257573 0.000000
0.288083 0.257418 0.226675
0.287910 0.257244 0.482979
0.287738 0.257073 0.736251
0.287567 0.256902 0.987631
0.286520 0.511862 0.000000
0.286365 0.511707 0.224957
0.286191 0.511533 0.481260
0.286019 0.511361 0.734533
0.285849 0.511191 0.985913
0.284821 0.763342 0.000000
0.284666 0.763187 0.223257
0.284492 0.763013 0.479561
0.284320 0.762841 0.732834
0.284150 0.762671 0.984213
0.283207 1.000000 0.000000
0.283052 1.000000 0.221644
0.282878 1.000000 0.477948
0.282707 1.000000 0.731220
0.282536 1.000000 0.982600
0.545050 0.000000 0.000000
0.544894 0.000000 0.227909
0.544721 0.000000 0.484213
0.544549 0.000000 0.737486
0.544378 0.000000 0.988865
0.543305 0.257064 0.000000
0.543150 0.256908 0.226165
0.542976 0.256734 0.482469
0.542804 0.256563 0.735741
0.542634 0.256392 0.987121
0.541587 0.511352 0.000000
0.541432 0.511197 0.224447
0.541258 0.511023 0.480751
0.541086 0.510852 0.734023
0.540916 0.510681 0.985403
0.539888 0.762832 0.000000
0.539732 0.762677 0.222747
0.539558 0.762503 0.479051
0.539387 0.762331 0.732324
0.539216 0.762161 0.983703
0.538274 1.000000 0.000000
0.538119 1.000000 0.221134
0.537945 1.000000 0.477438
0.537773 1.000000 0.730710
0.537603 1.000000 0.982090
0.797472 0.000000 0.000000
0.797316 0.000000 0.227405
0.797142 0.000000 0.483709
0.796971 0.000000 0.736981
0.796800 0.000000 0.988361
0.795727 0.256559 0.000000
0.795572 0.256404 0.225660
0.795398 0.256230 0.481964
0.795226 0.256058 0.735237
0.795056 0.255888 0.986616
0.794009 0.510848 0.000000
0.793853 0.510692 0.223942
0.793680 0.510519 0.480246
0.793508 0.510347 0.733518
0.793338 0.510176 0.984898
0.792309 0.762327 0.000000
0.792154 0.762172 0.222243
0.791980 0.761998 0.478547
0.791809 0.761826 0.731819
0.791638 0.761656 0.983199
0.790696 1.000000 0.000000
0.790541 1.000000 0.220629
0.790367 1.000000 0.476933
0.790195 1.000000 0.730206
0.790025 1.000000 0.981585
1.000000 0.000000 0.000000
1.000000 0.000000 0.226985
1.000000 0.000000 0.483289
1.000000 0.000000 0.736561
1.000000 0.000000 0.987941
1.000000 0.256139 0.000000
1.000000 0.255984 0.225240
1.000000 0.255810 0.481544
1.000000 0.255638 0.734817
1.000000 0.255468 0.986197
1.000000 0.510428 0.000000
1.000000 0.510273 0.223522
1.000000 0.510099 0.479826
1.000000 0.509927 0.733099
1.000000 0.509757 0.984478
1.000000 0.761907 0.000000
1.000000 0.761752 0.221823
1.000000 0.761578 0.478127
1.000000 0.761407 0.731399
1.000000 0.761236 0.982779
1.000000 1.000000 0.000000
1.000000 1.000000 0.220209
1.000000 1.000000 0.476513
1.000000 1.000000 0.729786
1.000000 1.000000 0.981165
