skills/editops-orchestrator/assets/grade/luts/warm_skin_v09.cube
TITLE "warm_skin_v09"
LUT_3D_SIZE 5
DOMAIN_MIN 0.0 0.0 0.0
DOMAIN_MAX 1.0 1.0 1.0
0.030943 0.000000 0.000000
0.030720 0.000000 0.228107
0.030469 0.000000 0.485997
0.030220 0.000000 0.740589
0.029974 0.000000 0.993128
0.028417 0.258956 0.000000
0.028195 0.258733 0.225582
0.027943 0.258482 0.483472
0.027695 0.258233 0.738063
0.027448 0.257987 0.990603
0.025930 0.514063 0.000000
0.025708 0.513840 0.223095
0.025456 0.513588 0.480985
0.025208 0.513340 0.735576
0.024961 0.513094 0.988116
0.023473 0.766137 0.000000
0.023250 0.765915 0.220637
0.022999 0.765663 0.478527
0.022750 0.765415 0.733119
0.022504 0.765168 0.985658
0.021156 1.000000 0.000000
0.020933 1.000000 0.218320
0.020682 1.000000 0.476210
0.020433 1.000000 0.730802
0.020187 1.000000 0.983341
0.293779 0.000000 0.000000
0.293557 0.000000 0.227351
0.293305 0.000000 0.485241
0.293057 0.000000 0.739832
0.292810 0.000000 0.992372
0.291254 0.258199 0.000000
0.291031 0.257977 0.224825
0.290780 0.257725 0.482715
0.290531 0.257477 0.737307
0.290285 0.257230 0.989846
0.288767 0.513306 0.000000
0.288544 0.513083 0.222338
0.288293 0.512832 0.480228
0.288044 0.512583 0.734820
0.287798 0.512337 0.987359
0.286309 0.765381 0.000000
0.286087 0.765158 0.219881
0.285835 0.764907 0.477771
0.285587 0.764658 0.732362
0.285340 0.764412 0.984902
0.283992 1.000000 0.000000
0.283770 1.000000 0.217564
0.283518 1.000000 0.475454
0.283270 1.000000 0.730045
0.283023 1.000000 0.982585
0.550137 0.000000 0.000000
0.549914 0.000000 0.226613
0.549663 0.000000 0.484503
0.549414 0.000000 0.739095
0.549168 0.000000 0.991634
0.547612 0.257462 0.000000
0.547389 0.257239 0.224087
0.547137 0.256987 0.481977
0.546889 0.256739 0.736569
0.546643 0.256493 0.989108
0.545125 0.512568 0.000000
0.544902 0.512346 0.221600
0.544650 0.512094 0.479490
0.544402 0.511846 0.734082
0.544156 0.511599 0.986621
0.542667 0.764643 0.000000
0.542445 0.764420 0.219143
0.542193 0.764169 0.477033
0.541945 0.763920 0.731625
0.541698 0.763674 0.984164
0.540350 1.000000 0.000000
0.540127 1.000000 0.216826
0.539876 1.000000 0.474716
0.539627 1.000000 0.729308
0.539381 1.000000 0.981847
0.803648 0.000000 0.000000
0.803425 0.000000 0.225883
0.803174 0.000000 0.483773
0.802925 0.000000 0.738365
0.802679 0.000000 0.990904
0.801122 0.256732 0.000000
0.800900 0.256509 0.223358
0.800648 0.256258 0.481248
0.800400 0.256009 0.735839
0.800153 0.255763 0.988379
0.798635 0.511839 0.000000
0.798413 0.511616 0.220871
0.798161 0.511364 0.478761
0.797913 0.511116 0.733352
0.797666 0.510870 0.985892
0.796178 0.763913 0.000000
0.795955 0.763691 0.218413
0.795704 0.763439 0.476303
0.795455 0.763191 0.730895
0.795209 0.762944 0.983434
0.793861 1.000000 0.000000
0.793638 1.000000 0.216096
0.793387 1.000000 0.473986
0.793138 1.000000 0.728578
0.792892 1.000000 0.981117
1.000000 0.000000 0.000000
1.000000 0.000000 0.225287
1.000000 0.000000 0.483177
1.000000 0.000000 0.737769
1.000000 0.000000 0.990308
1.000000 0.256136 0.000000
1.000000 0.255913 0.222761
1.000000 0.255662 0.480651
1.000000 0.255413 0.735243
1.000000 0.255167 0.987782
1.000000 0.511242 0.000000
1.000000 0.511020 0.220274
1.000000 0.510768 0.478164
1.000000 0.510520 0.732756
1.000000 0.510273 0.985295
1.000000 0.763317 0.000000
1.000000 0.763095 0.217817
1.000000 0.762843 0.475707
1.000000 0.762595 0.730299
1.000000 0.762348 0.982838
1.000000 1.000000 0.000000
1.000000 1.000000 0.215500
1.000000 1.000000 0.473390
1.000000 1.000000 0.727982
1.000000 1.000000 0.980521
