skills/editops-orchestrator/assets/grade/luts/warm_skin_v07.cube
TITLE "warm_skin_v07"
LUT_3D_SIZE 9
DOMAIN_MIN 0.0 0.0 0.0
DOMAIN_MAX 1.0 1.0 1.0
0.026828 0.000000 0.000000
0.026790 0.000000 0.100407
0.026741 0.000000 0.229750
0.026693 0.000000 0.357574
0.026645 0.000000 0.484477
0.026597 0.000000 0.610715
0.026549 0.000000 0.736433
0.026502 0.000000 0.861725
0.026455 0.000000 0.986654
0.026344 0.128757 0.000000
0.026306 0.128719 0.099923
0.026257 0.128670 0.229265
0.026209 0.128622 0.357090
0.026161 0.128574 0.483993
0.026113 0.128526 0.610231
0.026065 0.128478 0.735949
0.026018 0.128431 0.861241
0.025971 0.128384 0.986170
0.025861 0.257236 0.000000
0.025823 0.257198 0.099440
0.025774 0.257149 0.228783
0.025726 0.257101 0.356607
0.025678 0.257053 0.483510
0.025630 0.257005 0.609748
0.025582 0.256958 0.735466
0.025535 0.256910 0.860758
0.025488 0.256863 0.985687
0.025383 0.384395 0.000000
0.025345 0.384357 0.098962
0.025296 0.384308 0.228305
0.025248 0.384260 0.356129
0.025200 0.384212 0.483032
0.025152 0.384164 0.609270
0.025105 0.384116 0.734988
0.025057 0.384069 0.860280
0.025010 0.384022 0.985209
0.024908 0.510707 0.000000
0.024870 0.510669 0.098488
0.024821 0.510620 0.227830
0.024773 0.510572 0.355654
0.024725 0.510524 0.482557
0.024677 0.510476 0.608795
0.024630 0.510429 0.734514
0.024582 0.510381 0.859805
0.024535 0.510334 0.984734
0.024436 0.636396 0.000000
0.024398 0.636358 0.098015
0.024349 0.636309 0.227357
0.024301 0.636261 0.355182
0.024253 0.636213 0.482085
0.024205 0.636165 0.608323
0.024157 0.636117 0.734041
0.024110 0.636070 0.859333
0.024063 0.636023 0.984262
0.023965 0.761590 0.000000
0.023927 0.761552 0.097545
0.023878 0.761503 0.226887
0.023830 0.761455 0.354711
0.023782 0.761407 0.481614
0.023734 0.761359 0.607852
0.023687 0.761311 0.733571
0.023639 0.761264 0.858862
0.023592 0.761217 0.983792
0.023496 0.886375 0.000000
0.023458 0.886337 0.097076
0.023409 0.886288 0.226418
0.023361 0.886240 0.354242
0.023313 0.886192 0.481145
0.023265 0.886144 0.607383
0.023218 0.886096 0.733102
0.023170 0.886049 0.858393
0.023123 0.886002 0.983323
0.023064 1.000000 0.000000
0.023026 1.000000 0.096643
0.022977 1.000000 0.225985
0.022928 1.000000 0.353810
0.022881 1.000000 0.480713
0.022833 1.000000 0.606951
0.022785 1.000000 0.732669
0.022738 1.000000 0.857961
0.022691 1.000000 0.982890
0.157763 0.000000 0.000000
0.157725 0.000000 0.100261
0.157676 0.000000 0.229604
0.157628 0.000000 0.357428
0.157580 0.000000 0.484331
0.157532 0.000000 0.610569
0.157484 0.000000 0.736287
0.157437 0.000000 0.861579
0.157390 0.000000 0.986508
0.157279 0.128611 0.000000
0.157241 0.128573 0.099777
0.157192 0.128524 0.229120
0.157144 0.128476 0.356944
0.157096 0.128428 0.483847
0.157048 0.128380 0.610085
0.157000 0.128333 0.735803
0.156953 0.128285 0.861095
0.156906 0.128238 0.986024
0.156796 0.257090 0.000000
0.156758 0.257052 0.099294
0.156709 0.257004 0.228637
0.156661 0.256955 0.356461
0.156613 0.256907 0.483364
0.156565 0.256859 0.609602
0.156517 0.256812 0.735321
0.156470 0.256765 0.860612
0.156423 0.256717 0.985541
0.156318 0.384249 0.000000
0.156280 0.384211 0.098816
0.156231 0.384162 0.228159
0.156183 0.384114 0.355983
0.156135 0.384066 0.482886
0.156087 0.384018 0.609124
0.156039 0.383970 0.734843
0.155992 0.383923 0.860134
0.155945 0.383876 0.985063
0.155843 0.510561 0.000000
0.155805 0.510523 0.098342
0.155756 0.510474 0.227684
0.155708 0.510426 0.355508
0.155660 0.510378 0.482411
0.155612 0.510330 0.608650
0.155565 0.510283 0.734368
0.155517 0.510235 0.859659
0.155470 0.510188 0.984589
0.155371 0.636250 0.000000
0.155333 0.636212 0.097869
0.155284 0.636163 0.227212
0.155236 0.636115 0.355036
0.155188 0.636067 0.481939
0.155140 0.636019 0.608177
0.155092 0.635971 0.733895
0.155045 0.635924 0.859187
0.154998 0.635877 0.984116
0.154900 0.761444 0.000000
0.154862 0.761406 0.097399
0.154813 0.761357 0.226741
0.154765 0.761309 0.354565
0.154717 0.761261 0.481468
0.154669 0.761213 0.607707
0.154622 0.761165 0.733425
0.154574 0.761118 0.858716
0.154527 0.761071 0.983646
0.154431 0.886229 0.000000
0.154393 0.886191 0.096930
0.154344 0.886142 0.226272
0.154296 0.886094 0.354096
0.154248 0.886046 0.480999
0.154200 0.885998 0.607238
0.154153 0.885950 0.732956
0.154105 0.885903 0.858247
0.154058 0.885856 0.983177
0.153999 1.000000 0.000000
0.153961 1.000000 0.096497
0.153912 1.000000 0.225839
0.153863 1.000000 0.353664
0.153815 1.000000 0.480567
0.153768 1.000000 0.606805
0.153720 1.000000 0.732523
0.153673 1.000000 0.857815
0.153626 1.000000 0.982744
0.286219 0.000000 0.000000
0.286181 0.000000 0.100118
0.286132 0.000000 0.229460
0.286084 0.000000 0.357285
0.286036 0.000000 0.484188
0.285988 0.000000 0.610426
0.285941 0.000000 0.736144
0.285893 0.000000 0.861436
0.285846 0.000000 0.986365
0.285735 0.128468 0.000000
0.285697 0.128430 0.099634
0.285648 0.128381 0.228976
0.285600 0.128333 0.356801
0.285552 0.128285 0.483704
0.285504 0.128237 0.609942
0.285457 0.128189 0.735660
0.285409 0.128142 0.860952
0.285362 0.128095 0.985881
0.285252 0.256947 0.000000
0.285214 0.256909 0.099151
0.285165 0.256860 0.228494
0.285117 0.256812 0.356318
0.285069 0.256764 0.483221
0.285021 0.256716 0.609459
0.284974 0.256669 0.735177
0.284926 0.256621 0.860469
0.284879 0.256574 0.985398
0.284774 0.384106 0.000000
0.284736 0.384068 0.098673
0.284687 0.384019 0.228016
0.284639 0.383971 0.355840
0.284591 0.383923 0.482743
0.284543 0.383875 0.608981
0.284496 0.383827 0.734699
0.284448 0.383780 0.859991
0.284401 0.383733 0.984920
0.284300 0.510418 0.000000
0.284262 0.510380 0.098199
0.284213 0.510331 0.227541
0.284164 0.510283 0.355365
0.284116 0.510235 0.482268
0.284069 0.510187 0.608506
0.284021 0.510140 0.734225
0.283974 0.510092 0.859516
0.283926 0.510045 0.984445
0.283827 0.636107 0.000000
0.283789 0.636069 0.097726
0.283740 0.636020 0.227068
0.283692 0.635971 0.354893
0.283644 0.635924 0.481796
0.283596 0.635876 0.608034
0.283549 0.635828 0.733752
0.283501 0.635781 0.859044
0.283454 0.635734 0.983973
0.283357 0.761301 0.000000
0.283319 0.761263 0.097256
0.283270 0.761214 0.226598
0.283221 0.761166 0.354422
0.283173 0.761118 0.481325
0.283126 0.761070 0.607563
0.283078 0.761022 0.733282
0.283031 0.760975 0.858573
0.282983 0.760928 0.983502
0.282888 0.886086 0.000000
0.282850 0.886048 0.096787
0.282801 0.885999 0.226129
0.282752 0.885950 0.353953
0.282704 0.885902 0.480856
0.282657 0.885855 0.607094
0.282609 0.885807 0.732813
0.282562 0.885760 0.858104
0.282514 0.885713 0.983033
0.282455 1.000000 0.000000
0.282417 1.000000 0.096354
0.282368 1.000000 0.225696
0.282320 1.000000 0.353521
0.282272 1.000000 0.480424
0.282224 1.000000 0.606662
0.282177 1.000000 0.732380
0.282129 1.000000 0.857672
0.282082 1.000000 0.982601
0.413499 0.000000 0.000000
0.413461 0.000000 0.099976
0.413412 0.000000 0.229319
0.413363 0.000000 0.357143
0.413315 0.000000 0.484046
0.413268 0.000000 0.610284
0.413220 0.000000 0.736002
0.413173 0.000000 0.861294
0.413125 0.000000 0.986223
0.413015 0.128326 0.000000
0.412977 0.128288 0.099492
0.412928 0.128239 0.228835
0.412879 0.128191 0.356659
0.412831 0.128143 0.483562
0.412784 0.128095 0.609800
0.412736 0.128048 0.735518
0.412689 0.128000 0.860810
0.412641 0.127953 0.985739
0.412532 0.256805 0.000000
0.412494 0.256767 0.099009
0.412445 0.256719 0.228352
0.412396 0.256670 0.356176
0.412348 0.256622 0.483079
0.412301 0.256574 0.609317
0.412253 0.256527 0.735036
0.412206 0.256480 0.860327
0.412159 0.256432 0.985256
0.412054 0.383964 0.000000
0.412016 0.383926 0.098531
0.411967 0.383877 0.227874
0.411918 0.383829 0.355698
0.411870 0.383781 0.482601
0.411823 0.383733 0.608839
0.411775 0.383685 0.734558
0.411728 0.383638 0.859849
0.411681 0.383591 0.984778
0.411579 0.510276 0.000000
0.411541 0.510238 0.098057
0.411492 0.510190 0.227399
0.411444 0.510141 0.355223
0.411396 0.510093 0.482126
0.411348 0.510045 0.608365
0.411300 0.509998 0.734083
0.411253 0.509951 0.859374
0.411206 0.509903 0.984304
0.411107 0.635965 0.000000
0.411069 0.635927 0.097584
0.411020 0.635878 0.226927
0.410971 0.635830 0.354751
0.410923 0.635782 0.481654
0.410876 0.635734 0.607892
0.410828 0.635686 0.733610
0.410781 0.635639 0.858902
0.410733 0.635592 0.983831
0.410636 0.761159 0.000000
0.410598 0.761121 0.097114
0.410549 0.761072 0.226456
0.410501 0.761024 0.354280
0.410453 0.760976 0.481183
0.410405 0.760928 0.607422
0.410357 0.760881 0.733140
0.410310 0.760833 0.858431
0.410263 0.760786 0.983361
0.410167 0.885944 0.000000
0.410129 0.885906 0.096645
0.410080 0.885857 0.225987
0.410032 0.885809 0.353811
0.409984 0.885761 0.480714
0.409936 0.885713 0.606953
0.409888 0.885665 0.732671
0.409841 0.885618 0.857962
0.409794 0.885571 0.982892
0.409734 1.000000 0.000000
0.409696 1.000000 0.096212
0.409647 1.000000 0.225554
0.409599 1.000000 0.353379
0.409551 1.000000 0.480282
0.409503 1.000000 0.606520
0.409456 1.000000 0.732238
0.409409 1.000000 0.857530
0.409361 1.000000 0.982459
0.539992 0.000000 0.000000
0.539954 0.000000 0.099835
0.539905 0.000000 0.229178
0.539856 0.000000 0.357002
0.539808 0.000000 0.483905
0.539761 0.000000 0.610143
0.539713 0.000000 0.735862
0.539666 0.000000 0.861153
0.539619 0.000000 0.986082
0.539508 0.128185 0.000000
0.539470 0.128147 0.099351
0.539421 0.128098 0.228694
0.539372 0.128050 0.356518
0.539324 0.128002 0.483421
0.539277 0.127954 0.609659
0.539229 0.127907 0.735377
0.539182 0.127859 0.860669
0.539135 0.127812 0.985598
0.539025 0.256664 0.000000
0.538987 0.256627 0.098868
0.538938 0.256578 0.228211
0.538889 0.256529 0.356035
0.538842 0.256481 0.482938
0.538794 0.256434 0.609176
0.538746 0.256386 0.734895
0.538699 0.256339 0.860186
0.538652 0.256291 0.985115
0.538547 0.383823 0.000000
0.538509 0.383785 0.098391
0.538460 0.383736 0.227733
0.538412 0.383688 0.355557
0.538364 0.383640 0.482460
0.538316 0.383592 0.608698
0.538268 0.383544 0.734417
0.538221 0.383497 0.859708
0.538174 0.383450 0.984637
0.538072 0.510135 0.000000
0.538034 0.510097 0.097916
0.537985 0.510049 0.227258
0.537937 0.510000 0.355083
0.537889 0.509952 0.481985
0.537841 0.509904 0.608224
0.537794 0.509857 0.733942
0.537746 0.509810 0.859233
0.537699 0.509762 0.984163
0.537600 0.635824 0.000000
0.537562 0.635786 0.097443
0.537513 0.635737 0.226786
0.537464 0.635689 0.354610
0.537416 0.635641 0.481513
0.537369 0.635593 0.607751
0.537321 0.635545 0.733469
0.537274 0.635498 0.858761
0.537227 0.635451 0.983690
0.537129 0.761018 0.000000
0.537091 0.760980 0.096973
0.537042 0.760931 0.226315
0.536994 0.760883 0.354140
0.536946 0.760835 0.481042
0.536898 0.760787 0.607281
0.536851 0.760740 0.732999
0.536803 0.760692 0.858290
0.536756 0.760645 0.983220
0.536660 0.885803 0.000000
0.536622 0.885765 0.096504
0.536573 0.885716 0.225846
0.536525 0.885668 0.353671
0.536477 0.885620 0.480573
0.536429 0.885572 0.606812
0.536382 0.885524 0.732530
0.536334 0.885477 0.857821
0.536287 0.885430 0.982751
0.536227 1.000000 0.000000
0.536189 1.000000 0.096071
0.536141 1.000000 0.225413
0.536092 1.000000 0.353238
0.536044 1.000000 0.480141
0.535997 1.000000 0.606379
0.535949 1.000000 0.732097
0.535902 1.000000 0.857389
0.535854 1.000000 0.982318
0.665893 0.000000 0.000000
0.665855 0.000000 0.099695
0.665807 0.000000 0.229037
0.665758 0.000000 0.356862
0.665710 0.000000 0.483765
0.665662 0.000000 0.610003
0.665615 0.000000 0.735721
0.665568 0.000000 0.861013
0.665520 0.000000 0.985942
0.665409 0.128045 0.000000
0.665371 0.128007 0.099211
0.665322 0.127958 0.228553
0.665274 0.127910 0.356378
0.665226 0.127862 0.483281
0.665178 0.127814 0.609519
0.665131 0.127766 0.735237
0.665083 0.127719 0.860529
0.665036 0.127672 0.985458
0.664926 0.256524 0.000000
0.664888 0.256486 0.098728
0.664840 0.256437 0.228070
0.664791 0.256389 0.355895
0.664743 0.256341 0.482798
0.664696 0.256293 0.609036
0.664648 0.256246 0.734754
0.664601 0.256198 0.860046
0.664553 0.256151 0.984975
0.664449 0.383683 0.000000
0.664411 0.383645 0.098250
0.664362 0.383596 0.227593
0.664313 0.383547 0.355417
0.664265 0.383499 0.482320
0.664218 0.383452 0.608558
0.664170 0.383404 0.734276
0.664123 0.383357 0.859568
0.664075 0.383310 0.984497
0.663974 0.509995 0.000000
0.663936 0.509957 0.097775
0.663887 0.509908 0.227118
0.663839 0.509860 0.354942
0.663791 0.509812 0.481845
0.663743 0.509764 0.608083
0.663695 0.509717 0.733802
0.663648 0.509669 0.859093
0.663601 0.509622 0.984022
0.663501 0.635684 0.000000
0.663463 0.635646 0.097303
0.663414 0.635597 0.226645
0.663366 0.635548 0.354470
0.663318 0.635500 0.481373
0.663270 0.635453 0.607611
0.663223 0.635405 0.733329
0.663175 0.635358 0.858621
0.663128 0.635311 0.983550
0.663031 0.760878 0.000000
0.662993 0.760840 0.096833
0.662944 0.760791 0.226175
0.662896 0.760743 0.353999
0.662848 0.760695 0.480902
0.662800 0.760647 0.607140
0.662752 0.760599 0.732859
0.662705 0.760552 0.858150
0.662658 0.760505 0.983079
0.662562 0.885663 0.000000
0.662524 0.885625 0.096363
0.662475 0.885576 0.225706
0.662427 0.885527 0.353530
0.662379 0.885479 0.480433
0.662331 0.885432 0.606671
0.662283 0.885384 0.732390
0.662236 0.885337 0.857681
0.662189 0.885289 0.982610
0.662129 1.000000 0.000000
0.662091 1.000000 0.095931
0.662042 1.000000 0.225273
0.661994 1.000000 0.353098
0.661946 1.000000 0.480000
0.661898 1.000000 0.606239
0.661851 1.000000 0.731957
0.661803 1.000000 0.857248
0.661756 1.000000 0.982178
0.791321 0.000000 0.000000
0.791283 0.000000 0.099555
0.791234 0.000000 0.228898
0.791186 0.000000 0.356722
0.791138 0.000000 0.483625
0.791090 0.000000 0.609863
0.791043 0.000000 0.735581
0.790995 0.000000 0.860873
0.790948 0.000000 0.985802
0.790837 0.127905 0.000000
0.790799 0.127867 0.099071
0.790750 0.127818 0.228414
0.790702 0.127770 0.356238
0.790654 0.127722 0.483141
0.790606 0.127674 0.609379
0.790559 0.127627 0.735097
0.790511 0.127579 0.860389
0.790464 0.127532 0.985318
0.790354 0.256384 0.000000
0.790316 0.256346 0.098588
0.790267 0.256298 0.227931
0.790219 0.256249 0.355755
0.790171 0.256201 0.482658
0.790123 0.256153 0.608896
0.790076 0.256106 0.734615
0.790028 0.256059 0.859906
0.789981 0.256011 0.984835
0.789876 0.383543 0.000000
0.789838 0.383505 0.098110
0.789789 0.383456 0.227453
0.789741 0.383408 0.355277
0.789693 0.383360 0.482180
0.789645 0.383312 0.608418
0.789598 0.383264 0.734137
0.789550 0.383217 0.859428
0.789503 0.383170 0.984357
0.789402 0.509855 0.000000
0.789364 0.509817 0.097636
0.789315 0.509768 0.226978
0.789266 0.509720 0.354802
0.789218 0.509672 0.481705
0.789171 0.509624 0.607944
0.789123 0.509577 0.733662
0.789076 0.509529 0.858953
0.789028 0.509482 0.983883
0.788929 0.635544 0.000000
0.788891 0.635506 0.097163
0.788842 0.635457 0.226506
0.788794 0.635409 0.354330
0.788746 0.635361 0.481233
0.788698 0.635313 0.607471
0.788651 0.635265 0.733189
0.788603 0.635218 0.858481
0.788556 0.635171 0.983410
0.788459 0.760738 0.000000
0.788421 0.760700 0.096693
0.788372 0.760651 0.226035
0.788323 0.760603 0.353859
0.788275 0.760555 0.480762
0.788228 0.760507 0.607001
0.788180 0.760459 0.732719
0.788133 0.760412 0.858010
0.788086 0.760365 0.982940
0.787990 0.885523 0.000000
0.787952 0.885485 0.096224
0.787903 0.885436 0.225566
0.787854 0.885388 0.353390
0.787806 0.885340 0.480293
0.787759 0.885292 0.606532
0.787711 0.885244 0.732250
0.787664 0.885197 0.857541
0.787617 0.885150 0.982471
0.787557 1.000000 0.000000
0.787519 1.000000 0.095791
0.787470 1.000000 0.225133
0.787422 1.000000 0.352958
0.787374 1.000000 0.479861
0.787326 1.000000 0.606099
0.787279 1.000000 0.731817
0.787231 1.000000 0.857109
0.787184 1.000000 0.982038
0.916354 0.000000 0.000000
0.916316 0.000000 0.099416
0.916267 0.000000 0.228758
0.916219 0.000000 0.356583
0.916171 0.000000 0.483486
0.916123 0.000000 0.609724
0.916075 0.000000 0.735442
0.916028 0.000000 0.860734
0.915981 0.000000 0.985663
0.915870 0.127766 0.000000
0.915832 0.127728 0.098932
0.915783 0.127679 0.228274
0.915734 0.127630 0.356099
0.915686 0.127582 0.483002
0.915639 0.127535 0.609240
0.915591 0.127487 0.734958
0.915544 0.127440 0.860250
0.915497 0.127393 0.985179
0.915387 0.256245 0.000000
0.915349 0.256207 0.098449
0.915300 0.256158 0.227791
0.915252 0.256110 0.355616
0.915204 0.256062 0.482519
0.915156 0.256014 0.608757
0.915108 0.255967 0.734475
0.915061 0.255919 0.859767
0.915014 0.255872 0.984696
0.914909 0.383404 0.000000
0.914871 0.383366 0.097971
0.914822 0.383317 0.227313
0.914774 0.383268 0.355138
0.914726 0.383220 0.482041
0.914678 0.383173 0.608279
0.914630 0.383125 0.733997
0.914583 0.383078 0.859289
0.914536 0.383030 0.984218
0.914434 0.509716 0.000000
0.914396 0.509678 0.097496
0.914347 0.509629 0.226839
0.914299 0.509581 0.354663
0.914251 0.509533 0.481566
0.914203 0.509485 0.607804
0.914156 0.509438 0.733523
0.914108 0.509390 0.858814
0.914061 0.509343 0.983743
0.913962 0.635405 0.000000
0.913924 0.635367 0.097024
0.913875 0.635318 0.226366
0.913826 0.635269 0.354191
0.913778 0.635221 0.481094
0.913731 0.635174 0.607332
0.913683 0.635126 0.733050
0.913636 0.635079 0.858342
0.913589 0.635031 0.983271
0.913491 0.760599 0.000000
0.913453 0.760561 0.096553
0.913404 0.760512 0.225896
0.913356 0.760463 0.353720
0.913308 0.760415 0.480623
0.913260 0.760368 0.606861
0.913213 0.760320 0.732580
0.913165 0.760273 0.857871
0.913118 0.760226 0.982800
0.913022 0.885384 0.000000
0.912984 0.885346 0.096084
0.912935 0.885297 0.225427
0.912887 0.885248 0.353251
0.912839 0.885200 0.480154
0.912791 0.885153 0.606392
0.912744 0.885105 0.732111
0.912696 0.885058 0.857402
0.912649 0.885010 0.982331
0.912590 1.000000 0.000000
0.912552 1.000000 0.095652
0.912503 1.000000 0.224994
0.912454 1.000000 0.352819
0.912406 1.000000 0.479721
0.912359 1.000000 0.605960
0.912311 1.000000 0.731678
0.912264 1.000000 0.856969
0.912216 1.000000 0.981899
1.000000 0.000000 0.000000
1.000000 0.000000 0.099318
1.000000 0.000000 0.228660
1.000000 0.000000 0.356485
1.000000 0.000000 0.483388
1.000000 0.000000 0.609626
1.000000 0.000000 0.735344
1.000000 0.000000 0.860636
1.000000 0.000000 0.985565
1.000000 0.127668 0.000000
1.000000 0.127630 0.098834
1.000000 0.127581 0.228176
1.000000 0.127533 0.356001
1.000000 0.127485 0.482904
1.000000 0.127437 0.609142
1.000000 0.127389 0.734860
1.000000 0.127342 0.860152
1.000000 0.127295 0.985081
1.000000 0.256147 0.000000
1.000000 0.256109 0.098351
1.000000 0.256060 0.227694
1.000000 0.256012 0.355518
1.000000 0.255964 0.482421
1.000000 0.255916 0.608659
1.000000 0.255869 0.734377
1.000000 0.255821 0.859669
1.000000 0.255774 0.984598
1.000000 0.383306 0.000000
1.000000 0.383268 0.097873
1.000000 0.383219 0.227216
1.000000 0.383171 0.355040
1.000000 0.383123 0.481943
1.000000 0.383075 0.608181
1.000000 0.383027 0.733899
1.000000 0.382980 0.859191
1.000000 0.382933 0.984120
1.000000 0.509618 0.000000
1.000000 0.509580 0.097399
1.000000 0.509531 0.226741
1.000000 0.509483 0.354565
1.000000 0.509435 0.481468
1.000000 0.509387 0.607706
1.000000 0.509340 0.733425
1.000000 0.509292 0.858716
1.000000 0.509245 0.983645
1.000000 0.635307 0.000000
1.000000 0.635269 0.096926
1.000000 0.635220 0.226268
1.000000 0.635171 0.354093
1.000000 0.635123 0.480996
1.000000 0.635076 0.607234
1.000000 0.635028 0.732952
1.000000 0.634981 0.858244
1.000000 0.634934 0.983173
1.000000 0.760501 0.000000
1.000000 0.760463 0.096456
1.000000 0.760414 0.225798
1.000000 0.760366 0.353622
1.000000 0.760318 0.480525
1.000000 0.760270 0.606763
1.000000 0.760222 0.732482
1.000000 0.760175 0.857773
1.000000 0.760128 0.982702
1.000000 0.885286 0.000000
1.000000 0.885248 0.095987
1.000000 0.885199 0.225329
1.000000 0.885150 0.353153
1.000000 0.885102 0.480056
1.000000 0.885055 0.606294
1.000000 0.885007 0.732013
1.000000 0.884960 0.857304
1.000000 0.884913 0.982233
1.000000 1.000000 0.000000
1.000000 1.000000 0.095554
1.000000 1.000000 0.224896
1.000000 1.000000 0.352721
1.000000 1.000000 0.479624
1.000000 1.000000 0.605862
1.000000 1.000000 0.731580
1.000000 1.000000 0.856872
1.000000 1.000000 0.981801
