skills/editops-orchestrator/assets/grade/luts/warm_skin_v08.cube
TITLE "warm_skin_v08"
LUT_3D_SIZE 17
DOMAIN_MIN 0.0 0.0 0.0
DOMAIN_MAX 1.0 1.0 1.0
0.028866 0.000000 0.000000
0.028845 0.000000 0.032116
0.028799 0.000000 0.098609
0.028755 0.000000 0.164061
0.028711 0.000000 0.228941
0.028667 0.000000 0.293423
0.028624 0.000000 0.357599
0.028581 0.000000 0.421526
0.028537 0.000000 0.485245
0.028494 0.000000 0.548784
0.028451 0.000000 0.612165
0.028408 0.000000 0.675405
0.028366 0.000000 0.738518
0.028323 0.000000 0.801515
0.028280 0.000000 0.864405
0.028238 0.000000 0.927197
0.028195 0.000000 0.989897
0.028436 0.063558 0.000000
0.028415 0.063536 0.031687
0.028370 0.063491 0.098179
0.028325 0.063446 0.163631
0.028281 0.063402 0.228511
0.028238 0.063359 0.292993
0.028194 0.063315 0.357169
0.028151 0.063272 0.421096
0.028107 0.063229 0.484815
0.028064 0.063186 0.548354
0.028021 0.063143 0.611735
0.027979 0.063100 0.674975
0.027936 0.063057 0.738088
0.027893 0.063014 0.801085
0.027850 0.062972 0.863975
0.027808 0.062929 0.926767
0.027765 0.062886 0.989468
0.027994 0.129055 0.000000
0.027972 0.129033 0.031244
0.027927 0.128988 0.097736
0.027883 0.128943 0.163189
0.027839 0.128899 0.228069
0.027795 0.128856 0.292550
0.027751 0.128812 0.356726
0.027708 0.128769 0.420654
0.027665 0.128726 0.484373
0.027622 0.128683 0.547912
0.027579 0.128640 0.611293
0.027536 0.128597 0.674533
0.027493 0.128554 0.737645
0.027450 0.128511 0.800642
0.027408 0.128469 0.863532
0.027365 0.128426 0.926324
0.027323 0.128383 0.989025
0.027556 0.193811 0.000000
0.027535 0.193789 0.030806
0.027489 0.193744 0.097299
0.027445 0.193699 0.162751
0.027401 0.193655 0.227631
0.027357 0.193612 0.292113
0.027314 0.193568 0.356288
0.027270 0.193525 0.420216
0.027227 0.193482 0.483935
0.027184 0.193438 0.547474
0.027141 0.193395 0.610855
0.027098 0.193353 0.674095
0.027056 0.193310 0.737208
0.027013 0.193267 0.800204
0.026970 0.193224 0.863095
0.026928 0.193182 0.925887
0.026885 0.193139 0.988587
0.027122 0.258095 0.000000
0.027100 0.258074 0.030372
0.027055 0.258029 0.096864
0.027011 0.257984 0.162317
0.026967 0.257940 0.227197
0.026923 0.257896 0.291678
0.026879 0.257853 0.355854
0.026836 0.257810 0.419782
0.026793 0.257766 0.483501
0.026750 0.257723 0.547040
0.026707 0.257680 0.610421
0.026664 0.257637 0.673661
0.026621 0.257595 0.736773
0.026578 0.257552 0.799770
0.026536 0.257509 0.862660
0.026493 0.257467 0.925452
0.026451 0.257424 0.988153
0.026690 0.322034 0.000000
0.026668 0.322012 0.029940
0.026623 0.321967 0.096432
0.026579 0.321923 0.161885
0.026535 0.321879 0.226765
0.026491 0.321835 0.291246
0.026447 0.321792 0.355422
0.026404 0.321748 0.419350
0.026361 0.321705 0.483069
0.026318 0.321662 0.546608
0.026275 0.321619 0.609989
0.026232 0.321576 0.673229
0.026189 0.321533 0.736341
0.026146 0.321491 0.799338
0.026104 0.321448 0.862228
0.026061 0.321405 0.925020
0.026019 0.321363 0.987721
0.026260 0.385699 0.000000
0.026238 0.385677 0.029510
0.026193 0.385632 0.096002
0.026148 0.385588 0.161455
0.026104 0.385544 0.226335
0.026061 0.385500 0.290816
0.026017 0.385457 0.354992
0.025974 0.385413 0.418920
0.025931 0.385370 0.482639
0.025888 0.385327 0.546178
0.025845 0.385284 0.609559
0.025802 0.385241 0.672798
0.025759 0.385199 0.735911
0.025716 0.385156 0.798908
0.025674 0.385113 0.861798
0.025631 0.385071 0.924590
0.025588 0.385028 0.987291
0.025831 0.449138 0.000000
0.025809 0.449116 0.029081
0.025764 0.449071 0.095573
0.025720 0.449027 0.161026
0.025676 0.448983 0.225906
0.025632 0.448939 0.290387
0.025588 0.448896 0.354563
0.025545 0.448852 0.418491
0.025502 0.448809 0.482210
0.025459 0.448766 0.545749
0.025416 0.448723 0.609130
0.025373 0.448680 0.672370
0.025330 0.448637 0.735482
0.025287 0.448595 0.798479
0.025245 0.448552 0.861369
0.025202 0.448509 0.924161
0.025160 0.448467 0.986862
0.025404 0.512384 0.000000
0.025382 0.512362 0.028654
0.025337 0.512317 0.095146
0.025292 0.512273 0.160599
0.025248 0.512229 0.225479
0.025205 0.512185 0.289960
0.025161 0.512142 0.354136
0.025118 0.512098 0.418063
0.025075 0.512055 0.481783
0.025031 0.512012 0.545322
0.024989 0.511969 0.608703
0.024946 0.511926 0.671942
0.024903 0.511883 0.735055
0.024860 0.511841 0.798052
0.024817 0.511798 0.860942
0.024775 0.511756 0.923734
0.024732 0.511713 0.986435
0.024977 0.575463 0.000000
0.024956 0.575441 0.028227
0.024910 0.575396 0.094720
0.024866 0.575351 0.160172
0.024822 0.575307 0.225052
0.024778 0.575264 0.289534
0.024735 0.575220 0.353710
0.024692 0.575177 0.417637
0.024648 0.575133 0.481356
0.024605 0.575090 0.544895
0.024562 0.575047 0.608276
0.024519 0.575005 0.671516
0.024477 0.574962 0.734629
0.024434 0.574919 0.797626
0.024391 0.574876 0.860516
0.024349 0.574834 0.923308
0.024306 0.574791 0.986008
0.024552 0.638392 0.000000
0.024530 0.638370 0.027802
0.024485 0.638325 0.094294
0.024441 0.638281 0.159747
0.024397 0.638237 0.224627
0.024353 0.638193 0.289109
0.024310 0.638150 0.353284
0.024266 0.638106 0.417212
0.024223 0.638063 0.480931
0.024180 0.638020 0.544470
0.024137 0.637977 0.607851
0.024094 0.637934 0.671091
0.024051 0.637891 0.734204
0.024009 0.637849 0.797200
0.023966 0.637806 0.860091
0.023923 0.637763 0.922883
0.023881 0.637721 0.985583
0.024128 0.701188 0.000000
0.024106 0.701167 0.027378
0.024061 0.701122 0.093870
0.024017 0.701077 0.159323
0.023973 0.701033 0.224203
0.023929 0.700989 0.288684
0.023885 0.700946 0.352860
0.023842 0.700903 0.416788
0.023799 0.700859 0.480507
0.023756 0.700816 0.544046
0.023713 0.700773 0.607427
0.023670 0.700730 0.670667
0.023627 0.700688 0.733779
0.023584 0.700645 0.796776
0.023542 0.700602 0.859666
0.023499 0.700560 0.922458
0.023457 0.700517 0.985159
0.023704 0.763864 0.000000
0.023682 0.763842 0.026954
0.023637 0.763797 0.093447
0.023593 0.763753 0.158899
0.023549 0.763709 0.223779
0.023505 0.763665 0.288261
0.023462 0.763621 0.352436
0.023418 0.763578 0.416364
0.023375 0.763535 0.480083
0.023332 0.763492 0.543622
0.023289 0.763449 0.607003
0.023246 0.763406 0.670243
0.023203 0.763363 0.733356
0.023161 0.763320 0.796352
0.023118 0.763278 0.859243
0.023076 0.763235 0.922035
0.023033 0.763193 0.984735
0.023282 0.826429 0.000000
0.023260 0.826407 0.026532
0.023215 0.826362 0.093024
0.023170 0.826317 0.158476
0.023126 0.826273 0.223356
0.023083 0.826230 0.287838
0.023039 0.826186 0.352014
0.022996 0.826143 0.415941
0.022952 0.826100 0.479660
0.022909 0.826057 0.543199
0.022866 0.826014 0.606580
0.022824 0.825971 0.669820
0.022781 0.825928 0.732933
0.022738 0.825885 0.795930
0.022695 0.825843 0.858820
0.022653 0.825800 0.921612
0.022610 0.825758 0.984313
0.022859 0.888892 0.000000
0.022838 0.888870 0.026109
0.022793 0.888825 0.092602
0.022748 0.888781 0.158054
0.022704 0.888737 0.222934
0.022660 0.888693 0.287416
0.022617 0.888649 0.351592
0.022574 0.888606 0.415519
0.022530 0.888563 0.479238
0.022487 0.888520 0.542777
0.022444 0.888477 0.606158
0.022401 0.888434 0.669398
0.022359 0.888391 0.732511
0.022316 0.888348 0.795508
0.022273 0.888306 0.858398
0.022231 0.888263 0.921190
0.022188 0.888221 0.983890
0.022438 0.951261 0.000000
0.022416 0.951239 0.025688
0.022371 0.951194 0.092180
0.022327 0.951149 0.157633
0.022283 0.951105 0.222513
0.022239 0.951062 0.286994
0.022195 0.951018 0.351170
0.022152 0.950975 0.415098
0.022109 0.950932 0.478817
0.022066 0.950889 0.542356
0.022023 0.950846 0.605737
0.021980 0.950803 0.668977
0.021937 0.950760 0.732089
0.021894 0.950717 0.795086
0.021852 0.950675 0.857976
0.021809 0.950632 0.920768
0.021767 0.950589 0.983469
0.022091 1.000000 0.000000
0.022069 1.000000 0.025341
0.022024 1.000000 0.091833
0.021980 1.000000 0.157286
0.021936 1.000000 0.222166
0.021892 1.000000 0.286647
0.021848 1.000000 0.350823
0.021805 1.000000 0.414751
0.021762 1.000000 0.478470
0.021719 1.000000 0.542009
0.021676 1.000000 0.605390
0.021633 1.000000 0.668630
0.021590 1.000000 0.731742
0.021547 1.000000 0.794739
0.021505 1.000000 0.857629
0.021462 1.000000 0.920421
0.021420 1.000000 0.983122
0.095351 0.000000 0.000000
0.095329 0.000000 0.031983
0.095284 0.000000 0.098476
0.095240 0.000000 0.163928
0.095196 0.000000 0.228808
0.095152 0.000000 0.293290
0.095109 0.000000 0.357466
0.095065 0.000000 0.421393
0.095022 0.000000 0.485112
0.094979 0.000000 0.548651
0.094936 0.000000 0.612032
0.094893 0.000000 0.675272
0.094850 0.000000 0.738385
0.094808 0.000000 0.801382
0.094765 0.000000 0.864272
0.094723 0.000000 0.927064
0.094680 0.000000 0.989764
0.094921 0.063425 0.000000
0.094900 0.063403 0.031554
0.094854 0.063358 0.098046
0.094810 0.063313 0.163499
0.094766 0.063269 0.228379
0.094722 0.063226 0.292860
0.094679 0.063182 0.357036
0.094636 0.063139 0.420963
0.094592 0.063096 0.484682
0.094549 0.063053 0.548222
0.094506 0.063010 0.611603
0.094463 0.062967 0.674842
0.094421 0.062924 0.737955
0.094378 0.062881 0.800952
0.094335 0.062839 0.863842
0.094293 0.062796 0.926634
0.094250 0.062754 0.989335
0.094479 0.128922 0.000000
0.094457 0.128900 0.031111
0.094412 0.128855 0.097603
0.094368 0.128811 0.163056
0.094324 0.128767 0.227936
0.094280 0.128723 0.292417
0.094236 0.128679 0.356593
0.094193 0.128636 0.420521
0.094150 0.128593 0.484240
0.094107 0.128550 0.547779
0.094064 0.128507 0.611160
0.094021 0.128464 0.674400
0.093978 0.128421 0.737512
0.093935 0.128378 0.800509
0.093893 0.128336 0.863399
0.093850 0.128293 0.926191
0.093808 0.128251 0.988892
0.094041 0.193678 0.000000
0.094019 0.193656 0.030673
0.093974 0.193611 0.097166
0.093930 0.193566 0.162618
0.093886 0.193522 0.227498
0.093842 0.193479 0.291980
0.093799 0.193435 0.356156
0.093755 0.193392 0.420083
0.093712 0.193349 0.483802
0.093669 0.193306 0.547341
0.093626 0.193263 0.610722
0.093583 0.193220 0.673962
0.093540 0.193177 0.737075
0.093498 0.193134 0.800072
0.093455 0.193092 0.862962
0.093413 0.193049 0.925754
0.093370 0.193006 0.988454
0.093607 0.257963 0.000000
0.093585 0.257941 0.030239
0.093540 0.257896 0.096731
0.093496 0.257851 0.162184
0.093452 0.257807 0.227064
0.093408 0.257764 0.291545
0.093364 0.257720 0.355721
0.093321 0.257677 0.419649
0.093278 0.257633 0.483368
0.093235 0.257590 0.546907
0.093192 0.257547 0.610288
0.093149 0.257505 0.673528
0.093106 0.257462 0.736640
0.093063 0.257419 0.799637
0.093021 0.257376 0.862527
0.092978 0.257334 0.925319
0.092936 0.257291 0.988020
0.093175 0.321901 0.000000
0.093153 0.321879 0.029807
0.093108 0.321834 0.096299
0.093063 0.321790 0.161752
0.093019 0.321746 0.226632
0.092976 0.321702 0.291113
0.092932 0.321659 0.355289
0.092889 0.321615 0.419217
0.092846 0.321572 0.482936
0.092803 0.321529 0.546475
0.092760 0.321486 0.609856
0.092717 0.321443 0.673096
0.092674 0.321401 0.736208
0.092631 0.321358 0.799205
0.092589 0.321315 0.862095
0.092546 0.321273 0.924887
0.092504 0.321230 0.987588
0.092745 0.385566 0.000000
0.092723 0.385545 0.029377
0.092678 0.385499 0.095869
0.092633 0.385455 0.161322
0.092589 0.385411 0.226202
0.092546 0.385367 0.290683
0.092502 0.385324 0.354859
0.092459 0.385281 0.418787
0.092416 0.385237 0.482506
0.092372 0.385194 0.546045
0.092329 0.385151 0.609426
0.092287 0.385108 0.672666
0.092244 0.385066 0.735778
0.092201 0.385023 0.798775
0.092158 0.384980 0.861665
0.092116 0.384938 0.924457
0.092073 0.384895 0.987158
0.092316 0.449005 0.000000
0.092294 0.448983 0.028948
0.092249 0.448938 0.095440
0.092205 0.448894 0.160893
0.092161 0.448850 0.225773
0.092117 0.448806 0.290255
0.092073 0.448763 0.354430
0.092030 0.448719 0.418358
0.091987 0.448676 0.482077
0.091944 0.448633 0.545616
0.091901 0.448590 0.608997
0.091858 0.448547 0.672237
0.091815 0.448504 0.735350
0.091772 0.448462 0.798346
0.091730 0.448419 0.861237
0.091687 0.448377 0.924029
0.091645 0.448334 0.986729
0.091889 0.512251 0.000000
0.091867 0.512230 0.028521
0.091822 0.512184 0.095013
0.091777 0.512140 0.160466
0.091733 0.512096 0.225346
0.091690 0.512052 0.289827
0.091646 0.512009 0.354003
0.091603 0.511966 0.417931
0.091559 0.511922 0.481650
0.091516 0.511879 0.545189
0.091473 0.511836 0.608570
0.091431 0.511793 0.671810
0.091388 0.511751 0.734922
0.091345 0.511708 0.797919
0.091302 0.511665 0.860809
0.091260 0.511623 0.923601
0.091217 0.511580 0.986302
0.091462 0.575330 0.000000
0.091440 0.575308 0.028094
0.091395 0.575263 0.094587
0.091351 0.575218 0.160039
0.091307 0.575174 0.224919
0.091263 0.575131 0.289401
0.091220 0.575087 0.353577
0.091176 0.575044 0.417504
0.091133 0.575001 0.481223
0.091090 0.574957 0.544762
0.091047 0.574915 0.608143
0.091004 0.574872 0.671383
0.090961 0.574829 0.734496
0.090919 0.574786 0.797493
0.090876 0.574743 0.860383
0.090834 0.574701 0.923175
0.090791 0.574658 0.985875
0.091037 0.638259 0.000000
0.091015 0.638237 0.027669
0.090970 0.638192 0.094162
0.090926 0.638148 0.159614
0.090882 0.638104 0.224494
0.090838 0.638060 0.288976
0.090795 0.638017 0.353151
0.090751 0.637973 0.417079
0.090708 0.637930 0.480798
0.090665 0.637887 0.544337
0.090622 0.637844 0.607718
0.090579 0.637801 0.670958
0.090536 0.637758 0.734071
0.090494 0.637716 0.797067
0.090451 0.637673 0.859958
0.090408 0.637631 0.922750
0.090366 0.637588 0.985450
0.090613 0.701056 0.000000
0.090591 0.701034 0.027245
0.090546 0.700989 0.093737
0.090501 0.700944 0.159190
0.090457 0.700900 0.224070
0.090414 0.700857 0.288551
0.090370 0.700813 0.352727
0.090327 0.700770 0.416655
0.090284 0.700726 0.480374
0.090241 0.700683 0.543913
0.090198 0.700640 0.607294
0.090155 0.700598 0.670534
0.090112 0.700555 0.733646
0.090069 0.700512 0.796643
0.090027 0.700469 0.859533
0.089984 0.700427 0.922325
0.089941 0.700384 0.985026
0.090189 0.763731 0.000000
0.090167 0.763709 0.026821
0.090122 0.763664 0.093314
0.090078 0.763620 0.158766
0.090034 0.763576 0.223646
0.089990 0.763532 0.288128
0.089947 0.763488 0.352304
0.089903 0.763445 0.416231
0.089860 0.763402 0.479950
0.089817 0.763359 0.543489
0.089774 0.763316 0.606870
0.089731 0.763273 0.670110
0.089688 0.763230 0.733223
0.089646 0.763187 0.796220
0.089603 0.763145 0.859110
0.089560 0.763102 0.921902
0.089518 0.763060 0.984602
0.089766 0.826296 0.000000
0.089745 0.826274 0.026399
0.089699 0.826229 0.092891
0.089655 0.826185 0.158344
0.089611 0.826141 0.223224
0.089567 0.826097 0.287705
0.089524 0.826053 0.351881
0.089481 0.826010 0.415808
0.089437 0.825967 0.479527
0.089394 0.825924 0.543067
0.089351 0.825881 0.606448
0.089308 0.825838 0.669687
0.089266 0.825795 0.732800
0.089223 0.825752 0.795797
0.089180 0.825710 0.858687
0.089138 0.825667 0.921479
0.089095 0.825625 0.984180
0.089344 0.888759 0.000000
0.089322 0.888737 0.025977
0.089277 0.888692 0.092469
0.089233 0.888648 0.157921
0.089189 0.888604 0.222801
0.089145 0.888560 0.287283
0.089102 0.888516 0.351459
0.089058 0.888473 0.415386
0.089015 0.888430 0.479105
0.088972 0.888387 0.542644
0.088929 0.888344 0.606025
0.088886 0.888301 0.669265
0.088844 0.888258 0.732378
0.088801 0.888215 0.795375
0.088758 0.888173 0.858265
0.088716 0.888130 0.921057
0.088673 0.888088 0.983758
0.088923 0.951128 0.000000
0.088901 0.951106 0.025555
0.088856 0.951061 0.092047
0.088812 0.951016 0.157500
0.088768 0.950972 0.222380
0.088724 0.950929 0.286862
0.088680 0.950885 0.351037
0.088637 0.950842 0.414965
0.088594 0.950799 0.478684
0.088551 0.950756 0.542223
0.088508 0.950713 0.605604
0.088465 0.950670 0.668844
0.088422 0.950627 0.731957
0.088379 0.950584 0.794953
0.088337 0.950542 0.857844
0.088294 0.950499 0.920635
0.088252 0.950457 0.983336
0.088576 1.000000 0.000000
0.088554 1.000000 0.025208
0.088509 1.000000 0.091700
0.088464 1.000000 0.157153
0.088420 1.000000 0.222033
0.088377 1.000000 0.286514
0.088333 1.000000 0.350690
0.088290 1.000000 0.414618
0.088247 1.000000 0.478337
0.088204 1.000000 0.541876
0.088161 1.000000 0.605257
0.088118 1.000000 0.668497
0.088075 1.000000 0.731609
0.088032 1.000000 0.794606
0.087990 1.000000 0.857496
0.087947 1.000000 0.920288
0.087904 1.000000 0.982989
0.160753 0.000000 0.000000
0.160731 0.000000 0.031853
0.160686 0.000000 0.098345
0.160641 0.000000 0.163798
0.160597 0.000000 0.228678
0.160554 0.000000 0.293159
0.160510 0.000000 0.357335
0.160467 0.000000 0.421263
0.160424 0.000000 0.484982
0.160381 0.000000 0.548521
0.160338 0.000000 0.611902
0.160295 0.000000 0.675142
0.160252 0.000000 0.738254
0.160209 0.000000 0.801251
0.160167 0.000000 0.864141
0.160124 0.000000 0.926933
0.160081 0.000000 0.989634
0.160323 0.063294 0.000000
0.160301 0.063272 0.031423
0.160256 0.063227 0.097915
0.160212 0.063183 0.163368
0.160168 0.063139 0.228248
0.160124 0.063095 0.292729
0.160080 0.063051 0.356905
0.160037 0.063008 0.420833
0.159994 0.062965 0.484552
0.159951 0.062922 0.548091
0.159908 0.062879 0.611472
0.159865 0.062836 0.674712
0.159822 0.062793 0.737824
0.159779 0.062750 0.800821
0.159737 0.062708 0.863711
0.159694 0.062665 0.926503
0.159652 0.062623 0.989204
0.159880 0.128791 0.000000
0.159858 0.128769 0.030980
0.159813 0.128724 0.097473
0.159769 0.128680 0.162925
0.159725 0.128636 0.227805
0.159681 0.128592 0.292287
0.159638 0.128549 0.356462
0.159594 0.128505 0.420390
0.159551 0.128462 0.484109
0.159508 0.128419 0.547648
0.159465 0.128376 0.611029
0.159422 0.128333 0.674269
0.159379 0.128290 0.737382
0.159337 0.128248 0.800378
0.159294 0.128205 0.863269
0.159251 0.128162 0.926061
0.159209 0.128120 0.988761
0.159443 0.193547 0.000000
0.159421 0.193525 0.030543
0.159376 0.193480 0.097035
0.159331 0.193436 0.162488
0.159287 0.193392 0.227368
0.159244 0.193348 0.291849
0.159200 0.193304 0.356025
0.159157 0.193261 0.419952
0.159114 0.193218 0.483672
0.159070 0.193175 0.547211
0.159028 0.193132 0.610592
0.158985 0.193089 0.673831
0.158942 0.193046 0.736944
0.158899 0.193003 0.799941
0.158856 0.192961 0.862831
0.158814 0.192918 0.925623
0.158771 0.192876 0.988324
0.159008 0.257832 0.000000
0.158986 0.257810 0.030108
0.158941 0.257765 0.096601
0.158897 0.257721 0.162053
0.158853 0.257677 0.226933
0.158809 0.257633 0.291415
0.158766 0.257589 0.355590
0.158722 0.257546 0.419518
0.158679 0.257503 0.483237
0.158636 0.257460 0.546776
0.158593 0.257417 0.610157
0.158550 0.257374 0.673397
0.158507 0.257331 0.736510
0.158465 0.257288 0.799506
0.158422 0.257246 0.862397
0.158380 0.257203 0.925189
0.158337 0.257161 0.987889
0.158576 0.321771 0.000000
0.158554 0.321749 0.029676
0.158509 0.321704 0.096169
0.158465 0.321659 0.161621
0.158421 0.321615 0.226501
0.158377 0.321572 0.290983
0.158334 0.321528 0.355158
0.158290 0.321485 0.419086
0.158247 0.321441 0.482805
0.158204 0.321398 0.546344
0.158161 0.321355 0.609725
0.158118 0.321313 0.672965
0.158075 0.321270 0.736078
0.158033 0.321227 0.799074
0.157990 0.321184 0.861965
0.157947 0.321142 0.924757
0.157905 0.321099 0.987457
0.158146 0.385436 0.000000
0.158124 0.385414 0.029246
0.158079 0.385369 0.095738
0.158035 0.385324 0.161191
0.157991 0.385280 0.226071
0.157947 0.385237 0.290552
0.157903 0.385193 0.354728
0.157860 0.385150 0.418656
0.157817 0.385107 0.482375
0.157774 0.385063 0.545914
0.157731 0.385021 0.609295
0.157688 0.384978 0.672535
0.157645 0.384935 0.735647
0.157602 0.384892 0.798644
0.157560 0.384849 0.861534
0.157517 0.384807 0.924326
0.157475 0.384764 0.987027
0.157717 0.448874 0.000000
0.157695 0.448853 0.028817
0.157650 0.448808 0.095310
0.157606 0.448763 0.160762
0.157562 0.448719 0.225642
0.157518 0.448676 0.290124
0.157475 0.448632 0.354299
0.157431 0.448589 0.418227
0.157388 0.448545 0.481946
0.157345 0.448502 0.545485
0.157302 0.448459 0.608866
0.157259 0.448417 0.672106
0.157217 0.448374 0.735219
0.157174 0.448331 0.798215
0.157131 0.448288 0.861106
0.157089 0.448246 0.923898
0.157046 0.448203 0.986598
0.157290 0.512121 0.000000
0.157268 0.512099 0.028390
0.157223 0.512054 0.094882
0.157179 0.512009 0.160335
0.157135 0.511965 0.225215
0.157091 0.511922 0.289696
0.157047 0.511878 0.353872
0.157004 0.511835 0.417800
0.156961 0.511792 0.481519
0.156918 0.511748 0.545058
0.156875 0.511706 0.608439
0.156832 0.511663 0.671679
0.156789 0.511620 0.734791
0.156746 0.511577 0.797788
0.156704 0.511534 0.860678
0.156661 0.511492 0.923470
0.156619 0.511449 0.986171
0.156864 0.575199 0.000000
0.156842 0.575177 0.027964
0.156797 0.575132 0.094456
0.156752 0.575088 0.159909
0.156708 0.575044 0.224789
0.156665 0.575000 0.289270
0.156621 0.574956 0.353446
0.156578 0.574913 0.417374
0.156535 0.574870 0.481093
0.156492 0.574827 0.544632
0.156449 0.574784 0.608013
0.156406 0.574741 0.671253
0.156363 0.574698 0.734365
0.156320 0.574655 0.797362
0.156278 0.574613 0.860252
0.156235 0.574570 0.923044
0.156192 0.574528 0.985745
0.156438 0.638128 0.000000
0.156417 0.638107 0.027538
0.156372 0.638062 0.094031
0.156327 0.638017 0.159483
0.156283 0.637973 0.224363
0.156239 0.637929 0.288845
0.156196 0.637886 0.353021
0.156153 0.637843 0.416948
0.156109 0.637799 0.480667
0.156066 0.637756 0.544206
0.156023 0.637713 0.607587
0.155980 0.637670 0.670827
0.155938 0.637628 0.733940
0.155895 0.637585 0.796937
0.155852 0.637542 0.859827
0.155810 0.637500 0.922619
0.155767 0.637457 0.985319
0.156014 0.700925 0.000000
0.155992 0.700903 0.027114
0.155947 0.700858 0.093606
0.155903 0.700813 0.159059
0.155859 0.700769 0.223939
0.155815 0.700726 0.288421
0.155772 0.700682 0.352596
0.155728 0.700639 0.416524
0.155685 0.700596 0.480243
0.155642 0.700553 0.543782
0.155599 0.700510 0.607163
0.155556 0.700467 0.670403
0.155513 0.700424 0.733516
0.155471 0.700381 0.796512
0.155428 0.700339 0.859403
0.155385 0.700296 0.922195
0.155343 0.700254 0.984895
0.155591 0.763600 0.000000
0.155569 0.763578 0.026691
0.155524 0.763533 0.093183
0.155479 0.763489 0.158636
0.155435 0.763445 0.223516
0.155392 0.763401 0.287997
0.155348 0.763358 0.352173
0.155305 0.763314 0.416100
0.155262 0.763271 0.479819
0.155218 0.763228 0.543359
0.155175 0.763185 0.606740
0.155133 0.763142 0.669979
0.155090 0.763099 0.733092
0.155047 0.763057 0.796089
0.155004 0.763014 0.858979
0.154962 0.762971 0.921771
0.154919 0.762929 0.984472
0.155168 0.826165 0.000000
0.155146 0.826143 0.026268
0.155101 0.826098 0.092760
0.155057 0.826054 0.158213
0.155013 0.826010 0.223093
0.154969 0.825966 0.287574
0.154925 0.825923 0.351750
0.154882 0.825879 0.415678
0.154839 0.825836 0.479397
0.154796 0.825793 0.542936
0.154753 0.825750 0.606317
0.154710 0.825707 0.669557
0.154667 0.825664 0.732669
0.154624 0.825622 0.795666
0.154582 0.825579 0.858556
0.154539 0.825536 0.921348
0.154497 0.825494 0.984049
0.154746 0.888628 0.000000
0.154724 0.888606 0.025846
0.154679 0.888561 0.092338
0.154634 0.888517 0.157791
0.154590 0.888473 0.222671
0.154547 0.888429 0.287152
0.154503 0.888386 0.351328
0.154460 0.888342 0.415256
0.154417 0.888299 0.478975
0.154374 0.888256 0.542514
0.154331 0.888213 0.605895
0.154288 0.888170 0.669135
0.154245 0.888127 0.732247
0.154202 0.888085 0.795244
0.154160 0.888042 0.858134
0.154117 0.887999 0.920926
0.154074 0.887957 0.983627
0.154324 0.950997 0.000000
0.154302 0.950975 0.025424
0.154257 0.950930 0.091917
0.154213 0.950886 0.157369
0.154169 0.950842 0.222249
0.154125 0.950798 0.286731
0.154082 0.950754 0.350906
0.154038 0.950711 0.414834
0.153995 0.950668 0.478553
0.153952 0.950625 0.542092
0.153909 0.950582 0.605473
0.153866 0.950539 0.668713
0.153823 0.950496 0.731826
0.153781 0.950453 0.794822
0.153738 0.950411 0.857713
0.153696 0.950368 0.920505
0.153653 0.950326 0.983205
0.153977 1.000000 0.000000
0.153955 1.000000 0.025077
0.153910 1.000000 0.091569
0.153866 1.000000 0.157022
0.153822 1.000000 0.221902
0.153778 1.000000 0.286384
0.153735 1.000000 0.350559
0.153691 1.000000 0.414487
0.153648 1.000000 0.478206
0.153605 1.000000 0.541745
0.153562 1.000000 0.605126
0.153519 1.000000 0.668366
0.153476 1.000000 0.731479
0.153434 1.000000 0.794475
0.153391 1.000000 0.857366
0.153348 1.000000 0.920158
0.153306 1.000000 0.982858
0.225570 0.000000 0.000000
0.225548 0.000000 0.031723
0.225503 0.000000 0.098215
0.225458 0.000000 0.163668
0.225415 0.000000 0.228548
0.225371 0.000000 0.293030
0.225327 0.000000 0.357205
0.225284 0.000000 0.421133
0.225241 0.000000 0.484852
0.225198 0.000000 0.548391
0.225155 0.000000 0.611772
0.225112 0.000000 0.675012
0.225069 0.000000 0.738125
0.225026 0.000000 0.801121
0.224984 0.000000 0.864012
0.224941 0.000000 0.926804
0.224899 0.000000 0.989504
0.225140 0.063164 0.000000
