skills/editops-orchestrator/assets/grade/luts/warm_skin_v09.cube
TITLE "warm_skin_v09"
LUT_3D_SIZE 17
DOMAIN_MIN 0.0 0.0 0.0
DOMAIN_MAX 1.0 1.0 1.0
0.030943 0.000000 0.000000
0.030914 0.000000 0.029620
0.030848 0.000000 0.096772
0.030784 0.000000 0.162755
0.030720 0.000000 0.228107
0.030657 0.000000 0.293022
0.030594 0.000000 0.357603
0.030531 0.000000 0.421914
0.030469 0.000000 0.485997
0.030406 0.000000 0.549885
0.030344 0.000000 0.613601
0.030282 0.000000 0.677164
0.030220 0.000000 0.740589
0.030158 0.000000 0.803888
0.030097 0.000000 0.867072
0.030035 0.000000 0.930150
0.029974 0.000000 0.993128
0.030323 0.063491 0.000000
0.030294 0.063462 0.029000
0.030229 0.063396 0.096152
0.030164 0.063332 0.162136
0.030100 0.063268 0.227487
0.030037 0.063205 0.292402
0.029974 0.063142 0.356983
0.029911 0.063079 0.421294
0.029849 0.063017 0.485377
0.029786 0.062954 0.549265
0.029724 0.062892 0.612981
0.029662 0.062830 0.676544
0.029600 0.062768 0.739969
0.029539 0.062706 0.803268
0.029477 0.062645 0.866452
0.029415 0.062583 0.929530
0.029354 0.062522 0.992508
0.029681 0.129352 0.000000
0.029652 0.129323 0.028358
0.029586 0.129258 0.095510
0.029522 0.129193 0.161493
0.029458 0.129130 0.226845
0.029395 0.129066 0.291760
0.029332 0.129003 0.356341
0.029269 0.128940 0.420652
0.029207 0.128878 0.484735
0.029144 0.128816 0.548623
0.029082 0.128753 0.612339
0.029020 0.128691 0.675902
0.028958 0.128630 0.739327
0.028897 0.128568 0.802626
0.028835 0.128506 0.865810
0.028773 0.128445 0.928888
0.028712 0.128383 0.991866
0.029047 0.194409 0.000000
0.029018 0.194380 0.027724
0.028952 0.194315 0.094876
0.028888 0.194250 0.160859
0.028824 0.194186 0.226211
0.028761 0.194123 0.291126
0.028698 0.194060 0.355707
0.028635 0.193997 0.420017
0.028572 0.193935 0.484101
0.028510 0.193872 0.547989
0.028448 0.193810 0.611705
0.028386 0.193748 0.675268
0.028324 0.193686 0.738693
0.028262 0.193625 0.801992
0.028201 0.193563 0.865176
0.028139 0.193502 0.928253
0.028078 0.193440 0.991232
0.028417 0.258956 0.000000
0.028388 0.258927 0.027094
0.028323 0.258861 0.094247
0.028259 0.258797 0.160230
0.028195 0.258733 0.225582
0.028131 0.258670 0.290497
0.028068 0.258607 0.355078
0.028006 0.258544 0.419388
0.027943 0.258482 0.483472
0.027881 0.258419 0.547359
0.027819 0.258357 0.611076
0.027757 0.258295 0.674639
0.027695 0.258233 0.738063
0.027633 0.258172 0.801363
0.027571 0.258110 0.864547
0.027510 0.258048 0.927624
0.027448 0.257987 0.990603
0.027792 0.323129 0.000000
0.027763 0.323100 0.026469
0.027697 0.323034 0.093621
0.027633 0.322970 0.159604
0.027569 0.322906 0.224956
0.027506 0.322843 0.289871
0.027443 0.322780 0.354452
0.027380 0.322717 0.418763
0.027318 0.322654 0.482846
0.027255 0.322592 0.546734
0.027193 0.322530 0.610450
0.027131 0.322468 0.674013
0.027069 0.322406 0.737438
0.027007 0.322344 0.800737
0.026946 0.322283 0.863921
0.026884 0.322221 0.926999
0.026823 0.322160 0.989977
0.027169 0.387005 0.000000
0.027140 0.386976 0.025846
0.027075 0.386911 0.092998
0.027010 0.386847 0.158982
0.026946 0.386783 0.224333
0.026883 0.386719 0.289248
0.026820 0.386656 0.353829
0.026757 0.386594 0.418140
0.026695 0.386531 0.482223
0.026633 0.386469 0.546111
0.026570 0.386407 0.609827
0.026508 0.386345 0.673390
0.026446 0.386283 0.736815
0.026385 0.386221 0.800114
0.026323 0.386159 0.863298
0.026262 0.386098 0.926376
0.026200 0.386036 0.989354
0.026549 0.450638 0.000000
0.026520 0.450609 0.025226
0.026454 0.450544 0.092378
0.026390 0.450479 0.158361
0.026326 0.450415 0.223713
0.026263 0.450352 0.288628
0.026200 0.450289 0.353209
0.026137 0.450226 0.417519
0.026074 0.450164 0.481603
0.026012 0.450101 0.545491
0.025950 0.450039 0.609207
0.025888 0.449977 0.672770
0.025826 0.449915 0.736195
0.025764 0.449854 0.799494
0.025703 0.449792 0.862678
0.025641 0.449730 0.925755
0.025580 0.449669 0.988734
0.025930 0.514063 0.000000
0.025901 0.514034 0.024607
0.025836 0.513968 0.091760
0.025772 0.513904 0.157743
0.025708 0.513840 0.223095
0.025644 0.513777 0.288010
0.025581 0.513714 0.352591
0.025519 0.513651 0.416901
0.025456 0.513588 0.480985
0.025394 0.513526 0.544872
0.025332 0.513464 0.608589
0.025270 0.513402 0.672152
0.025208 0.513340 0.735576
0.025146 0.513278 0.798876
0.025084 0.513217 0.862060
0.025023 0.513155 0.925137
0.024961 0.513094 0.988116
0.025314 0.577306 0.000000
0.025285 0.577277 0.023991
0.025219 0.577212 0.091143
0.025155 0.577147 0.157126
0.025091 0.577083 0.222478
0.025028 0.577020 0.287393
0.024965 0.576957 0.351974
0.024902 0.576894 0.416285
0.024840 0.576832 0.480368
0.024777 0.576769 0.544256
0.024715 0.576707 0.607972
0.024653 0.576645 0.671535
0.024591 0.576583 0.734960
0.024529 0.576522 0.798259
0.024468 0.576460 0.861443
0.024406 0.576398 0.924521
0.024345 0.576337 0.987499
0.024699 0.640389 0.000000
0.024670 0.640360 0.023376
0.024604 0.640295 0.090528
0.024540 0.640230 0.156511
0.024476 0.640166 0.221863
0.024413 0.640103 0.286778
0.024350 0.640040 0.351359
0.024287 0.639977 0.415670
0.024225 0.639915 0.479753
0.024162 0.639853 0.543641
0.024100 0.639790 0.607357
0.024038 0.639728 0.670920
0.023976 0.639666 0.734345
0.023914 0.639605 0.797644
0.023853 0.639543 0.860828
0.023791 0.639482 0.923906
0.023730 0.639420 0.986884
0.024085 0.703328 0.000000
0.024056 0.703299 0.022762
0.023991 0.703234 0.089914
0.023926 0.703170 0.155898
0.023863 0.703106 0.221250
0.023799 0.703042 0.286164
0.023736 0.702979 0.350745
0.023674 0.702917 0.415056
0.023611 0.702854 0.479139
0.023549 0.702792 0.543027
0.023487 0.702730 0.606743
0.023425 0.702668 0.670306
0.023363 0.702606 0.733731
0.023301 0.702544 0.797031
0.023239 0.702482 0.860215
0.023178 0.702421 0.923292
0.023116 0.702359 0.986270
0.023473 0.766137 0.000000
0.023444 0.766108 0.022150
0.023378 0.766043 0.089302
0.023314 0.765979 0.155285
0.023250 0.765915 0.220637
0.023187 0.765851 0.285552
0.023124 0.765788 0.350133
0.023061 0.765726 0.414444
0.022999 0.765663 0.478527
0.022936 0.765601 0.542415
0.022874 0.765539 0.606131
0.022812 0.765477 0.669694
0.022750 0.765415 0.733119
0.022689 0.765353 0.796418
0.022627 0.765291 0.859602
0.022565 0.765230 0.922680
0.022504 0.765168 0.985658
0.022862 0.828827 0.000000
0.022833 0.828798 0.021539
0.022767 0.828733 0.088691
0.022703 0.828668 0.154674
0.022639 0.828605 0.220026
0.022576 0.828541 0.284941
0.022513 0.828478 0.349522
0.022450 0.828416 0.413832
0.022388 0.828353 0.477916
0.022325 0.828291 0.541804
0.022263 0.828229 0.605520
0.022201 0.828167 0.669083
0.022139 0.828105 0.732508
0.022077 0.828043 0.795807
0.022016 0.827981 0.858991
0.021954 0.827920 0.922068
0.021893 0.827858 0.985047
0.022252 0.891407 0.000000
0.022223 0.891378 0.020929
0.022157 0.891313 0.088081
0.022093 0.891249 0.154064
0.022029 0.891185 0.219416
0.021966 0.891121 0.284331
0.021903 0.891058 0.348912
0.021840 0.890996 0.413222
0.021777 0.890933 0.477306
0.021715 0.890871 0.541194
0.021653 0.890809 0.604910
0.021591 0.890747 0.668473
0.021529 0.890685 0.731898
0.021467 0.890623 0.795197
0.021406 0.890561 0.858381
0.021344 0.890500 0.921458
0.021283 0.890438 0.984437
0.021643 0.953886 0.000000
0.021614 0.953857 0.020320
0.021548 0.953791 0.087472
0.021484 0.953727 0.153455
0.021420 0.953663 0.218807
0.021357 0.953600 0.283722
0.021294 0.953537 0.348303
0.021231 0.953474 0.412613
0.021168 0.953412 0.476697
0.021106 0.953349 0.540585
0.021044 0.953287 0.604301
0.020982 0.953225 0.667864
0.020920 0.953163 0.731289
0.020858 0.953102 0.794588
0.020797 0.953040 0.857772
0.020735 0.952978 0.920849
0.020674 0.952917 0.983828
0.021156 1.000000 0.000000
0.021127 1.000000 0.019833
0.021061 1.000000 0.086985
0.020997 1.000000 0.152968
0.020933 1.000000 0.218320
0.020870 1.000000 0.283235
0.020807 1.000000 0.347816
0.020744 1.000000 0.412127
0.020682 1.000000 0.476210
0.020619 1.000000 0.540098
0.020557 1.000000 0.603814
0.020495 1.000000 0.667377
0.020433 1.000000 0.730802
0.020372 1.000000 0.794101
0.020310 1.000000 0.857285
0.020248 1.000000 0.920363
0.020187 1.000000 0.983341
0.097933 0.000000 0.000000
0.097904 0.000000 0.029427
0.097839 0.000000 0.096579
0.097774 0.000000 0.162563
0.097711 0.000000 0.227914
0.097647 0.000000 0.292829
0.097584 0.000000 0.357410
0.097521 0.000000 0.421721
0.097459 0.000000 0.485804
0.097397 0.000000 0.549692
0.097334 0.000000 0.613408
0.097272 0.000000 0.676971
0.097211 0.000000 0.740396
0.097149 0.000000 0.803695
0.097087 0.000000 0.866879
0.097026 0.000000 0.929957
0.096964 0.000000 0.992935
0.097313 0.063298 0.000000
0.097284 0.063269 0.028807
0.097219 0.063204 0.095959
0.097154 0.063139 0.161943
0.097091 0.063075 0.227294
0.097027 0.063012 0.292209
0.096964 0.062949 0.356790
0.096902 0.062886 0.421101
0.096839 0.062824 0.485184
0.096777 0.062761 0.549072
0.096715 0.062699 0.612788
0.096653 0.062637 0.676351
0.096591 0.062575 0.739776
0.096529 0.062514 0.803076
0.096467 0.062452 0.866259
0.096406 0.062390 0.929337
0.096344 0.062329 0.992315
0.096671 0.129159 0.000000
0.096642 0.129130 0.028165
0.096577 0.129065 0.095317
0.096512 0.129001 0.161301
0.096449 0.128937 0.226652
0.096385 0.128873 0.291567
0.096322 0.128810 0.356148
0.096260 0.128748 0.420459
0.096197 0.128685 0.484542
0.096135 0.128623 0.548430
0.096073 0.128561 0.612146
0.096011 0.128499 0.675709
0.095949 0.128437 0.739134
0.095887 0.128375 0.802433
0.095825 0.128313 0.865617
0.095764 0.128252 0.928695
0.095702 0.128190 0.991673
0.096037 0.194216 0.000000
0.096008 0.194187 0.027531
0.095943 0.194122 0.094683
0.095878 0.194057 0.160666
0.095814 0.193994 0.226018
0.095751 0.193930 0.290933
0.095688 0.193867 0.355514
0.095625 0.193805 0.419825
0.095563 0.193742 0.483908
0.095500 0.193680 0.547796
0.095438 0.193618 0.611512
0.095376 0.193556 0.675075
0.095314 0.193494 0.738500
0.095253 0.193432 0.801799
0.095191 0.193370 0.864983
0.095129 0.193309 0.928061
0.095068 0.193247 0.991039
0.095408 0.258763 0.000000
0.095379 0.258734 0.026902
0.095313 0.258669 0.094054
0.095249 0.258604 0.160037
0.095185 0.258541 0.225389
0.095122 0.258477 0.290304
0.095059 0.258414 0.354885
0.094996 0.258351 0.419195
0.094934 0.258289 0.483279
0.094871 0.258227 0.547167
0.094809 0.258164 0.610883
0.094747 0.258102 0.674446
0.094685 0.258041 0.737871
0.094623 0.257979 0.801170
0.094562 0.257917 0.864354
0.094500 0.257856 0.927431
0.094439 0.257794 0.990410
0.094782 0.322936 0.000000
0.094753 0.322907 0.026276
0.094688 0.322841 0.093428
0.094623 0.322777 0.159412
0.094560 0.322713 0.224763
0.094496 0.322650 0.289678
0.094433 0.322587 0.354259
0.094370 0.322524 0.418570
0.094308 0.322461 0.482653
0.094246 0.322399 0.546541
0.094183 0.322337 0.610257
0.094121 0.322275 0.673820
0.094060 0.322213 0.737245
0.093998 0.322151 0.800544
0.093936 0.322090 0.863728
0.093875 0.322028 0.926806
0.093813 0.321967 0.989784
0.094159 0.386813 0.000000
0.094130 0.386784 0.025653
0.094065 0.386718 0.092805
0.094001 0.386654 0.158789
0.093937 0.386590 0.224141
0.093873 0.386527 0.289055
0.093810 0.386464 0.353636
0.093748 0.386401 0.417947
0.093685 0.386338 0.482030
0.093623 0.386276 0.545918
0.093561 0.386214 0.609634
0.093499 0.386152 0.673197
0.093437 0.386090 0.736622
0.093375 0.386028 0.799922
0.093313 0.385967 0.863106
0.093252 0.385905 0.926183
0.093190 0.385844 0.989161
0.093539 0.450445 0.000000
0.093510 0.450416 0.025033
0.093445 0.450351 0.092185
0.093380 0.450286 0.158168
0.093316 0.450223 0.223520
0.093253 0.450159 0.288435
0.093190 0.450096 0.353016
0.093127 0.450034 0.417327
0.093065 0.449971 0.481410
0.093003 0.449909 0.545298
0.092940 0.449847 0.609014
0.092878 0.449784 0.672577
0.092816 0.449723 0.736002
0.092755 0.449661 0.799301
0.092693 0.449599 0.862485
0.092632 0.449538 0.925563
0.092570 0.449476 0.988541
0.092921 0.513870 0.000000
0.092892 0.513841 0.024415
0.092826 0.513775 0.091567
0.092762 0.513711 0.157550
0.092698 0.513647 0.222902
0.092635 0.513584 0.287817
0.092572 0.513521 0.352398
0.092509 0.513458 0.416708
0.092447 0.513396 0.480792
0.092384 0.513333 0.544680
0.092322 0.513271 0.608396
0.092260 0.513209 0.671959
0.092198 0.513147 0.735384
0.092136 0.513085 0.798683
0.092075 0.513024 0.861867
0.092013 0.512962 0.924944
0.091952 0.512901 0.987923
0.092304 0.577113 0.000000
0.092275 0.577084 0.023798
0.092210 0.577019 0.090950
0.092145 0.576954 0.156934
0.092082 0.576891 0.222285
0.092018 0.576827 0.287200
0.091955 0.576764 0.351781
0.091892 0.576701 0.416092
0.091830 0.576639 0.480175
0.091768 0.576577 0.544063
0.091705 0.576514 0.607779
0.091643 0.576452 0.671342
0.091582 0.576391 0.734767
0.091520 0.576329 0.798066
0.091458 0.576267 0.861250
0.091397 0.576206 0.924328
0.091335 0.576144 0.987306
0.091689 0.640196 0.000000
0.091660 0.640167 0.023183
0.091595 0.640102 0.090335
0.091530 0.640037 0.156319
0.091467 0.639974 0.221670
0.091403 0.639910 0.286585
0.091340 0.639847 0.351166
0.091277 0.639785 0.415477
0.091215 0.639722 0.479560
0.091153 0.639660 0.543448
0.091090 0.639598 0.607164
0.091028 0.639536 0.670727
0.090967 0.639474 0.734152
0.090905 0.639412 0.797451
0.090843 0.639350 0.860635
0.090782 0.639289 0.923713
0.090720 0.639227 0.986691
0.091076 0.703136 0.000000
0.091047 0.703107 0.022570
0.090981 0.703041 0.089722
0.090917 0.702977 0.155705
0.090853 0.702913 0.221057
0.090790 0.702850 0.285972
0.090727 0.702787 0.350553
0.090664 0.702724 0.414863
0.090601 0.702661 0.478947
0.090539 0.702599 0.542835
0.090477 0.702537 0.606551
0.090415 0.702475 0.670114
0.090353 0.702413 0.733539
0.090291 0.702351 0.796838
0.090230 0.702290 0.860022
0.090168 0.702228 0.923099
0.090107 0.702167 0.986078
0.090463 0.765945 0.000000
0.090434 0.765916 0.021957
0.090369 0.765850 0.089109
0.090304 0.765786 0.155093
0.090241 0.765722 0.220444
0.090177 0.765659 0.285359
0.090114 0.765596 0.349940
0.090052 0.765533 0.414251
0.089989 0.765470 0.478334
0.089927 0.765408 0.542222
0.089865 0.765346 0.605938
0.089803 0.765284 0.669501
0.089741 0.765222 0.732926
0.089679 0.765160 0.796225
0.089617 0.765099 0.859409
0.089556 0.765037 0.922487
0.089494 0.764976 0.985465
0.089852 0.828634 0.000000
0.089823 0.828605 0.021346
0.089758 0.828540 0.088498
0.089693 0.828476 0.154482
0.089630 0.828412 0.219833
0.089566 0.828349 0.284748
0.089503 0.828285 0.349329
0.089440 0.828223 0.413640
0.089378 0.828160 0.477723
0.089316 0.828098 0.541611
0.089253 0.828036 0.605327
0.089191 0.827974 0.668890
0.089130 0.827912 0.732315
0.089068 0.827850 0.795614
0.089006 0.827788 0.858798
0.088945 0.827727 0.921876
0.088883 0.827665 0.984854
0.089242 0.891215 0.000000
0.089213 0.891186 0.020736
0.089148 0.891120 0.087888
0.089083 0.891056 0.153871
0.089019 0.890992 0.219223
0.088956 0.890929 0.284138
0.088893 0.890866 0.348719
0.088830 0.890803 0.413030
0.088768 0.890740 0.477113
0.088705 0.890678 0.541001
0.088643 0.890616 0.604717
0.088581 0.890554 0.668280
0.088519 0.890492 0.731705
0.088458 0.890430 0.795004
0.088396 0.890369 0.858188
0.088334 0.890307 0.921266
0.088273 0.890246 0.984244
0.088633 0.953693 0.000000
0.088604 0.953664 0.020127
0.088538 0.953599 0.087279
0.088474 0.953534 0.153262
0.088410 0.953471 0.218614
0.088347 0.953407 0.283529
0.088284 0.953344 0.348110
0.088221 0.953281 0.412420
0.088159 0.953219 0.476504
0.088096 0.953157 0.540392
0.088034 0.953094 0.604108
0.087972 0.953032 0.667671
0.087910 0.952971 0.731096
0.087849 0.952909 0.794395
0.087787 0.952847 0.857579
0.087725 0.952786 0.920656
0.087664 0.952724 0.983635
0.088146 1.000000 0.000000
0.088117 1.000000 0.019640
0.088052 1.000000 0.086792
0.087987 1.000000 0.152776
0.087924 1.000000 0.218127
0.087860 1.000000 0.283042
0.087797 1.000000 0.347623
0.087735 1.000000 0.411934
0.087672 1.000000 0.476017
0.087610 1.000000 0.539905
0.087548 1.000000 0.603621
0.087486 1.000000 0.667184
0.087424 1.000000 0.730609
0.087362 1.000000 0.793908
0.087300 1.000000 0.857092
0.087239 1.000000 0.920170
0.087177 1.000000 0.983148
0.163776 0.000000 0.000000
0.163747 0.000000 0.029238
0.163682 0.000000 0.096390
0.163618 0.000000 0.162373
0.163554 0.000000 0.227725
0.163490 0.000000 0.292640
0.163427 0.000000 0.357221
0.163365 0.000000 0.421531
0.163302 0.000000 0.485615
0.163240 0.000000 0.549503
0.163178 0.000000 0.613219
0.163116 0.000000 0.676782
0.163054 0.000000 0.740207
0.162992 0.000000 0.803506
0.162930 0.000000 0.866690
0.162869 0.000000 0.929767
0.162807 0.000000 0.992746
0.163157 0.063109 0.000000
0.163128 0.063080 0.028618
0.163062 0.063014 0.095770
0.162998 0.062950 0.161753
0.162934 0.062886 0.227105
0.162871 0.062823 0.292020
0.162808 0.062760 0.356601
0.162745 0.062697 0.420911
0.162682 0.062634 0.484995
0.162620 0.062572 0.548883
0.162558 0.062510 0.612599
0.162496 0.062448 0.676162
0.162434 0.062386 0.739587
0.162372 0.062324 0.802886
0.162311 0.062263 0.866070
0.162249 0.062201 0.929147
0.162188 0.062140 0.992126
0.162514 0.128970 0.000000
0.162486 0.128941 0.027976
0.162420 0.128875 0.095128
0.162356 0.128811 0.161111
0.162292 0.128747 0.226463
0.162229 0.128684 0.291378
0.162166 0.128621 0.355959
0.162103 0.128558 0.420269
0.162040 0.128496 0.484353
0.161978 0.128433 0.548241
0.161916 0.128371 0.611957
0.161854 0.128309 0.675520
0.161792 0.128247 0.738945
0.161730 0.128185 0.802244
0.161668 0.128124 0.865428
0.161607 0.128062 0.928505
0.161546 0.128001 0.991484
0.161880 0.194027 0.000000
0.161851 0.193998 0.027341
0.161786 0.193932 0.094494
0.161721 0.193868 0.160477
0.161658 0.193804 0.225829
0.161594 0.193741 0.290744
0.161531 0.193678 0.355325
0.161469 0.193615 0.419635
0.161406 0.193552 0.483719
0.161344 0.193490 0.547606
0.161282 0.193428 0.611323
0.161220 0.193366 0.674885
0.161158 0.193304 0.738310
0.161096 0.193242 0.801610
0.161034 0.193181 0.864794
0.160973 0.193119 0.927871
0.160911 0.193058 0.990850
0.161251 0.258574 0.000000
0.161222 0.258545 0.026712
0.161156 0.258479 0.093864
0.161092 0.258415 0.159848
0.161028 0.258351 0.225199
0.160965 0.258288 0.290114
0.160902 0.258225 0.354695
0.160839 0.258162 0.419006
0.160777 0.258099 0.483089
0.160714 0.258037 0.546977
0.160652 0.257975 0.610693
0.160590 0.257913 0.674256
0.160528 0.257851 0.737681
0.160467 0.257789 0.800980
0.160405 0.257728 0.864164
0.160343 0.257666 0.927242
0.160282 0.257605 0.990220
0.160625 0.322746 0.000000
0.160596 0.322717 0.026087
0.160531 0.322652 0.093239
0.160467 0.322587 0.159222
0.160403 0.322524 0.224574
0.160339 0.322460 0.289489
0.160276 0.322397 0.354070
0.160214 0.322334 0.418380
0.160151 0.322272 0.482464
0.160089 0.322210 0.546352
0.160027 0.322147 0.610068
0.159965 0.322085 0.673631
0.159903 0.322024 0.737056
0.159841 0.321962 0.800355
0.159779 0.321900 0.863539
0.159718 0.321839 0.926616
0.159656 0.321777 0.989595
0.160003 0.386623 0.000000
0.159974 0.386594 0.025464
0.159908 0.386529 0.092616
0.159844 0.386464 0.158599
0.159780 0.386400 0.223951
0.159717 0.386337 0.288866
0.159654 0.386274 0.353447
0.159591 0.386211 0.417757
0.159528 0.386149 0.481841
0.159466 0.386087 0.545729
0.159404 0.386024 0.609445
0.159342 0.385962 0.673008
0.159280 0.385900 0.736433
0.159218 0.385839 0.799732
0.159157 0.385777 0.862916
0.159095 0.385716 0.925993
0.159034 0.385654 0.988972
0.159382 0.450256 0.000000
0.159353 0.450227 0.024843
0.159288 0.450161 0.091996
0.159223 0.450097 0.157979
0.159160 0.450033 0.223331
0.159096 0.449970 0.288246
0.159033 0.449907 0.352827
0.158971 0.449844 0.417137
0.158908 0.449781 0.481221
0.158846 0.449719 0.545108
0.158784 0.449657 0.608825
0.158722 0.449595 0.672388
0.158660 0.449533 0.735812
0.158598 0.449471 0.799112
0.158536 0.449410 0.862296
0.158475 0.449348 0.925373
0.158413 0.449287 0.988352
0.158764 0.513680 0.000000
0.158735 0.513651 0.024225
0.158669 0.513586 0.091377
0.158605 0.513521 0.157361
0.158541 0.513458 0.222712
0.158478 0.513394 0.287627
0.158415 0.513331 0.352208
0.158352 0.513269 0.416519
0.158290 0.513206 0.480602
0.158227 0.513144 0.544490
0.158165 0.513082 0.608206
0.158103 0.513020 0.671769
0.158041 0.512958 0.735194
0.157980 0.512896 0.798493
0.157918 0.512834 0.861677
0.157856 0.512773 0.924755
0.157795 0.512711 0.987733
0.158147 0.576924 0.000000
0.158118 0.576895 0.023609
0.158053 0.576829 0.090761
0.157989 0.576765 0.156744
0.157925 0.576701 0.222096
0.157861 0.576638 0.287011
0.157798 0.576575 0.351592
0.157736 0.576512 0.415902
0.157673 0.576449 0.479986
0.157611 0.576387 0.543874
0.157549 0.576325 0.607590
0.157487 0.576263 0.671153
0.157425 0.576201 0.734578
0.157363 0.576139 0.797877
0.157301 0.576078 0.861061
0.157240 0.576016 0.924138
0.157178 0.575955 0.987117
0.157532 0.640007 0.000000
0.157503 0.639978 0.022994
0.157438 0.639912 0.090146
0.157374 0.639848 0.156129
0.157310 0.639784 0.221481
0.157246 0.639721 0.286396
0.157183 0.639658 0.350977
0.157121 0.639595 0.415287
0.157058 0.639533 0.479371
0.156996 0.639470 0.543259
0.156934 0.639408 0.606975
0.156872 0.639346 0.670538
0.156810 0.639284 0.733963
0.156748 0.639222 0.797262
0.156686 0.639161 0.860446
0.156625 0.639099 0.923523
0.156563 0.639038 0.986502
0.156919 0.702946 0.000000
0.156890 0.702917 0.022380
0.156824 0.702852 0.089532
0.156760 0.702787 0.155515
0.156696 0.702723 0.220867
0.156633 0.702660 0.285782
0.156570 0.702597 0.350363
0.156507 0.702534 0.414674
0.156445 0.702472 0.478757
0.156382 0.702410 0.542645
0.156320 0.702347 0.606361
0.156258 0.702285 0.669924
0.156196 0.702223 0.733349
0.156134 0.702162 0.796648
0.156073 0.702100 0.859832
0.156011 0.702039 0.922910
0.155950 0.701977 0.985888
0.156307 0.765755 0.000000
0.156278 0.765726 0.021768
0.156212 0.765661 0.088920
0.156148 0.765596 0.154903
0.156084 0.765532 0.220255
0.156021 0.765469 0.285170
0.155958 0.765406 0.349751
0.155895 0.765343 0.414061
0.155832 0.765281 0.478145
0.155770 0.765219 0.542033
0.155708 0.765156 0.605749
0.155646 0.765094 0.669312
0.155584 0.765032 0.732737
0.155522 0.764971 0.796036
0.155460 0.764909 0.859220
0.155399 0.764848 0.922297
0.155338 0.764786 0.985276
0.155695 0.828445 0.000000
0.155666 0.828416 0.021157
0.155601 0.828350 0.088309
0.155536 0.828286 0.154292
0.155473 0.828222 0.219644
0.155409 0.828159 0.284559
0.155346 0.828096 0.349140
0.155284 0.828033 0.413450
0.155221 0.827971 0.477534
0.155159 0.827908 0.541422
0.155097 0.827846 0.605138
0.155035 0.827784 0.668701
0.154973 0.827722 0.732126
0.154911 0.827661 0.795425
0.154849 0.827599 0.858609
0.154788 0.827537 0.921686
0.154726 0.827476 0.984665
0.155085 0.891025 0.000000
0.155056 0.890996 0.020546
0.154991 0.890931 0.087699
0.154926 0.890866 0.153682
0.154863 0.890802 0.219034
0.154799 0.890739 0.283949
0.154736 0.890676 0.348530
0.154674 0.890613 0.412840
0.154611 0.890551 0.476924
0.154549 0.890489 0.540811
0.154487 0.890426 0.604527
0.154425 0.890364 0.668090
0.154363 0.890303 0.731515
0.154301 0.890241 0.794815
0.154239 0.890179 0.857999
0.154178 0.890118 0.921076
0.154116 0.890056 0.984055
0.154476 0.953504 0.000000
0.154447 0.953475 0.019937
0.154382 0.953409 0.087089
0.154317 0.953345 0.153073
0.154254 0.953281 0.218425
0.154190 0.953218 0.283339
0.154127 0.953155 0.347920
0.154064 0.953092 0.412231
0.154002 0.953029 0.476314
0.153940 0.952967 0.540202
0.153877 0.952905 0.603918
0.153815 0.952843 0.667481
0.153754 0.952781 0.730906
0.153692 0.952719 0.794206
0.153630 0.952658 0.857390
0.153569 0.952596 0.920467
0.153507 0.952535 0.983445
0.153989 1.000000 0.000000
0.153960 1.000000 0.019451
0.153895 1.000000 0.086603
0.153831 1.000000 0.152586
0.153767 1.000000 0.217938
0.153704 1.000000 0.282853
0.153640 1.000000 0.347434
0.153578 1.000000 0.411744
0.153515 1.000000 0.475828
0.153453 1.000000 0.539716
0.153391 1.000000 0.603432
0.153329 1.000000 0.666995
0.153267 1.000000 0.730420
0.153205 1.000000 0.793719
0.153143 1.000000 0.856903
0.153082 1.000000 0.919980
0.153020 1.000000 0.982959
0.228995 0.000000 0.000000
0.228966 0.000000 0.029050
0.228900 0.000000 0.096202
0.228836 0.000000 0.162185
0.228772 0.000000 0.227537
0.228709 0.000000 0.292452
0.228646 0.000000 0.357033
0.228583 0.000000 0.421343
0.228520 0.000000 0.485427
0.228458 0.000000 0.549315
0.228396 0.000000 0.613031
0.228334 0.000000 0.676594
0.228272 0.000000 0.740019
0.228210 0.000000 0.803318
0.228148 0.000000 0.866502
0.228087 0.000000 0.929580
0.228026 0.000000 0.992558
0.228375 0.062921 0.000000
