skills/editops-orchestrator/assets/grade/luts/warm_skin_v19.cube
TITLE "warm_skin_v19"
LUT_3D_SIZE 17
DOMAIN_MIN 0.0 0.0 0.0
DOMAIN_MAX 1.0 1.0 1.0
0.053808 0.000000 0.000000
0.053803 0.000000 0.000568
0.053514 0.000000 0.076135
0.053239 0.000000 0.147914
0.052970 0.000000 0.218272
0.052704 0.000000 0.287722
0.052440 0.000000 0.356503
0.052179 0.000000 0.424755
0.051919 0.000000 0.492571
0.051661 0.000000 0.560014
0.051404 0.000000 0.627135
0.051148 0.000000 0.693969
0.050893 0.000000 0.760546
0.050639 0.000000 0.826892
0.050385 0.000000 0.893025
0.050133 0.000000 0.958964
0.049881 0.000000 1.000000
0.051322 0.062672 0.000000
0.051318 0.062668 0.000000
0.051028 0.062378 0.073650
0.050753 0.062103 0.145428
0.050484 0.061834 0.215787
0.050218 0.061568 0.285236
0.049955 0.061304 0.354017
0.049693 0.061043 0.422270
0.049434 0.060783 0.490085
0.049175 0.060525 0.557529
0.048918 0.060268 0.624649
0.048662 0.060012 0.691483
0.048407 0.059757 0.758061
0.048153 0.059503 0.824406
0.047900 0.059250 0.890540
0.047647 0.058997 0.956478
0.047396 0.058745 1.000000
0.048588 0.132301 0.000000
0.048583 0.132297 0.000000
0.048294 0.132007 0.070915
0.048019 0.131732 0.142693
0.047749 0.131463 0.213052
0.047483 0.131197 0.282502
0.047220 0.130933 0.351283
0.046958 0.130672 0.419535
0.046699 0.130412 0.487350
0.046440 0.130154 0.554794
0.046183 0.129897 0.621914
0.045927 0.129641 0.688748
0.045672 0.129386 0.755326
0.045418 0.129132 0.821672
0.045165 0.128879 0.887805
0.044913 0.128626 0.953743
0.044661 0.128374 1.000000
0.045912 0.200427 0.000000
0.045907 0.200423 0.000000
0.045618 0.200134 0.068239
0.045343 0.199859 0.140017
0.045073 0.199589 0.210376
0.044808 0.199323 0.279826
0.044544 0.199060 0.348607
0.044283 0.198798 0.416859
0.044023 0.198539 0.484675
0.043765 0.198280 0.552118
0.043508 0.198023 0.619238
0.043252 0.197767 0.686073
0.042997 0.197512 0.752650
0.042743 0.197258 0.818996
0.042489 0.197005 0.885129
0.042237 0.196753 0.951067
0.041985 0.196501 1.000000
0.043272 0.267625 0.000000
0.043268 0.267620 0.000000
0.042979 0.267331 0.065600
0.042704 0.267056 0.137378
0.042434 0.266786 0.207737
0.042168 0.266521 0.277187
0.041905 0.266257 0.345968
0.041643 0.265996 0.414220
0.041384 0.265736 0.482035
0.041125 0.265478 0.549479
0.040868 0.265221 0.616599
0.040612 0.264965 0.683433
0.040357 0.264710 0.750011
0.040103 0.264456 0.816356
0.039850 0.264202 0.882490
0.039598 0.263950 0.948428
0.039346 0.263698 1.000000
0.040660 0.334149 0.000000
0.040655 0.334144 0.000000
0.040366 0.333855 0.062987
0.040091 0.333580 0.134765
0.039821 0.333310 0.205124
0.039555 0.333044 0.274574
0.039292 0.332781 0.343355
0.039031 0.332520 0.411607
0.038771 0.332260 0.479422
0.038513 0.332002 0.546866
0.038256 0.331745 0.613986
0.038000 0.331489 0.680820
0.037745 0.331234 0.747398
0.037490 0.330980 0.813744
0.037237 0.330726 0.879877
0.036985 0.330474 0.945815
0.036733 0.330222 1.000000
0.038068 0.400145 0.000000
0.038063 0.400140 0.000000
0.037774 0.399851 0.060395
0.037499 0.399576 0.132173
0.037229 0.399307 0.202532
0.036963 0.399041 0.271982
0.036700 0.398777 0.340763
0.036438 0.398516 0.409015
0.036179 0.398256 0.476830
0.035920 0.397998 0.544274
0.035663 0.397741 0.611394
0.035407 0.397485 0.678228
0.035152 0.397230 0.744806
0.034898 0.396976 0.811152
0.034645 0.396722 0.877285
0.034393 0.396470 0.943223
0.034141 0.396218 1.000000
0.035492 0.465708 0.000000
0.035488 0.465703 0.000000
0.035199 0.465414 0.057820
0.034924 0.465139 0.129598
0.034654 0.464869 0.199957
0.034388 0.464603 0.269407
0.034125 0.464340 0.338188
0.033863 0.464079 0.406440
0.033604 0.463819 0.474255
0.033345 0.463561 0.541699
0.033088 0.463303 0.608819
0.032832 0.463047 0.675653
0.032577 0.462793 0.742231
0.032323 0.462538 0.808576
0.032070 0.462285 0.874710
0.031818 0.462033 0.940648
0.031566 0.461781 1.000000
0.032932 0.530903 0.000000
0.032927 0.530898 0.000000
0.032638 0.530609 0.055259
0.032363 0.530334 0.127038
0.032094 0.530064 0.197396
0.031828 0.529799 0.266846
0.031564 0.529535 0.335627
0.031303 0.529274 0.403879
0.031043 0.529014 0.471695
0.030785 0.528756 0.539138
0.030528 0.528499 0.606258
0.030272 0.528243 0.673093
0.030017 0.527988 0.739670
0.029763 0.527734 0.806016
0.029509 0.527480 0.872149
0.029257 0.527228 0.938088
0.029005 0.526976 1.000000
0.030384 0.595779 0.000000
0.030379 0.595775 0.000000
0.030090 0.595485 0.052711
0.029815 0.595210 0.124489
0.029545 0.594941 0.194848
0.029279 0.594675 0.264298
0.029016 0.594411 0.333079
0.028755 0.594150 0.401331
0.028495 0.593890 0.469146
0.028237 0.593632 0.536590
0.027980 0.593375 0.603710
0.027724 0.593119 0.670544
0.027469 0.592864 0.737122
0.027215 0.592610 0.803468
0.026961 0.592357 0.869601
0.026709 0.592104 0.935539
0.026457 0.591852 1.000000
0.027847 0.660374 0.000000
0.027842 0.660370 0.000000
0.027553 0.660080 0.050174
0.027278 0.659805 0.121952
0.027008 0.659536 0.192311
0.026742 0.659270 0.261761
0.026479 0.659007 0.330542
0.026218 0.658745 0.398794
0.025958 0.658485 0.466609
0.025700 0.658227 0.534053
0.025443 0.657970 0.601173
0.025187 0.657714 0.668007
0.024932 0.657459 0.734585
0.024677 0.657205 0.800931
0.024424 0.656952 0.867064
0.024172 0.656699 0.933002
0.023920 0.656447 0.998760
0.025319 0.724718 0.000000
0.025315 0.724713 0.000000
0.025026 0.724424 0.047647
0.024751 0.724149 0.119425
0.024481 0.723879 0.189784
0.024215 0.723613 0.259234
0.023952 0.723350 0.328014
0.023690 0.723088 0.396267
0.023431 0.722829 0.464082
0.023172 0.722570 0.531526
0.022915 0.722313 0.598646
0.022659 0.722057 0.665480
0.022404 0.721802 0.732058
0.022150 0.721548 0.798403
0.021897 0.721295 0.864537
0.021644 0.721043 0.930475
0.021393 0.720791 0.996233
0.022801 0.788833 0.000000
0.022797 0.788829 0.000000
0.022507 0.788539 0.045129
0.022232 0.788265 0.116907
0.021963 0.787995 0.187266
0.021697 0.787729 0.256715
0.021434 0.787466 0.325496
0.021172 0.787204 0.393748
0.020912 0.786945 0.461564
0.020654 0.786686 0.529008
0.020397 0.786429 0.596128
0.020141 0.786173 0.662962
0.019886 0.785918 0.729540
0.019632 0.785664 0.795885
0.019379 0.785411 0.862019
0.019126 0.785158 0.927957
0.018874 0.784907 0.993714
0.020291 0.852741 0.000000
0.020287 0.852737 0.000000
0.019997 0.852448 0.042618
0.019722 0.852173 0.114397
0.019453 0.851903 0.184755
0.019187 0.851637 0.254205
0.018923 0.851374 0.322986
0.018662 0.851112 0.391238
0.018402 0.850853 0.459054
0.018144 0.850594 0.526498
0.017887 0.850337 0.593618
0.017631 0.850081 0.660452
0.017376 0.849826 0.727030
0.017122 0.849572 0.793375
0.016869 0.849319 0.859509
0.016616 0.849067 0.925447
0.016364 0.848815 0.991204
0.017788 0.916459 0.000000
0.017784 0.916454 0.000000
0.017495 0.916165 0.040116
0.017220 0.915890 0.111894
0.016950 0.915621 0.182253
0.016684 0.915355 0.251703
0.016421 0.915091 0.320484
0.016159 0.914830 0.388736
0.015900 0.914570 0.456551
0.015641 0.914312 0.523995
0.015384 0.914055 0.591115
0.015128 0.913799 0.657949
0.014873 0.913544 0.724527
0.014619 0.913290 0.790872
0.014366 0.913036 0.857006
0.014114 0.912784 0.922944
0.013862 0.912532 0.988702
0.015293 0.980000 0.000000
0.015288 0.979995 0.000000
0.014999 0.979706 0.037620
0.014724 0.979431 0.109399
0.014455 0.979161 0.179757
0.014189 0.978895 0.249207
0.013925 0.978632 0.317988
0.013664 0.978371 0.386240
0.013404 0.978111 0.454056
0.013146 0.977852 0.521499
0.012889 0.977595 0.588619
0.012633 0.977339 0.655454
0.012378 0.977085 0.722031
0.012124 0.976830 0.788377
0.011870 0.976577 0.854510
0.011618 0.976325 0.920449
0.011366 0.976073 0.986206
0.013907 1.000000 0.000000
0.013903 1.000000 0.000000
0.013613 1.000000 0.036235
0.013338 1.000000 0.108013
0.013069 1.000000 0.178372
0.012803 1.000000 0.247821
0.012540 1.000000 0.316602
0.012278 1.000000 0.384855
0.012018 1.000000 0.452670
0.011760 1.000000 0.520114
0.011503 1.000000 0.587234
0.011247 1.000000 0.654068
0.010992 1.000000 0.720646
0.010738 1.000000 0.786991
0.010485 1.000000 0.853125
0.010232 1.000000 0.919063
0.009980 1.000000 0.984821
0.125709 0.000000 0.000000
0.125704 0.000000 0.000000
0.125415 0.000000 0.075318
0.125140 0.000000 0.147097
0.124871 0.000000 0.217455
0.124605 0.000000 0.286905
0.124341 0.000000 0.355686
0.124080 0.000000 0.423938
0.123820 0.000000 0.491754
0.123562 0.000000 0.559197
0.123305 0.000000 0.626318
0.123049 0.000000 0.693152
0.122794 0.000000 0.759729
0.122540 0.000000 0.826075
0.122286 0.000000 0.892208
0.122034 0.000000 0.958147
0.121782 0.000000 1.000000
0.123223 0.061855 0.000000
0.123219 0.061851 0.000000
0.122929 0.061561 0.072833
0.122654 0.061286 0.144611
0.122385 0.061017 0.214970
0.122119 0.060751 0.284420
0.121856 0.060487 0.353200
0.121594 0.060226 0.421453
0.121334 0.059966 0.489268
0.121076 0.059708 0.556712
0.120819 0.059451 0.623832
0.120563 0.059195 0.690666
0.120308 0.058940 0.757244
0.120054 0.058686 0.823589
0.119801 0.058433 0.889723
0.119548 0.058180 0.955661
0.119296 0.057928 1.000000
0.120488 0.131484 0.000000
0.120484 0.131480 0.000000
0.120195 0.131190 0.070098
0.119920 0.130915 0.141876
0.119650 0.130646 0.212235
0.119384 0.130380 0.281685
0.119121 0.130117 0.350466
0.118859 0.129855 0.418718
0.118600 0.129595 0.486533
0.118341 0.129337 0.553977
0.118084 0.129080 0.621097
0.117828 0.128824 0.687931
0.117573 0.128569 0.754509
0.117319 0.128315 0.820855
0.117066 0.128062 0.886988
0.116813 0.127809 0.952926
0.116562 0.127557 1.000000
0.117813 0.199611 0.000000
0.117808 0.199606 0.000000
0.117519 0.199317 0.067422
0.117244 0.199042 0.139201
0.116974 0.198772 0.209559
0.116708 0.198506 0.279009
0.116445 0.198243 0.347790
0.116184 0.197981 0.416042
0.115924 0.197722 0.483858
0.115666 0.197463 0.551301
0.115409 0.197206 0.618421
0.115153 0.196950 0.685256
0.114898 0.196695 0.751833
0.114644 0.196441 0.818179
0.114390 0.196188 0.884312
0.114138 0.195936 0.950251
0.113886 0.195684 1.000000
0.115173 0.266808 0.000000
0.115169 0.266803 0.000000
0.114879 0.266514 0.064783
0.114605 0.266239 0.136561
0.114335 0.265970 0.206920
0.114069 0.265704 0.276370
0.113806 0.265440 0.345151
0.113544 0.265179 0.413403
0.113285 0.264919 0.481218
0.113026 0.264661 0.548662
0.112769 0.264404 0.615782
0.112513 0.264148 0.682616
0.112258 0.263893 0.749194
0.112004 0.263639 0.815540
0.111751 0.263385 0.881673
0.111498 0.263133 0.947611
0.111247 0.262881 1.000000
0.112561 0.333332 0.000000
0.112556 0.333327 0.000000
0.112267 0.333038 0.062170
0.111992 0.332763 0.133948
0.111722 0.332493 0.204307
0.111456 0.332227 0.273757
0.111193 0.331964 0.342538
0.110931 0.331703 0.410790
0.110672 0.331443 0.478605
0.110413 0.331185 0.546049
0.110156 0.330928 0.613169
0.109900 0.330672 0.680003
0.109645 0.330417 0.746581
0.109391 0.330163 0.812927
0.109138 0.329909 0.879060
0.108886 0.329657 0.944998
0.108634 0.329405 1.000000
0.109968 0.399328 0.000000
0.109964 0.399323 0.000000
0.109675 0.399034 0.059578
0.109400 0.398759 0.131356
0.109130 0.398490 0.201715
0.108864 0.398224 0.271165
0.108601 0.397960 0.339946
0.108339 0.397699 0.408198
0.108080 0.397439 0.476013
0.107821 0.397181 0.543457
0.107564 0.396924 0.610577
0.107308 0.396668 0.677411
0.107053 0.396413 0.743989
0.106799 0.396159 0.810335
0.106546 0.395906 0.876468
0.106293 0.395653 0.942406
0.106042 0.395401 1.000000
0.107393 0.464891 0.000000
0.107389 0.464886 0.000000
0.107099 0.464597 0.057003
0.106825 0.464322 0.128781
0.106555 0.464052 0.199140
0.106289 0.463786 0.268590
0.106026 0.463523 0.337371
0.105764 0.463262 0.405623
0.105505 0.463002 0.473438
0.105246 0.462744 0.540882
0.104989 0.462487 0.608002
0.104733 0.462231 0.674836
0.104478 0.461976 0.741414
0.104224 0.461722 0.807760
0.103971 0.461468 0.873893
0.103718 0.461216 0.939831
0.103467 0.460964 1.000000
0.104833 0.530086 0.000000
0.104828 0.530081 0.000000
0.104539 0.529792 0.054442
0.104264 0.529517 0.126221
0.103994 0.529248 0.196579
0.103728 0.528982 0.266029
0.103465 0.528718 0.334810
0.103204 0.528457 0.403062
0.102944 0.528197 0.470878
0.102686 0.527939 0.538321
0.102429 0.527682 0.605442
0.102173 0.527426 0.672276
0.101918 0.527171 0.738853
0.101664 0.526917 0.805199
0.101410 0.526663 0.871332
0.101158 0.526411 0.937271
0.100906 0.526159 1.000000
0.102285 0.594962 0.000000
0.102280 0.594958 0.000000
0.101991 0.594668 0.051894
0.101716 0.594393 0.123672
0.101446 0.594124 0.194031
0.101180 0.593858 0.263481
0.100917 0.593595 0.332262
0.100656 0.593333 0.400514
0.100396 0.593073 0.468330
0.100138 0.592815 0.535773
0.099880 0.592558 0.602893
0.099625 0.592302 0.669728
0.099370 0.592047 0.736305
0.099115 0.591793 0.802651
0.098862 0.591540 0.868784
0.098610 0.591287 0.934722
0.098358 0.591035 1.000000
0.099748 0.659557 0.000000
0.099743 0.659553 0.000000
0.099454 0.659263 0.049357
0.099179 0.658988 0.121135
0.098909 0.658719 0.191494
0.098643 0.658453 0.260944
0.098380 0.658190 0.329725
0.098118 0.657928 0.397977
0.097859 0.657668 0.465792
0.097600 0.657410 0.533236
0.097343 0.657153 0.600356
0.097087 0.656897 0.667190
0.096832 0.656642 0.733768
0.096578 0.656388 0.800114
0.096325 0.656135 0.866247
0.096073 0.655882 0.932185
0.095821 0.655630 0.997943
0.097220 0.723901 0.000000
0.097216 0.723896 0.000000
0.096926 0.723607 0.046830
0.096652 0.723332 0.118608
0.096382 0.723062 0.188967
0.096116 0.722796 0.258417
0.095853 0.722533 0.327198
0.095591 0.722272 0.395450
0.095332 0.722012 0.463265
0.095073 0.721754 0.530709
0.094816 0.721497 0.597829
0.094560 0.721241 0.664663
0.094305 0.720986 0.731241
0.094051 0.720731 0.797587
0.093798 0.720478 0.863720
0.093545 0.720226 0.929658
0.093294 0.719974 0.995416
0.094702 0.788016 0.000000
0.094698 0.788012 0.000000
0.094408 0.787722 0.044312
0.094133 0.787448 0.116090
0.093864 0.787178 0.186449
0.093598 0.786912 0.255898
0.093334 0.786649 0.324679
0.093073 0.786387 0.392932
0.092813 0.786128 0.460747
0.092555 0.785869 0.528191
0.092298 0.785612 0.595311
0.092042 0.785356 0.662145
0.091787 0.785101 0.728723
0.091533 0.784847 0.795068
0.091280 0.784594 0.861202
0.091027 0.784341 0.927140
0.090775 0.784090 0.992898
0.092192 0.851925 0.000000
0.092187 0.851920 0.000000
0.091898 0.851631 0.041802
0.091623 0.851356 0.113580
0.091354 0.851086 0.183938
0.091088 0.850820 0.253388
0.090824 0.850557 0.322169
0.090563 0.850296 0.390421
0.090303 0.850036 0.458237
0.090045 0.849778 0.525681
0.089788 0.849520 0.592801
0.089532 0.849264 0.659635
0.089277 0.849010 0.726213
0.089023 0.848755 0.792558
0.088770 0.848502 0.858692
0.088517 0.848250 0.924630
0.088265 0.847998 0.990387
0.089689 0.915642 0.000000
0.089685 0.915637 0.000000
0.089395 0.915348 0.039299
0.089121 0.915073 0.111077
0.088851 0.914804 0.181436
0.088585 0.914538 0.250886
0.088322 0.914274 0.319667
0.088060 0.914013 0.387919
0.087801 0.913753 0.455734
0.087542 0.913495 0.523178
0.087285 0.913238 0.590298
0.087029 0.912982 0.657132
0.086774 0.912727 0.723710
0.086520 0.912473 0.790056
0.086267 0.912219 0.856189
0.086014 0.911967 0.922127
0.085763 0.911715 0.987885
0.087194 0.979183 0.000000
0.087189 0.979178 0.000000
0.086900 0.978889 0.036803
0.086625 0.978614 0.108582
0.086355 0.978344 0.178940
0.086089 0.978078 0.248390
0.085826 0.977815 0.317171
0.085565 0.977554 0.385423
0.085305 0.977294 0.453239
0.085047 0.977036 0.520682
0.084790 0.976779 0.587803
0.084534 0.976523 0.654637
0.084279 0.976268 0.721214
0.084025 0.976013 0.787560
0.083771 0.975760 0.853693
0.083519 0.975508 0.919632
0.083267 0.975256 0.985389
0.085808 1.000000 0.000000
0.085804 1.000000 0.000000
0.085514 1.000000 0.035418
0.085239 1.000000 0.107196
0.084970 1.000000 0.177555
0.084704 1.000000 0.247004
0.084440 1.000000 0.315785
0.084179 1.000000 0.384038
0.083919 1.000000 0.451853
0.083661 1.000000 0.519297
0.083404 1.000000 0.586417
0.083148 1.000000 0.653251
0.082893 1.000000 0.719829
0.082639 1.000000 0.786174
0.082386 1.000000 0.852308
0.082133 1.000000 0.918246
0.081881 1.000000 0.984004
0.195900 0.000000 0.000000
0.195895 0.000000 0.000000
0.195606 0.000000 0.074521
0.195331 0.000000 0.146299
0.195062 0.000000 0.216658
0.194796 0.000000 0.286108
0.194532 0.000000 0.354889
0.194271 0.000000 0.423141
0.194011 0.000000 0.490956
0.193753 0.000000 0.558400
0.193496 0.000000 0.625520
0.193240 0.000000 0.692354
0.192985 0.000000 0.758932
0.192731 0.000000 0.825277
0.192478 0.000000 0.891411
0.192225 0.000000 0.957349
0.191973 0.000000 1.000000
0.193414 0.061058 0.000000
0.193410 0.061053 0.000000
0.193120 0.060764 0.072035
0.192846 0.060489 0.143814
0.192576 0.060219 0.214172
0.192310 0.059953 0.283622
0.192047 0.059690 0.352403
0.191785 0.059429 0.420655
0.191526 0.059169 0.488471
0.191267 0.058911 0.555914
0.191010 0.058653 0.623035
0.190754 0.058398 0.689869
0.190499 0.058143 0.756446
0.190245 0.057888 0.822792
0.189992 0.057635 0.888925
0.189739 0.057383 0.954864
0.189488 0.057131 1.000000
0.190680 0.130687 0.000000
0.190675 0.130682 0.000000
0.190386 0.130393 0.069300
0.190111 0.130118 0.141079
0.189841 0.129848 0.211437
0.189575 0.129582 0.280887
0.189312 0.129319 0.349668
0.189051 0.129058 0.417920
0.188791 0.128798 0.485736
0.188533 0.128540 0.553180
0.188275 0.128283 0.620300
0.188020 0.128027 0.687134
0.187765 0.127772 0.753712
0.187510 0.127518 0.820057
0.187257 0.127264 0.886191
0.187005 0.127012 0.952129
0.186753 0.126760 1.000000
0.188004 0.198813 0.000000
0.187999 0.198809 0.000000
0.187710 0.198519 0.066625
0.187435 0.198244 0.138403
0.187166 0.197975 0.208762
0.186900 0.197709 0.278211
0.186636 0.197445 0.346992
0.186375 0.197184 0.415245
0.186115 0.196924 0.483060
0.185857 0.196666 0.550504
0.185600 0.196409 0.617624
0.185344 0.196153 0.684458
0.185089 0.195898 0.751036
0.184835 0.195644 0.817381
0.184581 0.195391 0.883515
0.184329 0.195138 0.949453
0.184077 0.194886 1.000000
0.185365 0.266010 0.000000
0.185360 0.266006 0.000000
0.185071 0.265716 0.063985
0.184796 0.265442 0.135764
0.184526 0.265172 0.206122
0.184260 0.264906 0.275572
0.183997 0.264643 0.344353
0.183736 0.264381 0.412605
0.183476 0.264122 0.480421
0.183218 0.263863 0.547864
0.182960 0.263606 0.614985
0.182704 0.263350 0.681819
0.182450 0.263095 0.748397
0.182195 0.262841 0.814742
0.181942 0.262588 0.880875
0.181690 0.262335 0.946814
0.181438 0.262084 1.000000
0.182752 0.332534 0.000000
0.182747 0.332530 0.000000
0.182458 0.332240 0.061373
0.182183 0.331965 0.133151
0.181913 0.331696 0.203510
0.181647 0.331430 0.272959
0.181384 0.331167 0.341740
0.181123 0.330905 0.409993
0.180863 0.330645 0.477808
0.180605 0.330387 0.545252
0.180348 0.330130 0.612372
0.180092 0.329874 0.679206
0.179837 0.329619 0.745784
0.179583 0.329365 0.812129
0.179329 0.329112 0.878263
0.179077 0.328859 0.944201
0.178825 0.328607 1.000000
0.180160 0.398530 0.000000
0.180155 0.398526 0.000000
0.179866 0.398237 0.058781
0.179591 0.397962 0.130559
0.179321 0.397692 0.200917
0.179055 0.397426 0.270367
0.178792 0.397163 0.339148
0.178531 0.396901 0.407400
0.178271 0.396642 0.475216
0.178013 0.396383 0.542660
0.177756 0.396126 0.609780
0.177500 0.395870 0.676614
0.177245 0.395615 0.743192
0.176990 0.395361 0.809537
0.176737 0.395108 0.875671
0.176485 0.394855 0.941609
0.176233 0.394604 1.000000
0.177585 0.464093 0.000000
0.177580 0.464089 0.000000
0.177291 0.463799 0.056205
0.177016 0.463524 0.127984
0.176746 0.463255 0.198342
0.176480 0.462989 0.267792
0.176217 0.462726 0.336573
0.175955 0.462464 0.404825
0.175696 0.462204 0.472641
0.175437 0.461946 0.540084
0.175180 0.461689 0.607205
0.174924 0.461433 0.674039
0.174669 0.461178 0.740617
0.174415 0.460924 0.806962
0.174162 0.460671 0.873095
0.173910 0.460418 0.939034
0.173658 0.460166 1.000000
0.175024 0.529288 0.000000
0.175019 0.529284 0.000000
0.174730 0.528994 0.053645
0.174455 0.528720 0.125423
0.174186 0.528450 0.195782
0.173920 0.528184 0.265232
0.173656 0.527921 0.334012
0.173395 0.527659 0.402265
0.173135 0.527400 0.470080
0.172877 0.527141 0.537524
0.172620 0.526884 0.604644
0.172364 0.526628 0.671478
0.172109 0.526373 0.738056
0.171855 0.526119 0.804401
0.171601 0.525866 0.870535
0.171349 0.525613 0.936473
0.171097 0.525362 1.000000
0.172476 0.594165 0.000000
0.172471 0.594160 0.000000
0.172182 0.593871 0.051097
0.171907 0.593596 0.122875
0.171638 0.593326 0.193234
0.171372 0.593060 0.262683
0.171108 0.592797 0.331464
0.170847 0.592536 0.399717
0.170587 0.592276 0.467532
0.170329 0.592018 0.534976
0.170072 0.591761 0.602096
0.169816 0.591505 0.668930
0.169561 0.591250 0.735508
0.169307 0.590996 0.801853
0.169053 0.590742 0.867987
0.168801 0.590490 0.933925
0.168549 0.590238 0.999683
0.169939 0.658760 0.000000
0.169934 0.658755 0.000000
0.169645 0.658466 0.048560
0.169370 0.658191 0.120338
0.169100 0.657921 0.190697
0.168834 0.657656 0.260146
0.168571 0.657392 0.328927
0.168310 0.657131 0.397179
0.168050 0.656871 0.464995
0.167792 0.656613 0.532439
0.167535 0.656356 0.599559
0.167279 0.656100 0.666393
0.167024 0.655845 0.732971
0.166770 0.655591 0.799316
0.166516 0.655337 0.865450
0.166264 0.655085 0.931388
0.166012 0.654833 0.997145
0.167412 0.723103 0.000000
0.167407 0.723099 0.000000
0.167118 0.722809 0.046032
0.166843 0.722534 0.117811
0.166573 0.722265 0.188169
0.166307 0.721999 0.257619
0.166044 0.721735 0.326400
0.165782 0.721474 0.394652
0.165523 0.721214 0.462468
0.165264 0.720956 0.529911
0.165007 0.720699 0.597032
0.164751 0.720443 0.663866
0.164496 0.720188 0.730443
0.164242 0.719934 0.796789
0.163989 0.719681 0.862922
0.163737 0.719428 0.928861
0.163485 0.719176 0.994618
0.164893 0.787219 0.000000
0.164889 0.787214 0.000000
0.164599 0.786925 0.043514
0.164324 0.786650 0.115292
0.164055 0.786381 0.185651
0.163789 0.786115 0.255101
0.163526 0.785851 0.323882
0.163264 0.785590 0.392134
0.163005 0.785330 0.459950
0.162746 0.785072 0.527393
0.162489 0.784815 0.594513
0.162233 0.784559 0.661348
0.161978 0.784304 0.727925
0.161724 0.784050 0.794271
0.161471 0.783796 0.860404
0.161218 0.783544 0.926342
0.160966 0.783292 0.992100
0.162383 0.851127 0.000000
0.162379 0.851123 0.000000
0.162089 0.850833 0.041004
0.161814 0.850558 0.112782
0.161545 0.850289 0.183141
0.161279 0.850023 0.252591
0.161016 0.849759 0.321372
0.160754 0.849498 0.389624
0.160494 0.849238 0.457439
0.160236 0.848980 0.524883
0.159979 0.848723 0.592003
0.159723 0.848467 0.658837
0.159468 0.848212 0.725415
0.159214 0.847958 0.791761
0.158961 0.847705 0.857894
0.158708 0.847452 0.923832
0.158456 0.847200 0.989590
0.159881 0.914844 0.000000
0.159876 0.914840 0.000000
0.159587 0.914550 0.038501
0.159312 0.914276 0.110280
0.159042 0.914006 0.180638
0.158776 0.913740 0.250088
0.158513 0.913477 0.318869
0.158252 0.913215 0.387121
0.157992 0.912956 0.454937
0.157734 0.912697 0.522381
0.157476 0.912440 0.589501
0.157221 0.912184 0.656335
0.156966 0.911929 0.722913
0.156711 0.911675 0.789258
0.156458 0.911422 0.855392
0.156206 0.911169 0.921330
0.155954 0.910918 0.987087
0.157385 0.978385 0.000000
0.157380 0.978381 0.000000
0.157091 0.978091 0.036006
0.156816 0.977816 0.107784
0.156547 0.977547 0.178143
0.156281 0.977281 0.247593
0.156017 0.977017 0.316373
0.155756 0.976756 0.384626
0.155496 0.976496 0.452441
0.155238 0.976238 0.519885
0.154981 0.975981 0.587005
0.154725 0.975725 0.653839
0.154470 0.975470 0.720417
0.154216 0.975216 0.786762
0.153963 0.974963 0.852896
0.153710 0.974710 0.918834
0.153458 0.974458 0.984592
0.155999 1.000000 0.000000
0.155995 1.000000 0.000000
0.155705 1.000000 0.034620
0.155431 1.000000 0.106399
0.155161 1.000000 0.176757
0.154895 1.000000 0.246207
0.154632 1.000000 0.314988
0.154370 1.000000 0.383240
0.154111 1.000000 0.451056
0.153852 1.000000 0.518499
0.153595 1.000000 0.585619
0.153339 1.000000 0.652454
0.153084 1.000000 0.719031
0.152830 1.000000 0.785377
0.152577 1.000000 0.851510
0.152324 1.000000 0.917449
0.152073 1.000000 0.983206
0.265077 0.000000 0.000000
0.265073 0.000000 0.000000
0.264783 0.000000 0.073735
0.264509 0.000000 0.145513
0.264239 0.000000 0.215872
0.263973 0.000000 0.285322
0.263710 0.000000 0.354103
0.263448 0.000000 0.422355
0.263189 0.000000 0.490170
0.262930 0.000000 0.557614
0.262673 0.000000 0.624734
0.262417 0.000000 0.691568
0.262162 0.000000 0.758146
0.261908 0.000000 0.824491
0.261655 0.000000 0.890625
0.261402 0.000000 0.956563
0.261151 0.000000 1.000000
0.262592 0.060272 0.000000
