skills/editops-orchestrator/assets/grade/luts/warm_skin_v07.cube
TITLE "warm_skin_v07"
LUT_3D_SIZE 17
DOMAIN_MIN 0.0 0.0 0.0
DOMAIN_MAX 1.0 1.0 1.0
0.026828 0.000000 0.000000
0.026815 0.000000 0.034557
0.026790 0.000000 0.100407
0.026765 0.000000 0.165337
0.026741 0.000000 0.229750
0.026717 0.000000 0.293801
0.026693 0.000000 0.357574
0.026669 0.000000 0.421121
0.026645 0.000000 0.484477
0.026621 0.000000 0.547668
0.026597 0.000000 0.610715
0.026573 0.000000 0.673633
0.026549 0.000000 0.736433
0.026526 0.000000 0.799128
0.026502 0.000000 0.861725
0.026478 0.000000 0.924231
0.026455 0.000000 0.986654
0.026589 0.063622 0.000000
0.026576 0.063609 0.034317
0.026551 0.063584 0.100168
0.026526 0.063559 0.165097
0.026502 0.063535 0.229510
0.026478 0.063511 0.293562
0.026453 0.063487 0.357335
0.026429 0.063463 0.420881
0.026405 0.063439 0.484238
0.026382 0.063415 0.547429
0.026358 0.063391 0.610476
0.026334 0.063367 0.673393
0.026310 0.063343 0.736194
0.026286 0.063320 0.798889
0.026263 0.063296 0.861486
0.026239 0.063272 0.923992
0.026216 0.063249 0.986415
0.026344 0.128757 0.000000
0.026331 0.128744 0.034073
0.026306 0.128719 0.099923
0.026281 0.128694 0.164853
0.026257 0.128670 0.229265
0.026233 0.128646 0.293317
0.026209 0.128622 0.357090
0.026185 0.128598 0.420637
0.026161 0.128574 0.483993
0.026137 0.128550 0.547184
0.026113 0.128526 0.610231
0.026089 0.128502 0.673148
0.026065 0.128478 0.735949
0.026042 0.128455 0.798644
0.026018 0.128431 0.861241
0.025994 0.128407 0.923747
0.025971 0.128384 0.986170
0.026102 0.193213 0.000000
0.026089 0.193200 0.033830
0.026064 0.193175 0.099681
0.026039 0.193150 0.164610
0.026015 0.193126 0.229023
0.025991 0.193102 0.293075
0.025966 0.193078 0.356848
0.025942 0.193054 0.420394
0.025918 0.193030 0.483750
0.025895 0.193006 0.546942
0.025871 0.192982 0.609989
0.025847 0.192958 0.672906
0.025823 0.192934 0.735707
0.025799 0.192911 0.798402
0.025776 0.192887 0.860998
0.025752 0.192863 0.923505
0.025729 0.192840 0.985928
0.025861 0.257236 0.000000
0.025848 0.257223 0.033590
0.025823 0.257198 0.099440
0.025798 0.257174 0.164370
0.025774 0.257149 0.228783
0.025750 0.257125 0.292834
0.025726 0.257101 0.356607
0.025702 0.257077 0.420154
0.025678 0.257053 0.483510
0.025654 0.257029 0.546701
0.025630 0.257005 0.609748
0.025606 0.256982 0.672666
0.025582 0.256958 0.735466
0.025559 0.256934 0.798161
0.025535 0.256910 0.860758
0.025511 0.256887 0.923264
0.025488 0.256863 0.985687
0.025622 0.320941 0.000000
0.025608 0.320928 0.033350
0.025584 0.320904 0.099201
0.025559 0.320879 0.164130
0.025535 0.320855 0.228543
0.025510 0.320830 0.292595
0.025486 0.320806 0.356368
0.025462 0.320782 0.419914
0.025438 0.320758 0.483270
0.025414 0.320734 0.546462
0.025391 0.320711 0.609509
0.025367 0.320687 0.672426
0.025343 0.320663 0.735227
0.025319 0.320639 0.797922
0.025296 0.320616 0.860518
0.025272 0.320592 0.923025
0.025248 0.320568 0.985448
0.025383 0.384395 0.000000
0.025370 0.384382 0.033112
0.025345 0.384357 0.098962
0.025321 0.384332 0.163892
0.025296 0.384308 0.228305
0.025272 0.384284 0.292356
0.025248 0.384260 0.356129
0.025224 0.384236 0.419676
0.025200 0.384212 0.483032
0.025176 0.384188 0.546223
0.025152 0.384164 0.609270
0.025128 0.384140 0.672188
0.025105 0.384116 0.734988
0.025081 0.384093 0.797683
0.025057 0.384069 0.860280
0.025034 0.384045 0.922787
0.025010 0.384022 0.985209
0.025145 0.447640 0.000000
0.025132 0.447627 0.032874
0.025107 0.447602 0.098725
0.025083 0.447577 0.163654
0.025058 0.447553 0.228067
0.025034 0.447529 0.292118
0.025010 0.447505 0.355891
0.024986 0.447481 0.419438
0.024962 0.447457 0.482794
0.024938 0.447433 0.545986
0.024914 0.447409 0.609032
0.024891 0.447385 0.671950
0.024867 0.447361 0.734751
0.024843 0.447338 0.797445
0.024819 0.447314 0.860042
0.024796 0.447290 0.922549
0.024772 0.447267 0.984972
0.024908 0.510707 0.000000
0.024895 0.510694 0.032637
0.024870 0.510669 0.098488
0.024846 0.510645 0.163417
0.024821 0.510620 0.227830
0.024797 0.510596 0.291881
0.024773 0.510572 0.355654
0.024749 0.510548 0.419201
0.024725 0.510524 0.482557
0.024701 0.510500 0.545749
0.024677 0.510476 0.608795
0.024654 0.510453 0.671713
0.024630 0.510429 0.734514
0.024606 0.510405 0.797208
0.024582 0.510381 0.859805
0.024559 0.510358 0.922312
0.024535 0.510334 0.984734
0.024672 0.573620 0.000000
0.024659 0.573607 0.032401
0.024634 0.573582 0.098251
0.024609 0.573557 0.163180
0.024585 0.573533 0.227593
0.024561 0.573509 0.291645
0.024537 0.573485 0.355418
0.024513 0.573461 0.418965
0.024489 0.573437 0.482321
0.024465 0.573413 0.545512
0.024441 0.573389 0.608559
0.024417 0.573365 0.671476
0.024393 0.573342 0.734277
0.024370 0.573318 0.796972
0.024346 0.573294 0.859569
0.024322 0.573271 0.922075
0.024299 0.573247 0.984498
0.024436 0.636396 0.000000
0.024423 0.636383 0.032165
0.024398 0.636358 0.098015
0.024373 0.636333 0.162945
0.024349 0.636309 0.227357
0.024325 0.636285 0.291409
0.024301 0.636261 0.355182
0.024277 0.636237 0.418729
0.024253 0.636213 0.482085
0.024229 0.636189 0.545276
0.024205 0.636165 0.608323
0.024181 0.636141 0.671240
0.024157 0.636117 0.734041
0.024134 0.636094 0.796736
0.024110 0.636070 0.859333
0.024086 0.636046 0.921839
0.024063 0.636023 0.984262
0.024200 0.699049 0.000000
0.024187 0.699035 0.031929
0.024162 0.699011 0.097780
0.024138 0.698986 0.162709
0.024114 0.698962 0.227122
0.024089 0.698937 0.291173
0.024065 0.698913 0.354946
0.024041 0.698889 0.418493
0.024017 0.698865 0.481849
0.023993 0.698841 0.545041
0.023969 0.698818 0.608088
0.023946 0.698794 0.671005
0.023922 0.698770 0.733806
0.023898 0.698746 0.796500
0.023875 0.698723 0.859097
0.023851 0.698699 0.921604
0.023827 0.698675 0.984027
0.023965 0.761590 0.000000
0.023952 0.761577 0.031694
0.023927 0.761552 0.097545
0.023903 0.761527 0.162474
0.023878 0.761503 0.226887
0.023854 0.761479 0.290938
0.023830 0.761455 0.354711
0.023806 0.761431 0.418258
0.023782 0.761407 0.481614
0.023758 0.761383 0.544806
0.023734 0.761359 0.607852
0.023711 0.761335 0.670770
0.023687 0.761311 0.733571
0.023663 0.761288 0.796265
0.023639 0.761264 0.858862
0.023616 0.761240 0.921369
0.023592 0.761217 0.983792
0.023731 0.824029 0.000000
0.023718 0.824016 0.031459
0.023693 0.823991 0.097310
0.023668 0.823967 0.162239
0.023644 0.823942 0.226652
0.023620 0.823918 0.290704
0.023595 0.823894 0.354477
0.023571 0.823870 0.418023
0.023547 0.823846 0.481380
0.023524 0.823822 0.544571
0.023500 0.823798 0.607618
0.023476 0.823775 0.670535
0.023452 0.823751 0.733336
0.023428 0.823727 0.796031
0.023405 0.823703 0.858627
0.023381 0.823680 0.921134
0.023358 0.823656 0.983557
0.023496 0.886375 0.000000
0.023483 0.886362 0.031225
0.023458 0.886337 0.097076
0.023434 0.886312 0.162005
0.023409 0.886288 0.226418
0.023385 0.886264 0.290469
0.023361 0.886240 0.354242
0.023337 0.886215 0.417789
0.023313 0.886192 0.481145
0.023289 0.886168 0.544337
0.023265 0.886144 0.607383
0.023242 0.886120 0.670301
0.023218 0.886096 0.733102
0.023194 0.886073 0.795796
0.023170 0.886049 0.858393
0.023147 0.886025 0.920900
0.023123 0.886002 0.983323
0.023262 0.948633 0.000000
0.023249 0.948620 0.030991
0.023224 0.948595 0.096842
0.023200 0.948571 0.161771
0.023175 0.948546 0.226184
0.023151 0.948522 0.290235
0.023127 0.948498 0.354008
0.023103 0.948474 0.417555
0.023079 0.948450 0.480911
0.023055 0.948426 0.544103
0.023031 0.948402 0.607149
0.023008 0.948378 0.670067
0.022984 0.948355 0.732868
0.022960 0.948331 0.795562
0.022936 0.948307 0.858159
0.022913 0.948284 0.920666
0.022889 0.948260 0.983089
0.023064 1.000000 0.000000
0.023051 1.000000 0.030793
0.023026 1.000000 0.096643
0.023001 1.000000 0.161572
0.022977 1.000000 0.225985
0.022953 1.000000 0.290037
0.022928 1.000000 0.353810
0.022904 1.000000 0.417356
0.022881 1.000000 0.480713
0.022857 1.000000 0.543904
0.022833 1.000000 0.606951
0.022809 1.000000 0.669868
0.022785 1.000000 0.732669
0.022762 1.000000 0.795364
0.022738 1.000000 0.857961
0.022714 1.000000 0.920467
0.022691 1.000000 0.982890
0.092804 0.000000 0.000000
0.092791 0.000000 0.034483
0.092766 0.000000 0.100334
0.092742 0.000000 0.165263
0.092718 0.000000 0.229676
0.092693 0.000000 0.293727
0.092669 0.000000 0.357500
0.092645 0.000000 0.421047
0.092621 0.000000 0.484403
0.092597 0.000000 0.547595
0.092574 0.000000 0.610642
0.092550 0.000000 0.673559
0.092526 0.000000 0.736360
0.092502 0.000000 0.799054
0.092479 0.000000 0.861651
0.092455 0.000000 0.924158
0.092431 0.000000 0.986581
0.092565 0.063548 0.000000
0.092552 0.063535 0.034244
0.092527 0.063510 0.100094
0.092503 0.063486 0.165024
0.092478 0.063462 0.229437
0.092454 0.063437 0.293488
0.092430 0.063413 0.357261
0.092406 0.063389 0.420808
0.092382 0.063365 0.484164
0.092358 0.063341 0.547356
0.092334 0.063317 0.610402
0.092310 0.063294 0.673320
0.092287 0.063270 0.736121
0.092263 0.063246 0.798815
0.092239 0.063223 0.861412
0.092216 0.063199 0.923919
0.092192 0.063175 0.986341
0.092320 0.128683 0.000000
0.092307 0.128670 0.033999
0.092282 0.128645 0.099850
0.092258 0.128621 0.164779
0.092234 0.128596 0.229192
0.092209 0.128572 0.293243
0.092185 0.128548 0.357016
0.092161 0.128524 0.420563
0.092137 0.128500 0.483919
0.092113 0.128476 0.547111
0.092089 0.128452 0.610157
0.092066 0.128429 0.673075
0.092042 0.128405 0.735876
0.092018 0.128381 0.798570
0.091995 0.128358 0.861167
0.091971 0.128334 0.923674
0.091947 0.128310 0.986097
0.092078 0.193139 0.000000
0.092065 0.193126 0.033757
0.092040 0.193101 0.099607
0.092016 0.193077 0.164537
0.091991 0.193052 0.228950
0.091967 0.193028 0.293001
0.091943 0.193004 0.356774
0.091919 0.192980 0.420321
0.091895 0.192956 0.483677
0.091871 0.192932 0.546868
0.091847 0.192908 0.609915
0.091823 0.192885 0.672833
0.091800 0.192861 0.735634
0.091776 0.192837 0.798328
0.091752 0.192813 0.860925
0.091729 0.192790 0.923432
0.091705 0.192766 0.985854
0.091838 0.257163 0.000000
0.091824 0.257150 0.033516
0.091800 0.257125 0.099367
0.091775 0.257100 0.164296
0.091751 0.257076 0.228709
0.091726 0.257052 0.292760
0.091702 0.257028 0.356534
0.091678 0.257004 0.420080
0.091654 0.256980 0.483436
0.091630 0.256956 0.546628
0.091607 0.256932 0.609675
0.091583 0.256908 0.672592
0.091559 0.256884 0.735393
0.091535 0.256861 0.798087
0.091512 0.256837 0.860684
0.091488 0.256813 0.923191
0.091464 0.256790 0.985614
0.091598 0.320868 0.000000
0.091585 0.320855 0.033277
0.091560 0.320830 0.099127
0.091536 0.320805 0.164057
0.091511 0.320781 0.228470
0.091487 0.320757 0.292521
0.091463 0.320733 0.356294
0.091439 0.320709 0.419841
0.091415 0.320685 0.483197
0.091391 0.320661 0.546388
0.091367 0.320637 0.609435
0.091343 0.320613 0.672353
0.091320 0.320589 0.735153
0.091296 0.320566 0.797848
0.091272 0.320542 0.860445
0.091249 0.320518 0.922951
0.091225 0.320495 0.985374
0.091360 0.384321 0.000000
0.091346 0.384308 0.033038
0.091322 0.384283 0.098889
0.091297 0.384259 0.163818
0.091273 0.384234 0.228231
0.091248 0.384210 0.292283
0.091224 0.384186 0.356056
0.091200 0.384162 0.419602
0.091176 0.384138 0.482958
0.091152 0.384114 0.546150
0.091129 0.384090 0.609197
0.091105 0.384067 0.672114
0.091081 0.384043 0.734915
0.091057 0.384019 0.797609
0.091034 0.383995 0.860206
0.091010 0.383972 0.922713
0.090986 0.383948 0.985136
0.091122 0.447566 0.000000
0.091109 0.447553 0.032801
0.091084 0.447528 0.098651
0.091059 0.447504 0.163580
0.091035 0.447479 0.227993
0.091011 0.447455 0.292045
0.090987 0.447431 0.355818
0.090963 0.447407 0.419365
0.090939 0.447383 0.482721
0.090915 0.447359 0.545912
0.090891 0.447335 0.608959
0.090867 0.447312 0.671876
0.090843 0.447288 0.734677
0.090820 0.447264 0.797372
0.090796 0.447240 0.859969
0.090772 0.447217 0.922475
0.090749 0.447193 0.984898
0.090885 0.510634 0.000000
0.090872 0.510621 0.032564
0.090847 0.510596 0.098414
0.090822 0.510571 0.163343
0.090798 0.510547 0.227756
0.090774 0.510523 0.291808
0.090750 0.510499 0.355581
0.090726 0.510474 0.419128
0.090702 0.510451 0.482484
0.090678 0.510427 0.545675
0.090654 0.510403 0.608722
0.090630 0.510379 0.671639
0.090606 0.510355 0.734440
0.090583 0.510332 0.797135
0.090559 0.510308 0.859732
0.090535 0.510284 0.922238
0.090512 0.510261 0.984661
0.090648 0.573547 0.000000
0.090635 0.573533 0.032327
0.090610 0.573509 0.098178
0.090586 0.573484 0.163107
0.090561 0.573460 0.227520
0.090537 0.573435 0.291571
0.090513 0.573411 0.355344
0.090489 0.573387 0.418891
0.090465 0.573363 0.482247
0.090441 0.573339 0.545439
0.090417 0.573316 0.608485
0.090394 0.573292 0.671403
0.090370 0.573268 0.734204
0.090346 0.573244 0.796898
0.090322 0.573221 0.859495
0.090299 0.573197 0.922002
0.090275 0.573173 0.984425
0.090412 0.636322 0.000000
0.090399 0.636309 0.032091
0.090374 0.636284 0.097942
0.090350 0.636260 0.162871
0.090326 0.636235 0.227284
0.090301 0.636211 0.291335
0.090277 0.636187 0.355108
0.090253 0.636163 0.418655
0.090229 0.636139 0.482011
0.090205 0.636115 0.545203
0.090181 0.636091 0.608249
0.090158 0.636068 0.671167
0.090134 0.636044 0.733968
0.090110 0.636020 0.796662
0.090087 0.635996 0.859259
0.090063 0.635973 0.921766
0.090039 0.635949 0.984189
0.090177 0.698975 0.000000
0.090164 0.698962 0.031856
0.090139 0.698937 0.097706
0.090114 0.698913 0.162636
0.090090 0.698888 0.227048
0.090066 0.698864 0.291100
0.090042 0.698840 0.354873
0.090018 0.698816 0.418420
0.089994 0.698792 0.481776
0.089970 0.698768 0.544967
0.089946 0.698744 0.608014
0.089922 0.698720 0.670931
0.089898 0.698697 0.733732
0.089875 0.698673 0.796427
0.089851 0.698649 0.859024
0.089827 0.698626 0.921530
0.089804 0.698602 0.983953
0.089942 0.761516 0.000000
0.089929 0.761503 0.031621
0.089904 0.761478 0.097471
0.089879 0.761454 0.162400
0.089855 0.761429 0.226813
0.089831 0.761405 0.290865
0.089807 0.761381 0.354638
0.089783 0.761357 0.418185
0.089759 0.761333 0.481541
0.089735 0.761309 0.544732
0.089711 0.761285 0.607779
0.089687 0.761262 0.670696
0.089663 0.761238 0.733497
0.089640 0.761214 0.796192
0.089616 0.761190 0.858789
0.089592 0.761167 0.921295
0.089569 0.761143 0.983718
0.089707 0.823956 0.000000
0.089694 0.823943 0.031386
0.089669 0.823918 0.097236
0.089645 0.823893 0.162166
0.089620 0.823869 0.226579
0.089596 0.823845 0.290630
0.089572 0.823821 0.354403
0.089548 0.823796 0.417950
0.089524 0.823773 0.481306
0.089500 0.823749 0.544498
0.089476 0.823725 0.607544
0.089452 0.823701 0.670462
0.089429 0.823677 0.733263
0.089405 0.823654 0.795957
0.089381 0.823630 0.858554
0.089358 0.823606 0.921061
0.089334 0.823583 0.983483
0.089473 0.886301 0.000000
0.089460 0.886288 0.031152
0.089435 0.886263 0.097002
0.089410 0.886239 0.161931
0.089386 0.886214 0.226344
0.089362 0.886190 0.290396
0.089338 0.886166 0.354169
0.089314 0.886142 0.417716
0.089290 0.886118 0.481072
0.089266 0.886094 0.544263
0.089242 0.886070 0.607310
0.089218 0.886046 0.670227
0.089194 0.886023 0.733028
0.089171 0.885999 0.795723
0.089147 0.885975 0.858320
0.089123 0.885952 0.920826
0.089100 0.885928 0.983249
0.089239 0.948560 0.000000
0.089226 0.948547 0.030918
0.089201 0.948522 0.096768
0.089176 0.948497 0.161697
0.089152 0.948473 0.226110
0.089128 0.948449 0.290162
0.089104 0.948424 0.353935
0.089080 0.948400 0.417482
0.089056 0.948376 0.480838
0.089032 0.948353 0.544029
0.089008 0.948329 0.607076
0.088984 0.948305 0.669993
0.088960 0.948281 0.732794
0.088937 0.948257 0.795489
0.088913 0.948234 0.858086
0.088889 0.948210 0.920592
0.088866 0.948187 0.983015
0.089040 1.000000 0.000000
0.089027 1.000000 0.030719
0.089002 1.000000 0.096570
0.088978 1.000000 0.161499
0.088953 1.000000 0.225912
0.088929 1.000000 0.289963
0.088905 1.000000 0.353736
0.088881 1.000000 0.417283
0.088857 1.000000 0.480639
0.088833 1.000000 0.543831
0.088809 1.000000 0.606877
0.088786 1.000000 0.669795
0.088762 1.000000 0.732596
0.088738 1.000000 0.795290
0.088714 1.000000 0.857887
0.088691 1.000000 0.920394
0.088667 1.000000 0.982816
0.157763 0.000000 0.000000
0.157750 0.000000 0.034411
0.157725 0.000000 0.100261
0.157700 0.000000 0.165191
0.157676 0.000000 0.229604
0.157652 0.000000 0.293655
0.157628 0.000000 0.357428
0.157604 0.000000 0.420975
0.157580 0.000000 0.484331
0.157556 0.000000 0.547522
0.157532 0.000000 0.610569
0.157508 0.000000 0.673487
0.157484 0.000000 0.736287
0.157461 0.000000 0.798982
0.157437 0.000000 0.861579
0.157413 0.000000 0.924086
0.157390 0.000000 0.986508
0.157524 0.063476 0.000000
0.157511 0.063463 0.034172
0.157486 0.063438 0.100022
0.157461 0.063413 0.164951
0.157437 0.063389 0.229364
0.157413 0.063365 0.293416
0.157388 0.063341 0.357189
0.157364 0.063317 0.420736
0.157340 0.063293 0.484092
0.157317 0.063269 0.547283
0.157293 0.063245 0.610330
0.157269 0.063221 0.673247
0.157245 0.063198 0.736048
0.157221 0.063174 0.798743
0.157198 0.063150 0.861340
0.157174 0.063127 0.923846
0.157151 0.063103 0.986269
0.157279 0.128611 0.000000
0.157266 0.128598 0.033927
0.157241 0.128573 0.099777
0.157216 0.128548 0.164707
0.157192 0.128524 0.229120
0.157168 0.128500 0.293171
0.157144 0.128476 0.356944
0.157120 0.128452 0.420491
0.157096 0.128428 0.483847
0.157072 0.128404 0.547038
0.157048 0.128380 0.610085
0.157024 0.128356 0.673003
0.157000 0.128333 0.735803
0.156977 0.128309 0.798498
0.156953 0.128285 0.861095
0.156929 0.128261 0.923601
0.156906 0.128238 0.986024
0.157037 0.193067 0.000000
0.157023 0.193054 0.033684
0.156999 0.193029 0.099535
0.156974 0.193004 0.164464
0.156950 0.192980 0.228877
0.156925 0.192956 0.292929
0.156901 0.192932 0.356702
0.156877 0.192908 0.420248
0.156853 0.192884 0.483605
0.156829 0.192860 0.546796
0.156806 0.192836 0.609843
0.156782 0.192812 0.672760
0.156758 0.192788 0.735561
0.156734 0.192765 0.798256
0.156711 0.192741 0.860853
0.156687 0.192717 0.923359
0.156663 0.192694 0.985782
0.156796 0.257090 0.000000
0.156783 0.257077 0.033444
0.156758 0.257052 0.099294
0.156733 0.257028 0.164224
0.156709 0.257004 0.228637
0.156685 0.256979 0.292688
0.156661 0.256955 0.356461
0.156637 0.256931 0.420008
0.156613 0.256907 0.483364
0.156589 0.256883 0.546555
0.156565 0.256859 0.609602
0.156541 0.256836 0.672520
0.156517 0.256812 0.735321
0.156494 0.256788 0.798015
0.156470 0.256765 0.860612
0.156446 0.256741 0.923119
0.156423 0.256717 0.985541
0.156556 0.320796 0.000000
0.156543 0.320783 0.033204
0.156518 0.320758 0.099055
0.156494 0.320733 0.163984
0.156470 0.320709 0.228397
0.156445 0.320684 0.292449
0.156421 0.320660 0.356222
0.156397 0.320636 0.419768
0.156373 0.320612 0.483125
0.156349 0.320588 0.546316
0.156326 0.320565 0.609363
0.156302 0.320541 0.672280
0.156278 0.320517 0.735081
0.156254 0.320493 0.797776
0.156231 0.320470 0.860372
0.156207 0.320446 0.922879
0.156183 0.320422 0.985302
0.156318 0.384249 0.000000
0.156305 0.384236 0.032966
0.156280 0.384211 0.098816
0.156255 0.384186 0.163746
0.156231 0.384162 0.228159
0.156207 0.384138 0.292210
0.156183 0.384114 0.355983
0.156159 0.384090 0.419530
0.156135 0.384066 0.482886
0.156111 0.384042 0.546078
0.156087 0.384018 0.609124
0.156063 0.383994 0.672042
0.156039 0.383970 0.734843
0.156016 0.383947 0.797537
0.155992 0.383923 0.860134
0.155968 0.383899 0.922641
0.155945 0.383876 0.985063
0.156080 0.447494 0.000000
0.156067 0.447481 0.032728
0.156042 0.447456 0.098579
0.156018 0.447431 0.163508
0.155993 0.447407 0.227921
0.155969 0.447383 0.291972
0.155945 0.447359 0.355745
0.155921 0.447335 0.419292
0.155897 0.447311 0.482648
0.155873 0.447287 0.545840
0.155849 0.447263 0.608887
0.155826 0.447239 0.671804
0.155802 0.447215 0.734605
0.155778 0.447192 0.797299
0.155754 0.447168 0.859896
0.155731 0.447144 0.922403
0.155707 0.447121 0.984826
0.155843 0.510561 0.000000
0.155830 0.510548 0.032491
0.155805 0.510523 0.098342
0.155781 0.510499 0.163271
0.155756 0.510474 0.227684
0.155732 0.510450 0.291735
0.155708 0.510426 0.355508
0.155684 0.510402 0.419055
0.155660 0.510378 0.482411
0.155636 0.510354 0.545603
0.155612 0.510330 0.608650
0.155588 0.510307 0.671567
0.155565 0.510283 0.734368
0.155541 0.510259 0.797062
0.155517 0.510235 0.859659
0.155494 0.510212 0.922166
0.155470 0.510188 0.984589
0.155607 0.573474 0.000000
0.155594 0.573461 0.032255
0.155569 0.573436 0.098105
0.155544 0.573412 0.163035
0.155520 0.573387 0.227448
0.155496 0.573363 0.291499
0.155472 0.573339 0.355272
0.155447 0.573315 0.418819
0.155424 0.573291 0.482175
0.155400 0.573267 0.545366
0.155376 0.573243 0.608413
0.155352 0.573219 0.671331
0.155328 0.573196 0.734131
0.155305 0.573172 0.796826
0.155281 0.573148 0.859423
0.155257 0.573125 0.921929
0.155234 0.573101 0.984352
0.155371 0.636250 0.000000
0.155358 0.636237 0.032019
0.155333 0.636212 0.097869
0.155308 0.636187 0.162799
0.155284 0.636163 0.227212
0.155260 0.636139 0.291263
0.155236 0.636115 0.355036
0.155212 0.636091 0.418583
0.155188 0.636067 0.481939
0.155164 0.636043 0.545130
0.155140 0.636019 0.608177
0.155116 0.635995 0.671095
0.155092 0.635971 0.733895
0.155069 0.635948 0.796590
0.155045 0.635924 0.859187
0.155021 0.635900 0.921693
0.154998 0.635877 0.984116
0.155135 0.698903 0.000000
0.155122 0.698890 0.031783
0.155097 0.698865 0.097634
0.155073 0.698840 0.162563
0.155048 0.698816 0.226976
0.155024 0.698792 0.291028
0.155000 0.698767 0.354801
0.154976 0.698743 0.418347
0.154952 0.698719 0.481703
0.154928 0.698696 0.544895
0.154904 0.698672 0.607942
0.154881 0.698648 0.670859
0.154857 0.698624 0.733660
0.154833 0.698600 0.796354
0.154809 0.698577 0.858951
0.154786 0.698553 0.921458
0.154762 0.698530 0.983881
0.154900 0.761444 0.000000
0.154887 0.761431 0.031548
0.154862 0.761406 0.097399
0.154838 0.761381 0.162328
0.154813 0.761357 0.226741
0.154789 0.761333 0.290792
0.154765 0.761309 0.354565
0.154741 0.761285 0.418112
0.154717 0.761261 0.481468
0.154693 0.761237 0.544660
0.154669 0.761213 0.607707
0.154646 0.761189 0.670624
0.154622 0.761165 0.733425
0.154598 0.761142 0.796119
0.154574 0.761118 0.858716
0.154551 0.761094 0.921223
0.154527 0.761071 0.983646
0.154666 0.823883 0.000000
0.154652 0.823870 0.031314
0.154628 0.823845 0.097164
0.154603 0.823821 0.162093
0.154579 0.823796 0.226506
0.154554 0.823772 0.290558
0.154530 0.823748 0.354331
0.154506 0.823724 0.417878
0.154482 0.823700 0.481234
0.154458 0.823676 0.544425
0.154435 0.823652 0.607472
0.154411 0.823629 0.670389
0.154387 0.823605 0.733190
0.154363 0.823581 0.795885
0.154340 0.823557 0.858482
0.154316 0.823534 0.920988
0.154292 0.823510 0.983411
0.154431 0.886229 0.000000
0.154418 0.886216 0.031079
0.154393 0.886191 0.096930
0.154369 0.886166 0.161859
0.154344 0.886142 0.226272
0.154320 0.886118 0.290323
0.154296 0.886094 0.354096
0.154272 0.886070 0.417643
0.154248 0.886046 0.480999
0.154224 0.886022 0.544191
0.154200 0.885998 0.607238
0.154176 0.885974 0.670155
0.154153 0.885950 0.732956
0.154129 0.885927 0.795650
0.154105 0.885903 0.858247
0.154082 0.885879 0.920754
0.154058 0.885856 0.983177
0.154197 0.948487 0.000000
0.154184 0.948474 0.030845
0.154159 0.948449 0.096696
0.154135 0.948425 0.161625
0.154110 0.948400 0.226038
0.154086 0.948376 0.290089
0.154062 0.948352 0.353862
0.154038 0.948328 0.417409
0.154014 0.948304 0.480765
0.153990 0.948280 0.543957
0.153966 0.948256 0.607004
0.153942 0.948233 0.669921
0.153919 0.948209 0.732722
0.153895 0.948185 0.795416
0.153871 0.948161 0.858013
0.153848 0.948138 0.920520
0.153824 0.948114 0.982943
0.153999 1.000000 0.000000
0.153986 1.000000 0.030647
0.153961 1.000000 0.096497
0.153936 1.000000 0.161426
0.153912 1.000000 0.225839
0.153888 1.000000 0.289891
0.153863 1.000000 0.353664
0.153839 1.000000 0.417211
0.153815 1.000000 0.480567
0.153792 1.000000 0.543758
0.153768 1.000000 0.606805
0.153744 1.000000 0.669722
0.153720 1.000000 0.732523
0.153696 1.000000 0.795218
0.153673 1.000000 0.857815
0.153649 1.000000 0.920321
0.153626 1.000000 0.982744
0.222178 0.000000 0.000000
0.222165 0.000000 0.034339
0.222140 0.000000 0.100190
0.222116 0.000000 0.165119
0.222091 0.000000 0.229532
0.222067 0.000000 0.293583
0.222043 0.000000 0.357356
0.222019 0.000000 0.420903
0.221995 0.000000 0.484259
0.221971 0.000000 0.547451
0.221947 0.000000 0.610497
0.221923 0.000000 0.673415
0.221900 0.000000 0.736216
0.221876 0.000000 0.798910
0.221852 0.000000 0.861507
0.221829 0.000000 0.924014
0.221805 0.000000 0.986436
0.221939 0.063404 0.000000
