skills/editops-orchestrator/assets/grade/luts/warm_skin_v16.cube
TITLE "warm_skin_v16"
LUT_3D_SIZE 17
DOMAIN_MIN 0.0 0.0 0.0
DOMAIN_MAX 1.0 1.0 1.0
0.046546 0.000000 0.000000
0.046514 0.000000 0.010296
0.046297 0.000000 0.082784
0.046087 0.000000 0.152720
0.045881 0.000000 0.221516
0.045677 0.000000 0.289565
0.045475 0.000000 0.357057
0.045274 0.000000 0.424104
0.045074 0.000000 0.490782
0.044876 0.000000 0.557146
0.044678 0.000000 0.623235
0.044480 0.000000 0.689079
0.044284 0.000000 0.754706
0.044088 0.000000 0.820133
0.043892 0.000000 0.885379
0.043697 0.000000 0.950458
0.043503 0.000000 1.000000
0.044614 0.062948 0.000000
0.044582 0.062916 0.008364
0.044365 0.062699 0.080852
0.044155 0.062489 0.150788
0.043949 0.062283 0.219584
0.043745 0.062079 0.287633
0.043543 0.061877 0.355125
0.043342 0.061676 0.422172
0.043143 0.061476 0.488850
0.042944 0.061277 0.555214
0.042746 0.061079 0.621303
0.042548 0.060882 0.687147
0.042352 0.060686 0.752774
0.042156 0.060489 0.818201
0.041960 0.060294 0.883447
0.041765 0.060099 0.948526
0.041571 0.059905 1.000000
0.042526 0.131422 0.000000
0.042494 0.131390 0.006276
0.042277 0.131173 0.078764
0.042067 0.130964 0.148700
0.041861 0.130758 0.217497
0.041657 0.130554 0.285545
0.041455 0.130351 0.353037
0.041254 0.130151 0.420084
0.041055 0.129951 0.486762
0.040856 0.129752 0.553126
0.040658 0.129554 0.619215
0.040460 0.129357 0.685060
0.040264 0.129160 0.750686
0.040068 0.128964 0.816113
0.039872 0.128769 0.881359
0.039677 0.128574 0.946438
0.039483 0.128379 1.000000
0.040477 0.198617 0.000000
0.040445 0.198585 0.004227
0.040228 0.198367 0.076715
0.040019 0.198158 0.146651
0.039812 0.197952 0.215448
0.039609 0.197748 0.283497
0.039406 0.197546 0.350988
0.039205 0.197345 0.418035
0.039006 0.197145 0.484714
0.038807 0.196946 0.551077
0.038609 0.196748 0.617166
0.038412 0.196551 0.683011
0.038215 0.196354 0.748637
0.038019 0.196158 0.814064
0.037824 0.195963 0.879310
0.037629 0.195768 0.944389
0.037434 0.195573 1.000000
0.038453 0.265013 0.000000
0.038421 0.264981 0.002202
0.038204 0.264764 0.074691
0.037994 0.264554 0.144626
0.037788 0.264348 0.213423
0.037584 0.264144 0.281472
0.037382 0.263942 0.348963
0.037181 0.263741 0.416011
0.036981 0.263541 0.482689
0.036782 0.263343 0.549053
0.036584 0.263145 0.615141
0.036387 0.262947 0.680986
0.036190 0.262751 0.746612
0.035994 0.262555 0.812040
0.035799 0.262359 0.877286
0.035604 0.262164 0.942365
0.035409 0.261970 1.000000
0.036446 0.330829 0.000000
0.036414 0.330797 0.000196
0.036197 0.330580 0.072684
0.035987 0.330371 0.142619
0.035781 0.330164 0.211416
0.035577 0.329961 0.279465
0.035375 0.329758 0.346956
0.035174 0.329557 0.414004
0.034974 0.329358 0.480682
0.034776 0.329159 0.547046
0.034578 0.328961 0.613134
0.034380 0.328764 0.678979
0.034184 0.328567 0.744605
0.033988 0.328371 0.810033
0.033792 0.328175 0.875279
0.033597 0.327980 0.940358
0.033403 0.327786 1.000000
0.034453 0.396190 0.000000
0.034421 0.396158 0.000000
0.034204 0.395940 0.070691
0.033994 0.395731 0.140626
0.033788 0.395525 0.209423
0.033584 0.395321 0.277472
0.033382 0.395119 0.344963
0.033181 0.394918 0.412011
0.032981 0.394718 0.478689
0.032783 0.394519 0.545053
0.032585 0.394321 0.611141
0.032387 0.394124 0.676986
0.032191 0.393927 0.742612
0.031995 0.393731 0.808040
0.031799 0.393536 0.873286
0.031604 0.393341 0.938365
0.031410 0.393146 1.000000
0.032472 0.461175 0.000000
0.032439 0.461143 0.000000
0.032222 0.460926 0.068709
0.032013 0.460716 0.138645
0.031807 0.460510 0.207442
0.031603 0.460306 0.275491
0.031401 0.460104 0.342982
0.031200 0.459903 0.410029
0.031000 0.459703 0.476708
0.030801 0.459504 0.543071
0.030603 0.459306 0.609160
0.030406 0.459109 0.675005
0.030209 0.458913 0.740631
0.030013 0.458717 0.806059
0.029818 0.458521 0.871305
0.029623 0.458326 0.936383
0.029428 0.458132 1.000000
0.030500 0.525842 0.000000
0.030468 0.525810 0.000000
0.030250 0.525592 0.066738
0.030041 0.525383 0.136673
0.029835 0.525177 0.205470
0.029631 0.524973 0.273519
0.029429 0.524771 0.341010
0.029228 0.524570 0.408057
0.029028 0.524370 0.474736
0.028829 0.524171 0.541099
0.028631 0.523973 0.607188
0.028434 0.523776 0.673033
0.028237 0.523579 0.738659
0.028041 0.523383 0.804087
0.027846 0.523188 0.869333
0.027651 0.522993 0.934412
0.027456 0.522798 0.999335
0.028536 0.590232 0.000000
0.028504 0.590200 0.000000
0.028287 0.589983 0.064774
0.028078 0.589773 0.134710
0.027871 0.589567 0.203507
0.027668 0.589363 0.271555
0.027465 0.589161 0.339047
0.027264 0.588960 0.406094
0.027065 0.588760 0.472773
0.026866 0.588561 0.539136
0.026668 0.588363 0.605225
0.026471 0.588166 0.671070
0.026274 0.587969 0.736696
0.026078 0.587773 0.802123
0.025882 0.587578 0.867369
0.025687 0.587383 0.932448
0.025493 0.587189 0.997372
0.026580 0.654378 0.000000
0.026548 0.654346 0.000000
0.026331 0.654129 0.062818
0.026122 0.653919 0.132754
0.025916 0.653713 0.201551
0.025712 0.653509 0.269600
0.025509 0.653307 0.337091
0.025309 0.653106 0.404138
0.025109 0.652906 0.470817
0.024910 0.652707 0.537180
0.024712 0.652509 0.603269
0.024515 0.652312 0.669114
0.024318 0.652115 0.734740
0.024122 0.651919 0.800167
0.023927 0.651724 0.865413
0.023732 0.651529 0.930492
0.023537 0.651334 0.995416
0.024631 0.718305 0.000000
0.024599 0.718273 0.000000
0.024382 0.718056 0.060869
0.024172 0.717846 0.130805
0.023966 0.717640 0.199601
0.023762 0.717436 0.267650
0.023560 0.717234 0.335142
0.023359 0.717033 0.402189
0.023160 0.716833 0.468867
0.022961 0.716635 0.535231
0.022763 0.716437 0.601320
0.022565 0.716239 0.667164
0.022369 0.716043 0.732791
0.022173 0.715847 0.798218
0.021977 0.715651 0.863464
0.021782 0.715456 0.928543
0.021588 0.715262 0.993467
0.022688 0.782034 0.000000
0.022656 0.782002 0.000000
0.022439 0.781785 0.058926
0.022229 0.781576 0.128861
0.022023 0.781370 0.197658
0.021819 0.781166 0.265707
0.021617 0.780963 0.333198
0.021416 0.780763 0.400246
0.021216 0.780563 0.466924
0.021017 0.780364 0.533288
0.020819 0.780166 0.599376
0.020622 0.779969 0.665221
0.020426 0.779772 0.730847
0.020230 0.779576 0.796275
0.020034 0.779381 0.861521
0.019839 0.779186 0.926600
0.019645 0.778991 0.991524
0.020750 0.845583 0.000000
0.020718 0.845551 0.000000
0.020501 0.845334 0.056988
0.020291 0.845124 0.126924
0.020085 0.844918 0.195721
0.019881 0.844714 0.263769
0.019679 0.844512 0.331261
0.019478 0.844311 0.398308
0.019279 0.844112 0.464986
0.019080 0.843913 0.531350
0.018882 0.843715 0.597439
0.018684 0.843517 0.663284
0.018488 0.843321 0.728910
0.018292 0.843125 0.794337
0.018096 0.842929 0.859583
0.017901 0.842734 0.924662
0.017707 0.842540 0.989586
0.018818 0.908966 0.000000
0.018785 0.908934 0.000000
0.018568 0.908717 0.055056
0.018359 0.908507 0.124991
0.018153 0.908301 0.193788
0.017949 0.908097 0.261837
0.017747 0.907895 0.329328
0.017546 0.907694 0.396375
0.017346 0.907494 0.463054
0.017147 0.907295 0.529417
0.016949 0.907097 0.595506
0.016752 0.906900 0.661351
0.016555 0.906704 0.726977
0.016359 0.906507 0.792405
0.016164 0.906312 0.857651
0.015969 0.906117 0.922729
0.015774 0.905923 0.987653
0.016890 0.972195 0.000000
0.016858 0.972163 0.000000
0.016640 0.971945 0.053128
0.016431 0.971736 0.123063
0.016225 0.971530 0.191860
0.016021 0.971326 0.259909
0.015819 0.971124 0.327400
0.015618 0.970923 0.394447
0.015418 0.970723 0.461126
0.015219 0.970524 0.527489
0.015021 0.970326 0.593578
0.014824 0.970129 0.659423
0.014627 0.969932 0.725049
0.014431 0.969736 0.790477
0.014236 0.969541 0.855723
0.014041 0.969346 0.920801
0.013846 0.969151 0.985725
0.015680 1.000000 0.000000
0.015648 1.000000 0.000000
0.015430 1.000000 0.051918
0.015221 1.000000 0.121853
0.015015 1.000000 0.190650
0.014811 1.000000 0.258699
0.014609 1.000000 0.326190
0.014408 1.000000 0.393237
0.014208 1.000000 0.459916
0.014009 1.000000 0.526279
0.013811 1.000000 0.592368
0.013614 1.000000 0.658213
0.013417 1.000000 0.723839
0.013221 1.000000 0.789267
0.013026 1.000000 0.854513
0.012831 1.000000 0.919591
0.012636 1.000000 0.984515
0.117000 0.000000 0.000000
0.116968 0.000000 0.009671
0.116751 0.000000 0.082159
0.116541 0.000000 0.152094
0.116335 0.000000 0.220891
0.116131 0.000000 0.288940
0.115929 0.000000 0.356431
0.115728 0.000000 0.423479
0.115528 0.000000 0.490157
0.115329 0.000000 0.556521
0.115131 0.000000 0.622609
0.114934 0.000000 0.688454
0.114738 0.000000 0.754080
0.114542 0.000000 0.819508
0.114346 0.000000 0.884754
0.114151 0.000000 0.949833
0.113957 0.000000 1.000000
0.115068 0.062323 0.000000
0.115036 0.062291 0.007739
0.114819 0.062073 0.080227
0.114609 0.061864 0.150162
0.114403 0.061658 0.218959
0.114199 0.061454 0.287008
0.113997 0.061252 0.354499
0.113796 0.061051 0.421547
0.113596 0.060851 0.488225
0.113397 0.060652 0.554589
0.113199 0.060454 0.620677
0.113002 0.060257 0.686522
0.112806 0.060060 0.752148
0.112610 0.059864 0.817576
0.112414 0.059669 0.882822
0.112219 0.059474 0.947901
0.112025 0.059279 1.000000
0.112980 0.130797 0.000000
0.112948 0.130765 0.005651
0.112731 0.130548 0.078139
0.112521 0.130339 0.148074
0.112315 0.130132 0.216871
0.112111 0.129929 0.284920
0.111909 0.129726 0.352411
0.111708 0.129525 0.419459
0.111508 0.129326 0.486137
0.111310 0.129127 0.552501
0.111112 0.128929 0.618589
0.110914 0.128732 0.684434
0.110718 0.128535 0.750060
0.110522 0.128339 0.815488
0.110326 0.128143 0.880734
0.110131 0.127948 0.945813
0.109937 0.127754 1.000000
0.110931 0.197991 0.000000
0.110899 0.197959 0.003602
0.110682 0.197742 0.076090
0.110472 0.197533 0.146026
0.110266 0.197327 0.214823
0.110062 0.197123 0.282871
0.109860 0.196920 0.350363
0.109659 0.196720 0.417410
0.109460 0.196520 0.484088
0.109261 0.196321 0.550452
0.109063 0.196123 0.616541
0.108865 0.195926 0.682385
0.108669 0.195729 0.748012
0.108473 0.195533 0.813439
0.108277 0.195338 0.878685
0.108082 0.195143 0.943764
0.107888 0.194948 1.000000
0.108907 0.264388 0.000000
0.108875 0.264356 0.001577
0.108657 0.264139 0.074066
0.108448 0.263929 0.144001
0.108242 0.263723 0.212798
0.108038 0.263519 0.280847
0.107836 0.263317 0.348338
0.107635 0.263116 0.415385
0.107435 0.262916 0.482064
0.107236 0.262717 0.548427
0.107038 0.262519 0.614516
0.106841 0.262322 0.680361
0.106644 0.262126 0.745987
0.106448 0.261930 0.811415
0.106253 0.261734 0.876661
0.106058 0.261539 0.941739
0.105863 0.261345 1.000000
0.106900 0.330204 0.000000
0.106868 0.330172 0.000000
0.106650 0.329955 0.072059
0.106441 0.329745 0.141994
0.106235 0.329539 0.210791
0.106031 0.329335 0.278840
0.105829 0.329133 0.346331
0.105628 0.328932 0.413378
0.105428 0.328733 0.480057
0.105229 0.328534 0.546421
0.105031 0.328336 0.612509
0.104834 0.328138 0.678354
0.104637 0.327942 0.743980
0.104441 0.327746 0.809408
0.104246 0.327550 0.874654
0.104051 0.327355 0.939733
0.103856 0.327161 1.000000
0.104907 0.395564 0.000000
0.104875 0.395532 0.000000
0.104658 0.395315 0.070066
0.104448 0.395106 0.140001
0.104242 0.394900 0.208798
0.104038 0.394696 0.276847
0.103836 0.394493 0.344338
0.103635 0.394293 0.411386
0.103435 0.394093 0.478064
0.103236 0.393894 0.544428
0.103038 0.393696 0.610516
0.102841 0.393499 0.676361
0.102644 0.393302 0.741987
0.102448 0.393106 0.807415
0.102253 0.392911 0.872661
0.102058 0.392716 0.937740
0.101863 0.392521 1.000000
0.102925 0.460550 0.000000
0.102893 0.460518 0.000000
0.102676 0.460300 0.068084
0.102467 0.460091 0.138020
0.102260 0.459885 0.206817
0.102057 0.459681 0.274865
0.101854 0.459479 0.342357
0.101653 0.459278 0.409404
0.101454 0.459078 0.476083
0.101255 0.458879 0.542446
0.101057 0.458681 0.608535
0.100860 0.458484 0.674380
0.100663 0.458287 0.740006
0.100467 0.458091 0.805433
0.100271 0.457896 0.870679
0.100076 0.457701 0.935758
0.099882 0.457506 1.000000
0.100953 0.525216 0.000000
0.100921 0.525184 0.000000
0.100704 0.524967 0.066112
0.100495 0.524758 0.136048
0.100289 0.524552 0.204845
0.100085 0.524348 0.272894
0.099882 0.524145 0.340385
0.099682 0.523945 0.407432
0.099482 0.523745 0.474111
0.099283 0.523546 0.540474
0.099085 0.523348 0.606563
0.098888 0.523151 0.672408
0.098691 0.522954 0.738034
0.098495 0.522758 0.803462
0.098300 0.522563 0.868708
0.098105 0.522368 0.933786
0.097910 0.522173 0.998710
0.098990 0.589607 0.000000
0.098958 0.589575 0.000000
0.098741 0.589357 0.064149
0.098531 0.589148 0.134085
0.098325 0.588942 0.202881
0.098121 0.588738 0.270930
0.097919 0.588536 0.338422
0.097718 0.588335 0.405469
0.097518 0.588135 0.472147
0.097320 0.587936 0.538511
0.097122 0.587738 0.604600
0.096924 0.587541 0.670444
0.096728 0.587344 0.736071
0.096532 0.587148 0.801498
0.096336 0.586953 0.866744
0.096141 0.586758 0.931823
0.095947 0.586563 0.996747
0.097034 0.653753 0.000000
0.097002 0.653721 0.000000
0.096785 0.653503 0.062193
0.096575 0.653294 0.132129
0.096369 0.653088 0.200926
0.096165 0.652884 0.268974
0.095963 0.652682 0.336466
0.095762 0.652481 0.403513
0.095563 0.652281 0.470191
0.095364 0.652082 0.536555
0.095166 0.651884 0.602644
0.094968 0.651687 0.668489
0.094772 0.651490 0.734115
0.094576 0.651294 0.799542
0.094380 0.651099 0.864788
0.094185 0.650904 0.929867
0.093991 0.650709 0.994791
0.095085 0.717680 0.000000
0.095053 0.717648 0.000000
0.094836 0.717431 0.060244
0.094626 0.717221 0.130179
0.094420 0.717015 0.198976
0.094216 0.716811 0.267025
0.094014 0.716609 0.334516
0.093813 0.716408 0.401564
0.093613 0.716208 0.468242
0.093414 0.716009 0.534606
0.093216 0.715811 0.600694
0.093019 0.715614 0.666539
0.092823 0.715418 0.732165
0.092627 0.715221 0.797593
0.092431 0.715026 0.862839
0.092236 0.714831 0.927918
0.092042 0.714637 0.992842
0.093142 0.781409 0.000000
0.093110 0.781377 0.000000
0.092892 0.781160 0.058301
0.092683 0.780950 0.128236
0.092477 0.780744 0.197033
0.092273 0.780540 0.265082
0.092071 0.780338 0.332573
0.091870 0.780137 0.399620
0.091670 0.779938 0.466299
0.091471 0.779739 0.532663
0.091273 0.779541 0.598751
0.091076 0.779344 0.664596
0.090879 0.779147 0.730222
0.090683 0.778951 0.795650
0.090488 0.778755 0.860896
0.090293 0.778560 0.925975
0.090098 0.778366 0.990898
0.091204 0.844958 0.000000
0.091172 0.844926 0.000000
0.090955 0.844709 0.056363
0.090745 0.844499 0.126298
0.090539 0.844293 0.195095
0.090335 0.844089 0.263144
0.090133 0.843887 0.330635
0.089932 0.843686 0.397683
0.089732 0.843486 0.464361
0.089534 0.843288 0.530725
0.089336 0.843090 0.596813
0.089138 0.842892 0.662658
0.088942 0.842696 0.728284
0.088746 0.842500 0.793712
0.088550 0.842304 0.858958
0.088355 0.842109 0.924037
0.088161 0.841915 0.988961
0.089271 0.908341 0.000000
0.089239 0.908309 0.000000
0.089022 0.908091 0.054430
0.088813 0.907882 0.124366
0.088606 0.907676 0.193163
0.088403 0.907472 0.261212
0.088200 0.907270 0.328703
0.087999 0.907069 0.395750
0.087800 0.906869 0.462429
0.087601 0.906670 0.528792
0.087403 0.906472 0.594881
0.087206 0.906275 0.660726
0.087009 0.906078 0.726352
0.086813 0.905882 0.791779
0.086618 0.905687 0.857025
0.086423 0.905492 0.922104
0.086228 0.905297 0.987028
0.087343 0.971570 0.000000
0.087311 0.971537 0.000000
0.087094 0.971320 0.052502
0.086885 0.971111 0.122438
0.086678 0.970905 0.191235
0.086475 0.970701 0.259284
0.086272 0.970499 0.326775
0.086072 0.970298 0.393822
0.085872 0.970098 0.460501
0.085673 0.969899 0.526864
0.085475 0.969701 0.592953
0.085278 0.969504 0.658798
0.085081 0.969307 0.724424
0.084885 0.969111 0.789851
0.084690 0.968916 0.855097
0.084495 0.968721 0.920176
0.084300 0.968526 0.985100
0.086133 1.000000 0.000000
0.086101 1.000000 0.000000
0.085884 1.000000 0.051292
0.085675 1.000000 0.121228
0.085468 1.000000 0.190025
0.085265 1.000000 0.258074
0.085062 1.000000 0.325565
0.084862 1.000000 0.392612
0.084662 1.000000 0.459291
0.084463 1.000000 0.525654
0.084265 1.000000 0.591743
0.084068 1.000000 0.657588
0.083871 1.000000 0.723214
0.083675 1.000000 0.788641
0.083480 1.000000 0.853887
0.083285 1.000000 0.918966
0.083090 1.000000 0.983890
0.185901 0.000000 0.000000
0.185868 0.000000 0.009059
0.185651 0.000000 0.081547
0.185442 0.000000 0.151483
0.185236 0.000000 0.220280
0.185032 0.000000 0.288329
0.184830 0.000000 0.355820
0.184629 0.000000 0.422867
0.184429 0.000000 0.489546
0.184230 0.000000 0.555909
0.184032 0.000000 0.621998
0.183835 0.000000 0.687843
0.183638 0.000000 0.753469
0.183442 0.000000 0.818897
0.183247 0.000000 0.884143
0.183052 0.000000 0.949221
0.182857 0.000000 1.000000
0.183969 0.061711 0.000000
0.183936 0.061679 0.007127
0.183719 0.061462 0.079616
0.183510 0.061252 0.149551
0.183304 0.061046 0.218348
0.183100 0.060842 0.286397
0.182898 0.060640 0.353888
0.182697 0.060439 0.420935
0.182497 0.060240 0.487614
0.182298 0.060041 0.553977
0.182100 0.059843 0.620066
0.181903 0.059646 0.685911
0.181706 0.059449 0.751537
0.181510 0.059253 0.816965
0.181315 0.059057 0.882211
0.181120 0.058862 0.947289
0.180925 0.058668 1.000000
0.181881 0.130186 0.000000
0.181849 0.130154 0.005039
0.181631 0.129937 0.077528
0.181422 0.129727 0.147463
0.181216 0.129521 0.216260
0.181012 0.129317 0.284309
0.180810 0.129115 0.351800
0.180609 0.128914 0.418847
0.180409 0.128714 0.485526
0.180210 0.128515 0.551889
0.180012 0.128317 0.617978
0.179815 0.128120 0.683823
0.179618 0.127924 0.749449
0.179422 0.127727 0.814877
0.179227 0.127532 0.880123
0.179032 0.127337 0.945201
0.178837 0.127143 1.000000
0.179832 0.197380 0.000000
0.179800 0.197348 0.002990
0.179583 0.197131 0.075479
0.179373 0.196921 0.145414
0.179167 0.196715 0.214211
0.178963 0.196511 0.282260
0.178761 0.196309 0.349751
0.178560 0.196108 0.416798
0.178360 0.195908 0.483477
0.178161 0.195710 0.549841
0.177963 0.195512 0.615929
0.177766 0.195314 0.681774
0.177569 0.195118 0.747400
0.177373 0.194922 0.812828
0.177178 0.194726 0.878074
0.176983 0.194531 0.943153
0.176788 0.194337 1.000000
0.177807 0.263777 0.000000
0.177775 0.263744 0.000966
0.177558 0.263527 0.073454
0.177348 0.263318 0.143390
0.177142 0.263112 0.212187
0.176938 0.262908 0.280235
0.176736 0.262706 0.347727
0.176535 0.262505 0.414774
0.176336 0.262305 0.481452
0.176137 0.262106 0.547816
0.175939 0.261908 0.613905
0.175741 0.261711 0.679749
0.175545 0.261514 0.745376
0.175349 0.261318 0.810803
0.175153 0.261123 0.876049
0.174958 0.260928 0.941128
0.174764 0.260733 1.000000
0.175800 0.329593 0.000000
0.175768 0.329561 0.000000
0.175551 0.329343 0.071447
0.175342 0.329134 0.141383
0.175135 0.328928 0.210180
0.174932 0.328724 0.278229
0.174729 0.328522 0.345720
0.174529 0.328321 0.412767
0.174329 0.328121 0.479446
0.174130 0.327922 0.545809
0.173932 0.327724 0.611898
0.173735 0.327527 0.677743
0.173538 0.327330 0.743369
0.173342 0.327134 0.808796
0.173147 0.326939 0.874042
0.172952 0.326744 0.939121
0.172757 0.326549 1.000000
0.173807 0.394953 0.000000
0.173775 0.394921 0.000000
0.173558 0.394704 0.069454
0.173349 0.394494 0.139390
0.173143 0.394288 0.208187
0.172939 0.394084 0.276236
0.172736 0.393882 0.343727
0.172536 0.393681 0.410774
0.172336 0.393481 0.477453
0.172137 0.393283 0.543816
0.171939 0.393085 0.609905
0.171742 0.392887 0.675750
0.171545 0.392691 0.741376
0.171349 0.392495 0.806803
0.171154 0.392299 0.872049
0.170959 0.392104 0.937128
0.170764 0.391910 1.000000
0.171826 0.459938 0.000000
0.171794 0.459906 0.000000
0.171577 0.459689 0.067473
0.171367 0.459479 0.137408
0.171161 0.459273 0.206205
0.170957 0.459069 0.274254
0.170755 0.458867 0.341745
0.170554 0.458666 0.408793
0.170354 0.458467 0.475471
0.170155 0.458268 0.541835
0.169957 0.458070 0.607923
0.169760 0.457873 0.673768
0.169564 0.457676 0.739394
0.169368 0.457480 0.804822
0.169172 0.457284 0.870068
0.168977 0.457089 0.935147
0.168783 0.456895 1.000000
0.169854 0.524605 0.000000
0.169822 0.524573 0.000000
0.169605 0.524356 0.065501
0.169395 0.524146 0.135437
0.169189 0.523940 0.204233
0.168985 0.523736 0.272282
0.168783 0.523534 0.339774
0.168582 0.523333 0.406821
0.168382 0.523133 0.473499
0.168184 0.522935 0.539863
0.167986 0.522737 0.605951
0.167788 0.522539 0.671796
0.167592 0.522343 0.737422
0.167396 0.522147 0.802850
0.167200 0.521951 0.868096
0.167005 0.521756 0.933175
0.166811 0.521562 0.998099
0.167891 0.588995 0.000000
0.167859 0.588963 0.000000
0.167641 0.588746 0.063538
0.167432 0.588536 0.133473
0.167226 0.588330 0.202270
0.167022 0.588126 0.270319
0.166820 0.587924 0.337810
0.166619 0.587723 0.404857
0.166419 0.587524 0.471536
0.166220 0.587325 0.537899
0.166022 0.587127 0.603988
0.165825 0.586930 0.669833
0.165628 0.586733 0.735459
0.165432 0.586537 0.800887
0.165237 0.586341 0.866133
0.165042 0.586146 0.931212
0.164847 0.585952 0.996135
0.165935 0.653141 0.000000
0.165903 0.653109 0.000000
0.165686 0.652892 0.061582
0.165476 0.652682 0.131517
0.165270 0.652476 0.200314
0.165066 0.652272 0.268363
0.164864 0.652070 0.335854
0.164663 0.651869 0.402902
0.164463 0.651670 0.469580
0.164264 0.651471 0.535944
0.164066 0.651273 0.602032
0.163869 0.651075 0.667877
0.163672 0.650879 0.733503
0.163476 0.650683 0.798931
0.163281 0.650487 0.864177
0.163086 0.650292 0.929256
0.162891 0.650098 0.994179
0.163986 0.717068 0.000000
0.163953 0.717036 0.000000
0.163736 0.716819 0.059633
0.163527 0.716610 0.129568
0.163321 0.716404 0.198365
0.163117 0.716200 0.266414
0.162915 0.715997 0.333905
0.162714 0.715797 0.400952
0.162514 0.715597 0.467631
0.162315 0.715398 0.533994
0.162117 0.715200 0.600083
0.161920 0.715003 0.665928
0.161723 0.714806 0.731554
0.161527 0.714610 0.796982
0.161332 0.714415 0.862228
0.161137 0.714220 0.927306
0.160942 0.714025 0.992230
0.162042 0.780798 0.000000
0.162010 0.780766 0.000000
0.161793 0.780549 0.057689
0.161584 0.780339 0.127625
0.161377 0.780133 0.196422
0.161174 0.779929 0.264470
0.160971 0.779727 0.331962
0.160770 0.779526 0.399009
0.160571 0.779326 0.465688
0.160372 0.779127 0.532051
0.160174 0.778929 0.598140
0.159977 0.778732 0.663985
0.159780 0.778536 0.729611
0.159584 0.778339 0.795038
0.159388 0.778144 0.860284
0.159194 0.777949 0.925363
0.158999 0.777755 0.990287
0.160105 0.844347 0.000000
0.160073 0.844315 0.000000
0.159855 0.844097 0.055752
0.159646 0.843888 0.125687
0.159440 0.843682 0.194484
0.159236 0.843478 0.262533
0.159034 0.843276 0.330024
0.158833 0.843075 0.397071
0.158633 0.842875 0.463750
0.158434 0.842676 0.530113
0.158236 0.842478 0.596202
0.158039 0.842281 0.662047
0.157842 0.842084 0.727673
0.157646 0.841888 0.793101
0.157451 0.841693 0.858347
0.157256 0.841498 0.923425
0.157061 0.841303 0.988349
0.158172 0.907729 0.000000
0.158140 0.907697 0.000000
0.157923 0.907480 0.053819
0.157713 0.907270 0.123754
0.157507 0.907064 0.192551
0.157303 0.906860 0.260600
0.157101 0.906658 0.328091
0.156900 0.906457 0.395139
0.156700 0.906258 0.461817
0.156502 0.906059 0.528181
0.156304 0.905861 0.594269
0.156106 0.905664 0.660114
0.155910 0.905467 0.725740
0.155714 0.905271 0.791168
0.155518 0.905075 0.856414
0.155323 0.904880 0.921493
0.155129 0.904686 0.986417
0.156244 0.970958 0.000000
0.156212 0.970926 0.000000
0.155995 0.970709 0.051891
0.155785 0.970499 0.121826
0.155579 0.970293 0.190623
0.155375 0.970089 0.258672
0.155173 0.969887 0.326163
0.154972 0.969686 0.393211
0.154772 0.969487 0.459889
0.154574 0.969288 0.526253
0.154376 0.969090 0.592341
0.154178 0.968892 0.658186
0.153982 0.968696 0.723812
0.153786 0.968500 0.789240
0.153590 0.968304 0.854486
0.153395 0.968109 0.919565
0.153201 0.967915 0.984489
0.155034 1.000000 0.000000
0.155002 1.000000 0.000000
0.154785 1.000000 0.050681
0.154575 1.000000 0.120616
0.154369 1.000000 0.189413
0.154165 1.000000 0.257462
0.153963 1.000000 0.324953
0.153762 1.000000 0.392001
0.153562 1.000000 0.458679
0.153364 1.000000 0.525043
0.153166 1.000000 0.591131
0.152968 1.000000 0.656976
0.152772 1.000000 0.722602
0.152576 1.000000 0.788030
0.152380 1.000000 0.853276
0.152185 1.000000 0.918355
0.151991 1.000000 0.983279
0.253900 0.000000 0.000000
0.253868 0.000000 0.008456
0.253651 0.000000 0.080944
0.253442 0.000000 0.150880
0.253236 0.000000 0.219676
0.253032 0.000000 0.287725
0.252829 0.000000 0.355217
0.252629 0.000000 0.422264
0.252429 0.000000 0.488942
0.252230 0.000000 0.555306
0.252032 0.000000 0.621394
0.251835 0.000000 0.687239
0.251638 0.000000 0.752865
0.251442 0.000000 0.818293
0.251247 0.000000 0.883539
0.251052 0.000000 0.948618
0.250857 0.000000 1.000000
0.251968 0.061108 0.000000
