skills/editops-orchestrator/assets/grade/luts/warm_skin_v12.cube
TITLE "warm_skin_v12"
LUT_3D_SIZE 17
DOMAIN_MIN 0.0 0.0 0.0
DOMAIN_MAX 1.0 1.0 1.0
0.037401 0.000000 0.000000
0.037360 0.000000 0.021767
0.037232 0.000000 0.091026
0.037106 0.000000 0.158650
0.036982 0.000000 0.225446
0.036859 0.000000 0.291682
0.036737 0.000000 0.357494
0.036616 0.000000 0.422965
0.036495 0.000000 0.488151
0.036375 0.000000 0.553093
0.036255 0.000000 0.617820
0.036135 0.000000 0.682356
0.036015 0.000000 0.746721
0.035896 0.000000 0.810930
0.035778 0.000000 0.874997
0.035659 0.000000 0.938931
0.035541 0.000000 1.000000
0.036215 0.063275 0.000000
0.036174 0.063234 0.020581
0.036046 0.063105 0.089840
0.035920 0.062980 0.157464
0.035796 0.062856 0.224260
0.035674 0.062733 0.290496
0.035552 0.062611 0.356308
0.035430 0.062490 0.421779
0.035309 0.062369 0.486965
0.035189 0.062248 0.551907
0.035069 0.062128 0.616634
0.034949 0.062009 0.681170
0.034830 0.061889 0.745535
0.034711 0.061770 0.809745
0.034592 0.061651 0.873811
0.034473 0.061533 0.937745
0.034355 0.061415 1.000000
0.034964 0.130242 0.000000
0.034923 0.130202 0.019330
0.034795 0.130073 0.088589
0.034669 0.129948 0.156213
0.034545 0.129824 0.223009
0.034423 0.129701 0.289245
0.034300 0.129579 0.355057
0.034179 0.129458 0.420528
0.034058 0.129337 0.485714
0.033938 0.129216 0.550656
0.033818 0.129096 0.615383
0.033698 0.128976 0.679919
0.033579 0.128857 0.744284
0.033459 0.128738 0.808494
0.033341 0.128619 0.872560
0.033222 0.128501 0.936494
0.033104 0.128382 1.000000
0.033732 0.196209 0.000000
0.033691 0.196168 0.018098
0.033562 0.196040 0.087357
0.033437 0.195914 0.154980
0.033313 0.195790 0.221777
0.033190 0.195667 0.288013
0.033068 0.195545 0.353825
0.032947 0.195424 0.419296
0.032826 0.195303 0.484482
0.032705 0.195183 0.549423
0.032585 0.195062 0.614150
0.032466 0.194943 0.678687
0.032346 0.194823 0.743052
0.032227 0.194704 0.807261
0.032108 0.194585 0.871328
0.031990 0.194467 0.935262
0.031871 0.194349 0.999074
0.032511 0.261545 0.000000
0.032470 0.261504 0.016877
0.032342 0.261376 0.086136
0.032216 0.261250 0.153760
0.032093 0.261126 0.220556
0.031970 0.261004 0.286792
0.031848 0.260882 0.352604
0.031726 0.260760 0.418075
0.031605 0.260639 0.483261
0.031485 0.260519 0.548203
0.031365 0.260399 0.612930
0.031245 0.260279 0.677466
0.031126 0.260160 0.741832
0.031007 0.260041 0.806041
0.030888 0.259922 0.870107
0.030769 0.259803 0.934041
0.030651 0.259685 0.997854
0.031299 0.326421 0.000000
0.031258 0.326380 0.015665
0.031130 0.326251 0.084924
0.031004 0.326126 0.152548
0.030881 0.326002 0.219344
0.030758 0.325879 0.285580
0.030636 0.325757 0.351392
0.030514 0.325636 0.416863
0.030393 0.325515 0.482049
0.030273 0.325394 0.546991
0.030153 0.325274 0.611718
0.030033 0.325155 0.676255
0.029914 0.325035 0.740620
0.029795 0.324916 0.804829
0.029676 0.324797 0.868895
0.029557 0.324679 0.932829
0.029439 0.324560 0.996642
0.030094 0.390933 0.000000
0.030053 0.390892 0.014460
0.029925 0.390764 0.083719
0.029799 0.390639 0.151343
0.029675 0.390515 0.218139
0.029553 0.390392 0.284375
0.029431 0.390270 0.350187
0.029309 0.390148 0.415658
0.029188 0.390027 0.480844
0.029068 0.389907 0.545786
0.028948 0.389787 0.610513
0.028828 0.389667 0.675049
0.028709 0.389548 0.739414
0.028590 0.389429 0.803624
0.028471 0.389310 0.867690
0.028352 0.389191 0.931624
0.028234 0.389073 0.995436
0.028894 0.455146 0.000000
0.028854 0.455105 0.013261
0.028725 0.454977 0.082520
0.028600 0.454852 0.150143
0.028476 0.454728 0.216940
0.028353 0.454605 0.283176
0.028231 0.454483 0.348988
0.028110 0.454361 0.414459
0.027989 0.454240 0.479645
0.027868 0.454120 0.544586
0.027748 0.454000 0.609313
0.027628 0.453880 0.673850
0.027509 0.453761 0.738215
0.027390 0.453642 0.802424
0.027271 0.453523 0.866490
0.027153 0.453404 0.930425
0.027034 0.453286 0.994237
0.027700 0.519105 0.000000
0.027659 0.519064 0.012066
0.027530 0.518935 0.081325
0.027405 0.518810 0.148948
0.027281 0.518686 0.215745
0.027158 0.518563 0.281981
0.027036 0.518441 0.347793
0.026915 0.518320 0.413264
0.026794 0.518199 0.478450
0.026673 0.518078 0.543391
0.026553 0.517958 0.608118
0.026434 0.517839 0.672655
0.026314 0.517719 0.737020
0.026195 0.517600 0.801229
0.026076 0.517481 0.865295
0.025958 0.517363 0.929230
0.025839 0.517244 0.993042
0.026509 0.582842 0.000000
0.026468 0.582801 0.010875
0.026340 0.582672 0.080134
0.026214 0.582547 0.147758
0.026090 0.582423 0.214554
0.025968 0.582300 0.280790
0.025845 0.582178 0.346602
0.025724 0.582057 0.412073
0.025603 0.581936 0.477259
0.025483 0.581815 0.542201
0.025363 0.581695 0.606928
0.025243 0.581576 0.671464
0.025124 0.581456 0.735829
0.025004 0.581337 0.800039
0.024886 0.581218 0.864105
0.024767 0.581100 0.928039
0.024649 0.580981 0.991851
0.025322 0.646383 0.000000
0.025281 0.646342 0.009688
0.025153 0.646214 0.078947
0.025027 0.646088 0.146571
0.024903 0.645964 0.213367
0.024781 0.645841 0.279603
0.024658 0.645719 0.345415
0.024537 0.645598 0.410886
0.024416 0.645477 0.476072
0.024296 0.645357 0.541014
0.024176 0.645236 0.605741
0.024056 0.645117 0.670277
0.023937 0.644997 0.734642
0.023817 0.644878 0.798851
0.023699 0.644759 0.862918
0.023580 0.644641 0.926852
0.023462 0.644523 0.990664
0.024138 0.709748 0.000000
0.024097 0.709708 0.008504
0.023969 0.709579 0.077763
0.023844 0.709454 0.145387
0.023720 0.709330 0.212183
0.023597 0.709207 0.278419
0.023475 0.709085 0.344231
0.023353 0.708963 0.409702
0.023232 0.708843 0.474888
0.023112 0.708722 0.539830
0.022992 0.708602 0.604557
0.022872 0.708482 0.669094
0.022753 0.708363 0.733459
0.022634 0.708244 0.797668
0.022515 0.708125 0.861734
0.022396 0.708006 0.925669
0.022278 0.707888 0.989481
0.022957 0.772955 0.000000
0.022917 0.772914 0.007324
0.022788 0.772786 0.076583
0.022663 0.772660 0.144206
0.022539 0.772536 0.211003
0.022416 0.772414 0.277239
0.022294 0.772292 0.343051
0.022173 0.772170 0.408522
0.022052 0.772049 0.473708
0.021931 0.771929 0.538649
0.021811 0.771809 0.603376
0.021691 0.771689 0.667913
0.021572 0.771570 0.732278
0.021453 0.771451 0.796487
0.021334 0.771332 0.860553
0.021216 0.771213 0.924488
0.021097 0.771095 0.988300
0.021779 0.836016 0.000000
0.021739 0.835976 0.006145
0.021610 0.835847 0.075405
0.021485 0.835722 0.143028
0.021361 0.835598 0.209824
0.021238 0.835475 0.276061
0.021116 0.835353 0.341873
0.020994 0.835231 0.407344
0.020874 0.835111 0.472530
0.020753 0.834990 0.537471
0.020633 0.834870 0.602198
0.020513 0.834750 0.666735
0.020394 0.834631 0.731100
0.020275 0.834512 0.795309
0.020156 0.834393 0.859375
0.020037 0.834275 0.923310
0.019919 0.834156 0.987122
0.020604 0.898944 0.000000
0.020563 0.898903 0.004970
0.020435 0.898775 0.074229
0.020309 0.898649 0.141853
0.020185 0.898526 0.208649
0.020062 0.898403 0.274885
0.019940 0.898281 0.340697
0.019819 0.898159 0.406168
0.019698 0.898038 0.471354
0.019578 0.897918 0.536296
0.019458 0.897798 0.601023
0.019338 0.897678 0.665559
0.019218 0.897559 0.729924
0.019099 0.897440 0.794133
0.018981 0.897321 0.858200
0.018862 0.897202 0.922134
0.018744 0.897084 0.985946
0.019431 0.961748 0.000000
0.019390 0.961707 0.003797
0.019261 0.961579 0.073056
0.019136 0.961453 0.140679
0.019012 0.961330 0.207476
0.018889 0.961207 0.273712
0.018767 0.961085 0.339524
0.018646 0.960963 0.404995
0.018525 0.960842 0.470181
0.018404 0.960722 0.535122
0.018284 0.960602 0.599849
0.018165 0.960482 0.664386
0.018045 0.960363 0.728751
0.017926 0.960244 0.792960
0.017807 0.960125 0.857026
0.017689 0.960006 0.920961
0.017570 0.959888 0.984773
0.018580 1.000000 0.000000
0.018539 1.000000 0.002946
0.018411 1.000000 0.072205
0.018285 1.000000 0.139829
0.018161 1.000000 0.206625
0.018038 1.000000 0.272861
0.017916 1.000000 0.338673
0.017795 1.000000 0.404144
0.017674 1.000000 0.469330
0.017554 1.000000 0.534272
0.017434 1.000000 0.598999
0.017314 1.000000 0.663535
0.017194 1.000000 0.727900
0.017075 1.000000 0.792109
0.016957 1.000000 0.856176
0.016838 1.000000 0.920110
0.016720 1.000000 0.983922
0.105891 0.000000 0.000000
0.105850 0.000000 0.021392
0.105722 0.000000 0.090651
0.105596 0.000000 0.158274
0.105473 0.000000 0.225071
0.105350 0.000000 0.291307
0.105228 0.000000 0.357119
0.105106 0.000000 0.422590
0.104985 0.000000 0.487776
0.104865 0.000000 0.552717
0.104745 0.000000 0.617444
0.104625 0.000000 0.681981
0.104506 0.000000 0.746346
0.104387 0.000000 0.810555
0.104268 0.000000 0.874621
0.104149 0.000000 0.938556
0.104031 0.000000 1.000000
0.104705 0.062899 0.000000
0.104664 0.062859 0.020206
0.104536 0.062730 0.089465
0.104411 0.062605 0.157088
0.104287 0.062481 0.223885
0.104164 0.062358 0.290121
0.104042 0.062236 0.355933
0.103920 0.062114 0.421404
0.103799 0.061994 0.486590
0.103679 0.061873 0.551531
0.103559 0.061753 0.616258
0.103439 0.061633 0.680795
0.103320 0.061514 0.745160
0.103201 0.061395 0.809369
0.103082 0.061276 0.873435
0.102963 0.061157 0.937370
0.102845 0.061039 1.000000
0.103454 0.129867 0.000000
0.103413 0.129826 0.018955
0.103285 0.129698 0.088214
0.103160 0.129572 0.155837
0.103036 0.129448 0.222634
0.102913 0.129326 0.288870
0.102791 0.129204 0.354682
0.102669 0.129082 0.420153
0.102548 0.128961 0.485339
0.102428 0.128841 0.550280
0.102308 0.128721 0.615007
0.102188 0.128601 0.679544
0.102069 0.128482 0.743909
0.101950 0.128363 0.808118
0.101831 0.128244 0.872184
0.101712 0.128125 0.936119
0.101594 0.128007 0.999931
0.102222 0.195833 0.000000
0.102181 0.195793 0.017722
0.102053 0.195664 0.086981
0.101927 0.195539 0.154605
0.101803 0.195415 0.221401
0.101680 0.195292 0.287637
0.101558 0.195170 0.353449
0.101437 0.195048 0.418920
0.101316 0.194928 0.484107
0.101196 0.194807 0.549048
0.101076 0.194687 0.613775
0.100956 0.194567 0.678312
0.100836 0.194448 0.742677
0.100717 0.194329 0.806886
0.100599 0.194210 0.870952
0.100480 0.194091 0.934887
0.100362 0.193973 0.998699
0.101001 0.261170 0.000000
0.100961 0.261129 0.016502
0.100832 0.261000 0.085761
0.100707 0.260875 0.153384
0.100583 0.260751 0.220181
0.100460 0.260628 0.286417
0.100338 0.260506 0.352229
0.100216 0.260385 0.417700
0.100096 0.260264 0.482886
0.099975 0.260143 0.547827
0.099855 0.260023 0.612554
0.099735 0.259904 0.677091
0.099616 0.259784 0.741456
0.099497 0.259665 0.805665
0.099378 0.259546 0.869732
0.099259 0.259428 0.933666
0.099141 0.259309 0.997478
0.099789 0.326045 0.000000
0.099749 0.326004 0.015290
0.099620 0.325876 0.084549
0.099495 0.325751 0.152172
0.099371 0.325627 0.218969
0.099248 0.325504 0.285205
0.099126 0.325382 0.351017
0.099004 0.325260 0.416488
0.098884 0.325139 0.481674
0.098763 0.325019 0.546615
0.098643 0.324899 0.611343
0.098523 0.324779 0.675879
0.098404 0.324660 0.740244
0.098285 0.324541 0.804453
0.098166 0.324422 0.868520
0.098047 0.324303 0.932454
0.097929 0.324185 0.996266
0.098584 0.390558 0.000000
0.098543 0.390517 0.014085
0.098415 0.390389 0.083344
0.098290 0.390263 0.150967
0.098166 0.390139 0.217764
0.098043 0.390016 0.284000
0.097921 0.389894 0.349812
0.097799 0.389773 0.415283
0.097678 0.389652 0.480469
0.097558 0.389532 0.545410
0.097438 0.389411 0.610137
0.097318 0.389292 0.674674
0.097199 0.389172 0.739039
0.097080 0.389053 0.803248
0.096961 0.388934 0.867314
0.096842 0.388816 0.931249
0.096724 0.388698 0.995061
0.097385 0.454771 0.000000
0.097344 0.454730 0.012885
0.097215 0.454602 0.082144
0.097090 0.454476 0.149768
0.096966 0.454352 0.216564
0.096843 0.454229 0.282800
0.096721 0.454107 0.348612
0.096600 0.453986 0.414083
0.096479 0.453865 0.479269
0.096358 0.453745 0.544211
0.096238 0.453625 0.608938
0.096119 0.453505 0.673474
0.095999 0.453385 0.737839
0.095880 0.453266 0.802049
0.095761 0.453148 0.866115
0.095643 0.453029 0.930049
0.095524 0.452911 0.993862
0.096190 0.518729 0.000000
0.096149 0.518689 0.011690
0.096021 0.518560 0.080949
0.095895 0.518435 0.148573
0.095771 0.518311 0.215369
0.095648 0.518188 0.281605
0.095526 0.518066 0.347417
0.095405 0.517944 0.412888
0.095284 0.517823 0.478075
0.095164 0.517703 0.543016
0.095044 0.517583 0.607743
0.094924 0.517463 0.672280
0.094804 0.517344 0.736645
0.094685 0.517225 0.800854
0.094567 0.517106 0.864920
0.094448 0.516987 0.928855
0.094330 0.516869 0.992667
0.094999 0.582466 0.000000
0.094958 0.582425 0.010500
0.094830 0.582297 0.079759
0.094704 0.582172 0.147382
0.094581 0.582048 0.214179
0.094458 0.581925 0.280415
0.094336 0.581803 0.346227
0.094214 0.581681 0.411698
0.094093 0.581560 0.476884
0.093973 0.581440 0.541825
0.093853 0.581320 0.606552
0.093733 0.581200 0.671089
0.093614 0.581081 0.735454
0.093495 0.580962 0.799663
0.093376 0.580843 0.863729
0.093257 0.580724 0.927664
0.093139 0.580606 0.991476
0.093812 0.646007 0.000000
0.093771 0.645967 0.009313
0.093643 0.645838 0.078572
0.093517 0.645713 0.146195
0.093394 0.645589 0.212992
0.093271 0.645466 0.279228
0.093149 0.645344 0.345040
0.093027 0.645222 0.410511
0.092906 0.645102 0.475697
0.092786 0.644981 0.540638
0.092666 0.644861 0.605365
0.092546 0.644741 0.669902
0.092427 0.644622 0.734267
0.092308 0.644503 0.798476
0.092189 0.644384 0.862542
0.092070 0.644265 0.926477
0.091952 0.644147 0.990289
0.092628 0.709373 0.000000
0.092588 0.709332 0.008129
0.092459 0.709204 0.077388
0.092334 0.709078 0.145011
0.092210 0.708954 0.211808
0.092087 0.708832 0.278044
0.091965 0.708709 0.343856
0.091843 0.708588 0.409327
0.091723 0.708467 0.474513
0.091602 0.708347 0.539454
0.091482 0.708227 0.604182
0.091362 0.708107 0.668718
0.091243 0.707988 0.733083
0.091124 0.707868 0.797292
0.091005 0.707750 0.861359
0.090887 0.707631 0.925293
0.090768 0.707513 0.989105
0.091448 0.772580 0.000000
0.091407 0.772539 0.006948
0.091278 0.772410 0.076207
0.091153 0.772285 0.143831
0.091029 0.772161 0.210627
0.090906 0.772038 0.276863
0.090784 0.771916 0.342675
0.090663 0.771795 0.408146
0.090542 0.771674 0.473332
0.090421 0.771553 0.538274
0.090301 0.771433 0.603001
0.090182 0.771314 0.667537
0.090062 0.771194 0.731902
0.089943 0.771075 0.796112
0.089824 0.770956 0.860178
0.089706 0.770838 0.924112
0.089587 0.770719 0.987925
0.090270 0.835641 0.000000
0.090229 0.835600 0.005770
0.090100 0.835472 0.075029
0.089975 0.835346 0.142653
0.089851 0.835222 0.209449
0.089728 0.835100 0.275685
0.089606 0.834978 0.341497
0.089485 0.834856 0.406968
0.089364 0.834735 0.472154
0.089243 0.834615 0.537096
0.089123 0.834495 0.601823
0.089004 0.834375 0.666359
0.088884 0.834256 0.730724
0.088765 0.834137 0.794934
0.088646 0.834018 0.859000
0.088528 0.833899 0.922934
0.088409 0.833781 0.986746
0.089094 0.898569 0.000000
0.089053 0.898528 0.004594
0.088925 0.898399 0.073854
0.088799 0.898274 0.141477
0.088675 0.898150 0.208274
0.088553 0.898027 0.274510
0.088431 0.897905 0.340322
0.088309 0.897784 0.405793
0.088188 0.897663 0.470979
0.088068 0.897542 0.535920
0.087948 0.897422 0.600647
0.087828 0.897303 0.665184
0.087709 0.897183 0.729549
0.087590 0.897064 0.793758
0.087471 0.896945 0.857824
0.087352 0.896827 0.921759
0.087234 0.896708 0.985571
0.087921 0.961373 0.000000
0.087880 0.961332 0.003421
0.087752 0.961203 0.072680
0.087626 0.961078 0.140304
0.087502 0.960954 0.207100
0.087379 0.960831 0.273336
0.087257 0.960709 0.339148
0.087136 0.960588 0.404619
0.087015 0.960467 0.469805
0.086895 0.960346 0.534747
0.086774 0.960226 0.599474
0.086655 0.960107 0.664011
0.086535 0.959987 0.728376
0.086416 0.959868 0.792585
0.086297 0.959749 0.856651
0.086179 0.959631 0.920586
0.086061 0.959512 0.984398
0.087070 1.000000 0.000000
0.087029 1.000000 0.002570
0.086901 1.000000 0.071830
0.086775 1.000000 0.139453
0.086651 1.000000 0.206250
0.086529 1.000000 0.272486
0.086407 1.000000 0.338298
0.086285 1.000000 0.403769
0.086164 1.000000 0.468955
0.086044 1.000000 0.533896
0.085924 1.000000 0.598623
0.085804 1.000000 0.663160
0.085685 1.000000 0.727525
0.085566 1.000000 0.791734
0.085447 1.000000 0.855800
0.085328 1.000000 0.919735
0.085210 1.000000 0.983547
0.173052 0.000000 0.000000
0.173011 0.000000 0.021023
0.172883 0.000000 0.090283
0.172758 0.000000 0.157906
0.172634 0.000000 0.224702
0.172511 0.000000 0.290939
0.172389 0.000000 0.356751
0.172267 0.000000 0.422222
0.172146 0.000000 0.487408
0.172026 0.000000 0.552349
0.171906 0.000000 0.617076
0.171786 0.000000 0.681613
0.171667 0.000000 0.745978
0.171548 0.000000 0.810187
0.171429 0.000000 0.874253
0.171310 0.000000 0.938188
0.171192 0.000000 1.000000
0.171866 0.062531 0.000000
0.171826 0.062490 0.019838
0.171697 0.062362 0.089097
0.171572 0.062237 0.156720
0.171448 0.062113 0.223517
0.171325 0.061990 0.289753
0.171203 0.061868 0.355565
0.171081 0.061746 0.421036
0.170961 0.061625 0.486222
0.170840 0.061505 0.551163
0.170720 0.061385 0.615890
0.170600 0.061265 0.680427
0.170481 0.061146 0.744792
0.170362 0.061027 0.809001
0.170243 0.060908 0.873067
0.170125 0.060789 0.937002
0.170006 0.060671 1.000000
0.170615 0.129499 0.000000
0.170575 0.129458 0.018587
0.170446 0.129330 0.087846
0.170321 0.129204 0.155469
0.170197 0.129080 0.222266
0.170074 0.128957 0.288502
0.169952 0.128835 0.354314
0.169830 0.128714 0.419785
0.169710 0.128593 0.484971
0.169589 0.128473 0.549912
0.169469 0.128353 0.614639
0.169349 0.128233 0.679176
0.169230 0.128114 0.743541
0.169111 0.127994 0.807750
0.168992 0.127876 0.871816
0.168873 0.127757 0.935751
0.168755 0.127639 0.999563
0.169383 0.195465 0.000000
0.169342 0.195424 0.017354
0.169214 0.195296 0.086613
0.169088 0.195171 0.154237
0.168964 0.195047 0.221033
0.168842 0.194924 0.287269
0.168720 0.194802 0.353081
0.168598 0.194680 0.418552
0.168477 0.194559 0.483738
0.168357 0.194439 0.548680
0.168237 0.194319 0.613407
0.168117 0.194199 0.677943
0.167998 0.194080 0.742309
0.167879 0.193961 0.806518
0.167760 0.193842 0.870584
0.167641 0.193723 0.934518
0.167523 0.193605 0.998331
0.168162 0.260801 0.000000
0.168122 0.260761 0.016134
0.167993 0.260632 0.085393
0.167868 0.260507 0.153016
0.167744 0.260383 0.219813
0.167621 0.260260 0.286049
0.167499 0.260138 0.351861
0.167378 0.260017 0.417332
0.167257 0.259896 0.482518
0.167136 0.259775 0.547459
0.167016 0.259655 0.612186
0.166897 0.259536 0.676723
0.166777 0.259416 0.741088
0.166658 0.259297 0.805297
0.166539 0.259178 0.869363
0.166421 0.259060 0.933298
0.166302 0.258941 0.997110
0.166951 0.325677 0.000000
0.166910 0.325636 0.014922
0.166781 0.325508 0.084181
0.166656 0.325382 0.151804
0.166532 0.325259 0.218601
0.166409 0.325136 0.284837
0.166287 0.325014 0.350649
0.166166 0.324892 0.416120
0.166045 0.324771 0.481306
0.165924 0.324651 0.546247
0.165804 0.324531 0.610974
0.165685 0.324411 0.675511
0.165565 0.324292 0.739876
0.165446 0.324173 0.804085
0.165327 0.324054 0.868151
0.165209 0.323935 0.932086
0.165090 0.323817 0.995898
0.165745 0.390190 0.000000
0.165705 0.390149 0.013717
0.165576 0.390020 0.082976
0.165451 0.389895 0.150599
0.165327 0.389771 0.217396
0.165204 0.389648 0.283632
0.165082 0.389526 0.349444
0.164960 0.389405 0.414915
0.164840 0.389284 0.480101
0.164719 0.389163 0.545042
0.164599 0.389043 0.609769
0.164479 0.388924 0.674306
0.164360 0.388804 0.738671
0.164241 0.388685 0.802880
0.164122 0.388566 0.866946
0.164004 0.388448 0.930881
0.163885 0.388329 0.994693
0.164546 0.454403 0.000000
0.164505 0.454362 0.012517
0.164377 0.454234 0.081776
0.164251 0.454108 0.149400
0.164127 0.453984 0.216196
0.164004 0.453861 0.282432
0.163882 0.453739 0.348244
0.163761 0.453618 0.413715
0.163640 0.453497 0.478901
0.163520 0.453377 0.543843
0.163400 0.453256 0.608570
0.163280 0.453137 0.673106
0.163160 0.453017 0.737471
0.163041 0.452898 0.801680
0.162923 0.452779 0.865747
0.162804 0.452661 0.929681
0.162686 0.452543 0.993493
0.163351 0.518361 0.000000
0.163310 0.518320 0.011322
0.163182 0.518192 0.080581
0.163056 0.518067 0.148205
0.162932 0.517943 0.215001
0.162810 0.517820 0.281237
0.162688 0.517698 0.347049
0.162566 0.517576 0.412520
0.162445 0.517455 0.477706
0.162325 0.517335 0.542648
0.162205 0.517215 0.607375
0.162085 0.517095 0.671911
0.161966 0.516976 0.736277
0.161847 0.516857 0.800486
0.161728 0.516738 0.864552
0.161609 0.516619 0.928486
0.161491 0.516501 0.992299
0.162160 0.582098 0.000000
0.162120 0.582057 0.010132
0.161991 0.581929 0.079391
0.161866 0.581803 0.147014
0.161742 0.581680 0.213811
0.161619 0.581557 0.280047
0.161497 0.581435 0.345859
0.161375 0.581313 0.411330
0.161255 0.581192 0.476516
0.161134 0.581072 0.541457
0.161014 0.580952 0.606184
0.160894 0.580832 0.670721
0.160775 0.580713 0.735086
0.160656 0.580594 0.799295
0.160537 0.580475 0.863361
0.160418 0.580356 0.927296
0.160300 0.580238 0.991108
0.160973 0.645639 0.000000
0.160933 0.645598 0.008944
0.160804 0.645470 0.078204
0.160679 0.645345 0.145827
0.160555 0.645221 0.212624
0.160432 0.645098 0.278860
0.160310 0.644976 0.344672
0.160188 0.644854 0.410143
0.160068 0.644733 0.475329
0.159947 0.644613 0.540270
0.159827 0.644493 0.604997
0.159707 0.644373 0.669534
0.159588 0.644254 0.733899
0.159469 0.644135 0.798108
0.159350 0.644016 0.862174
0.159231 0.643897 0.926109
0.159113 0.643779 0.989921
0.159790 0.709005 0.000000
0.159749 0.708964 0.007761
0.159620 0.708836 0.077020
0.159495 0.708710 0.144643
0.159371 0.708586 0.211440
0.159248 0.708463 0.277676
0.159126 0.708341 0.343488
0.159005 0.708220 0.408959
0.158884 0.708099 0.474145
0.158763 0.707979 0.539086
0.158643 0.707859 0.603813
0.158524 0.707739 0.668350
0.158404 0.707619 0.732715
0.158285 0.707500 0.796924
0.158166 0.707382 0.860991
0.158048 0.707263 0.924925
0.157929 0.707145 0.988737
0.158609 0.772211 0.000000
0.158568 0.772171 0.006580
0.158440 0.772042 0.075839
0.158314 0.771917 0.143463
0.158190 0.771793 0.210259
0.158067 0.771670 0.276495
0.157945 0.771548 0.342307
0.157824 0.771427 0.407778
0.157703 0.771306 0.472964
0.157583 0.771185 0.537906
0.157463 0.771065 0.602633
0.157343 0.770945 0.667169
0.157223 0.770826 0.731534
0.157104 0.770707 0.795743
0.156986 0.770588 0.859810
0.156867 0.770470 0.923744
0.156749 0.770351 0.987556
0.157431 0.835273 0.000000
0.157390 0.835232 0.005402
0.157262 0.835104 0.074661
0.157136 0.834978 0.142285
0.157012 0.834854 0.209081
0.156889 0.834731 0.275317
0.156767 0.834609 0.341129
0.156646 0.834488 0.406600
0.156525 0.834367 0.471786
0.156405 0.834247 0.536728
0.156284 0.834127 0.601455
0.156165 0.834007 0.665991
0.156045 0.833887 0.730356
0.155926 0.833768 0.794565
0.155807 0.833650 0.858632
0.155689 0.833531 0.922566
0.155571 0.833413 0.986378
0.156255 0.898201 0.000000
0.156214 0.898160 0.004226
0.156086 0.898031 0.073486
0.155961 0.897906 0.141109
0.155837 0.897782 0.207905
0.155714 0.897659 0.274141
0.155592 0.897537 0.339953
0.155470 0.897416 0.405425
0.155349 0.897295 0.470611
0.155229 0.897174 0.535552
0.155109 0.897054 0.600279
0.154989 0.896935 0.664816
0.154870 0.896815 0.729181
0.154751 0.896696 0.793390
0.154632 0.896577 0.857456
0.154513 0.896459 0.921391
0.154395 0.896340 0.985203
0.155082 0.961004 0.000000
0.155041 0.960964 0.003053
0.154913 0.960835 0.072312
0.154787 0.960710 0.139936
0.154663 0.960586 0.206732
0.154541 0.960463 0.272968
0.154419 0.960341 0.338780
0.154297 0.960220 0.404251
0.154176 0.960099 0.469437
0.154056 0.959978 0.534379
0.153936 0.959858 0.599106
0.153816 0.959739 0.663642
0.153697 0.959619 0.728007
0.153578 0.959500 0.792217
0.153459 0.959381 0.856283
0.153340 0.959263 0.920217
0.153222 0.959144 0.984030
0.154231 1.000000 0.000000
0.154190 1.000000 0.002202
0.154062 1.000000 0.071462
0.153937 1.000000 0.139085
0.153813 1.000000 0.205881
0.153690 1.000000 0.272117
0.153568 1.000000 0.337929
0.153446 1.000000 0.403401
0.153325 1.000000 0.468587
0.153205 1.000000 0.533528
0.153085 1.000000 0.598255
0.152965 1.000000 0.662792
0.152846 1.000000 0.727157
0.152727 1.000000 0.791366
0.152608 1.000000 0.855432
0.152489 1.000000 0.919367
0.152371 1.000000 0.983179
0.239468 0.000000 0.000000
0.239427 0.000000 0.020659
0.239299 0.000000 0.089919
0.239173 0.000000 0.157542
0.239050 0.000000 0.224338
0.238927 0.000000 0.290574
0.238805 0.000000 0.356386
0.238683 0.000000 0.421858
0.238562 0.000000 0.487044
0.238442 0.000000 0.551985
0.238322 0.000000 0.616712
0.238202 0.000000 0.681249
0.238083 0.000000 0.745614
0.237964 0.000000 0.809823
0.237845 0.000000 0.873889
0.237726 0.000000 0.937824
0.237608 0.000000 1.000000
0.238282 0.062167 0.000000
