skills/editops-orchestrator/assets/grade/luts/warm_skin_v17.cube
TITLE "warm_skin_v17"
LUT_3D_SIZE 5
DOMAIN_MIN 0.0 0.0 0.0
DOMAIN_MAX 1.0 1.0 1.0
0.048928 0.000000 0.000000
0.048204 0.000000 0.220464
0.047317 0.000000 0.491396
0.046448 0.000000 0.756667
0.045590 0.000000 1.000000
0.040025 0.265883 0.000000
0.039301 0.265159 0.211560
0.038413 0.264271 0.482493
0.037544 0.263402 0.747763
0.036687 0.262545 1.000000
0.031279 0.527528 0.000000
0.030555 0.526804 0.202814
0.029667 0.525917 0.473747
0.028798 0.525048 0.739017
0.027941 0.524190 1.000000
0.022696 0.784302 0.000000
0.021972 0.783578 0.194231
0.021084 0.782691 0.465164
0.020215 0.781822 0.730434
0.019357 0.780964 0.992276
0.015050 1.000000 0.000000
0.014327 1.000000 0.186586
0.013439 1.000000 0.457518
0.012570 1.000000 0.722789
0.011712 1.000000 0.984630
0.325320 0.000000 0.000000
0.324596 0.000000 0.217781
0.323709 0.000000 0.488713
0.322840 0.000000 0.753983
0.321982 0.000000 1.000000
0.316417 0.263199 0.000000
0.315693 0.262476 0.208877
0.314805 0.261588 0.479809
0.313936 0.260719 0.745080
0.313078 0.259861 1.000000
0.307671 0.524845 0.000000
0.306947 0.524121 0.200131
0.306059 0.523233 0.471063
0.305190 0.522364 0.736334
0.304332 0.521506 0.998175
0.299088 0.781619 0.000000
0.298364 0.780895 0.191548
0.297476 0.780007 0.462480
0.296607 0.779138 0.727751
0.295749 0.778280 0.989592
0.291442 1.000000 0.000000
0.290719 1.000000 0.183903
0.289831 1.000000 0.454835
0.288962 1.000000 0.720105
0.288104 1.000000 0.981947
0.591894 0.000000 0.000000
0.591170 0.000000 0.215193
0.590283 0.000000 0.486125
0.589414 0.000000 0.751395
0.588556 0.000000 1.000000
0.582990 0.260611 0.000000
0.582267 0.259888 0.206289
0.581379 0.259000 0.477221
0.580510 0.258131 0.742492
0.579652 0.257273 1.000000
0.574244 0.522257 0.000000
0.573521 0.521533 0.197543
0.572633 0.520645 0.468475
0.571764 0.519776 0.733746
0.570906 0.518918 0.995587
0.565661 0.779031 0.000000
0.564938 0.778307 0.188960
0.564050 0.777419 0.459892
0.563181 0.776550 0.725163
0.562323 0.775692 0.987004
0.558016 1.000000 0.000000
0.557292 1.000000 0.181315
0.556405 1.000000 0.452247
0.555536 1.000000 0.717517
0.554678 1.000000 0.979359
0.853988 0.000000 0.000000
0.853264 0.000000 0.212648
0.852376 0.000000 0.483580
0.851507 0.000000 0.748851
0.850649 0.000000 1.000000
0.845084 0.258067 0.000000
0.844360 0.257343 0.203745
0.843473 0.256456 0.474677
0.842604 0.255586 0.739947
0.841746 0.254729 1.000000
0.836338 0.519712 0.000000
0.835614 0.518988 0.194999
0.834727 0.518101 0.465931
0.833858 0.517232 0.731201
0.833000 0.516374 0.993043
0.827755 0.776486 0.000000
0.827031 0.775762 0.186415
0.826143 0.774875 0.457348
0.825274 0.774006 0.722618
0.824417 0.773148 0.984460
0.820110 1.000000 0.000000
0.819386 1.000000 0.178770
0.818498 1.000000 0.449703
0.817629 1.000000 0.714973
0.816771 1.000000 0.976815
1.000000 0.000000 0.000000
1.000000 0.000000 0.210868
1.000000 0.000000 0.481801
1.000000 0.000000 0.747071
1.000000 0.000000 1.000000
1.000000 0.256287 0.000000
1.000000 0.255563 0.201965
1.000000 0.254676 0.472897
1.000000 0.253807 0.738168
1.000000 0.252949 1.000000
1.000000 0.517932 0.000000
1.000000 0.517209 0.193219
1.000000 0.516321 0.464151
1.000000 0.515452 0.729422
1.000000 0.514594 0.991263
1.000000 0.774706 0.000000
1.000000 0.773983 0.184636
1.000000 0.773095 0.455568
1.000000 0.772226 0.720838
1.000000 0.771368 0.982680
1.000000 1.000000 0.000000
1.000000 1.000000 0.176990
1.000000 1.000000 0.447923
1.000000 1.000000 0.713193
1.000000 1.000000 0.975035
