skills/editops-orchestrator/assets/grade/luts/warm_skin_v08.cube
TITLE "warm_skin_v08"
LUT_3D_SIZE 9
DOMAIN_MIN 0.0 0.0 0.0
DOMAIN_MAX 1.0 1.0 1.0
0.028866 0.000000 0.000000
0.028799 0.000000 0.098609
0.028711 0.000000 0.228941
0.028624 0.000000 0.357599
0.028537 0.000000 0.485245
0.028451 0.000000 0.612165
0.028366 0.000000 0.738518
0.028280 0.000000 0.864405
0.028195 0.000000 0.989897
0.027994 0.129055 0.000000
0.027927 0.128988 0.097736
0.027839 0.128899 0.228069
0.027751 0.128812 0.356726
0.027665 0.128726 0.484373
0.027579 0.128640 0.611293
0.027493 0.128554 0.737645
0.027408 0.128469 0.863532
0.027323 0.128383 0.989025
0.027122 0.258095 0.000000
0.027055 0.258029 0.096864
0.026967 0.257940 0.227197
0.026879 0.257853 0.355854
0.026793 0.257766 0.483501
0.026707 0.257680 0.610421
0.026621 0.257595 0.736773
0.026536 0.257509 0.862660
0.026451 0.257424 0.988153
0.026260 0.385699 0.000000
0.026193 0.385632 0.096002
0.026104 0.385544 0.226335
0.026017 0.385457 0.354992
0.025931 0.385370 0.482639
0.025845 0.385284 0.609559
0.025759 0.385199 0.735911
0.025674 0.385113 0.861798
0.025588 0.385028 0.987291
0.025404 0.512384 0.000000
0.025337 0.512317 0.095146
0.025248 0.512229 0.225479
0.025161 0.512142 0.354136
0.025075 0.512055 0.481783
0.024989 0.511969 0.608703
0.024903 0.511883 0.735055
0.024817 0.511798 0.860942
0.024732 0.511713 0.986435
0.024552 0.638392 0.000000
0.024485 0.638325 0.094294
0.024397 0.638237 0.224627
0.024310 0.638150 0.353284
0.024223 0.638063 0.480931
0.024137 0.637977 0.607851
0.024051 0.637891 0.734204
0.023966 0.637806 0.860091
0.023881 0.637721 0.985583
0.023704 0.763864 0.000000
0.023637 0.763797 0.093447
0.023549 0.763709 0.223779
0.023462 0.763621 0.352436
0.023375 0.763535 0.480083
0.023289 0.763449 0.607003
0.023203 0.763363 0.733356
0.023118 0.763278 0.859243
0.023033 0.763193 0.984735
0.022859 0.888892 0.000000
0.022793 0.888825 0.092602
0.022704 0.888737 0.222934
0.022617 0.888649 0.351592
0.022530 0.888563 0.479238
0.022444 0.888477 0.606158
0.022359 0.888391 0.732511
0.022273 0.888306 0.858398
0.022188 0.888221 0.983890
0.022091 1.000000 0.000000
0.022024 1.000000 0.091833
0.021936 1.000000 0.222166
0.021848 1.000000 0.350823
0.021762 1.000000 0.478470
0.021676 1.000000 0.605390
0.021590 1.000000 0.731742
0.021505 1.000000 0.857629
0.021420 1.000000 0.983122
0.160753 0.000000 0.000000
0.160686 0.000000 0.098345
0.160597 0.000000 0.228678
0.160510 0.000000 0.357335
0.160424 0.000000 0.484982
0.160338 0.000000 0.611902
0.160252 0.000000 0.738254
0.160167 0.000000 0.864141
0.160081 0.000000 0.989634
0.159880 0.128791 0.000000
0.159813 0.128724 0.097473
0.159725 0.128636 0.227805
0.159638 0.128549 0.356462
0.159551 0.128462 0.484109
0.159465 0.128376 0.611029
0.159379 0.128290 0.737382
0.159294 0.128205 0.863269
0.159209 0.128120 0.988761
0.159008 0.257832 0.000000
0.158941 0.257765 0.096601
0.158853 0.257677 0.226933
0.158766 0.257589 0.355590
0.158679 0.257503 0.483237
0.158593 0.257417 0.610157
0.158507 0.257331 0.736510
0.158422 0.257246 0.862397
0.158337 0.257161 0.987889
0.158146 0.385436 0.000000
0.158079 0.385369 0.095738
0.157991 0.385280 0.226071
0.157903 0.385193 0.354728
0.157817 0.385107 0.482375
0.157731 0.385021 0.609295
0.157645 0.384935 0.735647
0.157560 0.384849 0.861534
0.157475 0.384764 0.987027
0.157290 0.512121 0.000000
0.157223 0.512054 0.094882
0.157135 0.511965 0.225215
0.157047 0.511878 0.353872
0.156961 0.511792 0.481519
0.156875 0.511706 0.608439
0.156789 0.511620 0.734791
0.156704 0.511534 0.860678
0.156619 0.511449 0.986171
0.156438 0.638128 0.000000
0.156372 0.638062 0.094031
0.156283 0.637973 0.224363
0.156196 0.637886 0.353021
0.156109 0.637799 0.480667
0.156023 0.637713 0.607587
0.155938 0.637628 0.733940
0.155852 0.637542 0.859827
0.155767 0.637457 0.985319
0.155591 0.763600 0.000000
0.155524 0.763533 0.093183
0.155435 0.763445 0.223516
0.155348 0.763358 0.352173
0.155262 0.763271 0.479819
0.155175 0.763185 0.606740
0.155090 0.763099 0.733092
0.155004 0.763014 0.858979
0.154919 0.762929 0.984472
0.154746 0.888628 0.000000
0.154679 0.888561 0.092338
0.154590 0.888473 0.222671
0.154503 0.888386 0.351328
0.154417 0.888299 0.478975
0.154331 0.888213 0.605895
0.154245 0.888127 0.732247
0.154160 0.888042 0.858134
0.154074 0.887957 0.983627
0.153977 1.000000 0.000000
0.153910 1.000000 0.091569
0.153822 1.000000 0.221902
0.153735 1.000000 0.350559
0.153648 1.000000 0.478206
0.153562 1.000000 0.605126
0.153476 1.000000 0.731479
0.153391 1.000000 0.857366
0.153306 1.000000 0.982858
0.289983 0.000000 0.000000
0.289916 0.000000 0.098087
0.289828 0.000000 0.228419
0.289741 0.000000 0.357077
0.289654 0.000000 0.484723
0.289568 0.000000 0.611643
0.289482 0.000000 0.737996
0.289397 0.000000 0.863883
0.289312 0.000000 0.989375
0.289111 0.128533 0.000000
0.289044 0.128466 0.097214
0.288955 0.128377 0.227547
0.288868 0.128290 0.356204
0.288782 0.128204 0.483851
0.288695 0.128118 0.610771
0.288610 0.128032 0.737123
0.288524 0.127947 0.863010
0.288439 0.127861 0.988503
0.288239 0.257573 0.000000
0.288172 0.257507 0.096342
0.288083 0.257418 0.226675
0.287996 0.257331 0.355332
0.287910 0.257244 0.482979
0.287823 0.257158 0.609899
0.287738 0.257073 0.736251
0.287652 0.256987 0.862138
0.287567 0.256902 0.987631
0.287376 0.385177 0.000000
0.287309 0.385110 0.095480
0.287221 0.385022 0.225813
0.287134 0.384935 0.354470
0.287047 0.384848 0.482117
0.286961 0.384762 0.609037
0.286876 0.384676 0.735389
0.286790 0.384591 0.861276
0.286705 0.384506 0.986769
0.286520 0.511862 0.000000
0.286453 0.511795 0.094624
0.286365 0.511707 0.224957
0.286278 0.511620 0.353614
0.286191 0.511533 0.481260
0.286105 0.511447 0.608181
0.286019 0.511361 0.734533
0.285934 0.511276 0.860420
0.285849 0.511191 0.985913
0.285669 0.637870 0.000000
0.285602 0.637803 0.093772
0.285514 0.637715 0.224105
0.285426 0.637628 0.352762
0.285340 0.637541 0.480409
0.285254 0.637455 0.607329
0.285168 0.637369 0.733682
0.285083 0.637284 0.859569
0.284998 0.637199 0.985061
0.284821 0.763342 0.000000
0.284754 0.763275 0.092925
0.284666 0.763187 0.223257
0.284578 0.763099 0.351914
0.284492 0.763013 0.479561
0.284406 0.762927 0.606481
0.284320 0.762841 0.732834
0.284235 0.762756 0.858721
0.284150 0.762671 0.984213
0.283976 0.888370 0.000000
0.283909 0.888303 0.092080
0.283821 0.888215 0.222412
0.283734 0.888127 0.351070
0.283647 0.888041 0.478716
0.283561 0.887955 0.605636
0.283475 0.887869 0.731989
0.283390 0.887784 0.857876
0.283305 0.887699 0.983368
0.283207 1.000000 0.000000
0.283141 1.000000 0.091311
0.283052 1.000000 0.221644
0.282965 1.000000 0.350301
0.282878 1.000000 0.477948
0.282792 1.000000 0.604868
0.282707 1.000000 0.731220
0.282621 1.000000 0.857107
0.282536 1.000000 0.982600
0.417942 0.000000 0.000000
0.417875 0.000000 0.097831
0.417786 0.000000 0.228163
0.417699 0.000000 0.356821
0.417613 0.000000 0.484467
0.417527 0.000000 0.611387
0.417441 0.000000 0.737740
0.417356 0.000000 0.863627
0.417271 0.000000 0.989120
0.417069 0.128277 0.000000
0.417002 0.128210 0.096958
0.416914 0.128122 0.227291
0.416827 0.128034 0.355948
0.416740 0.127948 0.483595
0.416654 0.127862 0.610515
0.416569 0.127776 0.736868
0.416483 0.127691 0.862755
0.416398 0.127606 0.988247
0.416197 0.257318 0.000000
0.416130 0.257251 0.096086
0.416042 0.257162 0.226419
0.415955 0.257075 0.355076
0.415868 0.256989 0.482723
0.415782 0.256903 0.609643
0.415697 0.256817 0.735996
0.415611 0.256731 0.861883
0.415526 0.256646 0.987375
0.415335 0.384921 0.000000
0.415268 0.384855 0.095224
0.415180 0.384766 0.225557
0.415093 0.384679 0.354214
0.415006 0.384592 0.481861
0.414920 0.384506 0.608781
0.414834 0.384421 0.735133
0.414749 0.384335 0.861020
0.414664 0.384250 0.986513
0.414479 0.511606 0.000000
0.414412 0.511540 0.094368
0.414324 0.511451 0.224701
0.414236 0.511364 0.353358
0.414150 0.511277 0.481005
0.414064 0.511191 0.607925
0.413978 0.511106 0.734277
0.413893 0.511020 0.860164
0.413808 0.510935 0.985657
0.413628 0.637614 0.000000
0.413561 0.637547 0.093517
0.413472 0.637459 0.223849
0.413385 0.637372 0.352506
0.413298 0.637285 0.480153
0.413212 0.637199 0.607073
0.413127 0.637114 0.733426
0.413041 0.637028 0.859313
0.412956 0.636943 0.984805
0.412780 0.763086 0.000000
0.412713 0.763019 0.092669
0.412624 0.762931 0.223001
0.412537 0.762844 0.351659
0.412451 0.762757 0.479305
0.412365 0.762671 0.606225
0.412279 0.762585 0.732578
0.412194 0.762500 0.858465
0.412108 0.762415 0.983957
0.411935 0.888114 0.000000
0.411868 0.888047 0.091824
0.411780 0.887959 0.222157
0.411692 0.887872 0.350814
0.411606 0.887785 0.478460
0.411520 0.887699 0.605381
0.411434 0.887613 0.731733
0.411349 0.887528 0.857620
0.411264 0.887443 0.983113
0.411166 1.000000 0.000000
0.411099 1.000000 0.091055
0.411011 1.000000 0.221388
0.410924 1.000000 0.350045
0.410837 1.000000 0.477692
0.410751 1.000000 0.604612
0.410665 1.000000 0.730964
0.410580 1.000000 0.856851
0.410495 1.000000 0.982344
0.545050 0.000000 0.000000
0.544983 0.000000 0.097577
0.544894 0.000000 0.227909
0.544807 0.000000 0.356567
0.544721 0.000000 0.484213
0.544635 0.000000 0.611133
0.544549 0.000000 0.737486
0.544463 0.000000 0.863373
0.544378 0.000000 0.988865
0.544177 0.128023 0.000000
0.544110 0.127956 0.096704
0.544022 0.127867 0.227037
0.543935 0.127780 0.355694
0.543848 0.127694 0.483341
0.543762 0.127608 0.610261
0.543676 0.127522 0.736613
0.543591 0.127437 0.862500
0.543506 0.127352 0.987993
0.543305 0.257064 0.000000
0.543238 0.256997 0.095832
0.543150 0.256908 0.226165
0.543063 0.256821 0.354822
0.542976 0.256734 0.482469
0.542890 0.256648 0.609389
0.542804 0.256563 0.735741
0.542719 0.256477 0.861628
0.542634 0.256392 0.987121
0.542443 0.384667 0.000000
0.542376 0.384600 0.094970
0.542288 0.384512 0.225303
0.542200 0.384425 0.353960
0.542114 0.384338 0.481607
0.542028 0.384252 0.608527
0.541942 0.384167 0.734879
0.541857 0.384081 0.860766
0.541772 0.383996 0.986259
0.541587 0.511352 0.000000
0.541520 0.511285 0.094114
0.541432 0.511197 0.224447
0.541344 0.511110 0.353104
0.541258 0.511023 0.480751
0.541172 0.510937 0.607671
0.541086 0.510852 0.734023
0.541001 0.510766 0.859910
0.540916 0.510681 0.985403
0.540735 0.637360 0.000000
0.540668 0.637293 0.093263
0.540580 0.637205 0.223595
0.540493 0.637118 0.352252
0.540406 0.637031 0.479899
0.540320 0.636945 0.606819
0.540235 0.636859 0.733172
0.540149 0.636774 0.859059
0.540064 0.636689 0.984551
0.539888 0.762832 0.000000
0.539821 0.762765 0.092415
0.539732 0.762677 0.222747
0.539645 0.762589 0.351405
0.539558 0.762503 0.479051
0.539472 0.762417 0.605971
0.539387 0.762331 0.732324
0.539301 0.762246 0.858211
0.539216 0.762161 0.983703
0.539043 0.887860 0.000000
0.538976 0.887793 0.091570
0.538887 0.887705 0.221902
0.538800 0.887617 0.350560
0.538714 0.887531 0.478206
0.538628 0.887445 0.605126
0.538542 0.887359 0.731479
0.538457 0.887274 0.857366
0.538371 0.887189 0.982858
0.538274 1.000000 0.000000
0.538207 1.000000 0.090801
0.538119 1.000000 0.221134
0.538032 1.000000 0.349791
0.537945 1.000000 0.477438
0.537859 1.000000 0.604358
0.537773 1.000000 0.730710
0.537688 1.000000 0.856597
0.537603 1.000000 0.982090
0.671517 0.000000 0.000000
0.671450 0.000000 0.097324
0.671362 0.000000 0.227657
0.671275 0.000000 0.356314
0.671188 0.000000 0.483960
0.671102 0.000000 0.610881
0.671016 0.000000 0.737233
0.670931 0.000000 0.863120
0.670846 0.000000 0.988613
0.670645 0.127770 0.000000
0.670578 0.127703 0.096451
0.670489 0.127615 0.226784
0.670402 0.127527 0.355441
0.670316 0.127441 0.483088
0.670230 0.127355 0.610008
0.670144 0.127269 0.736361
0.670059 0.127184 0.862248
0.669974 0.127099 0.987740
0.669773 0.256811 0.000000
0.669706 0.256744 0.095580
0.669618 0.256655 0.225912
0.669530 0.256568 0.354569
0.669444 0.256482 0.482216
0.669358 0.256396 0.609136
0.669272 0.256310 0.735489
0.669187 0.256225 0.861376
0.669102 0.256139 0.986868
0.668911 0.384415 0.000000
0.668844 0.384348 0.094717
0.668755 0.384259 0.225050
0.668668 0.384172 0.353707
0.668581 0.384085 0.481354
0.668495 0.383999 0.608274
0.668410 0.383914 0.734626
0.668324 0.383828 0.860513
0.668239 0.383743 0.986006
0.668054 0.511099 0.000000
0.667988 0.511033 0.093861
0.667899 0.510944 0.224194
0.667812 0.510857 0.352851
0.667725 0.510770 0.480498
0.667639 0.510684 0.607418
0.667554 0.510599 0.733770
0.667468 0.510513 0.859657
0.667383 0.510428 0.985150
0.667203 0.637107 0.000000
0.667136 0.637040 0.093010
0.667048 0.636952 0.223342
0.666960 0.636865 0.352000
0.666874 0.636778 0.479646
0.666788 0.636692 0.606566
0.666702 0.636607 0.732919
0.666617 0.636521 0.858806
0.666532 0.636436 0.984298
0.666355 0.762579 0.000000
0.666288 0.762512 0.092162
0.666200 0.762424 0.222494
0.666113 0.762337 0.351152
0.666026 0.762250 0.478798
0.665940 0.762164 0.605718
0.665854 0.762078 0.732071
0.665769 0.761993 0.857958
0.665684 0.761908 0.983451
0.665510 0.887607 0.000000
0.665443 0.887540 0.091317
0.665355 0.887452 0.221650
0.665268 0.887365 0.350307
0.665181 0.887278 0.477954
0.665095 0.887192 0.604874
0.665009 0.887106 0.731226
0.664924 0.887021 0.857113
0.664839 0.886936 0.982606
0.664742 1.000000 0.000000
0.664675 1.000000 0.090548
0.664586 1.000000 0.220881
0.664499 1.000000 0.349538
0.664413 1.000000 0.477185
0.664327 1.000000 0.604105
0.664241 1.000000 0.730457
0.664155 1.000000 0.856344
0.664070 1.000000 0.981837
0.797472 0.000000 0.000000
0.797405 0.000000 0.097072
0.797316 0.000000 0.227405
0.797229 0.000000 0.356062
0.797142 0.000000 0.483709
0.797056 0.000000 0.610629
0.796971 0.000000 0.736981
0.796885 0.000000 0.862868
0.796800 0.000000 0.988361
0.796599 0.127518 0.000000
0.796532 0.127451 0.096200
0.796444 0.127363 0.226532
0.796357 0.127276 0.355189
0.796270 0.127189 0.482836
0.796184 0.127103 0.609756
0.796098 0.127017 0.736109
0.796013 0.126932 0.861996
0.795928 0.126847 0.987488
0.795727 0.256559 0.000000
0.795660 0.256492 0.095328
0.795572 0.256404 0.225660
0.795485 0.256316 0.354318
0.795398 0.256230 0.481964
0.795312 0.256144 0.608884
0.795226 0.256058 0.735237
0.795141 0.255973 0.861124
0.795056 0.255888 0.986616
0.794865 0.384163 0.000000
0.794798 0.384096 0.094465
0.794710 0.384007 0.224798
0.794622 0.383920 0.353455
0.794536 0.383834 0.481102
0.794450 0.383748 0.608022
0.794364 0.383662 0.734375
0.794279 0.383577 0.860262
0.794194 0.383491 0.985754
0.794009 0.510848 0.000000
0.793942 0.510781 0.093609
0.793853 0.510692 0.223942
0.793766 0.510605 0.352599
0.793680 0.510519 0.480246
0.793594 0.510433 0.607166
0.793508 0.510347 0.733518
0.793423 0.510262 0.859405
0.793338 0.510176 0.984898
0.793157 0.636856 0.000000
0.793090 0.636789 0.092758
0.793002 0.636700 0.223090
0.792915 0.636613 0.351748
0.792828 0.636527 0.479394
0.792742 0.636440 0.606314
0.792657 0.636355 0.732667
0.792571 0.636269 0.858554
0.792486 0.636184 0.984047
0.792309 0.762327 0.000000
0.792243 0.762260 0.091910
0.792154 0.762172 0.222243
0.792067 0.762085 0.350900
0.791980 0.761998 0.478547
0.791894 0.761912 0.605467
0.791809 0.761826 0.731819
0.791723 0.761741 0.857706
0.791638 0.761656 0.983199
0.791465 0.887355 0.000000
0.791398 0.887288 0.091065
0.791309 0.887200 0.221398
0.791222 0.887113 0.350055
0.791136 0.887026 0.477702
0.791049 0.886940 0.604622
0.790964 0.886854 0.730974
0.790878 0.886769 0.856861
0.790793 0.886684 0.982354
0.790696 1.000000 0.000000
0.790629 1.000000 0.090297
0.790541 1.000000 0.220629
0.790453 1.000000 0.349286
0.790367 1.000000 0.476933
0.790281 1.000000 0.603853
0.790195 1.000000 0.730206
0.790110 1.000000 0.856093
0.790025 1.000000 0.981585
0.922998 0.000000 0.000000
0.922931 0.000000 0.096821
0.922842 0.000000 0.227154
0.922755 0.000000 0.355811
0.922669 0.000000 0.483458
0.922583 0.000000 0.610378
0.922497 0.000000 0.736730
0.922411 0.000000 0.862617
0.922326 0.000000 0.988110
0.922125 0.127267 0.000000
0.922058 0.127200 0.095949
0.921970 0.127112 0.226281
0.921883 0.127025 0.354939
0.921796 0.126938 0.482585
0.921710 0.126852 0.609505
0.921624 0.126766 0.735858
0.921539 0.126681 0.861745
0.921454 0.126596 0.987237
0.921253 0.256308 0.000000
0.921186 0.256241 0.095077
0.921098 0.256153 0.225409
0.921011 0.256065 0.354067
0.920924 0.255979 0.481713
0.920838 0.255893 0.608633
0.920752 0.255807 0.734986
0.920667 0.255722 0.860873
0.920582 0.255637 0.986365
0.920391 0.383912 0.000000
0.920324 0.383845 0.094214
0.920236 0.383756 0.224547
0.920148 0.383669 0.353204
0.920062 0.383583 0.480851
0.919976 0.383497 0.607771
0.919890 0.383411 0.734124
0.919805 0.383326 0.860011
0.919720 0.383241 0.985503
0.919535 0.510597 0.000000
0.919468 0.510530 0.093358
0.919380 0.510441 0.223691
0.919292 0.510354 0.352348
0.919206 0.510268 0.479995
0.919120 0.510182 0.606915
0.919034 0.510096 0.733268
0.918949 0.510011 0.859155
0.918864 0.509926 0.984647
0.918683 0.636605 0.000000
0.918616 0.636538 0.092507
0.918528 0.636449 0.222840
0.918441 0.636362 0.351497
0.918354 0.636276 0.479143
0.918268 0.636189 0.606064
0.918183 0.636104 0.732416
0.918097 0.636018 0.858303
0.918012 0.635933 0.983796
0.917836 0.762076 0.000000
0.917769 0.762009 0.091659
0.917680 0.761921 0.221992
0.917593 0.761834 0.350649
0.917506 0.761747 0.478296
0.917420 0.761661 0.605216
0.917335 0.761576 0.731568
0.917249 0.761490 0.857455
0.917164 0.761405 0.982948
0.916991 0.887104 0.000000
0.916924 0.887037 0.090814
0.916835 0.886949 0.221147
0.916748 0.886862 0.349804
0.916662 0.886775 0.477451
0.916576 0.886689 0.604371
0.916490 0.886604 0.730723
0.916405 0.886518 0.856610
0.916319 0.886433 0.982103
0.916222 1.000000 0.000000
0.916155 1.000000 0.090046
0.916067 1.000000 0.220378
0.915980 1.000000 0.349035
0.915893 1.000000 0.476682
0.915807 1.000000 0.603602
0.915721 1.000000 0.729955
0.915636 1.000000 0.855842
0.915551 1.000000 0.981334
1.000000 0.000000 0.000000
1.000000 0.000000 0.096652
1.000000 0.000000 0.226985
1.000000 0.000000 0.355642
1.000000 0.000000 0.483289
1.000000 0.000000 0.610209
1.000000 0.000000 0.736561
1.000000 0.000000 0.862448
1.000000 0.000000 0.987941
1.000000 0.127098 0.000000
1.000000 0.127031 0.095780
1.000000 0.126943 0.226112
1.000000 0.126856 0.354770
1.000000 0.126769 0.482416
1.000000 0.126683 0.609336
1.000000 0.126598 0.735689
1.000000 0.126512 0.861576
1.000000 0.126427 0.987069
1.000000 0.256139 0.000000
1.000000 0.256072 0.094908
1.000000 0.255984 0.225240
1.000000 0.255897 0.353898
1.000000 0.255810 0.481544
1.000000 0.255724 0.608464
1.000000 0.255638 0.734817
1.000000 0.255553 0.860704
1.000000 0.255468 0.986197
1.000000 0.383743 0.000000
1.000000 0.383676 0.094046
1.000000 0.383588 0.224378
1.000000 0.383500 0.353035
1.000000 0.383414 0.480682
1.000000 0.383328 0.607602
1.000000 0.383242 0.733955
1.000000 0.383157 0.859842
1.000000 0.383072 0.985334
1.000000 0.510428 0.000000
1.000000 0.510361 0.093190
1.000000 0.510273 0.223522
1.000000 0.510185 0.352179
1.000000 0.510099 0.479826
1.000000 0.510013 0.606746
1.000000 0.509927 0.733099
1.000000 0.509842 0.858986
1.000000 0.509757 0.984478
1.000000 0.636436 0.000000
1.000000 0.636369 0.092338
1.000000 0.636280 0.222671
1.000000 0.636193 0.351328
1.000000 0.636107 0.478975
1.000000 0.636021 0.605895
1.000000 0.635935 0.732247
1.000000 0.635850 0.858134
1.000000 0.635765 0.983627
1.000000 0.761907 0.000000
1.000000 0.761841 0.091490
1.000000 0.761752 0.221823
1.000000 0.761665 0.350480
1.000000 0.761578 0.478127
1.000000 0.761492 0.605047
1.000000 0.761407 0.731399
1.000000 0.761321 0.857286
1.000000 0.761236 0.982779
1.000000 0.886935 0.000000
1.000000 0.886869 0.090645
1.000000 0.886780 0.220978
1.000000 0.886693 0.349635
1.000000 0.886606 0.477282
1.000000 0.886520 0.604202
1.000000 0.886435 0.730554
1.000000 0.886349 0.856441
1.000000 0.886264 0.981934
1.000000 1.000000 0.000000
1.000000 1.000000 0.089877
1.000000 1.000000 0.220209
1.000000 1.000000 0.348867
1.000000 1.000000 0.476513
1.000000 1.000000 0.603433
1.000000 1.000000 0.729786
1.000000 1.000000 0.855673
1.000000 1.000000 0.981165
