skills/editops-orchestrator/assets/grade/luts/warm_skin_v09.cube
TITLE "warm_skin_v09"
LUT_3D_SIZE 9
DOMAIN_MIN 0.0 0.0 0.0
DOMAIN_MAX 1.0 1.0 1.0
0.030943 0.000000 0.000000
0.030848 0.000000 0.096772
0.030720 0.000000 0.228107
0.030594 0.000000 0.357603
0.030469 0.000000 0.485997
0.030344 0.000000 0.613601
0.030220 0.000000 0.740589
0.030097 0.000000 0.867072
0.029974 0.000000 0.993128
0.029681 0.129352 0.000000
0.029586 0.129258 0.095510
0.029458 0.129130 0.226845
0.029332 0.129003 0.356341
0.029207 0.128878 0.484735
0.029082 0.128753 0.612339
0.028958 0.128630 0.739327
0.028835 0.128506 0.865810
0.028712 0.128383 0.991866
0.028417 0.258956 0.000000
0.028323 0.258861 0.094247
0.028195 0.258733 0.225582
0.028068 0.258607 0.355078
0.027943 0.258482 0.483472
0.027819 0.258357 0.611076
0.027695 0.258233 0.738063
0.027571 0.258110 0.864547
0.027448 0.257987 0.990603
0.027169 0.387005 0.000000
0.027075 0.386911 0.092998
0.026946 0.386783 0.224333
0.026820 0.386656 0.353829
0.026695 0.386531 0.482223
0.026570 0.386407 0.609827
0.026446 0.386283 0.736815
0.026323 0.386159 0.863298
0.026200 0.386036 0.989354
0.025930 0.514063 0.000000
0.025836 0.513968 0.091760
0.025708 0.513840 0.223095
0.025581 0.513714 0.352591
0.025456 0.513588 0.480985
0.025332 0.513464 0.608589
0.025208 0.513340 0.735576
0.025084 0.513217 0.862060
0.024961 0.513094 0.988116
0.024699 0.640389 0.000000
0.024604 0.640295 0.090528
0.024476 0.640166 0.221863
0.024350 0.640040 0.351359
0.024225 0.639915 0.479753
0.024100 0.639790 0.607357
0.023976 0.639666 0.734345
0.023853 0.639543 0.860828
0.023730 0.639420 0.986884
0.023473 0.766137 0.000000
0.023378 0.766043 0.089302
0.023250 0.765915 0.220637
0.023124 0.765788 0.350133
0.022999 0.765663 0.478527
0.022874 0.765539 0.606131
0.022750 0.765415 0.733119
0.022627 0.765291 0.859602
0.022504 0.765168 0.985658
0.022252 0.891407 0.000000
0.022157 0.891313 0.088081
0.022029 0.891185 0.219416
0.021903 0.891058 0.348912
0.021777 0.890933 0.477306
0.021653 0.890809 0.604910
0.021529 0.890685 0.731898
0.021406 0.890561 0.858381
0.021283 0.890438 0.984437
0.021156 1.000000 0.000000
0.021061 1.000000 0.086985
0.020933 1.000000 0.218320
0.020807 1.000000 0.347816
0.020682 1.000000 0.476210
0.020557 1.000000 0.603814
0.020433 1.000000 0.730802
0.020310 1.000000 0.857285
0.020187 1.000000 0.983341
0.163776 0.000000 0.000000
0.163682 0.000000 0.096390
0.163554 0.000000 0.227725
0.163427 0.000000 0.357221
0.163302 0.000000 0.485615
0.163178 0.000000 0.613219
0.163054 0.000000 0.740207
0.162930 0.000000 0.866690
0.162807 0.000000 0.992746
0.162514 0.128970 0.000000
0.162420 0.128875 0.095128
0.162292 0.128747 0.226463
0.162166 0.128621 0.355959
0.162040 0.128496 0.484353
0.161916 0.128371 0.611957
0.161792 0.128247 0.738945
0.161668 0.128124 0.865428
0.161546 0.128001 0.991484
0.161251 0.258574 0.000000
0.161156 0.258479 0.093864
0.161028 0.258351 0.225199
0.160902 0.258225 0.354695
0.160777 0.258099 0.483089
0.160652 0.257975 0.610693
0.160528 0.257851 0.737681
0.160405 0.257728 0.864164
0.160282 0.257605 0.990220
0.160003 0.386623 0.000000
0.159908 0.386529 0.092616
0.159780 0.386400 0.223951
0.159654 0.386274 0.353447
0.159528 0.386149 0.481841
0.159404 0.386024 0.609445
0.159280 0.385900 0.736433
0.159157 0.385777 0.862916
0.159034 0.385654 0.988972
0.158764 0.513680 0.000000
0.158669 0.513586 0.091377
0.158541 0.513458 0.222712
0.158415 0.513331 0.352208
0.158290 0.513206 0.480602
0.158165 0.513082 0.608206
0.158041 0.512958 0.735194
0.157918 0.512834 0.861677
0.157795 0.512711 0.987733
0.157532 0.640007 0.000000
0.157438 0.639912 0.090146
0.157310 0.639784 0.221481
0.157183 0.639658 0.350977
0.157058 0.639533 0.479371
0.156934 0.639408 0.606975
0.156810 0.639284 0.733963
0.156686 0.639161 0.860446
0.156563 0.639038 0.986502
0.156307 0.765755 0.000000
0.156212 0.765661 0.088920
0.156084 0.765532 0.220255
0.155958 0.765406 0.349751
0.155832 0.765281 0.478145
0.155708 0.765156 0.605749
0.155584 0.765032 0.732737
0.155460 0.764909 0.859220
0.155338 0.764786 0.985276
0.155085 0.891025 0.000000
0.154991 0.890931 0.087699
0.154863 0.890802 0.219034
0.154736 0.890676 0.348530
0.154611 0.890551 0.476924
0.154487 0.890426 0.604527
0.154363 0.890303 0.731515
0.154239 0.890179 0.857999
0.154116 0.890056 0.984055
0.153989 1.000000 0.000000
0.153895 1.000000 0.086603
0.153767 1.000000 0.217938
0.153640 1.000000 0.347434
0.153515 1.000000 0.475828
0.153391 1.000000 0.603432
0.153267 1.000000 0.730420
0.153143 1.000000 0.856903
0.153020 1.000000 0.982959
0.293779 0.000000 0.000000
0.293685 0.000000 0.096016
0.293557 0.000000 0.227351
0.293430 0.000000 0.356846
0.293305 0.000000 0.485241
0.293180 0.000000 0.612844
0.293057 0.000000 0.739832
0.292933 0.000000 0.866316
0.292810 0.000000 0.992372
0.292517 0.128596 0.000000
0.292423 0.128501 0.094754
0.292295 0.128373 0.226089
0.292168 0.128247 0.355585
0.292043 0.128121 0.483979
0.291919 0.127997 0.611583
0.291795 0.127873 0.738570
0.291671 0.127750 0.865054
0.291548 0.127627 0.991110
0.291254 0.258199 0.000000
0.291159 0.258105 0.093490
0.291031 0.257977 0.224825
0.290905 0.257850 0.354321
0.290780 0.257725 0.482715
0.290655 0.257601 0.610319
0.290531 0.257477 0.737307
0.290408 0.257353 0.863790
0.290285 0.257230 0.989846
0.290005 0.386249 0.000000
0.289911 0.386154 0.092242
0.289783 0.386026 0.223577
0.289656 0.385900 0.353073
0.289531 0.385775 0.481467
0.289407 0.385650 0.609071
0.289283 0.385526 0.736059
0.289159 0.385403 0.862542
0.289036 0.385280 0.988598
0.288767 0.513306 0.000000
0.288672 0.513212 0.091003
0.288544 0.513083 0.222338
0.288418 0.512957 0.351834
0.288293 0.512832 0.480228
0.288168 0.512707 0.607832
0.288044 0.512583 0.734820
0.287921 0.512460 0.861303
0.287798 0.512337 0.987359
0.287535 0.639633 0.000000
0.287441 0.639538 0.089772
0.287313 0.639410 0.221107
0.287186 0.639284 0.350602
0.287061 0.639158 0.478997
0.286936 0.639034 0.606600
0.286813 0.638910 0.733588
0.286689 0.638787 0.860072
0.286566 0.638664 0.986128
0.286309 0.765381 0.000000
0.286215 0.765286 0.088546
0.286087 0.765158 0.219881
0.285960 0.765032 0.349377
0.285835 0.764907 0.477771
0.285711 0.764782 0.605375
0.285587 0.764658 0.732362
0.285463 0.764535 0.858846
0.285340 0.764412 0.984902
0.285088 0.890651 0.000000
0.284994 0.890556 0.087324
0.284865 0.890428 0.218659
0.284739 0.890302 0.348155
0.284614 0.890177 0.476549
0.284489 0.890052 0.604153
0.284365 0.889928 0.731141
0.284242 0.889805 0.857624
0.284119 0.889682 0.983680
0.283992 1.000000 0.000000
0.283898 1.000000 0.086229
0.283770 1.000000 0.217564
0.283643 1.000000 0.347060
0.283518 1.000000 0.475454
0.283394 1.000000 0.603058
0.283270 1.000000 0.730045
0.283146 1.000000 0.856529
0.283023 1.000000 0.982585
0.422416 0.000000 0.000000
0.422321 0.000000 0.095645
0.422193 0.000000 0.226980
0.422067 0.000000 0.356476
0.421942 0.000000 0.484870
0.421817 0.000000 0.612474
0.421693 0.000000 0.739462
0.421570 0.000000 0.865945
0.421447 0.000000 0.992001
0.421154 0.128225 0.000000
0.421059 0.128131 0.094383
0.420931 0.128003 0.225718
0.420805 0.127876 0.355214
0.420680 0.127751 0.483608
0.420555 0.127627 0.611212
0.420431 0.127503 0.738200
0.420308 0.127379 0.864683
0.420185 0.127256 0.990739
0.419890 0.257829 0.000000
0.419796 0.257735 0.093120
0.419668 0.257607 0.224455
0.419541 0.257480 0.353951
0.419416 0.257355 0.482345
0.419292 0.257230 0.609949
0.419168 0.257107 0.736937
0.419044 0.256983 0.863420
0.418921 0.256860 0.989476
0.418642 0.385879 0.000000
0.418548 0.385784 0.091872
0.418419 0.385656 0.223207
0.418293 0.385530 0.352702
0.418168 0.385404 0.481097
0.418043 0.385280 0.608700
0.417920 0.385156 0.735688
0.417796 0.385033 0.862172
0.417673 0.384910 0.988228
0.417403 0.512936 0.000000
0.417309 0.512841 0.090633
0.417181 0.512713 0.221968
0.417054 0.512587 0.351464
0.416929 0.512462 0.479858
0.416805 0.512337 0.607462
0.416681 0.512213 0.734450
0.416557 0.512090 0.860933
0.416434 0.511967 0.986989
0.416172 0.639262 0.000000
0.416077 0.639168 0.089401
0.415949 0.639040 0.220736
0.415823 0.638913 0.350232
0.415698 0.638788 0.478626
0.415573 0.638664 0.606230
0.415449 0.638540 0.733218
0.415326 0.638416 0.859701
0.415203 0.638293 0.985757
0.414946 0.765011 0.000000
0.414851 0.764916 0.088175
0.414723 0.764788 0.219510
0.414597 0.764662 0.349006
0.414472 0.764536 0.477400
0.414347 0.764412 0.605004
0.414223 0.764288 0.731992
0.414100 0.764165 0.858475
0.413977 0.764042 0.984531
0.413725 0.890281 0.000000
0.413630 0.890186 0.086954
0.413502 0.890058 0.218289
0.413376 0.889932 0.347785
0.413250 0.889806 0.476179
0.413126 0.889682 0.603783
0.413002 0.889558 0.730771
0.412879 0.889435 0.857254
0.412756 0.889312 0.983310
0.412629 1.000000 0.000000
0.412534 1.000000 0.085858
0.412406 1.000000 0.217193
0.412280 1.000000 0.346689
0.412155 1.000000 0.475083
0.412030 1.000000 0.602687
0.411906 1.000000 0.729675
0.411783 1.000000 0.856158
0.411660 1.000000 0.982214
0.550137 0.000000 0.000000
0.550043 0.000000 0.095278
0.549914 0.000000 0.226613
0.549788 0.000000 0.356109
0.549663 0.000000 0.484503
0.549538 0.000000 0.612107
0.549414 0.000000 0.739095
0.549291 0.000000 0.865578
0.549168 0.000000 0.991634
0.548875 0.127858 0.000000
0.548781 0.127763 0.094016
0.548653 0.127635 0.225351
0.548526 0.127509 0.354847
0.548401 0.127384 0.483241
0.548276 0.127259 0.610845
0.548153 0.127135 0.737833
0.548029 0.127012 0.864316
0.547906 0.126889 0.990372
0.547612 0.257462 0.000000
0.547517 0.257367 0.092752
0.547389 0.257239 0.224087
0.547263 0.257113 0.353583
0.547137 0.256987 0.481977
0.547013 0.256863 0.609581
0.546889 0.256739 0.736569
0.546766 0.256616 0.863052
0.546643 0.256493 0.989108
0.546363 0.385511 0.000000
0.546269 0.385417 0.091504
0.546141 0.385288 0.222839
0.546014 0.385162 0.352335
0.545889 0.385037 0.480729
0.545765 0.384912 0.608333
0.545641 0.384788 0.735321
0.545517 0.384665 0.861804
0.545394 0.384542 0.987860
0.545125 0.512568 0.000000
0.545030 0.512474 0.090265
0.544902 0.512346 0.221600
0.544776 0.512219 0.351096
0.544650 0.512094 0.479490
0.544526 0.511969 0.607094
0.544402 0.511846 0.734082
0.544279 0.511722 0.860565
0.544156 0.511599 0.986621
0.543893 0.638895 0.000000
0.543799 0.638800 0.089034
0.543670 0.638672 0.220369
0.543544 0.638546 0.349865
0.543419 0.638421 0.478259
0.543294 0.638296 0.605863
0.543170 0.638172 0.732851
0.543047 0.638049 0.859334
0.542924 0.637926 0.985390
0.542667 0.764643 0.000000
0.542573 0.764549 0.087808
0.542445 0.764420 0.219143
0.542318 0.764294 0.348639
0.542193 0.764169 0.477033
0.542068 0.764044 0.604637
0.541945 0.763920 0.731625
0.541821 0.763797 0.858108
0.541698 0.763674 0.984164
0.541446 0.889913 0.000000
0.541351 0.889819 0.086587
0.541223 0.889690 0.217922
0.541097 0.889564 0.347417
0.540972 0.889439 0.475811
0.540847 0.889314 0.603415
0.540723 0.889190 0.730403
0.540600 0.889067 0.856887
0.540477 0.888944 0.982942
0.540350 1.000000 0.000000
0.540256 1.000000 0.085491
0.540127 1.000000 0.216826
0.540001 1.000000 0.346322
0.539876 1.000000 0.474716
0.539751 1.000000 0.602320
0.539627 1.000000 0.729308
0.539504 1.000000 0.855791
0.539381 1.000000 0.981847
0.677169 0.000000 0.000000
0.677074 0.000000 0.094912
0.676946 0.000000 0.226247
0.676820 0.000000 0.355743
0.676695 0.000000 0.484137
0.676570 0.000000 0.611741
0.676446 0.000000 0.738729
0.676323 0.000000 0.865212
0.676200 0.000000 0.991268
0.675907 0.127492 0.000000
0.675812 0.127398 0.093650
0.675684 0.127270 0.224985
0.675558 0.127143 0.354481
0.675433 0.127018 0.482875
0.675308 0.126893 0.610479
0.675184 0.126770 0.737467
0.675061 0.126646 0.863950
0.674938 0.126523 0.990006
0.674643 0.257096 0.000000
0.674549 0.257001 0.092387
0.674421 0.256873 0.223722
0.674294 0.256747 0.353218
0.674169 0.256622 0.481612
0.674045 0.256497 0.609216
0.673921 0.256373 0.736203
0.673797 0.256250 0.862687
0.673674 0.256127 0.988743
0.673395 0.385145 0.000000
0.673301 0.385051 0.091138
0.673172 0.384923 0.222473
0.673046 0.384796 0.351969
0.672921 0.384671 0.480363
0.672796 0.384547 0.607967
0.672672 0.384423 0.734955
0.672549 0.384299 0.861438
0.672426 0.384176 0.987494
0.672156 0.512203 0.000000
0.672062 0.512108 0.089900
0.671934 0.511980 0.221235
0.671807 0.511854 0.350731
0.671682 0.511728 0.479125
0.671558 0.511604 0.606729
0.671434 0.511480 0.733716
0.671310 0.511357 0.860200
0.671187 0.511234 0.986256
0.670925 0.638529 0.000000
0.670830 0.638435 0.088668
0.670702 0.638306 0.220003
0.670576 0.638180 0.349499
0.670451 0.638055 0.477893
0.670326 0.637930 0.605497
0.670202 0.637806 0.732485
0.670079 0.637683 0.858968
0.669956 0.637560 0.985024
0.669699 0.764277 0.000000
0.669604 0.764183 0.087442
0.669476 0.764055 0.218777
0.669350 0.763928 0.348273
0.669225 0.763803 0.476667
0.669100 0.763679 0.604271
0.668976 0.763555 0.731259
0.668853 0.763431 0.857742
0.668730 0.763308 0.983798
0.668478 0.889547 0.000000
0.668383 0.889453 0.086221
0.668255 0.889325 0.217556
0.668129 0.889198 0.347052
0.668003 0.889073 0.475446
0.667879 0.888949 0.603050
0.667755 0.888825 0.730038
0.667632 0.888701 0.856521
0.667509 0.888578 0.982577
0.667382 1.000000 0.000000
0.667287 1.000000 0.085125
0.667159 1.000000 0.216460
0.667033 1.000000 0.345956
0.666908 1.000000 0.474350
0.666783 1.000000 0.601954
0.666659 1.000000 0.728942
0.666536 1.000000 0.855425
0.666413 1.000000 0.981481
0.803648 0.000000 0.000000
0.803553 0.000000 0.094548
0.803425 0.000000 0.225883
0.803299 0.000000 0.355379
0.803174 0.000000 0.483773
0.803049 0.000000 0.611377
0.802925 0.000000 0.738365
0.802802 0.000000 0.864848
0.802679 0.000000 0.990904
0.802386 0.127128 0.000000
0.802291 0.127034 0.093286
0.802163 0.126906 0.224621
0.802037 0.126779 0.354117
0.801912 0.126654 0.482511
0.801787 0.126529 0.610115
0.801663 0.126406 0.737103
0.801540 0.126282 0.863586
0.801417 0.126159 0.989642
0.801122 0.256732 0.000000
0.801028 0.256637 0.092023
0.800900 0.256509 0.223358
0.800773 0.256383 0.352854
0.800648 0.256258 0.481248
0.800524 0.256133 0.608852
0.800400 0.256009 0.735839
0.800276 0.255886 0.862323
0.800153 0.255763 0.988379
0.799874 0.384781 0.000000
0.799780 0.384687 0.090774
0.799651 0.384559 0.222109
0.799525 0.384432 0.351605
0.799400 0.384307 0.479999
0.799275 0.384183 0.607603
0.799152 0.384059 0.734591
0.799028 0.383935 0.861074
0.798905 0.383812 0.987130
0.798635 0.511839 0.000000
0.798541 0.511744 0.089536
0.798413 0.511616 0.220871
0.798286 0.511490 0.350367
0.798161 0.511364 0.478761
0.798037 0.511240 0.606365
0.797913 0.511116 0.733352
0.797789 0.510993 0.859836
0.797666 0.510870 0.985892
0.797404 0.638165 0.000000
0.797309 0.638071 0.088304
0.797181 0.637942 0.219639
0.797055 0.637816 0.349135
0.796930 0.637691 0.477529
0.796805 0.637566 0.605133
0.796681 0.637442 0.732121
0.796558 0.637319 0.858604
0.796435 0.637196 0.984660
0.796178 0.763913 0.000000
0.796083 0.763819 0.087078
0.795955 0.763691 0.218413
0.795829 0.763564 0.347909
0.795704 0.763439 0.476303
0.795579 0.763315 0.603907
0.795455 0.763191 0.730895
0.795332 0.763067 0.857378
0.795209 0.762944 0.983434
0.794957 0.889183 0.000000
0.794862 0.889089 0.085857
0.794734 0.888961 0.217192
0.794608 0.888834 0.346688
0.794482 0.888709 0.475082
0.794358 0.888585 0.602686
0.794234 0.888461 0.729674
0.794111 0.888337 0.856157
0.793988 0.888214 0.982213
0.793861 1.000000 0.000000
0.793766 1.000000 0.084761
0.793638 1.000000 0.216096
0.793512 1.000000 0.345592
0.793387 1.000000 0.473986
0.793262 1.000000 0.601590
0.793138 1.000000 0.728578
0.793015 1.000000 0.855061
0.792892 1.000000 0.981117
0.929666 0.000000 0.000000
0.929571 0.000000 0.094185
0.929443 0.000000 0.225520
0.929317 0.000000 0.355016
0.929191 0.000000 0.483410
0.929067 0.000000 0.611014
0.928943 0.000000 0.738002
0.928820 0.000000 0.864485
0.928697 0.000000 0.990541
0.928404 0.126765 0.000000
0.928309 0.126671 0.092923
0.928181 0.126543 0.224258
0.928055 0.126416 0.353754
0.927930 0.126291 0.482148
0.927805 0.126167 0.609752
0.927681 0.126043 0.736740
0.927558 0.125919 0.863223
0.927435 0.125796 0.989279
0.927140 0.256369 0.000000
0.927046 0.256275 0.091660
0.926918 0.256147 0.222995
0.926791 0.256020 0.352491
0.926666 0.255895 0.480885
0.926542 0.255770 0.608489
0.926418 0.255647 0.735477
0.926294 0.255523 0.861960
0.926171 0.255400 0.988016
0.925892 0.384419 0.000000
0.925797 0.384324 0.090412
0.925669 0.384196 0.221747
0.925543 0.384070 0.351242
0.925418 0.383944 0.479637
0.925293 0.383820 0.607240
0.925169 0.383696 0.734228
0.925046 0.383573 0.860712
0.924923 0.383450 0.986768
0.924653 0.511476 0.000000
0.924559 0.511381 0.089173
0.924431 0.511253 0.220508
0.924304 0.511127 0.350004
0.924179 0.511002 0.478398
0.924055 0.510877 0.606002
0.923931 0.510753 0.732990
0.923807 0.510630 0.859473
0.923684 0.510507 0.985529
0.923422 0.637802 0.000000
0.923327 0.637708 0.087941
0.923199 0.637580 0.219276
0.923073 0.637453 0.348772
0.922947 0.637328 0.477166
0.922823 0.637204 0.604770
0.922699 0.637080 0.731758
0.922576 0.636956 0.858241
0.922453 0.636833 0.984297
0.922196 0.763551 0.000000
0.922101 0.763456 0.086715
0.921973 0.763328 0.218050
0.921847 0.763202 0.347546
0.921722 0.763076 0.475940
0.921597 0.762952 0.603544
0.921473 0.762828 0.730532
0.921350 0.762705 0.857015
0.921227 0.762582 0.983071
0.920975 0.888821 0.000000
0.920880 0.888726 0.085494
0.920752 0.888598 0.216829
0.920626 0.888472 0.346325
0.920500 0.888346 0.474719
0.920376 0.888222 0.602323
0.920252 0.888098 0.729311
0.920129 0.887975 0.855794
0.920006 0.887852 0.981850
0.919879 1.000000 0.000000
0.919784 1.000000 0.084398
0.919656 1.000000 0.215733
0.919530 1.000000 0.345229
0.919405 1.000000 0.473623
0.919280 1.000000 0.601227
0.919156 1.000000 0.728215
0.919033 1.000000 0.854698
0.918910 1.000000 0.980754
1.000000 0.000000 0.000000
1.000000 0.000000 0.093952
1.000000 0.000000 0.225287
1.000000 0.000000 0.354783
1.000000 0.000000 0.483177
1.000000 0.000000 0.610781
1.000000 0.000000 0.737769
1.000000 0.000000 0.864252
1.000000 0.000000 0.990308
1.000000 0.126532 0.000000
1.000000 0.126437 0.092690
1.000000 0.126309 0.224025
1.000000 0.126183 0.353521
1.000000 0.126058 0.481915
1.000000 0.125933 0.609519
1.000000 0.125809 0.736507
1.000000 0.125686 0.862990
1.000000 0.125563 0.989046
1.000000 0.256136 0.000000
1.000000 0.256041 0.091426
1.000000 0.255913 0.222761
1.000000 0.255787 0.352257
1.000000 0.255662 0.480651
1.000000 0.255537 0.608255
1.000000 0.255413 0.735243
1.000000 0.255290 0.861727
1.000000 0.255167 0.987782
1.000000 0.384185 0.000000
1.000000 0.384091 0.090178
1.000000 0.383963 0.221513
1.000000 0.383836 0.351009
1.000000 0.383711 0.479403
1.000000 0.383587 0.607007
1.000000 0.383463 0.733995
1.000000 0.383339 0.860478
1.000000 0.383216 0.986534
1.000000 0.511242 0.000000
1.000000 0.511148 0.088939
1.000000 0.511020 0.220274
1.000000 0.510893 0.349770
1.000000 0.510768 0.478164
1.000000 0.510644 0.605768
1.000000 0.510520 0.732756
1.000000 0.510396 0.859239
1.000000 0.510273 0.985295
1.000000 0.637569 0.000000
1.000000 0.637474 0.087708
1.000000 0.637346 0.219043
1.000000 0.637220 0.348539
1.000000 0.637095 0.476933
1.000000 0.636970 0.604537
1.000000 0.636846 0.731525
1.000000 0.636723 0.858008
1.000000 0.636600 0.984064
1.000000 0.763317 0.000000
1.000000 0.763223 0.086482
1.000000 0.763095 0.217817
1.000000 0.762968 0.347313
1.000000 0.762843 0.475707
1.000000 0.762718 0.603311
1.000000 0.762595 0.730299
1.000000 0.762471 0.856782
1.000000 0.762348 0.982838
1.000000 0.888587 0.000000
1.000000 0.888493 0.085261
1.000000 0.888365 0.216596
1.000000 0.888238 0.346092
1.000000 0.888113 0.474486
1.000000 0.887989 0.602090
1.000000 0.887865 0.729078
1.000000 0.887741 0.855561
1.000000 0.887618 0.981617
1.000000 1.000000 0.000000
1.000000 1.000000 0.084165
1.000000 1.000000 0.215500
1.000000 1.000000 0.344996
1.000000 1.000000 0.473390
1.000000 1.000000 0.600994
1.000000 1.000000 0.727982
1.000000 1.000000 0.854465
1.000000 1.000000 0.980521
