skills/editops-orchestrator/assets/grade/luts/warm_skin_v14.cube
TITLE "warm_skin_v14"
LUT_3D_SIZE 5
DOMAIN_MIN 0.0 0.0 0.0
DOMAIN_MAX 1.0 1.0 1.0
0.041897 0.000000 0.000000
0.041353 0.000000 0.223537
0.040707 0.000000 0.489502
0.040072 0.000000 0.750741
0.039444 0.000000 1.000000
0.035413 0.263277 0.000000
0.034869 0.262733 0.217053
0.034223 0.262087 0.483017
0.033588 0.261452 0.744257
0.032960 0.260824 1.000000
0.029037 0.522471 0.000000
0.028493 0.521927 0.210676
0.027846 0.521281 0.476641
0.027212 0.520647 0.737881
0.026584 0.520019 0.996228
0.022763 0.777496 0.000000
0.022219 0.776953 0.204403
0.021573 0.776306 0.470367
0.020938 0.775672 0.731607
0.020310 0.775044 0.989955
0.017053 1.000000 0.000000
0.016509 1.000000 0.198693
0.015863 1.000000 0.464658
0.015228 1.000000 0.725897
0.014601 1.000000 0.984245
0.313248 0.000000 0.000000
0.312704 0.000000 0.221586
0.312058 0.000000 0.487551
0.311423 0.000000 0.748791
0.310795 0.000000 1.000000
0.306764 0.261326 0.000000
0.306220 0.260782 0.215102
0.305574 0.260136 0.481067
0.304939 0.259502 0.742306
0.304311 0.258874 1.000000
0.300387 0.520521 0.000000
0.299843 0.519977 0.208726
0.299197 0.519331 0.474691
0.298562 0.518696 0.735930
0.297935 0.518068 0.994278
0.294114 0.775546 0.000000
0.293570 0.775002 0.202452
0.292923 0.774356 0.468417
0.292289 0.773721 0.729656
0.291661 0.773093 0.988004
0.288404 1.000000 0.000000
0.287860 1.000000 0.196742
0.287214 1.000000 0.462707
0.286579 1.000000 0.723947
0.285951 1.000000 0.982294
0.576015 0.000000 0.000000
0.575472 0.000000 0.219697
0.574825 0.000000 0.485662
0.574191 0.000000 0.746902
0.573563 0.000000 1.000000
0.569531 0.259437 0.000000
0.568987 0.258894 0.213213
0.568341 0.258247 0.479178
0.567706 0.257613 0.740418
0.567079 0.256985 0.998765
0.563155 0.518632 0.000000
0.562611 0.518088 0.206837
0.561965 0.517442 0.472802
0.561330 0.516807 0.734041
0.560702 0.516179 0.992389
0.556881 0.773657 0.000000
0.556337 0.773113 0.200563
0.555691 0.772467 0.466528
0.555056 0.771832 0.727768
0.554429 0.771205 0.986115
0.551172 1.000000 0.000000
0.550628 1.000000 0.194853
0.549982 1.000000 0.460818
0.549347 1.000000 0.722058
0.548719 1.000000 0.980406
0.834918 0.000000 0.000000
0.834374 0.000000 0.217836
0.833728 0.000000 0.483801
0.833093 0.000000 0.745041
0.832466 0.000000 1.000000
0.828434 0.257576 0.000000
0.827890 0.257032 0.211352
0.827244 0.256386 0.477317
0.826609 0.255752 0.738556
0.825981 0.255124 0.996904
0.822058 0.516771 0.000000
0.821514 0.516227 0.204976
0.820868 0.515581 0.470941
0.820233 0.514946 0.732180
0.819605 0.514318 0.990528
0.815784 0.771796 0.000000
0.815240 0.771252 0.198702
0.814594 0.770606 0.464667
0.813959 0.769971 0.725906
0.813331 0.769343 0.984254
0.810074 1.000000 0.000000
0.809530 1.000000 0.192992
0.808884 1.000000 0.458957
0.808250 1.000000 0.720197
0.807622 1.000000 0.978544
1.000000 0.000000 0.000000
1.000000 0.000000 0.216453
1.000000 0.000000 0.482418
1.000000 0.000000 0.743657
1.000000 0.000000 1.000000
1.000000 0.256193 0.000000
1.000000 0.255649 0.209969
1.000000 0.255003 0.475934
1.000000 0.254368 0.737173
1.000000 0.253741 0.995521
1.000000 0.515387 0.000000
1.000000 0.514844 0.203592
1.000000 0.514197 0.469557
1.000000 0.513563 0.730797
1.000000 0.512935 0.989145
1.000000 0.770413 0.000000
1.000000 0.769869 0.197319
1.000000 0.769223 0.463284
1.000000 0.768588 0.724523
1.000000 0.767960 0.982871
1.000000 1.000000 0.000000
1.000000 1.000000 0.191609
1.000000 1.000000 0.457574
1.000000 1.000000 0.718813
1.000000 1.000000 0.977161
