skills/editops-orchestrator/assets/grade/luts/warm_skin_v16.cube
TITLE "warm_skin_v16"
LUT_3D_SIZE 5
DOMAIN_MIN 0.0 0.0 0.0
DOMAIN_MAX 1.0 1.0 1.0
0.046546 0.000000 0.000000
0.045881 0.000000 0.221516
0.045074 0.000000 0.490782
0.044284 0.000000 0.754706
0.043503 0.000000 1.000000
0.038453 0.265013 0.000000
0.037788 0.264348 0.213423
0.036981 0.263541 0.482689
0.036190 0.262751 0.746612
0.035409 0.261970 1.000000
0.030500 0.525842 0.000000
0.029835 0.525177 0.205470
0.029028 0.524370 0.474736
0.028237 0.523579 0.738659
0.027456 0.522798 0.999335
0.022688 0.782034 0.000000
0.022023 0.781370 0.197658
0.021216 0.780563 0.466924
0.020426 0.779772 0.730847
0.019645 0.778991 0.991524
0.015680 1.000000 0.000000
0.015015 1.000000 0.190650
0.014208 1.000000 0.459916
0.013417 1.000000 0.723839
0.012636 1.000000 0.984515
0.321263 0.000000 0.000000
0.320598 0.000000 0.219079
0.319792 0.000000 0.488345
0.319001 0.000000 0.752268
0.318220 0.000000 1.000000
0.313170 0.262575 0.000000
0.312505 0.261910 0.210985
0.311698 0.261104 0.480251
0.310908 0.260313 0.744174
0.310127 0.259532 1.000000
0.305217 0.523404 0.000000
0.304552 0.522739 0.203032
0.303745 0.521932 0.472298
0.302955 0.521141 0.736221
0.302174 0.520360 0.996898
0.297405 0.779597 0.000000
0.296740 0.778932 0.195220
0.295934 0.778125 0.464486
0.295143 0.777334 0.728410
0.294362 0.776553 0.989086
0.290397 1.000000 0.000000
0.289732 1.000000 0.188212
0.288925 1.000000 0.457478
0.288134 1.000000 0.721401
0.287353 1.000000 0.982077
0.586572 0.000000 0.000000
0.585907 0.000000 0.216724
0.585100 0.000000 0.485990
0.584310 0.000000 0.749913
0.583529 0.000000 1.000000
0.578479 0.260221 0.000000
0.577814 0.259556 0.208631
0.577007 0.258749 0.477897
0.576216 0.257959 0.741820
0.575435 0.257178 1.000000
0.570526 0.521050 0.000000
0.569861 0.520385 0.200678
0.569054 0.519578 0.469944
0.568263 0.518787 0.733867
0.567482 0.518006 0.994543
0.562714 0.777242 0.000000
0.562049 0.776577 0.192866
0.561242 0.775771 0.462132
0.560451 0.774980 0.726055
0.559670 0.774199 0.986732
0.555705 1.000000 0.000000
0.555040 1.000000 0.185858
0.554234 1.000000 0.455124
0.553443 1.000000 0.719047
0.552662 1.000000 0.979723
0.847606 0.000000 0.000000
0.846941 0.000000 0.214408
0.846134 0.000000 0.483674
0.845343 0.000000 0.747597
0.844562 0.000000 1.000000
0.839512 0.257905 0.000000
0.838847 0.257240 0.206315
0.838041 0.256433 0.475581
0.837250 0.255642 0.739504
0.836469 0.254861 1.000000
0.831559 0.518733 0.000000
0.830894 0.518068 0.198362
0.830088 0.517262 0.467628
0.829297 0.516471 0.731551
0.828516 0.515690 0.992227
0.823747 0.774926 0.000000
0.823083 0.774261 0.190550
0.822276 0.773454 0.459816
0.821485 0.772664 0.723739
0.820704 0.771883 0.984415
0.816739 1.000000 0.000000
0.816074 1.000000 0.183541
0.815267 1.000000 0.452807
0.814477 1.000000 0.716731
0.813696 1.000000 0.977407
1.000000 0.000000 0.000000
1.000000 0.000000 0.212754
1.000000 0.000000 0.482020
1.000000 0.000000 0.745943
1.000000 0.000000 1.000000
1.000000 0.256251 0.000000
1.000000 0.255586 0.204661
1.000000 0.254779 0.473927
1.000000 0.253988 0.737850
1.000000 0.253207 0.998526
1.000000 0.517079 0.000000
1.000000 0.516414 0.196708
1.000000 0.515608 0.465974
1.000000 0.514817 0.729897
1.000000 0.514036 0.990573
1.000000 0.773272 0.000000
1.000000 0.772607 0.188896
1.000000 0.771801 0.458162
1.000000 0.771010 0.722085
1.000000 0.770229 0.982761
1.000000 1.000000 0.000000
1.000000 1.000000 0.181888
1.000000 1.000000 0.451154
1.000000 1.000000 0.715077
1.000000 1.000000 0.975753
