skills/editops-orchestrator/assets/grade/luts/warm_skin_v16.cube
TITLE "warm_skin_v16"
LUT_3D_SIZE 9
DOMAIN_MIN 0.0 0.0 0.0
DOMAIN_MAX 1.0 1.0 1.0
0.046546 0.000000 0.000000
0.046297 0.000000 0.082784
0.045881 0.000000 0.221516
0.045475 0.000000 0.357057
0.045074 0.000000 0.490782
0.044678 0.000000 0.623235
0.044284 0.000000 0.754706
0.043892 0.000000 0.885379
0.043503 0.000000 1.000000
0.042526 0.131422 0.000000
0.042277 0.131173 0.078764
0.041861 0.130758 0.217497
0.041455 0.130351 0.353037
0.041055 0.129951 0.486762
0.040658 0.129554 0.619215
0.040264 0.129160 0.750686
0.039872 0.128769 0.881359
0.039483 0.128379 1.000000
0.038453 0.265013 0.000000
0.038204 0.264764 0.074691
0.037788 0.264348 0.213423
0.037382 0.263942 0.348963
0.036981 0.263541 0.482689
0.036584 0.263145 0.615141
0.036190 0.262751 0.746612
0.035799 0.262359 0.877286
0.035409 0.261970 1.000000
0.034453 0.396190 0.000000
0.034204 0.395940 0.070691
0.033788 0.395525 0.209423
0.033382 0.395119 0.344963
0.032981 0.394718 0.478689
0.032585 0.394321 0.611141
0.032191 0.393927 0.742612
0.031799 0.393536 0.873286
0.031410 0.393146 1.000000
0.030500 0.525842 0.000000
0.030250 0.525592 0.066738
0.029835 0.525177 0.205470
0.029429 0.524771 0.341010
0.029028 0.524370 0.474736
0.028631 0.523973 0.607188
0.028237 0.523579 0.738659
0.027846 0.523188 0.869333
0.027456 0.522798 0.999335
0.026580 0.654378 0.000000
0.026331 0.654129 0.062818
0.025916 0.653713 0.201551
0.025509 0.653307 0.337091
0.025109 0.652906 0.470817
0.024712 0.652509 0.603269
0.024318 0.652115 0.734740
0.023927 0.651724 0.865413
0.023537 0.651334 0.995416
0.022688 0.782034 0.000000
0.022439 0.781785 0.058926
0.022023 0.781370 0.197658
0.021617 0.780963 0.333198
0.021216 0.780563 0.466924
0.020819 0.780166 0.599376
0.020426 0.779772 0.730847
0.020034 0.779381 0.861521
0.019645 0.778991 0.991524
0.018818 0.908966 0.000000
0.018568 0.908717 0.055056
0.018153 0.908301 0.193788
0.017747 0.907895 0.329328
0.017346 0.907494 0.463054
0.016949 0.907097 0.595506
0.016555 0.906704 0.726977
0.016164 0.906312 0.857651
0.015774 0.905923 0.987653
0.015680 1.000000 0.000000
0.015430 1.000000 0.051918
0.015015 1.000000 0.190650
0.014609 1.000000 0.326190
0.014208 1.000000 0.459916
0.013811 1.000000 0.592368
0.013417 1.000000 0.723839
0.013026 1.000000 0.854513
0.012636 1.000000 0.984515
0.185901 0.000000 0.000000
0.185651 0.000000 0.081547
0.185236 0.000000 0.220280
0.184830 0.000000 0.355820
0.184429 0.000000 0.489546
0.184032 0.000000 0.621998
0.183638 0.000000 0.753469
0.183247 0.000000 0.884143
0.182857 0.000000 1.000000
0.181881 0.130186 0.000000
0.181631 0.129937 0.077528
0.181216 0.129521 0.216260
0.180810 0.129115 0.351800
0.180409 0.128714 0.485526
0.180012 0.128317 0.617978
0.179618 0.127924 0.749449
0.179227 0.127532 0.880123
0.178837 0.127143 1.000000
0.177807 0.263777 0.000000
0.177558 0.263527 0.073454
0.177142 0.263112 0.212187
0.176736 0.262706 0.347727
0.176336 0.262305 0.481452
0.175939 0.261908 0.613905
0.175545 0.261514 0.745376
0.175153 0.261123 0.876049
0.174764 0.260733 1.000000
0.173807 0.394953 0.000000
0.173558 0.394704 0.069454
0.173143 0.394288 0.208187
0.172736 0.393882 0.343727
0.172336 0.393481 0.477453
0.171939 0.393085 0.609905
0.171545 0.392691 0.741376
0.171154 0.392299 0.872049
0.170764 0.391910 1.000000
0.169854 0.524605 0.000000
0.169605 0.524356 0.065501
0.169189 0.523940 0.204233
0.168783 0.523534 0.339774
0.168382 0.523133 0.473499
0.167986 0.522737 0.605951
0.167592 0.522343 0.737422
0.167200 0.521951 0.868096
0.166811 0.521562 0.998099
0.165935 0.653141 0.000000
0.165686 0.652892 0.061582
0.165270 0.652476 0.200314
0.164864 0.652070 0.335854
0.164463 0.651670 0.469580
0.164066 0.651273 0.602032
0.163672 0.650879 0.733503
0.163281 0.650487 0.864177
0.162891 0.650098 0.994179
0.162042 0.780798 0.000000
0.161793 0.780549 0.057689
0.161377 0.780133 0.196422
0.160971 0.779727 0.331962
0.160571 0.779326 0.465688
0.160174 0.778929 0.598140
0.159780 0.778536 0.729611
0.159388 0.778144 0.860284
0.158999 0.777755 0.990287
0.158172 0.907729 0.000000
0.157923 0.907480 0.053819
0.157507 0.907064 0.192551
0.157101 0.906658 0.328091
0.156700 0.906258 0.461817
0.156304 0.905861 0.594269
0.155910 0.905467 0.725740
0.155518 0.905075 0.856414
0.155129 0.904686 0.986417
0.155034 1.000000 0.000000
0.154785 1.000000 0.050681
0.154369 1.000000 0.189413
0.153963 1.000000 0.324953
0.153562 1.000000 0.458679
0.153166 1.000000 0.591131
0.152772 1.000000 0.722602
0.152380 1.000000 0.853276
0.151991 1.000000 0.983279
0.321263 0.000000 0.000000
0.321014 0.000000 0.080346
0.320598 0.000000 0.219079
0.320192 0.000000 0.354619
0.319792 0.000000 0.488345
0.319395 0.000000 0.620797
0.319001 0.000000 0.752268
0.318609 0.000000 0.882941
0.318220 0.000000 1.000000
0.317243 0.128985 0.000000
0.316994 0.128735 0.076326
0.316579 0.128320 0.215059
0.316172 0.127914 0.350599
0.315772 0.127513 0.484325
0.315375 0.127116 0.616777
0.314981 0.126722 0.748248
0.314590 0.126331 0.878922
0.314200 0.125941 1.000000
0.313170 0.262575 0.000000
0.312921 0.262326 0.072253
0.312505 0.261910 0.210985
0.312099 0.261504 0.346525
0.311698 0.261104 0.480251
0.311302 0.260707 0.612703
0.310908 0.260313 0.744174
0.310516 0.259921 0.874848
0.310127 0.259532 1.000000
0.309170 0.393752 0.000000
0.308921 0.393503 0.068253
0.308505 0.393087 0.206986
0.308099 0.392681 0.342526
0.307699 0.392280 0.476251
0.307302 0.391883 0.608704
0.306908 0.391490 0.740175
0.306516 0.391098 0.870848
0.306127 0.390709 1.000000
0.305217 0.523404 0.000000
0.304968 0.523155 0.064300
0.304552 0.522739 0.203032
0.304146 0.522333 0.338572
0.303745 0.521932 0.472298
0.303348 0.521535 0.604750
0.302955 0.521141 0.736221
0.302563 0.520750 0.866895
0.302174 0.520360 0.996898
0.301298 0.651940 0.000000
0.301048 0.651691 0.060381
0.300633 0.651275 0.199113
0.300227 0.650869 0.334653
0.299826 0.650468 0.468379
0.299429 0.650072 0.600831
0.299035 0.649678 0.732302
0.298644 0.649286 0.862976
0.298254 0.648897 0.992978
0.297405 0.779597 0.000000
0.297156 0.779347 0.056488
0.296740 0.778932 0.195220
0.296334 0.778526 0.330761
0.295934 0.778125 0.464486
0.295537 0.777728 0.596939
0.295143 0.777334 0.728410
0.294751 0.776943 0.859083
0.294362 0.776553 0.989086
0.293535 0.906528 0.000000
0.293286 0.906279 0.052618
0.292870 0.905863 0.191350
0.292464 0.905457 0.326890
0.292063 0.905056 0.460616
0.291666 0.904660 0.593068
0.291272 0.904266 0.724539
0.290881 0.903874 0.855213
0.290491 0.903485 0.985215
0.290397 1.000000 0.000000
0.290148 1.000000 0.049480
0.289732 1.000000 0.188212
0.289326 1.000000 0.323752
0.288925 1.000000 0.457478
0.288528 1.000000 0.589930
0.288134 1.000000 0.721401
0.287743 1.000000 0.852075
0.287353 1.000000 0.982077
0.454603 0.000000 0.000000
0.454353 0.000000 0.079163
0.453938 0.000000 0.217895
0.453532 0.000000 0.353436
0.453131 0.000000 0.487161
0.452734 0.000000 0.619613
0.452340 0.000000 0.751084
0.451949 0.000000 0.881758
0.451559 0.000000 1.000000
0.450583 0.127801 0.000000
0.450334 0.127552 0.075143
0.449918 0.127137 0.213876
0.449512 0.126730 0.349416
0.449111 0.126330 0.483141
0.448714 0.125933 0.615594
0.448320 0.125539 0.747065
0.447929 0.125148 0.877738
0.447539 0.124758 1.000000
0.446509 0.261392 0.000000
0.446260 0.261143 0.071070
0.445845 0.260727 0.209802
0.445438 0.260321 0.345342
0.445038 0.259920 0.479068
0.444641 0.259524 0.611520
0.444247 0.259130 0.742991
0.443856 0.258738 0.873665
0.443466 0.258349 1.000000
0.442510 0.392569 0.000000
0.442260 0.392319 0.067070
0.441845 0.391904 0.205802
0.441439 0.391498 0.341342
0.441038 0.391097 0.475068
0.440641 0.390700 0.607520
0.440247 0.390306 0.738991
0.439856 0.389915 0.869665
0.439466 0.389525 0.999668
0.438556 0.522221 0.000000
0.438307 0.521971 0.063117
0.437891 0.521556 0.201849
0.437485 0.521150 0.337389
0.437085 0.520749 0.471115
0.436688 0.520352 0.603567
0.436294 0.519958 0.735038
0.435902 0.519567 0.865712
0.435513 0.519177 0.995714
0.434637 0.650757 0.000000
0.434388 0.650508 0.059197
0.433972 0.650092 0.197930
0.433566 0.649686 0.333470
0.433165 0.649285 0.467196
0.432769 0.648888 0.599648
0.432375 0.648494 0.731119
0.431983 0.648103 0.861792
0.431594 0.647713 0.991795
0.430745 0.778413 0.000000
0.430495 0.778164 0.055305
0.430080 0.777749 0.194037
0.429674 0.777342 0.329577
0.429273 0.776942 0.463303
0.428876 0.776545 0.595755
0.428482 0.776151 0.727226
0.428091 0.775760 0.857900
0.427701 0.775370 0.987903
0.426874 0.905345 0.000000
0.426625 0.905096 0.051435
0.426209 0.904680 0.190167
0.425803 0.904274 0.325707
0.425403 0.903873 0.459433
0.425006 0.903476 0.591885
0.424612 0.903082 0.723356
0.424220 0.902691 0.854030
0.423831 0.902301 0.984032
0.423736 1.000000 0.000000
0.423487 1.000000 0.048297
0.423071 1.000000 0.187029
0.422665 1.000000 0.322569
0.422265 1.000000 0.456295
0.421868 1.000000 0.588747
0.421474 1.000000 0.720218
0.421082 1.000000 0.850892
0.420693 1.000000 0.980894
0.586572 0.000000 0.000000
0.586323 0.000000 0.077992
0.585907 0.000000 0.216724
0.585501 0.000000 0.352264
0.585100 0.000000 0.485990
0.584703 0.000000 0.618442
0.584310 0.000000 0.749913
0.583918 0.000000 0.880587
0.583529 0.000000 1.000000
0.582552 0.126630 0.000000
0.582303 0.126381 0.073972
0.581887 0.125965 0.212704
0.581481 0.125559 0.348245
0.581080 0.125159 0.481970
0.580684 0.124762 0.614423
0.580290 0.124368 0.745894
0.579898 0.123977 0.876567
0.579509 0.123587 1.000000
0.578479 0.260221 0.000000
0.578229 0.259972 0.069899
0.577814 0.259556 0.208631
0.577408 0.259150 0.344171
0.577007 0.258749 0.477897
0.576610 0.258353 0.610349
0.576216 0.257959 0.741820
0.575825 0.257567 0.872494
0.575435 0.257178 1.000000
0.574479 0.391398 0.000000
0.574230 0.391148 0.065899
0.573814 0.390733 0.204631
0.573408 0.390327 0.340171
0.573007 0.389926 0.473897
0.572610 0.389529 0.606349
0.572216 0.389135 0.737820
0.571825 0.388744 0.868494
0.571435 0.388354 0.998497
0.570526 0.521050 0.000000
0.570276 0.520800 0.061946
0.569861 0.520385 0.200678
0.569455 0.519979 0.336218
0.569054 0.519578 0.469944
0.568657 0.519181 0.602396
0.568263 0.518787 0.733867
0.567872 0.518396 0.864541
0.567482 0.518006 0.994543
0.566606 0.649586 0.000000
0.566357 0.649336 0.058026
0.565941 0.648921 0.196759
0.565535 0.648515 0.332299
0.565135 0.648114 0.466025
0.564738 0.647717 0.598477
0.564344 0.647323 0.729948
0.563952 0.646932 0.860621
0.563563 0.646542 0.990624
0.562714 0.777242 0.000000
0.562464 0.776993 0.054134
0.562049 0.776577 0.192866
0.561643 0.776171 0.328406
0.561242 0.775771 0.462132
0.560845 0.775374 0.594584
0.560451 0.774980 0.726055
0.560060 0.774589 0.856729
0.559670 0.774199 0.986732
0.558843 0.904174 0.000000
0.558594 0.903925 0.050263
0.558178 0.903509 0.188996
0.557772 0.903103 0.324536
0.557372 0.902702 0.458262
0.556975 0.902305 0.590714
0.556581 0.901911 0.722185
0.556190 0.901520 0.852859
0.555800 0.901130 0.982861
0.555705 1.000000 0.000000
0.555456 1.000000 0.047125
0.555040 1.000000 0.185858
0.554634 1.000000 0.321398
0.554234 1.000000 0.455124
0.553837 1.000000 0.587576
0.553443 1.000000 0.719047
0.553052 1.000000 0.849721
0.552662 1.000000 0.979723
0.717505 0.000000 0.000000
0.717256 0.000000 0.076830
0.716840 0.000000 0.215563
0.716434 0.000000 0.351103
0.716033 0.000000 0.484828
0.715637 0.000000 0.617281
0.715243 0.000000 0.748752
0.714851 0.000000 0.879425
0.714462 0.000000 1.000000
0.713485 0.125469 0.000000
0.713236 0.125219 0.072810
0.712820 0.124804 0.211543
0.712414 0.124398 0.347083
0.712013 0.123997 0.480809
0.711617 0.123600 0.613261
0.711223 0.123206 0.744732
0.710831 0.122815 0.875405
0.710442 0.122425 1.000000
0.709412 0.259059 0.000000
0.709162 0.258810 0.068737
0.708747 0.258394 0.207469
0.708341 0.257988 0.343009
0.707940 0.257588 0.476735
0.707543 0.257191 0.609187
0.707149 0.256797 0.740658
0.706758 0.256405 0.871332
0.706368 0.256016 1.000000
0.705412 0.390236 0.000000
0.705163 0.389986 0.064737
0.704747 0.389571 0.203469
0.704341 0.389165 0.339010
0.703940 0.388764 0.472735
0.703543 0.388367 0.605187
0.703150 0.387973 0.736658
0.702758 0.387582 0.867332
0.702369 0.387192 0.997335
0.701459 0.519888 0.000000
0.701209 0.519638 0.060784
0.700794 0.519223 0.199516
0.700388 0.518817 0.335056
0.699987 0.518416 0.468782
0.699590 0.518019 0.601234
0.699196 0.517625 0.732705
0.698805 0.517234 0.863379
0.698415 0.516844 0.993381
0.697539 0.648424 0.000000
0.697290 0.648175 0.056864
0.696874 0.647759 0.195597
0.696468 0.647353 0.331137
0.696068 0.646952 0.464863
0.695671 0.646555 0.597315
0.695277 0.646161 0.728786
0.694885 0.645770 0.859460
0.694496 0.645380 0.989462
0.693647 0.776081 0.000000
0.693398 0.775831 0.052972
0.692982 0.775416 0.191704
0.692576 0.775010 0.327244
0.692175 0.774609 0.460970
0.691778 0.774212 0.593422
0.691384 0.773818 0.724893
0.690993 0.773427 0.855567
0.690603 0.773037 0.985570
0.689776 0.903012 0.000000
0.689527 0.902763 0.049102
0.689112 0.902347 0.187834
0.688705 0.901941 0.323374
0.688305 0.901540 0.457100
0.687908 0.901143 0.589552
0.687514 0.900750 0.721023
0.687123 0.900358 0.851697
0.686733 0.899969 0.981699
0.686638 1.000000 0.000000
0.686389 1.000000 0.045964
0.685974 1.000000 0.184696
0.685568 1.000000 0.320236
0.685167 1.000000 0.453962
0.684770 1.000000 0.586414
0.684376 1.000000 0.717885
0.683985 1.000000 0.848559
0.683595 1.000000 0.978561
0.847606 0.000000 0.000000
0.847356 0.000000 0.075676
0.846941 0.000000 0.214408
0.846535 0.000000 0.349948
0.846134 0.000000 0.483674
0.845737 0.000000 0.616126
0.845343 0.000000 0.747597
0.844952 0.000000 0.878271
0.844562 0.000000 1.000000
0.843586 0.124314 0.000000
0.843337 0.124065 0.071656
0.842921 0.123649 0.210388
0.842515 0.123243 0.345928
0.842114 0.122842 0.479654
0.841717 0.122446 0.612106
0.841323 0.122052 0.743577
0.840932 0.121660 0.874251
0.840542 0.121271 1.000000
0.839512 0.257905 0.000000
0.839263 0.257655 0.067582
0.838847 0.257240 0.206315
0.838441 0.256834 0.341855
0.838041 0.256433 0.475581
0.837644 0.256036 0.608033
0.837250 0.255642 0.739504
0.836858 0.255251 0.870177
0.836469 0.254861 1.000000
0.835513 0.389081 0.000000
0.835263 0.388832 0.063583
0.834848 0.388416 0.202315
0.834442 0.388010 0.337855
0.834041 0.387610 0.471581
0.833644 0.387213 0.604033
0.833250 0.386819 0.735504
0.832859 0.386427 0.866178
0.832469 0.386038 0.996180
0.831559 0.518733 0.000000
0.831310 0.518484 0.059629
0.830894 0.518068 0.198362
0.830488 0.517662 0.333902
0.830088 0.517262 0.467628
0.829691 0.516865 0.600080
0.829297 0.516471 0.731551
0.828905 0.516079 0.862224
0.828516 0.515690 0.992227
0.827640 0.647269 0.000000
0.827391 0.647020 0.055710
0.826975 0.646604 0.194442
0.826569 0.646198 0.329982
0.826168 0.645798 0.463708
0.825771 0.645401 0.596160
0.825378 0.645007 0.727631
0.824986 0.644615 0.858305
0.824597 0.644226 0.988308
0.823747 0.774926 0.000000
0.823498 0.774677 0.051817
0.823083 0.774261 0.190550
0.822676 0.773855 0.326090
0.822276 0.773454 0.459816
0.821879 0.773058 0.592268
0.821485 0.772664 0.723739
0.821094 0.772272 0.854413
0.820704 0.771883 0.984415
0.819877 0.901857 0.000000
0.819628 0.901608 0.047947
0.819212 0.901193 0.186679
0.818806 0.900786 0.322220
0.818405 0.900386 0.455945
0.818009 0.899989 0.588398
0.817615 0.899595 0.719869
0.817223 0.899204 0.850542
0.816834 0.898814 0.980545
0.816739 1.000000 0.000000
0.816490 1.000000 0.044809
0.816074 1.000000 0.183541
0.815668 1.000000 0.319082
0.815267 1.000000 0.452807
0.814871 1.000000 0.585260
0.814477 1.000000 0.716731
0.814085 1.000000 0.847404
0.813696 1.000000 0.977407
0.977011 0.000000 0.000000
0.976762 0.000000 0.074527
0.976346 0.000000 0.213260
0.975940 0.000000 0.348800
0.975539 0.000000 0.482526
0.975143 0.000000 0.614978
0.974749 0.000000 0.746449
0.974357 0.000000 0.877122
0.973968 0.000000 1.000000
0.972991 0.123166 0.000000
0.972742 0.122916 0.070507
0.972326 0.122501 0.209240
0.971920 0.122095 0.344780
0.971520 0.121694 0.478506
0.971123 0.121297 0.610958
0.970729 0.120903 0.742429
0.970337 0.120512 0.873103
0.969948 0.120122 1.000000
0.968918 0.256756 0.000000
0.968668 0.256507 0.066434
0.968253 0.256091 0.205166
0.967847 0.255685 0.340707
0.967446 0.255285 0.474432
0.967049 0.254888 0.606884
0.966655 0.254494 0.738355
0.966264 0.254103 0.869029
0.965874 0.253713 0.999032
0.964918 0.387933 0.000000
0.964669 0.387684 0.062434
0.964253 0.387268 0.201167
0.963847 0.386862 0.336707
0.963446 0.386461 0.470433
0.963049 0.386064 0.602885
0.962656 0.385671 0.734356
0.962264 0.385279 0.865029
0.961875 0.384890 0.995032
0.960965 0.517585 0.000000
0.960715 0.517336 0.058481
0.960300 0.516920 0.197213
0.959894 0.516514 0.332753
0.959493 0.516113 0.466479
0.959096 0.515716 0.598931
0.958702 0.515323 0.730402
0.958311 0.514931 0.861076
0.957921 0.514542 0.991079
0.957045 0.646121 0.000000
0.956796 0.645872 0.054562
0.956380 0.645456 0.193294
0.955974 0.645050 0.328834
0.955574 0.644649 0.462560
0.955177 0.644253 0.595012
0.954783 0.643859 0.726483
0.954391 0.643467 0.857157
0.954002 0.643078 0.987159
0.953153 0.773778 0.000000
0.952904 0.773528 0.050669
0.952488 0.773113 0.189402
0.952082 0.772707 0.324942
0.951681 0.772306 0.458667
0.951284 0.771909 0.591120
0.950890 0.771515 0.722591
0.950499 0.771124 0.853264
0.950109 0.770734 0.983267
0.949282 0.900709 0.000000
0.949033 0.900460 0.046799
0.948618 0.900044 0.185531
0.948212 0.899638 0.321071
0.947811 0.899237 0.454797
0.947414 0.898841 0.587249
0.947020 0.898447 0.718720
0.946629 0.898055 0.849394
0.946239 0.897666 0.979396
0.946145 1.000000 0.000000
0.945895 1.000000 0.043661
0.945480 1.000000 0.182393
0.945074 1.000000 0.317933
0.944673 1.000000 0.451659
0.944276 1.000000 0.584111
0.943882 1.000000 0.715582
0.943491 1.000000 0.846256
0.943101 1.000000 0.976258
1.000000 0.000000 0.000000
1.000000 0.000000 0.074022
1.000000 0.000000 0.212754
1.000000 0.000000 0.348294
1.000000 0.000000 0.482020
1.000000 0.000000 0.614472
1.000000 0.000000 0.745943
1.000000 0.000000 0.876617
1.000000 0.000000 1.000000
1.000000 0.122660 0.000000
1.000000 0.122411 0.070002
1.000000 0.121995 0.208734
1.000000 0.121589 0.344274
1.000000 0.121189 0.478000
1.000000 0.120792 0.610452
1.000000 0.120398 0.741923
1.000000 0.120006 0.872597
1.000000 0.119617 1.000000
1.000000 0.256251 0.000000
1.000000 0.256002 0.065928
1.000000 0.255586 0.204661
1.000000 0.255180 0.340201
1.000000 0.254779 0.473927
1.000000 0.254382 0.606379
1.000000 0.253988 0.737850
1.000000 0.253597 0.868524
1.000000 0.253207 0.998526
1.000000 0.387427 0.000000
1.000000 0.387178 0.061929
1.000000 0.386762 0.200661
1.000000 0.386356 0.336201
1.000000 0.385956 0.469927
1.000000 0.385559 0.602379
1.000000 0.385165 0.733850
1.000000 0.384773 0.864524
1.000000 0.384384 0.994526
1.000000 0.517079 0.000000
1.000000 0.516830 0.057975
1.000000 0.516414 0.196708
1.000000 0.516008 0.332248
1.000000 0.515608 0.465974
1.000000 0.515211 0.598426
1.000000 0.514817 0.729897
1.000000 0.514425 0.860570
1.000000 0.514036 0.990573
1.000000 0.645615 0.000000
1.000000 0.645366 0.054056
1.000000 0.644951 0.192788
1.000000 0.644544 0.328329
1.000000 0.644144 0.462054
1.000000 0.643747 0.594506
1.000000 0.643353 0.725977
1.000000 0.642962 0.856651
1.000000 0.642572 0.986654
1.000000 0.773272 0.000000
1.000000 0.773023 0.050164
1.000000 0.772607 0.188896
1.000000 0.772201 0.324436
1.000000 0.771801 0.458162
1.000000 0.771404 0.590614
1.000000 0.771010 0.722085
1.000000 0.770618 0.852759
1.000000 0.770229 0.982761
1.000000 0.900204 0.000000
1.000000 0.899954 0.046293
1.000000 0.899539 0.185026
1.000000 0.899133 0.320566
1.000000 0.898732 0.454292
1.000000 0.898335 0.586744
1.000000 0.897941 0.718215
1.000000 0.897550 0.848888
1.000000 0.897160 0.978891
1.000000 1.000000 0.000000
1.000000 1.000000 0.043155
1.000000 1.000000 0.181888
1.000000 1.000000 0.317428
1.000000 1.000000 0.451154
1.000000 1.000000 0.583606
1.000000 1.000000 0.715077
1.000000 1.000000 0.845750
1.000000 1.000000 0.975753
