skills/editops-orchestrator/assets/grade/luts/warm_skin_v17.cube
TITLE "warm_skin_v17"
LUT_3D_SIZE 9
DOMAIN_MIN 0.0 0.0 0.0
DOMAIN_MAX 1.0 1.0 1.0
0.048928 0.000000 0.000000
0.048663 0.000000 0.080614
0.048204 0.000000 0.220464
0.047758 0.000000 0.356894
0.047317 0.000000 0.491396
0.046881 0.000000 0.624550
0.046448 0.000000 0.756667
0.046018 0.000000 0.887941
0.045590 0.000000 1.000000
0.044510 0.131716 0.000000
0.044244 0.131450 0.076195
0.043786 0.130992 0.216045
0.043339 0.130545 0.352475
0.042898 0.130105 0.486978
0.042462 0.129668 0.620131
0.042029 0.129236 0.752248
0.041599 0.128806 0.883523
0.041171 0.128378 1.000000
0.040025 0.265883 0.000000
0.039759 0.265617 0.071710
0.039301 0.265159 0.211560
0.038854 0.264712 0.347990
0.038413 0.264271 0.482493
0.037977 0.263835 0.615646
0.037544 0.263402 0.747763
0.037114 0.262972 0.879038
0.036687 0.262545 1.000000
0.035625 0.397507 0.000000
0.035359 0.397241 0.067311
0.034901 0.396783 0.207161
0.034454 0.396336 0.343591
0.034014 0.395896 0.478093
0.033577 0.395459 0.611247
0.033145 0.395027 0.743363
0.032714 0.394596 0.874638
0.032287 0.394169 1.000000
0.031279 0.527528 0.000000
0.031013 0.527262 0.062964
0.030555 0.526804 0.202814
0.030108 0.526357 0.339244
0.029667 0.525917 0.473747
0.029231 0.525480 0.606900
0.028798 0.525048 0.739017
0.028368 0.524618 0.870292
0.027941 0.524190 1.000000
0.026972 0.656377 0.000000
0.026706 0.656111 0.058657
0.026248 0.655653 0.198507
0.025801 0.655206 0.334937
0.025360 0.654765 0.469440
0.024924 0.654329 0.602593
0.024491 0.653896 0.734710
0.024061 0.653466 0.865985
0.023633 0.653038 0.996552
0.022696 0.784302 0.000000
0.022430 0.784036 0.054381
0.021972 0.783578 0.194231
0.021525 0.783131 0.330661
0.021084 0.782691 0.465164
0.020648 0.782254 0.598317
0.020215 0.781822 0.730434
0.019785 0.781391 0.861709
0.019357 0.780964 0.992276
0.018445 0.911466 0.000000
0.018179 0.911200 0.050131
0.017721 0.910742 0.189980
0.017274 0.910295 0.326410
0.016833 0.909855 0.460913
0.016397 0.909418 0.594067
0.015964 0.908985 0.726183
0.015534 0.908555 0.857458
0.015107 0.908128 0.988025
0.015050 1.000000 0.000000
0.014785 1.000000 0.046736
0.014327 1.000000 0.186586
0.013880 1.000000 0.323016
0.013439 1.000000 0.457518
0.013003 1.000000 0.590672
0.012570 1.000000 0.722789
0.012140 1.000000 0.854064
0.011712 1.000000 0.984630
0.189199 0.000000 0.000000
0.188933 0.000000 0.079252
0.188475 0.000000 0.219102
0.188028 0.000000 0.355532
0.187588 0.000000 0.490035
0.187151 0.000000 0.623188
0.186719 0.000000 0.755305
0.186288 0.000000 0.886580
0.185861 0.000000 1.000000
0.184780 0.130354 0.000000
0.184515 0.130089 0.074833
0.184056 0.129630 0.214683
0.183609 0.129183 0.351113
0.183169 0.128743 0.485616
0.182733 0.128307 0.618769
0.182300 0.127874 0.750886
0.181870 0.127444 0.882161
0.181442 0.127016 1.000000
0.180295 0.264521 0.000000
0.180030 0.264255 0.070349
0.179572 0.263797 0.210199
0.179125 0.263350 0.346628
0.178684 0.262910 0.481131
0.178248 0.262473 0.614285
0.177815 0.262041 0.746401
0.177385 0.261610 0.877676
0.176957 0.261183 1.000000
0.175896 0.396145 0.000000
0.175630 0.395879 0.065949
0.175172 0.395421 0.205799
0.174725 0.394974 0.342229
0.174284 0.394534 0.476731
0.173848 0.394098 0.609885
0.173415 0.393665 0.742001
0.172985 0.393235 0.873276
0.172557 0.392807 1.000000
0.171549 0.526166 0.000000
0.171284 0.525901 0.061603
0.170826 0.525442 0.201453
0.170379 0.524995 0.337882
0.169938 0.524555 0.472385
0.169502 0.524119 0.605539
0.169069 0.523686 0.737655
0.168639 0.523256 0.868930
0.168211 0.522828 0.999497
0.167242 0.655015 0.000000
0.166977 0.654749 0.057296
0.166519 0.654291 0.197146
0.166072 0.653844 0.333575
0.165631 0.653404 0.468078
0.165195 0.652967 0.601232
0.164762 0.652534 0.733348
0.164332 0.652104 0.864623
0.163904 0.651677 0.995190
0.162966 0.782940 0.000000
0.162701 0.782674 0.053019
0.162242 0.782216 0.192869
0.161796 0.781769 0.329299
0.161355 0.781329 0.463802
0.160919 0.780893 0.596956
0.160486 0.780460 0.729072
0.160056 0.780030 0.860347
0.159628 0.779602 0.990914
0.158716 0.910104 0.000000
0.158450 0.909838 0.048769
0.157992 0.909380 0.188619
0.157545 0.908933 0.325049
0.157104 0.908493 0.459551
0.156668 0.908056 0.592705
0.156235 0.907624 0.724821
0.155805 0.907194 0.856096
0.155377 0.906766 0.986663
0.155321 1.000000 0.000000
0.155055 1.000000 0.045374
0.154597 1.000000 0.185224
0.154150 1.000000 0.321654
0.153710 1.000000 0.456157
0.153273 1.000000 0.589310
0.152841 1.000000 0.721427
0.152411 1.000000 0.852702
0.151983 1.000000 0.983269
0.325320 0.000000 0.000000
0.325055 0.000000 0.077931
0.324596 0.000000 0.217781
0.324149 0.000000 0.354210
0.323709 0.000000 0.488713
0.323273 0.000000 0.621867
0.322840 0.000000 0.753983
0.322410 0.000000 0.885258
0.321982 0.000000 1.000000
0.320901 0.129033 0.000000
0.320636 0.128767 0.073512
0.320178 0.128309 0.213362
0.319731 0.127862 0.349792
0.319290 0.127421 0.484294
0.318854 0.126985 0.617448
0.318421 0.126552 0.749565
0.317991 0.126122 0.880839
0.317563 0.125695 1.000000
0.316417 0.263199 0.000000
0.316151 0.262934 0.069027
0.315693 0.262476 0.208877
0.315246 0.262029 0.345307
0.314805 0.261588 0.479809
0.314369 0.261152 0.612963
0.313936 0.260719 0.745080
0.313506 0.260289 0.876355
0.313078 0.259861 1.000000
0.312017 0.394824 0.000000
0.311751 0.394558 0.064627
0.311293 0.394100 0.204477
0.310846 0.393653 0.340907
0.310406 0.393212 0.475410
0.309969 0.392776 0.608563
0.309536 0.392343 0.740680
0.309106 0.391913 0.871955
0.308679 0.391485 1.000000
0.307671 0.524845 0.000000
0.307405 0.524579 0.060281
0.306947 0.524121 0.200131
0.306500 0.523674 0.336561
0.306059 0.523233 0.471063
0.305623 0.522797 0.604217
0.305190 0.522364 0.736334
0.304760 0.521934 0.867609
0.304332 0.521506 0.998175
0.303364 0.653693 0.000000
0.303098 0.653428 0.055974
0.302640 0.652970 0.195824
0.302193 0.652523 0.332254
0.301752 0.652082 0.466756
0.301316 0.651646 0.599910
0.300883 0.651213 0.732027
0.300453 0.650783 0.863302
0.300025 0.650355 0.993868
0.299088 0.781619 0.000000
0.298822 0.781353 0.051698
0.298364 0.780895 0.191548
0.297917 0.780448 0.327978
0.297476 0.780007 0.462480
0.297040 0.779571 0.595634
0.296607 0.779138 0.727751
0.296177 0.778708 0.859025
0.295749 0.778280 0.989592
0.294837 0.908783 0.000000
0.294571 0.908517 0.047447
0.294113 0.908059 0.187297
0.293666 0.907612 0.323727
0.293225 0.907171 0.458230
0.292789 0.906735 0.591383
0.292356 0.906302 0.723500
0.291926 0.905872 0.854775
0.291499 0.905444 0.985342
0.291442 1.000000 0.000000
0.291177 1.000000 0.044053
0.290719 1.000000 0.183903
0.290272 1.000000 0.320333
0.289831 1.000000 0.454835
0.289395 1.000000 0.587989
0.288962 1.000000 0.720105
0.288532 1.000000 0.851380
0.288104 1.000000 0.981947
0.459325 0.000000 0.000000
0.459059 0.000000 0.076630
0.458601 0.000000 0.216480
0.458154 0.000000 0.352910
0.457713 0.000000 0.487412
0.457277 0.000000 0.620566
0.456844 0.000000 0.752682
0.456414 0.000000 0.883957
0.455987 0.000000 1.000000
0.454906 0.127732 0.000000
0.454640 0.127466 0.072211
0.454182 0.127008 0.212061
0.453735 0.126561 0.348491
0.453295 0.126120 0.482993
0.452858 0.125684 0.616147
0.452426 0.125251 0.748264
0.451996 0.124821 0.879538
0.451568 0.124394 1.000000
0.450421 0.261898 0.000000
0.450156 0.261633 0.067726
0.449697 0.261175 0.207576
0.449251 0.260728 0.344006
0.448810 0.260287 0.478508
0.448374 0.259851 0.611662
0.447941 0.259418 0.743779
0.447511 0.258988 0.875054
0.447083 0.258560 1.000000
0.446021 0.393523 0.000000
0.445756 0.393257 0.063326
0.445298 0.392799 0.203176
0.444851 0.392352 0.339606
0.444410 0.391911 0.474109
0.443974 0.391475 0.607262
0.443541 0.391042 0.739379
0.443111 0.390612 0.870654
0.442683 0.390184 1.000000
0.441675 0.523544 0.000000
0.441410 0.523278 0.058980
0.440951 0.522820 0.198830
0.440505 0.522373 0.335260
0.440064 0.521932 0.469762
0.439628 0.521496 0.602916
0.439195 0.521063 0.735033
0.438765 0.520633 0.866308
0.438337 0.520205 0.996874
0.437368 0.652392 0.000000
0.437103 0.652127 0.054673
0.436644 0.651669 0.194523
0.436198 0.651222 0.330953
0.435757 0.650781 0.465455
0.435321 0.650345 0.598609
0.434888 0.649912 0.730726
0.434458 0.649482 0.862001
0.434030 0.649054 0.992567
0.433092 0.780318 0.000000
0.432826 0.780052 0.050397
0.432368 0.779594 0.190247
0.431921 0.779147 0.326677
0.431481 0.778706 0.461179
0.431045 0.778270 0.594333
0.430612 0.777837 0.726450
0.430182 0.777407 0.857724
0.429754 0.776979 0.988291
0.428841 0.907482 0.000000
0.428576 0.907216 0.046146
0.428118 0.906758 0.185996
0.427671 0.906311 0.322426
0.427230 0.905870 0.456929
0.426794 0.905434 0.590082
0.426361 0.905001 0.722199
0.425931 0.904571 0.853474
0.425503 0.904143 0.984041
0.425447 1.000000 0.000000
0.425181 1.000000 0.042752
0.424723 1.000000 0.182602
0.424276 1.000000 0.319032
0.423836 1.000000 0.453534
0.423399 1.000000 0.586688
0.422967 1.000000 0.718804
0.422536 1.000000 0.850079
0.422109 1.000000 0.980646
0.591894 0.000000 0.000000
0.591628 0.000000 0.075343
0.591170 0.000000 0.215193
0.590723 0.000000 0.351622
0.590283 0.000000 0.486125
0.589846 0.000000 0.619279
0.589414 0.000000 0.751395
0.588984 0.000000 0.882670
0.588556 0.000000 1.000000
0.587475 0.126445 0.000000
0.587210 0.126179 0.070924
0.586751 0.125721 0.210774
0.586305 0.125274 0.347204
0.585864 0.124833 0.481706
0.585428 0.124397 0.614860
0.584995 0.123964 0.746977
0.584565 0.123534 0.878251
0.584137 0.123106 1.000000
0.582990 0.260611 0.000000
0.582725 0.260346 0.066439
0.582267 0.259888 0.206289
0.581820 0.259441 0.342719
0.581379 0.259000 0.477221
0.580943 0.258564 0.610375
0.580510 0.258131 0.742492
0.580080 0.257701 0.873767
0.579652 0.257273 1.000000
0.578591 0.392236 0.000000
0.578325 0.391970 0.062039
0.577867 0.391512 0.201889
0.577420 0.391065 0.338319
0.576979 0.390624 0.472822
0.576543 0.390188 0.605975
0.576110 0.389755 0.738092
0.575680 0.389325 0.869367
0.575252 0.388897 0.999934
0.574244 0.522257 0.000000
0.573979 0.521991 0.057693
0.573521 0.521533 0.197543
0.573074 0.521086 0.333973
0.572633 0.520645 0.468475
0.572197 0.520209 0.601629
0.571764 0.519776 0.733746
0.571334 0.519346 0.865021
0.570906 0.518918 0.995587
0.569937 0.651105 0.000000
0.569672 0.650840 0.053386
0.569214 0.650382 0.193236
0.568767 0.649935 0.329666
0.568326 0.649494 0.464168
0.567890 0.649058 0.597322
0.567457 0.648625 0.729439
0.567027 0.648195 0.860714
0.566599 0.647767 0.991280
0.565661 0.779031 0.000000
0.565396 0.778765 0.049110
0.564938 0.778307 0.188960
0.564491 0.777860 0.325390
0.564050 0.777419 0.459892
0.563614 0.776983 0.593046
0.563181 0.776550 0.725163
0.562751 0.776120 0.856437
0.562323 0.775692 0.987004
0.561411 0.906195 0.000000
0.561145 0.905929 0.044859
0.560687 0.905471 0.184709
0.560240 0.905024 0.321139
0.559799 0.904583 0.455642
0.559363 0.904147 0.588795
0.558930 0.903714 0.720912
0.558500 0.903284 0.852187
0.558072 0.902856 0.982754
0.558016 1.000000 0.000000
0.557750 1.000000 0.041465
0.557292 1.000000 0.181315
0.556845 1.000000 0.317745
0.556405 1.000000 0.452247
0.555969 1.000000 0.585401
0.555536 1.000000 0.717517
0.555106 1.000000 0.848792
0.554678 1.000000 0.979359
0.723377 0.000000 0.000000
0.723112 0.000000 0.074066
0.722653 0.000000 0.213916
0.722206 0.000000 0.350346
0.721766 0.000000 0.484848
0.721330 0.000000 0.618002
0.720897 0.000000 0.750119
0.720467 0.000000 0.881394
0.720039 0.000000 1.000000
0.718958 0.125168 0.000000
0.718693 0.124903 0.069647
0.718235 0.124444 0.209497
0.717788 0.123997 0.345927
0.717347 0.123557 0.480430
0.716911 0.123121 0.613583
0.716478 0.122688 0.745700
0.716048 0.122258 0.876975
0.715620 0.121830 1.000000
0.714474 0.259335 0.000000
0.714208 0.259069 0.065163
0.713750 0.258611 0.205013
0.713303 0.258164 0.341442
0.712862 0.257724 0.475945
0.712426 0.257287 0.609099
0.711993 0.256854 0.741215
0.711563 0.256424 0.872490
0.711135 0.255997 1.000000
0.710074 0.390959 0.000000
0.709808 0.390693 0.060763
0.709350 0.390235 0.200613
0.708903 0.389788 0.337043
0.708462 0.389348 0.471545
0.708026 0.388911 0.604699
0.707593 0.388479 0.736815
0.707163 0.388049 0.868090
0.706736 0.387621 0.998657
0.705728 0.520980 0.000000
0.705462 0.520715 0.056417
0.705004 0.520256 0.196267
0.704557 0.519809 0.332696
0.704116 0.519369 0.467199
0.703680 0.518933 0.600353
0.703247 0.518500 0.732469
0.702817 0.518070 0.863744
0.702389 0.517642 0.994311
0.701421 0.649829 0.000000
0.701155 0.649563 0.052110
0.700697 0.649105 0.191960
0.700250 0.648658 0.328389
0.699809 0.648217 0.462892
0.699373 0.647781 0.596046
0.698940 0.647348 0.728162
0.698510 0.646918 0.859437
0.698082 0.646491 0.990004
0.697144 0.777754 0.000000
0.696879 0.777488 0.047833
0.696421 0.777030 0.187683
0.695974 0.776583 0.324113
0.695533 0.776143 0.458616
0.695097 0.775706 0.591769
0.694664 0.775274 0.723886
0.694234 0.774844 0.855161
0.693806 0.774416 0.985728
0.692894 0.904918 0.000000
0.692628 0.904652 0.043583
0.692170 0.904194 0.183433
0.691723 0.903747 0.319863
0.691282 0.903307 0.454365
0.690846 0.902870 0.587519
0.690413 0.902438 0.719635
0.689983 0.902008 0.850910
0.689556 0.901580 0.981477
0.689499 1.000000 0.000000
0.689234 1.000000 0.040188
0.688775 1.000000 0.180038
0.688329 1.000000 0.316468
0.687888 1.000000 0.450971
0.687452 1.000000 0.584124
0.687019 1.000000 0.716241
0.686589 1.000000 0.847516
0.686161 1.000000 0.978083
0.853988 0.000000 0.000000
0.853722 0.000000 0.072798
0.853264 0.000000 0.212648
0.852817 0.000000 0.349078
0.852376 0.000000 0.483580
0.851940 0.000000 0.616734
0.851507 0.000000 0.748851
0.851077 0.000000 0.880126
0.850649 0.000000 1.000000
0.849569 0.123900 0.000000
0.849303 0.123635 0.068379
0.848845 0.123176 0.208229
0.848398 0.122729 0.344659
0.847957 0.122289 0.479162
0.847521 0.121853 0.612315
0.847088 0.121420 0.744432
0.846658 0.120990 0.875707
0.846231 0.120562 1.000000
0.845084 0.258067 0.000000
0.844818 0.257801 0.063895
0.844360 0.257343 0.203745
0.843913 0.256896 0.340174
0.843473 0.256456 0.474677
0.843036 0.256019 0.607831
0.842604 0.255586 0.739947
0.842174 0.255156 0.871222
0.841746 0.254729 1.000000
0.840684 0.389691 0.000000
0.840419 0.389425 0.059495
0.839960 0.388967 0.199345
0.839513 0.388520 0.335775
0.839073 0.388080 0.470277
0.838637 0.387643 0.603431
0.838204 0.387211 0.735547
0.837774 0.386781 0.866822
0.837346 0.386353 0.997389
0.836338 0.519712 0.000000
0.836072 0.519446 0.055149
0.835614 0.518988 0.194999
0.835167 0.518541 0.331428
0.834727 0.518101 0.465931
0.834290 0.517665 0.599085
0.833858 0.517232 0.731201
0.833428 0.516802 0.862476
0.833000 0.516374 0.993043
0.832031 0.648561 0.000000
0.831765 0.648295 0.050842
0.831307 0.647837 0.190691
0.830860 0.647390 0.327121
0.830420 0.646949 0.461624
0.829983 0.646513 0.594778
0.829551 0.646080 0.726894
0.829120 0.645650 0.858169
0.828693 0.645223 0.988736
0.827755 0.776486 0.000000
0.827489 0.776220 0.046565
0.827031 0.775762 0.186415
0.826584 0.775315 0.322845
0.826143 0.774875 0.457348
0.825707 0.774438 0.590501
0.825274 0.774006 0.722618
0.824844 0.773576 0.853893
0.824417 0.773148 0.984460
0.823504 0.903650 0.000000
0.823238 0.903384 0.042315
0.822780 0.902926 0.182165
0.822333 0.902479 0.318595
0.821893 0.902039 0.453097
0.821457 0.901602 0.586251
0.821024 0.901170 0.718367
0.820594 0.900740 0.849642
0.820166 0.900312 0.980209
0.820110 1.000000 0.000000
0.819844 1.000000 0.038920
0.819386 1.000000 0.178770
0.818939 1.000000 0.315200
0.818498 1.000000 0.449703
0.818062 1.000000 0.582856
0.817629 1.000000 0.714973
0.817199 1.000000 0.846248
0.816771 1.000000 0.976815
0.983869 0.000000 0.000000
0.983603 0.000000 0.071537
0.983145 0.000000 0.211387
0.982698 0.000000 0.347817
0.982257 0.000000 0.482320
0.981821 0.000000 0.615473
0.981388 0.000000 0.747590
0.980958 0.000000 0.878865
0.980531 0.000000 1.000000
0.979450 0.122639 0.000000
0.979184 0.122374 0.067118
0.978726 0.121915 0.206968
0.978279 0.121469 0.343398
0.977839 0.121028 0.477901
0.977402 0.120592 0.611054
0.976970 0.120159 0.743171
0.976540 0.119729 0.874446
0.976112 0.119301 1.000000
0.974965 0.256806 0.000000
0.974700 0.256540 0.062634
0.974241 0.256082 0.202484
0.973794 0.255635 0.338913
0.973354 0.255195 0.473416
0.972918 0.254758 0.606570
0.972485 0.254326 0.738686
0.972055 0.253895 0.869961
0.971627 0.253468 1.000000
0.970565 0.388430 0.000000
0.970300 0.388164 0.058234
0.969842 0.387706 0.198084
0.969395 0.387259 0.334514
0.968954 0.386819 0.469016
0.968518 0.386383 0.602170
0.968085 0.385950 0.734287
0.967655 0.385520 0.865561
0.967227 0.385092 0.996128
0.966219 0.518451 0.000000
0.965954 0.518186 0.053888
0.965495 0.517727 0.193738
0.965048 0.517280 0.330167
0.964608 0.516840 0.464670
0.964172 0.516404 0.597824
0.963739 0.515971 0.729940
0.963309 0.515541 0.861215
0.962881 0.515113 0.991782
0.961912 0.647300 0.000000
0.961647 0.647034 0.049581
0.961188 0.646576 0.189431
0.960741 0.646129 0.325860
0.960301 0.645689 0.460363
0.959865 0.645252 0.593517
0.959432 0.644819 0.725633
0.959002 0.644389 0.856908
0.958574 0.643962 0.987475
0.957636 0.775225 0.000000
0.957370 0.774959 0.045305
0.956912 0.774501 0.185154
0.956465 0.774054 0.321584
0.956025 0.773614 0.456087
0.955588 0.773178 0.589241
0.955156 0.772745 0.721357
0.954726 0.772315 0.852632
0.954298 0.771887 0.983199
0.953385 0.902389 0.000000
0.953120 0.902123 0.041054
0.952662 0.901665 0.180904
0.952215 0.901218 0.317334
0.951774 0.900778 0.451836
0.951338 0.900341 0.584990
0.950905 0.899909 0.717106
0.950475 0.899479 0.848381
0.950047 0.899051 0.978948
0.949991 1.000000 0.000000
0.949725 1.000000 0.037659
0.949267 1.000000 0.177509
0.948820 1.000000 0.313939
0.948379 1.000000 0.448442
0.947943 1.000000 0.581595
0.947510 1.000000 0.713712
0.947080 1.000000 0.844987
0.946653 1.000000 0.975554
1.000000 0.000000 0.000000
1.000000 0.000000 0.071018
1.000000 0.000000 0.210868
1.000000 0.000000 0.347298
1.000000 0.000000 0.481801
1.000000 0.000000 0.614955
1.000000 0.000000 0.747071
1.000000 0.000000 0.878346
1.000000 0.000000 1.000000
1.000000 0.122121 0.000000
1.000000 0.121855 0.066600
1.000000 0.121397 0.206450
1.000000 0.120950 0.342880
1.000000 0.120509 0.477382
1.000000 0.120073 0.610536
1.000000 0.119640 0.742652
1.000000 0.119210 0.873927
1.000000 0.118782 1.000000
1.000000 0.256287 0.000000
1.000000 0.256022 0.062115
1.000000 0.255563 0.201965
1.000000 0.255116 0.338395
1.000000 0.254676 0.472897
1.000000 0.254240 0.606051
1.000000 0.253807 0.738168
1.000000 0.253377 0.869442
1.000000 0.252949 1.000000
1.000000 0.387911 0.000000
1.000000 0.387646 0.057715
1.000000 0.387188 0.197565
1.000000 0.386741 0.333995
1.000000 0.386300 0.468497
1.000000 0.385864 0.601651
1.000000 0.385431 0.733768
1.000000 0.385001 0.865043
1.000000 0.384573 0.995609
1.000000 0.517932 0.000000
1.000000 0.517667 0.053369
1.000000 0.517209 0.193219
1.000000 0.516762 0.329649
1.000000 0.516321 0.464151
1.000000 0.515885 0.597305
1.000000 0.515452 0.729422
1.000000 0.515022 0.860696
1.000000 0.514594 0.991263
1.000000 0.646781 0.000000
1.000000 0.646516 0.049062
1.000000 0.646057 0.188912
1.000000 0.645610 0.325342
1.000000 0.645170 0.459844
1.000000 0.644734 0.592998
1.000000 0.644301 0.725115
1.000000 0.643871 0.856389
1.000000 0.643443 0.986956
1.000000 0.774706 0.000000
1.000000 0.774441 0.044786
1.000000 0.773983 0.184636
1.000000 0.773536 0.321066
1.000000 0.773095 0.455568
1.000000 0.772659 0.588722
1.000000 0.772226 0.720838
1.000000 0.771796 0.852113
1.000000 0.771368 0.982680
1.000000 0.901870 0.000000
1.000000 0.901605 0.040535
1.000000 0.901147 0.180385
1.000000 0.900700 0.316815
1.000000 0.900259 0.451317
1.000000 0.899823 0.584471
1.000000 0.899390 0.716588
1.000000 0.898960 0.847863
1.000000 0.898532 0.978429
1.000000 1.000000 0.000000
1.000000 1.000000 0.037141
1.000000 1.000000 0.176990
1.000000 1.000000 0.313420
1.000000 1.000000 0.447923
1.000000 1.000000 0.581077
1.000000 1.000000 0.713193
1.000000 1.000000 0.844468
1.000000 1.000000 0.975035
