skills/editops-orchestrator/assets/grade/luts/warm_skin_v19.cube
TITLE "warm_skin_v19"
LUT_3D_SIZE 9
DOMAIN_MIN 0.0 0.0 0.0
DOMAIN_MAX 1.0 1.0 1.0
0.053808 0.000000 0.000000
0.053514 0.000000 0.076135
0.052970 0.000000 0.218272
0.052440 0.000000 0.356503
0.051919 0.000000 0.492571
0.051404 0.000000 0.627135
0.050893 0.000000 0.760546
0.050385 0.000000 0.893025
0.049881 0.000000 1.000000
0.048588 0.132301 0.000000
0.048294 0.132007 0.070915
0.047749 0.131463 0.213052
0.047220 0.130933 0.351283
0.046699 0.130412 0.487350
0.046183 0.129897 0.621914
0.045672 0.129386 0.755326
0.045165 0.128879 0.887805
0.044661 0.128374 1.000000
0.043272 0.267625 0.000000
0.042979 0.267331 0.065600
0.042434 0.266786 0.207737
0.041905 0.266257 0.345968
0.041384 0.265736 0.482035
0.040868 0.265221 0.616599
0.040357 0.264710 0.750011
0.039850 0.264202 0.882490
0.039346 0.263698 1.000000
0.038068 0.400145 0.000000
0.037774 0.399851 0.060395
0.037229 0.399307 0.202532
0.036700 0.398777 0.340763
0.036179 0.398256 0.476830
0.035663 0.397741 0.611394
0.035152 0.397230 0.744806
0.034645 0.396722 0.877285
0.034141 0.396218 1.000000
0.032932 0.530903 0.000000
0.032638 0.530609 0.055259
0.032094 0.530064 0.197396
0.031564 0.529535 0.335627
0.031043 0.529014 0.471695
0.030528 0.528499 0.606258
0.030017 0.527988 0.739670
0.029509 0.527480 0.872149
0.029005 0.526976 1.000000
0.027847 0.660374 0.000000
0.027553 0.660080 0.050174
0.027008 0.659536 0.192311
0.026479 0.659007 0.330542
0.025958 0.658485 0.466609
0.025443 0.657970 0.601173
0.024932 0.657459 0.734585
0.024424 0.656952 0.867064
0.023920 0.656447 0.998760
0.022801 0.788833 0.000000
0.022507 0.788539 0.045129
0.021963 0.787995 0.187266
0.021434 0.787466 0.325496
0.020912 0.786945 0.461564
0.020397 0.786429 0.596128
0.019886 0.785918 0.729540
0.019379 0.785411 0.862019
0.018874 0.784907 0.993714
0.017788 0.916459 0.000000
0.017495 0.916165 0.040116
0.016950 0.915621 0.182253
0.016421 0.915091 0.320484
0.015900 0.914570 0.456551
0.015384 0.914055 0.591115
0.014873 0.913544 0.724527
0.014366 0.913036 0.857006
0.013862 0.912532 0.988702
0.013907 1.000000 0.000000
0.013613 1.000000 0.036235
0.013069 1.000000 0.178372
0.012540 1.000000 0.316602
0.012018 1.000000 0.452670
0.011503 1.000000 0.587234
0.010992 1.000000 0.720646
0.010485 1.000000 0.853125
0.009980 1.000000 0.984821
0.195900 0.000000 0.000000
0.195606 0.000000 0.074521
0.195062 0.000000 0.216658
0.194532 0.000000 0.354889
0.194011 0.000000 0.490956
0.193496 0.000000 0.625520
0.192985 0.000000 0.758932
0.192478 0.000000 0.891411
0.191973 0.000000 1.000000
0.190680 0.130687 0.000000
0.190386 0.130393 0.069300
0.189841 0.129848 0.211437
0.189312 0.129319 0.349668
0.188791 0.128798 0.485736
0.188275 0.128283 0.620300
0.187765 0.127772 0.753712
0.187257 0.127264 0.886191
0.186753 0.126760 1.000000
0.185365 0.266010 0.000000
0.185071 0.265716 0.063985
0.184526 0.265172 0.206122
0.183997 0.264643 0.344353
0.183476 0.264122 0.480421
0.182960 0.263606 0.614985
0.182450 0.263095 0.748397
0.181942 0.262588 0.880875
0.181438 0.262084 1.000000
0.180160 0.398530 0.000000
0.179866 0.398237 0.058781
0.179321 0.397692 0.200917
0.178792 0.397163 0.339148
0.178271 0.396642 0.475216
0.177756 0.396126 0.609780
0.177245 0.395615 0.743192
0.176737 0.395108 0.875671
0.176233 0.394604 1.000000
0.175024 0.529288 0.000000
0.174730 0.528994 0.053645
0.174186 0.528450 0.195782
0.173656 0.527921 0.334012
0.173135 0.527400 0.470080
0.172620 0.526884 0.604644
0.172109 0.526373 0.738056
0.171601 0.525866 0.870535
0.171097 0.525362 1.000000
0.169939 0.658760 0.000000
0.169645 0.658466 0.048560
0.169100 0.657921 0.190697
0.168571 0.657392 0.328927
0.168050 0.656871 0.464995
0.167535 0.656356 0.599559
0.167024 0.655845 0.732971
0.166516 0.655337 0.865450
0.166012 0.654833 0.997145
0.164893 0.787219 0.000000
0.164599 0.786925 0.043514
0.164055 0.786381 0.185651
0.163526 0.785851 0.323882
0.163005 0.785330 0.459950
0.162489 0.784815 0.594513
0.161978 0.784304 0.727925
0.161471 0.783796 0.860404
0.160966 0.783292 0.992100
0.159881 0.914844 0.000000
0.159587 0.914550 0.038501
0.159042 0.914006 0.180638
0.158513 0.913477 0.318869
0.157992 0.912956 0.454937
0.157476 0.912440 0.589501
0.156966 0.911929 0.722913
0.156458 0.911422 0.855392
0.155954 0.910918 0.987087
0.155999 1.000000 0.000000
0.155705 1.000000 0.034620
0.155161 1.000000 0.176757
0.154632 1.000000 0.314988
0.154111 1.000000 0.451056
0.153595 1.000000 0.585619
0.153084 1.000000 0.719031
0.152577 1.000000 0.851510
0.152073 1.000000 0.983206
0.333532 0.000000 0.000000
0.333238 0.000000 0.072957
0.332694 0.000000 0.215094
0.332165 0.000000 0.353325
0.331643 0.000000 0.489392
0.331128 0.000000 0.623956
0.330617 0.000000 0.757368
0.330110 0.000000 0.889847
0.329605 0.000000 1.000000
0.328312 0.129123 0.000000
0.328018 0.128829 0.067737
0.327474 0.128285 0.209874
0.326944 0.127755 0.348104
0.326423 0.127234 0.484172
0.325908 0.126719 0.618736
0.325397 0.126208 0.752148
0.324889 0.125701 0.884627
0.324385 0.125196 1.000000
0.322997 0.264447 0.000000
0.322703 0.264153 0.062422
0.322159 0.263608 0.204559
0.321629 0.263079 0.342789
0.321108 0.262558 0.478857
0.320593 0.262042 0.613421
0.320082 0.261532 0.746833
0.319574 0.261024 0.879312
0.319070 0.260520 1.000000
0.317792 0.396967 0.000000
0.317498 0.396673 0.057217
0.316954 0.396128 0.199354
0.316424 0.395599 0.337584
0.315903 0.395078 0.473652
0.315388 0.394563 0.608216
0.314877 0.394052 0.741628
0.314369 0.393544 0.874107
0.313865 0.393040 1.000000
0.312656 0.527725 0.000000
0.312362 0.527431 0.052081
0.311818 0.526886 0.194218
0.311288 0.526357 0.332449
0.310767 0.525836 0.468516
0.310252 0.525320 0.603080
0.309741 0.524810 0.736492
0.309234 0.524302 0.868971
0.308729 0.523798 1.000000
0.307571 0.657196 0.000000
0.307277 0.656902 0.046996
0.306733 0.656358 0.189133
0.306203 0.655828 0.327364
0.305682 0.655307 0.463431
0.305167 0.654792 0.597995
0.304656 0.654281 0.731407
0.304149 0.653774 0.863886
0.303644 0.653269 0.995582
0.302525 0.785655 0.000000
0.302232 0.785361 0.041950
0.301687 0.784817 0.184087
0.301158 0.784288 0.322318
0.300637 0.783766 0.458386
0.300121 0.783251 0.592950
0.299610 0.782740 0.726362
0.299103 0.782233 0.858840
0.298599 0.781728 0.990536
0.297513 0.913281 0.000000
0.297219 0.912987 0.036938
0.296675 0.912442 0.179075
0.296145 0.911913 0.317305
0.295624 0.911392 0.453373
0.295109 0.910877 0.587937
0.294598 0.910366 0.721349
0.294090 0.909858 0.853828
0.293586 0.909354 0.985524
0.293632 1.000000 0.000000
0.293338 1.000000 0.033056
0.292793 1.000000 0.175193
0.292264 1.000000 0.313424
0.291743 1.000000 0.449492
0.291227 1.000000 0.584056
0.290716 1.000000 0.717468
0.290209 1.000000 0.849947
0.289705 1.000000 0.981642
0.468862 0.000000 0.000000
0.468568 0.000000 0.071420
0.468024 0.000000 0.213556
0.467494 0.000000 0.351787
0.466973 0.000000 0.487855
0.466458 0.000000 0.622419
0.465947 0.000000 0.755831
0.465439 0.000000 0.888310
0.464935 0.000000 1.000000
0.463642 0.127585 0.000000
0.463348 0.127291 0.066199
0.462803 0.126747 0.208336
0.462274 0.126218 0.346567
0.461753 0.125697 0.482635
0.461237 0.125181 0.617198
0.460726 0.124670 0.750610
0.460219 0.124163 0.883089
0.459715 0.123659 1.000000
0.458326 0.262909 0.000000
0.458033 0.262615 0.060884
0.457488 0.262071 0.203021
0.456959 0.261541 0.341252
0.456438 0.261020 0.477319
0.455922 0.260505 0.611883
0.455411 0.259994 0.745295
0.454904 0.259487 0.877774
0.454400 0.258982 1.000000
0.453122 0.395429 0.000000
0.452828 0.395135 0.055679
0.452283 0.394591 0.197816
0.451754 0.394061 0.336047
0.451233 0.393540 0.472115
0.450717 0.393025 0.606678
0.450206 0.392514 0.740090
0.449699 0.392007 0.872569
0.449195 0.391502 1.000000
0.447986 0.526187 0.000000
0.447692 0.525893 0.050543
0.447148 0.525349 0.192680
0.446618 0.524819 0.330911
0.446097 0.524298 0.466979
0.445582 0.523783 0.601543
0.445071 0.523272 0.734955
0.444563 0.522765 0.867434
0.444059 0.522260 0.999129
0.442901 0.655658 0.000000
0.442607 0.655365 0.045458
0.442062 0.654820 0.187595
0.441533 0.654291 0.325826
0.441012 0.653770 0.461894
0.440496 0.653254 0.596458
0.439986 0.652743 0.729869
0.439478 0.652236 0.862348
0.438974 0.651732 0.994044
0.437855 0.784118 0.000000
0.437561 0.783824 0.040413
0.437017 0.783279 0.182550
0.436488 0.782750 0.320781
0.435966 0.782229 0.456848
0.435451 0.781713 0.591412
0.434940 0.781203 0.724824
0.434433 0.780695 0.857303
0.433928 0.780191 0.988999
0.432842 0.911743 0.000000
0.432549 0.911449 0.035400
0.432004 0.910905 0.177537
0.431475 0.910375 0.315768
0.430954 0.909854 0.451836
0.430438 0.909339 0.586399
0.429927 0.908828 0.719811
0.429420 0.908321 0.852290
0.428916 0.907816 0.983986
0.428961 1.000000 0.000000
0.428667 1.000000 0.031519
0.428123 1.000000 0.173656
0.427594 1.000000 0.311887
0.427072 1.000000 0.447954
0.426557 1.000000 0.582518
0.426046 1.000000 0.715930
0.425539 1.000000 0.848409
0.425034 1.000000 0.980105
0.602626 0.000000 0.000000
0.602332 0.000000 0.069900
0.601787 0.000000 0.212037
0.601258 0.000000 0.350267
0.600737 0.000000 0.486335
0.600221 0.000000 0.620899
0.599711 0.000000 0.754311
0.599203 0.000000 0.886790
0.598699 0.000000 1.000000
0.597405 0.126066 0.000000
0.597111 0.125772 0.064679
0.596567 0.125227 0.206816
0.596038 0.124698 0.345047
0.595516 0.124177 0.481115
0.595001 0.123662 0.615679
0.594490 0.123151 0.749090
0.593983 0.122643 0.881569
0.593478 0.122139 1.000000
0.592090 0.261389 0.000000
0.591796 0.261095 0.059364
0.591252 0.260551 0.201501
0.590723 0.260022 0.339732
0.590201 0.259500 0.475800
0.589686 0.258985 0.610364
0.589175 0.258474 0.743775
0.588668 0.257967 0.876254
0.588163 0.257462 1.000000
0.586885 0.393909 0.000000
0.586591 0.393615 0.054159
0.586047 0.393071 0.196296
0.585518 0.392542 0.334527
0.584996 0.392021 0.470595
0.584481 0.391505 0.605159
0.583970 0.390994 0.738570
0.583463 0.390487 0.871049
0.582958 0.389983 1.000000
0.581750 0.524667 0.000000
0.581456 0.524373 0.049024
0.580911 0.523829 0.191161
0.580382 0.523300 0.329391
0.579861 0.522778 0.465459
0.579345 0.522263 0.600023
0.578834 0.521752 0.733435
0.578327 0.521245 0.865914
0.577823 0.520740 0.997610
0.576664 0.654139 0.000000
0.576370 0.653845 0.043938
0.575826 0.653300 0.186075
0.575297 0.652771 0.324306
0.574776 0.652250 0.460374
0.574260 0.651735 0.594938
0.573749 0.651224 0.728350
0.573242 0.650716 0.860829
0.572738 0.650212 0.992524
0.571619 0.782598 0.000000
0.571325 0.782304 0.038893
0.570781 0.781760 0.181030
0.570251 0.781230 0.319261
0.569730 0.780709 0.455328
0.569215 0.780194 0.589892
0.568704 0.779683 0.723304
0.568196 0.779175 0.855783
0.567692 0.778671 0.987479
0.566606 0.910223 0.000000
0.566312 0.909929 0.033880
0.565768 0.909385 0.176017
0.565239 0.908856 0.314248
0.564717 0.908335 0.450316
0.564202 0.907819 0.584880
0.563691 0.907308 0.718291
0.563184 0.906801 0.850770
0.562679 0.906296 0.982466
0.562725 1.000000 0.000000
0.562431 1.000000 0.029999
0.561887 1.000000 0.172136
0.561357 1.000000 0.310367
0.560836 1.000000 0.446434
0.560321 1.000000 0.580998
0.559810 1.000000 0.714410
0.559303 1.000000 0.846889
0.558798 1.000000 0.978585
0.735203 0.000000 0.000000
0.734909 0.000000 0.068393
0.734365 0.000000 0.210530
0.733835 0.000000 0.348761
0.733314 0.000000 0.484829
0.732799 0.000000 0.619393
0.732288 0.000000 0.752805
0.731781 0.000000 0.885283
0.731276 0.000000 1.000000
0.729983 0.124559 0.000000
0.729689 0.124265 0.063173
0.729145 0.123721 0.205310
0.728615 0.123192 0.343541
0.728094 0.122671 0.479608
0.727579 0.122155 0.614172
0.727068 0.121644 0.747584
0.726560 0.121137 0.880063
0.726056 0.120633 1.000000
0.724668 0.259883 0.000000
0.724374 0.259589 0.057858
0.723829 0.259045 0.199995
0.723300 0.258515 0.338226
0.722779 0.257994 0.474293
0.722264 0.257479 0.608857
0.721753 0.256968 0.742269
0.721245 0.256461 0.874748
0.720741 0.255956 1.000000
0.719463 0.392403 0.000000
0.719169 0.392109 0.052653
0.718625 0.391565 0.194790
0.718095 0.391035 0.333021
0.717574 0.390514 0.469088
0.717059 0.389999 0.603652
0.716548 0.389488 0.737064
0.716040 0.388981 0.869543
0.715536 0.388476 1.000000
0.714327 0.523161 0.000000
0.714033 0.522867 0.047517
0.713489 0.522323 0.189654
0.712959 0.521793 0.327885
0.712438 0.521272 0.463953
0.711923 0.520757 0.598517
0.711412 0.520246 0.731928
0.710905 0.519739 0.864407
0.710400 0.519234 0.996103
0.709242 0.652632 0.000000
0.708948 0.652338 0.042432
0.708404 0.651794 0.184569
0.707874 0.651265 0.322800
0.707353 0.650744 0.458868
0.706838 0.650228 0.593431
0.706327 0.649717 0.726843
0.705819 0.649210 0.859322
0.705315 0.648706 0.991018
0.704196 0.781091 0.000000
0.703903 0.780798 0.037387
0.703358 0.780253 0.179524
0.702829 0.779724 0.317754
0.702308 0.779203 0.453822
0.701792 0.778687 0.588386
0.701281 0.778176 0.721798
0.700774 0.777669 0.854277
0.700270 0.777165 0.985973
0.699184 0.908717 0.000000
0.698890 0.908423 0.032374
0.698345 0.907879 0.174511
0.697816 0.907349 0.312742
0.697295 0.906828 0.448809
0.696780 0.906313 0.583373
0.696269 0.905802 0.716785
0.695761 0.905295 0.849264
0.695257 0.904790 0.980960
0.695303 1.000000 0.000000
0.695009 1.000000 0.028493
0.694464 1.000000 0.170630
0.693935 1.000000 0.308860
0.693414 1.000000 0.444928
0.692898 1.000000 0.579492
0.692387 1.000000 0.712904
0.691880 1.000000 0.845383
0.691376 1.000000 0.977079
0.866827 0.000000 0.000000
0.866533 0.000000 0.066898
0.865989 0.000000 0.209035
0.865459 0.000000 0.347266
0.864938 0.000000 0.483333
0.864423 0.000000 0.617897
0.863912 0.000000 0.751309
0.863404 0.000000 0.883788
0.862900 0.000000 1.000000
0.861606 0.123064 0.000000
0.861313 0.122770 0.061678
0.860768 0.122226 0.203815
0.860239 0.121696 0.342045
0.859718 0.121175 0.478113
0.859202 0.120660 0.612677
0.858691 0.120149 0.746089
0.858184 0.119641 0.878568
0.857680 0.119137 1.000000
0.856291 0.258387 0.000000
0.855998 0.258094 0.056363
0.855453 0.257549 0.198499
0.854924 0.257020 0.336730
0.854403 0.256499 0.472798
0.853887 0.255983 0.607362
0.853376 0.255472 0.740774
0.852869 0.254965 0.873253
0.852365 0.254461 1.000000
0.851086 0.390908 0.000000
0.850793 0.390614 0.051158
0.850248 0.390069 0.193295
0.849719 0.389540 0.331525
0.849198 0.389019 0.467593
0.848682 0.388503 0.602157
0.848171 0.387992 0.735569
0.847664 0.387485 0.868048
0.847160 0.386981 0.999743
0.845951 0.521665 0.000000
0.845657 0.521372 0.046022
0.845112 0.520827 0.188159
0.844583 0.520298 0.326390
0.844062 0.519777 0.462457
0.843547 0.519261 0.597021
0.843036 0.518750 0.730433
0.842528 0.518243 0.862912
0.842024 0.517739 0.994608
0.840866 0.651137 0.000000
0.840572 0.650843 0.040937
0.840027 0.650299 0.183074
0.839498 0.649769 0.321304
0.838977 0.649248 0.457372
0.838461 0.648733 0.591936
0.837951 0.648222 0.725348
0.837443 0.647714 0.857827
0.836939 0.647210 0.989523
0.835820 0.779596 0.000000
0.835526 0.779302 0.035891
0.834982 0.778758 0.178028
0.834452 0.778228 0.316259
0.833931 0.777707 0.452327
0.833416 0.777192 0.586891
0.832905 0.776681 0.720302
0.832398 0.776174 0.852781
0.831893 0.775669 0.984477
0.830807 0.907221 0.000000
0.830514 0.906928 0.030879
0.829969 0.906383 0.173016
0.829440 0.905854 0.311246
0.828919 0.905333 0.447314
0.828403 0.904817 0.581878
0.827892 0.904306 0.715290
0.827385 0.903799 0.847769
0.826881 0.903295 0.979464
0.826926 1.000000 0.000000
0.826632 1.000000 0.026997
0.826088 1.000000 0.169134
0.825559 1.000000 0.307365
0.825037 1.000000 0.443433
0.824522 1.000000 0.577997
0.824011 1.000000 0.711408
0.823504 1.000000 0.843887
0.822999 1.000000 0.975583
0.997654 0.000000 0.000000
0.997360 0.000000 0.065412
0.996815 0.000000 0.207548
0.996286 0.000000 0.345779
0.995765 0.000000 0.481847
0.995249 0.000000 0.616411
0.994738 0.000000 0.749823
0.994231 0.000000 0.882302
0.993727 0.000000 1.000000
0.992433 0.121577 0.000000
0.992139 0.121284 0.060191
0.991595 0.120739 0.202328
0.991065 0.120210 0.340559
0.990544 0.119689 0.476627
0.990029 0.119173 0.611190
0.989518 0.118662 0.744602
0.989011 0.118155 0.877081
0.988506 0.117651 1.000000
0.987118 0.256901 0.000000
0.986824 0.256607 0.054876
0.986280 0.256063 0.197013
0.985750 0.255533 0.335244
0.985229 0.255012 0.471312
0.984714 0.254497 0.605875
0.984203 0.253986 0.739287
0.983696 0.253479 0.871766
0.983191 0.252974 1.000000
0.981913 0.389421 0.000000
0.981619 0.389127 0.049671
0.981075 0.388583 0.191808
0.980546 0.388053 0.330039
0.980024 0.387532 0.466107
0.979509 0.387017 0.600670
0.978998 0.386506 0.734082
0.978491 0.385999 0.866561
0.977986 0.385494 0.998257
0.976777 0.520179 0.000000
0.976484 0.519885 0.044535
0.975939 0.519341 0.186672
0.975410 0.518811 0.324903
0.974889 0.518290 0.460971
0.974373 0.517775 0.595535
0.973862 0.517264 0.728947
0.973355 0.516757 0.861426
0.972851 0.516252 0.993121
0.971692 0.649650 0.000000
0.971398 0.649357 0.039450
0.970854 0.648812 0.181587
0.970325 0.648283 0.319818
0.969803 0.647762 0.455886
0.969288 0.647246 0.590450
0.968777 0.646735 0.723861
0.968270 0.646228 0.856340
0.967765 0.645724 0.988036
0.966647 0.778110 0.000000
0.966353 0.777816 0.034405
0.965809 0.777271 0.176542
0.965279 0.776742 0.314773
0.964758 0.776221 0.450840
0.964243 0.775705 0.585404
0.963732 0.775195 0.718816
0.963224 0.774687 0.851295
0.962720 0.774183 0.982991
0.961634 0.905735 0.000000
0.961340 0.905441 0.029392
0.960796 0.904897 0.171529
0.960266 0.904367 0.309760
0.959745 0.903846 0.445828
0.959230 0.903331 0.580391
0.958719 0.902820 0.713803
0.958212 0.902313 0.846282
0.957707 0.901808 0.977978
0.957753 1.000000 0.000000
0.957459 1.000000 0.025511
0.956915 1.000000 0.167648
0.956385 1.000000 0.305879
0.955864 1.000000 0.441946
0.955349 1.000000 0.576510
0.954838 1.000000 0.709922
0.954330 1.000000 0.842401
0.953826 1.000000 0.974097
1.000000 0.000000 0.000000
1.000000 0.000000 0.064886
1.000000 0.000000 0.207023
1.000000 0.000000 0.345253
1.000000 0.000000 0.481321
1.000000 0.000000 0.615885
1.000000 0.000000 0.749297
1.000000 0.000000 0.881776
1.000000 0.000000 1.000000
1.000000 0.121052 0.000000
1.000000 0.120758 0.059665
1.000000 0.120213 0.201802
1.000000 0.119684 0.340033
1.000000 0.119163 0.476101
1.000000 0.118648 0.610665
1.000000 0.118137 0.744076
1.000000 0.117629 0.876555
1.000000 0.117125 1.000000
1.000000 0.256375 0.000000
1.000000 0.256081 0.054350
1.000000 0.255537 0.196487
1.000000 0.255008 0.334718
1.000000 0.254486 0.470786
1.000000 0.253971 0.605350
1.000000 0.253460 0.738761
1.000000 0.252953 0.871240
1.000000 0.252448 1.000000
1.000000 0.388895 0.000000
1.000000 0.388601 0.049145
1.000000 0.388057 0.191282
1.000000 0.387528 0.329513
1.000000 0.387007 0.465581
1.000000 0.386491 0.600145
1.000000 0.385980 0.733557
1.000000 0.385473 0.866035
1.000000 0.384969 0.997731
1.000000 0.519653 0.000000
1.000000 0.519359 0.044010
1.000000 0.518815 0.186147
1.000000 0.518286 0.324377
1.000000 0.517765 0.460445
1.000000 0.517249 0.595009
1.000000 0.516738 0.728421
1.000000 0.516231 0.860900
1.000000 0.515726 0.992596
1.000000 0.649125 0.000000
1.000000 0.648831 0.038925
1.000000 0.648286 0.181061
1.000000 0.647757 0.319292
1.000000 0.647236 0.455360
1.000000 0.646721 0.589924
1.000000 0.646210 0.723336
1.000000 0.645702 0.855815
1.000000 0.645198 0.987510
1.000000 0.777584 0.000000
1.000000 0.777290 0.033879
1.000000 0.776746 0.176016
1.000000 0.776216 0.314247
1.000000 0.775695 0.450314
1.000000 0.775180 0.584878
1.000000 0.774669 0.718290
1.000000 0.774161 0.850769
1.000000 0.773657 0.982465
1.000000 0.905209 0.000000
1.000000 0.904915 0.028866
1.000000 0.904371 0.171003
1.000000 0.903842 0.309234
1.000000 0.903321 0.445302
1.000000 0.902805 0.579866
1.000000 0.902294 0.713277
1.000000 0.901787 0.845756
1.000000 0.901283 0.977452
1.000000 1.000000 0.000000
1.000000 1.000000 0.024985
1.000000 1.000000 0.167122
1.000000 1.000000 0.305353
1.000000 1.000000 0.441420
1.000000 1.000000 0.575984
1.000000 1.000000 0.709396
1.000000 1.000000 0.841875
1.000000 1.000000 0.973571
