skills/editops-orchestrator/assets/grade/luts/warm_skin_v17.cube
TITLE "warm_skin_v17"
LUT_3D_SIZE 17
DOMAIN_MIN 0.0 0.0 0.0
DOMAIN_MAX 1.0 1.0 1.0
0.048928 0.000000 0.000000
0.048903 0.000000 0.007200
0.048663 0.000000 0.080614
0.048432 0.000000 0.151153
0.048204 0.000000 0.220464
0.047980 0.000000 0.288976
0.047758 0.000000 0.356894
0.047537 0.000000 0.424341
0.047317 0.000000 0.491396
0.047098 0.000000 0.558119
0.046881 0.000000 0.624550
0.046664 0.000000 0.690724
0.046448 0.000000 0.756667
0.046232 0.000000 0.822400
0.046018 0.000000 0.887941
0.045804 0.000000 0.953307
0.045590 0.000000 1.000000
0.046811 0.062859 0.000000
0.046786 0.062834 0.005083
0.046546 0.062593 0.078497
0.046314 0.062362 0.149035
0.046087 0.062135 0.218347
0.045863 0.061911 0.286859
0.045640 0.061688 0.354777
0.045419 0.061467 0.422223
0.045200 0.061248 0.489279
0.044981 0.061029 0.556001
0.044764 0.060811 0.622433
0.044547 0.060595 0.688607
0.044331 0.060379 0.754550
0.044115 0.060163 0.820283
0.043901 0.059948 0.885824
0.043687 0.059734 0.951190
0.043473 0.059521 1.000000
0.044510 0.131716 0.000000
0.044484 0.131691 0.002782
0.044244 0.131450 0.076195
0.044013 0.131219 0.146734
0.043786 0.130992 0.216045
0.043561 0.130768 0.284557
0.043339 0.130545 0.352475
0.043118 0.130324 0.419922
0.042898 0.130105 0.486978
0.042680 0.129886 0.553700
0.042462 0.129668 0.620131
0.042245 0.129452 0.686305
0.042029 0.129236 0.752248
0.041814 0.129020 0.817981
0.041599 0.128806 0.883523
0.041385 0.128591 0.948888
0.041171 0.128378 1.000000
0.042253 0.199220 0.000000
0.042228 0.199195 0.000525
0.041987 0.198954 0.073939
0.041756 0.198723 0.144477
0.041529 0.198496 0.213789
0.041305 0.198272 0.282300
0.041082 0.198049 0.350219
0.040861 0.197828 0.417665
0.040642 0.197608 0.484721
0.040423 0.197390 0.551443
0.040205 0.197172 0.617875
0.039989 0.196955 0.684049
0.039773 0.196739 0.749991
0.039557 0.196524 0.815725
0.039343 0.196309 0.881266
0.039128 0.196095 0.946631
0.038915 0.195882 1.000000
0.040025 0.265883 0.000000
0.040000 0.265858 0.000000
0.039759 0.265617 0.071710
0.039528 0.265386 0.142249
0.039301 0.265159 0.211560
0.039076 0.264934 0.280072
0.038854 0.264712 0.347990
0.038633 0.264491 0.415437
0.038413 0.264271 0.482493
0.038195 0.264053 0.549215
0.037977 0.263835 0.615646
0.037760 0.263618 0.681820
0.037544 0.263402 0.747763
0.037329 0.263187 0.813496
0.037114 0.262972 0.879038
0.036900 0.262758 0.944403
0.036687 0.262545 1.000000
0.037817 0.331935 0.000000
0.037792 0.331909 0.000000
0.037551 0.331669 0.069503
0.037320 0.331438 0.140041
0.037093 0.331211 0.209352
0.036869 0.330986 0.277864
0.036646 0.330764 0.345782
0.036425 0.330543 0.413229
0.036205 0.330323 0.480285
0.035987 0.330105 0.547007
0.035769 0.329887 0.613439
0.035552 0.329670 0.679612
0.035336 0.329454 0.745555
0.035121 0.329239 0.811288
0.034906 0.329024 0.876830
0.034692 0.328810 0.942195
0.034479 0.328596 1.000000
0.035625 0.397507 0.000000
0.035600 0.397482 0.000000
0.035359 0.397241 0.067311
0.035128 0.397010 0.137849
0.034901 0.396783 0.207161
0.034677 0.396559 0.275672
0.034454 0.396336 0.343591
0.034233 0.396115 0.411037
0.034014 0.395896 0.478093
0.033795 0.395677 0.544815
0.033577 0.395459 0.611247
0.033361 0.395243 0.677421
0.033145 0.395027 0.743363
0.032929 0.394811 0.809097
0.032714 0.394596 0.874638
0.032500 0.394382 0.940003
0.032287 0.394169 1.000000
0.033446 0.462685 0.000000
0.033421 0.462660 0.000000
0.033181 0.462419 0.065132
0.032950 0.462188 0.135671
0.032722 0.461961 0.204982
0.032498 0.461737 0.273494
0.032275 0.461514 0.341412
0.032055 0.461293 0.408858
0.031835 0.461073 0.475914
0.031616 0.460855 0.542637
0.031399 0.460637 0.609068
0.031182 0.460420 0.675242
0.030966 0.460204 0.741185
0.030750 0.459989 0.806918
0.030536 0.459774 0.872459
0.030322 0.459560 0.937825
0.030108 0.459347 1.000000
0.031279 0.527528 0.000000
0.031254 0.527503 0.000000
0.031013 0.527262 0.062964
0.030782 0.527031 0.133503
0.030555 0.526804 0.202814
0.030330 0.526580 0.271326
0.030108 0.526357 0.339244
0.029887 0.526136 0.406691
0.029667 0.525917 0.473747
0.029449 0.525698 0.540469
0.029231 0.525480 0.606900
0.029014 0.525264 0.673074
0.028798 0.525048 0.739017
0.028583 0.524832 0.804750
0.028368 0.524618 0.870292
0.028154 0.524403 0.935657
0.027941 0.524190 1.000000
0.029121 0.592081 0.000000
0.029096 0.592055 0.000000
0.028855 0.591815 0.060807
0.028624 0.591584 0.131345
0.028397 0.591357 0.200657
0.028173 0.591132 0.269168
0.027950 0.590910 0.337086
0.027729 0.590689 0.404533
0.027510 0.590469 0.471589
0.027291 0.590251 0.538311
0.027073 0.590033 0.604743
0.026857 0.589816 0.670917
0.026641 0.589600 0.736859
0.026425 0.589385 0.802592
0.026210 0.589170 0.868134
0.025996 0.588956 0.933499
0.025783 0.588742 0.998701
0.026972 0.656377 0.000000
0.026947 0.656352 0.000000
0.026706 0.656111 0.058657
0.026475 0.655880 0.129196
0.026248 0.655653 0.198507
0.026023 0.655428 0.267019
0.025801 0.655206 0.334937
0.025580 0.654985 0.402384
0.025360 0.654765 0.469440
0.025142 0.654547 0.536162
0.024924 0.654329 0.602593
0.024707 0.654112 0.668767
0.024491 0.653896 0.734710
0.024276 0.653681 0.800443
0.024061 0.653466 0.865985
0.023847 0.653252 0.931350
0.023633 0.653038 0.996552
0.024830 0.720443 0.000000
0.024805 0.720418 0.000000
0.024565 0.720178 0.056516
0.024333 0.719946 0.127054
0.024106 0.719719 0.196366
0.023882 0.719495 0.264878
0.023659 0.719272 0.332796
0.023438 0.719051 0.400242
0.023219 0.718832 0.467298
0.023000 0.718613 0.534020
0.022783 0.718396 0.600452
0.022566 0.718179 0.666626
0.022350 0.717963 0.732569
0.022134 0.717747 0.798302
0.021920 0.717533 0.863843
0.021706 0.717319 0.929209
0.021492 0.717105 0.994410
0.022696 0.784302 0.000000
0.022670 0.784277 0.000000
0.022430 0.784036 0.054381
0.022199 0.783805 0.124920
0.021972 0.783578 0.194231
0.021747 0.783354 0.262743
0.021525 0.783131 0.330661
0.021304 0.782910 0.398108
0.021084 0.782691 0.465164
0.020866 0.782472 0.531886
0.020648 0.782254 0.598317
0.020431 0.782038 0.664491
0.020215 0.781822 0.730434
0.020000 0.781606 0.796167
0.019785 0.781391 0.861709
0.019571 0.781177 0.927074
0.019357 0.780964 0.992276
0.020567 0.847971 0.000000
0.020542 0.847946 0.000000
0.020302 0.847705 0.052253
0.020071 0.847474 0.122792
0.019843 0.847247 0.192103
0.019619 0.847023 0.260615
0.019397 0.846800 0.328533
0.019176 0.846579 0.395980
0.018956 0.846360 0.463035
0.018737 0.846141 0.529758
0.018520 0.845923 0.596189
0.018303 0.845707 0.662363
0.018087 0.845491 0.728306
0.017872 0.845275 0.794039
0.017657 0.845061 0.859580
0.017443 0.844846 0.924946
0.017229 0.844633 0.990147
0.018445 0.911466 0.000000
0.018420 0.911441 0.000000
0.018179 0.911200 0.050131
0.017948 0.910969 0.120669
0.017721 0.910742 0.189980
0.017497 0.910518 0.258492
0.017274 0.910295 0.326410
0.017053 0.910074 0.393857
0.016833 0.909855 0.460913
0.016615 0.909636 0.527635
0.016397 0.909418 0.594067
0.016180 0.909202 0.660240
0.015964 0.908985 0.726183
0.015749 0.908770 0.791916
0.015534 0.908555 0.857458
0.015320 0.908341 0.922823
0.015107 0.908128 0.988025
0.016328 0.974799 0.000000
0.016303 0.974774 0.000000
0.016062 0.974534 0.048014
0.015831 0.974303 0.118552
0.015604 0.974076 0.187863
0.015380 0.973851 0.256375
0.015157 0.973629 0.324293
0.014936 0.973408 0.391740
0.014716 0.973188 0.458796
0.014498 0.972969 0.525518
0.014280 0.972752 0.591950
0.014063 0.972535 0.658123
0.013847 0.972319 0.724066
0.013632 0.972104 0.789799
0.013417 0.971889 0.855341
0.013203 0.971675 0.920706
0.012990 0.971461 0.985908
0.015050 1.000000 0.000000
0.015025 1.000000 0.000000
0.014785 1.000000 0.046736
0.014554 1.000000 0.117275
0.014327 1.000000 0.186586
0.014102 1.000000 0.255098
0.013880 1.000000 0.323016
0.013659 1.000000 0.390463
0.013439 1.000000 0.457518
0.013220 1.000000 0.524241
0.013003 1.000000 0.590672
0.012786 1.000000 0.656846
0.012570 1.000000 0.722789
0.012355 1.000000 0.788522
0.012140 1.000000 0.854064
0.011926 1.000000 0.919429
0.011712 1.000000 0.984630
0.119867 0.000000 0.000000
0.119842 0.000000 0.006512
0.119601 0.000000 0.079925
0.119370 0.000000 0.150464
0.119143 0.000000 0.219775
0.118919 0.000000 0.288287
0.118696 0.000000 0.356205
0.118475 0.000000 0.423652
0.118255 0.000000 0.490708
0.118037 0.000000 0.557430
0.117819 0.000000 0.623861
0.117602 0.000000 0.690035
0.117386 0.000000 0.755978
0.117171 0.000000 0.821711
0.116956 0.000000 0.887253
0.116742 0.000000 0.952618
0.116529 0.000000 1.000000
0.117750 0.062170 0.000000
0.117725 0.062145 0.004395
0.117484 0.061905 0.077808
0.117253 0.061673 0.148347
0.117026 0.061446 0.217658
0.116801 0.061222 0.286170
0.116579 0.060999 0.354088
0.116358 0.060779 0.421535
0.116138 0.060559 0.488591
0.115920 0.060340 0.555313
0.115702 0.060123 0.621744
0.115485 0.059906 0.687918
0.115269 0.059690 0.753861
0.115054 0.059474 0.819594
0.114839 0.059260 0.885136
0.114625 0.059046 0.950501
0.114412 0.058832 1.000000
0.115448 0.131027 0.000000
0.115423 0.131002 0.002093
0.115182 0.130762 0.075507
0.114951 0.130531 0.146045
0.114724 0.130304 0.215356
0.114500 0.130079 0.283868
0.114277 0.129857 0.351786
0.114056 0.129636 0.419233
0.113837 0.129416 0.486289
0.113618 0.129197 0.553011
0.113400 0.128980 0.619443
0.113184 0.128763 0.685616
0.112968 0.128547 0.751559
0.112752 0.128332 0.817292
0.112538 0.128117 0.882834
0.112323 0.127903 0.948199
0.112110 0.127689 1.000000
0.113192 0.198531 0.000000
0.113166 0.198506 0.000000
0.112926 0.198265 0.073250
0.112695 0.198034 0.143789
0.112468 0.197807 0.213100
0.112243 0.197583 0.281612
0.112021 0.197360 0.349530
0.111800 0.197139 0.416977
0.111580 0.196920 0.484032
0.111362 0.196701 0.550755
0.111144 0.196484 0.617186
0.110927 0.196267 0.683360
0.110711 0.196051 0.749303
0.110496 0.195835 0.815036
0.110281 0.195621 0.880578
0.110067 0.195407 0.945943
0.109853 0.195193 1.000000
0.110963 0.265194 0.000000
0.110938 0.265169 0.000000
0.110698 0.264928 0.071022
0.110467 0.264697 0.141560
0.110239 0.264470 0.210872
0.110015 0.264246 0.279383
0.109793 0.264023 0.347302
0.109572 0.263802 0.414748
0.109352 0.263583 0.481804
0.109133 0.263364 0.548526
0.108916 0.263146 0.614958
0.108699 0.262930 0.681132
0.108483 0.262714 0.747074
0.108268 0.262498 0.812808
0.108053 0.262284 0.878349
0.107839 0.262069 0.943714
0.107625 0.261856 1.000000
0.108755 0.331246 0.000000
0.108730 0.331221 0.000000
0.108490 0.330980 0.068814
0.108259 0.330749 0.139352
0.108032 0.330522 0.208664
0.107807 0.330298 0.277175
0.107585 0.330075 0.345094
0.107364 0.329854 0.412540
0.107144 0.329635 0.479596
0.106925 0.329416 0.546318
0.106708 0.329198 0.612750
0.106491 0.328982 0.678924
0.106275 0.328766 0.744866
0.106060 0.328550 0.810600
0.105845 0.328335 0.876141
0.105631 0.328121 0.941506
0.105417 0.327908 1.000000
0.106563 0.396818 0.000000
0.106538 0.396793 0.000000
0.106298 0.396553 0.066622
0.106067 0.396321 0.137161
0.105840 0.396094 0.206472
0.105615 0.395870 0.274984
0.105393 0.395647 0.342902
0.105172 0.395427 0.410348
0.104952 0.395207 0.477404
0.104734 0.394988 0.544127
0.104516 0.394771 0.610558
0.104299 0.394554 0.676732
0.104083 0.394338 0.742675
0.103868 0.394122 0.808408
0.103653 0.393908 0.873949
0.103439 0.393694 0.939315
0.103225 0.393480 1.000000
0.104385 0.461996 0.000000
0.104360 0.461971 0.000000
0.104119 0.461730 0.064443
0.103888 0.461499 0.134982
0.103661 0.461272 0.204293
0.103437 0.461048 0.272805
0.103214 0.460825 0.340723
0.102993 0.460604 0.408170
0.102773 0.460385 0.475226
0.102555 0.460166 0.541948
0.102337 0.459949 0.608379
0.102120 0.459732 0.674553
0.101904 0.459516 0.740496
0.101689 0.459300 0.806229
0.101474 0.459086 0.871771
0.101260 0.458872 0.937136
0.101047 0.458658 1.000000
0.102217 0.526839 0.000000
0.102192 0.526814 0.000000
0.101952 0.526574 0.062276
0.101721 0.526343 0.132814
0.101493 0.526115 0.202126
0.101269 0.525891 0.270637
0.101047 0.525669 0.338556
0.100826 0.525448 0.406002
0.100606 0.525228 0.473058
0.100387 0.525009 0.539780
0.100170 0.524792 0.606212
0.099953 0.524575 0.672386
0.099737 0.524359 0.738328
0.099522 0.524144 0.804062
0.099307 0.523929 0.869603
0.099093 0.523715 0.934968
0.098879 0.523501 1.000000
0.100059 0.591392 0.000000
0.100034 0.591367 0.000000
0.099794 0.591126 0.060118
0.099563 0.590895 0.130657
0.099336 0.590668 0.199968
0.099111 0.590444 0.268480
0.098889 0.590221 0.336398
0.098668 0.590000 0.403844
0.098448 0.589781 0.470900
0.098229 0.589562 0.537623
0.098012 0.589344 0.604054
0.097795 0.589128 0.670228
0.097579 0.588912 0.736171
0.097364 0.588696 0.801904
0.097149 0.588481 0.867445
0.096935 0.588267 0.932811
0.096721 0.588054 0.998012
0.097910 0.655688 0.000000
0.097885 0.655663 0.000000
0.097645 0.655422 0.057969
0.097414 0.655191 0.128507
0.097186 0.654964 0.197819
0.096962 0.654740 0.266330
0.096739 0.654517 0.334249
0.096519 0.654296 0.401695
0.096299 0.654077 0.468751
0.096080 0.653858 0.535473
0.095863 0.653640 0.601905
0.095646 0.653424 0.668079
0.095430 0.653208 0.734021
0.095214 0.652992 0.799755
0.095000 0.652778 0.865296
0.094786 0.652563 0.930661
0.094572 0.652350 0.995863
0.095769 0.719754 0.000000
0.095744 0.719729 0.000000
0.095503 0.719489 0.055827
0.095272 0.719258 0.126366
0.095045 0.719031 0.195677
0.094820 0.718806 0.264189
0.094598 0.718584 0.332107
0.094377 0.718363 0.399554
0.094157 0.718143 0.466610
0.093939 0.717925 0.533332
0.093721 0.717707 0.599763
0.093504 0.717490 0.665937
0.093288 0.717274 0.731880
0.093073 0.717059 0.797613
0.092858 0.716844 0.863155
0.092644 0.716630 0.928520
0.092430 0.716416 0.993722
0.093634 0.783613 0.000000
0.093609 0.783588 0.000000
0.093368 0.783348 0.053693
0.093137 0.783116 0.124231
0.092910 0.782889 0.193542
0.092686 0.782665 0.262054
0.092463 0.782442 0.329972
0.092242 0.782222 0.397419
0.092023 0.782002 0.464475
0.091804 0.781783 0.531197
0.091586 0.781566 0.597629
0.091370 0.781349 0.663802
0.091154 0.781133 0.729745
0.090938 0.780917 0.795478
0.090724 0.780703 0.861020
0.090509 0.780489 0.926385
0.090296 0.780275 0.991587
0.091506 0.847282 0.000000
0.091481 0.847257 0.000000
0.091240 0.847017 0.051564
0.091009 0.846786 0.122103
0.090782 0.846559 0.191414
0.090558 0.846334 0.259926
0.090335 0.846112 0.327844
0.090114 0.845891 0.395291
0.089894 0.845671 0.462347
0.089676 0.845452 0.529069
0.089458 0.845235 0.595500
0.089241 0.845018 0.661674
0.089025 0.844802 0.727617
0.088810 0.844587 0.793350
0.088595 0.844372 0.858892
0.088381 0.844158 0.924257
0.088168 0.843944 0.989459
0.089383 0.910777 0.000000
0.089358 0.910752 0.000000
0.089118 0.910512 0.049442
0.088887 0.910280 0.119980
0.088660 0.910053 0.189292
0.088435 0.909829 0.257803
0.088213 0.909606 0.325722
0.087992 0.909385 0.393168
0.087772 0.909166 0.460224
0.087553 0.908947 0.526946
0.087336 0.908730 0.593378
0.087119 0.908513 0.659552
0.086903 0.908297 0.725495
0.086688 0.908081 0.791228
0.086473 0.907867 0.856769
0.086259 0.907653 0.922135
0.086045 0.907439 0.987336
0.087266 0.974111 0.000000
0.087241 0.974086 0.000000
0.087001 0.973845 0.047325
0.086770 0.973614 0.117863
0.086543 0.973387 0.187175
0.086318 0.973162 0.255686
0.086096 0.972940 0.323605
0.085875 0.972719 0.391051
0.085655 0.972499 0.458107
0.085436 0.972281 0.524829
0.085219 0.972063 0.591261
0.085002 0.971846 0.657435
0.084786 0.971630 0.723377
0.084571 0.971415 0.789111
0.084356 0.971200 0.854652
0.084142 0.970986 0.920017
0.083928 0.970772 0.985219
0.085989 1.000000 0.000000
0.085964 1.000000 0.000000
0.085723 1.000000 0.046047
0.085492 1.000000 0.116586
0.085265 1.000000 0.185897
0.085041 1.000000 0.254409
0.084818 1.000000 0.322327
0.084597 1.000000 0.389774
0.084378 1.000000 0.456830
0.084159 1.000000 0.523552
0.083941 1.000000 0.589983
0.083725 1.000000 0.656157
0.083508 1.000000 0.722100
0.083293 1.000000 0.787833
0.083078 1.000000 0.853375
0.082864 1.000000 0.918740
0.082651 1.000000 0.983942
0.189199 0.000000 0.000000
0.189174 0.000000 0.005839
0.188933 0.000000 0.079252
0.188702 0.000000 0.149791
0.188475 0.000000 0.219102
0.188251 0.000000 0.287614
0.188028 0.000000 0.355532
0.187807 0.000000 0.422979
0.187588 0.000000 0.490035
0.187369 0.000000 0.556757
0.187151 0.000000 0.623188
0.186935 0.000000 0.689362
0.186719 0.000000 0.755305
0.186503 0.000000 0.821038
0.186288 0.000000 0.886580
0.186074 0.000000 0.951945
0.185861 0.000000 1.000000
0.187082 0.061497 0.000000
0.187057 0.061472 0.003722
0.186816 0.061231 0.077135
0.186585 0.061000 0.147674
0.186358 0.060773 0.216985
0.186134 0.060549 0.285497
0.185911 0.060326 0.353415
0.185690 0.060105 0.420862
0.185471 0.059886 0.487917
0.185252 0.059667 0.554640
0.185034 0.059450 0.621071
0.184818 0.059233 0.687245
0.184601 0.059017 0.753188
0.184386 0.058801 0.818921
0.184171 0.058587 0.884463
0.183957 0.058373 0.949828
0.183744 0.058159 1.000000
0.184780 0.130354 0.000000
0.184755 0.130329 0.001420
0.184515 0.130089 0.074833
0.184283 0.129858 0.145372
0.184056 0.129630 0.214683
0.183832 0.129406 0.283195
0.183609 0.129183 0.351113
0.183389 0.128963 0.418560
0.183169 0.128743 0.485616
0.182950 0.128524 0.552338
0.182733 0.128307 0.618769
0.182516 0.128090 0.684943
0.182300 0.127874 0.750886
0.182084 0.127658 0.816619
0.181870 0.127444 0.882161
0.181656 0.127230 0.947526
0.181442 0.127016 1.000000
0.182524 0.197858 0.000000
0.182499 0.197833 0.000000
0.182258 0.197592 0.072577
0.182027 0.197361 0.143116
0.181800 0.197134 0.212427
0.181576 0.196910 0.280939
0.181353 0.196687 0.348857
0.181132 0.196466 0.416304
0.180912 0.196247 0.483359
0.180694 0.196028 0.550082
0.180476 0.195810 0.616513
0.180259 0.195594 0.682687
0.180043 0.195378 0.748630
0.179828 0.195162 0.814363
0.179613 0.194948 0.879904
0.179399 0.194733 0.945270
0.179186 0.194520 1.000000
0.180295 0.264521 0.000000
0.180270 0.264496 0.000000
0.180030 0.264255 0.070349
0.179799 0.264024 0.140887
0.179572 0.263797 0.210199
0.179347 0.263573 0.278710
0.179125 0.263350 0.346628
0.178904 0.263129 0.414075
0.178684 0.262910 0.481131
0.178465 0.262691 0.547853
0.178248 0.262473 0.614285
0.178031 0.262257 0.680459
0.177815 0.262041 0.746401
0.177600 0.261825 0.812134
0.177385 0.261610 0.877676
0.177171 0.261396 0.943041
0.176957 0.261183 1.000000
0.178088 0.330573 0.000000
0.178062 0.330548 0.000000
0.177822 0.330307 0.068141
0.177591 0.330076 0.138679
0.177364 0.329849 0.207991
0.177139 0.329625 0.276502
0.176917 0.329402 0.344421
0.176696 0.329181 0.411867
0.176476 0.328961 0.478923
0.176258 0.328743 0.545645
0.176040 0.328525 0.612077
0.175823 0.328308 0.678251
0.175607 0.328092 0.744193
0.175392 0.327877 0.809927
0.175177 0.327662 0.875468
0.174963 0.327448 0.940833
0.174749 0.327235 1.000000
0.175896 0.396145 0.000000
0.175870 0.396120 0.000000
0.175630 0.395879 0.065949
0.175399 0.395648 0.136487
0.175172 0.395421 0.205799
0.174947 0.395197 0.274310
0.174725 0.394974 0.342229
0.174504 0.394753 0.409675
0.174284 0.394534 0.476731
0.174066 0.394315 0.543453
0.173848 0.394098 0.609885
0.173631 0.393881 0.676059
0.173415 0.393665 0.742001
0.173200 0.393449 0.807735
0.172985 0.393235 0.873276
0.172771 0.393021 0.938641
0.172557 0.392807 1.000000
0.173717 0.461323 0.000000
0.173692 0.461298 0.000000
0.173451 0.461057 0.063770
0.173220 0.460826 0.134309
0.172993 0.460599 0.203620
0.172769 0.460375 0.272132
0.172546 0.460152 0.340050
0.172325 0.459931 0.407497
0.172106 0.459712 0.474552
0.171887 0.459493 0.541275
0.171669 0.459275 0.607706
0.171453 0.459059 0.673880
0.171237 0.458843 0.739823
0.171021 0.458627 0.805556
0.170806 0.458413 0.871098
0.170592 0.458198 0.936463
0.170379 0.457985 1.000000
0.171549 0.526166 0.000000
0.171524 0.526141 0.000000
0.171284 0.525901 0.061603
0.171053 0.525669 0.132141
0.170826 0.525442 0.201453
0.170601 0.525218 0.269964
0.170379 0.524995 0.337882
0.170158 0.524774 0.405329
0.169938 0.524555 0.472385
0.169719 0.524336 0.539107
0.169502 0.524119 0.605539
0.169285 0.523902 0.671713
0.169069 0.523686 0.737655
0.168854 0.523470 0.803388
0.168639 0.523256 0.868930
0.168425 0.523042 0.934295
0.168211 0.522828 0.999497
0.169392 0.590719 0.000000
0.169366 0.590694 0.000000
0.169126 0.590453 0.059445
0.168895 0.590222 0.129983
0.168668 0.589995 0.199295
0.168443 0.589771 0.267806
0.168221 0.589548 0.335725
0.168000 0.589327 0.403171
0.167780 0.589107 0.470227
0.167562 0.588889 0.536949
0.167344 0.588671 0.603381
0.167127 0.588454 0.669555
0.166911 0.588238 0.735497
0.166696 0.588023 0.801231
0.166481 0.587808 0.866772
0.166267 0.587594 0.932137
0.166053 0.587381 0.997339
0.167242 0.655015 0.000000
0.167217 0.654990 0.000000
0.166977 0.654749 0.057296
0.166746 0.654518 0.127834
0.166519 0.654291 0.197146
0.166294 0.654067 0.265657
0.166072 0.653844 0.333575
0.165851 0.653623 0.401022
0.165631 0.653404 0.468078
0.165412 0.653185 0.534800
0.165195 0.652967 0.601232
0.164978 0.652751 0.667406
0.164762 0.652534 0.733348
0.164547 0.652319 0.799081
0.164332 0.652104 0.864623
0.164118 0.651890 0.929988
0.163904 0.651677 0.995190
0.165101 0.719081 0.000000
0.165076 0.719056 0.000000
0.164835 0.718816 0.055154
0.164604 0.718585 0.125693
0.164377 0.718358 0.195004
0.164153 0.718133 0.263516
0.163930 0.717911 0.331434
0.163709 0.717690 0.398881
0.163489 0.717470 0.465936
0.163271 0.717251 0.532659
0.163053 0.717034 0.599090
0.162836 0.716817 0.665264
0.162620 0.716601 0.731207
0.162405 0.716386 0.796940
0.162190 0.716171 0.862482
0.161976 0.715957 0.927847
0.161763 0.715743 0.993048
0.162966 0.782940 0.000000
0.162941 0.782915 0.000000
0.162701 0.782674 0.053019
0.162470 0.782443 0.123558
0.162242 0.782216 0.192869
0.162018 0.781992 0.261381
0.161796 0.781769 0.329299
0.161575 0.781548 0.396746
0.161355 0.781329 0.463802
0.161136 0.781110 0.530524
0.160919 0.780893 0.596956
0.160702 0.780676 0.663129
0.160486 0.780460 0.729072
0.160271 0.780244 0.794805
0.160056 0.780030 0.860347
0.159842 0.779815 0.925712
0.159628 0.779602 0.990914
0.160838 0.846609 0.000000
0.160813 0.846584 0.000000
0.160572 0.846344 0.050891
0.160341 0.846113 0.121430
0.160114 0.845885 0.190741
0.159890 0.845661 0.259253
0.159667 0.845439 0.327171
0.159446 0.845218 0.394618
0.159227 0.844998 0.461674
0.159008 0.844779 0.528396
0.158790 0.844562 0.594827
0.158574 0.844345 0.661001
0.158358 0.844129 0.726944
0.158142 0.843914 0.792677
0.157928 0.843699 0.858219
0.157713 0.843485 0.923584
0.157500 0.843271 0.988786
0.158716 0.910104 0.000000
0.158690 0.910079 0.000000
0.158450 0.909838 0.048769
0.158219 0.909607 0.119307
0.157992 0.909380 0.188619
0.157767 0.909156 0.257130
0.157545 0.908933 0.325049
0.157324 0.908712 0.392495
0.157104 0.908493 0.459551
0.156886 0.908274 0.526273
0.156668 0.908056 0.592705
0.156451 0.907840 0.658879
0.156235 0.907624 0.724821
0.156020 0.907408 0.790555
0.155805 0.907194 0.856096
0.155591 0.906979 0.921461
0.155377 0.906766 0.986663
0.156599 0.973438 0.000000
0.156573 0.973412 0.000000
0.156333 0.973172 0.046652
0.156102 0.972941 0.117190
0.155875 0.972714 0.186502
0.155650 0.972489 0.255013
0.155428 0.972267 0.322932
0.155207 0.972046 0.390378
0.154987 0.971826 0.457434
0.154769 0.971608 0.524156
0.154551 0.971390 0.590588
0.154334 0.971173 0.656762
0.154118 0.970957 0.722704
0.153903 0.970742 0.788438
0.153688 0.970527 0.853979
0.153474 0.970313 0.919344
0.153260 0.970099 0.984546
0.155321 1.000000 0.000000
0.155296 1.000000 0.000000
0.155055 1.000000 0.045374
0.154824 1.000000 0.115913
0.154597 1.000000 0.185224
0.154373 1.000000 0.253736
0.154150 1.000000 0.321654
0.153929 1.000000 0.389101
0.153710 1.000000 0.456157
0.153491 1.000000 0.522879
0.153273 1.000000 0.589310
0.153057 1.000000 0.655484
0.152841 1.000000 0.721427
0.152625 1.000000 0.787160
0.152411 1.000000 0.852702
0.152196 1.000000 0.918067
0.151983 1.000000 0.983269
0.257592 0.000000 0.000000
0.257567 0.000000 0.005175
0.257327 0.000000 0.078588
0.257096 0.000000 0.149127
0.256869 0.000000 0.218438
0.256644 0.000000 0.286950
0.256422 0.000000 0.354868
0.256201 0.000000 0.422315
0.255981 0.000000 0.489371
0.255762 0.000000 0.556093
0.255545 0.000000 0.622524
0.255328 0.000000 0.688698
0.255112 0.000000 0.754641
0.254897 0.000000 0.820374
0.254682 0.000000 0.885916
0.254468 0.000000 0.951281
0.254254 0.000000 1.000000
0.255475 0.060833 0.000000
