skills/editops-orchestrator/assets/grade/luts/warm_skin_v04.cube
TITLE "warm_skin_v04"
LUT_3D_SIZE 5
DOMAIN_MIN 0.0 0.0 0.0
DOMAIN_MAX 1.0 1.0 1.0
0.020941 0.000033 0.000033
0.021065 0.000157 0.232022
0.021199 0.000291 0.482073
0.021332 0.000424 0.730101
0.021464 0.000556 0.976850
0.022286 0.254667 0.001378
0.022410 0.254792 0.233366
0.022544 0.254926 0.483418
0.022677 0.255059 0.731446
0.022809 0.255191 0.978194
0.023611 0.505685 0.002703
0.023736 0.505809 0.234692
0.023869 0.505943 0.484743
0.024002 0.506076 0.732771
0.024135 0.506208 0.979520
0.024927 0.754767 0.004019
0.025051 0.754891 0.236007
0.025185 0.755025 0.486059
0.025318 0.755158 0.734087
0.025450 0.755290 0.980835
0.026211 0.997934 0.005303
0.026335 0.998059 0.237291
0.026469 0.998193 0.487343
0.026602 0.998326 0.735371
0.026734 0.998458 0.982120
0.275122 0.000434 0.000434
0.275246 0.000558 0.232422
0.275380 0.000692 0.482473
0.275513 0.000825 0.730502
0.275645 0.000957 0.977250
0.276466 0.255068 0.001778
0.276591 0.255192 0.233767
0.276725 0.255326 0.483818
0.276857 0.255459 0.731846
0.276990 0.255591 0.978595
0.277792 0.506085 0.003104
0.277916 0.506210 0.235092
0.278050 0.506343 0.485144
0.278183 0.506476 0.733172
0.278315 0.506609 0.979920
0.279107 0.755167 0.004419
0.279232 0.755291 0.236408
0.279366 0.755425 0.486459
0.279498 0.755558 0.734487
0.279631 0.755690 0.981236
0.280392 0.998335 0.005703
0.280516 0.998459 0.237692
0.280650 0.998593 0.487743
0.280783 0.998726 0.735771
0.280915 0.998858 0.982520
0.524995 0.000827 0.000827
0.525119 0.000951 0.232816
0.525253 0.001085 0.482867
0.525386 0.001218 0.730895
0.525518 0.001350 0.977644
0.526340 0.255462 0.002172
0.526464 0.255586 0.234160
0.526598 0.255720 0.484212
0.526731 0.255853 0.732240
0.526863 0.255985 0.978989
0.527665 0.506479 0.003498
0.527790 0.506603 0.235486
0.527924 0.506737 0.485537
0.528056 0.506870 0.733566
0.528189 0.507002 0.980314
0.528981 0.755561 0.004813
0.529105 0.755685 0.236801
0.529239 0.755819 0.486853
0.529372 0.755952 0.734881
0.529504 0.756084 0.981630
0.530265 0.998729 0.006097
0.530389 0.998853 0.238086
0.530523 0.998987 0.488137
0.530656 0.999120 0.736165
0.530788 0.999252 0.982914
0.773028 0.001218 0.001218
0.773152 0.001342 0.233207
0.773286 0.001476 0.483258
0.773419 0.001609 0.731286
0.773551 0.001741 0.978035
0.774373 0.255853 0.002563
0.774497 0.255977 0.234551
0.774631 0.256111 0.484603
0.774764 0.256244 0.732631
0.774896 0.256376 0.979379
0.775698 0.506870 0.003888
0.775823 0.506994 0.235877
0.775956 0.507128 0.485928
0.776089 0.507261 0.733956
0.776221 0.507393 0.980705
0.777014 0.755952 0.005204
0.777138 0.756076 0.237192
0.777272 0.756210 0.487244
0.777405 0.756343 0.735272
0.777537 0.756475 0.982020
0.778298 0.999120 0.006488
0.778422 0.999244 0.238476
0.778556 0.999378 0.488528
0.778689 0.999511 0.736556
0.778821 0.999643 0.983305
0.994198 0.001567 0.001567
0.994322 0.001691 0.233555
0.994456 0.001825 0.483606
0.994589 0.001958 0.731635
0.994721 0.002090 0.978383
0.995543 0.256201 0.002911
0.995667 0.256325 0.234900
0.995801 0.256459 0.484951
0.995934 0.256592 0.732979
0.996066 0.256724 0.979728
0.996868 0.507218 0.004237
0.996993 0.507343 0.236225
0.997127 0.507476 0.486277
0.997260 0.507609 0.734305
0.997392 0.507742 0.981053
0.998184 0.756300 0.005552
0.998308 0.756424 0.237541
0.998442 0.756558 0.487592
0.998575 0.756691 0.735620
0.998707 0.756823 0.982369
0.999468 0.999468 0.006836
0.999592 0.999592 0.238825
0.999726 0.999726 0.488876
0.999859 0.999859 0.736904
0.999991 0.999991 0.983653
