skills/editops-orchestrator/assets/grade/luts/warm_skin_v12.cube
TITLE "warm_skin_v12"
LUT_3D_SIZE 5
DOMAIN_MIN 0.0 0.0 0.0
DOMAIN_MAX 1.0 1.0 1.0
0.037401 0.000000 0.000000
0.036982 0.000000 0.225446
0.036495 0.000000 0.488151
0.036015 0.000000 0.746721
0.035541 0.000000 1.000000
0.032511 0.261545 0.000000
0.032093 0.261126 0.220556
0.031605 0.260639 0.483261
0.031126 0.260160 0.741832
0.030651 0.259685 0.997854
0.027700 0.519105 0.000000
0.027281 0.518686 0.215745
0.026794 0.518199 0.478450
0.026314 0.517719 0.737020
0.025839 0.517244 0.993042
0.022957 0.772955 0.000000
0.022539 0.772536 0.211003
0.022052 0.772049 0.473708
0.021572 0.771570 0.732278
0.021097 0.771095 0.988300
0.018580 1.000000 0.000000
0.018161 1.000000 0.206625
0.017674 1.000000 0.469330
0.017194 1.000000 0.727900
0.016720 1.000000 0.983922
0.305363 0.000000 0.000000
0.304944 0.000000 0.223977
0.304457 0.000000 0.486682
0.303977 0.000000 0.745253
0.303502 0.000000 1.000000
0.300473 0.260076 0.000000
0.300054 0.259658 0.219087
0.299567 0.259171 0.481793
0.299088 0.258691 0.740363
0.298613 0.258216 0.996385
0.295661 0.517636 0.000000
0.295243 0.517217 0.214276
0.294756 0.516730 0.476981
0.294276 0.516251 0.735551
0.293801 0.515776 0.991573
0.290919 0.771486 0.000000
0.290501 0.771068 0.209534
0.290013 0.770580 0.472239
0.289534 0.770101 0.730809
0.289059 0.769626 0.986831
0.286542 1.000000 0.000000
0.286123 1.000000 0.205156
0.285636 1.000000 0.467861
0.285156 1.000000 0.726431
0.284681 1.000000 0.982454
0.565576 0.000000 0.000000
0.565157 0.000000 0.222551
0.564670 0.000000 0.485256
0.564191 0.000000 0.743826
0.563716 0.000000 0.999848
0.560686 0.258650 0.000000
0.560268 0.258231 0.217661
0.559780 0.257744 0.480366
0.559301 0.257265 0.738936
0.558826 0.256790 0.994959
0.555875 0.516210 0.000000
0.555456 0.515791 0.212850
0.554969 0.515304 0.475555
0.554489 0.514824 0.734125
0.554015 0.514349 0.990147
0.551133 0.770060 0.000000
0.550714 0.769641 0.208108
0.550227 0.769154 0.470813
0.549747 0.768675 0.729383
0.549272 0.768200 0.985405
0.546755 1.000000 0.000000
0.546336 1.000000 0.203730
0.545849 1.000000 0.466435
0.545370 1.000000 0.725005
0.544895 1.000000 0.981027
0.822333 0.000000 0.000000
0.821914 0.000000 0.221144
0.821427 0.000000 0.483849
0.820947 0.000000 0.742419
0.820473 0.000000 0.998441
0.817443 0.257243 0.000000
0.817024 0.256824 0.216254
0.816537 0.256337 0.478959
0.816058 0.255857 0.737529
0.815583 0.255382 0.993551
0.812631 0.514802 0.000000
0.812213 0.514384 0.211442
0.811726 0.513897 0.474148
0.811246 0.513417 0.732718
0.810771 0.512942 0.988740
0.807889 0.768653 0.000000
0.807471 0.768234 0.206700
0.806984 0.767747 0.469405
0.806504 0.767267 0.727976
0.806029 0.766792 0.983998
0.803512 1.000000 0.000000
0.803093 1.000000 0.202323
0.802606 1.000000 0.465028
0.802126 1.000000 0.723598
0.801651 1.000000 0.979620
1.000000 0.000000 0.000000
1.000000 0.000000 0.220056
1.000000 0.000000 0.482761
1.000000 0.000000 0.741332
1.000000 0.000000 0.997354
1.000000 0.256155 0.000000
1.000000 0.255737 0.215166
1.000000 0.255250 0.477872
1.000000 0.254770 0.736442
1.000000 0.254295 0.992464
1.000000 0.513715 0.000000
1.000000 0.513296 0.210355
1.000000 0.512809 0.473060
1.000000 0.512330 0.731630
1.000000 0.511855 0.987652
1.000000 0.767565 0.000000
1.000000 0.767147 0.205613
1.000000 0.766659 0.468318
1.000000 0.766180 0.726888
1.000000 0.765705 0.982910
1.000000 1.000000 0.000000
1.000000 1.000000 0.201235
1.000000 1.000000 0.463940
1.000000 1.000000 0.722510
1.000000 1.000000 0.978533
